%
(CUPBOARD_REDO_DRILL_5MM_V1)
(MACHINE)
(  MODEL LASER SNAKE V2)
(  DESCRIPTION 3-AXIS ROUTER)
(T2  D=5. CR=0. TAPER=118DEG - ZMIN=-18.502 - DRILL)
N10 G90 G94 G17 G91.1
N15 G21
N20 G53 G0 Z0.
(DRILL4)
N25 T2 M6
N30 S10000 M3
N35 G54
N40 G0 X163.641 Y-450.
N45 G43 Z15. H2
N50 G0 Z5.
N55 G98 G81 X163.641 Y-450. Z-18.502 R5. F100.
N60 X183.641
N65 X203.641
N70 X223.641
N75 X243.641
N80 Y-275.
N85 X223.641
N90 X203.641
N95 X183.641
N100 X163.641
N105 Y-100.
N110 X183.641
N115 X203.641
N120 X223.641
N125 X243.641
N130 G80
N135 G0 Z15.
N140 G53 G0 Z0.
N145 G53 G0 X0. Y0.
N150 M30
%
