%
(CUPBOARD_1_2MM_DRILL)
(T1  D=2. CR=0. TAPER=118DEG - ZMIN=-17.601 - DRILL)
N10 G90 G94 G17 G91.1
N15 G21
N20 G53 G0 Z0.
(DRILL1)
N25 T1 M6
N30 S10000 M3
N35 G54
N40 G0 X15. Y-16.75
N45 G43 Z15. H1
N50 G0 Z5.
N55 G98 G81 X15. Y-16.75 Z-17.601 R5. F150.
N60 X225.
N65 X435.
N70 X400.5 Y-60.
N75 X336.5
N80 Y-124.
N85 X400.5
N90 X336.5 Y-654.5
N95 X400.5
N100 X435. Y-622.5
N105 X400.5 Y-590.5
N110 X336.5
N115 X225. Y-622.5
N120 X96. Y-654.5
N125 X32.
N130 X15. Y-622.5
N135 X32. Y-590.5
N140 X96.
N145 X400. Y-1341.174
N150 X435. Y-1228.25
N155 X400.5 Y-1185.
N160 X336.5
N165 Y-1121.
N170 X400.5
N175 X225. Y-1228.25
N180 X15.
N185 X25. Y-1341.174
N190 Y-1641.174
N195 Y-1995.174
N200 X400.
N205 G80
N210 G0 Z15.
(DRILL1 2)
N215 G0 X400. Y-1667.674
N220 Z15.
N225 Z5.
N230 G81 X400. Y-1667.674 Z-11. R5. F150.
N235 Y-1518.924
N240 Y-1498.924
N245 Y-1478.924
N250 Y-1458.924
N255 Y-1438.924
N260 X225.
N265 Y-1458.924
N270 Y-1478.924
N275 Y-1498.924
N280 Y-1518.924
N285 Y-1667.674
N290 X50.
N295 Y-1518.924
N300 Y-1498.924
N305 Y-1478.924
N310 Y-1458.924
N315 Y-1438.924
N320 X336.5 Y-1185.
N325 X400.5
N330 Y-1121.
N335 X336.5
N340 X400.5 Y-654.5
N345 X336.5
N350 Y-590.5
N355 X400.5
N360 X96.
N365 X32.
N370 Y-654.5
N375 X96.
N380 X400.5 Y-124.
N385 X336.5
N390 Y-60.
N395 X400.5
N400 G80
N405 G0 Z15.
N410 G53 G0 Z0.
N415 G53 G0 X0. Y0.
N420 M30
%
