%
(CUPBOARD_TOPSHELF_DRILL)
(MACHINE)
(  MODEL LASER SNAKE V2)
(  DESCRIPTION 3-AXIS ROUTER)
(T1  D=2. CR=0. TAPER=118DEG - ZMIN=-17.601 - DRILL)
N10 G90 G94 G17 G91.1
N15 G21
N20 G53 G0 Z0.
(DRILL7)
N25 T1 M6
N30 S10000 M3
N35 G54
N40 G0 X664.111 Y-90.135
N45 G43 Z15. H1
N50 G0 Z5.
N55 G98 G81 X664.111 Y-90.135 Z-17.601 R5. F200.
N60 Y-668.135
N65 Y-1246.135
N70 G80
N75 G0 Z15.
N80 G53 G0 Z0.
N85 G53 G0 X0. Y0.
N90 M30
%
