%
(CUPBOARD_5_PROFILE)
(MACHINE)
(  MODEL LASER SNAKE V2)
(  DESCRIPTION 3-AXIS ROUTER)
(T3  D=3.175 CR=0. - ZMIN=-16.25 - FLAT END MILL)
N10 G90 G94 G17 G91.1
N15 G21
(WHEN USING FUSION 360 FOR PERSONAL USE, THE FEEDRATE OF)
(RAPID MOVES IS REDUCED TO MATCH THE FEEDRATE OF CUTTING)
(MOVES, WHICH CAN INCREASE MACHINING TIME. UNRESTRICTED RAPID)
(MOVES ARE AVAILABLE WITH A FUSION 360 SUBSCRIPTION.)
N20 G53 G0 Z0.
(2D CONTOUR7)
N25 T3 M6
N30 S18000 M3
N35 G54
N40 G0 X194.133 Y-48.
N45 G43 Z15. H3
N50 G1 Z5. F1500.
N55 Z-2.063 F100.
N60 G18 G2 X196.133 Z-4.063 I2. K0. F250.
N65 G1 X198.133
N70 G17 G2 X200.133 Y-50. I0. J-2.
N75 G1 Y-1275.5 F1500.
N80 G3 X201.72 Y-1277.088 I1.587 J0.
N85 G1 X601.72
N90 G3 X603.307 Y-1275.5 I0. J1.588
N95 G1 Y-50.
N100 G3 X601.72 Y-48.412 I-1.588 J0.
N105 G1 X201.72
N110 G3 X200.133 Y-50. I0. J-1.588
N115 G2 X198.133 Y-52. I-2. J0. F250.
N120 G1 X196.133
N125 G18 G3 X194.133 Z-2.063 I0. K2.
N130 G1 Z5. F1500.
N135 Y-48.
N140 Z0.938 F100.
N145 Z-6.125
N150 G2 X196.133 Z-8.125 I2. K0. F250.
N155 G1 X198.133
N160 G17 G2 X200.133 Y-50. I0. J-2.
N165 G1 Y-1275.5 F1500.
N170 G3 X201.72 Y-1277.088 I1.587 J0.
N175 G1 X601.72
N180 G3 X603.307 Y-1275.5 I0. J1.588
N185 G1 Y-50.
N190 G3 X601.72 Y-48.412 I-1.588 J0.
N195 G1 X201.72
N200 G3 X200.133 Y-50. I0. J-1.588
N205 G2 X198.133 Y-52. I-2. J0. F250.
N210 G1 X196.133
N215 G18 G3 X194.133 Z-6.125 I0. K2.
N220 G1 Z5. F1500.
N225 Y-48.
N230 Z-3.125 F100.
N235 Z-10.188
N240 G2 X196.133 Z-12.188 I2. K0. F250.
N245 G1 X198.133
N250 G17 G2 X200.133 Y-50. I0. J-2.
N255 G1 Y-1275.5 F1500.
N260 G3 X201.72 Y-1277.088 I1.587 J0.
N265 G1 X601.72
N270 G3 X603.307 Y-1275.5 I0. J1.588
N275 G1 Y-50.
N280 G3 X601.72 Y-48.412 I-1.588 J0.
N285 G1 X201.72
N290 G3 X200.133 Y-50. I0. J-1.588
N295 G2 X198.133 Y-52. I-2. J0. F250.
N300 G1 X196.133
N305 G18 G3 X194.133 Z-10.188 I0. K2.
N310 G1 Z5. F1500.
N315 Y-48.
N320 Z-7.188 F100.
N325 Z-14.25
N330 G2 X196.133 Z-16.25 I2. K0. F250.
N335 G1 X198.133
N340 G17 G2 X200.133 Y-50. I0. J-2.
N345 G1 Y-1275.5 F1500.
N350 G3 X201.72 Y-1277.088 I1.587 J0.
N355 G1 X601.72
N360 G3 X603.307 Y-1275.5 I0. J1.588
N365 G1 Y-50.
N370 G3 X601.72 Y-48.412 I-1.588 J0.
N375 G1 X201.72
N380 G3 X200.133 Y-50. I0. J-1.588
N385 G2 X198.133 Y-52. I-2. J0. F250.
N390 G1 X196.133
N395 G18 G3 X194.133 Z-14.25 I0. K2.
N400 G1 Z5. F1500.
N405 X609.666 Y-1741.88
N410 Z-2.063 F100.
N415 G3 X607.666 Z-4.063 I-2. K0. F250.
N420 G1 X605.666
N425 G17 G2 X603.666 Y-1739.88 I0. J2.
N430 G1 Y-1339.88 F1500.
N435 G3 X602.078 Y-1338.292 I-1.588 J0.
N440 G1 X12.078
N445 G3 X10.491 Y-1339.88 I0. J-1.588
N450 G1 Y-1739.88
N455 G3 X12.078 Y-1741.468 I1.588 J0.
N460 G1 X602.078
N465 G3 X603.666 Y-1739.88 I0. J1.588
N470 G2 X605.666 Y-1737.88 I2. J0. F250.
N475 G1 X607.666
N480 G18 G2 X609.666 Z-2.063 I0. K2.
N485 G1 Z5. F1500.
N490 Y-1741.88
N495 Z0.938 F100.
N500 Z-6.125
N505 G3 X607.666 Z-8.125 I-2. K0. F250.
N510 G1 X605.666
N515 G17 G2 X603.666 Y-1739.88 I0. J2.
N520 G1 Y-1339.88 F1500.
N525 G3 X602.078 Y-1338.292 I-1.588 J0.
N530 G1 X12.078
N535 G3 X10.491 Y-1339.88 I0. J-1.588
N540 G1 Y-1739.88
N545 G3 X12.078 Y-1741.468 I1.588 J0.
N550 G1 X602.078
N555 G3 X603.666 Y-1739.88 I0. J1.588
N560 G2 X605.666 Y-1737.88 I2. J0. F250.
N565 G1 X607.666
N570 G18 G2 X609.666 Z-6.125 I0. K2.
N575 G1 Z5. F1500.
N580 Y-1741.88
N585 Z-3.125 F100.
N590 Z-10.188
N595 G3 X607.666 Z-12.188 I-2. K0. F250.
N600 G1 X605.666
N605 G17 G2 X603.666 Y-1739.88 I0. J2.
N610 G1 Y-1339.88 F1500.
N615 G3 X602.078 Y-1338.292 I-1.588 J0.
N620 G1 X12.078
N625 G3 X10.491 Y-1339.88 I0. J-1.588
N630 G1 Y-1739.88
N635 G3 X12.078 Y-1741.468 I1.588 J0.
N640 G1 X602.078
N645 G3 X603.666 Y-1739.88 I0. J1.588
N650 G2 X605.666 Y-1737.88 I2. J0. F250.
N655 G1 X607.666
N660 G18 G2 X609.666 Z-10.188 I0. K2.
N665 G1 Z5. F1500.
N670 Y-1741.88
N675 Z-7.188 F100.
N680 Z-14.25
N685 G3 X607.666 Z-16.25 I-2. K0. F250.
N690 G1 X605.666
N695 G17 G2 X603.666 Y-1739.88 I0. J2.
N700 G1 Y-1339.88 F1500.
N705 G3 X602.078 Y-1338.292 I-1.588 J0.
N710 G1 X12.078
N715 G3 X10.491 Y-1339.88 I0. J-1.588
N720 G1 Y-1739.88
N725 G3 X12.078 Y-1741.468 I1.588 J0.
N730 G1 X602.078
N735 G3 X603.666 Y-1739.88 I0. J1.588
N740 G2 X605.666 Y-1737.88 I2. J0. F250.
N745 G1 X607.666
N750 G18 G2 X609.666 Z-14.25 I0. K2.
N755 G1 Z5. F1500.
N760 X12. Y-1783.473
N765 Z-2.063 F100.
N770 G19 G2 Y-1785.473 Z-4.063 J-2. K0. F250.
N775 G1 Y-1787.473
N780 G17 G2 X10. Y-1789.473 I-2. J0.
N785 G3 X8.413 Y-1791.06 I0. J-1.588 F1500.
N790 G1 Y-2191.06
N795 G3 X10. Y-2192.647 I1.587 J0.
N800 G1 X600.
N805 G3 X601.588 Y-2191.06 I0. J1.587
N810 G1 Y-1791.06
N815 G3 X600. Y-1789.473 I-1.588 J0.
N820 G1 X10.
N825 G2 X8. Y-1787.473 I0. J2. F250.
N830 G1 Y-1785.473
N835 G19 G3 Y-1783.473 Z-2.063 J0. K2.
N840 G1 Z5. F1500.
N845 X12.
N850 Z0.938 F100.
N855 Z-6.125
N860 G2 Y-1785.473 Z-8.125 J-2. K0. F250.
N865 G1 Y-1787.473
N870 G17 G2 X10. Y-1789.473 I-2. J0.
N875 G3 X8.413 Y-1791.06 I0. J-1.588 F1500.
N880 G1 Y-2191.06
N885 G3 X10. Y-2192.647 I1.587 J0.
N890 G1 X600.
N895 G3 X601.588 Y-2191.06 I0. J1.587
N900 G1 Y-1791.06
N905 G3 X600. Y-1789.473 I-1.588 J0.
N910 G1 X10.
N915 G2 X8. Y-1787.473 I0. J2. F250.
N920 G1 Y-1785.473
N925 G19 G3 Y-1783.473 Z-6.125 J0. K2.
N930 G1 Z5. F1500.
N935 X12.
N940 Z-3.125 F100.
N945 Z-10.188
N950 G2 Y-1785.473 Z-12.188 J-2. K0. F250.
N955 G1 Y-1787.473
N960 G17 G2 X10. Y-1789.473 I-2. J0.
N965 G3 X8.413 Y-1791.06 I0. J-1.588 F1500.
N970 G1 Y-2191.06
N975 G3 X10. Y-2192.647 I1.587 J0.
N980 G1 X600.
N985 G3 X601.588 Y-2191.06 I0. J1.587
N990 G1 Y-1791.06
N995 G3 X600. Y-1789.473 I-1.588 J0.
N1000 G1 X10.
N1005 G2 X8. Y-1787.473 I0. J2. F250.
N1010 G1 Y-1785.473
N1015 G19 G3 Y-1783.473 Z-10.188 J0. K2.
N1020 G1 Z5. F1500.
N1025 X12.
N1030 Z-7.188 F100.
N1035 Z-14.25
N1040 G2 Y-1785.473 Z-16.25 J-2. K0. F250.
N1045 G1 Y-1787.473
N1050 G17 G2 X10. Y-1789.473 I-2. J0.
N1055 G3 X8.413 Y-1791.06 I0. J-1.588 F1500.
N1060 G1 Y-2191.06
N1065 G3 X10. Y-2192.647 I1.587 J0.
N1070 G1 X600.
N1075 G3 X601.588 Y-2191.06 I0. J1.587
N1080 G1 Y-1791.06
N1085 G3 X600. Y-1789.473 I-1.588 J0.
N1090 G1 X10.
N1095 G2 X8. Y-1787.473 I0. J2. F250.
N1100 G1 Y-1785.473
N1105 G19 G3 Y-1783.473 Z-14.25 J0. K2.
N1110 G1 Z15. F1500.
N1115 G17
N1120 G53 G0 Z0.
N1125 G53 G0 X0. Y0.
N1130 M30
%
