%
(CUPBOARD_REDO_PROFILE_V1)
(MACHINE)
(  MODEL LASER SNAKE V2)
(  DESCRIPTION 3-AXIS ROUTER)
(T3  D=3.175 CR=0. - ZMIN=-16.25 - FLAT END MILL)
N10 G90 G94 G17 G91.1
N15 G21
(WHEN USING FUSION 360 FOR PERSONAL USE, THE FEEDRATE OF)
(RAPID MOVES IS REDUCED TO MATCH THE FEEDRATE OF CUTTING)
(MOVES, WHICH CAN INCREASE MACHINING TIME. UNRESTRICTED RAPID)
(MOVES ARE AVAILABLE WITH A FUSION 360 SUBSCRIPTION.)
N20 G53 G0 Z0.
(2D CONTOUR5)
N25 T3 M6
N30 S18000 M3
N35 G54
N40 G0 X197.641 Y-42.412
N45 G43 Z15. H3
N50 G1 Z5. F1500.
N55 Z-2.063 F100.
N60 G19 G2 Y-44.412 Z-4.063 J-2. K0. F250.
N65 G1 Y-46.412
N70 G17 G2 X195.641 Y-48.412 I-2. J0.
N75 G1 X14.891 F1500.
N80 G3 X13.304 Y-50. I0. J-1.588
N85 G1 Y-500.
N90 G3 X14.891 Y-501.587 I1.587 J0.
N95 G1 X376.391
N100 G3 X377.978 Y-500. I0. J1.587
N105 G1 Y-50.
N110 G3 X376.391 Y-48.412 I-1.587 J0.
N115 G1 X195.641
N120 G2 X193.641 Y-46.412 I0. J2. F250.
N125 G1 Y-44.412
N130 G19 G3 Y-42.412 Z-2.063 J0. K2.
N135 G1 Z5. F1500.
N140 X197.641
N145 Z0.938 F100.
N150 Z-6.125
N155 G2 Y-44.412 Z-8.125 J-2. K0. F250.
N160 G1 Y-46.412
N165 G17 G2 X195.641 Y-48.412 I-2. J0.
N170 G1 X14.891 F1500.
N175 G3 X13.304 Y-50. I0. J-1.588
N180 G1 Y-500.
N185 G3 X14.891 Y-501.587 I1.587 J0.
N190 G1 X376.391
N195 G3 X377.978 Y-500. I0. J1.587
N200 G1 Y-50.
N205 G3 X376.391 Y-48.412 I-1.587 J0.
N210 G1 X195.641
N215 G2 X193.641 Y-46.412 I0. J2. F250.
N220 G1 Y-44.412
N225 G19 G3 Y-42.412 Z-6.125 J0. K2.
N230 G1 Z5. F1500.
N235 X197.641
N240 Z-3.125 F100.
N245 Z-10.188
N250 G2 Y-44.412 Z-12.188 J-2. K0. F250.
N255 G1 Y-46.412
N260 G17 G2 X195.641 Y-48.412 I-2. J0.
N265 G1 X14.891 F1500.
N270 G3 X13.304 Y-50. I0. J-1.588
N275 G1 Y-500.
N280 G3 X14.891 Y-501.587 I1.587 J0.
N285 G1 X376.391
N290 G3 X377.978 Y-500. I0. J1.587
N295 G1 Y-50.
N300 G3 X376.391 Y-48.412 I-1.587 J0.
N305 G1 X195.641
N310 G2 X193.641 Y-46.412 I0. J2. F250.
N315 G1 Y-44.412
N320 G19 G3 Y-42.412 Z-10.188 J0. K2.
N325 G1 Z5. F1500.
N330 X197.641
N335 Z-7.188 F100.
N340 Z-14.25
N345 G2 Y-44.412 Z-16.25 J-2. K0. F250.
N350 G1 Y-46.412
N355 G17 G2 X195.641 Y-48.412 I-2. J0.
N360 G1 X14.891 F1500.
N365 G3 X13.304 Y-50. I0. J-1.588
N370 G1 Y-500.
N375 G3 X14.891 Y-501.587 I1.587 J0.
N380 G1 X376.391
N385 G3 X377.978 Y-500. I0. J1.587
N390 G1 Y-50.
N395 G3 X376.391 Y-48.412 I-1.587 J0.
N400 G1 X195.641
N405 G2 X193.641 Y-46.412 I0. J2. F250.
N410 G1 Y-44.412
N415 G19 G3 Y-42.412 Z-14.25 J0. K2.
N420 G1 Z15. F1500.
N425 G17
N430 G53 G0 Z0.
N435 G53 G0 X0. Y0.
N440 M30
%
