%
(CUPBOARD_1_5MM_DRILL_V2)
(T2  D=5. CR=0. TAPER=118DEG - ZMIN=-18.502 - DRILL)
N10 G90 G94 G17 G91.1
N15 G21
N20 G53 G0 Z0.
(DRILL1 3)
N25 T2 M6
N30 S10000 M3
N35 G54
N40 G0 X55. Y-1478.924
N45 G43 Z15. H2
N50 G0 Z5.
N55 G98 G81 X55. Y-1478.924 Z-18.502 R5. F100.
N60 Y-1498.924
N65 Y-1518.924
N70 Y-1538.924
N75 Y-1558.924
N80 Y-1707.674
N85 X230.
N90 Y-1558.924
N95 Y-1538.924
N100 Y-1518.924
N105 Y-1498.924
N110 Y-1478.924
N115 X405.
N120 Y-1498.924
N125 Y-1518.924
N130 Y-1538.924
N135 Y-1558.924
N140 Y-1707.674
N145 G80
N150 G0 Z15.
N155 G53 G0 Z0.
N160 G53 G0 X0. Y0.
N165 M30
%
