%
(CUPBOARD_BOTTOMSHELF)
(T1  D=3.175 CR=0. - ZMIN=-16. - FLAT END MILL)
N10 G90 G94 G17 G91.1
N15 G21
(WHEN USING FUSION 360 FOR PERSONAL USE, THE FEEDRATE OF)
(RAPID MOVES IS REDUCED TO MATCH THE FEEDRATE OF CUTTING)
(MOVES, WHICH CAN INCREASE MACHINING TIME. UNRESTRICTED RAPID)
(MOVES ARE AVAILABLE WITH A FUSION 360 SUBSCRIPTION.)
N20 G53 G0 Z0.
(2D POCKET2)
N25 T1 M6
N30 S18000 M3
N35 G54
N40 G0 X51.162 Y-48.497
N45 G43 Z15. H1
N50 G1 Z5. F1500.
N55 Z1. F100.
N60 Z-2.5 F250.
N65 Y-48.522
N70 Y-73.412 F1500.
N75 X48.838
N80 Y-50.
N85 Y-48.527
N90 Z15.
N95 X226.162 Y-48.497
N100 Z5.
N105 Z1. F100.
N110 Z-2.5 F250.
N115 X226.163 Y-48.522
N120 Y-73.412 F1500.
N125 X223.837
N130 Y-50.
N135 Y-48.527
N140 Z15.
N145 X401.162 Y-48.497
N150 Z5.
N155 Z1. F100.
N160 Z-2.5 F250.
N165 X401.163 Y-48.522
N170 Y-73.412 F1500.
N175 X398.837
N180 Y-50.
N185 Y-48.527
N190 Z15.
N195 X48.838 Y-639.503
N200 Z5.
N205 Z1. F100.
N210 Z-2.5 F250.
N215 Y-639.478
N220 Y-614.588 F1500.
N225 X51.162
N230 Y-638.
N235 Y-639.473
N240 Z15.
N245 X223.838 Y-639.503
N250 Z5.
N255 Z1. F100.
N260 Z-2.5 F250.
N265 X223.837 Y-639.478
N270 Y-614.588 F1500.
N275 X226.163
N280 Y-638.
N285 Y-639.473
N290 Z15.
N295 X398.838 Y-639.503
N300 Z5.
N305 Z1. F100.
N310 Z-2.5 F250.
N315 X398.837 Y-639.478
N320 Y-614.588 F1500.
N325 X401.163
N330 Y-638.
N335 Y-639.473
N340 Z15.
(WHEN USING FUSION 360 FOR PERSONAL USE, THE FEEDRATE OF)
(RAPID MOVES IS REDUCED TO MATCH THE FEEDRATE OF CUTTING)
(MOVES, WHICH CAN INCREASE MACHINING TIME. UNRESTRICTED RAPID)
(MOVES ARE AVAILABLE WITH A FUSION 360 SUBSCRIPTION.)
(2D CONTOUR1)
N345 G0 Z27.
N350 X453. Y-39.412
N355 G1 Z5. F1500.
N360 Z-2. F100.
N365 G19 G2 Y-42.412 Z-5. J-3. K0. F250.
N370 G1 Y-45.412
N375 G17 G2 X450. Y-48.412 I-3. J0.
N380 G1 X0. F1500.
N385 Z25.
N390 X453. Y-39.412
N395 Z5.
N400 Z0. F100.
N405 Z-7.
N410 G19 G2 Y-42.412 Z-10. J-3. K0. F250.
N415 G1 Y-45.412
N420 G17 G2 X450. Y-48.412 I-3. J0.
N425 G1 X0. F1500.
N430 Z25.
N435 X453. Y-39.412
N440 Z5.
N445 Z-5. F100.
N450 Z-10.
N455 G19 G2 Y-42.412 Z-13. J-3. K0. F250.
N460 G1 Y-45.412
N465 G17 G2 X450. Y-48.412 I-3. J0.
N470 G1 X0. F1500.
N475 Z25.
N480 X453. Y-39.412
N485 Z5.
N490 Z-8. F100.
N495 Z-13.
N500 G19 G2 Y-42.412 Z-16. J-3. K0. F250.
N505 G1 Y-45.412
N510 G17 G2 X450. Y-48.412 I-3. J0.
N515 G1 X0. F1500.
N520 Z25.
N525 X-3. Y-648.588
N530 Z5.
N535 Z-2. F100.
N540 G19 G3 Y-645.588 Z-5. J3. K0. F250.
N545 G1 Y-642.588
N550 G17 G2 X0. Y-639.588 I3. J0.
N555 G1 X450. F1500.
N560 Z25.
N565 X-3. Y-648.588
N570 Z5.
N575 Z0. F100.
N580 Z-7.
N585 G19 G3 Y-645.588 Z-10. J3. K0. F250.
N590 G1 Y-642.588
N595 G17 G2 X0. Y-639.588 I3. J0.
N600 G1 X450. F1500.
N605 Z25.
N610 X-3. Y-648.588
N615 Z5.
N620 Z-5. F100.
N625 Z-10.
N630 G19 G3 Y-645.588 Z-13. J3. K0. F250.
N635 G1 Y-642.588
N640 G17 G2 X0. Y-639.588 I3. J0.
N645 G1 X450. F1500.
N650 Z25.
N655 X-3. Y-648.588
N660 Z5.
N665 Z-8. F100.
N670 Z-13.
N675 G19 G3 Y-645.588 Z-16. J3. K0. F250.
N680 G1 Y-642.588
N685 G17 G2 X0. Y-639.588 I3. J0.
N690 G1 X450. F1500.
N695 Z27.
N700 G53 G0 Z0.
N705 G53 G0 X0. Y0.
N710 M30
%
