%
(CUPBOARD_KICKBOARD_SLOT)
(MACHINE)
(  MODEL LASER SNAKE V2)
(  DESCRIPTION 3-AXIS ROUTER)
(T3  D=3.175 CR=0. - ZMIN=-8. - FLAT END MILL)
N10 G90 G94 G17 G91.1
N15 G21
(WHEN USING FUSION 360 FOR PERSONAL USE, THE FEEDRATE OF)
(RAPID MOVES IS REDUCED TO MATCH THE FEEDRATE OF CUTTING)
(MOVES, WHICH CAN INCREASE MACHINING TIME. UNRESTRICTED RAPID)
(MOVES ARE AVAILABLE WITH A FUSION 360 SUBSCRIPTION.)
N20 G53 G0 Z0.
(SLOT1)
N25 T3 M6
N30 S18000 M3
N35 G54
N40 G0 X52.229 Y-103.771
N45 G43 Z15. H3
N50 G1 Z5. F1500.
N55 Z2.5 F100.
N60 Z-3.
N65 Y-153.771 F1500.
N70 Z-8. F100.
N75 Y-103.771 F1500.
N80 Z5.
N85 Y-1164.77
N90 Z2.5 F100.
N95 Z-3.
N100 Y-1214.77 F1500.
N105 Z-8. F100.
N110 Y-1164.77 F1500.
N115 Z15.
N120 G53 G0 Z0.
N125 G53 G0 X0. Y0.
N130 M30
%
