%
(CUPBOARD_KICKBOARD_V1)
(MACHINE)
(  MODEL LASER SNAKE V2)
(  DESCRIPTION 3-AXIS ROUTER)
(T3  D=3.175 CR=0. - ZMIN=-16.25 - FLAT END MILL)
N10 G90 G94 G17 G91.1
N15 G21
(WHEN USING FUSION 360 FOR PERSONAL USE, THE FEEDRATE OF)
(RAPID MOVES IS REDUCED TO MATCH THE FEEDRATE OF CUTTING)
(MOVES, WHICH CAN INCREASE MACHINING TIME. UNRESTRICTED RAPID)
(MOVES ARE AVAILABLE WITH A FUSION 360 SUBSCRIPTION.)
N20 G53 G0 Z0.
(2D CONTOUR8)
N25 T3 M6
N30 S18000 M3
N35 G54
N40 G0 X8.189 Y-46.453
N45 G43 Z15. H3
N50 G1 Z5. F1500.
N55 Z-4.683 F100.
N60 G18 G2 X8.507 Z-5. I0.318 K0. F250.
N65 G1 X8.824
N70 G17 G2 X9.142 Y-46.771 I0. J-0.317
N75 G1 Y-1271.77 F1500.
N80 G3 X10.729 Y-1273.358 I1.587 J0.
N85 G1 X87.729
N90 G3 X89.203 Y-1272.36 I0. J1.588
N95 G1 X93.804 Y-1260.858
N100 X149.729
N105 G3 X151.316 Y-1259.27 I0. J1.588
N110 G1 Y-59.271
N115 G3 X149.729 Y-57.683 I-1.587 J0.
N120 G1 X93.804
N125 X89.203 Y-46.181
N130 G3 X87.729 Y-45.183 I-1.474 J-0.59
N135 G1 X10.729
N140 G3 X9.142 Y-46.771 I0. J-1.587
N145 G2 X8.824 Y-47.088 I-0.318 J0. F250.
N150 G1 X8.507
N155 G18 G3 X8.189 Z-4.683 I0. K0.318
N160 G1 Z5. F1500.
N165 Y-46.453
N170 Z0. F100.
N175 Z-9.683
N180 G2 X8.507 Z-10. I0.318 K0. F250.
N185 G1 X8.824
N190 G17 G2 X9.142 Y-46.771 I0. J-0.317
N195 G1 Y-1271.77 F1500.
N200 G3 X10.729 Y-1273.358 I1.587 J0.
N205 G1 X87.729
N210 G3 X89.203 Y-1272.36 I0. J1.588
N215 G1 X93.804 Y-1260.858
N220 X149.729
N225 G3 X151.316 Y-1259.27 I0. J1.588
N230 G1 Y-59.271
N235 G3 X149.729 Y-57.683 I-1.587 J0.
N240 G1 X93.804
N245 X89.203 Y-46.181
N250 G3 X87.729 Y-45.183 I-1.474 J-0.59
N255 G1 X10.729
N260 G3 X9.142 Y-46.771 I0. J-1.587
N265 G2 X8.824 Y-47.088 I-0.318 J0. F250.
N270 G1 X8.507
N275 G18 G3 X8.189 Z-9.683 I0. K0.318
N280 G1 Z5. F1500.
N285 Y-46.453
N290 Z-5. F100.
N295 Z-14.683
N300 G2 X8.507 Z-15. I0.318 K0. F250.
N305 G1 X8.824
N310 G17 G2 X9.142 Y-46.771 I0. J-0.317
N315 G1 Y-1271.77 F1500.
N320 G3 X10.729 Y-1273.358 I1.587 J0.
N325 G1 X87.729
N330 G3 X89.203 Y-1272.36 I0. J1.588
N335 G1 X93.804 Y-1260.858
N340 X149.729
N345 G3 X151.316 Y-1259.27 I0. J1.588
N350 G1 Y-59.271
N355 G3 X149.729 Y-57.683 I-1.587 J0.
N360 G1 X93.804
N365 X89.203 Y-46.181
N370 G3 X87.729 Y-45.183 I-1.474 J-0.59
N375 G1 X10.729
N380 G3 X9.142 Y-46.771 I0. J-1.587
N385 G2 X8.824 Y-47.088 I-0.318 J0. F250.
N390 G1 X8.507
N395 G18 G3 X8.189 Z-14.683 I0. K0.318
N400 G1 Z5. F1500.
N405 Y-46.453
N410 Z-10. F100.
N415 Z-15.933
N420 G2 X8.507 Z-16.25 I0.318 K0. F250.
N425 G1 X8.824
N430 G17 G2 X9.142 Y-46.771 I0. J-0.317
N435 G1 Y-1271.77 F1500.
N440 G3 X10.729 Y-1273.358 I1.587 J0.
N445 G1 X87.729
N450 G3 X89.203 Y-1272.36 I0. J1.588
N455 G1 X93.804 Y-1260.858
N460 X149.729
N465 G3 X151.316 Y-1259.27 I0. J1.588
N470 G1 Y-59.271
N475 G3 X149.729 Y-57.683 I-1.587 J0.
N480 G1 X93.804
N485 X89.203 Y-46.181
N490 G3 X87.729 Y-45.183 I-1.474 J-0.59
N495 G1 X10.729
N500 G3 X9.142 Y-46.771 I0. J-1.587
N505 G2 X8.824 Y-47.088 I-0.318 J0. F250.
N510 G1 X8.507
N515 G18 G3 X8.189 Z-15.933 I0. K0.318
N520 G1 Z15. F1500.
N525 G17
N530 G53 G0 Z0.
N535 G53 G0 X0. Y0.
N540 M30
%
