%
(CUPBOARD_3_PROFILE2_V1)
(T1  D=6. CR=0. - ZMIN=-25.2 - FLAT END MILL)
N10 G90 G94 G17 G91.1
N15 G21
(WHEN USING FUSION 360 FOR PERSONAL USE, THE FEEDRATE OF)
(RAPID MOVES IS REDUCED TO MATCH THE FEEDRATE OF CUTTING)
(MOVES, WHICH CAN INCREASE MACHINING TIME. UNRESTRICTED RAPID)
(MOVES ARE AVAILABLE WITH A FUSION 360 SUBSCRIPTION.)
N20 G53 G0 Z0.
(2D CONTOUR2)
N25 T1 M6
N30 S12000 M3
N35 G54
N40 G0 X627. Y3.
N45 G43 Z15. H1
N50 G1 Z5. F1500.
N55 Z-5.04 F333.33
N60 X0. F1500.
N65 Z5.
N70 X627.
N75 Z-0.04 F333.33
N80 Z-10.08
N85 X0. F1500.
N90 Z5.
N95 X627.
N100 Z-5.08 F333.33
N105 Z-15.12
N110 X0. F1500.
N115 Z5.
N120 X627.
N125 Z-10.12 F333.33
N130 Z-20.16
N135 X0. F1500.
N140 Z5.
N145 X627.
N150 Z-15.16 F333.33
N155 Z-25.2
N160 X0. F1500.
N165 Z15.
N170 G53 G0 Z0.
N175 G53 G0 X0. Y0.
N180 M30
%
