%
(CUPBOARD_REDO_DRILL_2MM)
(MACHINE)
(  MODEL LASER SNAKE V2)
(  DESCRIPTION 3-AXIS ROUTER)
(T1  D=2. CR=0. TAPER=118DEG - ZMIN=-17.601 - DRILL)
N10 G90 G94 G17 G91.1
N15 G21
N20 G53 G0 Z0.
(DRILL2)
N25 T1 M6
N30 S10000 M3
N35 G54
N40 G0 X30.891 Y-450.
N45 G43 Z15. H1
N50 G0 Z5.
N55 G98 G81 X30.891 Y-450. Z-17.601 R5. F200.
N60 X163.641
N65 X183.641
N70 X203.641
N75 X223.641
N80 X243.641
N85 Y-275.
N90 X223.641
N95 X203.641
N100 X183.641
N105 X163.641
N110 X30.891 Y-150.
N115 X163.641 Y-100.
N120 X183.641
N125 X203.641
N130 X223.641
N135 X243.641
N140 G80
N145 G0 Z15.
N150 G53 G0 Z0.
N155 G53 G0 X0. Y0.
N160 M30
%
