%
(CUPBOARD_1_PROFILE)
(T3  D=3.175 CR=0. - ZMIN=-16.75 - FLAT END MILL)
N10 G90 G94 G17 G91.1
N15 G21
(WHEN USING FUSION 360 FOR PERSONAL USE, THE FEEDRATE OF)
(RAPID MOVES IS REDUCED TO MATCH THE FEEDRATE OF CUTTING)
(MOVES, WHICH CAN INCREASE MACHINING TIME. UNRESTRICTED RAPID)
(MOVES ARE AVAILABLE WITH A FUSION 360 SUBSCRIPTION.)
N20 G53 G0 Z0.
(2D POCKET2)
N25 T3 M6
N30 S18000 M3
N35 G54
N40 G0 X400.913 Y-1995.17
N45 G43 Z15. H3
N50 G1 Z5. F1500.
N55 Z2.5 F100.
N60 Z-1.
N65 G2 X399.087 I-0.913 J0. F1500.
N70 X400.913 I0.913 J0.
N75 G1 Z15.
N80 X225. Y-1229.162
N85 Z5.
N90 Z2.5 F100.
N95 Z-1.
N100 G2 Y-1227.338 I0. J0.912 F1500.
N105 Y-1229.162 I0. J-0.912
N110 G1 Z5.
N115 X400. Y-1342.083
N120 Z2.5 F100.
N125 Z-1.
N130 G2 Y-1340.258 I0. J0.912 F1500.
N135 Y-1342.083 I0. J-0.912
N140 G1 Z5.
N145 X435. Y-1227.338
N150 Z2.5 F100.
N155 Z-1.
N160 G2 Y-1229.162 I0. J-0.912 F1500.
N165 Y-1227.338 I0. J0.912
N170 G1 Z5.
N175 X15. Y-1229.162
N180 Z2.5 F100.
N185 Z-1.
N190 G2 Y-1227.338 I0. J0.912 F1500.
N195 Y-1229.162 I0. J-0.912
N200 G1 Z5.
N205 X25. Y-1340.257
N210 Z2.5 F100.
N215 Z-1.
N220 G2 Y-1342.083 I0. J-0.913 F1500.
N225 Y-1340.257 I0. J0.913
N230 G1 Z5.
N235 Y-1642.083
N240 Z2.5 F100.
N245 Z-1.
N250 G2 Y-1640.258 I0. J0.912 F1500.
N255 Y-1642.083 I0. J-0.912
N260 G1 Z5.
N265 Y-1996.083
N270 Z2.5 F100.
N275 Z-1.
N280 G2 Y-1994.258 I0. J0.912 F1500.
N285 Y-1996.083 I0. J-0.912
N290 G1 Z5.
N295 X15.913 Y-622.5
N300 Z2.5 F100.
N305 Z-1.
N310 G2 X14.087 I-0.913 J0. F1500.
N315 X15.913 I0.913 J0.
N320 G1 Z5.
N325 X224.087
N330 Z2.5 F100.
N335 Z-1.
N340 G2 X225.913 I0.913 J0. F1500.
N345 X224.087 I-0.913 J0.
N350 G1 Z5.
N355 X435. Y-623.412
N360 Z2.5 F100.
N365 Z-1.
N370 G2 Y-621.588 I0. J0.912 F1500.
N375 Y-623.412 I0. J-0.912
N380 G1 Z5.
N385 Y-15.837
N390 Z2.5 F100.
N395 Z-1.
N400 G2 Y-17.663 I0. J-0.913 F1500.
N405 Y-15.837 I0. J0.913
N410 G1 Z5.
N415 X224.087 Y-16.75
N420 Z2.5 F100.
N425 Z-1.
N430 G2 X225.913 I0.913 J0. F1500.
N435 X224.087 I-0.913 J0.
N440 G1 Z5.
N445 X15. Y-15.837
N450 Z2.5 F100.
N455 Z-1.
N460 G2 Y-17.663 I0. J-0.913 F1500.
N465 Y-15.837 I0. J0.913
N470 G1 Z15.
(WHEN USING FUSION 360 FOR PERSONAL USE, THE FEEDRATE OF)
(RAPID MOVES IS REDUCED TO MATCH THE FEEDRATE OF CUTTING)
(MOVES, WHICH CAN INCREASE MACHINING TIME. UNRESTRICTED RAPID)
(MOVES ARE AVAILABLE WITH A FUSION 360 SUBSCRIPTION.)
(2D CONTOUR2)
N475 G0 Z45.
N480 X-0.317 Y-1237.74
N485 G1 Z5. F1500.
N490 Z-4.683 F100.
N495 G19 G3 Y-1237.422 Z-5. J0.318 K0. F250.
N500 G1 Y-1237.105
N505 G17 G2 X0. Y-1236.787 I0.317 J0.
N510 G1 X450. F1500.
N515 G3 X451.788 Y-1235. I0. J1.787
N520 G1 Y-10.
N525 G3 X450. Y-8.212 I-1.788 J0.
N530 G1 X0.
N535 G2 X-0.317 Y-7.895 I0. J0.317 F250.
N540 G1 Y-7.577
N545 G19 G3 Y-7.26 Z-4.683 J0. K0.318
N550 G1 Z20. F1500.
N555 Y-1237.74
N560 Z5.
N565 Z0. F100.
N570 Z-9.683
N575 G3 Y-1237.422 Z-10. J0.318 K0. F250.
N580 G1 Y-1237.105
N585 G17 G2 X0. Y-1236.787 I0.317 J0.
N590 G1 X450. F1500.
N595 G3 X451.788 Y-1235. I0. J1.787
N600 G1 Y-10.
N605 G3 X450. Y-8.212 I-1.788 J0.
N610 G1 X0.
N615 G2 X-0.317 Y-7.895 I0. J0.317 F250.
N620 G1 Y-7.577
N625 G19 G3 Y-7.26 Z-9.683 J0. K0.318
N630 G1 Z20. F1500.
N635 Y-1237.74
N640 Z5.
N645 Z-5. F100.
N650 Z-14.683
N655 G3 Y-1237.422 Z-15. J0.318 K0. F250.
N660 G1 Y-1237.105
N665 G17 G2 X0. Y-1236.787 I0.317 J0.
N670 G1 X450. F1500.
N675 G3 X451.788 Y-1235. I0. J1.787
N680 G1 Y-10.
N685 G3 X450. Y-8.212 I-1.788 J0.
N690 G1 X0.
N695 G2 X-0.317 Y-7.895 I0. J0.317 F250.
N700 G1 Y-7.577
N705 G19 G3 Y-7.26 Z-14.683 J0. K0.318
N710 G1 Z20. F1500.
N715 Y-1237.74
N720 Z5.
N725 Z-10. F100.
N730 Z-16.433
N735 G3 Y-1237.422 Z-16.75 J0.318 K0. F250.
N740 G1 Y-1237.105
N745 G17 G2 X0. Y-1236.787 I0.317 J0.
N750 G1 X450. F1500.
N755 G3 X451.788 Y-1235. I0. J1.787
N760 G1 Y-10.
N765 G3 X450. Y-8.212 I-1.788 J0.
N770 G1 X0.
N775 G2 X-0.317 Y-7.895 I0. J0.317 F250.
N780 G1 Y-7.577
N785 G19 G3 Y-7.26 Z-16.433 J0. K0.317
N790 G1 Z45. F1500.
N795 G17
(WHEN USING FUSION 360 FOR PERSONAL USE, THE FEEDRATE OF)
(RAPID MOVES IS REDUCED TO MATCH THE FEEDRATE OF CUTTING)
(MOVES, WHICH CAN INCREASE MACHINING TIME. UNRESTRICTED RAPID)
(MOVES ARE AVAILABLE WITH A FUSION 360 SUBSCRIPTION.)
(2D CONTOUR2 2)
N800 G0 X-0.317 Y-1237.54
N805 G1 Z45. F1500.
N810 Z5.
N815 Z-3.87 F100.
N820 G19 G3 Y-1237.223 Z-4.188 J0.318 K0. F250.
N825 G1 Y-1236.905
N830 G17 G2 X0. Y-1236.588 I0.317 J0.
N835 G1 X450. F1500.
N840 G3 X451.587 Y-1235. I0. J1.588
N845 G1 Y-10.
N850 G3 X450. Y-8.413 I-1.587 J0.
N855 G1 X0.
N860 G2 X-0.317 Y-8.095 I0. J0.318 F250.
N865 G1 Y-7.778
N870 G19 G3 Y-7.46 Z-3.87 J0. K0.318
N875 G1 Z20. F1500.
N880 Y-1237.54
N885 Z5.
N890 Z0.813 F100.
N895 Z-8.058
N900 G3 Y-1237.223 Z-8.375 J0.318 K0. F250.
N905 G1 Y-1236.905
N910 G17 G2 X0. Y-1236.588 I0.317 J0.
N915 G1 X450. F1500.
N920 G3 X451.587 Y-1235. I0. J1.588
N925 G1 Y-10.
N930 G3 X450. Y-8.413 I-1.587 J0.
N935 G1 X0.
N940 G2 X-0.317 Y-8.095 I0. J0.318 F250.
N945 G1 Y-7.778
N950 G19 G3 Y-7.46 Z-8.058 J0. K0.318
N955 G1 Z20. F1500.
N960 Y-1237.54
N965 Z5.
N970 Z-3.375 F100.
N975 Z-12.245
N980 G3 Y-1237.223 Z-12.563 J0.318 K0. F250.
N985 G1 Y-1236.905
N990 G17 G2 X0. Y-1236.588 I0.317 J0.
N995 G1 X450. F1500.
N1000 G3 X451.587 Y-1235. I0. J1.588
N1005 G1 Y-10.
N1010 G3 X450. Y-8.413 I-1.587 J0.
N1015 G1 X0.
N1020 G2 X-0.317 Y-8.095 I0. J0.318 F250.
N1025 G1 Y-7.778
N1030 G19 G3 Y-7.46 Z-12.245 J0. K0.318
N1035 G1 Z20. F1500.
N1040 Y-1237.54
N1045 Z5.
N1050 Z-7.563 F100.
N1055 Z-16.433
N1060 G3 Y-1237.223 Z-16.75 J0.318 K0. F250.
N1065 G1 Y-1236.905
N1070 G17 G2 X0. Y-1236.588 I0.317 J0.
N1075 G1 X450. F1500.
N1080 G3 X451.587 Y-1235. I0. J1.588
N1085 G1 Y-10.
N1090 G3 X450. Y-8.413 I-1.587 J0.
N1095 G1 X0.
N1100 G2 X-0.317 Y-8.095 I0. J0.318 F250.
N1105 G1 Y-7.778
N1110 G19 G3 Y-7.46 Z-16.433 J0. K0.317
N1115 G1 Z45. F1500.
N1120 G17
(WHEN USING FUSION 360 FOR PERSONAL USE, THE FEEDRATE OF)
(RAPID MOVES IS REDUCED TO MATCH THE FEEDRATE OF CUTTING)
(MOVES, WHICH CAN INCREASE MACHINING TIME. UNRESTRICTED RAPID)
(MOVES ARE AVAILABLE WITH A FUSION 360 SUBSCRIPTION.)
(2D CONTOUR2 3)
N1125 G0 X-0.317 Y-2047.91
N1130 G1 Z45. F1500.
N1135 Z5.
N1140 Z-4.683 F100.
N1145 G19 G3 Y-2047.593 Z-5. J0.318 K0. F250.
N1150 G1 Y-2047.275
N1155 G17 G2 X0. Y-2046.958 I0.317 J0.
N1160 G1 X450. F1500.
N1165 G3 X451.788 Y-2045.17 I0. J1.787
N1170 G1 Y-1306.17
N1175 G3 X450. Y-1304.382 I-1.788 J0.
N1180 G1 X0.
N1185 G2 X-0.317 Y-1304.065 I0. J0.318 F250.
N1190 G1 Y-1303.748
N1195 G19 G3 Y-1303.43 Z-4.683 J0. K0.318
N1200 G1 Z20. F1500.
N1205 Y-2047.91
N1210 Z5.
N1215 Z0. F100.
N1220 Z-9.683
N1225 G3 Y-2047.593 Z-10. J0.318 K0. F250.
N1230 G1 Y-2047.275
N1235 G17 G2 X0. Y-2046.958 I0.317 J0.
N1240 G1 X450. F1500.
N1245 G3 X451.788 Y-2045.17 I0. J1.787
N1250 G1 Y-1306.17
N1255 G3 X450. Y-1304.382 I-1.788 J0.
N1260 G1 X0.
N1265 G2 X-0.317 Y-1304.065 I0. J0.318 F250.
N1270 G1 Y-1303.748
N1275 G19 G3 Y-1303.43 Z-9.683 J0. K0.318
N1280 G1 Z20. F1500.
N1285 Y-2047.91
N1290 Z5.
N1295 Z-5. F100.
N1300 Z-14.683
N1305 G3 Y-2047.593 Z-15. J0.318 K0. F250.
N1310 G1 Y-2047.275
N1315 G17 G2 X0. Y-2046.958 I0.317 J0.
N1320 G1 X450. F1500.
N1325 G3 X451.788 Y-2045.17 I0. J1.787
N1330 G1 Y-1306.17
N1335 G3 X450. Y-1304.382 I-1.788 J0.
N1340 G1 X0.
N1345 G2 X-0.317 Y-1304.065 I0. J0.318 F250.
N1350 G1 Y-1303.748
N1355 G19 G3 Y-1303.43 Z-14.683 J0. K0.318
N1360 G1 Z20. F1500.
N1365 Y-2047.91
N1370 Z5.
N1375 Z-10. F100.
N1380 Z-16.433
N1385 G3 Y-2047.593 Z-16.75 J0.318 K0. F250.
N1390 G1 Y-2047.275
N1395 G17 G2 X0. Y-2046.958 I0.317 J0.
N1400 G1 X450. F1500.
N1405 G3 X451.788 Y-2045.17 I0. J1.787
N1410 G1 Y-1306.17
N1415 G3 X450. Y-1304.382 I-1.788 J0.
N1420 G1 X0.
N1425 G2 X-0.317 Y-1304.065 I0. J0.318 F250.
N1430 G1 Y-1303.748
N1435 G19 G3 Y-1303.43 Z-16.433 J0. K0.317
N1440 G1 Z45. F1500.
N1445 G17
(WHEN USING FUSION 360 FOR PERSONAL USE, THE FEEDRATE OF)
(RAPID MOVES IS REDUCED TO MATCH THE FEEDRATE OF CUTTING)
(MOVES, WHICH CAN INCREASE MACHINING TIME. UNRESTRICTED RAPID)
(MOVES ARE AVAILABLE WITH A FUSION 360 SUBSCRIPTION.)
(2D CONTOUR2 4)
N1450 G0 X-0.317 Y-2047.71
N1455 G1 Z45. F1500.
N1460 Z5.
N1465 Z-4.683 F100.
N1470 G19 G3 Y-2047.392 Z-5. J0.318 K0. F250.
N1475 G1 Y-2047.075
N1480 G17 G2 X0. Y-2046.757 I0.317 J0.
N1485 G1 X450. F1500.
N1490 G3 X451.587 Y-2045.17 I0. J1.587
N1495 G1 Y-1306.17
N1500 G3 X450. Y-1304.583 I-1.587 J0.
N1505 G1 X0.
N1510 G2 X-0.317 Y-1304.265 I0. J0.318 F250.
N1515 G1 Y-1303.948
N1520 G19 G3 Y-1303.63 Z-4.683 J0. K0.318
N1525 G1 Z20. F1500.
N1530 Y-2047.71
N1535 Z5.
N1540 Z0. F100.
N1545 Z-9.683
N1550 G3 Y-2047.392 Z-10. J0.318 K0. F250.
N1555 G1 Y-2047.075
N1560 G17 G2 X0. Y-2046.757 I0.317 J0.
N1565 G1 X450. F1500.
N1570 G3 X451.587 Y-2045.17 I0. J1.587
N1575 G1 Y-1306.17
N1580 G3 X450. Y-1304.583 I-1.587 J0.
N1585 G1 X0.
N1590 G2 X-0.317 Y-1304.265 I0. J0.318 F250.
N1595 G1 Y-1303.948
N1600 G19 G3 Y-1303.63 Z-9.683 J0. K0.318
N1605 G1 Z20. F1500.
N1610 Y-2047.71
N1615 Z5.
N1620 Z-5. F100.
N1625 Z-14.683
N1630 G3 Y-2047.392 Z-15. J0.318 K0. F250.
N1635 G1 Y-2047.075
N1640 G17 G2 X0. Y-2046.757 I0.317 J0.
N1645 G1 X450. F1500.
N1650 G3 X451.587 Y-2045.17 I0. J1.587
N1655 G1 Y-1306.17
N1660 G3 X450. Y-1304.583 I-1.587 J0.
N1665 G1 X0.
N1670 G2 X-0.317 Y-1304.265 I0. J0.318 F250.
N1675 G1 Y-1303.948
N1680 G19 G3 Y-1303.63 Z-14.683 J0. K0.318
N1685 G1 Z20. F1500.
N1690 Y-2047.71
N1695 Z5.
N1700 Z-10. F100.
N1705 Z-16.433
N1710 G3 Y-2047.392 Z-16.75 J0.318 K0. F250.
N1715 G1 Y-2047.075
N1720 G17 G2 X0. Y-2046.757 I0.317 J0.
N1725 G1 X450. F1500.
N1730 G3 X451.587 Y-2045.17 I0. J1.587
N1735 G1 Y-1306.17
N1740 G3 X450. Y-1304.583 I-1.587 J0.
N1745 G1 X0.
N1750 G2 X-0.317 Y-1304.265 I0. J0.318 F250.
N1755 G1 Y-1303.948
N1760 G19 G3 Y-1303.63 Z-16.433 J0. K0.317
N1765 G1 Z45. F1500.
N1770 G17
N1775 G53 G0 Z0.
N1780 G53 G0 X0. Y0.
N1785 M30
%
