%
(CUPBOARD_1_2MM_DRILL_V2)
(T1  D=2. CR=0. TAPER=118DEG - ZMIN=-17.601 - DRILL)
N10 G90 G94 G17 G91.1
N15 G21
N20 G53 G0 Z0.
(DRILL1)
N25 T1 M6
N30 S10000 M3
N35 G54
N40 G0 X20. Y-56.75
N45 G43 Z15. H1
N50 G0 Z5.
N55 G98 G81 X20. Y-56.75 Z-17.601 R5. F150.
N60 X230.
N65 X440.
N70 X405.5 Y-100.
N75 X341.5
N80 Y-164.
N85 X405.5
N90 X341.5 Y-694.5
N95 X405.5
N100 X440. Y-662.5
N105 X405.5 Y-630.5
N110 X341.5
N115 X230. Y-662.5
N120 X101. Y-694.5
N125 X37.
N130 X20. Y-662.5
N135 X37. Y-630.5
N140 X101.
N145 X405. Y-1381.174
N150 X440. Y-1268.25
N155 X405.5 Y-1225.
N160 X341.5
N165 Y-1161.
N170 X405.5
N175 X230. Y-1268.25
N180 X20.
N185 X30. Y-1381.174
N190 Y-1681.174
N195 Y-2035.174
N200 X405.
N205 G80
N210 G0 Z15.
(DRILL1 2)
N215 G0 X405. Y-1707.674
N220 Z15.
N225 Z5.
N230 G81 X405. Y-1707.674 Z-11. R5. F150.
N235 Y-1558.924
N240 Y-1538.924
N245 Y-1518.924
N250 Y-1498.924
N255 Y-1478.924
N260 X230.
N265 Y-1498.924
N270 Y-1518.924
N275 Y-1538.924
N280 Y-1558.924
N285 Y-1707.674
N290 X55.
N295 Y-1558.924
N300 Y-1538.924
N305 Y-1518.924
N310 Y-1498.924
N315 Y-1478.924
N320 X341.5 Y-1225.
N325 X405.5
N330 Y-1161.
N335 X341.5
N340 X405.5 Y-694.5
N345 X341.5
N350 Y-630.5
N355 X405.5
N360 X101.
N365 X37.
N370 Y-694.5
N375 X101.
N380 X405.5 Y-164.
N385 X341.5
N390 Y-100.
N395 X405.5
N400 G80
N405 G0 Z15.
N410 G53 G0 Z0.
N415 G53 G0 X0. Y0.
N420 M30
%
