%
(CUPBOARD_TOPSHELF_V1)
(MACHINE)
(  MODEL LASER SNAKE V2)
(  DESCRIPTION 3-AXIS ROUTER)
(T3  D=3.175 CR=0. - ZMIN=-16.25 - FLAT END MILL)
N10 G90 G94 G17 G91.1
N15 G21
(WHEN USING FUSION 360 FOR PERSONAL USE, THE FEEDRATE OF)
(RAPID MOVES IS REDUCED TO MATCH THE FEEDRATE OF CUTTING)
(MOVES, WHICH CAN INCREASE MACHINING TIME. UNRESTRICTED RAPID)
(MOVES ARE AVAILABLE WITH A FUSION 360 SUBSCRIPTION.)
N20 G53 G0 Z0.
(2D CONTOUR9)
N25 T3 M6
N30 S18000 M3
N35 G54
N40 G0 X691.651 Y-1271.45
N45 G43 Z15. H3
N50 G1 Z5. F1500.
N55 Z-3.745 F100.
N60 G18 G3 X691.333 Z-4.063 I-0.318 K0. F250.
N65 G1 X691.016
N70 G17 G2 X690.698 Y-1271.132 I0. J0.318
N75 G1 Y-55.135 F1500.
N80 G3 X689.111 Y-53.548 I-1.587 J0.
N85 G1 X639.111
N90 G3 X637.523 Y-55.135 I0. J-1.588
N95 G1 Y-1281.14
N100 G3 X639.111 Y-1282.728 I1.588 J0.
N105 G1 X689.111
N110 G3 X690.698 Y-1281.14 I0. J1.588
N115 G1 Y-1271.132
N120 G2 X691.016 Y-1270.815 I0.318 J0. F250.
N125 G1 X691.333
N130 G18 G2 X691.651 Z-3.745 I0. K0.317
N135 G1 Z5. F1500.
N140 Y-1271.45
N145 Z0.937 F100.
N150 Z-7.808
N155 G3 X691.333 Z-8.125 I-0.318 K0. F250.
N160 G1 X691.016
N165 G17 G2 X690.698 Y-1271.132 I0. J0.318
N170 G1 Y-55.135 F1500.
N175 G3 X689.111 Y-53.548 I-1.587 J0.
N180 G1 X639.111
N185 G3 X637.523 Y-55.135 I0. J-1.588
N190 G1 Y-1281.14
N195 G3 X639.111 Y-1282.728 I1.588 J0.
N200 G1 X689.111
N205 G3 X690.698 Y-1281.14 I0. J1.588
N210 G1 Y-1271.132
N215 G2 X691.016 Y-1270.815 I0.318 J0. F250.
N220 G1 X691.333
N225 G18 G2 X691.651 Z-7.808 I0. K0.317
N230 G1 Z5. F1500.
N235 Y-1271.45
N240 Z-3.125 F100.
N245 Z-11.87
N250 G3 X691.333 Z-12.188 I-0.318 K0. F250.
N255 G1 X691.016
N260 G17 G2 X690.698 Y-1271.132 I0. J0.318
N265 G1 Y-55.135 F1500.
N270 G3 X689.111 Y-53.548 I-1.587 J0.
N275 G1 X639.111
N280 G3 X637.523 Y-55.135 I0. J-1.588
N285 G1 Y-1281.14
N290 G3 X639.111 Y-1282.728 I1.588 J0.
N295 G1 X689.111
N300 G3 X690.698 Y-1281.14 I0. J1.588
N305 G1 Y-1271.132
N310 G2 X691.016 Y-1270.815 I0.318 J0. F250.
N315 G1 X691.333
N320 G18 G2 X691.651 Z-11.87 I0. K0.318
N325 G1 Z5. F1500.
N330 Y-1271.45
N335 Z-7.188 F100.
N340 Z-15.933
N345 G3 X691.333 Z-16.25 I-0.318 K0. F250.
N350 G1 X691.016
N355 G17 G2 X690.698 Y-1271.132 I0. J0.318
N360 G1 Y-55.135 F1500.
N365 G3 X689.111 Y-53.548 I-1.587 J0.
N370 G1 X639.111
N375 G3 X637.523 Y-55.135 I0. J-1.588
N380 G1 Y-1281.14
N385 G3 X639.111 Y-1282.728 I1.588 J0.
N390 G1 X689.111
N395 G3 X690.698 Y-1281.14 I0. J1.588
N400 G1 Y-1271.132
N405 G2 X691.016 Y-1270.815 I0.318 J0. F250.
N410 G1 X691.333
N415 G18 G2 X691.651 Z-15.933 I0. K0.317
N420 G1 Z15. F1500.
N425 G17
N430 G53 G0 Z0.
N435 G53 G0 X0. Y0.
N440 M30
%
