%
(CUPBOARD_3_PROFILE_V1)
(T1  D=6. CR=0. - ZMIN=-25.2 - FLAT END MILL)
N10 G90 G94 G17 G91.1
N15 G21
(WHEN USING FUSION 360 FOR PERSONAL USE, THE FEEDRATE OF)
(RAPID MOVES IS REDUCED TO MATCH THE FEEDRATE OF CUTTING)
(MOVES, WHICH CAN INCREASE MACHINING TIME. UNRESTRICTED RAPID)
(MOVES ARE AVAILABLE WITH A FUSION 360 SUBSCRIPTION.)
N20 G53 G0 Z0.
(2D CONTOUR1)
N25 T1 M6
N30 S12000 M3
N35 G54
N40 G0 X0. Y-1228.2
N45 G43 Z15. H1
N50 G1 Z5. F1500.
N55 Z-5.04 F333.33
N60 X627. F1500.
N65 G3 X630.2 Y-1225. I0. J3.2
N70 G1 Y-1006.25
N75 G3 X627. Y-1003.05 I-3.2 J0.
N80 G1 X500.
N85 G2 X453.2 Y-956.25 I0. J46.8
N90 G1 Y-268.75
N95 G2 X500. Y-221.95 I46.8 J0.
N100 G1 X627.
N105 G3 X630.2 Y-218.75 I0. J3.2
N110 G1 Y0.
N115 Z5.
N120 X0. Y-1228.2
N125 Z-0.04 F333.33
N130 Z-10.08
N135 X627. F1500.
N140 G3 X630.2 Y-1225. I0. J3.2
N145 G1 Y-1006.25
N150 G3 X627. Y-1003.05 I-3.2 J0.
N155 G1 X500.
N160 G2 X453.2 Y-956.25 I0. J46.8
N165 G1 Y-268.75
N170 G2 X500. Y-221.95 I46.8 J0.
N175 G1 X627.
N180 G3 X630.2 Y-218.75 I0. J3.2
N185 G1 Y0.
N190 Z5.
N195 X0. Y-1228.2
N200 Z-5.08 F333.33
N205 Z-15.12
N210 X627. F1500.
N215 G3 X630.2 Y-1225. I0. J3.2
N220 G1 Y-1006.25
N225 G3 X627. Y-1003.05 I-3.2 J0.
N230 G1 X500.
N235 G2 X453.2 Y-956.25 I0. J46.8
N240 G1 Y-268.75
N245 G2 X500. Y-221.95 I46.8 J0.
N250 G1 X627.
N255 G3 X630.2 Y-218.75 I0. J3.2
N260 G1 Y0.
N265 Z5.
N270 X0. Y-1228.2
N275 Z-10.12 F333.33
N280 Z-20.16
N285 X627. F1500.
N290 G3 X630.2 Y-1225. I0. J3.2
N295 G1 Y-1006.25
N300 G3 X627. Y-1003.05 I-3.2 J0.
N305 G1 X500.
N310 G2 X453.2 Y-956.25 I0. J46.8
N315 G1 Y-268.75
N320 G2 X500. Y-221.95 I46.8 J0.
N325 G1 X627.
N330 G3 X630.2 Y-218.75 I0. J3.2
N335 G1 Y0.
N340 Z5.
N345 X0. Y-1228.2
N350 Z-15.16 F333.33
N355 Z-25.2
N360 X627. F1500.
N365 G3 X630.2 Y-1225. I0. J3.2
N370 G1 Y-1006.25
N375 G3 X627. Y-1003.05 I-3.2 J0.
N380 G1 X500.
N385 G2 X453.2 Y-956.25 I0. J46.8
N390 G1 Y-268.75
N395 G2 X500. Y-221.95 I46.8 J0.
N400 G1 X627.
N405 G3 X630.2 Y-218.75 I0. J3.2
N410 G1 Y0.
N415 Z15.
(WHEN USING FUSION 360 FOR PERSONAL USE, THE FEEDRATE OF)
(RAPID MOVES IS REDUCED TO MATCH THE FEEDRATE OF CUTTING)
(MOVES, WHICH CAN INCREASE MACHINING TIME. UNRESTRICTED RAPID)
(MOVES ARE AVAILABLE WITH A FUSION 360 SUBSCRIPTION.)
(2D CONTOUR1 2)
N420 G0 X0. Y-1228.
N425 G1 Z15. F1500.
N430 Z5.
N435 Z-5.04 F333.33
N440 X627. F1500.
N445 G3 X630. Y-1225. I0. J3.
N450 G1 Y-1006.25
N455 G3 X627. Y-1003.25 I-3. J0.
N460 G1 X500.
N465 G2 X453. Y-956.25 I0. J47.
N470 G1 Y-268.75
N475 G2 X500. Y-221.75 I47. J0.
N480 G1 X627.
N485 G3 X630. Y-218.75 I0. J3.
N490 G1 Y0.
N495 Z5.
N500 X0. Y-1228.
N505 Z-0.04 F333.33
N510 Z-10.08
N515 X627. F1500.
N520 G3 X630. Y-1225. I0. J3.
N525 G1 Y-1006.25
N530 G3 X627. Y-1003.25 I-3. J0.
N535 G1 X500.
N540 G2 X453. Y-956.25 I0. J47.
N545 G1 Y-268.75
N550 G2 X500. Y-221.75 I47. J0.
N555 G1 X627.
N560 G3 X630. Y-218.75 I0. J3.
N565 G1 Y0.
N570 Z5.
N575 X0. Y-1228.
N580 Z-5.08 F333.33
N585 Z-15.12
N590 X627. F1500.
N595 G3 X630. Y-1225. I0. J3.
N600 G1 Y-1006.25
N605 G3 X627. Y-1003.25 I-3. J0.
N610 G1 X500.
N615 G2 X453. Y-956.25 I0. J47.
N620 G1 Y-268.75
N625 G2 X500. Y-221.75 I47. J0.
N630 G1 X627.
N635 G3 X630. Y-218.75 I0. J3.
N640 G1 Y0.
N645 Z5.
N650 X0. Y-1228.
N655 Z-10.12 F333.33
N660 Z-20.16
N665 X627. F1500.
N670 G3 X630. Y-1225. I0. J3.
N675 G1 Y-1006.25
N680 G3 X627. Y-1003.25 I-3. J0.
N685 G1 X500.
N690 G2 X453. Y-956.25 I0. J47.
N695 G1 Y-268.75
N700 G2 X500. Y-221.75 I47. J0.
N705 G1 X627.
N710 G3 X630. Y-218.75 I0. J3.
N715 G1 Y0.
N720 Z5.
N725 X0. Y-1228.
N730 Z-15.16 F333.33
N735 Z-25.2
N740 X627. F1500.
N745 G3 X630. Y-1225. I0. J3.
N750 G1 Y-1006.25
N755 G3 X627. Y-1003.25 I-3. J0.
N760 G1 X500.
N765 G2 X453. Y-956.25 I0. J47.
N770 G1 Y-268.75
N775 G2 X500. Y-221.75 I47. J0.
N780 G1 X627.
N785 G3 X630. Y-218.75 I0. J3.
N790 G1 Y0.
N795 Z15.
N800 G53 G0 Z0.
N805 G53 G0 X0. Y0.
N810 M30
%
