%
(CUPBOARD_2_2MM_DRILL)
(MACHINE)
(  MODEL LASER SNAKE V2)
(  DESCRIPTION 3-AXIS ROUTER)
(T1  D=2. CR=0. TAPER=118DEG - ZMIN=-17.601 - DRILL)
N10 G90 G94 G17 G91.1
N15 G21
N20 G53 G0 Z0.
(DRILL1 4)
N25 T1 M6
N30 S10000 M3
N35 G54
N40 G0 X430. Y-1304.299
N45 G43 Z15. H1
N50 G0 Z5.
N55 G98 G81 X430. Y-1304.299 Z-17.601 R5. F150.
N60 X405. Y-1402.049
N65 Y-1422.049
N70 Y-1442.049
N75 Y-1462.049
N80 Y-1482.049
N85 X430. Y-1604.299
N90 X405. Y-1630.799
N95 X230.
N100 Y-1482.049
N105 Y-1462.049
N110 Y-1442.049
N115 Y-1422.049
N120 Y-1402.049
N125 X55. Y-1304.299
N130 Y-1402.049
N135 Y-1422.049
N140 Y-1442.049
N145 Y-1462.049
N150 Y-1482.049
N155 Y-1630.799
N160 Y-1958.299
N165 X430.
N170 X405. Y-2386.429
N175 Y-2253.679
N180 Y-2233.679
N185 Y-2213.679
N190 Y-2193.679
N195 Y-2173.679
N200 X230. Y-2253.679
N205 Y-2233.679
N210 Y-2213.679
N215 Y-2193.679
N220 Y-2173.679
N225 X55.
N230 Y-2193.679
N235 Y-2213.679
N240 Y-2233.679
N245 Y-2253.679
N250 X105. Y-2386.429
N255 G80
N260 G0 Z15.
N265 G53 G0 Z0.
N270 G53 G0 X0. Y0.
N275 M30
%
