%
(CUPBOARD_2_PROFILE)
(MACHINE)
(  MODEL LASER SNAKE V2)
(  DESCRIPTION 3-AXIS ROUTER)
(T3  D=3.175 CR=0. - ZMIN=-16.75 - FLAT END MILL)
N10 G90 G94 G17 G91.1
N15 G21
(WHEN USING FUSION 360 FOR PERSONAL USE, THE FEEDRATE OF)
(RAPID MOVES IS REDUCED TO MATCH THE FEEDRATE OF CUTTING)
(MOVES, WHICH CAN INCREASE MACHINING TIME. UNRESTRICTED RAPID)
(MOVES ARE AVAILABLE WITH A FUSION 360 SUBSCRIPTION.)
N20 G53 G0 Z0.
(BORE1)
N25 T3 M6
N30 S18000 M3
N35 G54
N40 G0 X404.881 Y-2173.997
N45 G43 Z15. H3
N50 G1 Z2. F1500.
N55 Z0.317 F250.
N60 G18 G3 X404.564 Z0. I-0.318 K0.
N65 G1 X404.405
N70 G17 G2 X404.087 Y-2173.679 I0. J0.318
N75 X405.913 Z-0.087 I0.913 J0. F1500.
N80 X404.087 Z-0.175 I-0.913 J0.
N85 X405.913 Z-0.262 I0.913 J0.
N90 X404.087 Z-0.349 I-0.913 J0.
N95 X405.913 Z-0.437 I0.913 J0.
N100 X404.087 Z-0.524 I-0.913 J0.
N105 X405.913 Z-0.611 I0.913 J0.
N110 X404.087 Z-0.698 I-0.913 J0.
N115 X405.913 Z-0.786 I0.913 J0.
N120 X404.087 Z-0.873 I-0.913 J0.
N125 X405.913 Z-0.96 I0.913 J0.
N130 X404.087 Z-1.048 I-0.913 J0.
N135 X405.913 Z-1.135 I0.913 J0.
N140 X404.087 Z-1.222 I-0.913 J0.
N145 X405.913 Z-1.31 I0.913 J0.
N150 X404.087 Z-1.397 I-0.913 J0.
N155 X405.913 Z-1.484 I0.913 J0.
N160 X404.087 Z-1.571 I-0.913 J0.
N165 X405.913 Z-1.659 I0.913 J0.
N170 X404.087 Z-1.746 I-0.913 J0.
N175 X405.913 Z-1.833 I0.913 J0.
N180 X404.087 Z-1.921 I-0.913 J0.
N185 X405.913 Z-2.008 I0.913 J0.
N190 X404.087 Z-2.095 I-0.913 J0.
N195 X405.913 Z-2.183 I0.913 J0.
N200 X404.087 Z-2.27 I-0.913 J0.
N205 X405.913 Z-2.357 I0.913 J0.
N210 X404.087 Z-2.444 I-0.913 J0.
N215 X405.913 Z-2.532 I0.913 J0.
N220 X404.087 Z-2.619 I-0.913 J0.
N225 X405.913 Z-2.706 I0.913 J0.
N230 X404.087 Z-2.794 I-0.913 J0.
N235 X405.913 Z-2.881 I0.913 J0.
N240 X404.087 Z-2.968 I-0.913 J0.
N245 X405.913 Z-3.056 I0.913 J0.
N250 X404.087 Z-3.143 I-0.913 J0.
N255 X405.913 Z-3.23 I0.913 J0.
N260 X404.087 Z-3.317 I-0.913 J0.
N265 X405.913 Z-3.405 I0.913 J0.
N270 X404.087 Z-3.492 I-0.913 J0.
N275 X405.913 Z-3.579 I0.913 J0.
N280 X404.087 Z-3.667 I-0.913 J0.
N285 X405.913 Z-3.754 I0.913 J0.
N290 X404.087 Z-3.841 I-0.913 J0.
N295 X405.913 Z-3.929 I0.913 J0.
N300 X404.087 Z-4.016 I-0.913 J0.
N305 X405.913 Z-4.103 I0.913 J0.
N310 X404.087 Z-4.19 I-0.913 J0.
N315 X405.913 Z-4.278 I0.913 J0.
N320 X404.087 Z-4.365 I-0.913 J0.
N325 X405.913 Z-4.452 I0.913 J0.
N330 X404.087 Z-4.54 I-0.913 J0.
N335 X405.913 Z-4.627 I0.913 J0.
N340 X404.087 Z-4.714 I-0.913 J0.
N345 X405.913 Z-4.802 I0.913 J0.
N350 X404.087 Z-4.889 I-0.913 J0.
N355 X405.913 Z-4.976 I0.913 J0.
N360 X404.087 Z-5.064 I-0.913 J0.
N365 X405.913 Z-5.151 I0.913 J0.
N370 X404.087 Z-5.238 I-0.913 J0.
N375 X405.913 Z-5.325 I0.913 J0.
N380 X404.087 Z-5.413 I-0.913 J0.
N385 X405.913 Z-5.5 I0.913 J0.
N390 X404.087 Z-5.587 I-0.913 J0.
N395 X405.913 Z-5.675 I0.913 J0.
N400 X404.087 Z-5.762 I-0.913 J0.
N405 X405.913 Z-5.849 I0.913 J0.
N410 X404.087 Z-5.937 I-0.913 J0.
N415 X405.913 Z-6.024 I0.913 J0.
N420 X404.087 Z-6.111 I-0.913 J0.
N425 X405.913 Z-6.198 I0.913 J0.
N430 X404.087 Z-6.286 I-0.913 J0.
N435 X405.913 Z-6.373 I0.913 J0.
N440 X404.087 Z-6.46 I-0.913 J0.
N445 X405.913 Z-6.548 I0.913 J0.
N450 X404.087 Z-6.635 I-0.913 J0.
N455 X405.913 Z-6.722 I0.913 J0.
N460 X404.087 Z-6.81 I-0.913 J0.
N465 X405.913 Z-6.897 I0.913 J0.
N470 X404.087 Z-6.984 I-0.913 J0.
N475 X405.913 Z-7.071 I0.913 J0.
N480 X404.087 Z-7.159 I-0.913 J0.
N485 X405.913 Z-7.246 I0.913 J0.
N490 X404.087 Z-7.333 I-0.913 J0.
N495 X405.913 Z-7.421 I0.913 J0.
N500 X404.087 Z-7.508 I-0.913 J0.
N505 X405.913 Z-7.595 I0.913 J0.
N510 X404.087 Z-7.683 I-0.913 J0.
N515 X405.913 Z-7.77 I0.913 J0.
N520 X404.087 Z-7.857 I-0.913 J0.
N525 X405.913 Z-7.944 I0.913 J0.
N530 X404.087 Z-8.032 I-0.913 J0.
N535 X405.913 Z-8.119 I0.913 J0.
N540 X404.087 Z-8.206 I-0.913 J0.
N545 X405.913 Z-8.294 I0.913 J0.
N550 X404.087 Z-8.381 I-0.913 J0.
N555 X405.913 Z-8.468 I0.913 J0.
N560 X404.087 Z-8.556 I-0.913 J0.
N565 X405.913 Z-8.643 I0.913 J0.
N570 X404.087 Z-8.73 I-0.913 J0.
N575 X405.913 Z-8.817 I0.913 J0.
N580 X404.087 Z-8.905 I-0.913 J0.
N585 X405.913 Z-8.992 I0.913 J0.
N590 X404.087 Z-9.079 I-0.913 J0.
N595 X405.913 Z-9.167 I0.913 J0.
N600 X404.087 Z-9.254 I-0.913 J0.
N605 X405.913 Z-9.341 I0.913 J0.
N610 X404.087 Z-9.429 I-0.913 J0.
N615 X405.913 Z-9.516 I0.913 J0.
N620 X404.087 Z-9.603 I-0.913 J0.
N625 X405.913 Z-9.691 I0.913 J0.
N630 X404.087 Z-9.778 I-0.913 J0.
N635 X405.913 Z-9.865 I0.913 J0.
N640 X404.087 Z-9.952 I-0.913 J0.
N645 X405.913 Z-10.04 I0.913 J0.
N650 X404.087 Z-10.127 I-0.913 J0.
N655 X405.913 Z-10.214 I0.913 J0.
N660 X404.087 Z-10.302 I-0.913 J0.
N665 X405.913 Z-10.389 I0.913 J0.
N670 X404.087 Z-10.476 I-0.913 J0.
N675 X405.913 Z-10.564 I0.913 J0.
N680 X404.087 Z-10.651 I-0.913 J0.
N685 X405.913 Z-10.738 I0.913 J0.
N690 X404.087 Z-10.825 I-0.913 J0.
N695 X405.913 Z-10.913 I0.913 J0.
N700 X404.087 Z-11. I-0.913 J0.
N705 X405.913 Z-11.087 I0.913 J0.
N710 X404.087 Z-11.175 I-0.913 J0.
N715 X405.913 Z-11.262 I0.913 J0.
N720 X404.087 Z-11.349 I-0.913 J0.
N725 X405.913 Z-11.437 I0.913 J0.
N730 X404.087 Z-11.524 I-0.913 J0.
N735 X405.913 Z-11.611 I0.913 J0.
N740 X404.087 Z-11.698 I-0.913 J0.
N745 X405.913 Z-11.786 I0.913 J0.
N750 X404.087 Z-11.873 I-0.913 J0.
N755 X405.913 Z-11.96 I0.913 J0.
N760 X404.087 Z-12.048 I-0.913 J0.
N765 X405.913 Z-12.135 I0.913 J0.
N770 X404.087 Z-12.222 I-0.913 J0.
N775 X405.913 Z-12.31 I0.913 J0.
N780 X404.087 Z-12.397 I-0.913 J0.
N785 X405.913 Z-12.484 I0.913 J0.
N790 X404.087 Z-12.571 I-0.913 J0.
N795 X405.913 Z-12.659 I0.913 J0.
N800 X404.087 Z-12.746 I-0.913 J0.
N805 X405.913 Z-12.833 I0.913 J0.
N810 X404.087 Z-12.921 I-0.913 J0.
N815 X405.913 Z-13.008 I0.913 J0.
N820 X404.087 Z-13.095 I-0.913 J0.
N825 X405.913 Z-13.183 I0.913 J0.
N830 X404.087 Z-13.27 I-0.913 J0.
N835 X405.913 Z-13.357 I0.913 J0.
N840 X404.087 Z-13.444 I-0.913 J0.
N845 X405.913 Z-13.532 I0.913 J0.
N850 X404.087 Z-13.619 I-0.913 J0.
N855 X405.913 Z-13.706 I0.913 J0.
N860 X404.087 Z-13.794 I-0.913 J0.
N865 X405.913 Z-13.881 I0.913 J0.
N870 X404.087 Z-13.968 I-0.913 J0.
N875 X405.913 Z-14.056 I0.913 J0.
N880 X404.087 Z-14.143 I-0.913 J0.
N885 X405.913 Z-14.23 I0.913 J0.
N890 X404.087 Z-14.318 I-0.913 J0.
N895 X405.913 Z-14.405 I0.913 J0.
N900 X404.087 Z-14.492 I-0.913 J0.
N905 X405.913 Z-14.579 I0.913 J0.
N910 X404.087 Z-14.667 I-0.913 J0.
N915 X405.913 Z-14.754 I0.913 J0.
N920 X404.087 Z-14.841 I-0.913 J0.
N925 X405.913 Z-14.929 I0.913 J0.
N930 X404.087 Z-15.016 I-0.913 J0.
N935 X405.913 Z-15.103 I0.913 J0.
N940 X404.087 Z-15.191 I-0.913 J0.
N945 X405.913 Z-15.278 I0.913 J0.
N950 X404.087 Z-15.365 I-0.913 J0.
N955 X405.913 Z-15.452 I0.913 J0.
N960 X404.087 Z-15.54 I-0.913 J0.
N965 X405.913 Z-15.627 I0.913 J0.
N970 X404.087 Z-15.714 I-0.913 J0.
N975 X405.913 Z-15.802 I0.913 J0.
N980 X404.087 Z-15.889 I-0.913 J0.
N985 X405.913 Z-15.976 I0.913 J0.
N990 X405.599 Y-2174.368 Z-16. I-0.913 J0.
N995 X404.401 Y-2172.991 I-0.599 J0.688
N1000 X405.599 Y-2174.368 I0.599 J-0.688
N1005 X405.151 Y-2174.337 I-0.208 J0.24 F250.
N1010 G1 X405.047 Y-2174.217
N1015 X405.001 Y-2174.164 Z-15.992
N1020 X404.956 Y-2174.113 Z-15.969
N1025 X404.917 Y-2174.068 Z-15.931
N1030 X404.884 Y-2174.03 Z-15.88
N1035 X404.859 Y-2174.001 Z-15.82
N1040 X404.844 Y-2173.984 Z-15.753
N1045 X404.838 Y-2173.978 Z-15.682
N1050 Z5. F1500.
N1055 X404.881 Y-2193.997
N1060 Z2.
N1065 Z0.317 F250.
N1070 G18 G3 X404.564 Z0. I-0.318 K0.
N1075 G1 X404.405
N1080 G17 G2 X404.087 Y-2193.679 I0. J0.318
N1085 X405.913 Z-0.087 I0.913 J0. F1500.
N1090 X404.087 Z-0.175 I-0.913 J0.
N1095 X405.913 Z-0.262 I0.913 J0.
N1100 X404.087 Z-0.349 I-0.913 J0.
N1105 X405.913 Z-0.437 I0.913 J0.
N1110 X404.087 Z-0.524 I-0.913 J0.
N1115 X405.913 Z-0.611 I0.913 J0.
N1120 X404.087 Z-0.698 I-0.913 J0.
N1125 X405.913 Z-0.786 I0.913 J0.
N1130 X404.087 Z-0.873 I-0.913 J0.
N1135 X405.913 Z-0.96 I0.913 J0.
N1140 X404.087 Z-1.048 I-0.913 J0.
N1145 X405.913 Z-1.135 I0.913 J0.
N1150 X404.087 Z-1.222 I-0.913 J0.
N1155 X405.913 Z-1.31 I0.913 J0.
N1160 X404.087 Z-1.397 I-0.913 J0.
N1165 X405.913 Z-1.484 I0.913 J0.
N1170 X404.087 Z-1.571 I-0.913 J0.
N1175 X405.913 Z-1.659 I0.913 J0.
N1180 X404.087 Z-1.746 I-0.913 J0.
N1185 X405.913 Z-1.833 I0.913 J0.
N1190 X404.087 Z-1.921 I-0.913 J0.
N1195 X405.913 Z-2.008 I0.913 J0.
N1200 X404.087 Z-2.095 I-0.913 J0.
N1205 X405.913 Z-2.183 I0.913 J0.
N1210 X404.087 Z-2.27 I-0.913 J0.
N1215 X405.913 Z-2.357 I0.913 J0.
N1220 X404.087 Z-2.444 I-0.913 J0.
N1225 X405.913 Z-2.532 I0.913 J0.
N1230 X404.087 Z-2.619 I-0.913 J0.
N1235 X405.913 Z-2.706 I0.913 J0.
N1240 X404.087 Z-2.794 I-0.913 J0.
N1245 X405.913 Z-2.881 I0.913 J0.
N1250 X404.087 Z-2.968 I-0.913 J0.
N1255 X405.913 Z-3.056 I0.913 J0.
N1260 X404.087 Z-3.143 I-0.913 J0.
N1265 X405.913 Z-3.23 I0.913 J0.
N1270 X404.087 Z-3.317 I-0.913 J0.
N1275 X405.913 Z-3.405 I0.913 J0.
N1280 X404.087 Z-3.492 I-0.913 J0.
N1285 X405.913 Z-3.579 I0.913 J0.
N1290 X404.087 Z-3.667 I-0.913 J0.
N1295 X405.913 Z-3.754 I0.913 J0.
N1300 X404.087 Z-3.841 I-0.913 J0.
N1305 X405.913 Z-3.929 I0.913 J0.
N1310 X404.087 Z-4.016 I-0.913 J0.
N1315 X405.913 Z-4.103 I0.913 J0.
N1320 X404.087 Z-4.19 I-0.913 J0.
N1325 X405.913 Z-4.278 I0.913 J0.
N1330 X404.087 Z-4.365 I-0.913 J0.
N1335 X405.913 Z-4.452 I0.913 J0.
N1340 X404.087 Z-4.54 I-0.913 J0.
N1345 X405.913 Z-4.627 I0.913 J0.
N1350 X404.087 Z-4.714 I-0.913 J0.
N1355 X405.913 Z-4.802 I0.913 J0.
N1360 X404.087 Z-4.889 I-0.913 J0.
N1365 X405.913 Z-4.976 I0.913 J0.
N1370 X404.087 Z-5.064 I-0.913 J0.
N1375 X405.913 Z-5.151 I0.913 J0.
N1380 X404.087 Z-5.238 I-0.913 J0.
N1385 X405.913 Z-5.325 I0.913 J0.
N1390 X404.087 Z-5.413 I-0.913 J0.
N1395 X405.913 Z-5.5 I0.913 J0.
N1400 X404.087 Z-5.587 I-0.913 J0.
N1405 X405.913 Z-5.675 I0.913 J0.
N1410 X404.087 Z-5.762 I-0.913 J0.
N1415 X405.913 Z-5.849 I0.913 J0.
N1420 X404.087 Z-5.937 I-0.913 J0.
N1425 X405.913 Z-6.024 I0.913 J0.
N1430 X404.087 Z-6.111 I-0.913 J0.
N1435 X405.913 Z-6.198 I0.913 J0.
N1440 X404.087 Z-6.286 I-0.913 J0.
N1445 X405.913 Z-6.373 I0.913 J0.
N1450 X404.087 Z-6.46 I-0.913 J0.
N1455 X405.913 Z-6.548 I0.913 J0.
N1460 X404.087 Z-6.635 I-0.913 J0.
N1465 X405.913 Z-6.722 I0.913 J0.
N1470 X404.087 Z-6.81 I-0.913 J0.
N1475 X405.913 Z-6.897 I0.913 J0.
N1480 X404.087 Z-6.984 I-0.913 J0.
N1485 X405.913 Z-7.071 I0.913 J0.
N1490 X404.087 Z-7.159 I-0.913 J0.
N1495 X405.913 Z-7.246 I0.913 J0.
N1500 X404.087 Z-7.333 I-0.913 J0.
N1505 X405.913 Z-7.421 I0.913 J0.
N1510 X404.087 Z-7.508 I-0.913 J0.
N1515 X405.913 Z-7.595 I0.913 J0.
N1520 X404.087 Z-7.683 I-0.913 J0.
N1525 X405.913 Z-7.77 I0.913 J0.
N1530 X404.087 Z-7.857 I-0.913 J0.
N1535 X405.913 Z-7.944 I0.913 J0.
N1540 X404.087 Z-8.032 I-0.913 J0.
N1545 X405.913 Z-8.119 I0.913 J0.
N1550 X404.087 Z-8.206 I-0.913 J0.
N1555 X405.913 Z-8.294 I0.913 J0.
N1560 X404.087 Z-8.381 I-0.913 J0.
N1565 X405.913 Z-8.468 I0.913 J0.
N1570 X404.087 Z-8.556 I-0.913 J0.
N1575 X405.913 Z-8.643 I0.913 J0.
N1580 X404.087 Z-8.73 I-0.913 J0.
N1585 X405.913 Z-8.817 I0.913 J0.
N1590 X404.087 Z-8.905 I-0.913 J0.
N1595 X405.913 Z-8.992 I0.913 J0.
N1600 X404.087 Z-9.079 I-0.913 J0.
N1605 X405.913 Z-9.167 I0.913 J0.
N1610 X404.087 Z-9.254 I-0.913 J0.
N1615 X405.913 Z-9.341 I0.913 J0.
N1620 X404.087 Z-9.429 I-0.913 J0.
N1625 X405.913 Z-9.516 I0.913 J0.
N1630 X404.087 Z-9.603 I-0.913 J0.
N1635 X405.913 Z-9.691 I0.913 J0.
N1640 X404.087 Z-9.778 I-0.913 J0.
N1645 X405.913 Z-9.865 I0.913 J0.
N1650 X404.087 Z-9.952 I-0.913 J0.
N1655 X405.913 Z-10.04 I0.913 J0.
N1660 X404.087 Z-10.127 I-0.913 J0.
N1665 X405.913 Z-10.214 I0.913 J0.
N1670 X404.087 Z-10.302 I-0.913 J0.
N1675 X405.913 Z-10.389 I0.913 J0.
N1680 X404.087 Z-10.476 I-0.913 J0.
N1685 X405.913 Z-10.564 I0.913 J0.
N1690 X404.087 Z-10.651 I-0.913 J0.
N1695 X405.913 Z-10.738 I0.913 J0.
N1700 X404.087 Z-10.825 I-0.913 J0.
N1705 X405.913 Z-10.913 I0.913 J0.
N1710 X404.087 Z-11. I-0.913 J0.
N1715 X405.913 Z-11.087 I0.913 J0.
N1720 X404.087 Z-11.175 I-0.913 J0.
N1725 X405.913 Z-11.262 I0.913 J0.
N1730 X404.087 Z-11.349 I-0.913 J0.
N1735 X405.913 Z-11.437 I0.913 J0.
N1740 X404.087 Z-11.524 I-0.913 J0.
N1745 X405.913 Z-11.611 I0.913 J0.
N1750 X404.087 Z-11.698 I-0.913 J0.
N1755 X405.913 Z-11.786 I0.913 J0.
N1760 X404.087 Z-11.873 I-0.913 J0.
N1765 X405.913 Z-11.96 I0.913 J0.
N1770 X404.087 Z-12.048 I-0.913 J0.
N1775 X405.913 Z-12.135 I0.913 J0.
N1780 X404.087 Z-12.222 I-0.913 J0.
N1785 X405.913 Z-12.31 I0.913 J0.
N1790 X404.087 Z-12.397 I-0.913 J0.
N1795 X405.913 Z-12.484 I0.913 J0.
N1800 X404.087 Z-12.571 I-0.913 J0.
N1805 X405.913 Z-12.659 I0.913 J0.
N1810 X404.087 Z-12.746 I-0.913 J0.
N1815 X405.913 Z-12.833 I0.913 J0.
N1820 X404.087 Z-12.921 I-0.913 J0.
N1825 X405.913 Z-13.008 I0.913 J0.
N1830 X404.087 Z-13.095 I-0.913 J0.
N1835 X405.913 Z-13.183 I0.913 J0.
N1840 X404.087 Z-13.27 I-0.913 J0.
N1845 X405.913 Z-13.357 I0.913 J0.
N1850 X404.087 Z-13.444 I-0.913 J0.
N1855 X405.913 Z-13.532 I0.913 J0.
N1860 X404.087 Z-13.619 I-0.913 J0.
N1865 X405.913 Z-13.706 I0.913 J0.
N1870 X404.087 Z-13.794 I-0.913 J0.
N1875 X405.913 Z-13.881 I0.913 J0.
N1880 X404.087 Z-13.968 I-0.913 J0.
N1885 X405.913 Z-14.056 I0.913 J0.
N1890 X404.087 Z-14.143 I-0.913 J0.
N1895 X405.913 Z-14.23 I0.913 J0.
N1900 X404.087 Z-14.318 I-0.913 J0.
N1905 X405.913 Z-14.405 I0.913 J0.
N1910 X404.087 Z-14.492 I-0.913 J0.
N1915 X405.913 Z-14.579 I0.913 J0.
N1920 X404.087 Z-14.667 I-0.913 J0.
N1925 X405.913 Z-14.754 I0.913 J0.
N1930 X404.087 Z-14.841 I-0.913 J0.
N1935 X405.913 Z-14.929 I0.913 J0.
N1940 X404.087 Z-15.016 I-0.913 J0.
N1945 X405.913 Z-15.103 I0.913 J0.
N1950 X404.087 Z-15.191 I-0.913 J0.
N1955 X405.913 Z-15.278 I0.913 J0.
N1960 X404.087 Z-15.365 I-0.913 J0.
N1965 X405.913 Z-15.452 I0.913 J0.
N1970 X404.087 Z-15.54 I-0.913 J0.
N1975 X405.913 Z-15.627 I0.913 J0.
N1980 X404.087 Z-15.714 I-0.913 J0.
N1985 X405.913 Z-15.802 I0.913 J0.
N1990 X404.087 Z-15.889 I-0.913 J0.
N1995 X405.913 Z-15.976 I0.913 J0.
N2000 X405.599 Y-2194.368 Z-16. I-0.913 J0.
N2005 X404.401 Y-2192.991 I-0.599 J0.688
N2010 X405.599 Y-2194.368 I0.599 J-0.688
N2015 X405.151 Y-2194.337 I-0.208 J0.24 F250.
N2020 G1 X405.047 Y-2194.217
N2025 X405.001 Y-2194.164 Z-15.992
N2030 X404.956 Y-2194.113 Z-15.969
N2035 X404.917 Y-2194.068 Z-15.931
N2040 X404.884 Y-2194.03 Z-15.88
N2045 X404.859 Y-2194.001 Z-15.82
N2050 X404.844 Y-2193.984 Z-15.753
N2055 X404.838 Y-2193.978 Z-15.682
N2060 Z5. F1500.
N2065 X404.881 Y-2213.997
N2070 Z2.
N2075 Z0.317 F250.
N2080 G18 G3 X404.564 Z0. I-0.318 K0.
N2085 G1 X404.405
N2090 G17 G2 X404.087 Y-2213.679 I0. J0.318
N2095 X405.913 Z-0.087 I0.913 J0. F1500.
N2100 X404.087 Z-0.175 I-0.913 J0.
N2105 X405.913 Z-0.262 I0.913 J0.
N2110 X404.087 Z-0.349 I-0.913 J0.
N2115 X405.913 Z-0.437 I0.913 J0.
N2120 X404.087 Z-0.524 I-0.913 J0.
N2125 X405.913 Z-0.611 I0.913 J0.
N2130 X404.087 Z-0.698 I-0.913 J0.
N2135 X405.913 Z-0.786 I0.913 J0.
N2140 X404.087 Z-0.873 I-0.913 J0.
N2145 X405.913 Z-0.96 I0.913 J0.
N2150 X404.087 Z-1.048 I-0.913 J0.
N2155 X405.913 Z-1.135 I0.913 J0.
N2160 X404.087 Z-1.222 I-0.913 J0.
N2165 X405.913 Z-1.31 I0.913 J0.
N2170 X404.087 Z-1.397 I-0.913 J0.
N2175 X405.913 Z-1.484 I0.913 J0.
N2180 X404.087 Z-1.571 I-0.913 J0.
N2185 X405.913 Z-1.659 I0.913 J0.
N2190 X404.087 Z-1.746 I-0.913 J0.
N2195 X405.913 Z-1.833 I0.913 J0.
N2200 X404.087 Z-1.921 I-0.913 J0.
N2205 X405.913 Z-2.008 I0.913 J0.
N2210 X404.087 Z-2.095 I-0.913 J0.
N2215 X405.913 Z-2.183 I0.913 J0.
N2220 X404.087 Z-2.27 I-0.913 J0.
N2225 X405.913 Z-2.357 I0.913 J0.
N2230 X404.087 Z-2.444 I-0.913 J0.
N2235 X405.913 Z-2.532 I0.913 J0.
N2240 X404.087 Z-2.619 I-0.913 J0.
N2245 X405.913 Z-2.706 I0.913 J0.
N2250 X404.087 Z-2.794 I-0.913 J0.
N2255 X405.913 Z-2.881 I0.913 J0.
N2260 X404.087 Z-2.968 I-0.913 J0.
N2265 X405.913 Z-3.056 I0.913 J0.
N2270 X404.087 Z-3.143 I-0.913 J0.
N2275 X405.913 Z-3.23 I0.913 J0.
N2280 X404.087 Z-3.317 I-0.913 J0.
N2285 X405.913 Z-3.405 I0.913 J0.
N2290 X404.087 Z-3.492 I-0.913 J0.
N2295 X405.913 Z-3.579 I0.913 J0.
N2300 X404.087 Z-3.667 I-0.913 J0.
N2305 X405.913 Z-3.754 I0.913 J0.
N2310 X404.087 Z-3.841 I-0.913 J0.
N2315 X405.913 Z-3.929 I0.913 J0.
N2320 X404.087 Z-4.016 I-0.913 J0.
N2325 X405.913 Z-4.103 I0.913 J0.
N2330 X404.087 Z-4.19 I-0.913 J0.
N2335 X405.913 Z-4.278 I0.913 J0.
N2340 X404.087 Z-4.365 I-0.913 J0.
N2345 X405.913 Z-4.452 I0.913 J0.
N2350 X404.087 Z-4.54 I-0.913 J0.
N2355 X405.913 Z-4.627 I0.913 J0.
N2360 X404.087 Z-4.714 I-0.913 J0.
N2365 X405.913 Z-4.802 I0.913 J0.
N2370 X404.087 Z-4.889 I-0.913 J0.
N2375 X405.913 Z-4.976 I0.913 J0.
N2380 X404.087 Z-5.064 I-0.913 J0.
N2385 X405.913 Z-5.151 I0.913 J0.
N2390 X404.087 Z-5.238 I-0.913 J0.
N2395 X405.913 Z-5.325 I0.913 J0.
N2400 X404.087 Z-5.413 I-0.913 J0.
N2405 X405.913 Z-5.5 I0.913 J0.
N2410 X404.087 Z-5.587 I-0.913 J0.
N2415 X405.913 Z-5.675 I0.913 J0.
N2420 X404.087 Z-5.762 I-0.913 J0.
N2425 X405.913 Z-5.849 I0.913 J0.
N2430 X404.087 Z-5.937 I-0.913 J0.
N2435 X405.913 Z-6.024 I0.913 J0.
N2440 X404.087 Z-6.111 I-0.913 J0.
N2445 X405.913 Z-6.198 I0.913 J0.
N2450 X404.087 Z-6.286 I-0.913 J0.
N2455 X405.913 Z-6.373 I0.913 J0.
N2460 X404.087 Z-6.46 I-0.913 J0.
N2465 X405.913 Z-6.548 I0.913 J0.
N2470 X404.087 Z-6.635 I-0.913 J0.
N2475 X405.913 Z-6.722 I0.913 J0.
N2480 X404.087 Z-6.81 I-0.913 J0.
N2485 X405.913 Z-6.897 I0.913 J0.
N2490 X404.087 Z-6.984 I-0.913 J0.
N2495 X405.913 Z-7.071 I0.913 J0.
N2500 X404.087 Z-7.159 I-0.913 J0.
N2505 X405.913 Z-7.246 I0.913 J0.
N2510 X404.087 Z-7.333 I-0.913 J0.
N2515 X405.913 Z-7.421 I0.913 J0.
N2520 X404.087 Z-7.508 I-0.913 J0.
N2525 X405.913 Z-7.595 I0.913 J0.
N2530 X404.087 Z-7.683 I-0.913 J0.
N2535 X405.913 Z-7.77 I0.913 J0.
N2540 X404.087 Z-7.857 I-0.913 J0.
N2545 X405.913 Z-7.944 I0.913 J0.
N2550 X404.087 Z-8.032 I-0.913 J0.
N2555 X405.913 Z-8.119 I0.913 J0.
N2560 X404.087 Z-8.206 I-0.913 J0.
N2565 X405.913 Z-8.294 I0.913 J0.
N2570 X404.087 Z-8.381 I-0.913 J0.
N2575 X405.913 Z-8.468 I0.913 J0.
N2580 X404.087 Z-8.556 I-0.913 J0.
N2585 X405.913 Z-8.643 I0.913 J0.
N2590 X404.087 Z-8.73 I-0.913 J0.
N2595 X405.913 Z-8.817 I0.913 J0.
N2600 X404.087 Z-8.905 I-0.913 J0.
N2605 X405.913 Z-8.992 I0.913 J0.
N2610 X404.087 Z-9.079 I-0.913 J0.
N2615 X405.913 Z-9.167 I0.913 J0.
N2620 X404.087 Z-9.254 I-0.913 J0.
N2625 X405.913 Z-9.341 I0.913 J0.
N2630 X404.087 Z-9.429 I-0.913 J0.
N2635 X405.913 Z-9.516 I0.913 J0.
N2640 X404.087 Z-9.603 I-0.913 J0.
N2645 X405.913 Z-9.691 I0.913 J0.
N2650 X404.087 Z-9.778 I-0.913 J0.
N2655 X405.913 Z-9.865 I0.913 J0.
N2660 X404.087 Z-9.952 I-0.913 J0.
N2665 X405.913 Z-10.04 I0.913 J0.
N2670 X404.087 Z-10.127 I-0.913 J0.
N2675 X405.913 Z-10.214 I0.913 J0.
N2680 X404.087 Z-10.302 I-0.913 J0.
N2685 X405.913 Z-10.389 I0.913 J0.
N2690 X404.087 Z-10.476 I-0.913 J0.
N2695 X405.913 Z-10.564 I0.913 J0.
N2700 X404.087 Z-10.651 I-0.913 J0.
N2705 X405.913 Z-10.738 I0.913 J0.
N2710 X404.087 Z-10.825 I-0.913 J0.
N2715 X405.913 Z-10.913 I0.913 J0.
N2720 X404.087 Z-11. I-0.913 J0.
N2725 X405.913 Z-11.087 I0.913 J0.
N2730 X404.087 Z-11.175 I-0.913 J0.
N2735 X405.913 Z-11.262 I0.913 J0.
N2740 X404.087 Z-11.349 I-0.913 J0.
N2745 X405.913 Z-11.437 I0.913 J0.
N2750 X404.087 Z-11.524 I-0.913 J0.
N2755 X405.913 Z-11.611 I0.913 J0.
N2760 X404.087 Z-11.698 I-0.913 J0.
N2765 X405.913 Z-11.786 I0.913 J0.
N2770 X404.087 Z-11.873 I-0.913 J0.
N2775 X405.913 Z-11.96 I0.913 J0.
N2780 X404.087 Z-12.048 I-0.913 J0.
N2785 X405.913 Z-12.135 I0.913 J0.
N2790 X404.087 Z-12.222 I-0.913 J0.
N2795 X405.913 Z-12.31 I0.913 J0.
N2800 X404.087 Z-12.397 I-0.913 J0.
N2805 X405.913 Z-12.484 I0.913 J0.
N2810 X404.087 Z-12.571 I-0.913 J0.
N2815 X405.913 Z-12.659 I0.913 J0.
N2820 X404.087 Z-12.746 I-0.913 J0.
N2825 X405.913 Z-12.833 I0.913 J0.
N2830 X404.087 Z-12.921 I-0.913 J0.
N2835 X405.913 Z-13.008 I0.913 J0.
N2840 X404.087 Z-13.095 I-0.913 J0.
N2845 X405.913 Z-13.183 I0.913 J0.
N2850 X404.087 Z-13.27 I-0.913 J0.
N2855 X405.913 Z-13.357 I0.913 J0.
N2860 X404.087 Z-13.444 I-0.913 J0.
N2865 X405.913 Z-13.532 I0.913 J0.
N2870 X404.087 Z-13.619 I-0.913 J0.
N2875 X405.913 Z-13.706 I0.913 J0.
N2880 X404.087 Z-13.794 I-0.913 J0.
N2885 X405.913 Z-13.881 I0.913 J0.
N2890 X404.087 Z-13.968 I-0.913 J0.
N2895 X405.913 Z-14.056 I0.913 J0.
N2900 X404.087 Z-14.143 I-0.913 J0.
N2905 X405.913 Z-14.23 I0.913 J0.
N2910 X404.087 Z-14.318 I-0.913 J0.
N2915 X405.913 Z-14.405 I0.913 J0.
N2920 X404.087 Z-14.492 I-0.913 J0.
N2925 X405.913 Z-14.579 I0.913 J0.
N2930 X404.087 Z-14.667 I-0.913 J0.
N2935 X405.913 Z-14.754 I0.913 J0.
N2940 X404.087 Z-14.841 I-0.913 J0.
N2945 X405.913 Z-14.929 I0.913 J0.
N2950 X404.087 Z-15.016 I-0.913 J0.
N2955 X405.913 Z-15.103 I0.913 J0.
N2960 X404.087 Z-15.191 I-0.913 J0.
N2965 X405.913 Z-15.278 I0.913 J0.
N2970 X404.087 Z-15.365 I-0.913 J0.
N2975 X405.913 Z-15.452 I0.913 J0.
N2980 X404.087 Z-15.54 I-0.913 J0.
N2985 X405.913 Z-15.627 I0.913 J0.
N2990 X404.087 Z-15.714 I-0.913 J0.
N2995 X405.913 Z-15.802 I0.913 J0.
N3000 X404.087 Z-15.889 I-0.913 J0.
N3005 X405.913 Z-15.976 I0.913 J0.
N3010 X405.599 Y-2214.368 Z-16. I-0.913 J0.
N3015 X404.401 Y-2212.991 I-0.599 J0.688
N3020 X405.599 Y-2214.368 I0.599 J-0.688
N3025 X405.151 Y-2214.337 I-0.208 J0.24 F250.
N3030 G1 X405.047 Y-2214.217
N3035 X405.001 Y-2214.164 Z-15.992
N3040 X404.956 Y-2214.113 Z-15.969
N3045 X404.917 Y-2214.068 Z-15.931
N3050 X404.884 Y-2214.03 Z-15.88
N3055 X404.859 Y-2214.001 Z-15.82
N3060 X404.844 Y-2213.984 Z-15.753
N3065 X404.838 Y-2213.978 Z-15.682
N3070 Z5. F1500.
N3075 X404.881 Y-2233.997
N3080 Z2.
N3085 Z0.317 F250.
N3090 G18 G3 X404.564 Z0. I-0.318 K0.
N3095 G1 X404.405
N3100 G17 G2 X404.087 Y-2233.679 I0. J0.318
N3105 X405.913 Z-0.087 I0.913 J0. F1500.
N3110 X404.087 Z-0.175 I-0.913 J0.
N3115 X405.913 Z-0.262 I0.913 J0.
N3120 X404.087 Z-0.349 I-0.913 J0.
N3125 X405.913 Z-0.437 I0.913 J0.
N3130 X404.087 Z-0.524 I-0.913 J0.
N3135 X405.913 Z-0.611 I0.913 J0.
N3140 X404.087 Z-0.698 I-0.913 J0.
N3145 X405.913 Z-0.786 I0.913 J0.
N3150 X404.087 Z-0.873 I-0.913 J0.
N3155 X405.913 Z-0.96 I0.913 J0.
N3160 X404.087 Z-1.048 I-0.913 J0.
N3165 X405.913 Z-1.135 I0.913 J0.
N3170 X404.087 Z-1.222 I-0.913 J0.
N3175 X405.913 Z-1.31 I0.913 J0.
N3180 X404.087 Z-1.397 I-0.913 J0.
N3185 X405.913 Z-1.484 I0.913 J0.
N3190 X404.087 Z-1.571 I-0.913 J0.
N3195 X405.913 Z-1.659 I0.913 J0.
N3200 X404.087 Z-1.746 I-0.913 J0.
N3205 X405.913 Z-1.833 I0.913 J0.
N3210 X404.087 Z-1.921 I-0.913 J0.
N3215 X405.913 Z-2.008 I0.913 J0.
N3220 X404.087 Z-2.095 I-0.913 J0.
N3225 X405.913 Z-2.183 I0.913 J0.
N3230 X404.087 Z-2.27 I-0.913 J0.
N3235 X405.913 Z-2.357 I0.913 J0.
N3240 X404.087 Z-2.444 I-0.913 J0.
N3245 X405.913 Z-2.532 I0.913 J0.
N3250 X404.087 Z-2.619 I-0.913 J0.
N3255 X405.913 Z-2.706 I0.913 J0.
N3260 X404.087 Z-2.794 I-0.913 J0.
N3265 X405.913 Z-2.881 I0.913 J0.
N3270 X404.087 Z-2.968 I-0.913 J0.
N3275 X405.913 Z-3.056 I0.913 J0.
N3280 X404.087 Z-3.143 I-0.913 J0.
N3285 X405.913 Z-3.23 I0.913 J0.
N3290 X404.087 Z-3.317 I-0.913 J0.
N3295 X405.913 Z-3.405 I0.913 J0.
N3300 X404.087 Z-3.492 I-0.913 J0.
N3305 X405.913 Z-3.579 I0.913 J0.
N3310 X404.087 Z-3.667 I-0.913 J0.
N3315 X405.913 Z-3.754 I0.913 J0.
N3320 X404.087 Z-3.841 I-0.913 J0.
N3325 X405.913 Z-3.929 I0.913 J0.
N3330 X404.087 Z-4.016 I-0.913 J0.
N3335 X405.913 Z-4.103 I0.913 J0.
N3340 X404.087 Z-4.19 I-0.913 J0.
N3345 X405.913 Z-4.278 I0.913 J0.
N3350 X404.087 Z-4.365 I-0.913 J0.
N3355 X405.913 Z-4.452 I0.913 J0.
N3360 X404.087 Z-4.54 I-0.913 J0.
N3365 X405.913 Z-4.627 I0.913 J0.
N3370 X404.087 Z-4.714 I-0.913 J0.
N3375 X405.913 Z-4.802 I0.913 J0.
N3380 X404.087 Z-4.889 I-0.913 J0.
N3385 X405.913 Z-4.976 I0.913 J0.
N3390 X404.087 Z-5.064 I-0.913 J0.
N3395 X405.913 Z-5.151 I0.913 J0.
N3400 X404.087 Z-5.238 I-0.913 J0.
N3405 X405.913 Z-5.325 I0.913 J0.
N3410 X404.087 Z-5.413 I-0.913 J0.
N3415 X405.913 Z-5.5 I0.913 J0.
N3420 X404.087 Z-5.587 I-0.913 J0.
N3425 X405.913 Z-5.675 I0.913 J0.
N3430 X404.087 Z-5.762 I-0.913 J0.
N3435 X405.913 Z-5.849 I0.913 J0.
N3440 X404.087 Z-5.937 I-0.913 J0.
N3445 X405.913 Z-6.024 I0.913 J0.
N3450 X404.087 Z-6.111 I-0.913 J0.
N3455 X405.913 Z-6.198 I0.913 J0.
N3460 X404.087 Z-6.286 I-0.913 J0.
N3465 X405.913 Z-6.373 I0.913 J0.
N3470 X404.087 Z-6.46 I-0.913 J0.
N3475 X405.913 Z-6.548 I0.913 J0.
N3480 X404.087 Z-6.635 I-0.913 J0.
N3485 X405.913 Z-6.722 I0.913 J0.
N3490 X404.087 Z-6.81 I-0.913 J0.
N3495 X405.913 Z-6.897 I0.913 J0.
N3500 X404.087 Z-6.984 I-0.913 J0.
N3505 X405.913 Z-7.071 I0.913 J0.
N3510 X404.087 Z-7.159 I-0.913 J0.
N3515 X405.913 Z-7.246 I0.913 J0.
N3520 X404.087 Z-7.333 I-0.913 J0.
N3525 X405.913 Z-7.421 I0.913 J0.
N3530 X404.087 Z-7.508 I-0.913 J0.
N3535 X405.913 Z-7.595 I0.913 J0.
N3540 X404.087 Z-7.683 I-0.913 J0.
N3545 X405.913 Z-7.77 I0.913 J0.
N3550 X404.087 Z-7.857 I-0.913 J0.
N3555 X405.913 Z-7.944 I0.913 J0.
N3560 X404.087 Z-8.032 I-0.913 J0.
N3565 X405.913 Z-8.119 I0.913 J0.
N3570 X404.087 Z-8.206 I-0.913 J0.
N3575 X405.913 Z-8.294 I0.913 J0.
N3580 X404.087 Z-8.381 I-0.913 J0.
N3585 X405.913 Z-8.468 I0.913 J0.
N3590 X404.087 Z-8.556 I-0.913 J0.
N3595 X405.913 Z-8.643 I0.913 J0.
N3600 X404.087 Z-8.73 I-0.913 J0.
N3605 X405.913 Z-8.817 I0.913 J0.
N3610 X404.087 Z-8.905 I-0.913 J0.
N3615 X405.913 Z-8.992 I0.913 J0.
N3620 X404.087 Z-9.079 I-0.913 J0.
N3625 X405.913 Z-9.167 I0.913 J0.
N3630 X404.087 Z-9.254 I-0.913 J0.
N3635 X405.913 Z-9.341 I0.913 J0.
N3640 X404.087 Z-9.429 I-0.913 J0.
N3645 X405.913 Z-9.516 I0.913 J0.
N3650 X404.087 Z-9.603 I-0.913 J0.
N3655 X405.913 Z-9.691 I0.913 J0.
N3660 X404.087 Z-9.778 I-0.913 J0.
N3665 X405.913 Z-9.865 I0.913 J0.
N3670 X404.087 Z-9.952 I-0.913 J0.
N3675 X405.913 Z-10.04 I0.913 J0.
N3680 X404.087 Z-10.127 I-0.913 J0.
N3685 X405.913 Z-10.214 I0.913 J0.
N3690 X404.087 Z-10.302 I-0.913 J0.
N3695 X405.913 Z-10.389 I0.913 J0.
N3700 X404.087 Z-10.476 I-0.913 J0.
N3705 X405.913 Z-10.564 I0.913 J0.
N3710 X404.087 Z-10.651 I-0.913 J0.
N3715 X405.913 Z-10.738 I0.913 J0.
N3720 X404.087 Z-10.825 I-0.913 J0.
N3725 X405.913 Z-10.913 I0.913 J0.
N3730 X404.087 Z-11. I-0.913 J0.
N3735 X405.913 Z-11.087 I0.913 J0.
N3740 X404.087 Z-11.175 I-0.913 J0.
N3745 X405.913 Z-11.262 I0.913 J0.
N3750 X404.087 Z-11.349 I-0.913 J0.
N3755 X405.913 Z-11.437 I0.913 J0.
N3760 X404.087 Z-11.524 I-0.913 J0.
N3765 X405.913 Z-11.611 I0.913 J0.
N3770 X404.087 Z-11.698 I-0.913 J0.
N3775 X405.913 Z-11.786 I0.913 J0.
N3780 X404.087 Z-11.873 I-0.913 J0.
N3785 X405.913 Z-11.96 I0.913 J0.
N3790 X404.087 Z-12.048 I-0.913 J0.
N3795 X405.913 Z-12.135 I0.913 J0.
N3800 X404.087 Z-12.222 I-0.913 J0.
N3805 X405.913 Z-12.31 I0.913 J0.
N3810 X404.087 Z-12.397 I-0.913 J0.
N3815 X405.913 Z-12.484 I0.913 J0.
N3820 X404.087 Z-12.571 I-0.913 J0.
N3825 X405.913 Z-12.659 I0.913 J0.
N3830 X404.087 Z-12.746 I-0.913 J0.
N3835 X405.913 Z-12.833 I0.913 J0.
N3840 X404.087 Z-12.921 I-0.913 J0.
N3845 X405.913 Z-13.008 I0.913 J0.
N3850 X404.087 Z-13.095 I-0.913 J0.
N3855 X405.913 Z-13.183 I0.913 J0.
N3860 X404.087 Z-13.27 I-0.913 J0.
N3865 X405.913 Z-13.357 I0.913 J0.
N3870 X404.087 Z-13.444 I-0.913 J0.
N3875 X405.913 Z-13.532 I0.913 J0.
N3880 X404.087 Z-13.619 I-0.913 J0.
N3885 X405.913 Z-13.706 I0.913 J0.
N3890 X404.087 Z-13.794 I-0.913 J0.
N3895 X405.913 Z-13.881 I0.913 J0.
N3900 X404.087 Z-13.968 I-0.913 J0.
N3905 X405.913 Z-14.056 I0.913 J0.
N3910 X404.087 Z-14.143 I-0.913 J0.
N3915 X405.913 Z-14.23 I0.913 J0.
N3920 X404.087 Z-14.318 I-0.913 J0.
N3925 X405.913 Z-14.405 I0.913 J0.
N3930 X404.087 Z-14.492 I-0.913 J0.
N3935 X405.913 Z-14.579 I0.913 J0.
N3940 X404.087 Z-14.667 I-0.913 J0.
N3945 X405.913 Z-14.754 I0.913 J0.
N3950 X404.087 Z-14.841 I-0.913 J0.
N3955 X405.913 Z-14.929 I0.913 J0.
N3960 X404.087 Z-15.016 I-0.913 J0.
N3965 X405.913 Z-15.103 I0.913 J0.
N3970 X404.087 Z-15.191 I-0.913 J0.
N3975 X405.913 Z-15.278 I0.913 J0.
N3980 X404.087 Z-15.365 I-0.913 J0.
N3985 X405.913 Z-15.452 I0.913 J0.
N3990 X404.087 Z-15.54 I-0.913 J0.
N3995 X405.913 Z-15.627 I0.913 J0.
N4000 X404.087 Z-15.714 I-0.913 J0.
N4005 X405.913 Z-15.802 I0.913 J0.
N4010 X404.087 Z-15.889 I-0.913 J0.
N4015 X405.913 Z-15.976 I0.913 J0.
N4020 X405.599 Y-2234.368 Z-16. I-0.913 J0.
N4025 X404.401 Y-2232.991 I-0.599 J0.688
N4030 X405.599 Y-2234.368 I0.599 J-0.688
N4035 X405.151 Y-2234.337 I-0.208 J0.24 F250.
N4040 G1 X405.047 Y-2234.217
N4045 X405.001 Y-2234.164 Z-15.992
N4050 X404.956 Y-2234.113 Z-15.969
N4055 X404.917 Y-2234.068 Z-15.931
N4060 X404.884 Y-2234.03 Z-15.88
N4065 X404.859 Y-2234.001 Z-15.82
N4070 X404.844 Y-2233.984 Z-15.753
N4075 X404.838 Y-2233.978 Z-15.682
N4080 Z5. F1500.
N4085 X404.682 Y-2253.561
N4090 Z2.
N4095 Z0.317 F250.
N4100 G19 G3 Y-2253.243 Z0. J0.317 K0.
N4105 G1 Y-2253.084
N4110 G17 G2 X405. Y-2252.767 I0.318 J0.
N4115 Y-2254.592 Z-0.087 I0. J-0.912 F1500.
N4120 X404.088 Y-2253.708 Z-0.13 I0. J0.912
N4125 X405.912 Y-2253.651 Z-0.217 I0.912 J0.029
N4130 X404.088 Y-2253.708 Z-0.305 I-0.912 J-0.029
N4135 X405.912 Y-2253.651 Z-0.392 I0.912 J0.029
N4140 X404.088 Y-2253.708 Z-0.479 I-0.912 J-0.029
N4145 X405.912 Y-2253.651 Z-0.567 I0.912 J0.029
N4150 X404.088 Y-2253.708 Z-0.654 I-0.912 J-0.029
N4155 X405.912 Y-2253.651 Z-0.741 I0.912 J0.029
N4160 X404.088 Y-2253.708 Z-0.828 I-0.912 J-0.029
N4165 X405.912 Y-2253.651 Z-0.916 I0.912 J0.029
N4170 X404.088 Y-2253.708 Z-1.003 I-0.912 J-0.029
N4175 X405.912 Y-2253.651 Z-1.09 I0.912 J0.029
N4180 X404.088 Y-2253.708 Z-1.178 I-0.912 J-0.029
N4185 X405.912 Y-2253.651 Z-1.265 I0.912 J0.029
N4190 X404.088 Y-2253.708 Z-1.352 I-0.912 J-0.029
N4195 X405.912 Y-2253.651 Z-1.44 I0.912 J0.029
N4200 X404.088 Y-2253.708 Z-1.527 I-0.912 J-0.029
N4205 X405.912 Y-2253.651 Z-1.614 I0.912 J0.029
N4210 X404.088 Y-2253.708 Z-1.702 I-0.912 J-0.029
N4215 X405.912 Y-2253.651 Z-1.789 I0.912 J0.029
N4220 X404.088 Y-2253.708 Z-1.876 I-0.912 J-0.029
N4225 X405.912 Y-2253.651 Z-1.963 I0.912 J0.029
N4230 X404.088 Y-2253.708 Z-2.051 I-0.912 J-0.029
N4235 X405.912 Y-2253.651 Z-2.138 I0.912 J0.029
N4240 X404.088 Y-2253.708 Z-2.225 I-0.912 J-0.029
N4245 X405.912 Y-2253.651 Z-2.313 I0.912 J0.029
N4250 X404.088 Y-2253.708 Z-2.4 I-0.912 J-0.029
N4255 X405.912 Y-2253.651 Z-2.487 I0.912 J0.029
N4260 X404.088 Y-2253.708 Z-2.575 I-0.912 J-0.029
N4265 X405.912 Y-2253.651 Z-2.662 I0.912 J0.029
N4270 X404.088 Y-2253.708 Z-2.749 I-0.912 J-0.029
N4275 X405.912 Y-2253.651 Z-2.836 I0.912 J0.029
N4280 X404.088 Y-2253.708 Z-2.924 I-0.912 J-0.029
N4285 X405.912 Y-2253.651 Z-3.011 I0.912 J0.029
N4290 X404.088 Y-2253.708 Z-3.098 I-0.912 J-0.029
N4295 X405.912 Y-2253.651 Z-3.186 I0.912 J0.029
N4300 X404.088 Y-2253.708 Z-3.273 I-0.912 J-0.029
N4305 X405.912 Y-2253.651 Z-3.36 I0.912 J0.029
N4310 X404.088 Y-2253.708 Z-3.448 I-0.912 J-0.029
N4315 X405.912 Y-2253.651 Z-3.535 I0.912 J0.029
N4320 X404.088 Y-2253.708 Z-3.622 I-0.912 J-0.029
N4325 X405.912 Y-2253.651 Z-3.709 I0.912 J0.029
N4330 X404.088 Y-2253.708 Z-3.797 I-0.912 J-0.029
N4335 X405.912 Y-2253.651 Z-3.884 I0.912 J0.029
N4340 X404.088 Y-2253.708 Z-3.971 I-0.912 J-0.029
N4345 X405.912 Y-2253.651 Z-4.059 I0.912 J0.029
N4350 X404.088 Y-2253.708 Z-4.146 I-0.912 J-0.029
N4355 X405.912 Y-2253.651 Z-4.233 I0.912 J0.029
N4360 X404.088 Y-2253.708 Z-4.321 I-0.912 J-0.029
N4365 X405.912 Y-2253.651 Z-4.408 I0.912 J0.029
N4370 X404.088 Y-2253.708 Z-4.495 I-0.912 J-0.029
N4375 X405.912 Y-2253.651 Z-4.582 I0.912 J0.029
N4380 X404.088 Y-2253.708 Z-4.67 I-0.912 J-0.029
N4385 X405.912 Y-2253.651 Z-4.757 I0.912 J0.029
N4390 X404.088 Y-2253.708 Z-4.844 I-0.912 J-0.029
N4395 X405.912 Y-2253.651 Z-4.932 I0.912 J0.029
N4400 X404.088 Y-2253.708 Z-5.019 I-0.912 J-0.029
N4405 X405.912 Y-2253.651 Z-5.106 I0.912 J0.029
N4410 X404.088 Y-2253.708 Z-5.194 I-0.912 J-0.029
N4415 X405.912 Y-2253.651 Z-5.281 I0.912 J0.029
N4420 X404.088 Y-2253.708 Z-5.368 I-0.912 J-0.029
N4425 X405.912 Y-2253.651 Z-5.455 I0.912 J0.029
N4430 X404.088 Y-2253.708 Z-5.543 I-0.912 J-0.029
N4435 X405.912 Y-2253.651 Z-5.63 I0.912 J0.029
N4440 X404.088 Y-2253.708 Z-5.717 I-0.912 J-0.029
N4445 X405.912 Y-2253.651 Z-5.805 I0.912 J0.029
N4450 X404.088 Y-2253.708 Z-5.892 I-0.912 J-0.029
N4455 X405.912 Y-2253.651 Z-5.979 I0.912 J0.029
N4460 X404.088 Y-2253.708 Z-6.067 I-0.912 J-0.029
N4465 X405.912 Y-2253.651 Z-6.154 I0.912 J0.029
N4470 X404.088 Y-2253.708 Z-6.241 I-0.912 J-0.029
N4475 X405.912 Y-2253.651 Z-6.329 I0.912 J0.029
N4480 X404.088 Y-2253.708 Z-6.416 I-0.912 J-0.029
N4485 X405.912 Y-2253.651 Z-6.503 I0.912 J0.029
N4490 X404.088 Y-2253.708 Z-6.59 I-0.912 J-0.029
N4495 X405.912 Y-2253.651 Z-6.678 I0.912 J0.029
N4500 X404.088 Y-2253.708 Z-6.765 I-0.912 J-0.029
N4505 X405.912 Y-2253.651 Z-6.852 I0.912 J0.029
N4510 X404.088 Y-2253.708 Z-6.94 I-0.912 J-0.029
N4515 X405.912 Y-2253.651 Z-7.027 I0.912 J0.029
N4520 X404.088 Y-2253.708 Z-7.114 I-0.912 J-0.029
N4525 X405.912 Y-2253.651 Z-7.202 I0.912 J0.029
N4530 X404.088 Y-2253.708 Z-7.289 I-0.912 J-0.029
N4535 X405.912 Y-2253.651 Z-7.376 I0.912 J0.029
N4540 X404.088 Y-2253.708 Z-7.463 I-0.912 J-0.029
N4545 X405.912 Y-2253.651 Z-7.551 I0.912 J0.029
N4550 X404.088 Y-2253.708 Z-7.638 I-0.912 J-0.029
N4555 X405.912 Y-2253.651 Z-7.725 I0.912 J0.029
N4560 X404.088 Y-2253.708 Z-7.813 I-0.912 J-0.029
N4565 X405.912 Y-2253.651 Z-7.9 I0.912 J0.029
N4570 X404.088 Y-2253.708 Z-7.987 I-0.912 J-0.029
N4575 X405.912 Y-2253.651 Z-8.075 I0.912 J0.029
N4580 X404.088 Y-2253.708 Z-8.162 I-0.912 J-0.029
N4585 X405.912 Y-2253.651 Z-8.249 I0.912 J0.029
N4590 X404.088 Y-2253.708 Z-8.336 I-0.912 J-0.029
N4595 X405.912 Y-2253.651 Z-8.424 I0.912 J0.029
N4600 X404.088 Y-2253.708 Z-8.511 I-0.912 J-0.029
N4605 X405.912 Y-2253.651 Z-8.598 I0.912 J0.029
N4610 X404.088 Y-2253.708 Z-8.686 I-0.912 J-0.029
N4615 X405.912 Y-2253.651 Z-8.773 I0.912 J0.029
N4620 X404.088 Y-2253.708 Z-8.86 I-0.912 J-0.029
N4625 X405.912 Y-2253.651 Z-8.948 I0.912 J0.029
N4630 X404.088 Y-2253.708 Z-9.035 I-0.912 J-0.029
N4635 X405.912 Y-2253.651 Z-9.122 I0.912 J0.029
N4640 X404.088 Y-2253.708 Z-9.209 I-0.912 J-0.029
N4645 X405.912 Y-2253.651 Z-9.297 I0.912 J0.029
N4650 X404.088 Y-2253.708 Z-9.384 I-0.912 J-0.029
N4655 X405.912 Y-2253.651 Z-9.471 I0.912 J0.029
N4660 X404.088 Y-2253.708 Z-9.559 I-0.912 J-0.029
N4665 X405.912 Y-2253.651 Z-9.646 I0.912 J0.029
N4670 X404.088 Y-2253.708 Z-9.733 I-0.912 J-0.029
N4675 X405.912 Y-2253.651 Z-9.821 I0.912 J0.029
N4680 X404.088 Y-2253.708 Z-9.908 I-0.912 J-0.029
N4685 X405.912 Y-2253.651 Z-9.995 I0.912 J0.029
N4690 X404.088 Y-2253.708 Z-10.082 I-0.912 J-0.029
N4695 X405.912 Y-2253.651 Z-10.17 I0.912 J0.029
N4700 X404.088 Y-2253.708 Z-10.257 I-0.912 J-0.029
N4705 X405.912 Y-2253.651 Z-10.344 I0.912 J0.029
N4710 X404.088 Y-2253.708 Z-10.432 I-0.912 J-0.029
N4715 X405.912 Y-2253.651 Z-10.519 I0.912 J0.029
N4720 X404.088 Y-2253.708 Z-10.606 I-0.912 J-0.029
N4725 X405.912 Y-2253.651 Z-10.694 I0.912 J0.029
N4730 X404.088 Y-2253.708 Z-10.781 I-0.912 J-0.029
N4735 X405.912 Y-2253.651 Z-10.868 I0.912 J0.029
N4740 X404.088 Y-2253.708 Z-10.956 I-0.912 J-0.029
N4745 X405.912 Y-2253.651 Z-11.043 I0.912 J0.029
N4750 X404.088 Y-2253.708 Z-11.13 I-0.912 J-0.029
N4755 X405.912 Y-2253.651 Z-11.217 I0.912 J0.029
N4760 X404.088 Y-2253.708 Z-11.305 I-0.912 J-0.029
N4765 X405.912 Y-2253.651 Z-11.392 I0.912 J0.029
N4770 X404.088 Y-2253.708 Z-11.479 I-0.912 J-0.029
N4775 X405.912 Y-2253.651 Z-11.567 I0.912 J0.029
N4780 X404.088 Y-2253.708 Z-11.654 I-0.912 J-0.029
N4785 X405.912 Y-2253.651 Z-11.741 I0.912 J0.029
N4790 X404.088 Y-2253.708 Z-11.829 I-0.912 J-0.029
N4795 X405.912 Y-2253.651 Z-11.916 I0.912 J0.029
N4800 X404.088 Y-2253.708 Z-12.003 I-0.912 J-0.029
N4805 X405.912 Y-2253.651 Z-12.09 I0.912 J0.029
N4810 X404.088 Y-2253.708 Z-12.178 I-0.912 J-0.029
N4815 X405.912 Y-2253.651 Z-12.265 I0.912 J0.029
N4820 X404.088 Y-2253.708 Z-12.352 I-0.912 J-0.029
N4825 X405.912 Y-2253.651 Z-12.44 I0.912 J0.029
N4830 X404.088 Y-2253.708 Z-12.527 I-0.912 J-0.029
N4835 X405.912 Y-2253.651 Z-12.614 I0.912 J0.029
N4840 X404.088 Y-2253.708 Z-12.702 I-0.912 J-0.029
N4845 X405.912 Y-2253.651 Z-12.789 I0.912 J0.029
N4850 X404.088 Y-2253.708 Z-12.876 I-0.912 J-0.029
N4855 X405.912 Y-2253.651 Z-12.963 I0.912 J0.029
N4860 X404.088 Y-2253.708 Z-13.051 I-0.912 J-0.029
N4865 X405.912 Y-2253.651 Z-13.138 I0.912 J0.029
N4870 X404.088 Y-2253.708 Z-13.225 I-0.912 J-0.029
N4875 X405.912 Y-2253.651 Z-13.313 I0.912 J0.029
N4880 X404.088 Y-2253.708 Z-13.4 I-0.912 J-0.029
N4885 X405.912 Y-2253.651 Z-13.487 I0.912 J0.029
N4890 X404.088 Y-2253.708 Z-13.575 I-0.912 J-0.029
N4895 X405.912 Y-2253.651 Z-13.662 I0.912 J0.029
N4900 X404.088 Y-2253.708 Z-13.749 I-0.912 J-0.029
N4905 X405.912 Y-2253.651 Z-13.836 I0.912 J0.029
N4910 X404.088 Y-2253.708 Z-13.924 I-0.912 J-0.029
N4915 X405.912 Y-2253.651 Z-14.011 I0.912 J0.029
N4920 X404.088 Y-2253.708 Z-14.098 I-0.912 J-0.029
N4925 X405.912 Y-2253.651 Z-14.186 I0.912 J0.029
N4930 X404.088 Y-2253.708 Z-14.273 I-0.912 J-0.029
N4935 X405.912 Y-2253.651 Z-14.36 I0.912 J0.029
N4940 X404.088 Y-2253.708 Z-14.448 I-0.912 J-0.029
N4945 X405.912 Y-2253.651 Z-14.535 I0.912 J0.029
N4950 X404.088 Y-2253.708 Z-14.622 I-0.912 J-0.029
N4955 X405.912 Y-2253.651 Z-14.709 I0.912 J0.029
N4960 X404.088 Y-2253.708 Z-14.797 I-0.912 J-0.029
N4965 X405.912 Y-2253.651 Z-14.884 I0.912 J0.029
N4970 X404.088 Y-2253.708 Z-14.971 I-0.912 J-0.029
N4975 X405.912 Y-2253.651 Z-15.059 I0.912 J0.029
N4980 X404.088 Y-2253.708 Z-15.146 I-0.912 J-0.029
N4985 X405.912 Y-2253.651 Z-15.233 I0.912 J0.029
N4990 X404.088 Y-2253.708 Z-15.321 I-0.912 J-0.029
N4995 X405.912 Y-2253.651 Z-15.408 I0.912 J0.029
N5000 X404.088 Y-2253.708 Z-15.495 I-0.912 J-0.029
N5005 X405.912 Y-2253.651 Z-15.583 I0.912 J0.029
N5010 X404.088 Y-2253.708 Z-15.67 I-0.912 J-0.029
N5015 X405.912 Y-2253.651 Z-15.757 I0.912 J0.029
N5020 X404.088 Y-2253.708 Z-15.844 I-0.912 J-0.029
N5025 X405.912 Y-2253.651 Z-15.932 I0.912 J0.029
N5030 X404.312 Y-2254.279 Z-16. I-0.912 J-0.029
N5035 X405.688 Y-2253.08 I0.688 J0.599
N5040 X404.312 Y-2254.279 I-0.688 J-0.599
N5045 X404.343 Y-2253.831 I0.24 J0.208 F250.
N5050 G1 X404.462 Y-2253.727
N5055 X404.516 Y-2253.68 Z-15.992
N5060 X404.566 Y-2253.636 Z-15.969
N5065 X404.612 Y-2253.597 Z-15.931
N5070 X404.65 Y-2253.564 Z-15.88
N5075 X404.678 Y-2253.539 Z-15.82
N5080 X404.696 Y-2253.523 Z-15.753
N5085 X404.702 Y-2253.518 Z-15.682
N5090 Z5. F1500.
N5095 X229.682 Y-2253.561
N5100 Z2.
N5105 Z0.317 F250.
N5110 G19 G3 Y-2253.243 Z0. J0.317 K0.
N5115 G1 Y-2253.084
N5120 G17 G2 X230. Y-2252.767 I0.318 J0.
N5125 Y-2254.592 Z-0.087 I0. J-0.912 F1500.
N5130 X229.088 Y-2253.708 Z-0.13 I0. J0.912
N5135 X230.912 Y-2253.651 Z-0.217 I0.912 J0.029
N5140 X229.088 Y-2253.708 Z-0.305 I-0.912 J-0.029
N5145 X230.912 Y-2253.651 Z-0.392 I0.912 J0.029
N5150 X229.088 Y-2253.708 Z-0.479 I-0.912 J-0.029
N5155 X230.912 Y-2253.651 Z-0.567 I0.912 J0.029
N5160 X229.088 Y-2253.708 Z-0.654 I-0.912 J-0.029
N5165 X230.912 Y-2253.651 Z-0.741 I0.912 J0.029
N5170 X229.088 Y-2253.708 Z-0.828 I-0.912 J-0.029
N5175 X230.912 Y-2253.651 Z-0.916 I0.912 J0.029
N5180 X229.088 Y-2253.708 Z-1.003 I-0.912 J-0.029
N5185 X230.912 Y-2253.651 Z-1.09 I0.912 J0.029
N5190 X229.088 Y-2253.708 Z-1.178 I-0.912 J-0.029
N5195 X230.912 Y-2253.651 Z-1.265 I0.912 J0.029
N5200 X229.088 Y-2253.708 Z-1.352 I-0.912 J-0.029
N5205 X230.912 Y-2253.651 Z-1.44 I0.912 J0.029
N5210 X229.088 Y-2253.708 Z-1.527 I-0.912 J-0.029
N5215 X230.912 Y-2253.651 Z-1.614 I0.912 J0.029
N5220 X229.088 Y-2253.708 Z-1.702 I-0.912 J-0.029
N5225 X230.912 Y-2253.651 Z-1.789 I0.912 J0.029
N5230 X229.088 Y-2253.708 Z-1.876 I-0.912 J-0.029
N5235 X230.912 Y-2253.651 Z-1.963 I0.912 J0.029
N5240 X229.088 Y-2253.708 Z-2.051 I-0.912 J-0.029
N5245 X230.912 Y-2253.651 Z-2.138 I0.912 J0.029
N5250 X229.088 Y-2253.708 Z-2.225 I-0.912 J-0.029
N5255 X230.912 Y-2253.651 Z-2.313 I0.912 J0.029
N5260 X229.088 Y-2253.708 Z-2.4 I-0.912 J-0.029
N5265 X230.912 Y-2253.651 Z-2.487 I0.912 J0.029
N5270 X229.088 Y-2253.708 Z-2.575 I-0.912 J-0.029
N5275 X230.912 Y-2253.651 Z-2.662 I0.912 J0.029
N5280 X229.088 Y-2253.708 Z-2.749 I-0.912 J-0.029
N5285 X230.912 Y-2253.651 Z-2.836 I0.912 J0.029
N5290 X229.088 Y-2253.708 Z-2.924 I-0.912 J-0.029
N5295 X230.912 Y-2253.651 Z-3.011 I0.912 J0.029
N5300 X229.088 Y-2253.708 Z-3.098 I-0.912 J-0.029
N5305 X230.912 Y-2253.651 Z-3.186 I0.912 J0.029
N5310 X229.088 Y-2253.708 Z-3.273 I-0.912 J-0.029
N5315 X230.912 Y-2253.651 Z-3.36 I0.912 J0.029
N5320 X229.088 Y-2253.708 Z-3.448 I-0.912 J-0.029
N5325 X230.912 Y-2253.651 Z-3.535 I0.912 J0.029
N5330 X229.088 Y-2253.708 Z-3.622 I-0.912 J-0.029
N5335 X230.912 Y-2253.651 Z-3.709 I0.912 J0.029
N5340 X229.088 Y-2253.708 Z-3.797 I-0.912 J-0.029
N5345 X230.912 Y-2253.651 Z-3.884 I0.912 J0.029
N5350 X229.088 Y-2253.708 Z-3.971 I-0.912 J-0.029
N5355 X230.912 Y-2253.651 Z-4.059 I0.912 J0.029
N5360 X229.088 Y-2253.708 Z-4.146 I-0.912 J-0.029
N5365 X230.912 Y-2253.651 Z-4.233 I0.912 J0.029
N5370 X229.088 Y-2253.708 Z-4.321 I-0.912 J-0.029
N5375 X230.912 Y-2253.651 Z-4.408 I0.912 J0.029
N5380 X229.088 Y-2253.708 Z-4.495 I-0.912 J-0.029
N5385 X230.912 Y-2253.651 Z-4.582 I0.912 J0.029
N5390 X229.088 Y-2253.708 Z-4.67 I-0.912 J-0.029
N5395 X230.912 Y-2253.651 Z-4.757 I0.912 J0.029
N5400 X229.088 Y-2253.708 Z-4.844 I-0.912 J-0.029
N5405 X230.912 Y-2253.651 Z-4.932 I0.912 J0.029
N5410 X229.088 Y-2253.708 Z-5.019 I-0.912 J-0.029
N5415 X230.912 Y-2253.651 Z-5.106 I0.912 J0.029
N5420 X229.088 Y-2253.708 Z-5.194 I-0.912 J-0.029
N5425 X230.912 Y-2253.651 Z-5.281 I0.912 J0.029
N5430 X229.088 Y-2253.708 Z-5.368 I-0.912 J-0.029
N5435 X230.912 Y-2253.651 Z-5.455 I0.912 J0.029
N5440 X229.088 Y-2253.708 Z-5.543 I-0.912 J-0.029
N5445 X230.912 Y-2253.651 Z-5.63 I0.912 J0.029
N5450 X229.088 Y-2253.708 Z-5.717 I-0.912 J-0.029
N5455 X230.912 Y-2253.651 Z-5.805 I0.912 J0.029
N5460 X229.088 Y-2253.708 Z-5.892 I-0.912 J-0.029
N5465 X230.912 Y-2253.651 Z-5.979 I0.912 J0.029
N5470 X229.088 Y-2253.708 Z-6.067 I-0.912 J-0.029
N5475 X230.912 Y-2253.651 Z-6.154 I0.912 J0.029
N5480 X229.088 Y-2253.708 Z-6.241 I-0.912 J-0.029
N5485 X230.912 Y-2253.651 Z-6.329 I0.912 J0.029
N5490 X229.088 Y-2253.708 Z-6.416 I-0.912 J-0.029
N5495 X230.912 Y-2253.651 Z-6.503 I0.912 J0.029
N5500 X229.088 Y-2253.708 Z-6.59 I-0.912 J-0.029
N5505 X230.912 Y-2253.651 Z-6.678 I0.912 J0.029
N5510 X229.088 Y-2253.708 Z-6.765 I-0.912 J-0.029
N5515 X230.912 Y-2253.651 Z-6.852 I0.912 J0.029
N5520 X229.088 Y-2253.708 Z-6.94 I-0.912 J-0.029
N5525 X230.912 Y-2253.651 Z-7.027 I0.912 J0.029
N5530 X229.088 Y-2253.708 Z-7.114 I-0.912 J-0.029
N5535 X230.912 Y-2253.651 Z-7.202 I0.912 J0.029
N5540 X229.088 Y-2253.708 Z-7.289 I-0.912 J-0.029
N5545 X230.912 Y-2253.651 Z-7.376 I0.912 J0.029
N5550 X229.088 Y-2253.708 Z-7.463 I-0.912 J-0.029
N5555 X230.912 Y-2253.651 Z-7.551 I0.912 J0.029
N5560 X229.088 Y-2253.708 Z-7.638 I-0.912 J-0.029
N5565 X230.912 Y-2253.651 Z-7.725 I0.912 J0.029
N5570 X229.088 Y-2253.708 Z-7.813 I-0.912 J-0.029
N5575 X230.912 Y-2253.651 Z-7.9 I0.912 J0.029
N5580 X229.088 Y-2253.708 Z-7.987 I-0.912 J-0.029
N5585 X230.912 Y-2253.651 Z-8.075 I0.912 J0.029
N5590 X229.088 Y-2253.708 Z-8.162 I-0.912 J-0.029
N5595 X230.912 Y-2253.651 Z-8.249 I0.912 J0.029
N5600 X229.088 Y-2253.708 Z-8.336 I-0.912 J-0.029
N5605 X230.912 Y-2253.651 Z-8.424 I0.912 J0.029
N5610 X229.088 Y-2253.708 Z-8.511 I-0.912 J-0.029
N5615 X230.912 Y-2253.651 Z-8.598 I0.912 J0.029
N5620 X229.088 Y-2253.708 Z-8.686 I-0.912 J-0.029
N5625 X230.912 Y-2253.651 Z-8.773 I0.912 J0.029
N5630 X229.088 Y-2253.708 Z-8.86 I-0.912 J-0.029
N5635 X230.912 Y-2253.651 Z-8.948 I0.912 J0.029
N5640 X229.088 Y-2253.708 Z-9.035 I-0.912 J-0.029
N5645 X230.912 Y-2253.651 Z-9.122 I0.912 J0.029
N5650 X229.088 Y-2253.708 Z-9.209 I-0.912 J-0.029
N5655 X230.912 Y-2253.651 Z-9.297 I0.912 J0.029
N5660 X229.088 Y-2253.708 Z-9.384 I-0.912 J-0.029
N5665 X230.912 Y-2253.651 Z-9.471 I0.912 J0.029
N5670 X229.088 Y-2253.708 Z-9.559 I-0.912 J-0.029
N5675 X230.912 Y-2253.651 Z-9.646 I0.912 J0.029
N5680 X229.088 Y-2253.708 Z-9.733 I-0.912 J-0.029
N5685 X230.912 Y-2253.651 Z-9.821 I0.912 J0.029
N5690 X229.088 Y-2253.708 Z-9.908 I-0.912 J-0.029
N5695 X230.912 Y-2253.651 Z-9.995 I0.912 J0.029
N5700 X229.088 Y-2253.708 Z-10.082 I-0.912 J-0.029
N5705 X230.912 Y-2253.651 Z-10.17 I0.912 J0.029
N5710 X229.088 Y-2253.708 Z-10.257 I-0.912 J-0.029
N5715 X230.912 Y-2253.651 Z-10.344 I0.912 J0.029
N5720 X229.088 Y-2253.708 Z-10.432 I-0.912 J-0.029
N5725 X230.912 Y-2253.651 Z-10.519 I0.912 J0.029
N5730 X229.088 Y-2253.708 Z-10.606 I-0.912 J-0.029
N5735 X230.912 Y-2253.651 Z-10.694 I0.912 J0.029
N5740 X229.088 Y-2253.708 Z-10.781 I-0.912 J-0.029
N5745 X230.912 Y-2253.651 Z-10.868 I0.912 J0.029
N5750 X229.088 Y-2253.708 Z-10.956 I-0.912 J-0.029
N5755 X230.912 Y-2253.651 Z-11.043 I0.912 J0.029
N5760 X229.088 Y-2253.708 Z-11.13 I-0.912 J-0.029
N5765 X230.912 Y-2253.651 Z-11.217 I0.912 J0.029
N5770 X229.088 Y-2253.708 Z-11.305 I-0.912 J-0.029
N5775 X230.912 Y-2253.651 Z-11.392 I0.912 J0.029
N5780 X229.088 Y-2253.708 Z-11.479 I-0.912 J-0.029
N5785 X230.912 Y-2253.651 Z-11.567 I0.912 J0.029
N5790 X229.088 Y-2253.708 Z-11.654 I-0.912 J-0.029
N5795 X230.912 Y-2253.651 Z-11.741 I0.912 J0.029
N5800 X229.088 Y-2253.708 Z-11.829 I-0.912 J-0.029
N5805 X230.912 Y-2253.651 Z-11.916 I0.912 J0.029
N5810 X229.088 Y-2253.708 Z-12.003 I-0.912 J-0.029
N5815 X230.912 Y-2253.651 Z-12.09 I0.912 J0.029
N5820 X229.088 Y-2253.708 Z-12.178 I-0.912 J-0.029
N5825 X230.912 Y-2253.651 Z-12.265 I0.912 J0.029
N5830 X229.088 Y-2253.708 Z-12.352 I-0.912 J-0.029
N5835 X230.912 Y-2253.651 Z-12.44 I0.912 J0.029
N5840 X229.088 Y-2253.708 Z-12.527 I-0.912 J-0.029
N5845 X230.912 Y-2253.651 Z-12.614 I0.912 J0.029
N5850 X229.088 Y-2253.708 Z-12.702 I-0.912 J-0.029
N5855 X230.912 Y-2253.651 Z-12.789 I0.912 J0.029
N5860 X229.088 Y-2253.708 Z-12.876 I-0.912 J-0.029
N5865 X230.912 Y-2253.651 Z-12.963 I0.912 J0.029
N5870 X229.088 Y-2253.708 Z-13.051 I-0.912 J-0.029
N5875 X230.912 Y-2253.651 Z-13.138 I0.912 J0.029
N5880 X229.088 Y-2253.708 Z-13.225 I-0.912 J-0.029
N5885 X230.912 Y-2253.651 Z-13.313 I0.912 J0.029
N5890 X229.088 Y-2253.708 Z-13.4 I-0.912 J-0.029
N5895 X230.912 Y-2253.651 Z-13.487 I0.912 J0.029
N5900 X229.088 Y-2253.708 Z-13.575 I-0.912 J-0.029
N5905 X230.912 Y-2253.651 Z-13.662 I0.912 J0.029
N5910 X229.088 Y-2253.708 Z-13.749 I-0.912 J-0.029
N5915 X230.912 Y-2253.651 Z-13.836 I0.912 J0.029
N5920 X229.088 Y-2253.708 Z-13.924 I-0.912 J-0.029
N5925 X230.912 Y-2253.651 Z-14.011 I0.912 J0.029
N5930 X229.088 Y-2253.708 Z-14.098 I-0.912 J-0.029
N5935 X230.912 Y-2253.651 Z-14.186 I0.912 J0.029
N5940 X229.088 Y-2253.708 Z-14.273 I-0.912 J-0.029
N5945 X230.912 Y-2253.651 Z-14.36 I0.912 J0.029
N5950 X229.088 Y-2253.708 Z-14.448 I-0.912 J-0.029
N5955 X230.912 Y-2253.651 Z-14.535 I0.912 J0.029
N5960 X229.088 Y-2253.708 Z-14.622 I-0.912 J-0.029
N5965 X230.912 Y-2253.651 Z-14.709 I0.912 J0.029
N5970 X229.088 Y-2253.708 Z-14.797 I-0.912 J-0.029
N5975 X230.912 Y-2253.651 Z-14.884 I0.912 J0.029
N5980 X229.088 Y-2253.708 Z-14.971 I-0.912 J-0.029
N5985 X230.912 Y-2253.651 Z-15.059 I0.912 J0.029
N5990 X229.088 Y-2253.708 Z-15.146 I-0.912 J-0.029
N5995 X230.912 Y-2253.651 Z-15.233 I0.912 J0.029
N6000 X229.088 Y-2253.708 Z-15.321 I-0.912 J-0.029
N6005 X230.912 Y-2253.651 Z-15.408 I0.912 J0.029
N6010 X229.088 Y-2253.708 Z-15.495 I-0.912 J-0.029
N6015 X230.912 Y-2253.651 Z-15.583 I0.912 J0.029
N6020 X229.088 Y-2253.708 Z-15.67 I-0.912 J-0.029
N6025 X230.912 Y-2253.651 Z-15.757 I0.912 J0.029
N6030 X229.088 Y-2253.708 Z-15.844 I-0.912 J-0.029
N6035 X230.912 Y-2253.651 Z-15.932 I0.912 J0.029
N6040 X229.312 Y-2254.279 Z-16. I-0.912 J-0.029
N6045 X230.688 Y-2253.08 I0.688 J0.599
N6050 X229.312 Y-2254.279 I-0.688 J-0.599
N6055 X229.343 Y-2253.831 I0.239 J0.208 F250.
N6060 G1 X229.462 Y-2253.727
N6065 X229.516 Y-2253.68 Z-15.992
N6070 X229.566 Y-2253.636 Z-15.969
N6075 X229.612 Y-2253.597 Z-15.931
N6080 X229.65 Y-2253.564 Z-15.88
N6085 X229.678 Y-2253.539 Z-15.82
N6090 X229.696 Y-2253.523 Z-15.753
N6095 X229.702 Y-2253.518 Z-15.682
N6100 Z5. F1500.
N6105 X229.682 Y-2233.561
N6110 Z2.
N6115 Z0.317 F250.
N6120 G19 G3 Y-2233.243 Z0. J0.317 K0.
N6125 G1 Y-2233.084
N6130 G17 G2 X230. Y-2232.767 I0.318 J0.
N6135 Y-2234.592 Z-0.087 I0. J-0.912 F1500.
N6140 X229.088 Y-2233.708 Z-0.13 I0. J0.912
N6145 X230.912 Y-2233.651 Z-0.217 I0.912 J0.029
N6150 X229.088 Y-2233.708 Z-0.305 I-0.912 J-0.029
N6155 X230.912 Y-2233.651 Z-0.392 I0.912 J0.029
N6160 X229.088 Y-2233.708 Z-0.479 I-0.912 J-0.029
N6165 X230.912 Y-2233.651 Z-0.567 I0.912 J0.029
N6170 X229.088 Y-2233.708 Z-0.654 I-0.912 J-0.029
N6175 X230.912 Y-2233.651 Z-0.741 I0.912 J0.029
N6180 X229.088 Y-2233.708 Z-0.828 I-0.912 J-0.029
N6185 X230.912 Y-2233.651 Z-0.916 I0.912 J0.029
N6190 X229.088 Y-2233.708 Z-1.003 I-0.912 J-0.029
N6195 X230.912 Y-2233.651 Z-1.09 I0.912 J0.029
N6200 X229.088 Y-2233.708 Z-1.178 I-0.912 J-0.029
N6205 X230.912 Y-2233.651 Z-1.265 I0.912 J0.029
N6210 X229.088 Y-2233.708 Z-1.352 I-0.912 J-0.029
N6215 X230.912 Y-2233.651 Z-1.44 I0.912 J0.029
N6220 X229.088 Y-2233.708 Z-1.527 I-0.912 J-0.029
N6225 X230.912 Y-2233.651 Z-1.614 I0.912 J0.029
N6230 X229.088 Y-2233.708 Z-1.702 I-0.912 J-0.029
N6235 X230.912 Y-2233.651 Z-1.789 I0.912 J0.029
N6240 X229.088 Y-2233.708 Z-1.876 I-0.912 J-0.029
N6245 X230.912 Y-2233.651 Z-1.963 I0.912 J0.029
N6250 X229.088 Y-2233.708 Z-2.051 I-0.912 J-0.029
N6255 X230.912 Y-2233.651 Z-2.138 I0.912 J0.029
N6260 X229.088 Y-2233.708 Z-2.225 I-0.912 J-0.029
N6265 X230.912 Y-2233.651 Z-2.313 I0.912 J0.029
N6270 X229.088 Y-2233.708 Z-2.4 I-0.912 J-0.029
N6275 X230.912 Y-2233.651 Z-2.487 I0.912 J0.029
N6280 X229.088 Y-2233.708 Z-2.575 I-0.912 J-0.029
N6285 X230.912 Y-2233.651 Z-2.662 I0.912 J0.029
N6290 X229.088 Y-2233.708 Z-2.749 I-0.912 J-0.029
N6295 X230.912 Y-2233.651 Z-2.836 I0.912 J0.029
N6300 X229.088 Y-2233.708 Z-2.924 I-0.912 J-0.029
N6305 X230.912 Y-2233.651 Z-3.011 I0.912 J0.029
N6310 X229.088 Y-2233.708 Z-3.098 I-0.912 J-0.029
N6315 X230.912 Y-2233.651 Z-3.186 I0.912 J0.029
N6320 X229.088 Y-2233.708 Z-3.273 I-0.912 J-0.029
N6325 X230.912 Y-2233.651 Z-3.36 I0.912 J0.029
N6330 X229.088 Y-2233.708 Z-3.448 I-0.912 J-0.029
N6335 X230.912 Y-2233.651 Z-3.535 I0.912 J0.029
N6340 X229.088 Y-2233.708 Z-3.622 I-0.912 J-0.029
N6345 X230.912 Y-2233.651 Z-3.709 I0.912 J0.029
N6350 X229.088 Y-2233.708 Z-3.797 I-0.912 J-0.029
N6355 X230.912 Y-2233.651 Z-3.884 I0.912 J0.029
N6360 X229.088 Y-2233.708 Z-3.971 I-0.912 J-0.029
N6365 X230.912 Y-2233.651 Z-4.059 I0.912 J0.029
N6370 X229.088 Y-2233.708 Z-4.146 I-0.912 J-0.029
N6375 X230.912 Y-2233.651 Z-4.233 I0.912 J0.029
N6380 X229.088 Y-2233.708 Z-4.321 I-0.912 J-0.029
N6385 X230.912 Y-2233.651 Z-4.408 I0.912 J0.029
N6390 X229.088 Y-2233.708 Z-4.495 I-0.912 J-0.029
N6395 X230.912 Y-2233.651 Z-4.582 I0.912 J0.029
N6400 X229.088 Y-2233.708 Z-4.67 I-0.912 J-0.029
N6405 X230.912 Y-2233.651 Z-4.757 I0.912 J0.029
N6410 X229.088 Y-2233.708 Z-4.844 I-0.912 J-0.029
N6415 X230.912 Y-2233.651 Z-4.932 I0.912 J0.029
N6420 X229.088 Y-2233.708 Z-5.019 I-0.912 J-0.029
N6425 X230.912 Y-2233.651 Z-5.106 I0.912 J0.029
N6430 X229.088 Y-2233.708 Z-5.194 I-0.912 J-0.029
N6435 X230.912 Y-2233.651 Z-5.281 I0.912 J0.029
N6440 X229.088 Y-2233.708 Z-5.368 I-0.912 J-0.029
N6445 X230.912 Y-2233.651 Z-5.455 I0.912 J0.029
N6450 X229.088 Y-2233.708 Z-5.543 I-0.912 J-0.029
N6455 X230.912 Y-2233.651 Z-5.63 I0.912 J0.029
N6460 X229.088 Y-2233.708 Z-5.717 I-0.912 J-0.029
N6465 X230.912 Y-2233.651 Z-5.805 I0.912 J0.029
N6470 X229.088 Y-2233.708 Z-5.892 I-0.912 J-0.029
N6475 X230.912 Y-2233.651 Z-5.979 I0.912 J0.029
N6480 X229.088 Y-2233.708 Z-6.067 I-0.912 J-0.029
N6485 X230.912 Y-2233.651 Z-6.154 I0.912 J0.029
N6490 X229.088 Y-2233.708 Z-6.241 I-0.912 J-0.029
N6495 X230.912 Y-2233.651 Z-6.329 I0.912 J0.029
N6500 X229.088 Y-2233.708 Z-6.416 I-0.912 J-0.029
N6505 X230.912 Y-2233.651 Z-6.503 I0.912 J0.029
N6510 X229.088 Y-2233.708 Z-6.59 I-0.912 J-0.029
N6515 X230.912 Y-2233.651 Z-6.678 I0.912 J0.029
N6520 X229.088 Y-2233.708 Z-6.765 I-0.912 J-0.029
N6525 X230.912 Y-2233.651 Z-6.852 I0.912 J0.029
N6530 X229.088 Y-2233.708 Z-6.94 I-0.912 J-0.029
N6535 X230.912 Y-2233.651 Z-7.027 I0.912 J0.029
N6540 X229.088 Y-2233.708 Z-7.114 I-0.912 J-0.029
N6545 X230.912 Y-2233.651 Z-7.202 I0.912 J0.029
N6550 X229.088 Y-2233.708 Z-7.289 I-0.912 J-0.029
N6555 X230.912 Y-2233.651 Z-7.376 I0.912 J0.029
N6560 X229.088 Y-2233.708 Z-7.463 I-0.912 J-0.029
N6565 X230.912 Y-2233.651 Z-7.551 I0.912 J0.029
N6570 X229.088 Y-2233.708 Z-7.638 I-0.912 J-0.029
N6575 X230.912 Y-2233.651 Z-7.725 I0.912 J0.029
N6580 X229.088 Y-2233.708 Z-7.813 I-0.912 J-0.029
N6585 X230.912 Y-2233.651 Z-7.9 I0.912 J0.029
N6590 X229.088 Y-2233.708 Z-7.987 I-0.912 J-0.029
N6595 X230.912 Y-2233.651 Z-8.075 I0.912 J0.029
N6600 X229.088 Y-2233.708 Z-8.162 I-0.912 J-0.029
N6605 X230.912 Y-2233.651 Z-8.249 I0.912 J0.029
N6610 X229.088 Y-2233.708 Z-8.336 I-0.912 J-0.029
N6615 X230.912 Y-2233.651 Z-8.424 I0.912 J0.029
N6620 X229.088 Y-2233.708 Z-8.511 I-0.912 J-0.029
N6625 X230.912 Y-2233.651 Z-8.598 I0.912 J0.029
N6630 X229.088 Y-2233.708 Z-8.686 I-0.912 J-0.029
N6635 X230.912 Y-2233.651 Z-8.773 I0.912 J0.029
N6640 X229.088 Y-2233.708 Z-8.86 I-0.912 J-0.029
N6645 X230.912 Y-2233.651 Z-8.948 I0.912 J0.029
N6650 X229.088 Y-2233.708 Z-9.035 I-0.912 J-0.029
N6655 X230.912 Y-2233.651 Z-9.122 I0.912 J0.029
N6660 X229.088 Y-2233.708 Z-9.209 I-0.912 J-0.029
N6665 X230.912 Y-2233.651 Z-9.297 I0.912 J0.029
N6670 X229.088 Y-2233.708 Z-9.384 I-0.912 J-0.029
N6675 X230.912 Y-2233.651 Z-9.471 I0.912 J0.029
N6680 X229.088 Y-2233.708 Z-9.559 I-0.912 J-0.029
N6685 X230.912 Y-2233.651 Z-9.646 I0.912 J0.029
N6690 X229.088 Y-2233.708 Z-9.733 I-0.912 J-0.029
N6695 X230.912 Y-2233.651 Z-9.821 I0.912 J0.029
N6700 X229.088 Y-2233.708 Z-9.908 I-0.912 J-0.029
N6705 X230.912 Y-2233.651 Z-9.995 I0.912 J0.029
N6710 X229.088 Y-2233.708 Z-10.082 I-0.912 J-0.029
N6715 X230.912 Y-2233.651 Z-10.17 I0.912 J0.029
N6720 X229.088 Y-2233.708 Z-10.257 I-0.912 J-0.029
N6725 X230.912 Y-2233.651 Z-10.344 I0.912 J0.029
N6730 X229.088 Y-2233.708 Z-10.432 I-0.912 J-0.029
N6735 X230.912 Y-2233.651 Z-10.519 I0.912 J0.029
N6740 X229.088 Y-2233.708 Z-10.606 I-0.912 J-0.029
N6745 X230.912 Y-2233.651 Z-10.694 I0.912 J0.029
N6750 X229.088 Y-2233.708 Z-10.781 I-0.912 J-0.029
N6755 X230.912 Y-2233.651 Z-10.868 I0.912 J0.029
N6760 X229.088 Y-2233.708 Z-10.956 I-0.912 J-0.029
N6765 X230.912 Y-2233.651 Z-11.043 I0.912 J0.029
N6770 X229.088 Y-2233.708 Z-11.13 I-0.912 J-0.029
N6775 X230.912 Y-2233.651 Z-11.217 I0.912 J0.029
N6780 X229.088 Y-2233.708 Z-11.305 I-0.912 J-0.029
N6785 X230.912 Y-2233.651 Z-11.392 I0.912 J0.029
N6790 X229.088 Y-2233.708 Z-11.479 I-0.912 J-0.029
N6795 X230.912 Y-2233.651 Z-11.567 I0.912 J0.029
N6800 X229.088 Y-2233.708 Z-11.654 I-0.912 J-0.029
N6805 X230.912 Y-2233.651 Z-11.741 I0.912 J0.029
N6810 X229.088 Y-2233.708 Z-11.829 I-0.912 J-0.029
N6815 X230.912 Y-2233.651 Z-11.916 I0.912 J0.029
N6820 X229.088 Y-2233.708 Z-12.003 I-0.912 J-0.029
N6825 X230.912 Y-2233.651 Z-12.09 I0.912 J0.029
N6830 X229.088 Y-2233.708 Z-12.178 I-0.912 J-0.029
N6835 X230.912 Y-2233.651 Z-12.265 I0.912 J0.029
N6840 X229.088 Y-2233.708 Z-12.352 I-0.912 J-0.029
N6845 X230.912 Y-2233.651 Z-12.44 I0.912 J0.029
N6850 X229.088 Y-2233.708 Z-12.527 I-0.912 J-0.029
N6855 X230.912 Y-2233.651 Z-12.614 I0.912 J0.029
N6860 X229.088 Y-2233.708 Z-12.702 I-0.912 J-0.029
N6865 X230.912 Y-2233.651 Z-12.789 I0.912 J0.029
N6870 X229.088 Y-2233.708 Z-12.876 I-0.912 J-0.029
N6875 X230.912 Y-2233.651 Z-12.963 I0.912 J0.029
N6880 X229.088 Y-2233.708 Z-13.051 I-0.912 J-0.029
N6885 X230.912 Y-2233.651 Z-13.138 I0.912 J0.029
N6890 X229.088 Y-2233.708 Z-13.225 I-0.912 J-0.029
N6895 X230.912 Y-2233.651 Z-13.313 I0.912 J0.029
N6900 X229.088 Y-2233.708 Z-13.4 I-0.912 J-0.029
N6905 X230.912 Y-2233.651 Z-13.487 I0.912 J0.029
N6910 X229.088 Y-2233.708 Z-13.575 I-0.912 J-0.029
N6915 X230.912 Y-2233.651 Z-13.662 I0.912 J0.029
N6920 X229.088 Y-2233.708 Z-13.749 I-0.912 J-0.029
N6925 X230.912 Y-2233.651 Z-13.836 I0.912 J0.029
N6930 X229.088 Y-2233.708 Z-13.924 I-0.912 J-0.029
N6935 X230.912 Y-2233.651 Z-14.011 I0.912 J0.029
N6940 X229.088 Y-2233.708 Z-14.098 I-0.912 J-0.029
N6945 X230.912 Y-2233.651 Z-14.186 I0.912 J0.029
N6950 X229.088 Y-2233.708 Z-14.273 I-0.912 J-0.029
N6955 X230.912 Y-2233.651 Z-14.36 I0.912 J0.029
N6960 X229.088 Y-2233.708 Z-14.448 I-0.912 J-0.029
N6965 X230.912 Y-2233.651 Z-14.535 I0.912 J0.029
N6970 X229.088 Y-2233.708 Z-14.622 I-0.912 J-0.029
N6975 X230.912 Y-2233.651 Z-14.709 I0.912 J0.029
N6980 X229.088 Y-2233.708 Z-14.797 I-0.912 J-0.029
N6985 X230.912 Y-2233.651 Z-14.884 I0.912 J0.029
N6990 X229.088 Y-2233.708 Z-14.971 I-0.912 J-0.029
N6995 X230.912 Y-2233.651 Z-15.059 I0.912 J0.029
N7000 X229.088 Y-2233.708 Z-15.146 I-0.912 J-0.029
N7005 X230.912 Y-2233.651 Z-15.233 I0.912 J0.029
N7010 X229.088 Y-2233.708 Z-15.321 I-0.912 J-0.029
N7015 X230.912 Y-2233.651 Z-15.408 I0.912 J0.029
N7020 X229.088 Y-2233.708 Z-15.495 I-0.912 J-0.029
N7025 X230.912 Y-2233.651 Z-15.583 I0.912 J0.029
N7030 X229.088 Y-2233.708 Z-15.67 I-0.912 J-0.029
N7035 X230.912 Y-2233.651 Z-15.757 I0.912 J0.029
N7040 X229.088 Y-2233.708 Z-15.844 I-0.912 J-0.029
N7045 X230.912 Y-2233.651 Z-15.932 I0.912 J0.029
N7050 X229.312 Y-2234.279 Z-16. I-0.912 J-0.029
N7055 X230.688 Y-2233.08 I0.688 J0.599
N7060 X229.312 Y-2234.279 I-0.688 J-0.599
N7065 X229.343 Y-2233.831 I0.239 J0.208 F250.
N7070 G1 X229.462 Y-2233.727
N7075 X229.516 Y-2233.68 Z-15.992
N7080 X229.566 Y-2233.636 Z-15.969
N7085 X229.612 Y-2233.597 Z-15.931
N7090 X229.65 Y-2233.564 Z-15.88
N7095 X229.678 Y-2233.539 Z-15.82
N7100 X229.696 Y-2233.523 Z-15.753
N7105 X229.702 Y-2233.518 Z-15.682
N7110 Z5. F1500.
N7115 X229.881 Y-2213.997
N7120 Z2.
N7125 Z0.317 F250.
N7130 G18 G3 X229.564 Z0. I-0.318 K0.
N7135 G1 X229.405
N7140 G17 G2 X229.087 Y-2213.679 I0. J0.318
N7145 X230.913 Z-0.087 I0.913 J0. F1500.
N7150 X229.087 Z-0.175 I-0.913 J0.
N7155 X230.913 Z-0.262 I0.913 J0.
N7160 X229.087 Z-0.349 I-0.913 J0.
N7165 X230.913 Z-0.437 I0.913 J0.
N7170 X229.087 Z-0.524 I-0.913 J0.
N7175 X230.913 Z-0.611 I0.913 J0.
N7180 X229.087 Z-0.698 I-0.913 J0.
N7185 X230.913 Z-0.786 I0.913 J0.
N7190 X229.087 Z-0.873 I-0.913 J0.
N7195 X230.913 Z-0.96 I0.913 J0.
N7200 X229.087 Z-1.048 I-0.913 J0.
N7205 X230.913 Z-1.135 I0.913 J0.
N7210 X229.087 Z-1.222 I-0.913 J0.
N7215 X230.913 Z-1.31 I0.913 J0.
N7220 X229.087 Z-1.397 I-0.913 J0.
N7225 X230.913 Z-1.484 I0.913 J0.
N7230 X229.087 Z-1.571 I-0.913 J0.
N7235 X230.913 Z-1.659 I0.913 J0.
N7240 X229.087 Z-1.746 I-0.913 J0.
N7245 X230.913 Z-1.833 I0.913 J0.
N7250 X229.087 Z-1.921 I-0.913 J0.
N7255 X230.913 Z-2.008 I0.913 J0.
N7260 X229.087 Z-2.095 I-0.913 J0.
N7265 X230.913 Z-2.183 I0.913 J0.
N7270 X229.087 Z-2.27 I-0.913 J0.
N7275 X230.913 Z-2.357 I0.913 J0.
N7280 X229.087 Z-2.444 I-0.913 J0.
N7285 X230.913 Z-2.532 I0.913 J0.
N7290 X229.087 Z-2.619 I-0.913 J0.
N7295 X230.913 Z-2.706 I0.913 J0.
N7300 X229.087 Z-2.794 I-0.913 J0.
N7305 X230.913 Z-2.881 I0.913 J0.
N7310 X229.087 Z-2.968 I-0.913 J0.
N7315 X230.913 Z-3.056 I0.913 J0.
N7320 X229.087 Z-3.143 I-0.913 J0.
N7325 X230.913 Z-3.23 I0.913 J0.
N7330 X229.087 Z-3.317 I-0.913 J0.
N7335 X230.913 Z-3.405 I0.913 J0.
N7340 X229.087 Z-3.492 I-0.913 J0.
N7345 X230.913 Z-3.579 I0.913 J0.
N7350 X229.087 Z-3.667 I-0.913 J0.
N7355 X230.913 Z-3.754 I0.913 J0.
N7360 X229.087 Z-3.841 I-0.913 J0.
N7365 X230.913 Z-3.929 I0.913 J0.
N7370 X229.087 Z-4.016 I-0.913 J0.
N7375 X230.913 Z-4.103 I0.913 J0.
N7380 X229.087 Z-4.19 I-0.913 J0.
N7385 X230.913 Z-4.278 I0.913 J0.
N7390 X229.087 Z-4.365 I-0.913 J0.
N7395 X230.913 Z-4.452 I0.913 J0.
N7400 X229.087 Z-4.54 I-0.913 J0.
N7405 X230.913 Z-4.627 I0.913 J0.
N7410 X229.087 Z-4.714 I-0.913 J0.
N7415 X230.913 Z-4.802 I0.913 J0.
N7420 X229.087 Z-4.889 I-0.913 J0.
N7425 X230.913 Z-4.976 I0.913 J0.
N7430 X229.087 Z-5.064 I-0.913 J0.
N7435 X230.913 Z-5.151 I0.913 J0.
N7440 X229.087 Z-5.238 I-0.913 J0.
N7445 X230.913 Z-5.325 I0.913 J0.
N7450 X229.087 Z-5.413 I-0.913 J0.
N7455 X230.913 Z-5.5 I0.913 J0.
N7460 X229.087 Z-5.587 I-0.913 J0.
N7465 X230.913 Z-5.675 I0.913 J0.
N7470 X229.087 Z-5.762 I-0.913 J0.
N7475 X230.913 Z-5.849 I0.913 J0.
N7480 X229.087 Z-5.937 I-0.913 J0.
N7485 X230.913 Z-6.024 I0.913 J0.
N7490 X229.087 Z-6.111 I-0.913 J0.
N7495 X230.913 Z-6.198 I0.913 J0.
N7500 X229.087 Z-6.286 I-0.913 J0.
N7505 X230.913 Z-6.373 I0.913 J0.
N7510 X229.087 Z-6.46 I-0.913 J0.
N7515 X230.913 Z-6.548 I0.913 J0.
N7520 X229.087 Z-6.635 I-0.913 J0.
N7525 X230.913 Z-6.722 I0.913 J0.
N7530 X229.087 Z-6.81 I-0.913 J0.
N7535 X230.913 Z-6.897 I0.913 J0.
N7540 X229.087 Z-6.984 I-0.913 J0.
N7545 X230.913 Z-7.071 I0.913 J0.
N7550 X229.087 Z-7.159 I-0.913 J0.
N7555 X230.913 Z-7.246 I0.913 J0.
N7560 X229.087 Z-7.333 I-0.913 J0.
N7565 X230.913 Z-7.421 I0.913 J0.
N7570 X229.087 Z-7.508 I-0.913 J0.
N7575 X230.913 Z-7.595 I0.913 J0.
N7580 X229.087 Z-7.683 I-0.913 J0.
N7585 X230.913 Z-7.77 I0.913 J0.
N7590 X229.087 Z-7.857 I-0.913 J0.
N7595 X230.913 Z-7.944 I0.913 J0.
N7600 X229.087 Z-8.032 I-0.913 J0.
N7605 X230.913 Z-8.119 I0.913 J0.
N7610 X229.087 Z-8.206 I-0.913 J0.
N7615 X230.913 Z-8.294 I0.913 J0.
N7620 X229.087 Z-8.381 I-0.913 J0.
N7625 X230.913 Z-8.468 I0.913 J0.
N7630 X229.087 Z-8.556 I-0.913 J0.
N7635 X230.913 Z-8.643 I0.913 J0.
N7640 X229.087 Z-8.73 I-0.913 J0.
N7645 X230.913 Z-8.817 I0.913 J0.
N7650 X229.087 Z-8.905 I-0.913 J0.
N7655 X230.913 Z-8.992 I0.913 J0.
N7660 X229.087 Z-9.079 I-0.913 J0.
N7665 X230.913 Z-9.167 I0.913 J0.
N7670 X229.087 Z-9.254 I-0.913 J0.
N7675 X230.913 Z-9.341 I0.913 J0.
N7680 X229.087 Z-9.429 I-0.913 J0.
N7685 X230.913 Z-9.516 I0.913 J0.
N7690 X229.087 Z-9.603 I-0.913 J0.
N7695 X230.913 Z-9.691 I0.913 J0.
N7700 X229.087 Z-9.778 I-0.913 J0.
N7705 X230.913 Z-9.865 I0.913 J0.
N7710 X229.087 Z-9.952 I-0.913 J0.
N7715 X230.913 Z-10.04 I0.913 J0.
N7720 X229.087 Z-10.127 I-0.913 J0.
N7725 X230.913 Z-10.214 I0.913 J0.
N7730 X229.087 Z-10.302 I-0.913 J0.
N7735 X230.913 Z-10.389 I0.913 J0.
N7740 X229.087 Z-10.476 I-0.913 J0.
N7745 X230.913 Z-10.564 I0.913 J0.
N7750 X229.087 Z-10.651 I-0.913 J0.
N7755 X230.913 Z-10.738 I0.913 J0.
N7760 X229.087 Z-10.825 I-0.913 J0.
N7765 X230.913 Z-10.913 I0.913 J0.
N7770 X229.087 Z-11. I-0.913 J0.
N7775 X230.913 Z-11.087 I0.913 J0.
N7780 X229.087 Z-11.175 I-0.913 J0.
N7785 X230.913 Z-11.262 I0.913 J0.
N7790 X229.087 Z-11.349 I-0.913 J0.
N7795 X230.913 Z-11.437 I0.913 J0.
N7800 X229.087 Z-11.524 I-0.913 J0.
N7805 X230.913 Z-11.611 I0.913 J0.
N7810 X229.087 Z-11.698 I-0.913 J0.
N7815 X230.913 Z-11.786 I0.913 J0.
N7820 X229.087 Z-11.873 I-0.913 J0.
N7825 X230.913 Z-11.96 I0.913 J0.
N7830 X229.087 Z-12.048 I-0.913 J0.
N7835 X230.913 Z-12.135 I0.913 J0.
N7840 X229.087 Z-12.222 I-0.913 J0.
N7845 X230.913 Z-12.31 I0.913 J0.
N7850 X229.087 Z-12.397 I-0.913 J0.
N7855 X230.913 Z-12.484 I0.913 J0.
N7860 X229.087 Z-12.571 I-0.913 J0.
N7865 X230.913 Z-12.659 I0.913 J0.
N7870 X229.087 Z-12.746 I-0.913 J0.
N7875 X230.913 Z-12.833 I0.913 J0.
N7880 X229.087 Z-12.921 I-0.913 J0.
N7885 X230.913 Z-13.008 I0.913 J0.
N7890 X229.087 Z-13.095 I-0.913 J0.
N7895 X230.913 Z-13.183 I0.913 J0.
N7900 X229.087 Z-13.27 I-0.913 J0.
N7905 X230.913 Z-13.357 I0.913 J0.
N7910 X229.087 Z-13.444 I-0.913 J0.
N7915 X230.913 Z-13.532 I0.913 J0.
N7920 X229.087 Z-13.619 I-0.913 J0.
N7925 X230.913 Z-13.706 I0.913 J0.
N7930 X229.087 Z-13.794 I-0.913 J0.
N7935 X230.913 Z-13.881 I0.913 J0.
N7940 X229.087 Z-13.968 I-0.913 J0.
N7945 X230.913 Z-14.056 I0.913 J0.
N7950 X229.087 Z-14.143 I-0.913 J0.
N7955 X230.913 Z-14.23 I0.913 J0.
N7960 X229.087 Z-14.318 I-0.913 J0.
N7965 X230.913 Z-14.405 I0.913 J0.
N7970 X229.087 Z-14.492 I-0.913 J0.
N7975 X230.913 Z-14.579 I0.913 J0.
N7980 X229.087 Z-14.667 I-0.913 J0.
N7985 X230.913 Z-14.754 I0.913 J0.
N7990 X229.087 Z-14.841 I-0.913 J0.
N7995 X230.913 Z-14.929 I0.913 J0.
N8000 X229.087 Z-15.016 I-0.913 J0.
N8005 X230.913 Z-15.103 I0.913 J0.
N8010 X229.087 Z-15.191 I-0.913 J0.
N8015 X230.913 Z-15.278 I0.913 J0.
N8020 X229.087 Z-15.365 I-0.913 J0.
N8025 X230.913 Z-15.452 I0.913 J0.
N8030 X229.087 Z-15.54 I-0.913 J0.
N8035 X230.913 Z-15.627 I0.913 J0.
N8040 X229.087 Z-15.714 I-0.913 J0.
N8045 X230.913 Z-15.802 I0.913 J0.
N8050 X229.087 Z-15.889 I-0.913 J0.
N8055 X230.913 Z-15.976 I0.913 J0.
N8060 X230.599 Y-2214.368 Z-16. I-0.913 J0.
N8065 X229.401 Y-2212.991 I-0.599 J0.688
N8070 X230.599 Y-2214.368 I0.599 J-0.688
N8075 X230.151 Y-2214.337 I-0.208 J0.24 F250.
N8080 G1 X230.047 Y-2214.217
N8085 X230.001 Y-2214.164 Z-15.992
N8090 X229.956 Y-2214.113 Z-15.969
N8095 X229.917 Y-2214.068 Z-15.931
N8100 X229.884 Y-2214.03 Z-15.88
N8105 X229.859 Y-2214.001 Z-15.82
N8110 X229.844 Y-2213.984 Z-15.753
N8115 X229.838 Y-2213.978 Z-15.682
N8120 Z5. F1500.
N8125 X229.881 Y-2193.997
N8130 Z2.
N8135 Z0.317 F250.
N8140 G18 G3 X229.564 Z0. I-0.318 K0.
N8145 G1 X229.405
N8150 G17 G2 X229.087 Y-2193.679 I0. J0.318
N8155 X230.913 Z-0.087 I0.913 J0. F1500.
N8160 X229.087 Z-0.175 I-0.913 J0.
N8165 X230.913 Z-0.262 I0.913 J0.
N8170 X229.087 Z-0.349 I-0.913 J0.
N8175 X230.913 Z-0.437 I0.913 J0.
N8180 X229.087 Z-0.524 I-0.913 J0.
N8185 X230.913 Z-0.611 I0.913 J0.
N8190 X229.087 Z-0.698 I-0.913 J0.
N8195 X230.913 Z-0.786 I0.913 J0.
N8200 X229.087 Z-0.873 I-0.913 J0.
N8205 X230.913 Z-0.96 I0.913 J0.
N8210 X229.087 Z-1.048 I-0.913 J0.
N8215 X230.913 Z-1.135 I0.913 J0.
N8220 X229.087 Z-1.222 I-0.913 J0.
N8225 X230.913 Z-1.31 I0.913 J0.
N8230 X229.087 Z-1.397 I-0.913 J0.
N8235 X230.913 Z-1.484 I0.913 J0.
N8240 X229.087 Z-1.571 I-0.913 J0.
N8245 X230.913 Z-1.659 I0.913 J0.
N8250 X229.087 Z-1.746 I-0.913 J0.
N8255 X230.913 Z-1.833 I0.913 J0.
N8260 X229.087 Z-1.921 I-0.913 J0.
N8265 X230.913 Z-2.008 I0.913 J0.
N8270 X229.087 Z-2.095 I-0.913 J0.
N8275 X230.913 Z-2.183 I0.913 J0.
N8280 X229.087 Z-2.27 I-0.913 J0.
N8285 X230.913 Z-2.357 I0.913 J0.
N8290 X229.087 Z-2.444 I-0.913 J0.
N8295 X230.913 Z-2.532 I0.913 J0.
N8300 X229.087 Z-2.619 I-0.913 J0.
N8305 X230.913 Z-2.706 I0.913 J0.
N8310 X229.087 Z-2.794 I-0.913 J0.
N8315 X230.913 Z-2.881 I0.913 J0.
N8320 X229.087 Z-2.968 I-0.913 J0.
N8325 X230.913 Z-3.056 I0.913 J0.
N8330 X229.087 Z-3.143 I-0.913 J0.
N8335 X230.913 Z-3.23 I0.913 J0.
N8340 X229.087 Z-3.317 I-0.913 J0.
N8345 X230.913 Z-3.405 I0.913 J0.
N8350 X229.087 Z-3.492 I-0.913 J0.
N8355 X230.913 Z-3.579 I0.913 J0.
N8360 X229.087 Z-3.667 I-0.913 J0.
N8365 X230.913 Z-3.754 I0.913 J0.
N8370 X229.087 Z-3.841 I-0.913 J0.
N8375 X230.913 Z-3.929 I0.913 J0.
N8380 X229.087 Z-4.016 I-0.913 J0.
N8385 X230.913 Z-4.103 I0.913 J0.
N8390 X229.087 Z-4.19 I-0.913 J0.
N8395 X230.913 Z-4.278 I0.913 J0.
N8400 X229.087 Z-4.365 I-0.913 J0.
N8405 X230.913 Z-4.452 I0.913 J0.
N8410 X229.087 Z-4.54 I-0.913 J0.
N8415 X230.913 Z-4.627 I0.913 J0.
N8420 X229.087 Z-4.714 I-0.913 J0.
N8425 X230.913 Z-4.802 I0.913 J0.
N8430 X229.087 Z-4.889 I-0.913 J0.
N8435 X230.913 Z-4.976 I0.913 J0.
N8440 X229.087 Z-5.064 I-0.913 J0.
N8445 X230.913 Z-5.151 I0.913 J0.
N8450 X229.087 Z-5.238 I-0.913 J0.
N8455 X230.913 Z-5.325 I0.913 J0.
N8460 X229.087 Z-5.413 I-0.913 J0.
N8465 X230.913 Z-5.5 I0.913 J0.
N8470 X229.087 Z-5.587 I-0.913 J0.
N8475 X230.913 Z-5.675 I0.913 J0.
N8480 X229.087 Z-5.762 I-0.913 J0.
N8485 X230.913 Z-5.849 I0.913 J0.
N8490 X229.087 Z-5.937 I-0.913 J0.
N8495 X230.913 Z-6.024 I0.913 J0.
N8500 X229.087 Z-6.111 I-0.913 J0.
N8505 X230.913 Z-6.198 I0.913 J0.
N8510 X229.087 Z-6.286 I-0.913 J0.
N8515 X230.913 Z-6.373 I0.913 J0.
N8520 X229.087 Z-6.46 I-0.913 J0.
N8525 X230.913 Z-6.548 I0.913 J0.
N8530 X229.087 Z-6.635 I-0.913 J0.
N8535 X230.913 Z-6.722 I0.913 J0.
N8540 X229.087 Z-6.81 I-0.913 J0.
N8545 X230.913 Z-6.897 I0.913 J0.
N8550 X229.087 Z-6.984 I-0.913 J0.
N8555 X230.913 Z-7.071 I0.913 J0.
N8560 X229.087 Z-7.159 I-0.913 J0.
N8565 X230.913 Z-7.246 I0.913 J0.
N8570 X229.087 Z-7.333 I-0.913 J0.
N8575 X230.913 Z-7.421 I0.913 J0.
N8580 X229.087 Z-7.508 I-0.913 J0.
N8585 X230.913 Z-7.595 I0.913 J0.
N8590 X229.087 Z-7.683 I-0.913 J0.
N8595 X230.913 Z-7.77 I0.913 J0.
N8600 X229.087 Z-7.857 I-0.913 J0.
N8605 X230.913 Z-7.944 I0.913 J0.
N8610 X229.087 Z-8.032 I-0.913 J0.
N8615 X230.913 Z-8.119 I0.913 J0.
N8620 X229.087 Z-8.206 I-0.913 J0.
N8625 X230.913 Z-8.294 I0.913 J0.
N8630 X229.087 Z-8.381 I-0.913 J0.
N8635 X230.913 Z-8.468 I0.913 J0.
N8640 X229.087 Z-8.556 I-0.913 J0.
N8645 X230.913 Z-8.643 I0.913 J0.
N8650 X229.087 Z-8.73 I-0.913 J0.
N8655 X230.913 Z-8.817 I0.913 J0.
N8660 X229.087 Z-8.905 I-0.913 J0.
N8665 X230.913 Z-8.992 I0.913 J0.
N8670 X229.087 Z-9.079 I-0.913 J0.
N8675 X230.913 Z-9.167 I0.913 J0.
N8680 X229.087 Z-9.254 I-0.913 J0.
N8685 X230.913 Z-9.341 I0.913 J0.
N8690 X229.087 Z-9.429 I-0.913 J0.
N8695 X230.913 Z-9.516 I0.913 J0.
N8700 X229.087 Z-9.603 I-0.913 J0.
N8705 X230.913 Z-9.691 I0.913 J0.
N8710 X229.087 Z-9.778 I-0.913 J0.
N8715 X230.913 Z-9.865 I0.913 J0.
N8720 X229.087 Z-9.952 I-0.913 J0.
N8725 X230.913 Z-10.04 I0.913 J0.
N8730 X229.087 Z-10.127 I-0.913 J0.
N8735 X230.913 Z-10.214 I0.913 J0.
N8740 X229.087 Z-10.302 I-0.913 J0.
N8745 X230.913 Z-10.389 I0.913 J0.
N8750 X229.087 Z-10.476 I-0.913 J0.
N8755 X230.913 Z-10.564 I0.913 J0.
N8760 X229.087 Z-10.651 I-0.913 J0.
N8765 X230.913 Z-10.738 I0.913 J0.
N8770 X229.087 Z-10.825 I-0.913 J0.
N8775 X230.913 Z-10.913 I0.913 J0.
N8780 X229.087 Z-11. I-0.913 J0.
N8785 X230.913 Z-11.087 I0.913 J0.
N8790 X229.087 Z-11.175 I-0.913 J0.
N8795 X230.913 Z-11.262 I0.913 J0.
N8800 X229.087 Z-11.349 I-0.913 J0.
N8805 X230.913 Z-11.437 I0.913 J0.
N8810 X229.087 Z-11.524 I-0.913 J0.
N8815 X230.913 Z-11.611 I0.913 J0.
N8820 X229.087 Z-11.698 I-0.913 J0.
N8825 X230.913 Z-11.786 I0.913 J0.
N8830 X229.087 Z-11.873 I-0.913 J0.
N8835 X230.913 Z-11.96 I0.913 J0.
N8840 X229.087 Z-12.048 I-0.913 J0.
N8845 X230.913 Z-12.135 I0.913 J0.
N8850 X229.087 Z-12.222 I-0.913 J0.
N8855 X230.913 Z-12.31 I0.913 J0.
N8860 X229.087 Z-12.397 I-0.913 J0.
N8865 X230.913 Z-12.484 I0.913 J0.
N8870 X229.087 Z-12.571 I-0.913 J0.
N8875 X230.913 Z-12.659 I0.913 J0.
N8880 X229.087 Z-12.746 I-0.913 J0.
N8885 X230.913 Z-12.833 I0.913 J0.
N8890 X229.087 Z-12.921 I-0.913 J0.
N8895 X230.913 Z-13.008 I0.913 J0.
N8900 X229.087 Z-13.095 I-0.913 J0.
N8905 X230.913 Z-13.183 I0.913 J0.
N8910 X229.087 Z-13.27 I-0.913 J0.
N8915 X230.913 Z-13.357 I0.913 J0.
N8920 X229.087 Z-13.444 I-0.913 J0.
N8925 X230.913 Z-13.532 I0.913 J0.
N8930 X229.087 Z-13.619 I-0.913 J0.
N8935 X230.913 Z-13.706 I0.913 J0.
N8940 X229.087 Z-13.794 I-0.913 J0.
N8945 X230.913 Z-13.881 I0.913 J0.
N8950 X229.087 Z-13.968 I-0.913 J0.
N8955 X230.913 Z-14.056 I0.913 J0.
N8960 X229.087 Z-14.143 I-0.913 J0.
N8965 X230.913 Z-14.23 I0.913 J0.
N8970 X229.087 Z-14.318 I-0.913 J0.
N8975 X230.913 Z-14.405 I0.913 J0.
N8980 X229.087 Z-14.492 I-0.913 J0.
N8985 X230.913 Z-14.579 I0.913 J0.
N8990 X229.087 Z-14.667 I-0.913 J0.
N8995 X230.913 Z-14.754 I0.913 J0.
N9000 X229.087 Z-14.841 I-0.913 J0.
N9005 X230.913 Z-14.929 I0.913 J0.
N9010 X229.087 Z-15.016 I-0.913 J0.
N9015 X230.913 Z-15.103 I0.913 J0.
N9020 X229.087 Z-15.191 I-0.913 J0.
N9025 X230.913 Z-15.278 I0.913 J0.
N9030 X229.087 Z-15.365 I-0.913 J0.
N9035 X230.913 Z-15.452 I0.913 J0.
N9040 X229.087 Z-15.54 I-0.913 J0.
N9045 X230.913 Z-15.627 I0.913 J0.
N9050 X229.087 Z-15.714 I-0.913 J0.
N9055 X230.913 Z-15.802 I0.913 J0.
N9060 X229.087 Z-15.889 I-0.913 J0.
N9065 X230.913 Z-15.976 I0.913 J0.
N9070 X230.599 Y-2194.368 Z-16. I-0.913 J0.
N9075 X229.401 Y-2192.991 I-0.599 J0.688
N9080 X230.599 Y-2194.368 I0.599 J-0.688
N9085 X230.151 Y-2194.337 I-0.208 J0.24 F250.
N9090 G1 X230.047 Y-2194.217
N9095 X230.001 Y-2194.164 Z-15.992
N9100 X229.956 Y-2194.113 Z-15.969
N9105 X229.917 Y-2194.068 Z-15.931
N9110 X229.884 Y-2194.03 Z-15.88
N9115 X229.859 Y-2194.001 Z-15.82
N9120 X229.844 Y-2193.984 Z-15.753
N9125 X229.838 Y-2193.978 Z-15.682
N9130 Z5. F1500.
N9135 X229.881 Y-2173.997
N9140 Z2.
N9145 Z0.317 F250.
N9150 G18 G3 X229.564 Z0. I-0.318 K0.
N9155 G1 X229.405
N9160 G17 G2 X229.087 Y-2173.679 I0. J0.318
N9165 X230.913 Z-0.087 I0.913 J0. F1500.
N9170 X229.087 Z-0.175 I-0.913 J0.
N9175 X230.913 Z-0.262 I0.913 J0.
N9180 X229.087 Z-0.349 I-0.913 J0.
N9185 X230.913 Z-0.437 I0.913 J0.
N9190 X229.087 Z-0.524 I-0.913 J0.
N9195 X230.913 Z-0.611 I0.913 J0.
N9200 X229.087 Z-0.698 I-0.913 J0.
N9205 X230.913 Z-0.786 I0.913 J0.
N9210 X229.087 Z-0.873 I-0.913 J0.
N9215 X230.913 Z-0.96 I0.913 J0.
N9220 X229.087 Z-1.048 I-0.913 J0.
N9225 X230.913 Z-1.135 I0.913 J0.
N9230 X229.087 Z-1.222 I-0.913 J0.
N9235 X230.913 Z-1.31 I0.913 J0.
N9240 X229.087 Z-1.397 I-0.913 J0.
N9245 X230.913 Z-1.484 I0.913 J0.
N9250 X229.087 Z-1.571 I-0.913 J0.
N9255 X230.913 Z-1.659 I0.913 J0.
N9260 X229.087 Z-1.746 I-0.913 J0.
N9265 X230.913 Z-1.833 I0.913 J0.
N9270 X229.087 Z-1.921 I-0.913 J0.
N9275 X230.913 Z-2.008 I0.913 J0.
N9280 X229.087 Z-2.095 I-0.913 J0.
N9285 X230.913 Z-2.183 I0.913 J0.
N9290 X229.087 Z-2.27 I-0.913 J0.
N9295 X230.913 Z-2.357 I0.913 J0.
N9300 X229.087 Z-2.444 I-0.913 J0.
N9305 X230.913 Z-2.532 I0.913 J0.
N9310 X229.087 Z-2.619 I-0.913 J0.
N9315 X230.913 Z-2.706 I0.913 J0.
N9320 X229.087 Z-2.794 I-0.913 J0.
N9325 X230.913 Z-2.881 I0.913 J0.
N9330 X229.087 Z-2.968 I-0.913 J0.
N9335 X230.913 Z-3.056 I0.913 J0.
N9340 X229.087 Z-3.143 I-0.913 J0.
N9345 X230.913 Z-3.23 I0.913 J0.
N9350 X229.087 Z-3.317 I-0.913 J0.
N9355 X230.913 Z-3.405 I0.913 J0.
N9360 X229.087 Z-3.492 I-0.913 J0.
N9365 X230.913 Z-3.579 I0.913 J0.
N9370 X229.087 Z-3.667 I-0.913 J0.
N9375 X230.913 Z-3.754 I0.913 J0.
N9380 X229.087 Z-3.841 I-0.913 J0.
N9385 X230.913 Z-3.929 I0.913 J0.
N9390 X229.087 Z-4.016 I-0.913 J0.
N9395 X230.913 Z-4.103 I0.913 J0.
N9400 X229.087 Z-4.19 I-0.913 J0.
N9405 X230.913 Z-4.278 I0.913 J0.
N9410 X229.087 Z-4.365 I-0.913 J0.
N9415 X230.913 Z-4.452 I0.913 J0.
N9420 X229.087 Z-4.54 I-0.913 J0.
N9425 X230.913 Z-4.627 I0.913 J0.
N9430 X229.087 Z-4.714 I-0.913 J0.
N9435 X230.913 Z-4.802 I0.913 J0.
N9440 X229.087 Z-4.889 I-0.913 J0.
N9445 X230.913 Z-4.976 I0.913 J0.
N9450 X229.087 Z-5.064 I-0.913 J0.
N9455 X230.913 Z-5.151 I0.913 J0.
N9460 X229.087 Z-5.238 I-0.913 J0.
N9465 X230.913 Z-5.325 I0.913 J0.
N9470 X229.087 Z-5.413 I-0.913 J0.
N9475 X230.913 Z-5.5 I0.913 J0.
N9480 X229.087 Z-5.587 I-0.913 J0.
N9485 X230.913 Z-5.675 I0.913 J0.
N9490 X229.087 Z-5.762 I-0.913 J0.
N9495 X230.913 Z-5.849 I0.913 J0.
N9500 X229.087 Z-5.937 I-0.913 J0.
N9505 X230.913 Z-6.024 I0.913 J0.
N9510 X229.087 Z-6.111 I-0.913 J0.
N9515 X230.913 Z-6.198 I0.913 J0.
N9520 X229.087 Z-6.286 I-0.913 J0.
N9525 X230.913 Z-6.373 I0.913 J0.
N9530 X229.087 Z-6.46 I-0.913 J0.
N9535 X230.913 Z-6.548 I0.913 J0.
N9540 X229.087 Z-6.635 I-0.913 J0.
N9545 X230.913 Z-6.722 I0.913 J0.
N9550 X229.087 Z-6.81 I-0.913 J0.
N9555 X230.913 Z-6.897 I0.913 J0.
N9560 X229.087 Z-6.984 I-0.913 J0.
N9565 X230.913 Z-7.071 I0.913 J0.
N9570 X229.087 Z-7.159 I-0.913 J0.
N9575 X230.913 Z-7.246 I0.913 J0.
N9580 X229.087 Z-7.333 I-0.913 J0.
N9585 X230.913 Z-7.421 I0.913 J0.
N9590 X229.087 Z-7.508 I-0.913 J0.
N9595 X230.913 Z-7.595 I0.913 J0.
N9600 X229.087 Z-7.683 I-0.913 J0.
N9605 X230.913 Z-7.77 I0.913 J0.
N9610 X229.087 Z-7.857 I-0.913 J0.
N9615 X230.913 Z-7.944 I0.913 J0.
N9620 X229.087 Z-8.032 I-0.913 J0.
N9625 X230.913 Z-8.119 I0.913 J0.
N9630 X229.087 Z-8.206 I-0.913 J0.
N9635 X230.913 Z-8.294 I0.913 J0.
N9640 X229.087 Z-8.381 I-0.913 J0.
N9645 X230.913 Z-8.468 I0.913 J0.
N9650 X229.087 Z-8.556 I-0.913 J0.
N9655 X230.913 Z-8.643 I0.913 J0.
N9660 X229.087 Z-8.73 I-0.913 J0.
N9665 X230.913 Z-8.817 I0.913 J0.
N9670 X229.087 Z-8.905 I-0.913 J0.
N9675 X230.913 Z-8.992 I0.913 J0.
N9680 X229.087 Z-9.079 I-0.913 J0.
N9685 X230.913 Z-9.167 I0.913 J0.
N9690 X229.087 Z-9.254 I-0.913 J0.
N9695 X230.913 Z-9.341 I0.913 J0.
N9700 X229.087 Z-9.429 I-0.913 J0.
N9705 X230.913 Z-9.516 I0.913 J0.
N9710 X229.087 Z-9.603 I-0.913 J0.
N9715 X230.913 Z-9.691 I0.913 J0.
N9720 X229.087 Z-9.778 I-0.913 J0.
N9725 X230.913 Z-9.865 I0.913 J0.
N9730 X229.087 Z-9.952 I-0.913 J0.
N9735 X230.913 Z-10.04 I0.913 J0.
N9740 X229.087 Z-10.127 I-0.913 J0.
N9745 X230.913 Z-10.214 I0.913 J0.
N9750 X229.087 Z-10.302 I-0.913 J0.
N9755 X230.913 Z-10.389 I0.913 J0.
N9760 X229.087 Z-10.476 I-0.913 J0.
N9765 X230.913 Z-10.564 I0.913 J0.
N9770 X229.087 Z-10.651 I-0.913 J0.
N9775 X230.913 Z-10.738 I0.913 J0.
N9780 X229.087 Z-10.825 I-0.913 J0.
N9785 X230.913 Z-10.913 I0.913 J0.
N9790 X229.087 Z-11. I-0.913 J0.
N9795 X230.913 Z-11.087 I0.913 J0.
N9800 X229.087 Z-11.175 I-0.913 J0.
N9805 X230.913 Z-11.262 I0.913 J0.
N9810 X229.087 Z-11.349 I-0.913 J0.
N9815 X230.913 Z-11.437 I0.913 J0.
N9820 X229.087 Z-11.524 I-0.913 J0.
N9825 X230.913 Z-11.611 I0.913 J0.
N9830 X229.087 Z-11.698 I-0.913 J0.
N9835 X230.913 Z-11.786 I0.913 J0.
N9840 X229.087 Z-11.873 I-0.913 J0.
N9845 X230.913 Z-11.96 I0.913 J0.
N9850 X229.087 Z-12.048 I-0.913 J0.
N9855 X230.913 Z-12.135 I0.913 J0.
N9860 X229.087 Z-12.222 I-0.913 J0.
N9865 X230.913 Z-12.31 I0.913 J0.
N9870 X229.087 Z-12.397 I-0.913 J0.
N9875 X230.913 Z-12.484 I0.913 J0.
N9880 X229.087 Z-12.571 I-0.913 J0.
N9885 X230.913 Z-12.659 I0.913 J0.
N9890 X229.087 Z-12.746 I-0.913 J0.
N9895 X230.913 Z-12.833 I0.913 J0.
N9900 X229.087 Z-12.921 I-0.913 J0.
N9905 X230.913 Z-13.008 I0.913 J0.
N9910 X229.087 Z-13.095 I-0.913 J0.
N9915 X230.913 Z-13.183 I0.913 J0.
N9920 X229.087 Z-13.27 I-0.913 J0.
N9925 X230.913 Z-13.357 I0.913 J0.
N9930 X229.087 Z-13.444 I-0.913 J0.
N9935 X230.913 Z-13.532 I0.913 J0.
N9940 X229.087 Z-13.619 I-0.913 J0.
N9945 X230.913 Z-13.706 I0.913 J0.
N9950 X229.087 Z-13.794 I-0.913 J0.
N9955 X230.913 Z-13.881 I0.913 J0.
N9960 X229.087 Z-13.968 I-0.913 J0.
N9965 X230.913 Z-14.056 I0.913 J0.
N9970 X229.087 Z-14.143 I-0.913 J0.
N9975 X230.913 Z-14.23 I0.913 J0.
N9980 X229.087 Z-14.318 I-0.913 J0.
N9985 X230.913 Z-14.405 I0.913 J0.
N9990 X229.087 Z-14.492 I-0.913 J0.
N9995 X230.913 Z-14.579 I0.913 J0.
N10000 X229.087 Z-14.667 I-0.913 J0.
N10005 X230.913 Z-14.754 I0.913 J0.
N10010 X229.087 Z-14.841 I-0.913 J0.
N10015 X230.913 Z-14.929 I0.913 J0.
N10020 X229.087 Z-15.016 I-0.913 J0.
N10025 X230.913 Z-15.103 I0.913 J0.
N10030 X229.087 Z-15.191 I-0.913 J0.
N10035 X230.913 Z-15.278 I0.913 J0.
N10040 X229.087 Z-15.365 I-0.913 J0.
N10045 X230.913 Z-15.452 I0.913 J0.
N10050 X229.087 Z-15.54 I-0.913 J0.
N10055 X230.913 Z-15.627 I0.913 J0.
N10060 X229.087 Z-15.714 I-0.913 J0.
N10065 X230.913 Z-15.802 I0.913 J0.
N10070 X229.087 Z-15.889 I-0.913 J0.
N10075 X230.913 Z-15.976 I0.913 J0.
N10080 X230.599 Y-2174.368 Z-16. I-0.913 J0.
N10085 X229.401 Y-2172.991 I-0.599 J0.688
N10090 X230.599 Y-2174.368 I0.599 J-0.688
N10095 X230.151 Y-2174.337 I-0.208 J0.24 F250.
N10100 G1 X230.047 Y-2174.217
N10105 X230.001 Y-2174.164 Z-15.992
N10110 X229.956 Y-2174.113 Z-15.969
N10115 X229.917 Y-2174.068 Z-15.931
N10120 X229.884 Y-2174.03 Z-15.88
N10125 X229.859 Y-2174.001 Z-15.82
N10130 X229.844 Y-2173.984 Z-15.753
N10135 X229.838 Y-2173.978 Z-15.682
N10140 Z5. F1500.
N10145 X54.881 Y-2173.997
N10150 Z2.
N10155 Z0.317 F250.
N10160 G18 G3 X54.564 Z0. I-0.317 K0.
N10165 G1 X54.405
N10170 G17 G2 X54.088 Y-2173.679 I0. J0.318
N10175 X55.912 Z-0.087 I0.912 J0. F1500.
N10180 X54.087 Z-0.175 I-0.912 J0.
N10185 X55.913 Z-0.262 I0.913 J0.
N10190 X54.087 Z-0.349 I-0.913 J0.
N10195 X55.913 Z-0.437 I0.913 J0.
N10200 X54.087 Z-0.524 I-0.913 J0.
N10205 X55.913 Z-0.611 I0.913 J0.
N10210 X54.087 Z-0.698 I-0.913 J0.
N10215 X55.913 Z-0.786 I0.913 J0.
N10220 X54.087 Z-0.873 I-0.913 J0.
N10225 X55.913 Z-0.96 I0.913 J0.
N10230 X54.087 Z-1.048 I-0.913 J0.
N10235 X55.913 Z-1.135 I0.913 J0.
N10240 X54.087 Z-1.222 I-0.913 J0.
N10245 X55.913 Z-1.31 I0.913 J0.
N10250 X54.087 Z-1.397 I-0.913 J0.
N10255 X55.913 Z-1.484 I0.913 J0.
N10260 X54.087 Z-1.571 I-0.913 J0.
N10265 X55.913 Z-1.659 I0.913 J0.
N10270 X54.087 Z-1.746 I-0.913 J0.
N10275 X55.913 Z-1.833 I0.913 J0.
N10280 X54.087 Z-1.921 I-0.913 J0.
N10285 X55.913 Z-2.008 I0.913 J0.
N10290 X54.087 Z-2.095 I-0.913 J0.
N10295 X55.913 Z-2.183 I0.913 J0.
N10300 X54.087 Z-2.27 I-0.913 J0.
N10305 X55.913 Z-2.357 I0.913 J0.
N10310 X54.087 Z-2.444 I-0.913 J0.
N10315 X55.913 Z-2.532 I0.913 J0.
N10320 X54.087 Z-2.619 I-0.913 J0.
N10325 X55.913 Z-2.706 I0.913 J0.
N10330 X54.087 Z-2.794 I-0.913 J0.
N10335 X55.913 Z-2.881 I0.913 J0.
N10340 X54.087 Z-2.968 I-0.913 J0.
N10345 X55.913 Z-3.056 I0.913 J0.
N10350 X54.087 Z-3.143 I-0.913 J0.
N10355 X55.913 Z-3.23 I0.913 J0.
N10360 X54.087 Z-3.317 I-0.913 J0.
N10365 X55.913 Z-3.405 I0.913 J0.
N10370 X54.087 Z-3.492 I-0.913 J0.
N10375 X55.913 Z-3.579 I0.913 J0.
N10380 X54.087 Z-3.667 I-0.913 J0.
N10385 X55.913 Z-3.754 I0.913 J0.
N10390 X54.087 Z-3.841 I-0.913 J0.
N10395 X55.913 Z-3.929 I0.913 J0.
N10400 X54.087 Z-4.016 I-0.913 J0.
N10405 X55.913 Z-4.103 I0.913 J0.
N10410 X54.087 Z-4.19 I-0.913 J0.
N10415 X55.913 Z-4.278 I0.913 J0.
N10420 X54.087 Z-4.365 I-0.913 J0.
N10425 X55.913 Z-4.452 I0.913 J0.
N10430 X54.087 Z-4.54 I-0.913 J0.
N10435 X55.913 Z-4.627 I0.913 J0.
N10440 X54.087 Z-4.714 I-0.913 J0.
N10445 X55.913 Z-4.802 I0.913 J0.
N10450 X54.087 Z-4.889 I-0.913 J0.
N10455 X55.913 Z-4.976 I0.913 J0.
N10460 X54.087 Z-5.064 I-0.913 J0.
N10465 X55.913 Z-5.151 I0.913 J0.
N10470 X54.087 Z-5.238 I-0.913 J0.
N10475 X55.913 Z-5.325 I0.913 J0.
N10480 X54.087 Z-5.413 I-0.913 J0.
N10485 X55.913 Z-5.5 I0.913 J0.
N10490 X54.087 Z-5.587 I-0.913 J0.
N10495 X55.913 Z-5.675 I0.913 J0.
N10500 X54.087 Z-5.762 I-0.913 J0.
N10505 X55.913 Z-5.849 I0.913 J0.
N10510 X54.087 Z-5.937 I-0.913 J0.
N10515 X55.913 Z-6.024 I0.913 J0.
N10520 X54.087 Z-6.111 I-0.913 J0.
N10525 X55.913 Z-6.198 I0.913 J0.
N10530 X54.087 Z-6.286 I-0.913 J0.
N10535 X55.913 Z-6.373 I0.913 J0.
N10540 X54.087 Z-6.46 I-0.913 J0.
N10545 X55.913 Z-6.548 I0.913 J0.
N10550 X54.087 Z-6.635 I-0.913 J0.
N10555 X55.913 Z-6.722 I0.913 J0.
N10560 X54.087 Z-6.81 I-0.913 J0.
N10565 X55.913 Z-6.897 I0.913 J0.
N10570 X54.087 Z-6.984 I-0.913 J0.
N10575 X55.913 Z-7.071 I0.913 J0.
N10580 X54.087 Z-7.159 I-0.913 J0.
N10585 X55.913 Z-7.246 I0.913 J0.
N10590 X54.087 Z-7.333 I-0.913 J0.
N10595 X55.913 Z-7.421 I0.913 J0.
N10600 X54.087 Z-7.508 I-0.913 J0.
N10605 X55.913 Z-7.595 I0.913 J0.
N10610 X54.087 Z-7.683 I-0.913 J0.
N10615 X55.913 Z-7.77 I0.913 J0.
N10620 X54.087 Z-7.857 I-0.913 J0.
N10625 X55.913 Z-7.944 I0.913 J0.
N10630 X54.087 Z-8.032 I-0.913 J0.
N10635 X55.913 Z-8.119 I0.913 J0.
N10640 X54.087 Z-8.206 I-0.913 J0.
N10645 X55.913 Z-8.294 I0.913 J0.
N10650 X54.087 Z-8.381 I-0.913 J0.
N10655 X55.913 Z-8.468 I0.913 J0.
N10660 X54.087 Z-8.556 I-0.913 J0.
N10665 X55.913 Z-8.643 I0.913 J0.
N10670 X54.087 Z-8.73 I-0.913 J0.
N10675 X55.913 Z-8.817 I0.913 J0.
N10680 X54.087 Z-8.905 I-0.913 J0.
N10685 X55.913 Z-8.992 I0.913 J0.
N10690 X54.087 Z-9.079 I-0.913 J0.
N10695 X55.913 Z-9.167 I0.913 J0.
N10700 X54.087 Z-9.254 I-0.913 J0.
N10705 X55.913 Z-9.341 I0.913 J0.
N10710 X54.087 Z-9.429 I-0.913 J0.
N10715 X55.913 Z-9.516 I0.913 J0.
N10720 X54.087 Z-9.603 I-0.913 J0.
N10725 X55.913 Z-9.691 I0.913 J0.
N10730 X54.087 Z-9.778 I-0.913 J0.
N10735 X55.913 Z-9.865 I0.913 J0.
N10740 X54.087 Z-9.952 I-0.913 J0.
N10745 X55.913 Z-10.04 I0.913 J0.
N10750 X54.087 Z-10.127 I-0.913 J0.
N10755 X55.913 Z-10.214 I0.913 J0.
N10760 X54.087 Z-10.302 I-0.913 J0.
N10765 X55.913 Z-10.389 I0.913 J0.
N10770 X54.087 Z-10.476 I-0.913 J0.
N10775 X55.913 Z-10.564 I0.913 J0.
N10780 X54.087 Z-10.651 I-0.913 J0.
N10785 X55.913 Z-10.738 I0.913 J0.
N10790 X54.087 Z-10.825 I-0.913 J0.
N10795 X55.913 Z-10.913 I0.913 J0.
N10800 X54.087 Z-11. I-0.913 J0.
N10805 X55.913 Z-11.087 I0.913 J0.
N10810 X54.087 Z-11.175 I-0.913 J0.
N10815 X55.913 Z-11.262 I0.913 J0.
N10820 X54.087 Z-11.349 I-0.913 J0.
N10825 X55.913 Z-11.437 I0.913 J0.
N10830 X54.087 Z-11.524 I-0.913 J0.
N10835 X55.913 Z-11.611 I0.913 J0.
N10840 X54.087 Z-11.698 I-0.913 J0.
N10845 X55.913 Z-11.786 I0.913 J0.
N10850 X54.087 Z-11.873 I-0.913 J0.
N10855 X55.913 Z-11.96 I0.913 J0.
N10860 X54.087 Z-12.048 I-0.913 J0.
N10865 X55.913 Z-12.135 I0.913 J0.
N10870 X54.087 Z-12.222 I-0.913 J0.
N10875 X55.913 Z-12.31 I0.913 J0.
N10880 X54.087 Z-12.397 I-0.913 J0.
N10885 X55.913 Z-12.484 I0.913 J0.
N10890 X54.087 Z-12.571 I-0.913 J0.
N10895 X55.913 Z-12.659 I0.913 J0.
N10900 X54.087 Z-12.746 I-0.913 J0.
N10905 X55.913 Z-12.833 I0.913 J0.
N10910 X54.087 Z-12.921 I-0.913 J0.
N10915 X55.913 Z-13.008 I0.913 J0.
N10920 X54.087 Z-13.095 I-0.913 J0.
N10925 X55.913 Z-13.183 I0.913 J0.
N10930 X54.087 Z-13.27 I-0.913 J0.
N10935 X55.913 Z-13.357 I0.913 J0.
N10940 X54.087 Z-13.444 I-0.913 J0.
N10945 X55.913 Z-13.532 I0.913 J0.
N10950 X54.087 Z-13.619 I-0.913 J0.
N10955 X55.913 Z-13.706 I0.913 J0.
N10960 X54.087 Z-13.794 I-0.913 J0.
N10965 X55.913 Z-13.881 I0.913 J0.
N10970 X54.087 Z-13.968 I-0.913 J0.
N10975 X55.913 Z-14.056 I0.913 J0.
N10980 X54.087 Z-14.143 I-0.913 J0.
N10985 X55.913 Z-14.23 I0.913 J0.
N10990 X54.087 Z-14.318 I-0.913 J0.
N10995 X55.913 Z-14.405 I0.913 J0.
N11000 X54.087 Z-14.492 I-0.913 J0.
N11005 X55.913 Z-14.579 I0.913 J0.
N11010 X54.087 Z-14.667 I-0.913 J0.
N11015 X55.913 Z-14.754 I0.913 J0.
N11020 X54.087 Z-14.841 I-0.913 J0.
N11025 X55.913 Z-14.929 I0.913 J0.
N11030 X54.087 Z-15.016 I-0.913 J0.
N11035 X55.913 Z-15.103 I0.913 J0.
N11040 X54.087 Z-15.191 I-0.913 J0.
N11045 X55.913 Z-15.278 I0.913 J0.
N11050 X54.087 Z-15.365 I-0.913 J0.
N11055 X55.913 Z-15.452 I0.913 J0.
N11060 X54.087 Z-15.54 I-0.913 J0.
N11065 X55.913 Z-15.627 I0.913 J0.
N11070 X54.087 Z-15.714 I-0.913 J0.
N11075 X55.913 Z-15.802 I0.913 J0.
N11080 X54.087 Z-15.889 I-0.913 J0.
N11085 X55.913 Z-15.976 I0.913 J0.
N11090 X55.599 Y-2174.368 Z-16. I-0.913 J0.
N11095 X54.401 Y-2172.991 I-0.599 J0.688
N11100 X55.599 Y-2174.368 I0.599 J-0.688
N11105 X55.151 Y-2174.337 I-0.208 J0.24 F250.
N11110 G1 X55.047 Y-2174.217
N11115 X55.001 Y-2174.164 Z-15.992
N11120 X54.956 Y-2174.113 Z-15.969
N11125 X54.917 Y-2174.068 Z-15.931
N11130 X54.884 Y-2174.03 Z-15.88
N11135 X54.859 Y-2174.001 Z-15.82
N11140 X54.844 Y-2173.984 Z-15.753
N11145 X54.838 Y-2173.978 Z-15.682
N11150 Z5. F1500.
N11155 X54.881 Y-2193.997
N11160 Z2.
N11165 Z0.317 F250.
N11170 G18 G3 X54.564 Z0. I-0.317 K0.
N11175 G1 X54.405
N11180 G17 G2 X54.088 Y-2193.679 I0. J0.318
N11185 X55.912 Z-0.087 I0.912 J0. F1500.
N11190 X54.087 Z-0.175 I-0.912 J0.
N11195 X55.913 Z-0.262 I0.913 J0.
N11200 X54.087 Z-0.349 I-0.913 J0.
N11205 X55.913 Z-0.437 I0.913 J0.
N11210 X54.087 Z-0.524 I-0.913 J0.
N11215 X55.913 Z-0.611 I0.913 J0.
N11220 X54.087 Z-0.698 I-0.913 J0.
N11225 X55.913 Z-0.786 I0.913 J0.
N11230 X54.087 Z-0.873 I-0.913 J0.
N11235 X55.913 Z-0.96 I0.913 J0.
N11240 X54.087 Z-1.048 I-0.913 J0.
N11245 X55.913 Z-1.135 I0.913 J0.
N11250 X54.087 Z-1.222 I-0.913 J0.
N11255 X55.913 Z-1.31 I0.913 J0.
N11260 X54.087 Z-1.397 I-0.913 J0.
N11265 X55.913 Z-1.484 I0.913 J0.
N11270 X54.087 Z-1.571 I-0.913 J0.
N11275 X55.913 Z-1.659 I0.913 J0.
N11280 X54.087 Z-1.746 I-0.913 J0.
N11285 X55.913 Z-1.833 I0.913 J0.
N11290 X54.087 Z-1.921 I-0.913 J0.
N11295 X55.913 Z-2.008 I0.913 J0.
N11300 X54.087 Z-2.095 I-0.913 J0.
N11305 X55.913 Z-2.183 I0.913 J0.
N11310 X54.087 Z-2.27 I-0.913 J0.
N11315 X55.913 Z-2.357 I0.913 J0.
N11320 X54.087 Z-2.444 I-0.913 J0.
N11325 X55.913 Z-2.532 I0.913 J0.
N11330 X54.087 Z-2.619 I-0.913 J0.
N11335 X55.913 Z-2.706 I0.913 J0.
N11340 X54.087 Z-2.794 I-0.913 J0.
N11345 X55.913 Z-2.881 I0.913 J0.
N11350 X54.087 Z-2.968 I-0.913 J0.
N11355 X55.913 Z-3.056 I0.913 J0.
N11360 X54.087 Z-3.143 I-0.913 J0.
N11365 X55.913 Z-3.23 I0.913 J0.
N11370 X54.087 Z-3.317 I-0.913 J0.
N11375 X55.913 Z-3.405 I0.913 J0.
N11380 X54.087 Z-3.492 I-0.913 J0.
N11385 X55.913 Z-3.579 I0.913 J0.
N11390 X54.087 Z-3.667 I-0.913 J0.
N11395 X55.913 Z-3.754 I0.913 J0.
N11400 X54.087 Z-3.841 I-0.913 J0.
N11405 X55.913 Z-3.929 I0.913 J0.
N11410 X54.087 Z-4.016 I-0.913 J0.
N11415 X55.913 Z-4.103 I0.913 J0.
N11420 X54.087 Z-4.19 I-0.913 J0.
N11425 X55.913 Z-4.278 I0.913 J0.
N11430 X54.087 Z-4.365 I-0.913 J0.
N11435 X55.913 Z-4.452 I0.913 J0.
N11440 X54.087 Z-4.54 I-0.913 J0.
N11445 X55.913 Z-4.627 I0.913 J0.
N11450 X54.087 Z-4.714 I-0.913 J0.
N11455 X55.913 Z-4.802 I0.913 J0.
N11460 X54.087 Z-4.889 I-0.913 J0.
N11465 X55.913 Z-4.976 I0.913 J0.
N11470 X54.087 Z-5.064 I-0.913 J0.
N11475 X55.913 Z-5.151 I0.913 J0.
N11480 X54.087 Z-5.238 I-0.913 J0.
N11485 X55.913 Z-5.325 I0.913 J0.
N11490 X54.087 Z-5.413 I-0.913 J0.
N11495 X55.913 Z-5.5 I0.913 J0.
N11500 X54.087 Z-5.587 I-0.913 J0.
N11505 X55.913 Z-5.675 I0.913 J0.
N11510 X54.087 Z-5.762 I-0.913 J0.
N11515 X55.913 Z-5.849 I0.913 J0.
N11520 X54.087 Z-5.937 I-0.913 J0.
N11525 X55.913 Z-6.024 I0.913 J0.
N11530 X54.087 Z-6.111 I-0.913 J0.
N11535 X55.913 Z-6.198 I0.913 J0.
N11540 X54.087 Z-6.286 I-0.913 J0.
N11545 X55.913 Z-6.373 I0.913 J0.
N11550 X54.087 Z-6.46 I-0.913 J0.
N11555 X55.913 Z-6.548 I0.913 J0.
N11560 X54.087 Z-6.635 I-0.913 J0.
N11565 X55.913 Z-6.722 I0.913 J0.
N11570 X54.087 Z-6.81 I-0.913 J0.
N11575 X55.913 Z-6.897 I0.913 J0.
N11580 X54.087 Z-6.984 I-0.913 J0.
N11585 X55.913 Z-7.071 I0.913 J0.
N11590 X54.087 Z-7.159 I-0.913 J0.
N11595 X55.913 Z-7.246 I0.913 J0.
N11600 X54.087 Z-7.333 I-0.913 J0.
N11605 X55.913 Z-7.421 I0.913 J0.
N11610 X54.087 Z-7.508 I-0.913 J0.
N11615 X55.913 Z-7.595 I0.913 J0.
N11620 X54.087 Z-7.683 I-0.913 J0.
N11625 X55.913 Z-7.77 I0.913 J0.
N11630 X54.087 Z-7.857 I-0.913 J0.
N11635 X55.913 Z-7.944 I0.913 J0.
N11640 X54.087 Z-8.032 I-0.913 J0.
N11645 X55.913 Z-8.119 I0.913 J0.
N11650 X54.087 Z-8.206 I-0.913 J0.
N11655 X55.913 Z-8.294 I0.913 J0.
N11660 X54.087 Z-8.381 I-0.913 J0.
N11665 X55.913 Z-8.468 I0.913 J0.
N11670 X54.087 Z-8.556 I-0.913 J0.
N11675 X55.913 Z-8.643 I0.913 J0.
N11680 X54.087 Z-8.73 I-0.913 J0.
N11685 X55.913 Z-8.817 I0.913 J0.
N11690 X54.087 Z-8.905 I-0.913 J0.
N11695 X55.913 Z-8.992 I0.913 J0.
N11700 X54.087 Z-9.079 I-0.913 J0.
N11705 X55.913 Z-9.167 I0.913 J0.
N11710 X54.087 Z-9.254 I-0.913 J0.
N11715 X55.913 Z-9.341 I0.913 J0.
N11720 X54.087 Z-9.429 I-0.913 J0.
N11725 X55.913 Z-9.516 I0.913 J0.
N11730 X54.087 Z-9.603 I-0.913 J0.
N11735 X55.913 Z-9.691 I0.913 J0.
N11740 X54.087 Z-9.778 I-0.913 J0.
N11745 X55.913 Z-9.865 I0.913 J0.
N11750 X54.087 Z-9.952 I-0.913 J0.
N11755 X55.913 Z-10.04 I0.913 J0.
N11760 X54.087 Z-10.127 I-0.913 J0.
N11765 X55.913 Z-10.214 I0.913 J0.
N11770 X54.087 Z-10.302 I-0.913 J0.
N11775 X55.913 Z-10.389 I0.913 J0.
N11780 X54.087 Z-10.476 I-0.913 J0.
N11785 X55.913 Z-10.564 I0.913 J0.
N11790 X54.087 Z-10.651 I-0.913 J0.
N11795 X55.913 Z-10.738 I0.913 J0.
N11800 X54.087 Z-10.825 I-0.913 J0.
N11805 X55.913 Z-10.913 I0.913 J0.
N11810 X54.087 Z-11. I-0.913 J0.
N11815 X55.913 Z-11.087 I0.913 J0.
N11820 X54.087 Z-11.175 I-0.913 J0.
N11825 X55.913 Z-11.262 I0.913 J0.
N11830 X54.087 Z-11.349 I-0.913 J0.
N11835 X55.913 Z-11.437 I0.913 J0.
N11840 X54.087 Z-11.524 I-0.913 J0.
N11845 X55.913 Z-11.611 I0.913 J0.
N11850 X54.087 Z-11.698 I-0.913 J0.
N11855 X55.913 Z-11.786 I0.913 J0.
N11860 X54.087 Z-11.873 I-0.913 J0.
N11865 X55.913 Z-11.96 I0.913 J0.
N11870 X54.087 Z-12.048 I-0.913 J0.
N11875 X55.913 Z-12.135 I0.913 J0.
N11880 X54.087 Z-12.222 I-0.913 J0.
N11885 X55.913 Z-12.31 I0.913 J0.
N11890 X54.087 Z-12.397 I-0.913 J0.
N11895 X55.913 Z-12.484 I0.913 J0.
N11900 X54.087 Z-12.571 I-0.913 J0.
N11905 X55.913 Z-12.659 I0.913 J0.
N11910 X54.087 Z-12.746 I-0.913 J0.
N11915 X55.913 Z-12.833 I0.913 J0.
N11920 X54.087 Z-12.921 I-0.913 J0.
N11925 X55.913 Z-13.008 I0.913 J0.
N11930 X54.087 Z-13.095 I-0.913 J0.
N11935 X55.913 Z-13.183 I0.913 J0.
N11940 X54.087 Z-13.27 I-0.913 J0.
N11945 X55.913 Z-13.357 I0.913 J0.
N11950 X54.087 Z-13.444 I-0.913 J0.
N11955 X55.913 Z-13.532 I0.913 J0.
N11960 X54.087 Z-13.619 I-0.913 J0.
N11965 X55.913 Z-13.706 I0.913 J0.
N11970 X54.087 Z-13.794 I-0.913 J0.
N11975 X55.913 Z-13.881 I0.913 J0.
N11980 X54.087 Z-13.968 I-0.913 J0.
N11985 X55.913 Z-14.056 I0.913 J0.
N11990 X54.087 Z-14.143 I-0.913 J0.
N11995 X55.913 Z-14.23 I0.913 J0.
N12000 X54.087 Z-14.318 I-0.913 J0.
N12005 X55.913 Z-14.405 I0.913 J0.
N12010 X54.087 Z-14.492 I-0.913 J0.
N12015 X55.913 Z-14.579 I0.913 J0.
N12020 X54.087 Z-14.667 I-0.913 J0.
N12025 X55.913 Z-14.754 I0.913 J0.
N12030 X54.087 Z-14.841 I-0.913 J0.
N12035 X55.913 Z-14.929 I0.913 J0.
N12040 X54.087 Z-15.016 I-0.913 J0.
N12045 X55.913 Z-15.103 I0.913 J0.
N12050 X54.087 Z-15.191 I-0.913 J0.
N12055 X55.913 Z-15.278 I0.913 J0.
N12060 X54.087 Z-15.365 I-0.913 J0.
N12065 X55.913 Z-15.452 I0.913 J0.
N12070 X54.087 Z-15.54 I-0.913 J0.
N12075 X55.913 Z-15.627 I0.913 J0.
N12080 X54.087 Z-15.714 I-0.913 J0.
N12085 X55.913 Z-15.802 I0.913 J0.
N12090 X54.087 Z-15.889 I-0.913 J0.
N12095 X55.913 Z-15.976 I0.913 J0.
N12100 X55.599 Y-2194.368 Z-16. I-0.913 J0.
N12105 X54.401 Y-2192.991 I-0.599 J0.688
N12110 X55.599 Y-2194.368 I0.599 J-0.688
N12115 X55.151 Y-2194.337 I-0.208 J0.24 F250.
N12120 G1 X55.047 Y-2194.217
N12125 X55.001 Y-2194.164 Z-15.992
N12130 X54.956 Y-2194.113 Z-15.969
N12135 X54.917 Y-2194.068 Z-15.931
N12140 X54.884 Y-2194.03 Z-15.88
N12145 X54.859 Y-2194.001 Z-15.82
N12150 X54.844 Y-2193.984 Z-15.753
N12155 X54.838 Y-2193.978 Z-15.682
N12160 Z5. F1500.
N12165 X54.881 Y-2213.997
N12170 Z2.
N12175 Z0.317 F250.
N12180 G18 G3 X54.564 Z0. I-0.317 K0.
N12185 G1 X54.405
N12190 G17 G2 X54.088 Y-2213.679 I0. J0.318
N12195 X55.912 Z-0.087 I0.912 J0. F1500.
N12200 X54.087 Z-0.175 I-0.912 J0.
N12205 X55.913 Z-0.262 I0.913 J0.
N12210 X54.087 Z-0.349 I-0.913 J0.
N12215 X55.913 Z-0.437 I0.913 J0.
N12220 X54.087 Z-0.524 I-0.913 J0.
N12225 X55.913 Z-0.611 I0.913 J0.
N12230 X54.087 Z-0.698 I-0.913 J0.
N12235 X55.913 Z-0.786 I0.913 J0.
N12240 X54.087 Z-0.873 I-0.913 J0.
N12245 X55.913 Z-0.96 I0.913 J0.
N12250 X54.087 Z-1.048 I-0.913 J0.
N12255 X55.913 Z-1.135 I0.913 J0.
N12260 X54.087 Z-1.222 I-0.913 J0.
N12265 X55.913 Z-1.31 I0.913 J0.
N12270 X54.087 Z-1.397 I-0.913 J0.
N12275 X55.913 Z-1.484 I0.913 J0.
N12280 X54.087 Z-1.571 I-0.913 J0.
N12285 X55.913 Z-1.659 I0.913 J0.
N12290 X54.087 Z-1.746 I-0.913 J0.
N12295 X55.913 Z-1.833 I0.913 J0.
N12300 X54.087 Z-1.921 I-0.913 J0.
N12305 X55.913 Z-2.008 I0.913 J0.
N12310 X54.087 Z-2.095 I-0.913 J0.
N12315 X55.913 Z-2.183 I0.913 J0.
N12320 X54.087 Z-2.27 I-0.913 J0.
N12325 X55.913 Z-2.357 I0.913 J0.
N12330 X54.087 Z-2.444 I-0.913 J0.
N12335 X55.913 Z-2.532 I0.913 J0.
N12340 X54.087 Z-2.619 I-0.913 J0.
N12345 X55.913 Z-2.706 I0.913 J0.
N12350 X54.087 Z-2.794 I-0.913 J0.
N12355 X55.913 Z-2.881 I0.913 J0.
N12360 X54.087 Z-2.968 I-0.913 J0.
N12365 X55.913 Z-3.056 I0.913 J0.
N12370 X54.087 Z-3.143 I-0.913 J0.
N12375 X55.913 Z-3.23 I0.913 J0.
N12380 X54.087 Z-3.317 I-0.913 J0.
N12385 X55.913 Z-3.405 I0.913 J0.
N12390 X54.087 Z-3.492 I-0.913 J0.
N12395 X55.913 Z-3.579 I0.913 J0.
N12400 X54.087 Z-3.667 I-0.913 J0.
N12405 X55.913 Z-3.754 I0.913 J0.
N12410 X54.087 Z-3.841 I-0.913 J0.
N12415 X55.913 Z-3.929 I0.913 J0.
N12420 X54.087 Z-4.016 I-0.913 J0.
N12425 X55.913 Z-4.103 I0.913 J0.
N12430 X54.087 Z-4.19 I-0.913 J0.
N12435 X55.913 Z-4.278 I0.913 J0.
N12440 X54.087 Z-4.365 I-0.913 J0.
N12445 X55.913 Z-4.452 I0.913 J0.
N12450 X54.087 Z-4.54 I-0.913 J0.
N12455 X55.913 Z-4.627 I0.913 J0.
N12460 X54.087 Z-4.714 I-0.913 J0.
N12465 X55.913 Z-4.802 I0.913 J0.
N12470 X54.087 Z-4.889 I-0.913 J0.
N12475 X55.913 Z-4.976 I0.913 J0.
N12480 X54.087 Z-5.064 I-0.913 J0.
N12485 X55.913 Z-5.151 I0.913 J0.
N12490 X54.087 Z-5.238 I-0.913 J0.
N12495 X55.913 Z-5.325 I0.913 J0.
N12500 X54.087 Z-5.413 I-0.913 J0.
N12505 X55.913 Z-5.5 I0.913 J0.
N12510 X54.087 Z-5.587 I-0.913 J0.
N12515 X55.913 Z-5.675 I0.913 J0.
N12520 X54.087 Z-5.762 I-0.913 J0.
N12525 X55.913 Z-5.849 I0.913 J0.
N12530 X54.087 Z-5.937 I-0.913 J0.
N12535 X55.913 Z-6.024 I0.913 J0.
N12540 X54.087 Z-6.111 I-0.913 J0.
N12545 X55.913 Z-6.198 I0.913 J0.
N12550 X54.087 Z-6.286 I-0.913 J0.
N12555 X55.913 Z-6.373 I0.913 J0.
N12560 X54.087 Z-6.46 I-0.913 J0.
N12565 X55.913 Z-6.548 I0.913 J0.
N12570 X54.087 Z-6.635 I-0.913 J0.
N12575 X55.913 Z-6.722 I0.913 J0.
N12580 X54.087 Z-6.81 I-0.913 J0.
N12585 X55.913 Z-6.897 I0.913 J0.
N12590 X54.087 Z-6.984 I-0.913 J0.
N12595 X55.913 Z-7.071 I0.913 J0.
N12600 X54.087 Z-7.159 I-0.913 J0.
N12605 X55.913 Z-7.246 I0.913 J0.
N12610 X54.087 Z-7.333 I-0.913 J0.
N12615 X55.913 Z-7.421 I0.913 J0.
N12620 X54.087 Z-7.508 I-0.913 J0.
N12625 X55.913 Z-7.595 I0.913 J0.
N12630 X54.087 Z-7.683 I-0.913 J0.
N12635 X55.913 Z-7.77 I0.913 J0.
N12640 X54.087 Z-7.857 I-0.913 J0.
N12645 X55.913 Z-7.944 I0.913 J0.
N12650 X54.087 Z-8.032 I-0.913 J0.
N12655 X55.913 Z-8.119 I0.913 J0.
N12660 X54.087 Z-8.206 I-0.913 J0.
N12665 X55.913 Z-8.294 I0.913 J0.
N12670 X54.087 Z-8.381 I-0.913 J0.
N12675 X55.913 Z-8.468 I0.913 J0.
N12680 X54.087 Z-8.556 I-0.913 J0.
N12685 X55.913 Z-8.643 I0.913 J0.
N12690 X54.087 Z-8.73 I-0.913 J0.
N12695 X55.913 Z-8.817 I0.913 J0.
N12700 X54.087 Z-8.905 I-0.913 J0.
N12705 X55.913 Z-8.992 I0.913 J0.
N12710 X54.087 Z-9.079 I-0.913 J0.
N12715 X55.913 Z-9.167 I0.913 J0.
N12720 X54.087 Z-9.254 I-0.913 J0.
N12725 X55.913 Z-9.341 I0.913 J0.
N12730 X54.087 Z-9.429 I-0.913 J0.
N12735 X55.913 Z-9.516 I0.913 J0.
N12740 X54.087 Z-9.603 I-0.913 J0.
N12745 X55.913 Z-9.691 I0.913 J0.
N12750 X54.087 Z-9.778 I-0.913 J0.
N12755 X55.913 Z-9.865 I0.913 J0.
N12760 X54.087 Z-9.952 I-0.913 J0.
N12765 X55.913 Z-10.04 I0.913 J0.
N12770 X54.087 Z-10.127 I-0.913 J0.
N12775 X55.913 Z-10.214 I0.913 J0.
N12780 X54.087 Z-10.302 I-0.913 J0.
N12785 X55.913 Z-10.389 I0.913 J0.
N12790 X54.087 Z-10.476 I-0.913 J0.
N12795 X55.913 Z-10.564 I0.913 J0.
N12800 X54.087 Z-10.651 I-0.913 J0.
N12805 X55.913 Z-10.738 I0.913 J0.
N12810 X54.087 Z-10.825 I-0.913 J0.
N12815 X55.913 Z-10.913 I0.913 J0.
N12820 X54.087 Z-11. I-0.913 J0.
N12825 X55.913 Z-11.087 I0.913 J0.
N12830 X54.087 Z-11.175 I-0.913 J0.
N12835 X55.913 Z-11.262 I0.913 J0.
N12840 X54.087 Z-11.349 I-0.913 J0.
N12845 X55.913 Z-11.437 I0.913 J0.
N12850 X54.087 Z-11.524 I-0.913 J0.
N12855 X55.913 Z-11.611 I0.913 J0.
N12860 X54.087 Z-11.698 I-0.913 J0.
N12865 X55.913 Z-11.786 I0.913 J0.
N12870 X54.087 Z-11.873 I-0.913 J0.
N12875 X55.913 Z-11.96 I0.913 J0.
N12880 X54.087 Z-12.048 I-0.913 J0.
N12885 X55.913 Z-12.135 I0.913 J0.
N12890 X54.087 Z-12.222 I-0.913 J0.
N12895 X55.913 Z-12.31 I0.913 J0.
N12900 X54.087 Z-12.397 I-0.913 J0.
N12905 X55.913 Z-12.484 I0.913 J0.
N12910 X54.087 Z-12.571 I-0.913 J0.
N12915 X55.913 Z-12.659 I0.913 J0.
N12920 X54.087 Z-12.746 I-0.913 J0.
N12925 X55.913 Z-12.833 I0.913 J0.
N12930 X54.087 Z-12.921 I-0.913 J0.
N12935 X55.913 Z-13.008 I0.913 J0.
N12940 X54.087 Z-13.095 I-0.913 J0.
N12945 X55.913 Z-13.183 I0.913 J0.
N12950 X54.087 Z-13.27 I-0.913 J0.
N12955 X55.913 Z-13.357 I0.913 J0.
N12960 X54.087 Z-13.444 I-0.913 J0.
N12965 X55.913 Z-13.532 I0.913 J0.
N12970 X54.087 Z-13.619 I-0.913 J0.
N12975 X55.913 Z-13.706 I0.913 J0.
N12980 X54.087 Z-13.794 I-0.913 J0.
N12985 X55.913 Z-13.881 I0.913 J0.
N12990 X54.087 Z-13.968 I-0.913 J0.
N12995 X55.913 Z-14.056 I0.913 J0.
N13000 X54.087 Z-14.143 I-0.913 J0.
N13005 X55.913 Z-14.23 I0.913 J0.
N13010 X54.087 Z-14.318 I-0.913 J0.
N13015 X55.913 Z-14.405 I0.913 J0.
N13020 X54.087 Z-14.492 I-0.913 J0.
N13025 X55.913 Z-14.579 I0.913 J0.
N13030 X54.087 Z-14.667 I-0.913 J0.
N13035 X55.913 Z-14.754 I0.913 J0.
N13040 X54.087 Z-14.841 I-0.913 J0.
N13045 X55.913 Z-14.929 I0.913 J0.
N13050 X54.087 Z-15.016 I-0.913 J0.
N13055 X55.913 Z-15.103 I0.913 J0.
N13060 X54.087 Z-15.191 I-0.913 J0.
N13065 X55.913 Z-15.278 I0.913 J0.
N13070 X54.087 Z-15.365 I-0.913 J0.
N13075 X55.913 Z-15.452 I0.913 J0.
N13080 X54.087 Z-15.54 I-0.913 J0.
N13085 X55.913 Z-15.627 I0.913 J0.
N13090 X54.087 Z-15.714 I-0.913 J0.
N13095 X55.913 Z-15.802 I0.913 J0.
N13100 X54.087 Z-15.889 I-0.913 J0.
N13105 X55.913 Z-15.976 I0.913 J0.
N13110 X55.599 Y-2214.368 Z-16. I-0.913 J0.
N13115 X54.401 Y-2212.991 I-0.599 J0.688
N13120 X55.599 Y-2214.368 I0.599 J-0.688
N13125 X55.151 Y-2214.337 I-0.208 J0.24 F250.
N13130 G1 X55.047 Y-2214.217
N13135 X55.001 Y-2214.164 Z-15.992
N13140 X54.956 Y-2214.113 Z-15.969
N13145 X54.917 Y-2214.068 Z-15.931
N13150 X54.884 Y-2214.03 Z-15.88
N13155 X54.859 Y-2214.001 Z-15.82
N13160 X54.844 Y-2213.984 Z-15.753
N13165 X54.838 Y-2213.978 Z-15.682
N13170 Z5. F1500.
N13175 X54.881 Y-2233.997
N13180 Z2.
N13185 Z0.317 F250.
N13190 G18 G3 X54.564 Z0. I-0.317 K0.
N13195 G1 X54.405
N13200 G17 G2 X54.088 Y-2233.679 I0. J0.318
N13205 X55.912 Z-0.087 I0.912 J0. F1500.
N13210 X54.087 Z-0.175 I-0.912 J0.
N13215 X55.913 Z-0.262 I0.913 J0.
N13220 X54.087 Z-0.349 I-0.913 J0.
N13225 X55.913 Z-0.437 I0.913 J0.
N13230 X54.087 Z-0.524 I-0.913 J0.
N13235 X55.913 Z-0.611 I0.913 J0.
N13240 X54.087 Z-0.698 I-0.913 J0.
N13245 X55.913 Z-0.786 I0.913 J0.
N13250 X54.087 Z-0.873 I-0.913 J0.
N13255 X55.913 Z-0.96 I0.913 J0.
N13260 X54.087 Z-1.048 I-0.913 J0.
N13265 X55.913 Z-1.135 I0.913 J0.
N13270 X54.087 Z-1.222 I-0.913 J0.
N13275 X55.913 Z-1.31 I0.913 J0.
N13280 X54.087 Z-1.397 I-0.913 J0.
N13285 X55.913 Z-1.484 I0.913 J0.
N13290 X54.087 Z-1.571 I-0.913 J0.
N13295 X55.913 Z-1.659 I0.913 J0.
N13300 X54.087 Z-1.746 I-0.913 J0.
N13305 X55.913 Z-1.833 I0.913 J0.
N13310 X54.087 Z-1.921 I-0.913 J0.
N13315 X55.913 Z-2.008 I0.913 J0.
