%
(CUPBOARD_4_PROFILE)
(MACHINE)
(  MODEL LASER SNAKE V2)
(  DESCRIPTION 3-AXIS ROUTER)
(T3  D=3.175 CR=0. - ZMIN=-16.25 - FLAT END MILL)
N10 G90 G94 G17 G91.1
N15 G21
(WHEN USING FUSION 360 FOR PERSONAL USE, THE FEEDRATE OF)
(RAPID MOVES IS REDUCED TO MATCH THE FEEDRATE OF CUTTING)
(MOVES, WHICH CAN INCREASE MACHINING TIME. UNRESTRICTED RAPID)
(MOVES ARE AVAILABLE WITH A FUSION 360 SUBSCRIPTION.)
N20 G53 G0 Z0.
(2D CONTOUR6)
N25 T3 M6
N30 S18000 M3
N35 G54
N40 G0 X2.412 Y-553.282
N45 G43 Z15. H3
N50 G1 Z5. F1500.
N55 Z-2.063 F100.
N60 G18 G2 X4.412 Z-4.063 I2. K0. F250.
N65 G1 X6.412
N70 G17 G2 X8.413 Y-555.282 I0. J-2.
N75 G1 Y-1748.78 F1500.
N80 G3 X10. Y-1750.368 I1.587 J0.
N85 G1 X410.
N90 G3 X411.587 Y-1748.78 I0. J1.588
N95 G1 Y-555.282
N100 G3 X410. Y-553.695 I-1.587 J0.
N105 G1 X10.
N110 G3 X8.413 Y-555.282 I0. J-1.587
N115 G2 X6.412 Y-557.282 I-2. J0. F250.
N120 G1 X4.412
N125 G18 G3 X2.412 Z-2.063 I0. K2.
N130 G1 Z5. F1500.
N135 Y-553.282
N140 Z0.938 F100.
N145 Z-6.125
N150 G2 X4.412 Z-8.125 I2. K0. F250.
N155 G1 X6.412
N160 G17 G2 X8.413 Y-555.282 I0. J-2.
N165 G1 Y-1748.78 F1500.
N170 G3 X10. Y-1750.368 I1.587 J0.
N175 G1 X410.
N180 G3 X411.587 Y-1748.78 I0. J1.588
N185 G1 Y-555.282
N190 G3 X410. Y-553.695 I-1.587 J0.
N195 G1 X10.
N200 G3 X8.413 Y-555.282 I0. J-1.587
N205 G2 X6.412 Y-557.282 I-2. J0. F250.
N210 G1 X4.412
N215 G18 G3 X2.412 Z-6.125 I0. K2.
N220 G1 Z5. F1500.
N225 Y-553.282
N230 Z-3.125 F100.
N235 Z-10.188
N240 G2 X4.412 Z-12.188 I2. K0. F250.
N245 G1 X6.412
N250 G17 G2 X8.413 Y-555.282 I0. J-2.
N255 G1 Y-1748.78 F1500.
N260 G3 X10. Y-1750.368 I1.587 J0.
N265 G1 X410.
N270 G3 X411.587 Y-1748.78 I0. J1.588
N275 G1 Y-555.282
N280 G3 X410. Y-553.695 I-1.587 J0.
N285 G1 X10.
N290 G3 X8.413 Y-555.282 I0. J-1.587
N295 G2 X6.412 Y-557.282 I-2. J0. F250.
N300 G1 X4.412
N305 G18 G3 X2.412 Z-10.188 I0. K2.
N310 G1 Z5. F1500.
N315 Y-553.282
N320 Z-7.188 F100.
N325 Z-14.25
N330 G2 X4.412 Z-16.25 I2. K0. F250.
N335 G1 X6.412
N340 G17 G2 X8.413 Y-555.282 I0. J-2.
N345 G1 Y-1748.78 F1500.
N350 G3 X10. Y-1750.368 I1.587 J0.
N355 G1 X410.
N360 G3 X411.587 Y-1748.78 I0. J1.588
N365 G1 Y-555.282
N370 G3 X410. Y-553.695 I-1.587 J0.
N375 G1 X10.
N380 G3 X8.413 Y-555.282 I0. J-1.587
N385 G2 X6.412 Y-557.282 I-2. J0. F250.
N390 G1 X4.412
N395 G18 G3 X2.412 Z-14.25 I0. K2.
N400 G1 Z15. F1500.
N405 G17
(WHEN USING FUSION 360 FOR PERSONAL USE, THE FEEDRATE OF)
(RAPID MOVES IS REDUCED TO MATCH THE FEEDRATE OF CUTTING)
(MOVES, WHICH CAN INCREASE MACHINING TIME. UNRESTRICTED RAPID)
(MOVES ARE AVAILABLE WITH A FUSION 360 SUBSCRIPTION.)
(2D POCKET3)
N410 G0 X34.242 Y-552.799
N415 G1 Z15. F1500.
N420 Z5.
N425 Z-2.214 F100.
N430 X34.241 Y-552.806 Z-2.278 F250.
N435 X34.238 Y-552.827 Z-2.338
N440 X34.233 Y-552.861 Z-2.392
N445 X34.226 Y-552.906 Z-2.438
N450 X34.217 Y-552.959 Z-2.472
N455 X34.208 Y-553.019 Z-2.493
N460 X34.198 Y-553.082 Z-2.5
N465 X34.091 Y-553.753
N470 X34.088 Y-553.802
N475 Y-576.195 F1500.
N480 X35.912
N485 Y-555.282
N490 Y-553.809
N495 X35.909 Y-553.759 F250.
N500 X35.808 Y-553.122
N505 X35.797 Y-553.053 Z-2.492
N510 X35.786 Y-552.986 Z-2.469
N515 X35.777 Y-552.927 Z-2.431
N520 X35.769 Y-552.877 Z-2.38
N525 X35.763 Y-552.84 Z-2.32
N530 X35.759 Y-552.817 Z-2.253
N535 X35.758 Y-552.809 Z-2.182
N540 Z15. F1500.
N545 X209.242 Y-552.799
N550 Z5.
N555 Z-2.214 F100.
N560 X209.241 Y-552.806 Z-2.278 F250.
N565 X209.238 Y-552.827 Z-2.338
N570 X209.233 Y-552.861 Z-2.392
N575 X209.226 Y-552.906 Z-2.438
N580 X209.217 Y-552.959 Z-2.472
N585 X209.208 Y-553.019 Z-2.493
N590 X209.198 Y-553.082 Z-2.5
N595 X209.091 Y-553.753
N600 X209.087 Y-553.802
N605 Y-576.195 F1500.
N610 X210.913
N615 Y-555.282
N620 Y-553.809
N625 X210.909 Y-553.759 F250.
N630 X210.808 Y-553.122
N635 X210.797 Y-553.053 Z-2.492
N640 X210.786 Y-552.986 Z-2.469
N645 X210.777 Y-552.927 Z-2.431
N650 X210.769 Y-552.877 Z-2.38
N655 X210.763 Y-552.84 Z-2.32
N660 X210.759 Y-552.817 Z-2.253
N665 X210.758 Y-552.809 Z-2.182
N670 Z15. F1500.
N675 X384.242 Y-552.799
N680 Z5.
N685 Z-2.214 F100.
N690 X384.241 Y-552.806 Z-2.278 F250.
N695 X384.238 Y-552.827 Z-2.338
N700 X384.233 Y-552.861 Z-2.392
N705 X384.226 Y-552.906 Z-2.438
N710 X384.217 Y-552.959 Z-2.472
N715 X384.208 Y-553.019 Z-2.493
N720 X384.198 Y-553.082 Z-2.5
N725 X384.091 Y-553.753
N730 X384.087 Y-553.802
N735 Y-576.195 F1500.
N740 X385.913
N745 Y-555.282
N750 Y-553.809
N755 X385.909 Y-553.759 F250.
N760 X385.808 Y-553.122
N765 X385.797 Y-553.053 Z-2.492
N770 X385.786 Y-552.986 Z-2.469
N775 X385.777 Y-552.927 Z-2.431
N780 X385.769 Y-552.877 Z-2.38
N785 X385.763 Y-552.84 Z-2.32
N790 X385.759 Y-552.817 Z-2.253
N795 X385.758 Y-552.809 Z-2.182
N800 Z15. F1500.
N805 X35.758 Y-1751.268
N810 Z5.
N815 Z-2.214 F100.
N820 X35.759 Y-1751.261 Z-2.278 F250.
N825 X35.762 Y-1751.24 Z-2.338
N830 X35.767 Y-1751.206 Z-2.392
N835 X35.774 Y-1751.161 Z-2.438
N840 X35.783 Y-1751.108 Z-2.472
N845 X35.792 Y-1751.048 Z-2.493
N850 X35.802 Y-1750.985 Z-2.5
N855 X35.909 Y-1750.314
N860 X35.912 Y-1750.265
N865 Y-1727.868 F1500.
N870 X34.088
N875 Y-1748.78
N880 Y-1750.253
N885 X34.091 Y-1750.303 F250.
N890 X34.192 Y-1750.94
N895 X34.203 Y-1751.009 Z-2.492
N900 X34.214 Y-1751.076 Z-2.469
N905 X34.223 Y-1751.135 Z-2.431
N910 X34.231 Y-1751.185 Z-2.38
N915 X34.237 Y-1751.222 Z-2.32
N920 X34.241 Y-1751.245 Z-2.253
N925 X34.242 Y-1751.253 Z-2.182
N930 Z15. F1500.
N935 X210.758 Y-1751.268
N940 Z5.
N945 Z-2.214 F100.
N950 X210.759 Y-1751.261 Z-2.278 F250.
N955 X210.762 Y-1751.24 Z-2.338
N960 X210.767 Y-1751.206 Z-2.392
N965 X210.774 Y-1751.161 Z-2.438
N970 X210.783 Y-1751.108 Z-2.472
N975 X210.792 Y-1751.048 Z-2.493
N980 X210.802 Y-1750.985 Z-2.5
N985 X210.909 Y-1750.314
N990 X210.913 Y-1750.265
N995 Y-1727.868 F1500.
N1000 X209.087
N1005 Y-1748.78
N1010 Y-1750.253
N1015 X209.091 Y-1750.303 F250.
N1020 X209.192 Y-1750.94
N1025 X209.203 Y-1751.009 Z-2.492
N1030 X209.214 Y-1751.076 Z-2.469
N1035 X209.223 Y-1751.135 Z-2.431
N1040 X209.231 Y-1751.185 Z-2.38
N1045 X209.237 Y-1751.222 Z-2.32
N1050 X209.241 Y-1751.245 Z-2.253
N1055 X209.242 Y-1751.253 Z-2.182
N1060 Z15. F1500.
N1065 X385.758 Y-1751.268
N1070 Z5.
N1075 Z-2.214 F100.
N1080 X385.759 Y-1751.261 Z-2.278 F250.
N1085 X385.762 Y-1751.24 Z-2.338
N1090 X385.767 Y-1751.206 Z-2.392
N1095 X385.774 Y-1751.161 Z-2.438
N1100 X385.783 Y-1751.108 Z-2.472
N1105 X385.792 Y-1751.048 Z-2.493
N1110 X385.802 Y-1750.985 Z-2.5
N1115 X385.909 Y-1750.314
N1120 X385.913 Y-1750.265
N1125 Y-1727.868 F1500.
N1130 X384.087
N1135 Y-1748.78
N1140 Y-1750.253
N1145 X384.091 Y-1750.303 F250.
N1150 X384.192 Y-1750.94
N1155 X384.203 Y-1751.009 Z-2.492
N1160 X384.214 Y-1751.076 Z-2.469
N1165 X384.223 Y-1751.135 Z-2.431
N1170 X384.231 Y-1751.185 Z-2.38
N1175 X384.237 Y-1751.222 Z-2.32
N1180 X384.241 Y-1751.245 Z-2.253
N1185 X384.242 Y-1751.253 Z-2.182
N1190 Z15. F1500.
N1195 G53 G0 Z0.
N1200 G53 G0 X0. Y0.
N1205 M30
%
