%
(CUPBOARD_PRECUT_2)
(MACHINE)
(  MODEL LASER SNAKE V2)
(  DESCRIPTION 3-AXIS ROUTER)
(T1  D=3.175 CR=0. - ZMIN=-17. - FLAT END MILL)
N10 G90 G94 G17 G91.1
N15 G21
(WHEN USING FUSION 360 FOR PERSONAL USE, THE FEEDRATE OF)
(RAPID MOVES IS REDUCED TO MATCH THE FEEDRATE OF CUTTING)
(MOVES, WHICH CAN INCREASE MACHINING TIME. UNRESTRICTED RAPID)
(MOVES ARE AVAILABLE WITH A FUSION 360 SUBSCRIPTION.)
N20 G53 G0 Z0.
(2D CONTOUR1)
N25 T1 M6
N30 S18000 M3
N35 G54
N40 G0 X451.587 Y-2440.
N45 G43 Z15. H1
N50 G1 Z5. F1500.
N55 Z-4.25 F100.
N60 Y0. F1500.
N65 Z5.
N70 Y-2440.
N75 Z0.75 F100.
N80 Z-8.5
N85 Y0. F1500.
N90 Z5.
N95 Y-2440.
N100 Z-3.5 F100.
N105 Z-12.75
N110 Y0. F1500.
N115 Z5.
N120 Y-2440.
N125 Z-7.75 F100.
N130 Z-17.
N135 Y0. F1500.
N140 Z15.
N145 G53 G0 Z0.
N150 G53 G0 X0. Y0.
N155 M30
%
