%
(CUPBOARD_5_DRILL_2MM)
(MACHINE)
(  MODEL LASER SNAKE V2)
(  DESCRIPTION 3-AXIS ROUTER)
(T1  D=2. CR=0. TAPER=118DEG - ZMIN=-17.601 - DRILL)
N10 G90 G94 G17 G91.1
N15 G21
N20 G53 G0 Z0.
(DRILL5)
N25 T1 M6
N30 S10000 M3
N35 G54
N40 G0 X570. Y-2141.063
N45 G43 Z15. H1
N50 G0 Z5.
N55 G98 G81 X570. Y-2141.063 Z-17.601 R5. F200.
N60 Y-1821.063
N65 X572.078 Y-1689.885
N70 X412.078 Y-1714.885
N75 X337.078
N80 X297.078 Y-1689.885
N85 X262.078 Y-1714.885
N90 X200. Y-1816.063
N95 X275.
N100 X315. Y-1821.063
N105 X350. Y-1816.063
N110 X200. Y-1991.063
N115 X275.
N120 X350.
N125 Y-2166.063
N130 X315. Y-2141.063
N135 X275. Y-2166.063
N140 X200.
N145 X40. Y-2141.063
N150 Y-1821.063
N155 X42.078 Y-1689.885
N160 X262.078 Y-1539.885
N165 X337.078
N170 X412.078
N175 X572.078 Y-1369.885
N180 X581.72 Y-1268.5
N185 X401.72
N190 X412.078 Y-1364.885
N195 X337.078
N200 X297.078 Y-1369.885
N205 X262.078 Y-1364.885
N210 X221.72 Y-1268.5
N215 X42.078 Y-1369.885
N220 X221.72 Y-57.
N225 X401.72
N230 X581.72
N235 G80
N240 G0 Z15.
N245 G53 G0 Z0.
N250 G53 G0 X0. Y0.
N255 M30
%
