%
(CUPBOARD_5_DRILL_5MM)
(MACHINE)
(  MODEL LASER SNAKE V2)
(  DESCRIPTION 3-AXIS ROUTER)
(T2  D=5. CR=0. TAPER=118DEG - ZMIN=-18.502 - DRILL)
N10 G90 G94 G17 G91.1
N15 G21
N20 G53 G0 Z0.
(DRILL6)
N25 T2 M6
N30 S10000 M3
N35 G54
N40 G0 X200. Y-2166.063
N45 G43 Z15. H2
N50 G0 Z5.
N55 G98 G81 X200. Y-2166.063 Z-18.502 R5. F200.
N60 X275.
N65 X350.
N70 Y-1991.063
N75 X275.
N80 X200.
N85 X350. Y-1816.063
N90 X275.
N95 X200.
N100 X262.078 Y-1714.885
N105 X337.078
N110 X412.078
N115 X262.078 Y-1539.885
N120 X337.078
N125 X412.078
N130 Y-1364.885
N135 X337.078
N140 X262.078
N145 G80
N150 G0 Z15.
N155 G53 G0 Z0.
N160 G53 G0 X0. Y0.
N165 M30
%
