%
(CUPBOARD_1_PROFILE_V2)
(T3  D=3.175 CR=0. - ZMIN=-16.75 - FLAT END MILL)
N10 G90 G94 G17 G91.1
N15 G21
(WHEN USING FUSION 360 FOR PERSONAL USE, THE FEEDRATE OF)
(RAPID MOVES IS REDUCED TO MATCH THE FEEDRATE OF CUTTING)
(MOVES, WHICH CAN INCREASE MACHINING TIME. UNRESTRICTED RAPID)
(MOVES ARE AVAILABLE WITH A FUSION 360 SUBSCRIPTION.)
N20 G53 G0 Z0.
(2D POCKET2)
N25 T3 M6
N30 S18000 M3
N35 G54
N40 G0 X405.913 Y-2035.17
N45 G43 Z15. H3
N50 G1 Z5. F1500.
N55 Z2.5 F100.
N60 Z-1.
N65 G2 X404.087 I-0.913 J0. F1500.
N70 X405.913 I0.913 J0.
N75 G1 Z15.
N80 X230. Y-1269.162
N85 Z5.
N90 Z2.5 F100.
N95 Z-1.
N100 G2 Y-1267.338 I0. J0.912 F1500.
N105 Y-1269.162 I0. J-0.912
N110 G1 Z5.
N115 X405. Y-1382.083
N120 Z2.5 F100.
N125 Z-1.
N130 G2 Y-1380.258 I0. J0.912 F1500.
N135 Y-1382.083 I0. J-0.912
N140 G1 Z5.
N145 X440. Y-1267.338
N150 Z2.5 F100.
N155 Z-1.
N160 G2 Y-1269.162 I0. J-0.912 F1500.
N165 Y-1267.338 I0. J0.912
N170 G1 Z5.
N175 X20. Y-1269.162
N180 Z2.5 F100.
N185 Z-1.
N190 G2 Y-1267.338 I0. J0.912 F1500.
N195 Y-1269.162 I0. J-0.912
N200 G1 Z5.
N205 X30. Y-1380.257
N210 Z2.5 F100.
N215 Z-1.
N220 G2 Y-1382.083 I0. J-0.913 F1500.
N225 Y-1380.257 I0. J0.913
N230 G1 Z5.
N235 Y-1682.083
N240 Z2.5 F100.
N245 Z-1.
N250 G2 Y-1680.258 I0. J0.912 F1500.
N255 Y-1682.083 I0. J-0.912
N260 G1 Z5.
N265 Y-2036.083
N270 Z2.5 F100.
N275 Z-1.
N280 G2 Y-2034.258 I0. J0.912 F1500.
N285 Y-2036.083 I0. J-0.912
N290 G1 Z5.
N295 X20.913 Y-662.5
N300 Z2.5 F100.
N305 Z-1.
N310 G2 X19.087 I-0.913 J0. F1500.
N315 X20.913 I0.913 J0.
N320 G1 Z5.
N325 X229.087
N330 Z2.5 F100.
N335 Z-1.
N340 G2 X230.913 I0.913 J0. F1500.
N345 X229.087 I-0.913 J0.
N350 G1 Z5.
N355 X440. Y-663.412
N360 Z2.5 F100.
N365 Z-1.
N370 G2 Y-661.588 I0. J0.912 F1500.
N375 Y-663.412 I0. J-0.912
N380 G1 Z5.
N385 Y-57.662
N390 Z2.5 F100.
N395 Z-1.
N400 G2 Y-55.838 I0. J0.912 F1500.
N405 Y-57.662 I0. J-0.912
N410 G1 Z5.
N415 X229.087 Y-56.75
N420 Z2.5 F100.
N425 Z-1.
N430 G2 X230.913 I0.913 J0. F1500.
N435 X229.087 I-0.913 J0.
N440 G1 Z5.
N445 X20. Y-55.838
N450 Z2.5 F100.
N455 Z-1.
N460 G2 Y-57.662 I0. J-0.912 F1500.
N465 Y-55.838 I0. J0.912
N470 G1 Z15.
(WHEN USING FUSION 360 FOR PERSONAL USE, THE FEEDRATE OF)
(RAPID MOVES IS REDUCED TO MATCH THE FEEDRATE OF CUTTING)
(MOVES, WHICH CAN INCREASE MACHINING TIME. UNRESTRICTED RAPID)
(MOVES ARE AVAILABLE WITH A FUSION 360 SUBSCRIPTION.)
(2D CONTOUR2)
N475 G0 Z45.
N480 X2.26 Y-49.682
N485 G1 Z5. F1500.
N490 Z-4.683 F100.
N495 G18 G2 X2.578 Z-5. I0.318 K0. F250.
N500 G1 X2.895
N505 G17 G2 X3.213 Y-50. I0. J-0.318
N510 G1 Y-1275. F1500.
N515 G3 X5. Y-1276.787 I1.787 J0.
N520 G1 X455.
N525 G3 X456.788 Y-1275. I0. J1.787
N530 G1 Y-50.
N535 G3 X455. Y-48.213 I-1.788 J0.
N540 G1 X5.
N545 G3 X3.213 Y-50. I0. J-1.787
N550 G2 X2.895 Y-50.318 I-0.318 J0. F250.
N555 G1 X2.578
N560 G18 G3 X2.26 Z-4.683 I0. K0.318
N565 G1 Z20. F1500.
N570 Y-49.682
N575 Z5.
N580 Z0. F100.
N585 Z-9.683
N590 G2 X2.578 Z-10. I0.318 K0. F250.
N595 G1 X2.895
N600 G17 G2 X3.213 Y-50. I0. J-0.318
N605 G1 Y-1275. F1500.
N610 G3 X5. Y-1276.787 I1.787 J0.
N615 G1 X455.
N620 G3 X456.788 Y-1275. I0. J1.787
N625 G1 Y-50.
N630 G3 X455. Y-48.213 I-1.788 J0.
N635 G1 X5.
N640 G3 X3.213 Y-50. I0. J-1.787
N645 G2 X2.895 Y-50.318 I-0.318 J0. F250.
N650 G1 X2.578
N655 G18 G3 X2.26 Z-9.683 I0. K0.318
N660 G1 Z20. F1500.
N665 Y-49.682
N670 Z5.
N675 Z-5. F100.
N680 Z-14.683
N685 G2 X2.578 Z-15. I0.318 K0. F250.
N690 G1 X2.895
N695 G17 G2 X3.213 Y-50. I0. J-0.318
N700 G1 Y-1275. F1500.
N705 G3 X5. Y-1276.787 I1.787 J0.
N710 G1 X455.
N715 G3 X456.788 Y-1275. I0. J1.787
N720 G1 Y-50.
N725 G3 X455. Y-48.213 I-1.788 J0.
N730 G1 X5.
N735 G3 X3.213 Y-50. I0. J-1.787
N740 G2 X2.895 Y-50.318 I-0.318 J0. F250.
N745 G1 X2.578
N750 G18 G3 X2.26 Z-14.683 I0. K0.318
N755 G1 Z20. F1500.
N760 Y-49.682
N765 Z5.
N770 Z-10. F100.
N775 Z-16.433
N780 G2 X2.578 Z-16.75 I0.318 K0. F250.
N785 G1 X2.895
N790 G17 G2 X3.213 Y-50. I0. J-0.318
N795 G1 Y-1275. F1500.
N800 G3 X5. Y-1276.787 I1.787 J0.
N805 G1 X455.
N810 G3 X456.788 Y-1275. I0. J1.787
N815 G1 Y-50.
N820 G3 X455. Y-48.213 I-1.788 J0.
N825 G1 X5.
N830 G3 X3.213 Y-50. I0. J-1.787
N835 G2 X2.895 Y-50.318 I-0.318 J0. F250.
N840 G1 X2.578
N845 G18 G3 X2.26 Z-16.433 I0. K0.317
N850 G1 Z45. F1500.
N855 G17
(WHEN USING FUSION 360 FOR PERSONAL USE, THE FEEDRATE OF)
(RAPID MOVES IS REDUCED TO MATCH THE FEEDRATE OF CUTTING)
(MOVES, WHICH CAN INCREASE MACHINING TIME. UNRESTRICTED RAPID)
(MOVES ARE AVAILABLE WITH A FUSION 360 SUBSCRIPTION.)
(2D CONTOUR2 2)
N860 G0 X2.46 Y-49.682
N865 G1 Z45. F1500.
N870 Z5.
N875 Z-3.87 F100.
N880 G18 G2 X2.777 Z-4.188 I0.317 K0. F250.
N885 G1 X3.095
N890 G17 G2 X3.412 Y-50. I0. J-0.318
N895 G1 Y-1275. F1500.
N900 G3 X5. Y-1276.588 I1.588 J0.
N905 G1 X455.
N910 G3 X456.587 Y-1275. I0. J1.588
N915 G1 Y-50.
N920 G3 X455. Y-48.412 I-1.587 J0.
N925 G1 X5.
N930 G3 X3.412 Y-50. I0. J-1.588
N935 G2 X3.095 Y-50.318 I-0.317 J0. F250.
N940 G1 X2.777
N945 G18 G3 X2.46 Z-3.87 I0. K0.318
N950 G1 Z20. F1500.
N955 Y-49.682
N960 Z5.
N965 Z0.813 F100.
N970 Z-8.058
N975 G2 X2.777 Z-8.375 I0.317 K0. F250.
N980 G1 X3.095
N985 G17 G2 X3.412 Y-50. I0. J-0.318
N990 G1 Y-1275. F1500.
N995 G3 X5. Y-1276.588 I1.588 J0.
N1000 G1 X455.
N1005 G3 X456.587 Y-1275. I0. J1.588
N1010 G1 Y-50.
N1015 G3 X455. Y-48.412 I-1.587 J0.
N1020 G1 X5.
N1025 G3 X3.412 Y-50. I0. J-1.588
N1030 G2 X3.095 Y-50.318 I-0.317 J0. F250.
N1035 G1 X2.777
N1040 G18 G3 X2.46 Z-8.058 I0. K0.318
N1045 G1 Z20. F1500.
N1050 Y-49.682
N1055 Z5.
N1060 Z-3.375 F100.
N1065 Z-12.245
N1070 G2 X2.777 Z-12.563 I0.317 K0. F250.
N1075 G1 X3.095
N1080 G17 G2 X3.412 Y-50. I0. J-0.318
N1085 G1 Y-1275. F1500.
N1090 G3 X5. Y-1276.588 I1.588 J0.
N1095 G1 X455.
N1100 G3 X456.587 Y-1275. I0. J1.588
N1105 G1 Y-50.
N1110 G3 X455. Y-48.412 I-1.587 J0.
N1115 G1 X5.
N1120 G3 X3.412 Y-50. I0. J-1.588
N1125 G2 X3.095 Y-50.318 I-0.317 J0. F250.
N1130 G1 X2.777
N1135 G18 G3 X2.46 Z-12.245 I0. K0.318
N1140 G1 Z20. F1500.
N1145 Y-49.682
N1150 Z5.
N1155 Z-7.563 F100.
N1160 Z-16.433
N1165 G2 X2.777 Z-16.75 I0.317 K0. F250.
N1170 G1 X3.095
N1175 G17 G2 X3.412 Y-50. I0. J-0.318
N1180 G1 Y-1275. F1500.
N1185 G3 X5. Y-1276.588 I1.588 J0.
N1190 G1 X455.
N1195 G3 X456.587 Y-1275. I0. J1.588
N1200 G1 Y-50.
N1205 G3 X455. Y-48.412 I-1.587 J0.
N1210 G1 X5.
N1215 G3 X3.412 Y-50. I0. J-1.588
N1220 G2 X3.095 Y-50.318 I-0.317 J0. F250.
N1225 G1 X2.777
N1230 G18 G3 X2.46 Z-16.433 I0. K0.317
N1235 G1 Z45. F1500.
N1240 G17
(WHEN USING FUSION 360 FOR PERSONAL USE, THE FEEDRATE OF)
(RAPID MOVES IS REDUCED TO MATCH THE FEEDRATE OF CUTTING)
(MOVES, WHICH CAN INCREASE MACHINING TIME. UNRESTRICTED RAPID)
(MOVES ARE AVAILABLE WITH A FUSION 360 SUBSCRIPTION.)
(2D CONTOUR2 3)
N1245 G0 X2.26 Y-1345.853
N1250 G1 Z45. F1500.
N1255 Z5.
N1260 Z-4.683 F100.
N1265 G18 G2 X2.578 Z-5. I0.318 K0. F250.
N1270 G1 X2.895
N1275 G17 G2 X3.213 Y-1346.17 I0. J-0.318
N1280 G1 Y-2085.17 F1500.
N1285 G3 X5. Y-2086.958 I1.787 J0.
N1290 G1 X455.
N1295 G3 X456.788 Y-2085.17 I0. J1.788
N1300 G1 Y-1346.17
N1305 G3 X455. Y-1344.382 I-1.788 J0.
N1310 G1 X5.
N1315 G3 X3.213 Y-1346.17 I0. J-1.788
N1320 G2 X2.895 Y-1346.488 I-0.318 J0. F250.
N1325 G1 X2.578
N1330 G18 G3 X2.26 Z-4.683 I0. K0.318
N1335 G1 Z20. F1500.
N1340 Y-1345.853
N1345 Z5.
N1350 Z0. F100.
N1355 Z-9.683
N1360 G2 X2.578 Z-10. I0.318 K0. F250.
N1365 G1 X2.895
N1370 G17 G2 X3.213 Y-1346.17 I0. J-0.318
N1375 G1 Y-2085.17 F1500.
N1380 G3 X5. Y-2086.958 I1.787 J0.
N1385 G1 X455.
N1390 G3 X456.788 Y-2085.17 I0. J1.788
N1395 G1 Y-1346.17
N1400 G3 X455. Y-1344.382 I-1.788 J0.
N1405 G1 X5.
N1410 G3 X3.213 Y-1346.17 I0. J-1.788
N1415 G2 X2.895 Y-1346.488 I-0.318 J0. F250.
N1420 G1 X2.578
N1425 G18 G3 X2.26 Z-9.683 I0. K0.318
N1430 G1 Z20. F1500.
N1435 Y-1345.853
N1440 Z5.
N1445 Z-5. F100.
N1450 Z-14.683
N1455 G2 X2.578 Z-15. I0.318 K0. F250.
N1460 G1 X2.895
N1465 G17 G2 X3.213 Y-1346.17 I0. J-0.318
N1470 G1 Y-2085.17 F1500.
N1475 G3 X5. Y-2086.958 I1.787 J0.
N1480 G1 X455.
N1485 G3 X456.788 Y-2085.17 I0. J1.788
N1490 G1 Y-1346.17
N1495 G3 X455. Y-1344.382 I-1.788 J0.
N1500 G1 X5.
N1505 G3 X3.213 Y-1346.17 I0. J-1.788
N1510 G2 X2.895 Y-1346.488 I-0.318 J0. F250.
N1515 G1 X2.578
N1520 G18 G3 X2.26 Z-14.683 I0. K0.318
N1525 G1 Z20. F1500.
N1530 Y-1345.853
N1535 Z5.
N1540 Z-10. F100.
N1545 Z-16.433
N1550 G2 X2.578 Z-16.75 I0.318 K0. F250.
N1555 G1 X2.895
N1560 G17 G2 X3.213 Y-1346.17 I0. J-0.318
N1565 G1 Y-2085.17 F1500.
N1570 G3 X5. Y-2086.958 I1.787 J0.
N1575 G1 X455.
N1580 G3 X456.788 Y-2085.17 I0. J1.788
N1585 G1 Y-1346.17
N1590 G3 X455. Y-1344.382 I-1.788 J0.
N1595 G1 X5.
N1600 G3 X3.213 Y-1346.17 I0. J-1.788
N1605 G2 X2.895 Y-1346.488 I-0.318 J0. F250.
N1610 G1 X2.578
N1615 G18 G3 X2.26 Z-16.433 I0. K0.317
N1620 G1 Z45. F1500.
N1625 G17
(WHEN USING FUSION 360 FOR PERSONAL USE, THE FEEDRATE OF)
(RAPID MOVES IS REDUCED TO MATCH THE FEEDRATE OF CUTTING)
(MOVES, WHICH CAN INCREASE MACHINING TIME. UNRESTRICTED RAPID)
(MOVES ARE AVAILABLE WITH A FUSION 360 SUBSCRIPTION.)
(2D CONTOUR2 4)
N1630 G0 X2.46 Y-1345.853
N1635 G1 Z45. F1500.
N1640 Z5.
N1645 Z-4.683 F100.
N1650 G18 G2 X2.777 Z-5. I0.317 K0. F250.
N1655 G1 X3.095
N1660 G17 G2 X3.412 Y-1346.17 I0. J-0.318
N1665 G1 Y-2085.17 F1500.
N1670 G3 X5. Y-2086.758 I1.588 J0.
N1675 G1 X455.
N1680 G3 X456.587 Y-2085.17 I0. J1.588
N1685 G1 Y-1346.17
N1690 G3 X455. Y-1344.583 I-1.587 J0.
N1695 G1 X5.
N1700 G3 X3.412 Y-1346.17 I0. J-1.588
N1705 G2 X3.095 Y-1346.488 I-0.317 J0. F250.
N1710 G1 X2.777
N1715 G18 G3 X2.46 Z-4.683 I0. K0.318
N1720 G1 Z20. F1500.
N1725 Y-1345.853
N1730 Z5.
N1735 Z0. F100.
N1740 Z-9.683
N1745 G2 X2.777 Z-10. I0.317 K0. F250.
N1750 G1 X3.095
N1755 G17 G2 X3.412 Y-1346.17 I0. J-0.318
N1760 G1 Y-2085.17 F1500.
N1765 G3 X5. Y-2086.758 I1.588 J0.
N1770 G1 X455.
N1775 G3 X456.587 Y-2085.17 I0. J1.588
N1780 G1 Y-1346.17
N1785 G3 X455. Y-1344.583 I-1.587 J0.
N1790 G1 X5.
N1795 G3 X3.412 Y-1346.17 I0. J-1.588
N1800 G2 X3.095 Y-1346.488 I-0.317 J0. F250.
N1805 G1 X2.777
N1810 G18 G3 X2.46 Z-9.683 I0. K0.318
N1815 G1 Z20. F1500.
N1820 Y-1345.853
N1825 Z5.
N1830 Z-5. F100.
N1835 Z-14.683
N1840 G2 X2.777 Z-15. I0.317 K0. F250.
N1845 G1 X3.095
N1850 G17 G2 X3.412 Y-1346.17 I0. J-0.318
N1855 G1 Y-2085.17 F1500.
N1860 G3 X5. Y-2086.758 I1.588 J0.
N1865 G1 X455.
N1870 G3 X456.587 Y-2085.17 I0. J1.588
N1875 G1 Y-1346.17
N1880 G3 X455. Y-1344.583 I-1.587 J0.
N1885 G1 X5.
N1890 G3 X3.412 Y-1346.17 I0. J-1.588
N1895 G2 X3.095 Y-1346.488 I-0.317 J0. F250.
N1900 G1 X2.777
N1905 G18 G3 X2.46 Z-14.683 I0. K0.318
N1910 G1 Z20. F1500.
N1915 Y-1345.853
N1920 Z5.
N1925 Z-10. F100.
N1930 Z-16.433
N1935 G2 X2.777 Z-16.75 I0.317 K0. F250.
N1940 G1 X3.095
N1945 G17 G2 X3.412 Y-1346.17 I0. J-0.318
N1950 G1 Y-2085.17 F1500.
N1955 G3 X5. Y-2086.758 I1.588 J0.
N1960 G1 X455.
N1965 G3 X456.587 Y-2085.17 I0. J1.588
N1970 G1 Y-1346.17
N1975 G3 X455. Y-1344.583 I-1.587 J0.
N1980 G1 X5.
N1985 G3 X3.412 Y-1346.17 I0. J-1.588
N1990 G2 X3.095 Y-1346.488 I-0.317 J0. F250.
N1995 G1 X2.777
N2000 G18 G3 X2.46 Z-16.433 I0. K0.317
N2005 G1 Z45. F1500.
N2010 G17
N2015 G53 G0 Z0.
N2020 G53 G0 X0. Y0.
N2025 M30
%
