%
(TUNA_TUBES_001)
(MACHINE)
(  MODEL LASER SNAKE V2)
(  DESCRIPTION 3-AXIS ROUTER)
(T1  D=3.175 CR=0. - ZMIN=-18.2 - FLAT END MILL)
N10 G90 G94 G17 G91.1
N15 G21
(WHEN USING FUSION 360 FOR PERSONAL USE, THE FEEDRATE OF)
(RAPID MOVES IS REDUCED TO MATCH THE FEEDRATE OF CUTTING)
(MOVES, WHICH CAN INCREASE MACHINING TIME. UNRESTRICTED RAPID)
(MOVES ARE AVAILABLE WITH A FUSION 360 SUBSCRIPTION.)
N20 G53 G0 Z0.
(2D CONTOUR1)
N25 T1 M6
N30 S15000 M3
N35 G54
N40 G0 X207.76 Y-318.129
N45 G43 Z15. H1
N50 G1 Z5. F1000.
N55 Z-1. F100.
N60 X207.768 Z-1.214 F250.
N65 X207.791 Y-318.13 Z-1.427
N70 X207.829 Y-318.131 Z-1.638
N75 X207.881 Y-318.132 Z-1.845
N80 X207.949 Y-318.134 Z-2.048
N85 X208.031 Y-318.136 Z-2.246
N90 X208.127 Y-318.138 Z-2.438
N95 X208.236 Y-318.141 Z-2.622
N100 X208.358 Y-318.144 Z-2.798
N105 X208.493 Y-318.147 Z-2.965
N110 X208.638 Y-318.15 Z-3.121
N115 X208.795 Y-318.154 Z-3.267
N120 X208.962 Y-318.158 Z-3.402
N125 X209.138 Y-318.163 Z-3.524
N130 X209.322 Y-318.167 Z-3.633
N135 X209.513 Y-318.172 Z-3.729
N140 X209.711 Y-318.177 Z-3.811
N145 X209.914 Y-318.182 Z-3.878
N150 X210.122 Y-318.187 Z-3.931
N155 X210.332 Y-318.192 Z-3.969
N160 X210.545 Y-318.197 Z-3.992
N165 X210.759 Y-318.203 Z-4.
N170 X213.758 Y-318.276
N175 G2 X216.684 Y-321.349 I-0.074 J-2.999
N180 X25.316 Y-316.651 I-95.684 J2.349 F1000.
N185 X216.684 Y-321.349 I95.684 J-2.349
N190 X215.917 Y-331.315 I-95.684 J2.349 F250.
N195 X212.556 Y-333.904 I-2.975 J0.386
N200 G1 X209.581 Y-333.518
N205 X209.369 Y-333.49 Z-3.992
N210 X209.157 Y-333.463 Z-3.969
N215 X208.948 Y-333.436 Z-3.931
N220 X208.743 Y-333.409 Z-3.878
N225 X208.541 Y-333.383 Z-3.811
N230 X208.345 Y-333.358 Z-3.729
N235 X208.155 Y-333.333 Z-3.633
N240 X207.972 Y-333.309 Z-3.524
N245 X207.798 Y-333.287 Z-3.402
N250 X207.633 Y-333.265 Z-3.267
N255 X207.477 Y-333.245 Z-3.121
N260 X207.332 Y-333.226 Z-2.965
N265 X207.199 Y-333.209 Z-2.798
N270 X207.078 Y-333.193 Z-2.622
N275 X206.97 Y-333.179 Z-2.438
N280 X206.875 Y-333.167 Z-2.246
N285 X206.793 Y-333.156 Z-2.048
N290 X206.726 Y-333.148 Z-1.845
N295 X206.674 Y-333.141 Z-1.638
N300 X206.636 Y-333.136 Z-1.427
N305 X206.613 Y-333.133 Z-1.214
N310 X206.606 Y-333.132 Z-1.
N315 Z5. F1000.
N320 X207.76 Y-318.129
N325 Z-5. F100.
N330 X207.768 Z-5.214 F250.
N335 X207.791 Y-318.13 Z-5.427
N340 X207.829 Y-318.131 Z-5.638
N345 X207.881 Y-318.132 Z-5.845
N350 X207.949 Y-318.134 Z-6.048
N355 X208.031 Y-318.136 Z-6.246
N360 X208.127 Y-318.138 Z-6.438
N365 X208.236 Y-318.141 Z-6.622
N370 X208.358 Y-318.144 Z-6.798
N375 X208.493 Y-318.147 Z-6.965
N380 X208.638 Y-318.15 Z-7.121
N385 X208.795 Y-318.154 Z-7.267
N390 X208.962 Y-318.158 Z-7.402
N395 X209.138 Y-318.163 Z-7.524
N400 X209.322 Y-318.167 Z-7.633
N405 X209.513 Y-318.172 Z-7.729
N410 X209.711 Y-318.177 Z-7.811
N415 X209.914 Y-318.182 Z-7.878
N420 X210.122 Y-318.187 Z-7.931
N425 X210.332 Y-318.192 Z-7.969
N430 X210.545 Y-318.197 Z-7.992
N435 X210.759 Y-318.203 Z-8.
N440 X213.758 Y-318.276
N445 G2 X216.684 Y-321.349 I-0.074 J-2.999
N450 X25.316 Y-316.651 I-95.684 J2.349 F1000.
N455 X216.684 Y-321.349 I95.684 J-2.349
N460 X215.917 Y-331.315 I-95.684 J2.349 F250.
N465 X212.556 Y-333.904 I-2.975 J0.386
N470 G1 X209.581 Y-333.518
N475 X209.369 Y-333.49 Z-7.992
N480 X209.157 Y-333.463 Z-7.969
N485 X208.948 Y-333.436 Z-7.931
N490 X208.743 Y-333.409 Z-7.878
N495 X208.541 Y-333.383 Z-7.811
N500 X208.345 Y-333.358 Z-7.729
N505 X208.155 Y-333.333 Z-7.633
N510 X207.972 Y-333.309 Z-7.524
N515 X207.798 Y-333.287 Z-7.402
N520 X207.633 Y-333.265 Z-7.267
N525 X207.477 Y-333.245 Z-7.121
N530 X207.332 Y-333.226 Z-6.965
N535 X207.199 Y-333.209 Z-6.798
N540 X207.078 Y-333.193 Z-6.622
N545 X206.97 Y-333.179 Z-6.438
N550 X206.875 Y-333.167 Z-6.246
N555 X206.793 Y-333.156 Z-6.048
N560 X206.726 Y-333.148 Z-5.845
N565 X206.674 Y-333.141 Z-5.638
N570 X206.636 Y-333.136 Z-5.427
N575 X206.613 Y-333.133 Z-5.214
N580 X206.606 Y-333.132 Z-5.
N585 Z5. F1000.
N590 X207.76 Y-318.129
N595 Z-9. F100.
N600 X207.768 Z-9.214 F250.
N605 X207.791 Y-318.13 Z-9.427
N610 X207.829 Y-318.131 Z-9.638
N615 X207.881 Y-318.132 Z-9.845
N620 X207.949 Y-318.134 Z-10.048
N625 X208.031 Y-318.136 Z-10.246
N630 X208.127 Y-318.138 Z-10.438
N635 X208.236 Y-318.141 Z-10.622
N640 X208.358 Y-318.144 Z-10.798
N645 X208.493 Y-318.147 Z-10.965
N650 X208.638 Y-318.15 Z-11.121
N655 X208.795 Y-318.154 Z-11.267
N660 X208.962 Y-318.158 Z-11.402
N665 X209.138 Y-318.163 Z-11.524
N670 X209.322 Y-318.167 Z-11.633
N675 X209.513 Y-318.172 Z-11.729
N680 X209.711 Y-318.177 Z-11.811
N685 X209.914 Y-318.182 Z-11.878
N690 X210.122 Y-318.187 Z-11.931
N695 X210.332 Y-318.192 Z-11.969
N700 X210.545 Y-318.197 Z-11.992
N705 X210.759 Y-318.203 Z-12.
N710 X213.758 Y-318.276
N715 G2 X216.684 Y-321.349 I-0.074 J-2.999
N720 X25.316 Y-316.651 I-95.684 J2.349 F1000.
N725 X216.684 Y-321.349 I95.684 J-2.349
N730 X215.917 Y-331.315 I-95.684 J2.349 F250.
N735 X212.556 Y-333.904 I-2.975 J0.386
N740 G1 X209.581 Y-333.518
N745 X209.369 Y-333.49 Z-11.992
N750 X209.157 Y-333.463 Z-11.969
N755 X208.948 Y-333.436 Z-11.931
N760 X208.743 Y-333.409 Z-11.878
N765 X208.541 Y-333.383 Z-11.811
N770 X208.345 Y-333.358 Z-11.729
N775 X208.155 Y-333.333 Z-11.633
N780 X207.972 Y-333.309 Z-11.524
N785 X207.798 Y-333.287 Z-11.402
N790 X207.633 Y-333.265 Z-11.267
N795 X207.477 Y-333.245 Z-11.121
N800 X207.332 Y-333.226 Z-10.965
N805 X207.199 Y-333.209 Z-10.798
N810 X207.078 Y-333.193 Z-10.622
N815 X206.97 Y-333.179 Z-10.438
N820 X206.875 Y-333.167 Z-10.246
N825 X206.793 Y-333.156 Z-10.048
N830 X206.726 Y-333.148 Z-9.845
N835 X206.674 Y-333.141 Z-9.638
N840 X206.636 Y-333.136 Z-9.427
N845 X206.613 Y-333.133 Z-9.214
N850 X206.606 Y-333.132 Z-9.
N855 Z5. F1000.
N860 X207.76 Y-318.129
N865 Z-13. F100.
N870 X207.768 Z-13.214 F250.
N875 X207.791 Y-318.13 Z-13.427
N880 X207.829 Y-318.131 Z-13.638
N885 X207.881 Y-318.132 Z-13.845
N890 X207.949 Y-318.134 Z-14.048
N895 X208.031 Y-318.136 Z-14.246
N900 X208.127 Y-318.138 Z-14.438
N905 X208.236 Y-318.141 Z-14.622
N910 X208.358 Y-318.144 Z-14.798
N915 X208.493 Y-318.147 Z-14.965
N920 X208.638 Y-318.15 Z-15.121
N925 X208.795 Y-318.154 Z-15.267
N930 X208.962 Y-318.158 Z-15.402
N935 X209.138 Y-318.163 Z-15.524
N940 X209.322 Y-318.167 Z-15.633
N945 X209.513 Y-318.172 Z-15.729
N950 X209.711 Y-318.177 Z-15.811
N955 X209.914 Y-318.182 Z-15.878
N960 X210.122 Y-318.187 Z-15.931
N965 X210.332 Y-318.192 Z-15.969
N970 X210.545 Y-318.197 Z-15.992
N975 X210.759 Y-318.203 Z-16.
N980 X213.758 Y-318.276
N985 G2 X216.684 Y-321.349 I-0.074 J-2.999
N990 X25.316 Y-316.651 I-95.684 J2.349 F1000.
N995 X216.684 Y-321.349 I95.684 J-2.349
N1000 X215.917 Y-331.315 I-95.684 J2.349 F250.
N1005 X212.556 Y-333.904 I-2.975 J0.386
N1010 G1 X209.581 Y-333.518
N1015 X209.369 Y-333.49 Z-15.992
N1020 X209.157 Y-333.463 Z-15.969
N1025 X208.948 Y-333.436 Z-15.931
N1030 X208.743 Y-333.409 Z-15.878
N1035 X208.541 Y-333.383 Z-15.811
N1040 X208.345 Y-333.358 Z-15.729
N1045 X208.155 Y-333.333 Z-15.633
N1050 X207.972 Y-333.309 Z-15.524
N1055 X207.798 Y-333.287 Z-15.402
N1060 X207.633 Y-333.265 Z-15.267
N1065 X207.477 Y-333.245 Z-15.121
N1070 X207.332 Y-333.226 Z-14.965
N1075 X207.199 Y-333.209 Z-14.798
N1080 X207.078 Y-333.193 Z-14.622
N1085 X206.97 Y-333.179 Z-14.438
N1090 X206.875 Y-333.167 Z-14.246
N1095 X206.793 Y-333.156 Z-14.048
N1100 X206.726 Y-333.148 Z-13.845
N1105 X206.674 Y-333.141 Z-13.638
N1110 X206.636 Y-333.136 Z-13.427
N1115 X206.613 Y-333.133 Z-13.214
N1120 X206.606 Y-333.132 Z-13.
N1125 Z5. F1000.
N1130 X207.76 Y-318.129
N1135 Z-15.2 F100.
N1140 X207.768 Z-15.414 F250.
N1145 X207.791 Y-318.13 Z-15.627
N1150 X207.829 Y-318.131 Z-15.838
N1155 X207.881 Y-318.132 Z-16.045
N1160 X207.949 Y-318.134 Z-16.248
N1165 X208.031 Y-318.136 Z-16.446
N1170 X208.127 Y-318.138 Z-16.638
N1175 X208.236 Y-318.141 Z-16.822
N1180 X208.358 Y-318.144 Z-16.998
N1185 X208.493 Y-318.147 Z-17.165
N1190 X208.638 Y-318.15 Z-17.321
N1195 X208.795 Y-318.154 Z-17.467
N1200 X208.962 Y-318.158 Z-17.602
N1205 X209.138 Y-318.163 Z-17.724
N1210 X209.322 Y-318.167 Z-17.833
N1215 X209.513 Y-318.172 Z-17.929
N1220 X209.711 Y-318.177 Z-18.011
N1225 X209.914 Y-318.182 Z-18.078
N1230 X210.122 Y-318.187 Z-18.131
N1235 X210.332 Y-318.192 Z-18.169
N1240 X210.545 Y-318.197 Z-18.192
N1245 X210.759 Y-318.203 Z-18.2
N1250 X213.758 Y-318.276
N1255 G2 X216.684 Y-321.349 I-0.074 J-2.999
N1260 X25.316 Y-316.651 I-95.684 J2.349 F1000.
N1265 X216.684 Y-321.349 I95.684 J-2.349
N1270 X215.917 Y-331.315 I-95.684 J2.349 F250.
N1275 X212.556 Y-333.904 I-2.975 J0.386
N1280 G1 X209.581 Y-333.518
N1285 X209.369 Y-333.49 Z-18.192
N1290 X209.157 Y-333.463 Z-18.169
N1295 X208.948 Y-333.436 Z-18.131
N1300 X208.743 Y-333.409 Z-18.078
N1305 X208.541 Y-333.383 Z-18.011
N1310 X208.345 Y-333.358 Z-17.929
N1315 X208.155 Y-333.333 Z-17.833
N1320 X207.972 Y-333.309 Z-17.724
N1325 X207.798 Y-333.287 Z-17.602
N1330 X207.633 Y-333.265 Z-17.467
N1335 X207.477 Y-333.245 Z-17.321
N1340 X207.332 Y-333.226 Z-17.165
N1345 X207.199 Y-333.209 Z-16.998
N1350 X207.078 Y-333.193 Z-16.822
N1355 X206.97 Y-333.179 Z-16.638
N1360 X206.875 Y-333.167 Z-16.446
N1365 X206.793 Y-333.156 Z-16.248
N1370 X206.726 Y-333.148 Z-16.045
N1375 X206.674 Y-333.141 Z-15.838
N1380 X206.636 Y-333.136 Z-15.627
N1385 X206.613 Y-333.133 Z-15.414
N1390 X206.606 Y-333.132 Z-15.2
N1395 Z5. F1000.
N1400 X467.76 Y-318.129
N1405 Z-1. F100.
N1410 X467.768 Z-1.214 F250.
N1415 X467.791 Y-318.13 Z-1.427
N1420 X467.829 Y-318.131 Z-1.638
N1425 X467.881 Y-318.132 Z-1.845
N1430 X467.949 Y-318.134 Z-2.048
N1435 X468.031 Y-318.136 Z-2.246
N1440 X468.127 Y-318.138 Z-2.438
N1445 X468.236 Y-318.141 Z-2.622
N1450 X468.358 Y-318.144 Z-2.798
N1455 X468.493 Y-318.147 Z-2.965
N1460 X468.638 Y-318.15 Z-3.121
N1465 X468.795 Y-318.154 Z-3.267
N1470 X468.962 Y-318.158 Z-3.402
N1475 X469.138 Y-318.163 Z-3.524
N1480 X469.322 Y-318.167 Z-3.633
N1485 X469.513 Y-318.172 Z-3.729
N1490 X469.711 Y-318.177 Z-3.811
N1495 X469.914 Y-318.182 Z-3.878
N1500 X470.122 Y-318.187 Z-3.931
N1505 X470.332 Y-318.192 Z-3.969
N1510 X470.545 Y-318.197 Z-3.992
N1515 X470.759 Y-318.203 Z-4.
N1520 X473.758 Y-318.276
N1525 G2 X476.684 Y-321.349 I-0.074 J-2.999
N1530 X285.316 Y-316.651 I-95.684 J2.349 F1000.
N1535 X476.684 Y-321.349 I95.684 J-2.349
N1540 X475.917 Y-331.315 I-95.684 J2.349 F250.
N1545 X472.556 Y-333.904 I-2.975 J0.386
N1550 G1 X469.581 Y-333.518
N1555 X469.369 Y-333.49 Z-3.992
N1560 X469.157 Y-333.463 Z-3.969
N1565 X468.948 Y-333.436 Z-3.931
N1570 X468.743 Y-333.409 Z-3.878
N1575 X468.541 Y-333.383 Z-3.811
N1580 X468.345 Y-333.358 Z-3.729
N1585 X468.155 Y-333.333 Z-3.633
N1590 X467.972 Y-333.309 Z-3.524
N1595 X467.798 Y-333.287 Z-3.402
N1600 X467.633 Y-333.265 Z-3.267
N1605 X467.477 Y-333.245 Z-3.121
N1610 X467.332 Y-333.226 Z-2.965
N1615 X467.199 Y-333.209 Z-2.798
N1620 X467.078 Y-333.193 Z-2.622
N1625 X466.97 Y-333.179 Z-2.438
N1630 X466.875 Y-333.167 Z-2.246
N1635 X466.793 Y-333.156 Z-2.048
N1640 X466.726 Y-333.148 Z-1.845
N1645 X466.674 Y-333.141 Z-1.638
N1650 X466.636 Y-333.136 Z-1.427
N1655 X466.613 Y-333.133 Z-1.214
N1660 X466.606 Y-333.132 Z-1.
N1665 Z5. F1000.
N1670 X467.76 Y-318.129
N1675 Z-5. F100.
N1680 X467.768 Z-5.214 F250.
N1685 X467.791 Y-318.13 Z-5.427
N1690 X467.829 Y-318.131 Z-5.638
N1695 X467.881 Y-318.132 Z-5.845
N1700 X467.949 Y-318.134 Z-6.048
N1705 X468.031 Y-318.136 Z-6.246
N1710 X468.127 Y-318.138 Z-6.438
N1715 X468.236 Y-318.141 Z-6.622
N1720 X468.358 Y-318.144 Z-6.798
N1725 X468.493 Y-318.147 Z-6.965
N1730 X468.638 Y-318.15 Z-7.121
N1735 X468.795 Y-318.154 Z-7.267
N1740 X468.962 Y-318.158 Z-7.402
N1745 X469.138 Y-318.163 Z-7.524
N1750 X469.322 Y-318.167 Z-7.633
N1755 X469.513 Y-318.172 Z-7.729
N1760 X469.711 Y-318.177 Z-7.811
N1765 X469.914 Y-318.182 Z-7.878
N1770 X470.122 Y-318.187 Z-7.931
N1775 X470.332 Y-318.192 Z-7.969
N1780 X470.545 Y-318.197 Z-7.992
N1785 X470.759 Y-318.203 Z-8.
N1790 X473.758 Y-318.276
N1795 G2 X476.684 Y-321.349 I-0.074 J-2.999
N1800 X285.316 Y-316.651 I-95.684 J2.349 F1000.
N1805 X476.684 Y-321.349 I95.684 J-2.349
N1810 X475.917 Y-331.315 I-95.684 J2.349 F250.
N1815 X472.556 Y-333.904 I-2.975 J0.386
N1820 G1 X469.581 Y-333.518
N1825 X469.369 Y-333.49 Z-7.992
N1830 X469.157 Y-333.463 Z-7.969
N1835 X468.948 Y-333.436 Z-7.931
N1840 X468.743 Y-333.409 Z-7.878
N1845 X468.541 Y-333.383 Z-7.811
N1850 X468.345 Y-333.358 Z-7.729
N1855 X468.155 Y-333.333 Z-7.633
N1860 X467.972 Y-333.309 Z-7.524
N1865 X467.798 Y-333.287 Z-7.402
N1870 X467.633 Y-333.265 Z-7.267
N1875 X467.477 Y-333.245 Z-7.121
N1880 X467.332 Y-333.226 Z-6.965
N1885 X467.199 Y-333.209 Z-6.798
N1890 X467.078 Y-333.193 Z-6.622
N1895 X466.97 Y-333.179 Z-6.438
N1900 X466.875 Y-333.167 Z-6.246
N1905 X466.793 Y-333.156 Z-6.048
N1910 X466.726 Y-333.148 Z-5.845
N1915 X466.674 Y-333.141 Z-5.638
N1920 X466.636 Y-333.136 Z-5.427
N1925 X466.613 Y-333.133 Z-5.214
N1930 X466.606 Y-333.132 Z-5.
N1935 Z5. F1000.
N1940 X467.76 Y-318.129
N1945 Z-9. F100.
N1950 X467.768 Z-9.214 F250.
N1955 X467.791 Y-318.13 Z-9.427
N1960 X467.829 Y-318.131 Z-9.638
N1965 X467.881 Y-318.132 Z-9.845
N1970 X467.949 Y-318.134 Z-10.048
N1975 X468.031 Y-318.136 Z-10.246
N1980 X468.127 Y-318.138 Z-10.438
N1985 X468.236 Y-318.141 Z-10.622
N1990 X468.358 Y-318.144 Z-10.798
N1995 X468.493 Y-318.147 Z-10.965
N2000 X468.638 Y-318.15 Z-11.121
N2005 X468.795 Y-318.154 Z-11.267
N2010 X468.962 Y-318.158 Z-11.402
N2015 X469.138 Y-318.163 Z-11.524
N2020 X469.322 Y-318.167 Z-11.633
N2025 X469.513 Y-318.172 Z-11.729
N2030 X469.711 Y-318.177 Z-11.811
N2035 X469.914 Y-318.182 Z-11.878
N2040 X470.122 Y-318.187 Z-11.931
N2045 X470.332 Y-318.192 Z-11.969
N2050 X470.545 Y-318.197 Z-11.992
N2055 X470.759 Y-318.203 Z-12.
N2060 X473.758 Y-318.276
N2065 G2 X476.684 Y-321.349 I-0.074 J-2.999
N2070 X285.316 Y-316.651 I-95.684 J2.349 F1000.
N2075 X476.684 Y-321.349 I95.684 J-2.349
N2080 X475.917 Y-331.315 I-95.684 J2.349 F250.
N2085 X472.556 Y-333.904 I-2.975 J0.386
N2090 G1 X469.581 Y-333.518
N2095 X469.369 Y-333.49 Z-11.992
N2100 X469.157 Y-333.463 Z-11.969
N2105 X468.948 Y-333.436 Z-11.931
N2110 X468.743 Y-333.409 Z-11.878
N2115 X468.541 Y-333.383 Z-11.811
N2120 X468.345 Y-333.358 Z-11.729
N2125 X468.155 Y-333.333 Z-11.633
N2130 X467.972 Y-333.309 Z-11.524
N2135 X467.798 Y-333.287 Z-11.402
N2140 X467.633 Y-333.265 Z-11.267
N2145 X467.477 Y-333.245 Z-11.121
N2150 X467.332 Y-333.226 Z-10.965
N2155 X467.199 Y-333.209 Z-10.798
N2160 X467.078 Y-333.193 Z-10.622
N2165 X466.97 Y-333.179 Z-10.438
N2170 X466.875 Y-333.167 Z-10.246
N2175 X466.793 Y-333.156 Z-10.048
N2180 X466.726 Y-333.148 Z-9.845
N2185 X466.674 Y-333.141 Z-9.638
N2190 X466.636 Y-333.136 Z-9.427
N2195 X466.613 Y-333.133 Z-9.214
N2200 X466.606 Y-333.132 Z-9.
N2205 Z5. F1000.
N2210 X467.76 Y-318.129
N2215 Z-13. F100.
N2220 X467.768 Z-13.214 F250.
N2225 X467.791 Y-318.13 Z-13.427
N2230 X467.829 Y-318.131 Z-13.638
N2235 X467.881 Y-318.132 Z-13.845
N2240 X467.949 Y-318.134 Z-14.048
N2245 X468.031 Y-318.136 Z-14.246
N2250 X468.127 Y-318.138 Z-14.438
N2255 X468.236 Y-318.141 Z-14.622
N2260 X468.358 Y-318.144 Z-14.798
N2265 X468.493 Y-318.147 Z-14.965
N2270 X468.638 Y-318.15 Z-15.121
N2275 X468.795 Y-318.154 Z-15.267
N2280 X468.962 Y-318.158 Z-15.402
N2285 X469.138 Y-318.163 Z-15.524
N2290 X469.322 Y-318.167 Z-15.633
N2295 X469.513 Y-318.172 Z-15.729
N2300 X469.711 Y-318.177 Z-15.811
N2305 X469.914 Y-318.182 Z-15.878
N2310 X470.122 Y-318.187 Z-15.931
N2315 X470.332 Y-318.192 Z-15.969
N2320 X470.545 Y-318.197 Z-15.992
N2325 X470.759 Y-318.203 Z-16.
N2330 X473.758 Y-318.276
N2335 G2 X476.684 Y-321.349 I-0.074 J-2.999
N2340 X285.316 Y-316.651 I-95.684 J2.349 F1000.
N2345 X476.684 Y-321.349 I95.684 J-2.349
N2350 X475.917 Y-331.315 I-95.684 J2.349 F250.
N2355 X472.556 Y-333.904 I-2.975 J0.386
N2360 G1 X469.581 Y-333.518
N2365 X469.369 Y-333.49 Z-15.992
N2370 X469.157 Y-333.463 Z-15.969
N2375 X468.948 Y-333.436 Z-15.931
N2380 X468.743 Y-333.409 Z-15.878
N2385 X468.541 Y-333.383 Z-15.811
N2390 X468.345 Y-333.358 Z-15.729
N2395 X468.155 Y-333.333 Z-15.633
N2400 X467.972 Y-333.309 Z-15.524
N2405 X467.798 Y-333.287 Z-15.402
N2410 X467.633 Y-333.265 Z-15.267
N2415 X467.477 Y-333.245 Z-15.121
N2420 X467.332 Y-333.226 Z-14.965
N2425 X467.199 Y-333.209 Z-14.798
N2430 X467.078 Y-333.193 Z-14.622
N2435 X466.97 Y-333.179 Z-14.438
N2440 X466.875 Y-333.167 Z-14.246
N2445 X466.793 Y-333.156 Z-14.048
N2450 X466.726 Y-333.148 Z-13.845
N2455 X466.674 Y-333.141 Z-13.638
N2460 X466.636 Y-333.136 Z-13.427
N2465 X466.613 Y-333.133 Z-13.214
N2470 X466.606 Y-333.132 Z-13.
N2475 Z5. F1000.
N2480 X467.76 Y-318.129
N2485 Z-15.2 F100.
N2490 X467.768 Z-15.414 F250.
N2495 X467.791 Y-318.13 Z-15.627
N2500 X467.829 Y-318.131 Z-15.838
N2505 X467.881 Y-318.132 Z-16.045
N2510 X467.949 Y-318.134 Z-16.248
N2515 X468.031 Y-318.136 Z-16.446
N2520 X468.127 Y-318.138 Z-16.638
N2525 X468.236 Y-318.141 Z-16.822
N2530 X468.358 Y-318.144 Z-16.998
N2535 X468.493 Y-318.147 Z-17.165
N2540 X468.638 Y-318.15 Z-17.321
N2545 X468.795 Y-318.154 Z-17.467
N2550 X468.962 Y-318.158 Z-17.602
N2555 X469.138 Y-318.163 Z-17.724
N2560 X469.322 Y-318.167 Z-17.833
N2565 X469.513 Y-318.172 Z-17.929
N2570 X469.711 Y-318.177 Z-18.011
N2575 X469.914 Y-318.182 Z-18.078
N2580 X470.122 Y-318.187 Z-18.131
N2585 X470.332 Y-318.192 Z-18.169
N2590 X470.545 Y-318.197 Z-18.192
N2595 X470.759 Y-318.203 Z-18.2
N2600 X473.758 Y-318.276
N2605 G2 X476.684 Y-321.349 I-0.074 J-2.999
N2610 X285.316 Y-316.651 I-95.684 J2.349 F1000.
N2615 X476.684 Y-321.349 I95.684 J-2.349
N2620 X475.917 Y-331.315 I-95.684 J2.349 F250.
N2625 X472.556 Y-333.904 I-2.975 J0.386
N2630 G1 X469.581 Y-333.518
N2635 X469.369 Y-333.49 Z-18.192
N2640 X469.157 Y-333.463 Z-18.169
N2645 X468.948 Y-333.436 Z-18.131
N2650 X468.743 Y-333.409 Z-18.078
N2655 X468.541 Y-333.383 Z-18.011
N2660 X468.345 Y-333.358 Z-17.929
N2665 X468.155 Y-333.333 Z-17.833
N2670 X467.972 Y-333.309 Z-17.724
N2675 X467.798 Y-333.287 Z-17.602
N2680 X467.633 Y-333.265 Z-17.467
N2685 X467.477 Y-333.245 Z-17.321
N2690 X467.332 Y-333.226 Z-17.165
N2695 X467.199 Y-333.209 Z-16.998
N2700 X467.078 Y-333.193 Z-16.822
N2705 X466.97 Y-333.179 Z-16.638
N2710 X466.875 Y-333.167 Z-16.446
N2715 X466.793 Y-333.156 Z-16.248
N2720 X466.726 Y-333.148 Z-16.045
N2725 X466.674 Y-333.141 Z-15.838
N2730 X466.636 Y-333.136 Z-15.627
N2735 X466.613 Y-333.133 Z-15.414
N2740 X466.606 Y-333.132 Z-15.2
N2745 Z5. F1000.
N2750 X463.712 Y-118.
N2755 Z-1. F100.
N2760 G18 G2 X466.712 Z-4. I3. K0. F250.
N2765 G1 X469.712
N2770 G17 G2 X472.712 Y-121. I0. J-3.
N2775 X289.288 I-91.712 J0. F1000.
N2780 X472.712 I91.712 J0.
N2785 X472.168 Y-130.98 I-91.712 J0. F250.
N2790 X468.859 Y-133.636 I-2.982 J0.326
N2795 G1 X465.877 Y-133.309
N2800 X465.664 Y-133.286 Z-3.992
N2805 X465.453 Y-133.263 Z-3.969
N2810 X465.243 Y-133.24 Z-3.931
N2815 X465.037 Y-133.217 Z-3.878
N2820 X464.835 Y-133.195 Z-3.811
N2825 X464.638 Y-133.174 Z-3.729
N2830 X464.448 Y-133.153 Z-3.633
N2835 X464.265 Y-133.133 Z-3.524
N2840 X464.09 Y-133.114 Z-3.402
N2845 X463.924 Y-133.096 Z-3.267
N2850 X463.768 Y-133.079 Z-3.121
N2855 X463.623 Y-133.063 Z-2.965
N2860 X463.49 Y-133.048 Z-2.798
N2865 X463.368 Y-133.035 Z-2.622
N2870 X463.26 Y-133.023 Z-2.438
N2875 X463.164 Y-133.013 Z-2.246
N2880 X463.083 Y-133.004 Z-2.048
N2885 X463.016 Y-132.996 Z-1.845
N2890 X462.963 Y-132.99 Z-1.638
N2895 X462.925 Y-132.986 Z-1.427
N2900 X462.902 Y-132.984 Z-1.214
N2905 X462.895 Y-132.983 Z-1.
N2910 Z5. F1000.
N2915 X463.712 Y-118.
N2920 Z-5. F100.
N2925 G18 G2 X466.712 Z-8. I3. K0. F250.
N2930 G1 X469.712
N2935 G17 G2 X472.712 Y-121. I0. J-3.
N2940 X289.288 I-91.712 J0. F1000.
N2945 X472.712 I91.712 J0.
N2950 X472.168 Y-130.98 I-91.712 J0. F250.
N2955 X468.859 Y-133.636 I-2.982 J0.326
N2960 G1 X465.877 Y-133.309
N2965 X465.664 Y-133.286 Z-7.992
N2970 X465.453 Y-133.263 Z-7.969
N2975 X465.243 Y-133.24 Z-7.931
N2980 X465.037 Y-133.217 Z-7.878
N2985 X464.835 Y-133.195 Z-7.811
N2990 X464.638 Y-133.174 Z-7.729
N2995 X464.448 Y-133.153 Z-7.633
N3000 X464.265 Y-133.133 Z-7.524
N3005 X464.09 Y-133.114 Z-7.402
N3010 X463.924 Y-133.096 Z-7.267
N3015 X463.768 Y-133.079 Z-7.121
N3020 X463.623 Y-133.063 Z-6.965
N3025 X463.49 Y-133.048 Z-6.798
N3030 X463.368 Y-133.035 Z-6.622
N3035 X463.26 Y-133.023 Z-6.438
N3040 X463.164 Y-133.013 Z-6.246
N3045 X463.083 Y-133.004 Z-6.048
N3050 X463.016 Y-132.996 Z-5.845
N3055 X462.963 Y-132.99 Z-5.638
N3060 X462.925 Y-132.986 Z-5.427
N3065 X462.902 Y-132.984 Z-5.214
N3070 X462.895 Y-132.983 Z-5.
N3075 Z5. F1000.
N3080 X463.712 Y-118.
N3085 Z-9. F100.
N3090 G18 G2 X466.712 Z-12. I3. K0. F250.
N3095 G1 X469.712
N3100 G17 G2 X472.712 Y-121. I0. J-3.
N3105 X289.288 I-91.712 J0. F1000.
N3110 X472.712 I91.712 J0.
N3115 X472.168 Y-130.98 I-91.712 J0. F250.
N3120 X468.859 Y-133.636 I-2.982 J0.326
N3125 G1 X465.877 Y-133.309
N3130 X465.664 Y-133.286 Z-11.992
N3135 X465.453 Y-133.263 Z-11.969
N3140 X465.243 Y-133.24 Z-11.931
N3145 X465.037 Y-133.217 Z-11.878
N3150 X464.835 Y-133.195 Z-11.811
N3155 X464.638 Y-133.174 Z-11.729
N3160 X464.448 Y-133.153 Z-11.633
N3165 X464.265 Y-133.133 Z-11.524
N3170 X464.09 Y-133.114 Z-11.402
N3175 X463.924 Y-133.096 Z-11.267
N3180 X463.768 Y-133.079 Z-11.121
N3185 X463.623 Y-133.063 Z-10.965
N3190 X463.49 Y-133.048 Z-10.798
N3195 X463.368 Y-133.035 Z-10.622
N3200 X463.26 Y-133.023 Z-10.438
N3205 X463.164 Y-133.013 Z-10.246
N3210 X463.083 Y-133.004 Z-10.048
N3215 X463.016 Y-132.996 Z-9.845
N3220 X462.963 Y-132.99 Z-9.638
N3225 X462.925 Y-132.986 Z-9.427
N3230 X462.902 Y-132.984 Z-9.214
N3235 X462.895 Y-132.983 Z-9.
N3240 Z5. F1000.
N3245 X463.712 Y-118.
N3250 Z-13. F100.
N3255 G18 G2 X466.712 Z-16. I3. K0. F250.
N3260 G1 X469.712
N3265 G17 G2 X472.712 Y-121. I0. J-3.
N3270 X289.288 I-91.712 J0. F1000.
N3275 X472.712 I91.712 J0.
N3280 X472.168 Y-130.98 I-91.712 J0. F250.
N3285 X468.859 Y-133.636 I-2.982 J0.326
N3290 G1 X465.877 Y-133.309
N3295 X465.664 Y-133.286 Z-15.992
N3300 X465.453 Y-133.263 Z-15.969
N3305 X465.243 Y-133.24 Z-15.931
N3310 X465.037 Y-133.217 Z-15.878
N3315 X464.835 Y-133.195 Z-15.811
N3320 X464.638 Y-133.174 Z-15.729
N3325 X464.448 Y-133.153 Z-15.633
N3330 X464.265 Y-133.133 Z-15.524
N3335 X464.09 Y-133.114 Z-15.402
N3340 X463.924 Y-133.096 Z-15.267
N3345 X463.768 Y-133.079 Z-15.121
N3350 X463.623 Y-133.063 Z-14.965
N3355 X463.49 Y-133.048 Z-14.798
N3360 X463.368 Y-133.035 Z-14.622
N3365 X463.26 Y-133.023 Z-14.438
N3370 X463.164 Y-133.013 Z-14.246
N3375 X463.083 Y-133.004 Z-14.048
N3380 X463.016 Y-132.996 Z-13.845
N3385 X462.963 Y-132.99 Z-13.638
N3390 X462.925 Y-132.986 Z-13.427
N3395 X462.902 Y-132.984 Z-13.214
N3400 X462.895 Y-132.983 Z-13.
N3405 Z5. F1000.
N3410 X463.712 Y-118.
N3415 Z-15.2 F100.
N3420 G18 G2 X466.712 Z-18.2 I3. K0. F250.
N3425 G1 X469.712
N3430 G17 G2 X472.712 Y-121. I0. J-3.
N3435 X289.288 I-91.712 J0. F1000.
N3440 X472.712 I91.712 J0.
N3445 X472.168 Y-130.98 I-91.712 J0. F250.
N3450 X468.859 Y-133.636 I-2.982 J0.326
N3455 G1 X465.877 Y-133.309
N3460 X465.664 Y-133.286 Z-18.192
N3465 X465.453 Y-133.263 Z-18.169
N3470 X465.243 Y-133.24 Z-18.131
N3475 X465.037 Y-133.217 Z-18.078
N3480 X464.835 Y-133.195 Z-18.011
N3485 X464.638 Y-133.174 Z-17.929
N3490 X464.448 Y-133.153 Z-17.833
N3495 X464.265 Y-133.133 Z-17.724
N3500 X464.09 Y-133.114 Z-17.602
N3505 X463.924 Y-133.096 Z-17.467
N3510 X463.768 Y-133.079 Z-17.321
N3515 X463.623 Y-133.063 Z-17.165
N3520 X463.49 Y-133.048 Z-16.998
N3525 X463.368 Y-133.035 Z-16.822
N3530 X463.26 Y-133.023 Z-16.638
N3535 X463.164 Y-133.013 Z-16.446
N3540 X463.083 Y-133.004 Z-16.248
N3545 X463.016 Y-132.996 Z-16.045
N3550 X462.963 Y-132.99 Z-15.838
N3555 X462.925 Y-132.986 Z-15.627
N3560 X462.902 Y-132.984 Z-15.414
N3565 X462.895 Y-132.983 Z-15.2
N3570 Z5. F1000.
N3575 X203.761 Y-120.031
N3580 Z-1. F100.
N3585 X203.769 Z-1.214 F250.
N3590 X203.792 Y-120.032 Z-1.427
N3595 X203.83 Z-1.638
N3600 X203.883 Y-120.034 Z-1.845
N3605 X203.95 Y-120.035 Z-2.048
N3610 X204.032 Y-120.037 Z-2.246
N3615 X204.128 Y-120.04 Z-2.438
N3620 X204.237 Y-120.042 Z-2.622
N3625 X204.359 Y-120.045 Z-2.798
N3630 X204.494 Y-120.049 Z-2.965
N3635 X204.64 Y-120.052 Z-3.121
N3640 X204.796 Y-120.056 Z-3.267
N3645 X204.963 Y-120.06 Z-3.402
N3650 X205.139 Y-120.065 Z-3.524
N3655 X205.323 Y-120.069 Z-3.633
N3660 X205.514 Y-120.074 Z-3.729
N3665 X205.712 Y-120.079 Z-3.811
N3670 X205.915 Y-120.084 Z-3.878
N3675 X206.123 Y-120.089 Z-3.931
N3680 X206.333 Y-120.094 Z-3.969
N3685 X206.546 Y-120.099 Z-3.992
N3690 X206.76 Y-120.104 Z-4.
N3695 X209.759 Y-120.178
N3700 G2 X212.685 Y-123.251 I-0.074 J-2.999
N3705 X29.315 Y-118.749 I-91.685 J2.251 F1000.
N3710 X212.685 Y-123.251 I91.685 J-2.251
N3715 X211.895 Y-133.215 I-91.685 J2.251 F250.
N3720 X208.523 Y-135.788 I-2.973 J0.4
N3725 G1 X205.549 Y-135.389
N3730 X205.337 Y-135.36 Z-3.992
N3735 X205.126 Y-135.332 Z-3.969
N3740 X204.917 Y-135.304 Z-3.931
N3745 X204.712 Y-135.276 Z-3.878
N3750 X204.51 Y-135.249 Z-3.811
N3755 X204.314 Y-135.223 Z-3.729
N3760 X204.124 Y-135.197 Z-3.633
N3765 X203.942 Y-135.173 Z-3.524
N3770 X203.768 Y-135.149 Z-3.402
N3775 X203.602 Y-135.127 Z-3.267
N3780 X203.447 Y-135.106 Z-3.121
N3785 X203.302 Y-135.087 Z-2.965
N3790 X203.169 Y-135.069 Z-2.798
N3795 X203.048 Y-135.053 Z-2.622
N3800 X202.94 Y-135.038 Z-2.438
N3805 X202.845 Y-135.025 Z-2.246
N3810 X202.764 Y-135.014 Z-2.048
N3815 X202.697 Y-135.005 Z-1.845
N3820 X202.644 Y-134.998 Z-1.638
N3825 X202.606 Y-134.993 Z-1.427
N3830 X202.584 Y-134.99 Z-1.214
N3835 X202.576 Y-134.989 Z-1.
N3840 Z5. F1000.
N3845 X203.761 Y-120.031
N3850 Z-5. F100.
N3855 X203.769 Z-5.214 F250.
N3860 X203.792 Y-120.032 Z-5.427
N3865 X203.83 Z-5.638
N3870 X203.883 Y-120.034 Z-5.845
N3875 X203.95 Y-120.035 Z-6.048
N3880 X204.032 Y-120.037 Z-6.246
N3885 X204.128 Y-120.04 Z-6.438
N3890 X204.237 Y-120.042 Z-6.622
N3895 X204.359 Y-120.045 Z-6.798
N3900 X204.494 Y-120.049 Z-6.965
N3905 X204.64 Y-120.052 Z-7.121
N3910 X204.796 Y-120.056 Z-7.267
N3915 X204.963 Y-120.06 Z-7.402
N3920 X205.139 Y-120.065 Z-7.524
N3925 X205.323 Y-120.069 Z-7.633
N3930 X205.514 Y-120.074 Z-7.729
N3935 X205.712 Y-120.079 Z-7.811
N3940 X205.915 Y-120.084 Z-7.878
N3945 X206.123 Y-120.089 Z-7.931
N3950 X206.333 Y-120.094 Z-7.969
N3955 X206.546 Y-120.099 Z-7.992
N3960 X206.76 Y-120.104 Z-8.
N3965 X209.759 Y-120.178
N3970 G2 X212.685 Y-123.251 I-0.074 J-2.999
N3975 X29.315 Y-118.749 I-91.685 J2.251 F1000.
N3980 X212.685 Y-123.251 I91.685 J-2.251
N3985 X211.895 Y-133.215 I-91.685 J2.251 F250.
N3990 X208.523 Y-135.788 I-2.973 J0.4
N3995 G1 X205.549 Y-135.389
N4000 X205.337 Y-135.36 Z-7.992
N4005 X205.126 Y-135.332 Z-7.969
N4010 X204.917 Y-135.304 Z-7.931
N4015 X204.712 Y-135.276 Z-7.878
N4020 X204.51 Y-135.249 Z-7.811
N4025 X204.314 Y-135.223 Z-7.729
N4030 X204.124 Y-135.197 Z-7.633
N4035 X203.942 Y-135.173 Z-7.524
N4040 X203.768 Y-135.149 Z-7.402
N4045 X203.602 Y-135.127 Z-7.267
N4050 X203.447 Y-135.106 Z-7.121
N4055 X203.302 Y-135.087 Z-6.965
N4060 X203.169 Y-135.069 Z-6.798
N4065 X203.048 Y-135.053 Z-6.622
N4070 X202.94 Y-135.038 Z-6.438
N4075 X202.845 Y-135.025 Z-6.246
N4080 X202.764 Y-135.014 Z-6.048
N4085 X202.697 Y-135.005 Z-5.845
N4090 X202.644 Y-134.998 Z-5.638
N4095 X202.606 Y-134.993 Z-5.427
N4100 X202.584 Y-134.99 Z-5.214
N4105 X202.576 Y-134.989 Z-5.
N4110 Z5. F1000.
N4115 X203.761 Y-120.031
N4120 Z-9. F100.
N4125 X203.769 Z-9.214 F250.
N4130 X203.792 Y-120.032 Z-9.427
N4135 X203.83 Z-9.638
N4140 X203.883 Y-120.034 Z-9.845
N4145 X203.95 Y-120.035 Z-10.048
N4150 X204.032 Y-120.037 Z-10.246
N4155 X204.128 Y-120.04 Z-10.438
N4160 X204.237 Y-120.042 Z-10.622
N4165 X204.359 Y-120.045 Z-10.798
N4170 X204.494 Y-120.049 Z-10.965
N4175 X204.64 Y-120.052 Z-11.121
N4180 X204.796 Y-120.056 Z-11.267
N4185 X204.963 Y-120.06 Z-11.402
N4190 X205.139 Y-120.065 Z-11.524
N4195 X205.323 Y-120.069 Z-11.633
N4200 X205.514 Y-120.074 Z-11.729
N4205 X205.712 Y-120.079 Z-11.811
N4210 X205.915 Y-120.084 Z-11.878
N4215 X206.123 Y-120.089 Z-11.931
N4220 X206.333 Y-120.094 Z-11.969
N4225 X206.546 Y-120.099 Z-11.992
N4230 X206.76 Y-120.104 Z-12.
N4235 X209.759 Y-120.178
N4240 G2 X212.685 Y-123.251 I-0.074 J-2.999
N4245 X29.315 Y-118.749 I-91.685 J2.251 F1000.
N4250 X212.685 Y-123.251 I91.685 J-2.251
N4255 X211.895 Y-133.215 I-91.685 J2.251 F250.
N4260 X208.523 Y-135.788 I-2.973 J0.4
N4265 G1 X205.549 Y-135.389
N4270 X205.337 Y-135.36 Z-11.992
N4275 X205.126 Y-135.332 Z-11.969
N4280 X204.917 Y-135.304 Z-11.931
N4285 X204.712 Y-135.276 Z-11.878
N4290 X204.51 Y-135.249 Z-11.811
N4295 X204.314 Y-135.223 Z-11.729
N4300 X204.124 Y-135.197 Z-11.633
N4305 X203.942 Y-135.173 Z-11.524
N4310 X203.768 Y-135.149 Z-11.402
N4315 X203.602 Y-135.127 Z-11.267
N4320 X203.447 Y-135.106 Z-11.121
N4325 X203.302 Y-135.087 Z-10.965
N4330 X203.169 Y-135.069 Z-10.798
N4335 X203.048 Y-135.053 Z-10.622
N4340 X202.94 Y-135.038 Z-10.438
N4345 X202.845 Y-135.025 Z-10.246
N4350 X202.764 Y-135.014 Z-10.048
N4355 X202.697 Y-135.005 Z-9.845
N4360 X202.644 Y-134.998 Z-9.638
N4365 X202.606 Y-134.993 Z-9.427
N4370 X202.584 Y-134.99 Z-9.214
N4375 X202.576 Y-134.989 Z-9.
N4380 Z5. F1000.
N4385 X203.761 Y-120.031
N4390 Z-13. F100.
N4395 X203.769 Z-13.214 F250.
N4400 X203.792 Y-120.032 Z-13.427
N4405 X203.83 Z-13.638
N4410 X203.883 Y-120.034 Z-13.845
N4415 X203.95 Y-120.035 Z-14.048
N4420 X204.032 Y-120.037 Z-14.246
N4425 X204.128 Y-120.04 Z-14.438
N4430 X204.237 Y-120.042 Z-14.622
N4435 X204.359 Y-120.045 Z-14.798
N4440 X204.494 Y-120.049 Z-14.965
N4445 X204.64 Y-120.052 Z-15.121
N4450 X204.796 Y-120.056 Z-15.267
N4455 X204.963 Y-120.06 Z-15.402
N4460 X205.139 Y-120.065 Z-15.524
N4465 X205.323 Y-120.069 Z-15.633
N4470 X205.514 Y-120.074 Z-15.729
N4475 X205.712 Y-120.079 Z-15.811
N4480 X205.915 Y-120.084 Z-15.878
N4485 X206.123 Y-120.089 Z-15.931
N4490 X206.333 Y-120.094 Z-15.969
N4495 X206.546 Y-120.099 Z-15.992
N4500 X206.76 Y-120.104 Z-16.
N4505 X209.759 Y-120.178
N4510 G2 X212.685 Y-123.251 I-0.074 J-2.999
N4515 X29.315 Y-118.749 I-91.685 J2.251 F1000.
N4520 X212.685 Y-123.251 I91.685 J-2.251
N4525 X211.895 Y-133.215 I-91.685 J2.251 F250.
N4530 X208.523 Y-135.788 I-2.973 J0.4
N4535 G1 X205.549 Y-135.389
N4540 X205.337 Y-135.36 Z-15.992
N4545 X205.126 Y-135.332 Z-15.969
N4550 X204.917 Y-135.304 Z-15.931
N4555 X204.712 Y-135.276 Z-15.878
N4560 X204.51 Y-135.249 Z-15.811
N4565 X204.314 Y-135.223 Z-15.729
N4570 X204.124 Y-135.197 Z-15.633
N4575 X203.942 Y-135.173 Z-15.524
N4580 X203.768 Y-135.149 Z-15.402
N4585 X203.602 Y-135.127 Z-15.267
N4590 X203.447 Y-135.106 Z-15.121
N4595 X203.302 Y-135.087 Z-14.965
N4600 X203.169 Y-135.069 Z-14.798
N4605 X203.048 Y-135.053 Z-14.622
N4610 X202.94 Y-135.038 Z-14.438
N4615 X202.845 Y-135.025 Z-14.246
N4620 X202.764 Y-135.014 Z-14.048
N4625 X202.697 Y-135.005 Z-13.845
N4630 X202.644 Y-134.998 Z-13.638
N4635 X202.606 Y-134.993 Z-13.427
N4640 X202.584 Y-134.99 Z-13.214
N4645 X202.576 Y-134.989 Z-13.
N4650 Z5. F1000.
N4655 X203.761 Y-120.031
N4660 Z-15.2 F100.
N4665 X203.769 Z-15.414 F250.
N4670 X203.792 Y-120.032 Z-15.627
N4675 X203.83 Z-15.838
N4680 X203.883 Y-120.034 Z-16.045
N4685 X203.95 Y-120.035 Z-16.248
N4690 X204.032 Y-120.037 Z-16.446
N4695 X204.128 Y-120.04 Z-16.638
N4700 X204.237 Y-120.042 Z-16.822
N4705 X204.359 Y-120.045 Z-16.998
N4710 X204.494 Y-120.049 Z-17.165
N4715 X204.64 Y-120.052 Z-17.321
N4720 X204.796 Y-120.056 Z-17.467
N4725 X204.963 Y-120.06 Z-17.602
N4730 X205.139 Y-120.065 Z-17.724
N4735 X205.323 Y-120.069 Z-17.833
N4740 X205.514 Y-120.074 Z-17.929
N4745 X205.712 Y-120.079 Z-18.011
N4750 X205.915 Y-120.084 Z-18.078
N4755 X206.123 Y-120.089 Z-18.131
N4760 X206.333 Y-120.094 Z-18.169
N4765 X206.546 Y-120.099 Z-18.192
N4770 X206.76 Y-120.104 Z-18.2
N4775 X209.759 Y-120.178
N4780 G2 X212.685 Y-123.251 I-0.074 J-2.999
N4785 X29.315 Y-118.749 I-91.685 J2.251 F1000.
N4790 X212.685 Y-123.251 I91.685 J-2.251
N4795 X211.895 Y-133.215 I-91.685 J2.251 F250.
N4800 X208.523 Y-135.788 I-2.973 J0.4
N4805 G1 X205.549 Y-135.389
N4810 X205.337 Y-135.36 Z-18.192
N4815 X205.126 Y-135.332 Z-18.169
N4820 X204.917 Y-135.304 Z-18.131
N4825 X204.712 Y-135.276 Z-18.078
N4830 X204.51 Y-135.249 Z-18.011
N4835 X204.314 Y-135.223 Z-17.929
N4840 X204.124 Y-135.197 Z-17.833
N4845 X203.942 Y-135.173 Z-17.724
N4850 X203.768 Y-135.149 Z-17.602
N4855 X203.602 Y-135.127 Z-17.467
N4860 X203.447 Y-135.106 Z-17.321
N4865 X203.302 Y-135.087 Z-17.165
N4870 X203.169 Y-135.069 Z-16.998
N4875 X203.048 Y-135.053 Z-16.822
N4880 X202.94 Y-135.038 Z-16.638
N4885 X202.845 Y-135.025 Z-16.446
N4890 X202.764 Y-135.014 Z-16.248
N4895 X202.697 Y-135.005 Z-16.045
N4900 X202.644 Y-134.998 Z-15.838
N4905 X202.606 Y-134.993 Z-15.627
N4910 X202.584 Y-134.99 Z-15.414
N4915 X202.576 Y-134.989 Z-15.2
N4920 Z15. F1000.
(WHEN USING FUSION 360 FOR PERSONAL USE, THE FEEDRATE OF)
(RAPID MOVES IS REDUCED TO MATCH THE FEEDRATE OF CUTTING)
(MOVES, WHICH CAN INCREASE MACHINING TIME. UNRESTRICTED RAPID)
(MOVES ARE AVAILABLE WITH A FUSION 360 SUBSCRIPTION.)
(BORE1)
N4925 G0 X122. Y-411.913
N4930 G1 Z15. F750.
N4935 Z2.
N4940 Z1. F150.
N4945 G19 G2 Y-412.913 Z0. J-1. K0.
N4950 G1 Y-413.913
N4955 G17 G2 X121. Y-414.913 I-1. J0.
N4960 Y-223.087 Z-1.702 I0. J95.913 F750.
N4965 Y-414.913 Z-3.404 I0. J-95.913
N4970 Y-223.087 Z-5.106 I0. J95.913
N4975 Y-414.913 Z-6.807 I0. J-95.913
N4980 Y-223.087 Z-8.509 I0. J95.913
N4985 Y-414.913 Z-10.211 I0. J-95.913
N4990 Y-223.087 Z-11.913 I0. J95.913
N4995 Y-414.913 Z-13.615 I0. J-95.913
N5000 Y-223.087 Z-15.317 I0. J95.913
N5005 Y-414.913 Z-17.019 I0. J-95.913
N5010 X27.852 Y-296.139 Z-18. I0. J95.913
N5015 X214.148 Y-341.861 I93.148 J-22.861
N5020 X27.852 Y-296.139 I-93.148 J22.861
N5025 X29.061 Y-295.406 I0.971 J-0.238 F150.
N5030 G1 X30.033 Y-295.644
N5035 X30.15 Y-295.673 Z-17.993
N5040 X30.265 Y-295.701 Z-17.971
N5045 X30.377 Y-295.729 Z-17.935
N5050 X30.484 Y-295.755 Z-17.885
N5055 X30.584 Y-295.78 Z-17.823
N5060 X30.677 Y-295.802 Z-17.749
N5065 X30.76 Y-295.823 Z-17.663
N5070 X30.832 Y-295.84 Z-17.568
N5075 X30.893 Y-295.855 Z-17.465
N5080 X30.941 Y-295.867 Z-17.355
N5085 X30.976 Y-295.876 Z-17.239
N5090 X30.997 Y-295.881 Z-17.121
N5095 X31.004 Y-295.883 Z-17.
N5100 Z5. F750.
N5105 X122. Y-209.913
N5110 Z2.
N5115 Z1. F150.
N5120 G19 G2 Y-210.913 Z0. J-1. K0.
N5125 G1 Y-211.913
N5130 G17 G2 X121. Y-212.913 I-1. J0.
N5135 Y-29.087 Z-1.632 I0. J91.913 F750.
N5140 Y-212.913 Z-3.264 I0. J-91.913
N5145 Y-29.087 Z-4.896 I0. J91.913
N5150 Y-212.913 Z-6.528 I0. J-91.913
N5155 Y-29.087 Z-8.16 I0. J91.913
N5160 Y-212.913 Z-9.792 I0. J-91.913
N5165 Y-29.087 Z-11.424 I0. J91.913
N5170 Y-212.913 Z-13.056 I0. J-91.913
N5175 Y-29.087 Z-14.688 I0. J91.913
N5180 Y-212.912 Z-16.32 I0. J-91.913
N5185 X29.183 Y-116.803 Z-17.16 I0. J91.912
N5190 X129.386 Y-29.471 Z-18. I91.817 J-4.197
N5195 X112.614 Y-212.529 I-8.386 J-91.529
N5200 X129.386 Y-29.471 I8.386 J91.529
N5205 X130.291 Y-30.558 I-0.091 J-0.996 F150.
N5210 G1 X130.2 Y-31.554
N5215 X130.189 Y-31.674 Z-17.993
N5220 X130.178 Y-31.792 Z-17.971
N5225 X130.167 Y-31.907 Z-17.935
N5230 X130.157 Y-32.017 Z-17.885
N5235 X130.148 Y-32.119 Z-17.823
N5240 X130.139 Y-32.214 Z-17.749
N5245 X130.131 Y-32.299 Z-17.663
N5250 X130.124 Y-32.373 Z-17.568
N5255 X130.119 Y-32.436 Z-17.465
N5260 X130.114 Y-32.485 Z-17.355
N5265 X130.111 Y-32.521 Z-17.239
N5270 X130.109 Y-32.542 Z-17.121
N5275 X130.108 Y-32.55 Z-17.
N5280 Z5. F750.
N5285 X382. Y-209.913
N5290 Z2.
N5295 Z1. F150.
N5300 G19 G2 Y-210.913 Z0. J-1. K0.
N5305 G1 Y-211.913
N5310 G17 G2 X381. Y-212.913 I-1. J0.
N5315 Y-29.087 Z-1.632 I0. J91.913 F750.
N5320 Y-212.913 Z-3.264 I0. J-91.913
N5325 Y-29.087 Z-4.896 I0. J91.913
N5330 Y-212.913 Z-6.528 I0. J-91.913
N5335 Y-29.087 Z-8.16 I0. J91.913
N5340 Y-212.913 Z-9.792 I0. J-91.913
N5345 Y-29.087 Z-11.424 I0. J91.913
N5350 Y-212.913 Z-13.056 I0. J-91.913
N5355 Y-29.087 Z-14.688 I0. J91.913
N5360 Y-212.912 Z-16.32 I0. J-91.913
N5365 X289.183 Y-116.803 Z-17.16 I0. J91.912
N5370 X389.386 Y-29.471 Z-18. I91.817 J-4.197
N5375 X372.614 Y-212.529 I-8.386 J-91.529
N5380 X389.386 Y-29.471 I8.386 J91.529
N5385 X390.291 Y-30.558 I-0.091 J-0.996 F150.
N5390 G1 X390.2 Y-31.554
N5395 X390.189 Y-31.674 Z-17.993
N5400 X390.178 Y-31.792 Z-17.971
N5405 X390.167 Y-31.907 Z-17.935
N5410 X390.157 Y-32.017 Z-17.885
N5415 X390.148 Y-32.119 Z-17.823
N5420 X390.139 Y-32.214 Z-17.749
N5425 X390.131 Y-32.299 Z-17.663
N5430 X390.124 Y-32.373 Z-17.568
N5435 X390.119 Y-32.436 Z-17.465
N5440 X390.114 Y-32.485 Z-17.355
N5445 X390.111 Y-32.521 Z-17.239
N5450 X390.109 Y-32.542 Z-17.121
N5455 X390.108 Y-32.55 Z-17.
N5460 Z5. F750.
N5465 X382. Y-411.913
N5470 Z2.
N5475 Z1. F150.
N5480 G19 G2 Y-412.913 Z0. J-1. K0.
N5485 G1 Y-413.913
N5490 G17 G2 X381. Y-414.913 I-1. J0.
N5495 Y-223.087 Z-1.702 I0. J95.913 F750.
N5500 Y-414.913 Z-3.404 I0. J-95.913
N5505 Y-223.087 Z-5.106 I0. J95.913
N5510 Y-414.913 Z-6.807 I0. J-95.913
N5515 Y-223.087 Z-8.509 I0. J95.913
N5520 Y-414.912 Z-10.211 I0. J-95.913
N5525 Y-223.088 Z-11.913 I0. J95.912
N5530 Y-414.912 Z-13.615 I0. J-95.912
N5535 Y-223.088 Z-15.317 I0. J95.912
N5540 Y-414.912 Z-17.019 I0. J-95.912
N5545 X287.852 Y-296.139 Z-18. I0. J95.912
N5550 X474.148 Y-341.861 I93.148 J-22.861
N5555 X287.852 Y-296.139 I-93.148 J22.861
N5560 X289.061 Y-295.406 I0.971 J-0.238 F150.
N5565 G1 X290.033 Y-295.644
N5570 X290.15 Y-295.673 Z-17.993
N5575 X290.265 Y-295.701 Z-17.971
N5580 X290.377 Y-295.729 Z-17.935
N5585 X290.484 Y-295.755 Z-17.885
N5590 X290.584 Y-295.78 Z-17.823
N5595 X290.677 Y-295.802 Z-17.749
N5600 X290.76 Y-295.823 Z-17.663
N5605 X290.832 Y-295.84 Z-17.568
N5610 X290.893 Y-295.855 Z-17.465
N5615 X290.941 Y-295.867 Z-17.355
N5620 X290.976 Y-295.876 Z-17.239
N5625 X290.997 Y-295.881 Z-17.121
N5630 X291.004 Y-295.883 Z-17.
N5635 Z15. F750.
N5640 G53 G0 Z0.
N5645 G53 G0 X0. Y0.
N5650 M30
%
