%
(TUNA_TUBES_002)
(MACHINE)
(  MODEL LASER SNAKE V2)
(  DESCRIPTION 3-AXIS ROUTER)
(T1  D=3.175 CR=0. - ZMIN=-18.2 - FLAT END MILL)
N10 G90 G94 G17 G91.1
N15 G21
(WHEN USING FUSION 360 FOR PERSONAL USE, THE FEEDRATE OF)
(RAPID MOVES IS REDUCED TO MATCH THE FEEDRATE OF CUTTING)
(MOVES, WHICH CAN INCREASE MACHINING TIME. UNRESTRICTED RAPID)
(MOVES ARE AVAILABLE WITH A FUSION 360 SUBSCRIPTION.)
N20 G53 G0 Z0.
(2D POCKET1)
N25 T1 M6
N30 S15000 M3
N35 G54
N40 G0 X207.508 Y-220.
N45 G43 Z15. H1
N50 G1 Z5. F250.
N55 Z-3.62 F100.
N60 X207.492 F250.
N65 G2 X209.413 I0.96 J0.
N70 X205.587 I-1.913 J0.
N75 X209.413 I1.913 J0.
N80 X209.159 Y-220.193 I-0.2 J0.
N85 G1 X207.761 Y-219.807
N90 G3 X207.508 Y-220. I-0.053 J-0.193
N95 G1 Z-7.24 F100.
N100 X207.492 F250.
N105 G2 X209.413 I0.96 J0.
N110 X205.587 I-1.913 J0.
N115 X209.413 I1.913 J0.
N120 X209.159 Y-220.193 I-0.2 J0.
N125 G1 X207.761 Y-219.807
N130 G3 X207.508 Y-220. I-0.053 J-0.193
N135 G1 Z-10.86 F100.
N140 X207.492 F250.
N145 G2 X209.413 I0.96 J0.
N150 X205.587 I-1.913 J0.
N155 X209.413 I1.913 J0.
N160 X209.159 Y-220.193 I-0.2 J0.
N165 G1 X207.761 Y-219.807
N170 G3 X207.508 Y-220. I-0.053 J-0.193
N175 G1 Z-14.48 F100.
N180 X207.492 F250.
N185 G2 X209.413 I0.96 J0.
N190 X205.587 I-1.913 J0.
N195 X209.413 I1.913 J0.
N200 X209.159 Y-220.193 I-0.2 J0.
N205 G1 X207.761 Y-219.807
N210 G3 X207.508 Y-220. I-0.053 J-0.193
N215 G1 Z-18.1 F100.
N220 X207.492 F250.
N225 G2 X209.413 I0.96 J0.
N230 X205.587 I-1.913 J0.
N235 X209.413 I1.913 J0.
N240 G1 Z5.
N245 X294.508
N250 Z-3.62 F100.
N255 X294.492 F250.
N260 G2 X296.413 I0.96 J0.
N265 X292.587 I-1.913 J0.
N270 X296.413 I1.913 J0.
N275 X296.159 Y-220.193 I-0.2 J0.
N280 G1 X294.761 Y-219.807
N285 G3 X294.508 Y-220. I-0.053 J-0.193
N290 G1 Z-7.24 F100.
N295 X294.492 F250.
N300 G2 X296.413 I0.96 J0.
N305 X292.587 I-1.913 J0.
N310 X296.413 I1.913 J0.
N315 X296.159 Y-220.193 I-0.2 J0.
N320 G1 X294.761 Y-219.807
N325 G3 X294.508 Y-220. I-0.053 J-0.193
N330 G1 Z-10.86 F100.
N335 X294.492 F250.
N340 G2 X296.413 I0.96 J0.
N345 X292.587 I-1.913 J0.
N350 X296.413 I1.913 J0.
N355 X296.159 Y-220.193 I-0.2 J0.
N360 G1 X294.761 Y-219.807
N365 G3 X294.508 Y-220. I-0.053 J-0.193
N370 G1 Z-14.48 F100.
N375 X294.492 F250.
N380 G2 X296.413 I0.96 J0.
N385 X292.587 I-1.913 J0.
N390 X296.413 I1.913 J0.
N395 X296.159 Y-220.193 I-0.2 J0.
N400 G1 X294.761 Y-219.807
N405 G3 X294.508 Y-220. I-0.053 J-0.193
N410 G1 Z-18.1 F100.
N415 X294.492 F250.
N420 G2 X296.413 I0.96 J0.
N425 X292.587 I-1.913 J0.
N430 X296.413 I1.913 J0.
N435 G1 Z5.
N440 X467.508
N445 Z-3.62 F100.
N450 X467.492 F250.
N455 G2 X469.413 I0.96 J0.
N460 X465.587 I-1.913 J0.
N465 X469.413 I1.913 J0.
N470 X469.159 Y-220.193 I-0.2 J0.
N475 G1 X467.761 Y-219.807
N480 G3 X467.508 Y-220. I-0.053 J-0.193
N485 G1 Z-7.24 F100.
N490 X467.492 F250.
N495 G2 X469.413 I0.96 J0.
N500 X465.587 I-1.913 J0.
N505 X469.413 I1.913 J0.
N510 X469.159 Y-220.193 I-0.2 J0.
N515 G1 X467.761 Y-219.807
N520 G3 X467.508 Y-220. I-0.053 J-0.193
N525 G1 Z-10.86 F100.
N530 X467.492 F250.
N535 G2 X469.413 I0.96 J0.
N540 X465.587 I-1.913 J0.
N545 X469.413 I1.913 J0.
N550 X469.159 Y-220.193 I-0.2 J0.
N555 G1 X467.761 Y-219.807
N560 G3 X467.508 Y-220. I-0.053 J-0.193
N565 G1 Z-14.48 F100.
N570 X467.492 F250.
N575 G2 X469.413 I0.96 J0.
N580 X465.587 I-1.913 J0.
N585 X469.413 I1.913 J0.
N590 X469.159 Y-220.193 I-0.2 J0.
N595 G1 X467.761 Y-219.807
N600 G3 X467.508 Y-220. I-0.053 J-0.193
N605 G1 Z-18.1 F100.
N610 X467.492 F250.
N615 G2 X469.413 I0.96 J0.
N620 X465.587 I-1.913 J0.
N625 X469.413 I1.913 J0.
N630 G1 Z5.
N635 X34.507
N640 Z-3.62 F100.
N645 X34.493 F250.
N650 G2 X36.412 I0.96 J0.
N655 X32.588 I-1.912 J0.
N660 X36.412 I1.912 J0.
N665 X36.159 Y-220.193 I-0.2 J0.
N670 G1 X34.761 Y-219.807
N675 G3 X34.507 Y-220. I-0.053 J-0.193
N680 G1 Z-7.24 F100.
N685 X34.493 F250.
N690 G2 X36.412 I0.96 J0.
N695 X32.588 I-1.912 J0.
N700 X36.412 I1.912 J0.
N705 X36.159 Y-220.193 I-0.2 J0.
N710 G1 X34.761 Y-219.807
N715 G3 X34.507 Y-220. I-0.053 J-0.193
N720 G1 Z-10.86 F100.
N725 X34.493 F250.
N730 G2 X36.412 I0.96 J0.
N735 X32.588 I-1.912 J0.
N740 X36.412 I1.912 J0.
N745 X36.159 Y-220.193 I-0.2 J0.
N750 G1 X34.761 Y-219.807
N755 G3 X34.507 Y-220. I-0.053 J-0.193
N760 G1 Z-14.48 F100.
N765 X34.493 F250.
N770 G2 X36.412 I0.96 J0.
N775 X32.588 I-1.912 J0.
N780 X36.412 I1.912 J0.
N785 X36.159 Y-220.193 I-0.2 J0.
N790 G1 X34.761 Y-219.807
N795 G3 X34.507 Y-220. I-0.053 J-0.193
N800 G1 Z-18.1 F100.
N805 X34.493 F250.
N810 G2 X36.412 I0.96 J0.
N815 X32.588 I-1.912 J0.
N820 X36.412 I1.912 J0.
N825 G1 Z15.
(WHEN USING FUSION 360 FOR PERSONAL USE, THE FEEDRATE OF)
(RAPID MOVES IS REDUCED TO MATCH THE FEEDRATE OF CUTTING)
(MOVES, WHICH CAN INCREASE MACHINING TIME. UNRESTRICTED RAPID)
(MOVES ARE AVAILABLE WITH A FUSION 360 SUBSCRIPTION.)
(BORE2)
N830 G0 X467.818 Y-221.619
N835 G1 Z15. F250.
N840 Z2.
N845 Z0.317 F150.
N850 G19 G2 Y-221.936 Z0. J-0.318 K0.
N855 G1 Y-222.095
N860 G17 G2 X467.5 Y-222.413 I-0.318 J0.
N865 Y-217.587 Z-0.705 I0. J2.413 F250.
N870 Y-222.413 Z-1.411 I0. J-2.413
N875 Y-217.587 Z-2.116 I0. J2.413
N880 Y-222.413 Z-2.821 I0. J-2.413
N885 Y-217.587 Z-3.527 I0. J2.413
N890 Y-222.413 Z-4.232 I0. J-2.413
N895 Y-217.587 Z-4.937 I0. J2.413
N900 Y-222.413 Z-5.642 I0. J-2.413
N905 Y-217.587 Z-6.348 I0. J2.413
N910 Y-222.413 Z-7.053 I0. J-2.413
N915 Y-217.587 Z-7.758 I0. J2.413
N920 Y-222.413 Z-8.464 I0. J-2.413
N925 Y-217.587 Z-9.169 I0. J2.413
N930 Y-222.413 Z-9.874 I0. J-2.413
N935 Y-217.587 Z-10.58 I0. J2.413
N940 Y-222.413 Z-11.285 I0. J-2.413
N945 Y-217.587 Z-11.99 I0. J2.413
N950 Y-222.413 Z-12.696 I0. J-2.413
N955 Y-217.587 Z-13.401 I0. J2.413
N960 Y-222.413 Z-14.106 I0. J-2.413
N965 Y-217.587 Z-14.811 I0. J2.413
N970 Y-222.413 Z-15.517 I0. J-2.413
N975 Y-217.587 Z-16.222 I0. J2.413
N980 Y-222.413 Z-16.927 I0. J-2.413
N985 Y-217.587 Z-17.633 I0. J2.413
N990 X469.907 Y-220.157 Z-18. I0. J-2.413
N995 X465.093 Y-219.843 I-2.407 J0.157
N1000 X469.907 Y-220.157 I2.407 J-0.157
N1005 X469.57 Y-220.453 I-0.317 J0.021 F150.
N1010 G1 X469.411 Y-220.443
N1015 X469.341 Y-220.438 Z-17.992
N1020 X469.274 Y-220.434 Z-17.969
N1025 X469.214 Y-220.43 Z-17.931
N1030 X469.164 Y-220.427 Z-17.88
N1035 X469.126 Y-220.424 Z-17.82
N1040 X469.103 Y-220.423 Z-17.753
N1045 X469.095 Y-220.422 Z-17.683
N1050 Z5. F250.
N1055 X294.818 Y-221.619
N1060 Z2.
N1065 Z0.317 F150.
N1070 G19 G2 Y-221.936 Z0. J-0.318 K0.
N1075 G1 Y-222.095
N1080 G17 G2 X294.5 Y-222.413 I-0.318 J0.
N1085 Y-217.587 Z-0.705 I0. J2.413 F250.
N1090 Y-222.413 Z-1.411 I0. J-2.413
N1095 Y-217.587 Z-2.116 I0. J2.413
N1100 Y-222.413 Z-2.821 I0. J-2.413
N1105 Y-217.587 Z-3.527 I0. J2.413
N1110 Y-222.413 Z-4.232 I0. J-2.413
N1115 Y-217.587 Z-4.937 I0. J2.413
N1120 Y-222.413 Z-5.642 I0. J-2.413
N1125 Y-217.587 Z-6.348 I0. J2.413
N1130 Y-222.413 Z-7.053 I0. J-2.413
N1135 Y-217.587 Z-7.758 I0. J2.413
N1140 Y-222.413 Z-8.464 I0. J-2.413
N1145 Y-217.587 Z-9.169 I0. J2.413
N1150 Y-222.413 Z-9.874 I0. J-2.413
N1155 Y-217.587 Z-10.58 I0. J2.413
N1160 Y-222.413 Z-11.285 I0. J-2.413
N1165 Y-217.587 Z-11.99 I0. J2.413
N1170 Y-222.413 Z-12.696 I0. J-2.413
N1175 Y-217.587 Z-13.401 I0. J2.413
N1180 Y-222.413 Z-14.106 I0. J-2.413
N1185 Y-217.587 Z-14.811 I0. J2.413
N1190 Y-222.413 Z-15.517 I0. J-2.413
N1195 Y-217.587 Z-16.222 I0. J2.413
N1200 Y-222.413 Z-16.927 I0. J-2.413
N1205 Y-217.587 Z-17.633 I0. J2.413
N1210 X296.907 Y-220.157 Z-18. I0. J-2.413
N1215 X292.093 Y-219.843 I-2.407 J0.157
N1220 X296.907 Y-220.157 I2.407 J-0.157
N1225 X296.57 Y-220.453 I-0.317 J0.021 F150.
N1230 G1 X296.411 Y-220.443
N1235 X296.341 Y-220.438 Z-17.992
N1240 X296.274 Y-220.434 Z-17.969
N1245 X296.214 Y-220.43 Z-17.931
N1250 X296.164 Y-220.427 Z-17.88
N1255 X296.126 Y-220.424 Z-17.82
N1260 X296.103 Y-220.423 Z-17.753
N1265 X296.095 Y-220.422 Z-17.683
N1270 Z5. F250.
N1275 X207.818 Y-221.619
N1280 Z2.
N1285 Z0.317 F150.
N1290 G19 G2 Y-221.936 Z0. J-0.318 K0.
N1295 G1 Y-222.095
N1300 G17 G2 X207.5 Y-222.413 I-0.318 J0.
N1305 Y-217.587 Z-0.705 I0. J2.413 F250.
N1310 Y-222.413 Z-1.411 I0. J-2.413
N1315 Y-217.587 Z-2.116 I0. J2.413
N1320 Y-222.413 Z-2.821 I0. J-2.413
N1325 Y-217.587 Z-3.527 I0. J2.413
N1330 Y-222.413 Z-4.232 I0. J-2.413
N1335 Y-217.587 Z-4.937 I0. J2.413
N1340 Y-222.413 Z-5.642 I0. J-2.413
N1345 Y-217.587 Z-6.348 I0. J2.413
N1350 Y-222.413 Z-7.053 I0. J-2.413
N1355 Y-217.587 Z-7.758 I0. J2.413
N1360 Y-222.413 Z-8.464 I0. J-2.413
N1365 Y-217.587 Z-9.169 I0. J2.413
N1370 Y-222.413 Z-9.874 I0. J-2.413
N1375 Y-217.587 Z-10.58 I0. J2.413
N1380 Y-222.413 Z-11.285 I0. J-2.413
N1385 Y-217.588 Z-11.99 I0. J2.413
N1390 Y-222.412 Z-12.696 I0. J-2.412
N1395 Y-217.588 Z-13.401 I0. J2.412
N1400 Y-222.412 Z-14.106 I0. J-2.412
N1405 Y-217.588 Z-14.811 I0. J2.412
N1410 Y-222.412 Z-15.517 I0. J-2.412
N1415 Y-217.588 Z-16.222 I0. J2.412
N1420 Y-222.412 Z-16.927 I0. J-2.412
N1425 Y-217.588 Z-17.633 I0. J2.412
N1430 X209.907 Y-220.157 Z-18. I0. J-2.412
N1435 X205.093 Y-219.843 I-2.407 J0.157
N1440 X209.907 Y-220.157 I2.407 J-0.157
N1445 X209.57 Y-220.453 I-0.317 J0.021 F150.
N1450 G1 X209.411 Y-220.443
N1455 X209.341 Y-220.438 Z-17.992
N1460 X209.274 Y-220.434 Z-17.969
N1465 X209.214 Y-220.43 Z-17.931
N1470 X209.164 Y-220.427 Z-17.88
N1475 X209.126 Y-220.424 Z-17.82
N1480 X209.103 Y-220.423 Z-17.753
N1485 X209.095 Y-220.422 Z-17.683
N1490 Z5. F250.
N1495 X34.818 Y-221.619
N1500 Z2.
N1505 Z0.317 F150.
N1510 G19 G2 Y-221.936 Z0. J-0.318 K0.
N1515 G1 Y-222.095
N1520 G17 G2 X34.5 Y-222.413 I-0.318 J0.
N1525 Y-217.587 Z-0.705 I0. J2.413 F250.
N1530 Y-222.413 Z-1.411 I0. J-2.413
N1535 Y-217.587 Z-2.116 I0. J2.413
N1540 Y-222.413 Z-2.821 I0. J-2.413
N1545 Y-217.587 Z-3.527 I0. J2.413
N1550 Y-222.413 Z-4.232 I0. J-2.413
N1555 Y-217.587 Z-4.937 I0. J2.413
N1560 Y-222.413 Z-5.642 I0. J-2.413
N1565 Y-217.587 Z-6.348 I0. J2.413
N1570 Y-222.413 Z-7.053 I0. J-2.413
N1575 Y-217.587 Z-7.758 I0. J2.413
N1580 Y-222.413 Z-8.464 I0. J-2.413
N1585 Y-217.587 Z-9.169 I0. J2.413
N1590 Y-222.413 Z-9.874 I0. J-2.413
N1595 Y-217.587 Z-10.58 I0. J2.413
N1600 Y-222.413 Z-11.285 I0. J-2.413
N1605 Y-217.587 Z-11.99 I0. J2.413
N1610 Y-222.413 Z-12.696 I0. J-2.413
N1615 Y-217.587 Z-13.401 I0. J2.413
N1620 Y-222.413 Z-14.106 I0. J-2.413
N1625 Y-217.587 Z-14.811 I0. J2.413
N1630 Y-222.413 Z-15.517 I0. J-2.413
N1635 Y-217.587 Z-16.222 I0. J2.413
N1640 Y-222.413 Z-16.927 I0. J-2.413
N1645 Y-217.587 Z-17.633 I0. J2.413
N1650 X36.907 Y-220.157 Z-18. I0. J-2.413
N1655 X32.093 Y-219.843 I-2.407 J0.157
N1660 X36.907 Y-220.157 I2.407 J-0.157
N1665 X36.57 Y-220.453 I-0.317 J0.021 F150.
N1670 G1 X36.411 Y-220.443
N1675 X36.341 Y-220.438 Z-17.992
N1680 X36.274 Y-220.434 Z-17.969
N1685 X36.214 Y-220.43 Z-17.931
N1690 X36.164 Y-220.427 Z-17.88
N1695 X36.126 Y-220.424 Z-17.82
N1700 X36.103 Y-220.423 Z-17.753
N1705 X36.095 Y-220.422 Z-17.683
N1710 Z15. F250.
(WHEN USING FUSION 360 FOR PERSONAL USE, THE FEEDRATE OF)
(RAPID MOVES IS REDUCED TO MATCH THE FEEDRATE OF CUTTING)
(MOVES, WHICH CAN INCREASE MACHINING TIME. UNRESTRICTED RAPID)
(MOVES ARE AVAILABLE WITH A FUSION 360 SUBSCRIPTION.)
(2D CONTOUR1 2)
N1715 G0 X511.788 Y-223.
N1720 G1 Z15. F1000.
N1725 Z5.
N1730 Z-0.64 F100.
N1735 G18 G3 X508.788 Z-3.64 I-3. K0. F250.
N1740 G1 X505.788
N1745 G17 G2 X502.788 Y-220. I0. J3.
N1750 G1 Y-121. F1000.
N1755 G3 X259.212 I-121.788 J0.
N1760 G1 Y-319.
N1765 G3 X502.788 I121.788 J0.
N1770 G1 Y-220.
N1775 Y-210. F250.
N1780 G2 X505.788 Y-207. I3. J0.
N1785 G1 X508.788
N1790 G18 G2 X511.788 Z-0.64 I0. K3.
N1795 G1 Z5. F1000.
N1800 Y-223.
N1805 Z-4.28 F100.
N1810 G3 X508.788 Z-7.28 I-3. K0. F250.
N1815 G1 X505.788
N1820 G17 G2 X502.788 Y-220. I0. J3.
N1825 G1 Y-121. F1000.
N1830 G3 X259.212 I-121.788 J0.
N1835 G1 Y-319.
N1840 G3 X502.788 I121.788 J0.
N1845 G1 Y-220.
N1850 Y-210. F250.
N1855 G2 X505.788 Y-207. I3. J0.
N1860 G1 X508.788
N1865 G18 G2 X511.788 Z-4.28 I0. K3.
N1870 G1 Z5. F1000.
N1875 Y-223.
N1880 Z-7.92 F100.
N1885 G3 X508.788 Z-10.92 I-3. K0. F250.
N1890 G1 X505.788
N1895 G17 G2 X502.788 Y-220. I0. J3.
N1900 G1 Y-121. F1000.
N1905 G3 X259.212 I-121.788 J0.
N1910 G1 Y-319.
N1915 G3 X502.788 I121.788 J0.
N1920 G1 Y-220.
N1925 Y-210. F250.
N1930 G2 X505.788 Y-207. I3. J0.
N1935 G1 X508.788
N1940 G18 G2 X511.788 Z-7.92 I0. K3.
N1945 G1 Z5. F1000.
N1950 Y-223.
N1955 Z-11.56 F100.
N1960 G3 X508.788 Z-14.56 I-3. K0. F250.
N1965 G1 X505.788
N1970 G17 G2 X502.788 Y-220. I0. J3.
N1975 G1 Y-121. F1000.
N1980 G3 X259.212 I-121.788 J0.
N1985 G1 Y-319.
N1990 G3 X502.788 I121.788 J0.
N1995 G1 Y-220.
N2000 Y-210. F250.
N2005 G2 X505.788 Y-207. I3. J0.
N2010 G1 X508.788
N2015 G18 G2 X511.788 Z-11.56 I0. K3.
N2020 G1 Z5. F1000.
N2025 Y-223.
N2030 Z-15.2 F100.
N2035 G3 X508.788 Z-18.2 I-3. K0. F250.
N2040 G1 X505.788
N2045 G17 G2 X502.788 Y-220. I0. J3.
N2050 G1 Y-121. F1000.
N2055 G3 X259.212 I-121.788 J0.
N2060 G1 Y-319.
N2065 G3 X502.788 I121.788 J0.
N2070 G1 Y-220.
N2075 Y-210. F250.
N2080 G2 X505.788 Y-207. I3. J0.
N2085 G1 X508.788
N2090 G18 G2 X511.788 Z-15.2 I0. K3.
N2095 G1 Z5. F1000.
N2100 X251.788 Y-322.
N2105 Z-0.64 F100.
N2110 G3 X248.788 Z-3.64 I-3. K0. F250.
N2115 G1 X245.788
N2120 G17 G2 X242.788 Y-319. I0. J3.
N2125 G1 Y-121. F1000.
N2130 G3 X-0.788 I-121.788 J0.
N2135 G1 Y-319.
N2140 G3 X242.788 I121.788 J0.
N2145 G1 Y-309. F250.
N2150 G2 X245.788 Y-306. I3. J0.
N2155 G1 X248.788
N2160 G18 G2 X251.788 Z-0.64 I0. K3.
N2165 G1 Z5. F1000.
N2170 Y-322.
N2175 Z-4.28 F100.
N2180 G3 X248.788 Z-7.28 I-3. K0. F250.
N2185 G1 X245.788
N2190 G17 G2 X242.788 Y-319. I0. J3.
N2195 G1 Y-121. F1000.
N2200 G3 X-0.788 I-121.788 J0.
N2205 G1 Y-319.
N2210 G3 X242.788 I121.788 J0.
N2215 G1 Y-309. F250.
N2220 G2 X245.788 Y-306. I3. J0.
N2225 G1 X248.788
N2230 G18 G2 X251.788 Z-4.28 I0. K3.
N2235 G1 Z5. F1000.
N2240 Y-322.
N2245 Z-7.92 F100.
N2250 G3 X248.788 Z-10.92 I-3. K0. F250.
N2255 G1 X245.788
N2260 G17 G2 X242.788 Y-319. I0. J3.
N2265 G1 Y-121. F1000.
N2270 G3 X-0.788 I-121.788 J0.
N2275 G1 Y-319.
N2280 G3 X242.788 I121.788 J0.
N2285 G1 Y-309. F250.
N2290 G2 X245.788 Y-306. I3. J0.
N2295 G1 X248.788
N2300 G18 G2 X251.788 Z-7.92 I0. K3.
N2305 G1 Z5. F1000.
N2310 Y-322.
N2315 Z-11.56 F100.
N2320 G3 X248.788 Z-14.56 I-3. K0. F250.
N2325 G1 X245.788
N2330 G17 G2 X242.788 Y-319. I0. J3.
N2335 G1 Y-121. F1000.
N2340 G3 X-0.788 I-121.788 J0.
N2345 G1 Y-319.
N2350 G3 X242.788 I121.788 J0.
N2355 G1 Y-309. F250.
N2360 G2 X245.788 Y-306. I3. J0.
N2365 G1 X248.788
N2370 G18 G2 X251.788 Z-11.56 I0. K3.
N2375 G1 Z5. F1000.
N2380 Y-322.
N2385 Z-15.2 F100.
N2390 G3 X248.788 Z-18.2 I-3. K0. F250.
N2395 G1 X245.788
N2400 G17 G2 X242.788 Y-319. I0. J3.
N2405 G1 Y-121. F1000.
N2410 G3 X-0.788 I-121.788 J0.
N2415 G1 Y-319.
N2420 G3 X242.788 I121.788 J0.
N2425 G1 Y-309. F250.
N2430 G2 X245.788 Y-306. I3. J0.
N2435 G1 X248.788
N2440 G18 G2 X251.788 Z-15.2 I0. K3.
N2445 G1 Z15. F1000.
N2450 G17
(WHEN USING FUSION 360 FOR PERSONAL USE, THE FEEDRATE OF)
(RAPID MOVES IS REDUCED TO MATCH THE FEEDRATE OF CUTTING)
(MOVES, WHICH CAN INCREASE MACHINING TIME. UNRESTRICTED RAPID)
(MOVES ARE AVAILABLE WITH A FUSION 360 SUBSCRIPTION.)
(2D CONTOUR1 3)
N2455 G0 X251.587 Y-322.
N2460 G1 Z15. F750.
N2465 Z5.
N2470 Z-2. F100.
N2475 G18 G3 X248.587 Z-5. I-3. K0. F150.
N2480 G1 X245.587
N2485 G17 G2 X242.587 Y-319. I0. J3.
N2490 G1 Y-121. F750.
N2495 G3 X-0.587 I-121.587 J0.
N2500 G1 Y-319.
N2505 G3 X242.587 I121.587 J0.
N2510 G1 Y-309. F150.
N2515 G2 X245.587 Y-306. I3. J0.
N2520 G1 X248.587
N2525 G18 G2 X251.587 Z-2. I0. K3.
N2530 G1 Z5. F750.
N2535 X511.587 Y-223.
N2540 Z-2. F100.
N2545 G3 X508.587 Z-5. I-3. K0. F150.
N2550 G1 X505.587
N2555 G17 G2 X502.587 Y-220. I0. J3.
N2560 G1 Y-121. F750.
N2565 G3 X259.413 I-121.587 J0.
N2570 G1 Y-319.
N2575 G3 X502.587 I121.587 J0.
N2580 G1 Y-220.
N2585 Y-210. F150.
N2590 G2 X505.587 Y-207. I3. J0.
N2595 G1 X508.587
N2600 G18 G2 X511.587 Z-2. I0. K3.
N2605 G1 Z5. F750.
N2610 Y-223.
N2615 Z-7. F100.
N2620 G3 X508.587 Z-10. I-3. K0. F150.
N2625 G1 X505.587
N2630 G17 G2 X502.587 Y-220. I0. J3.
N2635 G1 Y-121. F750.
N2640 G3 X259.413 I-121.587 J0.
N2645 G1 Y-319.
N2650 G3 X502.587 I121.587 J0.
N2655 G1 Y-220.
N2660 Y-210. F150.
N2665 G2 X505.587 Y-207. I3. J0.
N2670 G1 X508.587
N2675 G18 G2 X511.587 Z-7. I0. K3.
N2680 G1 Z5. F750.
N2685 Y-223.
N2690 Z-12. F100.
N2695 G3 X508.587 Z-15. I-3. K0. F150.
N2700 G1 X505.587
N2705 G17 G2 X502.587 Y-220. I0. J3.
N2710 G1 Y-121. F750.
N2715 G3 X259.413 I-121.587 J0.
N2720 G1 Y-319.
N2725 G3 X502.587 I121.587 J0.
N2730 G1 Y-220.
N2735 Y-210. F150.
N2740 G2 X505.587 Y-207. I3. J0.
N2745 G1 X508.587
N2750 G18 G2 X511.587 Z-12. I0. K3.
N2755 G1 Z5. F750.
N2760 Y-223.
N2765 Z-15.2 F100.
N2770 G3 X508.587 Z-18.2 I-3. K0. F150.
N2775 G1 X505.587
N2780 G17 G2 X502.587 Y-220. I0. J3.
N2785 G1 Y-121. F750.
N2790 G3 X259.413 I-121.587 J0.
N2795 G1 Y-319.
N2800 G3 X502.587 I121.587 J0.
N2805 G1 Y-220.
N2810 Y-210. F150.
N2815 G2 X505.587 Y-207. I3. J0.
N2820 G1 X508.587
N2825 G18 G2 X511.587 Z-15.2 I0. K3.
N2830 G1 Z5. F750.
N2835 X251.587 Y-322.
N2840 Z-7. F100.
N2845 G3 X248.587 Z-10. I-3. K0. F150.
N2850 G1 X245.587
N2855 G17 G2 X242.587 Y-319. I0. J3.
N2860 G1 Y-121. F750.
N2865 G3 X-0.587 I-121.587 J0.
N2870 G1 Y-319.
N2875 G3 X242.587 I121.587 J0.
N2880 G1 Y-309. F150.
N2885 G2 X245.587 Y-306. I3. J0.
N2890 G1 X248.587
N2895 G18 G2 X251.587 Z-7. I0. K3.
N2900 G1 Z5. F750.
N2905 Y-322.
N2910 Z-12. F100.
N2915 G3 X248.587 Z-15. I-3. K0. F150.
N2920 G1 X245.587
N2925 G17 G2 X242.587 Y-319. I0. J3.
N2930 G1 Y-121. F750.
N2935 G3 X-0.587 I-121.587 J0.
N2940 G1 Y-319.
N2945 G3 X242.587 I121.587 J0.
N2950 G1 Y-309. F150.
N2955 G2 X245.587 Y-306. I3. J0.
N2960 G1 X248.587
N2965 G18 G2 X251.587 Z-12. I0. K3.
N2970 G1 Z5. F750.
N2975 Y-322.
N2980 Z-15.2 F100.
N2985 G3 X248.587 Z-18.2 I-3. K0. F150.
N2990 G1 X245.587
N2995 G17 G2 X242.587 Y-319. I0. J3.
N3000 G1 Y-121. F750.
N3005 G3 X-0.587 I-121.587 J0.
N3010 G1 Y-319.
N3015 G3 X242.587 I121.587 J0.
N3020 G1 Y-309. F150.
N3025 G2 X245.587 Y-306. I3. J0.
N3030 G1 X248.587
N3035 G18 G2 X251.587 Z-15.2 I0. K3.
N3040 G1 Z15. F750.
N3045 G17
N3050 G53 G0 Z0.
N3055 G53 G0 X0. Y0.
N3060 M30
%
