(Exported by FreeCAD)
(Post Processor: linuxcnc_post)
(Output Time:2021-07-27 15:40:32.554776)
(begin preamble)
G17 G54 G40 G49 G80 G90
G21
(begin operation: T1: 6mm end mill001)
(machine: not set, mm/min)
(T1: 6mm end mill001)
M6 T1
M3 S12000
(finish operation: T1: 6mm end mill001)
(begin operation: Profile_Edges)
(machine: not set, mm/min)
(Profile_Edges)
(Compensated Tool Path. Diameter: 6.0)
G0 Z10.000
G0 X63.089 Y425.274
G0 Z5.000
G1 X63.089 Y425.274 Z-10.000 F60.000
G1 X61.314 Y427.048 Z-10.000 F600.000
G1 X18.884 Y384.618 Z-10.000 F600.000
G1 X22.434 Y381.069 Z-10.000 F600.000
G1 X64.864 Y423.499 Z-10.000 F600.000
G1 X63.089 Y425.274 Z-10.000 F600.000
G1 X63.089 Y425.274 Z-20.000 F60.000
G1 X61.314 Y427.048 Z-20.000 F600.000
G1 X18.884 Y384.618 Z-20.000 F600.000
G1 X22.434 Y381.069 Z-20.000 F600.000
G1 X64.864 Y423.499 Z-20.000 F600.000
G1 X63.089 Y425.274 Z-20.000 F600.000
G1 X63.089 Y425.274 Z-25.500 F60.000
G1 X61.314 Y427.048 Z-25.500 F600.000
G1 X18.884 Y384.618 Z-25.500 F600.000
G1 X22.434 Y381.069 Z-25.500 F600.000
G1 X64.864 Y423.499 Z-25.500 F600.000
G1 X63.089 Y425.274 Z-25.500 F600.000
G0 Z10.000
G0 X63.056 Y385.318
G0 Z5.000
G1 X63.056 Y385.318 Z-10.000 F60.000
G1 X61.281 Y387.093 Z-10.000 F600.000
G1 X18.851 Y344.663 Z-10.000 F600.000
G1 X22.400 Y341.113 Z-10.000 F600.000
G1 X64.830 Y383.543 Z-10.000 F600.000
G1 X63.056 Y385.318 Z-10.000 F600.000
G1 X63.056 Y385.318 Z-20.000 F60.000
G1 X61.281 Y387.093 Z-20.000 F600.000
G1 X18.851 Y344.663 Z-20.000 F600.000
G1 X22.400 Y341.113 Z-20.000 F600.000
G1 X64.830 Y383.543 Z-20.000 F600.000
G1 X63.056 Y385.318 Z-20.000 F600.000
G1 X63.056 Y385.318 Z-25.500 F60.000
G1 X61.281 Y387.093 Z-25.500 F600.000
G1 X18.851 Y344.663 Z-25.500 F600.000
G1 X22.400 Y341.113 Z-25.500 F600.000
G1 X64.830 Y383.543 Z-25.500 F600.000
G1 X63.056 Y385.318 Z-25.500 F600.000
G0 Z10.000
G0 X63.023 Y345.280
G0 Z5.000
G1 X63.023 Y345.280 Z-10.000 F60.000
G1 X61.248 Y347.055 Z-10.000 F600.000
G1 X18.818 Y304.625 Z-10.000 F600.000
G1 X22.367 Y301.075 Z-10.000 F600.000
G1 X64.797 Y343.505 Z-10.000 F600.000
G1 X63.023 Y345.280 Z-10.000 F600.000
G1 X63.023 Y345.280 Z-20.000 F60.000
G1 X61.248 Y347.055 Z-20.000 F600.000
G1 X18.818 Y304.625 Z-20.000 F600.000
G1 X22.367 Y301.075 Z-20.000 F600.000
G1 X64.797 Y343.505 Z-20.000 F600.000
G1 X63.023 Y345.280 Z-20.000 F600.000
G1 X63.023 Y345.280 Z-25.500 F60.000
G1 X61.248 Y347.055 Z-25.500 F600.000
G1 X18.818 Y304.625 Z-25.500 F600.000
G1 X22.367 Y301.075 Z-25.500 F600.000
G1 X64.797 Y343.505 Z-25.500 F600.000
G1 X63.023 Y345.280 Z-25.500 F600.000
G0 Z10.000
G0 X62.993 Y305.293
G0 Z5.000
G1 X62.993 Y305.293 Z-10.000 F60.000
G1 X61.218 Y307.067 Z-10.000 F600.000
G1 X18.788 Y264.637 Z-10.000 F600.000
G1 X22.338 Y261.088 Z-10.000 F600.000
G1 X64.768 Y303.518 Z-10.000 F600.000
G1 X62.993 Y305.293 Z-10.000 F600.000
G1 X62.993 Y305.293 Z-20.000 F60.000
G1 X61.218 Y307.067 Z-20.000 F600.000
G1 X18.788 Y264.637 Z-20.000 F600.000
G1 X22.338 Y261.088 Z-20.000 F600.000
G1 X64.768 Y303.518 Z-20.000 F600.000
G1 X62.993 Y305.293 Z-20.000 F600.000
G1 X62.993 Y305.293 Z-25.500 F60.000
G1 X61.218 Y307.067 Z-25.500 F600.000
G1 X18.788 Y264.637 Z-25.500 F600.000
G1 X22.338 Y261.088 Z-25.500 F600.000
G1 X64.768 Y303.518 Z-25.500 F600.000
G1 X62.993 Y305.293 Z-25.500 F600.000
G0 Z10.000
G0 X62.978 Y265.306
G0 Z5.000
G1 X62.978 Y265.306 Z-10.000 F60.000
G1 X61.204 Y267.081 Z-10.000 F600.000
G1 X18.774 Y224.651 Z-10.000 F600.000
G1 X22.323 Y221.102 Z-10.000 F600.000
G1 X64.753 Y263.532 Z-10.000 F600.000
G1 X62.978 Y265.306 Z-10.000 F600.000
G1 X62.978 Y265.306 Z-20.000 F60.000
G1 X61.204 Y267.081 Z-20.000 F600.000
G1 X18.774 Y224.651 Z-20.000 F600.000
G1 X22.323 Y221.102 Z-20.000 F600.000
G1 X64.753 Y263.532 Z-20.000 F600.000
G1 X62.978 Y265.306 Z-20.000 F600.000
G1 X62.978 Y265.306 Z-25.500 F60.000
G1 X61.204 Y267.081 Z-25.500 F600.000
G1 X18.774 Y224.651 Z-25.500 F600.000
G1 X22.323 Y221.102 Z-25.500 F600.000
G1 X64.753 Y263.532 Z-25.500 F600.000
G1 X62.978 Y265.306 Z-25.500 F600.000
G0 Z10.000
G0 X62.963 Y225.337
G0 Z5.000
G1 X62.963 Y225.337 Z-10.000 F60.000
G1 X61.188 Y227.111 Z-10.000 F600.000
G1 X18.758 Y184.681 Z-10.000 F600.000
G1 X22.307 Y181.132 Z-10.000 F600.000
G1 X64.737 Y223.562 Z-10.000 F600.000
G1 X62.963 Y225.337 Z-10.000 F600.000
G1 X62.963 Y225.337 Z-20.000 F60.000
G1 X61.188 Y227.111 Z-20.000 F600.000
G1 X18.758 Y184.681 Z-20.000 F600.000
G1 X22.307 Y181.132 Z-20.000 F600.000
G1 X64.737 Y223.562 Z-20.000 F600.000
G1 X62.963 Y225.337 Z-20.000 F600.000
G1 X62.963 Y225.337 Z-25.500 F60.000
G1 X61.188 Y227.111 Z-25.500 F600.000
G1 X18.758 Y184.681 Z-25.500 F600.000
G1 X22.307 Y181.132 Z-25.500 F600.000
G1 X64.737 Y223.562 Z-25.500 F600.000
G1 X62.963 Y225.337 Z-25.500 F600.000
G0 Z10.000
G0 X62.941 Y185.305
G0 Z5.000
G1 X62.941 Y185.305 Z-10.000 F60.000
G1 X61.167 Y187.079 Z-10.000 F600.000
G1 X18.737 Y144.649 Z-10.000 F600.000
G1 X22.286 Y141.100 Z-10.000 F600.000
G1 X64.716 Y183.530 Z-10.000 F600.000
G1 X62.941 Y185.305 Z-10.000 F600.000
G1 X62.941 Y185.305 Z-20.000 F60.000
G1 X61.167 Y187.079 Z-20.000 F600.000
G1 X18.737 Y144.649 Z-20.000 F600.000
G1 X22.286 Y141.100 Z-20.000 F600.000
G1 X64.716 Y183.530 Z-20.000 F600.000
G1 X62.941 Y185.305 Z-20.000 F600.000
G1 X62.941 Y185.305 Z-25.500 F60.000
G1 X61.167 Y187.079 Z-25.500 F600.000
G1 X18.737 Y144.649 Z-25.500 F600.000
G1 X22.286 Y141.100 Z-25.500 F600.000
G1 X64.716 Y183.530 Z-25.500 F600.000
G1 X62.941 Y185.305 Z-25.500 F600.000
G0 Z10.000
G0 X62.960 Y145.268
G0 Z5.000
G1 X62.960 Y145.268 Z-10.000 F60.000
G1 X61.185 Y147.043 Z-10.000 F600.000
G1 X18.755 Y104.613 Z-10.000 F600.000
G1 X22.305 Y101.063 Z-10.000 F600.000
G1 X64.735 Y143.493 Z-10.000 F600.000
G1 X62.960 Y145.268 Z-10.000 F600.000
G1 X62.960 Y145.268 Z-20.000 F60.000
G1 X61.185 Y147.043 Z-20.000 F600.000
G1 X18.755 Y104.613 Z-20.000 F600.000
G1 X22.305 Y101.063 Z-20.000 F600.000
G1 X64.735 Y143.493 Z-20.000 F600.000
G1 X62.960 Y145.268 Z-20.000 F600.000
G1 X62.960 Y145.268 Z-25.500 F60.000
G1 X61.185 Y147.043 Z-25.500 F600.000
G1 X18.755 Y104.613 Z-25.500 F600.000
G1 X22.305 Y101.063 Z-25.500 F600.000
G1 X64.735 Y143.493 Z-25.500 F600.000
G1 X62.960 Y145.268 Z-25.500 F600.000
G0 Z10.000
G0 X62.943 Y105.218
G0 Z5.000
G1 X62.943 Y105.218 Z-10.000 F60.000
G1 X61.168 Y106.993 Z-10.000 F600.000
G1 X18.738 Y64.563 Z-10.000 F600.000
G1 X22.287 Y61.014 Z-10.000 F600.000
G1 X64.717 Y103.444 Z-10.000 F600.000
G1 X62.943 Y105.218 Z-10.000 F600.000
G1 X62.943 Y105.218 Z-20.000 F60.000
G1 X61.168 Y106.993 Z-20.000 F600.000
G1 X18.738 Y64.563 Z-20.000 F600.000
G1 X22.287 Y61.014 Z-20.000 F600.000
G1 X64.717 Y103.444 Z-20.000 F600.000
G1 X62.943 Y105.218 Z-20.000 F600.000
G1 X62.943 Y105.218 Z-25.500 F60.000
G1 X61.168 Y106.993 Z-25.500 F600.000
G1 X18.738 Y64.563 Z-25.500 F600.000
G1 X22.287 Y61.014 Z-25.500 F600.000
G1 X64.717 Y103.444 Z-25.500 F600.000
G1 X62.943 Y105.218 Z-25.500 F600.000
G0 Z10.000
G0 X62.912 Y65.169
G0 Z5.000
G1 X62.912 Y65.169 Z-10.000 F60.000
G1 X61.137 Y66.943 Z-10.000 F600.000
G1 X18.707 Y24.513 Z-10.000 F600.000
G1 X22.257 Y20.964 Z-10.000 F600.000
G1 X64.687 Y63.394 Z-10.000 F600.000
G1 X62.912 Y65.169 Z-10.000 F600.000
G1 X62.912 Y65.169 Z-20.000 F60.000
G1 X61.137 Y66.943 Z-20.000 F600.000
G1 X18.707 Y24.513 Z-20.000 F600.000
G1 X22.257 Y20.964 Z-20.000 F600.000
G1 X64.687 Y63.394 Z-20.000 F600.000
G1 X62.912 Y65.169 Z-20.000 F600.000
G1 X62.912 Y65.169 Z-25.500 F60.000
G1 X61.137 Y66.943 Z-25.500 F600.000
G1 X18.707 Y24.513 Z-25.500 F600.000
G1 X22.257 Y20.964 Z-25.500 F600.000
G1 X64.687 Y63.394 Z-25.500 F600.000
G1 X62.912 Y65.169 Z-25.500 F600.000
G0 Z10.000
(finish operation: Profile_Edges)
(begin postamble)
M05
G17 G54 G90 G80 G40
M2
