%
(CIRCLE)
(T1  D=6. CR=0. - ZMIN=-2. - FLAT END MILL)
N10 G90 G94 G17 G91.1
N15 G21
N20 G53 G0 Z0.
(2D POCKET2)
N25 M9
N30 T1 M6
N35 S22000 M3
N40 G54
N45 G0 X317.175 Y258.945
N50 G43 Z15. H1
N55 G0 Z5.
N60 G1 Z3.1 F1000.
N65 X317.179 Y258.972 Z2.918 F100.
N70 X317.191 Y259.053 Z2.754
N75 X317.216 Y259.178 Z2.622
N80 X317.255 Y259.335 Z2.534
N85 X317.31 Y259.507 Z2.5
N90 G2 X322.689 Y257.621 Z2.187 I2.69 J-0.943
N95 X317.31 Y259.507 Z1.875 I-2.69 J0.943
N100 X322.689 Y257.621 Z1.562 I2.69 J-0.943
N105 X317.31 Y259.507 Z1.249 I-2.69 J0.943
N110 X322.689 Y257.621 Z0.937 I2.69 J-0.943
N115 X317.31 Y259.507 Z0.624 I-2.69 J0.943
N120 X322.689 Y257.621 Z0.311 I2.69 J-0.943
N125 X317.31 Y259.507 Z-0.001 I-2.69 J0.943
N130 X322.689 Y257.621 Z-0.314 I2.69 J-0.943
N135 X317.31 Y259.507 Z-0.627 I-2.69 J0.943
N140 X322.689 Y257.621 Z-0.939 I2.69 J-0.943
N145 X317.31 Y259.507 Z-1.252 I-2.69 J0.943
N150 X322.689 Y257.621 Z-1.565 I2.69 J-0.943
N155 X317.31 Y259.507 Z-1.877 I-2.69 J0.943
N160 X319.997 Y261.414 Z-2. I2.69 J-0.943
N165 X320.001 Y256.198 I0.002 J-2.608
N170 X266.507 Y285.284 I-0.054 J63.635 F500.
N175 X275.588 Y365.763 I53.301 J34.737
N180 X355.988 Y372.645 I44.399 J-45.614
N185 X383.115 Y310.884 I-35.937 J-52.623
N190 X344.061 Y260.943 I-63.349 J9.299
N195 X320.001 Y256.198 I-24.114 J58.889
N200 G3 X318. Y254.879 I0.002 J-2.18
N205 G2 X315.96 Y253.623 I-1.914 J0.824
N210 X253.5 Y320. I4.041 J66.377
N215 X386.5 I66.5 J0.
N220 X320. Y253.5 I-66.5 J0.
N225 G1 X319.771
N230 G2 X315.96 Y253.623 I0.23 J66.5
N235 G1 X315.868 Y253.635 Z-1.985 F1000.
N240 X315.779 Y253.662 Z-1.971
N245 X315.703 Y253.698 Z-1.928
N250 X315.634 Y253.743 Z-1.885
N255 X315.583 Y253.786 Z-1.819
N260 X315.537 Y253.835 Z-1.753
N265 X315.487 Y253.903 Z-1.585
N270 X315.472 Y253.929 Z-1.4
N275 G0 Z5.
N280 X310.592 Y381.52
N285 G1 Z1. F1000.
N290 Z-1.4
N295 X310.59 Y381.527 Z-1.494
N300 X310.582 Y381.548 Z-1.585
N305 X310.57 Y381.581 Z-1.672
N310 X310.553 Y381.628 Z-1.753
N315 X310.531 Y381.685 Z-1.824
N320 X310.507 Y381.752 Z-1.885
N325 X310.479 Y381.827 Z-1.935
N330 X310.449 Y381.909 Z-1.971
N335 X310.417 Y381.995 Z-1.993
N340 X310.384 Y382.083 Z-2.
N345 G3 X309.985 Y382.255 I-0.281 J-0.104 F500.
N350 G1 X298.786 Y377.48
N355 G3 X259.895 Y331.687 I21.186 J-57.403
N360 X279.274 Y274.278 I59.838 J-11.777
N365 X380.607 Y311.286 I40.751 J45.654
N370 X358.453 Y367.65 I-60.891 J8.602
N375 X298.786 Y377.48 I-38.481 J-47.573
N380 X297.306 Y375.419 I0.784 J-2.124
N385 G2 X295.901 Y373.306 I-2.39 J0.066
N390 G3 X320. Y261.5 I24.099 J-53.306
N395 G1 X320.186
N400 G3 X378.5 Y320. I-0.186 J58.5
N405 X295.901 Y373.306 I-58.5 J0.
N410 G1 X295.814 Y373.274 Z-1.985 F1000.
N415 X295.723 Y373.256 Z-1.971
N420 X295.639 Y373.252 Z-1.928
N425 X295.556 Y373.26 Z-1.885
N430 X295.491 Y373.275 Z-1.819
N435 X295.429 Y373.296 Z-1.753
N440 X295.352 Y373.333 Z-1.585
N445 X295.327 Y373.349 Z-1.4
N450 G0 Z15.
N455 X322.827 Y286.043
N460 Z5.
N465 G1 Z3.1 F1000.
N470 X322.823 Y286.015 Z2.918 F100.
N475 X322.81 Y285.935 Z2.754
N480 X322.786 Y285.809 Z2.622
N485 X322.747 Y285.653 Z2.534
N490 X322.692 Y285.481 Z2.5
N495 G2 X317.311 Y287.361 Z2.187 I-2.69 J0.94
N500 X322.692 Y285.481 Z1.875 I2.69 J-0.94
N505 X317.311 Y287.361 Z1.562 I-2.69 J0.94
N510 X322.692 Y285.481 Z1.249 I2.69 J-0.94
N515 X317.311 Y287.361 Z0.937 I-2.69 J0.94
N520 X322.692 Y285.481 Z0.624 I2.69 J-0.94
N525 X317.311 Y287.361 Z0.311 I-2.69 J0.94
N530 X322.692 Y285.481 Z-0.001 I2.69 J-0.94
N535 X317.311 Y287.361 Z-0.314 I-2.69 J0.94
N540 X322.692 Y285.481 Z-0.627 I2.69 J-0.94
N545 X317.311 Y287.361 Z-0.939 I-2.69 J0.94
N550 X322.692 Y285.481 Z-1.252 I2.69 J-0.94
N555 X317.311 Y287.361 Z-1.565 I-2.69 J0.94
N560 X322.692 Y285.481 Z-1.877 I2.69 J-0.94
N565 X320.007 Y283.571 Z-2. I-2.69 J0.94
N570 X317.398 Y286.171 I-0.005 J2.605
N575 X319.998 Y288.78 I2.605 J0.005
N580 G3 X341. Y343.115 I-0.057 J31.249 F500.
N585 X289.807 Y312.02 I-20.999 J-23.117
N590 X314.756 Y289.213 I30.162 J7.946
N595 X319.998 Y288.78 I5.184 J30.816
N600 X322.081 Y290.214 I-0.004 J2.237
N605 G2 X324.058 Y291.79 I2.333 J-0.898
N610 G3 X315.942 Y348.21 I-4.058 J28.21
N615 X291.5 Y320. I4.058 J-28.21
N620 G1 Y319.92
N625 G3 X320. Y291.5 I28.5 J0.08
N630 X324.058 Y291.79 I0. J28.5
N635 G1 X324.151 Y291.797 Z-1.985 F1000.
N640 X324.243 Y291.788 Z-1.971
N645 X324.324 Y291.769 Z-1.928
N650 X324.402 Y291.738 Z-1.885
N655 X324.46 Y291.706 Z-1.819
N660 X324.515 Y291.668 Z-1.753
N665 X324.578 Y291.611 Z-1.585
N670 X324.597 Y291.589 Z-1.4
N675 G0 Z5.
N680 X289.001 Y322.824
N685 G1 Z3.1 F1000.
N690 X289.029 Y322.821 Z2.918 F100.
N695 X289.109 Y322.808 Z2.754
N700 X289.234 Y322.783 Z2.622
N705 X289.391 Y322.744 Z2.534
N710 X289.563 Y322.689 Z2.5
N715 G2 X287.674 Y317.311 Z2.187 I-0.944 J-2.689
N720 X289.563 Y322.689 Z1.875 I0.944 J2.689
N725 X287.674 Y317.311 Z1.562 I-0.944 J-2.689
N730 X289.563 Y322.689 Z1.249 I0.944 J2.689
N735 X287.674 Y317.311 Z0.937 I-0.944 J-2.689
N740 X289.563 Y322.689 Z0.624 I0.944 J2.689
N745 X287.674 Y317.311 Z0.311 I-0.944 J-2.689
N750 X289.563 Y322.689 Z-0.001 I0.944 J2.689
N755 X287.674 Y317.311 Z-0.314 I-0.944 J-2.689
N760 X289.563 Y322.689 Z-0.627 I0.944 J2.689
N765 X287.674 Y317.311 Z-0.939 I-0.944 J-2.689
N770 X289.563 Y322.689 Z-1.252 I0.944 J2.689
N775 X287.674 Y317.311 Z-1.565 I-0.944 J-2.689
N780 X289.563 Y322.689 Z-1.877 I0.944 J2.689
N785 X291.468 Y320.001 Z-2. I-0.944 J-2.689
N790 X286.277 Y320. I-2.596 J-0.001
N795 X307.067 Y351.195 I33.788 J0.008 F500.
N800 X347.818 Y300.854 I12.959 J-31.174
N805 X314.291 Y286.716 I-27.776 J19.045
N810 X286.277 Y320. I5.774 J33.291
N815 G3 X284.948 Y322.041 I-2.233 J0.
N820 G2 X283.737 Y324.155 I0.832 J1.88
N825 X356.263 Y315.845 I36.263 J-4.155
N830 X320. Y283.5 I-36.263 J4.155
N835 G1 X319.92
N840 G2 X283.5 Y320. I0.08 J36.5
N845 X283.737 Y324.155 I36.5 J0.
N850 G1 X283.755 Y324.246 Z-1.985 F1000.
N855 X283.786 Y324.333 Z-1.971
N860 X283.826 Y324.407 Z-1.928
N865 X283.875 Y324.474 Z-1.885
N870 X283.921 Y324.523 Z-1.819
N875 X283.971 Y324.565 Z-1.753
N880 X284.043 Y324.612 Z-1.585
N885 X284.069 Y324.625 Z-1.4
N890 G0 Z15.
N895 X343.147 Y495.004
N900 Z5.
N905 G1 Z3.1 F1000.
N910 X343.124 Y494.987 Z2.918 F100.
N915 X343.058 Y494.939 Z2.754
N920 X342.952 Y494.868 Z2.622
N925 X342.814 Y494.785 Z2.534
N930 X342.654 Y494.702 Z2.5
N935 G2 X340.187 Y499.841 Z2.187 I-1.233 J2.569
N940 X342.654 Y494.702 Z1.875 I1.233 J-2.569
N945 X340.187 Y499.841 Z1.562 I-1.233 J2.569
N950 X342.654 Y494.702 Z1.249 I1.233 J-2.569
N955 X340.187 Y499.841 Z0.937 I-1.233 J2.569
N960 X342.654 Y494.702 Z0.624 I1.233 J-2.569
N965 X340.187 Y499.841 Z0.311 I-1.233 J2.569
N970 X342.654 Y494.702 Z-0.001 I1.233 J-2.569
N975 X340.187 Y499.841 Z-0.314 I-1.233 J2.569
N980 X342.654 Y494.702 Z-0.627 I1.233 J-2.569
N985 X340.187 Y499.841 Z-0.939 I-1.233 J2.569
N990 X342.654 Y494.702 Z-1.252 I1.233 J-2.569
N995 X340.187 Y499.841 Z-1.565 I-1.233 J2.569
N1000 X342.654 Y494.702 Z-1.877 I1.233 J-2.569
N1005 X339.405 Y495.256 Z-2. I-1.233 J2.569
N1010 G3 X335. Y497.081 I-4.405 J-4.405 F500.
N1015 G1 X305.
N1020 G3 X298.77 Y490.851 I0. J-6.23
N1025 G1 Y460.851
N1030 G3 X305. Y454.621 I6.23 J0.
N1035 G1 X335.
N1040 G3 X341.23 Y460.851 I0. J6.23
N1045 G1 Y490.851
N1050 G3 X339.405 Y495.256 I-6.23 J0.
N1055 X336.44 Y495.376 I-1.548 J-1.548
N1060 G2 X333.654 Y494.351 I-2.786 J3.274
N1065 G1 X305.
N1070 G3 X301.5 Y490.851 I0. J-3.5
N1075 G1 Y460.851
N1080 G3 X305. Y457.351 I3.5 J0.
N1085 G1 X335.
N1090 G3 X338.5 Y460.851 I0. J3.5
N1095 G1 Y490.851
N1100 G3 X335. Y494.351 I-3.5 J0.
N1105 G1 X333.654
N1110 X333.562 Y494.358 Z-1.985 F1000.
N1115 X333.471 Y494.379 Z-1.971
N1120 X333.394 Y494.41 Z-1.928
N1125 X333.321 Y494.452 Z-1.885
N1130 X333.268 Y494.491 Z-1.819
N1135 X333.22 Y494.537 Z-1.753
N1140 X333.165 Y494.603 Z-1.585
N1145 X333.149 Y494.627 Z-1.4
N1150 G0 Z5.
N1155 X344.037 Y454.503
N1160 G1 Z3.1 F1000.
N1165 X344.033 Y454.475 Z2.918 F100.
N1170 X344.021 Y454.395 Z2.754
N1175 X343.996 Y454.27 Z2.622
N1180 X343.956 Y454.113 Z2.534
N1185 X343.902 Y453.941 Z2.5
N1190 G2 X338.524 Y455.831 Z2.187 I-2.689 J0.945
N1195 X343.902 Y453.941 Z1.875 I2.689 J-0.945
N1200 X338.524 Y455.831 Z1.562 I-2.689 J0.945
N1205 X343.902 Y453.941 Z1.249 I2.689 J-0.945
N1210 X338.524 Y455.831 Z0.937 I-2.689 J0.945
N1215 X343.902 Y453.941 Z0.624 I2.689 J-0.945
N1220 X338.524 Y455.831 Z0.311 I-2.689 J0.945
N1225 X343.902 Y453.941 Z-0.001 I2.689 J-0.945
N1230 X338.524 Y455.831 Z-0.314 I-2.689 J0.945
N1235 X343.902 Y453.941 Z-0.627 I2.689 J-0.945
N1240 X338.524 Y455.831 Z-0.939 I-2.689 J0.945
N1245 X343.902 Y453.941 Z-1.252 I2.689 J-0.945
N1250 X338.524 Y455.831 Z-1.565 I-2.689 J0.945
N1255 X343.902 Y453.941 Z-1.877 I2.689 J-0.945
N1260 X341.213 Y452.036 Z-2. I-2.689 J0.945
N1265 G1 X296.504 F500.
N1270 G2 X296.185 Y452.355 I0. J0.319
N1275 G1 Y499.347
N1280 G2 X296.504 Y499.666 I0.319 J0.
N1285 G1 X343.496
N1290 G2 X343.815 Y499.347 I0. J-0.319
N1295 G1 Y452.355
N1300 G2 X343.496 Y452.036 I-0.319 J0.
N1305 G1 X341.213
N1310 G3 X339.199 Y450.694 I0. J-2.182
N1315 G2 X337.186 Y449.351 I-2.014 J0.839
N1320 G1 X293.5
N1325 Y502.351
N1330 X335.
N1335 X346.5
N1340 Y449.351
N1345 X337.186
N1350 X337.093 Y449.358 Z-1.985 F1000.
N1355 X337.003 Y449.379 Z-1.971
N1360 X336.926 Y449.41 Z-1.928
N1365 X336.853 Y449.452 Z-1.885
N1370 X336.8 Y449.491 Z-1.819
N1375 X336.752 Y449.537 Z-1.753
N1380 X336.697 Y449.603 Z-1.585
N1385 X336.681 Y449.627 Z-1.4
N1390 G0 Z15.
(CIRCULAR1)
N1395 G0 X319.4 Y290.5
N1400 Z15.
N1405 Z0.
N1410 G1 Z-1.4 F1000.
N1415 G19 G3 Y291.1 Z-2. J0.6 K0.
N1420 G1 Y291.4
N1425 G17 G2 X320. Y292. I0.6 J0.
N1430 G3 Y348. I0. J28. F500.
N1435 Y292. I0. J-28.
N1440 G2 X320.6 Y291.4 I0. J-0.6 F1000.
N1445 G1 Y291.1
N1450 G19 G2 Y290.5 Z-1.4 J0. K0.6
N1455 G0 Z5.
N1460 Y284.5
N1465 Z0.
N1470 G1 Z-1.4 F1000.
N1475 G2 Y283.9 Z-2. J-0.6 K0.
N1480 G1 Y283.6
N1485 G17 G2 X320. Y283. I-0.6 J0.
N1490 Y357. I0. J37. F500.
N1495 Y283. I0. J-37.
N1500 X319.4 Y283.6 I0. J0.6 F1000.
N1505 G1 Y283.9
N1510 G19 G3 Y284.5 Z-1.4 J0. K0.6
N1515 G0 Z5.
N1520 X320.6 Y254.5
N1525 Z0.
N1530 G1 Z-1.4 F1000.
N1535 G2 Y253.9 Z-2. J-0.6 K0.
N1540 G1 Y253.6
N1545 G17 G2 X320. Y253. I-0.6 J0.
N1550 Y387. I0. J67. F500.
N1555 Y253. I0. J-67.
N1560 X319.4 Y253.6 I0. J0.6 F1000.
N1565 G1 Y253.9
N1570 G19 G3 Y254.5 Z-1.4 J0. K0.6
N1575 G0 Z5.
N1580 Y260.5
N1585 Z0.
N1590 G1 Z-1.4 F1000.
N1595 G3 Y261.1 Z-2. J0.6 K0.
N1600 G1 Y261.4
N1605 G17 G2 X320. Y262. I0.6 J0.
N1610 G3 Y378. I0. J58. F500.
N1615 Y262. I0. J-58.
N1620 G2 X320.6 Y261.4 I0. J-0.6 F1000.
N1625 G1 Y261.1
N1630 G19 G2 Y260.5 Z-1.4 J0. K0.6
N1635 G0 Z15.
N1640 G17
(2D CONTOUR2)
N1645 G0 X339.8 Y457.251
N1650 Z15.
N1655 Z5.
N1660 G1 Z1. F100.
N1665 Z-1.4
N1670 G18 G3 X339.2 Z-2. I-0.6 K0.
N1675 G1 X338.6 F1000.
N1680 G17 G2 X338. Y457.851 I0. J0.6
N1685 G1 Y493.851 F500.
N1690 X302.
N1695 Y457.851
N1700 X338.
N1705 G2 X338.6 Y457.251 I0. J-0.6 F1000.
N1710 G1 Y456.651
N1715 G19 G2 Y456.051 Z-1.4 J0. K0.6
N1720 G0 Z5.
N1725 X345.2 Y455.238
N1730 G1 Z1. F100.
N1735 Z-1.4
N1740 G18 G2 X345.8 Z-2. I0.6 K0.
N1745 G1 X346.4 F1000.
N1750 G17 G2 X347. Y454.638 I0. J-0.6
N1755 G1 Y448.851 F500.
N1760 X293.
N1765 Y502.851
N1770 X347.
N1775 Y460.851
N1780 Y454.638
N1785 G2 X346.4 Y454.038 I-0.6 J0. F1000.
N1790 G1 X345.8
N1795 G18 G3 X345.2 Z-1.4 I0. K0.6
N1800 G0 Z15.
N1805 G17
N1810 G53 G0 Z0.
N1815 M30
%
