%
(X_DRILL)
(T4  D=6. CR=0. TAPER=118DEG - ZMIN=-8. - DRILL)
N10 G90 G94 G17 G91.1
N15 G21
N20 G53 G0 Z0.
(DRILL3 5)
N25 M9
N30 T4 M6
N35 S12000 M3
N40 G54
N45 G0 X1080. Y88.
N50 G43 Z15. H4
N55 G0 Z5.
N60 G98 G81 X1080. Y88. Z-8. R5. F100.
N65 X980.
N70 X880.
N75 X780.
N80 X680.
N85 X580.
N90 X480.
N95 X380.
N100 X280.
N105 X180.
N110 X80.
N115 G80
N120 G0 Z15.
(DRILL3 8)
N125 G0 X80. Y109.
N130 Z15.
N135 Z5.
N140 G81 X80. Y109. Z-8. R5. F100.
N145 X180.
N150 X280.
N155 X380.
N160 X480.
N165 X580.
N170 X680.
N175 X780.
N180 X880.
N185 X980.
N190 X1080.
N195 G80
N200 G0 Z15.
(DRILL3 7)
N205 G0 X1080. Y130.
N210 Z15.
N215 Z5.
N220 G81 X1080. Y130. Z-8. R5. F100.
N225 X980.
N230 X880.
N235 X780.
N240 X680.
N245 X580.
N250 X480.
N255 X380.
N260 X280.
N265 X180.
N270 X80.
N275 G80
N280 G0 Z15.
(DRILL3 6)
N285 G0 X80. Y151.
N290 Z15.
N295 Z5.
N300 G81 X80. Y151. Z-8. R5. F100.
N305 X180.
N310 X280.
N315 X380.
N320 X480.
N325 X580.
N330 X680.
N335 X780.
N340 X880.
N345 X980.
N350 X1080.
N355 G80
N360 G0 Z15.
N365 G53 Z0.
N370 M30
%
