%
(MICROWAVE_01)
(MACHINE)
(  MODEL LASER SNAKE V2)
(  DESCRIPTION 3-AXIS ROUTER)
(T1  D=3.175 CR=0. - ZMIN=-18. - FLAT END MILL)
N10 G90 G94 G17 G91.1
N15 G21
(WHEN USING FUSION 360 FOR PERSONAL USE, THE FEEDRATE OF)
(RAPID MOVES IS REDUCED TO MATCH THE FEEDRATE OF CUTTING)
(MOVES, WHICH CAN INCREASE MACHINING TIME. UNRESTRICTED RAPID)
(MOVES ARE AVAILABLE WITH A FUSION 360 SUBSCRIPTION.)
N20 G53 G0 Z0.
(2D CONTOUR1)
N25 T1 M6
N30 S18000 M3
N35 G54
N40 G0 X443.004 Y-7.588
N45 G43 Z15. H1
N50 G1 Z5. F1000.
N55 Z-2. F100.
N60 G19 G3 Y-5.588 Z-4. J2. K0. F250.
N65 G1 Y-3.588
N70 G17 G2 X445.004 Y-1.587 I2. J0.
N75 G1 X458.413 F500.
N80 Y-264.413
N85 X1.587
N90 Y-1.587
N95 X445.004
N100 G2 X447.004 Y-3.588 I0. J-2. F250.
N105 G1 Y-5.588
N110 G19 G2 Y-7.588 Z-2. J0. K2.
N115 G1 Z5. F1000.
N120 X443.004
N125 Z-6. F100.
N130 G3 Y-5.588 Z-8. J2. K0. F250.
N135 G1 Y-3.588
N140 G17 G2 X445.004 Y-1.587 I2. J0.
N145 G1 X458.413 F500.
N150 Y-264.413
N155 X1.587
N160 Y-1.587
N165 X445.004
N170 G2 X447.004 Y-3.588 I0. J-2. F250.
N175 G1 Y-5.588
N180 G19 G2 Y-7.588 Z-6. J0. K2.
N185 G1 Z5. F1000.
N190 X443.004
N195 Z-10. F100.
N200 G3 Y-5.588 Z-12. J2. K0. F250.
N205 G1 Y-3.588
N210 G17 G2 X445.004 Y-1.587 I2. J0.
N215 G1 X458.413 F500.
N220 Y-264.413
N225 X1.587
N230 Y-1.587
N235 X445.004
N240 G2 X447.004 Y-3.588 I0. J-2. F250.
N245 G1 Y-5.588
N250 G19 G2 Y-7.588 Z-10. J0. K2.
N255 G1 Z5. F1000.
N260 X443.004
N265 Z-14. F100.
N270 G3 Y-5.588 Z-16. J2. K0. F250.
N275 G1 Y-3.588
N280 G17 G2 X445.004 Y-1.587 I2. J0.
N285 G1 X458.413 F500.
N290 Y-264.413
N295 X1.587
N300 Y-1.587
N305 X445.004
N310 G2 X447.004 Y-3.588 I0. J-2. F250.
N315 G1 Y-5.588
N320 G19 G2 Y-7.588 Z-14. J0. K2.
N325 G1 Z5. F1000.
N330 X443.004
N335 Z-16. F100.
N340 G3 Y-5.588 Z-18. J2. K0. F250.
N345 G1 Y-3.588
N350 G17 G2 X445.004 Y-1.587 I2. J0.
N355 G1 X458.413 F500.
N360 Y-264.413
N365 X1.587
N370 Y-1.587
N375 X445.004
N380 G2 X447.004 Y-3.588 I0. J-2. F250.
N385 G1 Y-5.588
N390 G19 G2 Y-7.588 Z-16. J0. K2.
N395 G1 Z15. F1000.
N400 G17
N405 G53 G0 Z0.
N410 G53 G0 X0. Y0.
N415 M30
%
