%
(1001)
(6MM END MILL)
(T1  D=6. CR=0. - ZMIN=-18. - FLAT END MILL)
N10 G90 G94 G17 G91.1
N15 G21
N20 G53 G0 Z0.
(2D POCKET2)
N25 M9
N30 T1 M6
N35 S18000 M3
N40 G54
N45 G0 X150.375 Y52.678
N50 G43 Z15. H1
N55 G0 Z5.
N60 G1 Z3.1 F1000.
N65 X150.401 Y52.668 Z2.918 F333.33
N70 X150.477 Y52.639 Z2.754
N75 X150.594 Y52.588 Z2.622
N80 X150.739 Y52.516 Z2.534
N85 X150.895 Y52.426 Z2.5
N90 G2 X147.905 Y47.574 Z2.187 I-1.495 J-2.426
N95 X150.895 Y52.426 Z1.875 I1.495 J2.426
N100 X147.905 Y47.574 Z1.562 I-1.495 J-2.426
N105 X150.895 Y52.426 Z1.249 I1.495 J2.426
N110 X147.905 Y47.574 Z0.937 I-1.495 J-2.426
N115 X150.895 Y52.426 Z0.624 I1.495 J2.426
N120 X147.905 Y47.574 Z0.311 I-1.495 J-2.426
N125 X150.895 Y52.426 Z-0.001 I1.495 J2.426
N130 X147.905 Y47.574 Z-0.314 I-1.495 J-2.426
N135 X150.895 Y52.426 Z-0.627 I1.495 J2.426
N140 X147.905 Y47.574 Z-0.939 I-1.495 J-2.426
N145 X150.895 Y52.426 Z-1.252 I1.495 J2.426
N150 X147.905 Y47.574 Z-1.565 I-1.495 J-2.426
N155 X150.895 Y52.426 Z-1.877 I1.495 J2.426
N160 X147.905 Y47.574 Z-2.19 I-1.495 J-2.426
N165 X150.895 Y52.426 Z-2.503 I1.495 J2.426
N170 X147.905 Y47.574 Z-2.815 I-1.495 J-2.426
N175 X146.55 Y50. Z-2.917 I1.495 J2.426
N180 X151.105 I2.277 J0.
N185 X148.895 I-1.105 J0. F4500.
N190 G1 Y350.
N195 G2 X151.105 I1.105 J0.
N200 G1 Y50.
N205 G3 X151.852 Y48.596 I1.694 J0.
N210 G2 X151.813 Y47.006 I-0.528 J-0.782
N215 X146.5 Y50. I-1.813 J2.994
N220 G1 Y350.
N225 G2 X153.5 I3.5 J0.
N230 G1 Y50.
N235 G2 X151.813 Y47.006 I-3.5 J0.
N240 X151.371 Y47.172 I-0.155 J0.257
N245 G1 X150.562 Y49.724
N250 X150.552 Y49.762
N255 X150.547 Y49.8
N260 X150.41 Y52.171
N265 G2 X150.863 Y52.446 I0.299 J0.017
N270 X147.937 Y47.554 Z-3.229 I-1.463 J-2.446 F333.33
N275 X150.863 Y52.446 Z-3.542 I1.463 J2.446
N280 X147.937 Y47.554 Z-3.855 I-1.463 J-2.446
N285 X150.863 Y52.446 Z-4.167 I1.463 J2.446
N290 X147.937 Y47.554 Z-4.48 I-1.463 J-2.446
N295 X150.863 Y52.446 Z-4.793 I1.463 J2.446
N300 X147.937 Y47.554 Z-5.105 I-1.463 J-2.446
N305 X150.863 Y52.446 Z-5.418 I1.463 J2.446
N310 X147.937 Y47.554 Z-5.731 I-1.463 J-2.446
N315 X146.55 Y50. Z-5.833 I1.463 J2.446
N320 X151.105 I2.277 J0.
N325 X148.895 I-1.105 J0. F4500.
N330 G1 Y350.
N335 G2 X151.105 I1.105 J0.
N340 G1 Y50.
N345 G3 X151.852 Y48.596 I1.694 J0.
N350 G2 X151.813 Y47.006 I-0.528 J-0.782
N355 X146.5 Y50. I-1.813 J2.994
N360 G1 Y350.
N365 G2 X153.5 I3.5 J0.
N370 G1 Y50.
N375 G2 X151.813 Y47.006 I-3.5 J0.
N380 X151.371 Y47.172 I-0.155 J0.257
N385 G1 X150.562 Y49.724
N390 X150.552 Y49.762
N395 X150.547 Y49.8
N400 X150.41 Y52.171
N405 G2 X150.863 Y52.446 I0.299 J0.017
N410 X147.937 Y47.554 Z-6.146 I-1.463 J-2.446 F333.33
N415 X150.863 Y52.446 Z-6.459 I1.463 J2.446
N420 X147.937 Y47.554 Z-6.771 I-1.463 J-2.446
N425 X150.863 Y52.446 Z-7.084 I1.463 J2.446
N430 X147.937 Y47.554 Z-7.397 I-1.463 J-2.446
N435 X150.863 Y52.446 Z-7.709 I1.463 J2.446
N440 X147.937 Y47.554 Z-8.022 I-1.463 J-2.446
N445 X150.863 Y52.446 Z-8.335 I1.463 J2.446
N450 X147.937 Y47.554 Z-8.647 I-1.463 J-2.446
N455 X146.55 Y50. Z-8.75 I1.463 J2.446
N460 X151.105 I2.277 J0.
N465 X148.895 I-1.105 J0. F4500.
N470 G1 Y350.
N475 G2 X151.105 I1.105 J0.
N480 G1 Y50.
N485 G3 X151.852 Y48.596 I1.694 J0.
N490 G2 X151.813 Y47.006 I-0.528 J-0.782
N495 X146.5 Y50. I-1.813 J2.994
N500 G1 Y350.
N505 G2 X153.5 I3.5 J0.
N510 G1 Y50.
N515 G2 X151.813 Y47.006 I-3.5 J0.
N520 X151.371 Y47.172 I-0.155 J0.257
N525 G1 X150.562 Y49.724
N530 X150.552 Y49.762
N535 X150.547 Y49.8
N540 X150.41 Y52.171
N545 G2 X150.863 Y52.446 I0.299 J0.017
N550 X147.937 Y47.554 Z-9.063 I-1.463 J-2.446 F333.33
N555 X150.863 Y52.446 Z-9.375 I1.463 J2.446
N560 X147.937 Y47.554 Z-9.688 I-1.463 J-2.446
N565 X150.863 Y52.446 Z-10.001 I1.463 J2.446
N570 X147.937 Y47.554 Z-10.313 I-1.463 J-2.446
N575 X150.863 Y52.446 Z-10.626 I1.463 J2.446
N580 X147.937 Y47.554 Z-10.939 I-1.463 J-2.446
N585 X150.863 Y52.446 Z-11.251 I1.463 J2.446
N590 X147.937 Y47.554 Z-11.564 I-1.463 J-2.446
N595 X146.55 Y50. Z-11.667 I1.463 J2.446
N600 X151.105 I2.277 J0.
N605 X148.895 I-1.105 J0. F4500.
N610 G1 Y350.
N615 G2 X151.105 I1.105 J0.
N620 G1 Y50.
N625 G3 X151.852 Y48.596 I1.694 J0.
N630 G2 X151.813 Y47.006 I-0.528 J-0.782
N635 X146.5 Y50. I-1.813 J2.994
N640 G1 Y350.
N645 G2 X153.5 I3.5 J0.
N650 G1 Y50.
N655 G2 X151.813 Y47.006 I-3.5 J0.
N660 X151.371 Y47.172 I-0.155 J0.257
N665 G1 X150.562 Y49.724
N670 X150.552 Y49.762
N675 X150.547 Y49.8
N680 X150.41 Y52.171
N685 G2 X150.863 Y52.446 I0.299 J0.017
N690 X147.937 Y47.554 Z-11.979 I-1.463 J-2.446 F333.33
N695 X150.863 Y52.446 Z-12.292 I1.463 J2.446
N700 X147.937 Y47.554 Z-12.605 I-1.463 J-2.446
N705 X150.863 Y52.446 Z-12.917 I1.463 J2.446
N710 X147.937 Y47.554 Z-13.23 I-1.463 J-2.446
N715 X150.863 Y52.446 Z-13.543 I1.463 J2.446
N720 X147.937 Y47.554 Z-13.855 I-1.463 J-2.446
N725 X150.863 Y52.446 Z-14.168 I1.463 J2.446
N730 X147.937 Y47.554 Z-14.481 I-1.463 J-2.446
N735 X146.55 Y50. Z-14.583 I1.463 J2.446
N740 X151.105 I2.277 J0.
N745 X148.895 I-1.105 J0. F4500.
N750 G1 Y350.
N755 G2 X151.105 I1.105 J0.
N760 G1 Y50.
N765 G3 X151.852 Y48.596 I1.694 J0.
N770 G2 X151.813 Y47.006 I-0.528 J-0.782
N775 X146.5 Y50. I-1.813 J2.994
N780 G1 Y350.
N785 G2 X153.5 I3.5 J0.
N790 G1 Y50.
N795 G2 X151.813 Y47.006 I-3.5 J0.
N800 X151.371 Y47.172 I-0.155 J0.257
N805 G1 X150.562 Y49.724
N810 X150.552 Y49.762
N815 X150.547 Y49.8
N820 X150.41 Y52.171
N825 G2 X150.863 Y52.446 I0.299 J0.017
N830 X147.937 Y47.554 Z-14.896 I-1.463 J-2.446 F333.33
N835 X150.863 Y52.446 Z-15.209 I1.463 J2.446
N840 X147.937 Y47.554 Z-15.521 I-1.463 J-2.446
N845 X150.863 Y52.446 Z-15.834 I1.463 J2.446
N850 X147.937 Y47.554 Z-16.147 I-1.463 J-2.446
N855 X150.863 Y52.446 Z-16.459 I1.463 J2.446
N860 X147.937 Y47.554 Z-16.772 I-1.463 J-2.446
N865 X150.863 Y52.446 Z-17.085 I1.463 J2.446
N870 X147.937 Y47.554 Z-17.397 I-1.463 J-2.446
N875 X146.55 Y50. Z-17.5 I1.463 J2.446
N880 X151.105 I2.277 J0.
N885 X148.895 I-1.105 J0. F4500.
N890 G1 Y350.
N895 G2 X151.105 I1.105 J0.
N900 G1 Y50.
N905 G3 X151.852 Y48.596 I1.694 J0.
N910 G2 X151.813 Y47.006 I-0.528 J-0.782
N915 X146.5 Y50. I-1.813 J2.994
N920 G1 Y350.
N925 G2 X153.5 I3.5 J0.
N930 G1 Y50.
N935 G2 X151.813 Y47.006 I-3.5 J0.
N940 X151.392 Y47.123 I-0.155 J0.257
N945 G1 X149.994 Y49.779
N950 X148.368 Y52.263
N955 G2 X148.527 Y52.713 I0.251 J0.164
N960 X150.274 Y47.287 Z-17.813 I0.874 J-2.713 F333.33
N965 X146.55 Y50. Z-18. I-0.874 J2.713
N970 X151.105 I2.277 J0.
N975 X148.895 I-1.105 J0. F4500.
N980 G1 Y350.
N985 G2 X151.105 I1.105 J0.
N990 G1 Y50.
N995 G3 X151.852 Y48.596 I1.694 J0.
N1000 G2 X151.813 Y47.006 I-0.528 J-0.782
N1005 X146.5 Y50. I-1.813 J2.994
N1010 G1 Y350.
N1015 G2 X153.5 I3.5 J0.
N1020 G1 Y50.
N1025 G2 X151.813 Y47.006 I-3.5 J0.
N1030 G1 X151.73 Y46.964 Z-17.985 F1000.
N1035 X151.642 Y46.936 Z-17.971
N1040 X151.559 Y46.922 Z-17.928
N1045 X151.476 Y46.92 Z-17.885
N1050 X151.41 Y46.926 Z-17.819
N1055 X151.345 Y46.94 Z-17.753
N1060 X151.264 Y46.968 Z-17.585
N1065 X151.238 Y46.98 Z-17.4
N1070 G0 Z15.
N1075 G53 Z0.
N1080 M30
%
