%
(1004)
(3MM END MILL)
(T1  D=7. CR=0. TAPER=118DEG - ZMIN=-20.5 - DRILL)
N10 G90 G94 G17 G91.1
N15 G21
N20 G53 G0 Z0.
(DRILL1)
N25 M9
N30 T1 M6
N35 S2000 M3
N40 G54
N45 G0 X100. Y1325.
N50 G43 Z15. H1
N55 G0 Z5.
N60 G98 G81 X100. Y1325. Z-20.5 R5. F1000.
N65 X200.
N70 Y1225.
N75 X100.
N80 Y1125.
N85 X200.
N90 Y1025.
N95 X100.
N100 Y925.
N105 X200.
N110 Y825.
N115 X100.
N120 Y725.
N125 X200.
N130 Y625.
N135 X100.
N140 Y525.
N145 X200.
N150 X100. Y425.
N155 X200.
N160 Y325.
N165 X100.
N170 Y225.
N175 X200.
N180 Y125.
N185 X100.
N190 Y25.
N195 X200.
N200 G80
N205 G0 Z15.
N210 G53 Z0.
N215 M30
%
