%
(2002)
(6MM END MILL - DEEP SLOTS)
(T1  D=6. CR=0. - ZMIN=-18. - FLAT END MILL)
N10 G90 G94 G17 G91.1
N15 G21
N20 G53 G0 Z0.
(2D POCKET2)
N25 M9
N30 T1 M6
N35 S18000 M3
N40 G54
N45 G0 X99.822 Y452.742
N50 G43 Z15. H1
N55 G0 Z5.
N60 G1 Z1.599 F500.
N65 X99.848 Y452.749 Z1.42 F333.33
N70 X99.926 Y452.769 Z1.257
N75 X100.048 Y452.796 Z1.125
N80 X100.204 Y452.822 Z1.037
N85 X100.381 Y452.842 Z1.
N90 G2 X100.819 Y447.158 Z0.531 I0.219 J-2.842
N95 X100.381 Y452.842 Z0.062 I-0.219 J2.842
N100 X100.819 Y447.158 Z-0.408 I0.219 J-2.842
N105 X100.381 Y452.842 Z-0.877 I-0.219 J2.842
N110 X100.819 Y447.158 Z-1.346 I0.219 J-2.842
N115 X100.381 Y452.842 Z-1.815 I-0.219 J2.842
N120 X100.819 Y447.158 Z-2.285 I0.219 J-2.842
N125 X100.381 Y452.842 Z-2.754 I-0.219 J2.842
N130 X103.45 Y450. Z-3. I0.219 J-2.842
N135 X98.895 I-2.277 J0.
N140 G1 Y750. F4000.
N145 G2 X101.105 I1.105 J0.
N150 G1 Y450.
N155 G2 X98.895 I-1.105 J0.
N160 G3 X97.698 Y451.796 I-1.946 J0.
N165 G2 X96.5 Y453.592 I0.748 J1.796
N170 G1 Y750.
N175 G2 X103.5 I3.5 J0.
N180 G1 Y450.
N185 G2 X96.5 I-3.5 J0.
N190 G1 Y453.592
N195 G2 X96.712 Y453.738 I0.156 J0.
N200 G1 X97.417 Y453.465
N205 X101.046 Y452.436
N210 X101.086 Y452.431
N215 X101.126 Y452.44
N220 X101.161 Y452.46
N225 X101.414 Y452.67
N230 X101.452 Y452.691
N235 X101.494 Y452.699
N240 X101.537 Y452.692
N245 G2 X99.663 Y447.308 Z-3.469 I-0.937 J-2.692 F333.33
N250 X101.537 Y452.692 Z-3.938 I0.937 J2.692
N255 X99.663 Y447.308 Z-4.408 I-0.937 J-2.692
N260 X101.537 Y452.692 Z-4.877 I0.937 J2.692
N265 X99.663 Y447.308 Z-5.346 I-0.937 J-2.692
N270 X101.537 Y452.692 Z-5.815 I0.937 J2.692
N275 X103.45 Y450. Z-6. I-0.937 J-2.692
N280 X98.895 I-2.277 J0.
N285 G1 Y750. F4000.
N290 G2 X101.105 I1.105 J0.
N295 G1 Y450.
N300 G2 X98.895 I-1.105 J0.
N305 G3 X97.698 Y451.796 I-1.946 J0.
N310 G2 X96.5 Y453.592 I0.748 J1.796
N315 G1 Y750.
N320 G2 X103.5 I3.5 J0.
N325 G1 Y450.
N330 G2 X96.5 I-3.5 J0.
N335 G1 Y453.592
N340 G2 X96.712 Y453.738 I0.156 J0.
N345 G1 X97.417 Y453.465
N350 X101.046 Y452.436
N355 X101.086 Y452.431
N360 X101.126 Y452.44
N365 X101.161 Y452.46
N370 X101.414 Y452.67
N375 X101.452 Y452.691
N380 X101.494 Y452.699
N385 X101.537 Y452.692
N390 G2 X99.663 Y447.308 Z-6.469 I-0.937 J-2.692 F333.33
N395 X101.537 Y452.692 Z-6.938 I0.937 J2.692
N400 X99.663 Y447.308 Z-7.408 I-0.937 J-2.692
N405 X101.537 Y452.692 Z-7.877 I0.937 J2.692
N410 X99.663 Y447.308 Z-8.346 I-0.937 J-2.692
N415 X101.537 Y452.692 Z-8.815 I0.937 J2.692
N420 X103.45 Y450. Z-9. I-0.937 J-2.692
N425 X98.895 I-2.277 J0.
N430 G1 Y750. F4000.
N435 G2 X101.105 I1.105 J0.
N440 G1 Y450.
N445 G2 X98.895 I-1.105 J0.
N450 G3 X97.698 Y451.796 I-1.946 J0.
N455 G2 X96.5 Y453.592 I0.748 J1.796
N460 G1 Y750.
N465 G2 X103.5 I3.5 J0.
N470 G1 Y450.
N475 G2 X96.5 I-3.5 J0.
N480 G1 Y453.592
N485 G2 X96.712 Y453.738 I0.156 J0.
N490 G1 X97.417 Y453.465
N495 X101.046 Y452.436
N500 X101.086 Y452.431
N505 X101.126 Y452.44
N510 X101.161 Y452.46
N515 X101.414 Y452.67
N520 X101.452 Y452.691
N525 X101.494 Y452.699
N530 X101.537 Y452.692
N535 G2 X99.663 Y447.308 Z-9.469 I-0.937 J-2.692 F333.33
N540 X101.537 Y452.692 Z-9.938 I0.937 J2.692
N545 X99.663 Y447.308 Z-10.408 I-0.937 J-2.692
N550 X101.537 Y452.692 Z-10.877 I0.937 J2.692
N555 X99.663 Y447.308 Z-11.346 I-0.937 J-2.692
N560 X101.537 Y452.692 Z-11.815 I0.937 J2.692
N565 X103.45 Y450. Z-12. I-0.937 J-2.692
N570 X98.895 I-2.277 J0.
N575 G1 Y750. F4000.
N580 G2 X101.105 I1.105 J0.
N585 G1 Y450.
N590 G2 X98.895 I-1.105 J0.
N595 G3 X97.698 Y451.796 I-1.946 J0.
N600 G2 X96.5 Y453.592 I0.748 J1.796
N605 G1 Y750.
N610 G2 X103.5 I3.5 J0.
N615 G1 Y450.
N620 G2 X96.5 I-3.5 J0.
N625 G1 Y453.592
N630 G2 X96.712 Y453.738 I0.156 J0.
N635 G1 X97.417 Y453.465
N640 X101.046 Y452.436
N645 X101.086 Y452.431
N650 X101.126 Y452.44
N655 X101.161 Y452.46
N660 X101.414 Y452.67
N665 X101.452 Y452.691
N670 X101.494 Y452.699
N675 X101.537 Y452.692
N680 G2 X99.663 Y447.308 Z-12.469 I-0.937 J-2.692 F333.33
N685 X101.537 Y452.692 Z-12.938 I0.937 J2.692
N690 X99.663 Y447.308 Z-13.408 I-0.937 J-2.692
N695 X101.537 Y452.692 Z-13.877 I0.937 J2.692
N700 X99.663 Y447.308 Z-14.346 I-0.937 J-2.692
N705 X101.537 Y452.692 Z-14.815 I0.937 J2.692
N710 X103.45 Y450. Z-15. I-0.937 J-2.692
N715 X98.895 I-2.277 J0.
N720 G1 Y750. F4000.
N725 G2 X101.105 I1.105 J0.
N730 G1 Y450.
N735 G2 X98.895 I-1.105 J0.
N740 G3 X97.698 Y451.796 I-1.946 J0.
N745 G2 X96.5 Y453.592 I0.748 J1.796
N750 G1 Y750.
N755 G2 X103.5 I3.5 J0.
N760 G1 Y450.
N765 G2 X96.5 I-3.5 J0.
N770 G1 Y453.592
N775 G2 X96.712 Y453.738 I0.156 J0.
N780 G1 X97.417 Y453.465
N785 X101.046 Y452.436
N790 X101.086 Y452.431
N795 X101.126 Y452.44
N800 X101.161 Y452.46
N805 X101.414 Y452.67
N810 X101.452 Y452.691
N815 X101.494 Y452.699
N820 X101.537 Y452.692
N825 G2 X99.663 Y447.308 Z-15.469 I-0.937 J-2.692 F333.33
N830 X101.537 Y452.692 Z-15.938 I0.937 J2.692
N835 X99.663 Y447.308 Z-16.408 I-0.937 J-2.692
N840 X101.537 Y452.692 Z-16.877 I0.937 J2.692
N845 X99.663 Y447.308 Z-17.346 I-0.937 J-2.692
N850 X101.537 Y452.692 Z-17.815 I0.937 J2.692
N855 X103.45 Y450. Z-18. I-0.937 J-2.692
N860 X98.895 I-2.277 J0.
N865 G1 Y750. F4000.
N870 G2 X101.105 I1.105 J0.
N875 G1 Y450.
N880 G2 X98.895 I-1.105 J0.
N885 G3 X97.698 Y451.796 I-1.946 J0.
N890 G2 X96.5 Y453.592 I0.748 J1.796
N895 G1 Y750.
N900 G2 X103.5 I3.5 J0.
N905 G1 Y450.
N910 G2 X96.5 I-3.5 J0.
N915 G1 Y453.592
N920 X96.507 Y453.685 Z-17.985 F500.
N925 X96.528 Y453.775 Z-17.971
N930 X96.559 Y453.853 Z-17.928
N935 X96.601 Y453.925 Z-17.885
N940 X96.64 Y453.978 Z-17.819
N945 X96.686 Y454.027 Z-17.753
N950 X96.752 Y454.081 Z-17.585
N955 X96.776 Y454.097 Z-17.4
N960 G0 Z5.
N965 X99.822 Y352.742
N970 G1 Z1.599 F500.
N975 X99.848 Y352.749 Z1.42 F333.33
N980 X99.926 Y352.769 Z1.257
N985 X100.048 Y352.796 Z1.125
N990 X100.204 Y352.822 Z1.037
N995 X100.381 Y352.842 Z1.
N1000 G2 X100.819 Y347.158 Z0.531 I0.219 J-2.842
N1005 X100.381 Y352.842 Z0.062 I-0.219 J2.842
N1010 X100.819 Y347.158 Z-0.408 I0.219 J-2.842
N1015 X100.381 Y352.842 Z-0.877 I-0.219 J2.842
N1020 X100.819 Y347.158 Z-1.346 I0.219 J-2.842
N1025 X100.381 Y352.842 Z-1.815 I-0.219 J2.842
N1030 X100.819 Y347.158 Z-2.285 I0.219 J-2.842
N1035 X100.381 Y352.842 Z-2.754 I-0.219 J2.842
N1040 X103.45 Y350. Z-3. I0.219 J-2.842
N1045 X98.895 I-2.277 J0.
N1050 X101.105 I1.105 J0. F4000.
N1055 G1 Y50.
N1060 G2 X98.895 I-1.105 J0.
N1065 G1 Y350.
N1070 G3 X98.148 Y351.404 I-1.694 J0.
N1075 G2 X98.187 Y352.994 I0.528 J0.782
N1080 X103.5 Y350. I1.813 J-2.994
N1085 G1 Y50.
N1090 G2 X96.5 I-3.5 J0.
N1095 G1 Y350.
N1100 G2 X98.187 Y352.994 I3.5 J0.
N1105 G1 X98.246 Y353.021
N1110 X98.31 Y353.036
N1115 X98.375
N1120 X101.47 Y352.707
N1125 X101.537 Y352.692
N1130 G2 X99.663 Y347.308 Z-3.469 I-0.937 J-2.692 F333.33
N1135 X101.537 Y352.692 Z-3.938 I0.937 J2.692
N1140 X99.663 Y347.308 Z-4.408 I-0.937 J-2.692
N1145 X101.537 Y352.692 Z-4.877 I0.937 J2.692
N1150 X99.663 Y347.308 Z-5.346 I-0.937 J-2.692
N1155 X101.537 Y352.692 Z-5.815 I0.937 J2.692
N1160 X103.45 Y350. Z-6. I-0.937 J-2.692
N1165 X98.895 I-2.277 J0.
N1170 X101.105 I1.105 J0. F4000.
N1175 G1 Y50.
N1180 G2 X98.895 I-1.105 J0.
N1185 G1 Y350.
N1190 G3 X98.148 Y351.404 I-1.694 J0.
N1195 G2 X98.187 Y352.994 I0.528 J0.782
N1200 X103.5 Y350. I1.813 J-2.994
N1205 G1 Y50.
N1210 G2 X96.5 I-3.5 J0.
N1215 G1 Y350.
N1220 G2 X98.187 Y352.994 I3.5 J0.
N1225 G1 X98.246 Y353.021
N1230 X98.31 Y353.036
N1235 X98.375
N1240 X101.47 Y352.707
N1245 X101.537 Y352.692
N1250 G2 X99.663 Y347.308 Z-6.469 I-0.937 J-2.692 F333.33
N1255 X101.537 Y352.692 Z-6.938 I0.937 J2.692
N1260 X99.663 Y347.308 Z-7.408 I-0.937 J-2.692
N1265 X101.537 Y352.692 Z-7.877 I0.937 J2.692
N1270 X99.663 Y347.308 Z-8.346 I-0.937 J-2.692
N1275 X101.537 Y352.692 Z-8.815 I0.937 J2.692
N1280 X103.45 Y350. Z-9. I-0.937 J-2.692
N1285 X98.895 I-2.277 J0.
N1290 X101.105 I1.105 J0. F4000.
N1295 G1 Y50.
N1300 G2 X98.895 I-1.105 J0.
N1305 G1 Y350.
N1310 G3 X98.148 Y351.404 I-1.694 J0.
N1315 G2 X98.187 Y352.994 I0.528 J0.782
N1320 X103.5 Y350. I1.813 J-2.994
N1325 G1 Y50.
N1330 G2 X96.5 I-3.5 J0.
N1335 G1 Y350.
N1340 G2 X98.187 Y352.994 I3.5 J0.
N1345 G1 X98.246 Y353.021
N1350 X98.31 Y353.036
N1355 X98.375
N1360 X101.47 Y352.707
N1365 X101.537 Y352.692
N1370 G2 X99.663 Y347.308 Z-9.469 I-0.937 J-2.692 F333.33
N1375 X101.537 Y352.692 Z-9.938 I0.937 J2.692
N1380 X99.663 Y347.308 Z-10.408 I-0.937 J-2.692
N1385 X101.537 Y352.692 Z-10.877 I0.937 J2.692
N1390 X99.663 Y347.308 Z-11.346 I-0.937 J-2.692
N1395 X101.537 Y352.692 Z-11.815 I0.937 J2.692
N1400 X103.45 Y350. Z-12. I-0.937 J-2.692
N1405 X98.895 I-2.277 J0.
N1410 X101.105 I1.105 J0. F4000.
N1415 G1 Y50.
N1420 G2 X98.895 I-1.105 J0.
N1425 G1 Y350.
N1430 G3 X98.148 Y351.404 I-1.694 J0.
N1435 G2 X98.187 Y352.994 I0.528 J0.782
N1440 X103.5 Y350. I1.813 J-2.994
N1445 G1 Y50.
N1450 G2 X96.5 I-3.5 J0.
N1455 G1 Y350.
N1460 G2 X98.187 Y352.994 I3.5 J0.
N1465 G1 X98.246 Y353.021
N1470 X98.31 Y353.036
N1475 X98.375
N1480 X101.47 Y352.707
N1485 X101.537 Y352.692
N1490 G2 X99.663 Y347.308 Z-12.469 I-0.937 J-2.692 F333.33
N1495 X101.537 Y352.692 Z-12.938 I0.937 J2.692
N1500 X99.663 Y347.308 Z-13.408 I-0.937 J-2.692
N1505 X101.537 Y352.692 Z-13.877 I0.937 J2.692
N1510 X99.663 Y347.308 Z-14.346 I-0.937 J-2.692
N1515 X101.537 Y352.692 Z-14.815 I0.937 J2.692
N1520 X103.45 Y350. Z-15. I-0.937 J-2.692
N1525 X98.895 I-2.277 J0.
N1530 X101.105 I1.105 J0. F4000.
N1535 G1 Y50.
N1540 G2 X98.895 I-1.105 J0.
N1545 G1 Y350.
N1550 G3 X98.148 Y351.404 I-1.694 J0.
N1555 G2 X98.187 Y352.994 I0.528 J0.782
N1560 X103.5 Y350. I1.813 J-2.994
N1565 G1 Y50.
N1570 G2 X96.5 I-3.5 J0.
N1575 G1 Y350.
N1580 G2 X98.187 Y352.994 I3.5 J0.
N1585 G1 X98.246 Y353.021
N1590 X98.31 Y353.036
N1595 X98.375
N1600 X101.47 Y352.707
N1605 X101.537 Y352.692
N1610 G2 X99.663 Y347.308 Z-15.469 I-0.937 J-2.692 F333.33
N1615 X101.537 Y352.692 Z-15.938 I0.937 J2.692
N1620 X99.663 Y347.308 Z-16.408 I-0.937 J-2.692
N1625 X101.537 Y352.692 Z-16.877 I0.937 J2.692
N1630 X99.663 Y347.308 Z-17.346 I-0.937 J-2.692
N1635 X101.537 Y352.692 Z-17.815 I0.937 J2.692
N1640 X103.45 Y350. Z-18. I-0.937 J-2.692
N1645 X98.895 I-2.277 J0.
N1650 X101.105 I1.105 J0. F4000.
N1655 G1 Y50.
N1660 G2 X98.895 I-1.105 J0.
N1665 G1 Y350.
N1670 G3 X98.148 Y351.404 I-1.694 J0.
N1675 G2 X98.187 Y352.994 I0.528 J0.782
N1680 X103.5 Y350. I1.813 J-2.994
N1685 G1 Y50.
N1690 G2 X96.5 I-3.5 J0.
N1695 G1 Y350.
N1700 G2 X98.187 Y352.994 I3.5 J0.
N1705 G1 X98.27 Y353.036 Z-17.985 F500.
N1710 X98.358 Y353.064 Z-17.971
N1715 X98.441 Y353.078 Z-17.928
N1720 X98.524 Y353.08 Z-17.885
N1725 X98.59 Y353.074 Z-17.819
N1730 X98.655 Y353.06 Z-17.753
N1735 X98.735 Y353.032 Z-17.585
N1740 X98.762 Y353.02 Z-17.4
N1745 G0 Z5.
N1750 X102.742 Y852.523
N1755 G1 Z1.599 F500.
N1760 X102.749 Y852.497 Z1.42 F333.33
N1765 X102.769 Y852.419 Z1.257
N1770 X102.796 Y852.297 Z1.125
N1775 X102.822 Y852.141 Z1.037
N1780 X102.842 Y851.964 Z1.
N1785 G2 X97.158 Y851.526 Z0.531 I-2.842 J-0.219
N1790 X102.842 Y851.964 Z0.062 I2.842 J0.219
N1795 X97.158 Y851.526 Z-0.408 I-2.842 J-0.219
N1800 X102.842 Y851.964 Z-0.877 I2.842 J0.219
N1805 X97.158 Y851.526 Z-1.346 I-2.842 J-0.219
N1810 X102.842 Y851.964 Z-1.815 I2.842 J0.219
N1815 X97.158 Y851.526 Z-2.285 I-2.842 J-0.219
N1820 X102.842 Y851.964 Z-2.754 I2.842 J0.219
N1825 X100. Y848.895 Z-3. I-2.842 J-0.219
N1830 X98.895 Y850. I0. J1.105 F4000.
N1835 G1 Y1150.
N1840 G2 X101.105 I1.105 J0.
N1845 G1 Y850.
N1850 G2 X100. Y848.895 I-1.105 J0.
N1855 G3 X98.596 Y848.148 I0. J-1.694
N1860 G2 X97.006 Y848.187 I-0.782 J0.528
N1865 X96.5 Y850. I2.994 J1.813
N1870 G1 Y1150.
N1875 G2 X103.5 I3.5 J0.
N1880 G1 Y850.
N1885 G2 X97.006 Y848.187 I-3.5 J0.
N1890 G1 X96.988 Y848.231
N1895 X96.984 Y848.278
N1900 X96.994 Y848.324
N1905 X97.017 Y848.365
N1910 X97.051 Y848.397
N1915 X97.094 Y848.417
N1920 X97.822 Y848.641
N1925 X101.993 Y850.761
N1930 X102.526 Y850.968
N1935 X102.566 Y850.977
N1940 X102.607 Y850.972
N1945 X102.644 Y850.954
N1950 X102.674 Y850.926
N1955 X102.692 Y850.889
N1960 X102.699 Y850.849
N1965 X102.692 Y850.808
N1970 G2 X97.308 Y852.682 Z-3.469 I-2.692 J0.937 F333.33
N1975 X102.692 Y850.808 Z-3.938 I2.692 J-0.937
N1980 X97.308 Y852.682 Z-4.408 I-2.692 J0.937
N1985 X102.692 Y850.808 Z-4.877 I2.692 J-0.937
N1990 X97.308 Y852.682 Z-5.346 I-2.692 J0.937
N1995 X102.692 Y850.808 Z-5.815 I2.692 J-0.937
N2000 X100. Y848.895 Z-6. I-2.692 J0.937
N2005 X98.895 Y850. I0. J1.105 F4000.
N2010 G1 Y1150.
N2015 G2 X101.105 I1.105 J0.
N2020 G1 Y850.
N2025 G2 X100. Y848.895 I-1.105 J0.
N2030 G3 X98.596 Y848.148 I0. J-1.694
N2035 G2 X97.006 Y848.187 I-0.782 J0.528
N2040 X96.5 Y850. I2.994 J1.813
N2045 G1 Y1150.
N2050 G2 X103.5 I3.5 J0.
N2055 G1 Y850.
N2060 G2 X97.006 Y848.187 I-3.5 J0.
N2065 G1 X96.988 Y848.231
N2070 X96.984 Y848.278
N2075 X96.994 Y848.324
N2080 X97.017 Y848.365
N2085 X97.051 Y848.397
N2090 X97.094 Y848.417
N2095 X97.822 Y848.641
N2100 X101.993 Y850.761
N2105 X102.526 Y850.968
N2110 X102.566 Y850.977
N2115 X102.607 Y850.972
N2120 X102.644 Y850.954
N2125 X102.674 Y850.926
N2130 X102.692 Y850.889
N2135 X102.699 Y850.849
N2140 X102.692 Y850.808
N2145 G2 X97.308 Y852.682 Z-6.469 I-2.692 J0.937 F333.33
N2150 X102.692 Y850.808 Z-6.938 I2.692 J-0.937
N2155 X97.308 Y852.682 Z-7.408 I-2.692 J0.937
N2160 X102.692 Y850.808 Z-7.877 I2.692 J-0.937
N2165 X97.308 Y852.682 Z-8.346 I-2.692 J0.937
N2170 X102.692 Y850.808 Z-8.815 I2.692 J-0.937
N2175 X100. Y848.895 Z-9. I-2.692 J0.937
N2180 X98.895 Y850. I0. J1.105 F4000.
N2185 G1 Y1150.
N2190 G2 X101.105 I1.105 J0.
N2195 G1 Y850.
N2200 G2 X100. Y848.895 I-1.105 J0.
N2205 G3 X98.596 Y848.148 I0. J-1.694
N2210 G2 X97.006 Y848.187 I-0.782 J0.528
N2215 X96.5 Y850. I2.994 J1.813
N2220 G1 Y1150.
N2225 G2 X103.5 I3.5 J0.
N2230 G1 Y850.
N2235 G2 X97.006 Y848.187 I-3.5 J0.
N2240 G1 X96.988 Y848.231
N2245 X96.984 Y848.278
N2250 X96.994 Y848.324
N2255 X97.017 Y848.365
N2260 X97.051 Y848.397
N2265 X97.094 Y848.417
N2270 X97.822 Y848.641
N2275 X101.993 Y850.761
N2280 X102.526 Y850.968
N2285 X102.566 Y850.977
N2290 X102.607 Y850.972
N2295 X102.644 Y850.954
N2300 X102.674 Y850.926
N2305 X102.692 Y850.889
N2310 X102.699 Y850.849
N2315 X102.692 Y850.808
N2320 G2 X97.308 Y852.682 Z-9.469 I-2.692 J0.937 F333.33
N2325 X102.692 Y850.808 Z-9.938 I2.692 J-0.937
N2330 X97.308 Y852.682 Z-10.408 I-2.692 J0.937
N2335 X102.692 Y850.808 Z-10.877 I2.692 J-0.937
N2340 X97.308 Y852.682 Z-11.346 I-2.692 J0.937
N2345 X102.692 Y850.808 Z-11.815 I2.692 J-0.937
N2350 X100. Y848.895 Z-12. I-2.692 J0.937
N2355 X98.895 Y850. I0. J1.105 F4000.
N2360 G1 Y1150.
N2365 G2 X101.105 I1.105 J0.
N2370 G1 Y850.
N2375 G2 X100. Y848.895 I-1.105 J0.
N2380 G3 X98.596 Y848.148 I0. J-1.694
N2385 G2 X97.006 Y848.187 I-0.782 J0.528
N2390 X96.5 Y850. I2.994 J1.813
N2395 G1 Y1150.
N2400 G2 X103.5 I3.5 J0.
N2405 G1 Y850.
N2410 G2 X97.006 Y848.187 I-3.5 J0.
N2415 G1 X96.988 Y848.231
N2420 X96.984 Y848.278
N2425 X96.994 Y848.324
N2430 X97.017 Y848.365
N2435 X97.051 Y848.397
N2440 X97.094 Y848.417
N2445 X97.822 Y848.641
N2450 X101.993 Y850.761
N2455 X102.526 Y850.968
N2460 X102.566 Y850.977
N2465 X102.607 Y850.972
N2470 X102.644 Y850.954
N2475 X102.674 Y850.926
N2480 X102.692 Y850.889
N2485 X102.699 Y850.849
N2490 X102.692 Y850.808
N2495 G2 X97.308 Y852.682 Z-12.469 I-2.692 J0.937 F333.33
N2500 X102.692 Y850.808 Z-12.938 I2.692 J-0.937
N2505 X97.308 Y852.682 Z-13.408 I-2.692 J0.937
N2510 X102.692 Y850.808 Z-13.877 I2.692 J-0.937
N2515 X97.308 Y852.682 Z-14.346 I-2.692 J0.937
N2520 X102.692 Y850.808 Z-14.815 I2.692 J-0.937
N2525 X100. Y848.895 Z-15. I-2.692 J0.937
N2530 X98.895 Y850. I0. J1.105 F4000.
N2535 G1 Y1150.
N2540 G2 X101.105 I1.105 J0.
N2545 G1 Y850.
N2550 G2 X100. Y848.895 I-1.105 J0.
N2555 G3 X98.596 Y848.148 I0. J-1.694
N2560 G2 X97.006 Y848.187 I-0.782 J0.528
N2565 X96.5 Y850. I2.994 J1.813
N2570 G1 Y1150.
N2575 G2 X103.5 I3.5 J0.
N2580 G1 Y850.
N2585 G2 X97.006 Y848.187 I-3.5 J0.
N2590 G1 X96.988 Y848.231
N2595 X96.984 Y848.278
N2600 X96.994 Y848.324
N2605 X97.017 Y848.365
N2610 X97.051 Y848.397
N2615 X97.094 Y848.417
N2620 X97.822 Y848.641
N2625 X101.993 Y850.761
N2630 X102.526 Y850.968
N2635 X102.566 Y850.977
N2640 X102.607 Y850.972
N2645 X102.644 Y850.954
N2650 X102.674 Y850.926
N2655 X102.692 Y850.889
N2660 X102.699 Y850.849
N2665 X102.692 Y850.808
N2670 G2 X97.308 Y852.682 Z-15.469 I-2.692 J0.937 F333.33
N2675 X102.692 Y850.808 Z-15.938 I2.692 J-0.937
N2680 X97.308 Y852.682 Z-16.408 I-2.692 J0.937
N2685 X102.692 Y850.808 Z-16.877 I2.692 J-0.937
N2690 X97.308 Y852.682 Z-17.346 I-2.692 J0.937
N2695 X102.692 Y850.808 Z-17.815 I2.692 J-0.937
N2700 X100. Y848.895 Z-18. I-2.692 J0.937
N2705 X98.895 Y850. I0. J1.105 F4000.
N2710 G1 Y1150.
N2715 G2 X101.105 I1.105 J0.
N2720 G1 Y850.
N2725 G2 X100. Y848.895 I-1.105 J0.
N2730 G3 X98.596 Y848.148 I0. J-1.694
N2735 G2 X97.006 Y848.187 I-0.782 J0.528
N2740 X96.5 Y850. I2.994 J1.813
N2745 G1 Y1150.
N2750 G2 X103.5 I3.5 J0.
N2755 G1 Y850.
N2760 G2 X97.006 Y848.187 I-3.5 J0.
N2765 G1 X96.964 Y848.27 Z-17.985 F500.
N2770 X96.936 Y848.358 Z-17.971
N2775 X96.922 Y848.441 Z-17.928
N2780 X96.92 Y848.524 Z-17.885
N2785 X96.926 Y848.59 Z-17.819
N2790 X96.94 Y848.655 Z-17.753
N2795 X96.968 Y848.735 Z-17.585
N2800 X96.98 Y848.762 Z-17.4
N2805 G0 Z15.
N2810 G53 Z0.
N2815 M30
%
