%
(2003)
(6MM END MILL - CIRLES )
(T1  D=6. CR=0. - ZMIN=-3.5 - FLAT END MILL)
N10 G90 G94 G17 G91.1
N15 G21
N20 G53 G0 Z0.
(2D POCKET3)
N25 M9
N30 T1 M6
N35 S18000 M3
N40 G54
N45 G0 X206.136 Y97.956
N50 G43 Z15. H1
N55 G0 Z5.
N60 G1 Z3.1 F500.
N65 X206.156 Y97.976 Z2.918 F333.33
N70 X206.213 Y98.034 Z2.754
N75 X206.299 Y98.128 Z2.622
N80 X206.402 Y98.253 Z2.534
N85 X206.508 Y98.399 Z2.5
N90 G3 X201.792 Y101.601 Z2.187 I-2.358 J1.601
N95 X206.508 Y98.399 Z1.875 I2.358 J-1.601
N100 X201.792 Y101.601 Z1.562 I-2.358 J1.601
N105 X206.508 Y98.399 Z1.249 I2.358 J-1.601
N110 X201.792 Y101.601 Z0.937 I-2.358 J1.601
N115 X206.508 Y98.399 Z0.624 I2.358 J-1.601
N120 X201.792 Y101.601 Z0.311 I-2.358 J1.601
N125 X206.508 Y98.399 Z-0.001 I2.358 J-1.601
N130 X201.792 Y101.601 Z-0.314 I-2.358 J1.601
N135 X206.508 Y98.399 Z-0.627 I2.358 J-1.601
N140 X201.792 Y101.601 Z-0.939 I-2.358 J1.601
N145 X206.508 Y98.399 Z-1.252 I2.358 J-1.601
N150 X201.792 Y101.601 Z-1.565 I-2.358 J1.601
N155 X206.508 Y98.399 Z-1.877 I2.358 J-1.601
N160 X201.792 Y101.601 Z-2.19 I-2.358 J1.601
N165 X206.508 Y98.399 Z-2.503 I2.358 J-1.601
N170 X201.792 Y101.601 Z-2.815 I-2.358 J1.601
N175 X206.508 Y98.399 Z-3.128 I2.358 J-1.601
N180 X201.792 Y101.601 Z-3.441 I-2.358 J1.601
N185 X201.3 Y100. Z-3.5 I2.358 J-1.601
N190 X204.4 I1.55 J0. F4000.
N195 X195.6 I-4.4 J0.
N200 X210.1 I7.25 J0.
N205 X189.9 I-10.1 J0.
N210 X215.8 I12.95 J0.
N215 X184.2 I-15.8 J0.
N220 X221.5 I18.65 J0.
N225 X178.5 I-21.5 J0.
N230 X221.5 I21.5 J0.
N235 G1 X221.493 Y100.092 Z-3.485 F500.
N240 X221.472 Y100.182 Z-3.471
N245 X221.441 Y100.26 Z-3.428
N250 X221.399 Y100.333 Z-3.385
N255 X221.36 Y100.386 Z-3.319
N260 X221.314 Y100.434 Z-3.253
N265 X221.248 Y100.488 Z-3.085
N270 X221.224 Y100.505 Z-2.9
N275 G0 Z15.
N280 X205.036 Y197.956
N285 Z5.
N290 G1 Z3.1 F500.
N295 X205.056 Y197.976 Z2.918 F333.33
N300 X205.113 Y198.034 Z2.754
N305 X205.199 Y198.128 Z2.622
N310 X205.302 Y198.253 Z2.534
N315 X205.408 Y198.399 Z2.5
N320 G3 X200.692 Y201.601 Z2.187 I-2.358 J1.601
N325 X205.408 Y198.399 Z1.875 I2.358 J-1.601
N330 X200.692 Y201.601 Z1.562 I-2.358 J1.601
N335 X205.408 Y198.399 Z1.249 I2.358 J-1.601
N340 X200.692 Y201.601 Z0.937 I-2.358 J1.601
N345 X205.408 Y198.399 Z0.624 I2.358 J-1.601
N350 X200.692 Y201.601 Z0.311 I-2.358 J1.601
N355 X205.408 Y198.399 Z-0.001 I2.358 J-1.601
N360 X200.692 Y201.601 Z-0.314 I-2.358 J1.601
N365 X205.408 Y198.399 Z-0.627 I2.358 J-1.601
N370 X200.692 Y201.601 Z-0.939 I-2.358 J1.601
N375 X205.408 Y198.399 Z-1.252 I2.358 J-1.601
N380 X200.692 Y201.601 Z-1.565 I-2.358 J1.601
N385 X205.408 Y198.399 Z-1.877 I2.358 J-1.601
N390 X200.692 Y201.601 Z-2.19 I-2.358 J1.601
N395 X205.408 Y198.399 Z-2.503 I2.358 J-1.601
N400 X200.692 Y201.601 Z-2.815 I-2.358 J1.601
N405 X205.408 Y198.399 Z-3.128 I2.358 J-1.601
N410 X200.692 Y201.601 Z-3.441 I-2.358 J1.601
N415 X200.2 Y200. Z-3.5 I2.358 J-1.601
N420 X205.5 I2.65 J0. F4000.
N425 X194.5 I-5.5 J0.
N430 X211.2 I8.35 J0.
N435 X188.8 I-11.2 J0.
N440 X216.9 I14.05 J0.
N445 X183.1 I-16.9 J0.
N450 X222.6 I19.75 J0.
N455 X177.4 I-22.6 J0.
N460 X228.3 I25.45 J0.
N465 X171.7 I-28.3 J0.
N470 X234. I31.15 J0.
N475 X166. I-34. J0.
N480 X234. I34. J0.
N485 G1 X233.993 Y200.092 Z-3.485 F500.
N490 X233.972 Y200.182 Z-3.471
N495 X233.941 Y200.26 Z-3.428
N500 X233.899 Y200.333 Z-3.385
N505 X233.86 Y200.386 Z-3.319
N510 X233.814 Y200.434 Z-3.253
N515 X233.748 Y200.488 Z-3.085
N520 X233.724 Y200.505 Z-2.9
N525 G0 Z15.
N530 X196.064 Y322.044
N535 Z5.
N540 G1 Z3.1 F500.
N545 X196.044 Y322.024 Z2.918 F333.33
N550 X195.987 Y321.966 Z2.754
N555 X195.901 Y321.872 Z2.622
N560 X195.798 Y321.747 Z2.534
N565 X195.692 Y321.601 Z2.5
N570 G3 X200.408 Y318.399 Z2.187 I2.358 J-1.601
N575 X195.692 Y321.601 Z1.875 I-2.358 J1.601
N580 X200.408 Y318.399 Z1.562 I2.358 J-1.601
N585 X195.692 Y321.601 Z1.249 I-2.358 J1.601
N590 X200.408 Y318.399 Z0.937 I2.358 J-1.601
N595 X195.692 Y321.601 Z0.624 I-2.358 J1.601
N600 X200.408 Y318.399 Z0.311 I2.358 J-1.601
N605 X195.692 Y321.601 Z-0.001 I-2.358 J1.601
N610 X200.408 Y318.399 Z-0.314 I2.358 J-1.601
N615 X195.692 Y321.601 Z-0.627 I-2.358 J1.601
N620 X200.408 Y318.399 Z-0.939 I2.358 J-1.601
N625 X195.692 Y321.601 Z-1.252 I-2.358 J1.601
N630 X200.408 Y318.399 Z-1.565 I2.358 J-1.601
N635 X195.692 Y321.601 Z-1.877 I-2.358 J1.601
N640 X200.408 Y318.399 Z-2.19 I2.358 J-1.601
N645 X195.692 Y321.601 Z-2.503 I-2.358 J1.601
N650 X200.408 Y318.399 Z-2.815 I2.358 J-1.601
N655 X195.692 Y321.601 Z-3.128 I-2.358 J1.601
N660 X200.408 Y318.399 Z-3.441 I2.358 J-1.601
N665 X200.9 Y320. Z-3.5 I-2.358 J1.601
N670 X199.1 I-0.9 J0. F4000.
N675 X206.6 I3.75 J0.
N680 X193.4 I-6.6 J0.
N685 X212.3 I9.45 J0.
N690 X187.7 I-12.3 J0.
N695 X218. I15.15 J0.
N700 X182. I-18. J0.
N705 X223.7 I20.85 J0.
N710 X176.3 I-23.7 J0.
N715 X229.4 I26.55 J0.
N720 X170.6 I-29.4 J0.
N725 X235.1 I32.25 J0.
N730 X164.9 I-35.1 J0.
N735 X240.8 I37.95 J0.
N740 X159.2 I-40.8 J0.
N745 X246.5 I43.65 J0.
N750 X153.5 I-46.5 J0.
N755 X246.5 I46.5 J0.
N760 G1 X246.493 Y320.092 Z-3.485 F500.
N765 X246.472 Y320.182 Z-3.471
N770 X246.441 Y320.26 Z-3.428
N775 X246.399 Y320.333 Z-3.385
N780 X246.36 Y320.386 Z-3.319
N785 X246.314 Y320.434 Z-3.253
N790 X246.248 Y320.488 Z-3.085
N795 X246.224 Y320.505 Z-2.9
N800 G0 Z15.
N805 X195.951 Y481.573
N810 Z5.
N815 G1 Z3.1 F500.
N820 X195.931 Y481.553 Z2.918 F333.33
N825 X195.874 Y481.495 Z2.754
N830 X195.787 Y481.401 Z2.622
N835 X195.684 Y481.277 Z2.534
N840 X195.578 Y481.132 Z2.5
N845 G3 X200.281 Y477.912 Z2.187 I2.352 J-1.61
N850 X195.578 Y481.132 Z1.875 I-2.352 J1.61
N855 X200.281 Y477.912 Z1.562 I2.352 J-1.61
N860 X195.578 Y481.132 Z1.249 I-2.352 J1.61
N865 X200.281 Y477.912 Z0.937 I2.352 J-1.61
N870 X195.578 Y481.132 Z0.624 I-2.352 J1.61
N875 X200.281 Y477.912 Z0.311 I2.352 J-1.61
N880 X195.578 Y481.132 Z-0.001 I-2.352 J1.61
N885 X200.281 Y477.912 Z-0.314 I2.352 J-1.61
N890 X195.578 Y481.132 Z-0.627 I-2.352 J1.61
N895 X200.281 Y477.912 Z-0.939 I2.352 J-1.61
N900 X195.578 Y481.132 Z-1.252 I-2.352 J1.61
N905 X200.281 Y477.912 Z-1.565 I2.352 J-1.61
N910 X195.578 Y481.132 Z-1.877 I-2.352 J1.61
N915 X200.281 Y477.912 Z-2.19 I2.352 J-1.61
N920 X195.578 Y481.132 Z-2.503 I-2.352 J1.61
N925 X200.281 Y477.912 Z-2.815 I2.352 J-1.61
N930 X195.578 Y481.132 Z-3.128 I-2.352 J1.61
N935 X200.281 Y477.912 Z-3.441 I2.352 J-1.61
N940 X200.779 Y479.511 Z-3.5 I-2.352 J1.61
N945 X200.446 Y489.305 I-129.681 J0.487 F4000.
N950 G1 X200.256 Y491.939
N955 G3 X200.101 Y493.621 I-43.51 J-3.145
N960 G1 X200.091 Y493.657
N965 X200.068 Y493.686
N970 X200.036 Y493.705
N975 X200. Y493.712
N980 X199.964 Y493.705
N985 X199.932 Y493.686
N990 X199.909 Y493.657
N995 X199.899 Y493.621
N1000 G3 X199.475 Y488.539 I91.879 J-10.229
N1005 X199.265 Y483.443 I174.439 J-9.727
N1010 X199.488 Y471.662 I129.745 J-3.44
N1015 X199.668 Y469.014 I379.181 J24.466
N1020 X199.9 Y466.37 I82.526 J5.904
N1025 G1 X199.91 Y466.335
N1030 X199.932 Y466.306
N1035 X199.964 Y466.287
N1040 X200. Y466.28
N1045 X200.036 Y466.287
N1050 X200.068 Y466.306
N1055 X200.09 Y466.335
N1060 X200.1 Y466.37
N1065 G3 X200.547 Y471.948 I-117.738 J12.23
N1070 X200.757 Y477.54 I-149.908 J8.437
N1075 X200.779 Y479.511 I-129.659 J2.458
N1080 G2 X202.354 Y481.871 I2.57 J-0.01
N1085 G3 X203.886 Y484.258 I-0.97 J2.307
N1090 X203.838 Y485.539 I-133.122 J-4.254
N1095 X202.807 Y497.316 I-129.244 J-5.389
N1100 X201.68 Y504.188 I-123.958 J-16.796
N1105 X200.119 Y510.974 I-95.758 J-18.451
N1110 G1 X200.102 Y511.011
N1115 X200.075 Y511.04
N1120 X200.04 Y511.059
N1125 X200. Y511.066
N1130 X199.96 Y511.059
N1135 X199.925 Y511.04
N1140 X199.898 Y511.011
N1145 X199.881 Y510.974
N1150 G3 X197.045 Y496.363 I102.713 J-27.52
N1155 X196.055 Y481.511 I134.038 J-16.392
N1160 X196.207 Y473.46 I132.601 J-1.513
N1165 X197.326 Y461.733 I128.428 J6.336
N1170 X199.396 Y451.052 I110.186 J15.814
N1175 G2 X199.631 Y450.039 I-31.402 J-7.813
N1180 G3 X199.88 Y449.03 I17.06 J3.667
N1185 G1 X199.897 Y448.993
N1190 X199.925 Y448.964
N1195 X199.96 Y448.945
N1200 X200. Y448.938
N1205 X200.04 Y448.945
N1210 X200.075 Y448.964
N1215 X200.103 Y448.993
N1220 X200.12 Y449.03
N1225 G3 X201.208 Y453.505 I-67.679 J18.826
N1230 X202.08 Y458.027 I-147.701 J30.825
N1235 X203.535 Y469.472 I-116.525 J20.629
N1240 X203.93 Y477.48 I-130.912 J10.458
N1245 X203.886 Y484.258 I-133.166 J2.524
N1250 G2 X205.591 Y487.026 I2.946 J0.094
N1255 G3 X207.24 Y489.828 I-1.204 J2.594
N1260 X206.665 Y495.836 I-132.568 J-9.646
N1265 X204.753 Y507.198 I-119.351 J-14.239
N1270 X202.791 Y514.749 I-103.543 J-22.875
N1275 X200.139 Y522.086 I-66.974 J-20.061
N1280 X199.861 I-0.139 J-0.059
N1285 X196.674 Y512.961 I66.726 J-28.421
N1290 X194.504 Y503.542 I108.719 J-30.007
N1295 X192.92 Y491.828 I118.194 J-21.944
N1300 X192.454 Y483.624 I133.286 J-11.698
N1305 X192.485 Y475.342 I136.722 J-3.626
N1310 X193.012 Y467.166 I135.139 J4.609
N1315 X194.68 Y455.527 I124.592 J11.922
N1320 X196.211 Y448.804 I105.707 J20.535
N1325 X198.232 Y442.212 I80.346 J21.023
N1330 X199.005 Y440.048 I260.338 J91.79
N1335 X199.859 Y437.914 I32.378 J11.72
N1340 X200.141 I0.141 J0.062
N1345 X200.995 Y440.048 I-31.524 J13.853
N1350 X201.768 Y442.212 I-259.565 J93.954
N1355 X205.537 Y456.527 I-85.736 J30.229
N1360 X207.312 Y471.224 I-130.763 J23.248
N1365 X207.594 Y479.485 I-135.9 J8.769
N1370 X207.375 Y487.747 I-136.059 J0.526
N1375 X207.24 Y489.828 I-132.703 J-7.564
N1380 G2 X209.007 Y492.978 I3.268 J0.238
N1385 G3 X210.703 Y496.168 I-1.451 J2.817
N1390 X210.138 Y500.356 I-131.119 J-15.529
N1395 X207.841 Y511.694 I-116.248 J-17.658
N1400 X205.132 Y520.447 I-94.068 J-24.307
N1405 X201.316 Y528.778 I-52.376 J-18.954
N1410 G2 X200.762 Y529.785 I58.867 J33.075
N1415 G3 X200.172 Y530.773 I-11.676 J-6.301
N1420 X199.828 I-0.172 J-0.113
N1425 X199.238 Y529.785 I11.086 J-7.288
N1430 G2 X198.684 Y528.778 I-59.422 J32.067
N1435 G3 X194.868 Y520.447 I48.56 J-27.284
N1440 X192.159 Y511.694 I91.36 J-33.061
N1445 X189.862 Y500.356 I105.9 J-27.365
N1450 X188.887 Y492.182 I127.061 J-19.3
N1455 X188.406 Y483.731 I137.315 J-12.052
N1460 X188.438 Y475.204 I140.774 J-3.733
N1465 X188.981 Y466.78 I139.191 J4.747
N1470 X190.016 Y458.649 I130.647 J12.501
N1475 X192.39 Y447.431 I114.042 J18.265
N1480 X195.127 Y438.862 I92.09 J24.699
N1485 X198.966 Y430.726 I49.97 J18.605
N1490 G2 X199.391 Y429.972 I-30.017 J-17.4
N1495 G3 X199.831 Y429.227 I11.371 J6.218
N1500 X200.169 I0.169 J0.108
N1505 X202.527 Y433.472 I-34.111 J21.729
N1510 X204.48 Y437.918 I-65.966 J31.624
N1515 X208.78 Y452.116 I-79.674 J31.882
N1520 X211.019 Y466.78 I-129.485 J27.269
N1525 X211.562 Y475.204 I-135.543 J12.97
N1530 X211.594 Y483.731 I-140.586 J4.794
N1535 X211.113 Y492.182 I-139.546 J-3.7
N1540 X210.703 Y496.168 I-131.53 J-11.544
N1545 G2 X212.505 Y499.755 I3.619 J0.429
N1550 G3 X214.213 Y503.388 I-1.749 J3.04
N1555 X213.522 Y507.09 I-126.218 J-21.629
N1560 X210.927 Y517.382 I-111.692 J-22.693
N1565 X207.134 Y527.295 I-70.809 J-21.409
N1570 X204.908 Y531.594 I-53.897 J-25.19
N1575 X202.219 Y535.62 I-29.95 J-17.093
N1580 X201.269 Y536.802 I-33.008 J-25.57
N1585 X200.247 Y537.922 I-13.268 J-11.072
N1590 X199.753 I-0.247 J-0.246
N1595 X197.389 Y535.13 I16.104 J-16.034
N1600 X195.383 Y532.07 I35.698 J-25.595
N1605 X191.25 Y523.595 I47.665 J-28.489
N1610 X188.284 Y514.644 I90.196 J-34.85
N1615 X185.734 Y503.085 I105.562 J-29.347
N1620 X184.602 Y494.721 I128.383 J-21.637
N1625 X183.975 Y486.047 I139.6 J-14.448
N1630 X183.876 Y477.249 I144.781 J-6.037
N1635 X184.306 Y468.501 I144.769 J2.744
N1640 X185.253 Y460. I136.748 J10.924
N1645 X186.68 Y451.93 I124.718 J17.899
N1650 X189.332 Y441.793 I109.372 J23.195
N1655 X193.179 Y432.045 I68.42 J21.37
N1660 X195.394 Y427.895 I51.446 J24.792
N1665 X198.064 Y424.021 I28.187 J16.571
N1670 X198.885 Y423.017 I52.395 J41.978
N1675 X199.768 Y422.066 I9.248 J7.708
N1680 X200.232 I0.232 J0.24
N1685 X201.742 Y423.744 I-11.262 J11.657
N1690 X203.085 Y425.558 I-34.176 J26.703
N1695 X207.307 Y433.016 I-36.592 J25.641
N1700 X210.398 Y441.009 I-78.085 J34.788
N1705 X214.261 Y456.746 I-98.624 J32.554
N1710 X215.975 Y472.859 I-141.161 J23.162
N1715 X216.141 Y481.65 I-144.762 J7.142
N1720 X215.776 Y490.413 I-144.895 J-1.653
N1725 X214.893 Y498.953 I-138.853 J-10.036
N1730 X214.213 Y503.388 I-126.898 J-17.194
N1735 G2 X216.037 Y507.555 I4.077 J0.699
N1740 G3 X217.733 Y511.776 I-2.155 J3.317
N1745 X216.836 Y515.366 I-122.942 J-28.826
N1750 X213.094 Y526.447 I-85.661 J-22.753
N1755 X210.625 Y531.802 I-67.573 J-27.909
N1760 X207.622 Y536.876 I-42.383 J-21.655
N1765 X205.356 Y539.891 I-32.313 J-21.932
N1770 X202.679 Y542.547 I-15.069 J-12.511
N1775 X201.521 Y543.416 I-11.085 J-13.568
N1780 X200.209 Y544.031 I-2.512 J-3.653
N1785 X199.706 Y544.012 I-0.222 J-0.789
N1790 X199.242 Y543.817 I1.863 J-5.101
N1795 X197.321 Y542.57 I3.703 J-7.807
N1800 X195.657 Y540.996 I15.251 J-17.788
N1805 X192.738 Y537.414 I20.725 J-19.867
N1810 X190.293 Y533.492 I41.735 J-28.745
N1815 X185.939 Y524.038 I56.589 J-31.795
N1820 X182.842 Y514.102 I99.242 J-36.381
N1825 X181.061 Y506.038 I112.614 J-29.1
N1830 X179.758 Y497.456 I129.504 J-24.044
N1835 X178.975 Y488.525 I142.601 J-17.013
N1840 X178.733 Y479.432 I149.261 J-8.508
N1845 X179.043 Y470.343 I150.471 J0.582
N1850 X179.894 Y461.449 I144.455 J9.321
N1855 X181.258 Y452.92 I133.901 J17.051
N1860 X183.942 Y441.901 I118.325 J22.987
N1865 X187.893 Y431.271 I77.953 J22.923
N1870 X190.388 Y426.327 I60.518 J27.439
N1875 X193.403 Y421.683 I36.208 J20.208
N1880 X195.53 Y419.118 I26.918 J20.154
N1885 X198.027 Y416.913 I11.661 J10.686
N1890 X198.935 Y416.302 I12.354 J17.379
N1895 X199.964 Y415.932 I1.337 J2.102
N1900 G1 X200.045 Y415.928
N1905 X200.126 Y415.937
N1910 X200.204 Y415.959
N1915 X200.43 Y416.043
N1920 G3 X202.053 Y416.946 I-2.231 J5.92
N1925 X203.473 Y418.146 I-12.241 J15.927
N1930 X206.292 Y421.266 I-16.231 J17.498
N1935 X208.665 Y424.737 I-35.882 J27.084
N1940 X213.147 Y433.628 I-49.256 J30.402
N1945 X216.38 Y443.046 I-92.256 J36.929
N1950 X218.325 Y450.869 I-105.348 J30.352
N1955 X219.812 Y459.273 I-123.234 J26.134
N1960 X220.794 Y468.094 I-138.86 J19.929
N1965 X221.24 Y477.152 I-148.155 J11.836
N1970 X221.137 Y486.26 I-150.494 J2.853
N1975 X220.488 Y495.248 I-147.758 J-6.161
N1980 X219.311 Y503.936 I-138.717 J-14.356
N1985 X217.733 Y511.776 I-124.52 J-20.986
N1990 G2 X219.435 Y516.435 I4.403 J1.032
N1995 G3 X220.968 Y521.153 I-2.563 J3.441
N2000 X220.511 Y522.588 I-114.113 J-35.583
N2005 X216.105 Y533.365 I-75.698 J-24.655
N2010 X213.293 Y538.439 I-57.913 J-28.782
N2015 X209.914 Y543.154 I-34.92 J-21.456
N2020 X207.312 Y545.945 I-25.485 J-21.146
N2025 X204.285 Y548.268 I-12.183 J-12.745
N2030 X201.805 Y549.395 I-5.936 J-9.768
N2035 X199.089 Y549.602 I-1.799 J-5.672
N2040 X196.999 Y548.958 I1.171 J-7.509
N2045 X195.1 Y547.873 I6.224 J-13.099
N2050 X191.978 Y545.258 I11.123 J-16.452
N2055 X189.308 Y542.184 I26.144 J-25.396
N2060 X184.181 Y533.99 I38.286 J-29.659
N2065 X180.38 Y525.103 I78.732 J-38.929
N2070 X175.781 Y508.382 I101.045 J-36.781
N2075 X173.535 Y491.186 I147.608 J-28.028
N2080 X173.142 Y481.773 I154.211 J-11.146
N2085 X173.321 Y472.331 I155.502 J-1.774
N2090 X174.065 Y463.029 I152.766 J7.537
N2095 X175.357 Y454.032 I143.678 J16.03
N2100 X178.05 Y442.116 I127.887 J22.641
N2105 X182.079 Y430.582 I88.259 J24.362
N2110 X184.817 Y424.837 I69.901 J29.789
N2115 X188.138 Y419.407 I45.19 J23.909
N2120 X190.886 Y415.902 I34.008 J23.83
N2125 X194.121 Y412.841 I17.776 J15.544
N2130 X196.36 Y411.349 I10.918 J13.97
N2135 X198.889 Y410.432 I4.048 J7.212
N2140 X203.067 Y411.049 I1.192 J6.379
N2145 X206.571 Y413.406 I-8.527 J16.458
N2150 X209.864 Y416.772 I-17.01 J19.935
N2155 X212.649 Y420.568 I-35.488 J28.963
N2160 X217.586 Y429.756 I-49.215 J32.362
N2165 X221.18 Y439.547 I-91.302 J39.072
N2170 X223.336 Y447.594 I-106.271 J32.79
N2175 X225.016 Y456.242 I-124.916 J28.751
N2180 X226.174 Y465.33 I-140.773 J22.546
N2185 X226.777 Y474.685 I-150.676 J14.418
N2190 X226.813 Y484.135 I-155.787 J5.313
N2195 X226.279 Y493.513 I-154.782 J-4.104
N2200 X225.19 Y502.642 I-146.703 J-12.876
N2205 X223.573 Y511.356 I-133.878 J-20.336
N2210 X220.968 Y521.153 I-116.718 J-25.786
N2215 G2 X222.322 Y525.911 I4.312 J1.345
N2220 G3 X223.454 Y530.727 I-2.766 J3.191
N2225 X221.917 Y534.204 I-82.913 J-34.556
N2230 X217.434 Y542.401 I-66.916 J-31.275
N2235 X211.536 Y549.646 I-33.109 J-20.932
N2240 X205.847 Y553.814 I-18.114 J-18.757
N2245 X198.938 Y555.227 I-5.781 J-10.667
N2250 X193.765 Y553.616 I1.214 J-13.003
N2255 X189.353 Y550.471 I12.262 J-21.871
N2260 X185.496 Y546.401 I22.02 J-24.73
N2265 X182.236 Y541.838 I41.05 J-32.774
N2270 X176.978 Y531.777 I56.156 J-35.754
N2275 X173.16 Y521.086 I98.421 J-41.176
N2280 X170.959 Y512.564 I113.9 J-33.962
N2285 X169.274 Y503.483 I132.919 J-29.365
N2290 X168.142 Y494.003 I147.633 J-22.425
N2295 X167.589 Y484.283 I158.035 J-13.87
N2300 X167.626 Y474.494 I161.61 J-4.285
N2305 X168.252 Y464.797 I160.03 J5.457
N2310 X169.454 Y455.356 I151.392 J14.486
N2315 X171.206 Y446.337 I137.208 J21.976
N2320 X174.535 Y434.587 I119.413 J27.484
N2325 X179.286 Y423.336 I78.637 J26.578
N2330 X182.442 Y417.831 I59.777 J30.605
N2335 X186.225 Y412.736 I37.705 J24.047
N2340 X189.465 Y409.42 I27.455 J23.585
N2345 X193.22 Y406.7 I14.665 J16.292
N2350 X195.119 Y405.757 I8.808 J15.351
N2355 X197.129 Y405.084 I5.301 J12.5
N2360 X201.651 Y404.874 I2.785 J11.147
N2365 X205.961 Y406.258 I-2.164 J14.144
N2370 X209.664 Y408.685 I-9.053 J17.843
N2375 X212.878 Y411.729 I-21.109 J25.511
N2380 X218.691 Y419.62 I-32.556 J30.071
N2385 X223.073 Y428.386 I-70.001 J40.466
N2390 X228.529 Y445.089 I-92.909 J39.594
N2395 X231.5 Y462.408 I-145.687 J33.904
N2400 X232.272 Y472.055 I-153.725 J17.151
N2405 X232.457 Y481.837 I-161.067 J7.947
N2410 X232.051 Y491.589 I-161.211 J-1.839
N2415 X231.063 Y501.144 I-155.159 J-11.215
N2420 X229.513 Y510.339 I-143.089 J-19.388
N2425 X226.422 Y522.497 I-126.788 J-25.76
N2430 X223.454 Y530.727 I-85.881 J-26.326
N2435 G2 X224.38 Y535.616 I4.178 J1.741
N2440 G3 X225.051 Y540.548 I-3.018 J2.922
N2445 G1 X224.398 Y541.746
N2450 X223.474 Y543.341
N2455 X222.53 Y544.873
N2460 X221.566 Y546.34
N2465 X220.584 Y547.742
N2470 X219.587 Y549.074
N2475 X218.573 Y550.339
N2480 X217.546 Y551.534
N2485 X216.509 Y552.659
N2490 X215.461 Y553.711
N2495 X214.405 Y554.691
N2500 X213.342 Y555.599
N2505 X212.274 Y556.434
N2510 X211.203 Y557.196
N2515 X210.129 Y557.885
N2520 X209.055 Y558.502
N2525 X207.982 Y559.047
N2530 X206.91 Y559.52
N2535 X205.84 Y559.924
N2540 X204.774 Y560.258
N2545 X203.709 Y560.524
N2550 X202.646 Y560.723
N2555 X201.588 Y560.855
N2560 X200.53 Y560.921
N2565 X199.47
N2570 X198.412 Y560.855
N2575 X197.354 Y560.723
N2580 X196.291 Y560.524
N2585 X195.226 Y560.258
N2590 X194.16 Y559.924
N2595 X193.09 Y559.52
N2600 X192.018 Y559.047
N2605 X190.945 Y558.502
N2610 X189.871 Y557.885
N2615 X188.797 Y557.196
N2620 X187.726 Y556.434
N2625 X186.658 Y555.599
N2630 X185.595 Y554.691
N2635 X184.539 Y553.711
N2640 X183.491 Y552.659
N2645 X182.454 Y551.534
N2650 X181.427 Y550.339
N2655 X180.413 Y549.074
N2660 X179.416 Y547.742
N2665 X178.434 Y546.34
N2670 X177.47 Y544.873
N2675 X176.526 Y543.341
N2680 X175.602 Y541.746
N2685 X174.699 Y540.089
N2690 X173.819 Y538.372
N2695 X172.964 Y536.597
N2700 X172.135 Y534.766
N2705 X171.331 Y532.88
N2710 X170.555 Y530.941
N2715 X169.808 Y528.952
N2720 X169.09 Y526.913
N2725 X168.401 Y524.83
N2730 X167.745 Y522.701
N2735 X167.119 Y520.529
N2740 X166.527 Y518.317
N2745 X165.967 Y516.068
N2750 X165.442 Y513.783
N2755 X164.95 Y511.464
N2760 X164.493 Y509.114
N2765 X164.072 Y506.736
N2770 X163.687 Y504.331
N2775 X163.338 Y501.903
N2780 X163.026 Y499.452
N2785 X162.752 Y496.983
N2790 X162.514 Y494.497
N2795 X162.314 Y491.997
N2800 X162.151 Y489.484
N2805 X162.027 Y486.962
N2810 X161.941 Y484.433
N2815 X161.893 Y481.901
N2820 X161.883 Y479.367
N2825 X161.912 Y476.832
N2830 X161.979 Y474.301
N2835 X162.085 Y471.776
N2840 X162.228 Y469.258
N2845 X162.409 Y466.752
N2850 X162.627 Y464.258
N2855 X162.885 Y461.781
N2860 X163.178 Y459.32
N2865 X163.509 Y456.879
N2870 X163.875 Y454.463
N2875 X164.279 Y452.071
N2880 X164.717 Y449.706
N2885 X165.191 Y447.373
N2890 X165.7 Y445.07
N2895 X166.243 Y442.803
N2900 X166.819 Y440.573
N2905 X167.428 Y438.381
N2910 X168.07 Y436.23
N2915 X168.742 Y434.123
N2920 X169.445 Y432.062
N2925 X170.179 Y430.047
N2930 X170.94 Y428.082
N2935 X171.729 Y426.171
N2940 X172.546 Y424.312
N2945 X173.389 Y422.509
N2950 X174.257 Y420.761
N2955 X175.147 Y419.074
N2960 X176.06 Y417.448
N2965 X176.995 Y415.886
N2970 X177.95 Y414.386
N2975 X178.924 Y412.951
N2980 X179.913 Y411.583
N2985 X180.919 Y410.285
N2990 X181.938 Y409.054
N2995 X182.97 Y407.895
N3000 X184.014 Y406.806
N3005 X185.066 Y405.79
N3010 X186.125 Y404.846
N3015 X187.192 Y403.974
N3020 X188.261 Y403.175
N3025 X189.333 Y402.451
N3030 X190.408 Y401.798
N3035 X191.481 Y401.217
N3040 X192.554 Y400.708
N3045 X193.625 Y400.269
N3050 X194.694 Y399.9
N3055 X195.759 Y399.6
N3060 X196.822 Y399.368
N3065 X197.882 Y399.203
N3070 X198.943 Y399.104
N3075 X200. Y399.071
N3080 X201.057 Y399.104
N3085 X202.118 Y399.203
N3090 X203.178 Y399.368
N3095 X204.241 Y399.6
N3100 X205.306 Y399.9
N3105 X206.375 Y400.269
N3110 X207.446 Y400.708
N3115 X208.519 Y401.217
N3120 X209.592 Y401.798
N3125 X210.667 Y402.451
N3130 X211.739 Y403.175
N3135 X212.808 Y403.974
N3140 X213.875 Y404.846
N3145 X214.934 Y405.79
N3150 X215.986 Y406.806
N3155 X217.03 Y407.895
N3160 X218.062 Y409.054
N3165 X219.081 Y410.285
N3170 X220.087 Y411.583
N3175 X221.076 Y412.951
N3180 X222.05 Y414.386
N3185 X223.005 Y415.886
N3190 X223.94 Y417.448
N3195 X224.853 Y419.074
N3200 X225.743 Y420.761
N3205 X226.611 Y422.509
N3210 X227.454 Y424.312
N3215 X228.271 Y426.171
N3220 X229.06 Y428.082
N3225 X229.821 Y430.047
N3230 X230.555 Y432.062
N3235 X231.258 Y434.123
N3240 X231.93 Y436.23
N3245 X232.572 Y438.381
N3250 X233.181 Y440.573
N3255 X233.757 Y442.803
N3260 X234.3 Y445.07
N3265 X234.809 Y447.373
N3270 X235.283 Y449.706
N3275 X235.721 Y452.071
N3280 X236.125 Y454.463
N3285 X236.491 Y456.879
N3290 X236.822 Y459.32
N3295 X237.115 Y461.781
N3300 X237.373 Y464.258
N3305 X237.591 Y466.752
N3310 X237.772 Y469.258
N3315 X237.915 Y471.776
N3320 X238.021 Y474.301
N3325 X238.088 Y476.832
N3330 X238.117 Y479.367
N3335 X238.107 Y481.901
N3340 X238.059 Y484.433
N3345 X237.973 Y486.962
N3350 X237.849 Y489.484
N3355 X237.686 Y491.997
N3360 X237.486 Y494.497
N3365 X237.248 Y496.983
N3370 X236.974 Y499.452
N3375 X236.662 Y501.903
N3380 X236.313 Y504.331
N3385 X235.928 Y506.736
N3390 X235.507 Y509.114
N3395 X235.05 Y511.464
N3400 X234.558 Y513.783
N3405 X234.033 Y516.068
N3410 X233.473 Y518.317
N3415 X232.881 Y520.529
N3420 X232.255 Y522.701
N3425 X231.599 Y524.83
N3430 X230.91 Y526.913
N3435 X230.192 Y528.952
N3440 X229.445 Y530.941
N3445 X228.669 Y532.88
N3450 X227.865 Y534.766
N3455 X227.036 Y536.597
N3460 X226.181 Y538.372
N3465 X225.301 Y540.089
N3470 X225.051 Y540.548
N3475 X225.001 Y540.625 Z-3.485 F500.
N3480 X224.939 Y540.694 Z-3.471
N3485 X224.875 Y540.748 Z-3.428
N3490 X224.804 Y540.792 Z-3.385
N3495 X224.743 Y540.819 Z-3.319
N3500 X224.68 Y540.84 Z-3.253
N3505 X224.597 Y540.856 Z-3.085
N3510 X224.568 Y540.859 Z-2.9
N3515 G0 Z15.
N3520 G53 Z0.
N3525 M30
%
