%
(6_LASER_SNAKE_LOGO)
(3MM END MILL)
(T2  D=3. CR=0. - ZMIN=-1. - FLAT END MILL)
N10 G90 G94 G17 G91.1
N15 G21
N20 G53 G0 Z0.
(2D CONTOUR3)
N25 M9
N30 T2 M6
N35 S25000 M3
N40 G54
N45 G0 X178.483 Y890.367
N50 G43 Z15. H2
N55 G0 Z5.
N60 G1 Z2. F333.33
N65 Z-0.7
N70 G18 G2 X178.783 Z-1. I0.3 K0.
N75 G1 X179.083 F500.
N80 G17 G2 X179.383 Y890.067 I0. J-0.3
N85 G1 Y868.287 F650.
N90 X201.223
N95 Y846.747
N100 X157.843
N105 Y911.607
N110 X201.223
N115 Y890.067
N120 X180.883
N125 X179.383
N130 G2 X179.083 Y890.367 I0. J0.3 F500.
N135 G1 Y890.667
N140 G19 G3 Y890.967 Z-0.7 J0. K0.3
N145 G0 Z5.
N150 X238.303 Y909.027
N155 G1 Z2. F333.33
N160 Z-0.7
N165 G18 G3 X238.003 Z-1. I-0.3 K0.
N170 G1 X237.703 F500.
N175 G17 G2 X237.403 Y909.327 I0. J0.3
N180 G1 Y929.067 F650.
N185 X215.383
N190 Y948.327
N195 X256.603
N200 Y890.067
N205 X235.903
N210 X215.383
N215 Y909.327
N220 X235.903
N225 X237.403
N230 G2 X237.703 Y909.027 I0. J-0.3 F500.
N235 G1 Y908.727
N240 G19 G2 Y908.427 Z-0.7 J0. K0.3
N245 G0 Z5.
N250 Y849.927
N255 G1 Z2. F333.33
N260 Z-0.7
N265 G2 Y849.627 Z-1. J-0.3 K0.
N270 G1 Y849.327 F500.
N275 G17 G2 X237.403 Y849.027 I-0.3 J0.
N280 G1 X215.383 F650.
N285 Y868.287
N290 X256.603
N295 Y810.087
N300 X235.903
N305 X215.383
N310 Y829.287
N315 X235.903
N320 X237.403
N325 Y849.027
N330 G2 X237.703 Y849.327 I0.3 J0. F500.
N335 G1 X238.003
N340 G18 G2 X238.303 Z-0.7 I0. K0.3
N345 G0 Z5.
N350 X215.683 Y778.887
N355 G1 Z2. F333.33
N360 Z-0.7
N365 G19 G2 Y778.587 Z-1. J-0.3 K0.
N370 G1 Y778.287 F500.
N375 G17 G2 X215.383 Y777.987 I-0.3 J0.
N380 G1 X191.582 F650.
N385 X190.478
N390 X187.242 Y767.607
N395 X168.343
N400 Y826.407
N405 X201.223
N410 Y810.087
N415 X186.223
N420 X184.723
N425 Y791.787
N430 X226.843
N435 Y728.907
N440 X220.611
N445 G3 X217.437 Y746.247 I-12.247 J6.719
N450 G1 X217.363 Y746.311
N455 X214.328 Y748.287
N460 X211.483
N465 Y587.787
N470 X205.003
N475 Y746.787
N480 Y748.287
N485 X203.503
N490 X202.603
N495 X202.214
N500 X200.795 Y747.498
N505 X200.671 Y747.43
N510 X198.043 Y745.239
N515 X197.964 Y745.174
N520 X197.895 Y745.098
N525 G3 X195.903 Y728.907 I10.407 J-9.499
N530 G1 X190.11
N535 X201.101 Y763.767
N540 X213.883
N545 X215.383
N550 Y777.987
N555 G2 X215.683 Y778.287 I0.3 J0. F500.
N560 G1 X215.983
N565 G18 G2 X216.283 Z-0.7 I0. K0.3
N570 G0 Z5.
N575 X217.068 Y753.98
N580 G1 Z2. F333.33
N585 Z-0.7
N590 X217.075 Y753.975 Z-0.767
N595 X217.093 Y753.963 Z-0.83
N600 X217.123 Y753.944 Z-0.887
N605 X217.163 Y753.918 Z-0.935
N610 X217.211 Y753.888 Z-0.97
N615 X217.264 Y753.853 Z-0.992
N620 X217.321 Y753.817 Z-1.
N625 X217.573 Y753.654 F500.
N630 G17 G2 X217.662 Y753.24 I-0.163 J-0.252
N635 G1 X217.423 Y752.869 F650.
N640 Y751.144
N645 X222.805 Y742.827
N650 X226.063
N655 Y761.247
N660 X224.563
N665 X223.642
N670 X222.824
N675 X222.381 Y760.56
N680 X217.662 Y753.24
N685 G2 X217.248 Y753.15 I-0.252 J0.163 F500.
N690 G1 X216.995 Y753.313
N695 X216.939 Y753.349 Z-0.992
N700 X216.886 Y753.383 Z-0.97
N705 X216.838 Y753.414 Z-0.935
N710 X216.798 Y753.44 Z-0.887
N715 X216.768 Y753.459 Z-0.83
N720 X216.75 Y753.471 Z-0.767
N725 X216.743 Y753.475 Z-0.7
N730 G0 Z5.
N735 X184.423 Y947.427
N740 G1 Z2. F333.33
N745 Z-0.7
N750 G19 G3 Y947.727 Z-1. J0.3 K0.
N755 G1 Y948.027 F500.
N760 G17 G2 X184.723 Y948.327 I0.3 J0.
N765 G1 X201.223 F650.
N770 Y931.947
N775 X168.343
N780 Y982.947
N785 X201.223
N790 Y966.627
N795 X186.223
N800 X184.723
N805 Y948.327
N810 G2 X184.423 Y948.027 I-0.3 J0. F500.
N815 G1 X184.123
N820 G18 G3 X183.823 Z-0.7 I0. K0.3
N825 G0 Z5.
N830 X229.603 Y980.967
N835 G1 Z2. F333.33
N840 Z-0.7
N845 G3 X229.303 Z-1. I-0.3 K0.
N850 G1 X229.003 F500.
N855 G17 G2 X228.703 Y981.267 I0. J0.3
N860 G1 Y996.927 F650.
N865 X215.383
N870 Y1011.57
N875 X243.283
N880 Y966.627
N885 X215.383
N890 Y981.267
N895 X227.203
N900 X228.703
N905 G2 X229.003 Y980.967 I0. J-0.3 F500.
N910 G1 Y980.667
N915 G19 G2 Y980.367 Z-0.7 J0. K0.3
N920 G0 Z5.
N925 X190.303 Y1010.67
N930 G1 Z2. F333.33
N935 Z-0.7
N940 G3 Y1010.97 Z-1. J0.3 K0.
N945 G1 Y1011.27 F500.
N950 G17 G2 X190.603 Y1011.57 I0.3 J0.
N955 G1 X201.223 F650.
N960 Y999.267
N965 X178.303
N970 Y1037.55
N975 X203.563
N980 X205.063
N985 Y1179.87
N990 X211.543
N995 Y1025.25
N1000 X192.103
N1005 X190.603
N1010 Y1011.57
N1015 G2 X190.303 Y1011.27 I-0.3 J0. F500.
N1020 G1 X190.003
N1025 G18 G3 X189.703 Z-0.7 I0. K0.3
N1030 G0 Z15.
N1035 G17
N1040 G53 G0 Z0.
N1045 M30
%
