%
(65MM)
(6.5MM DRILL)
(T6  D=6.5 CR=0. TAPER=118DEG - ZMIN=-8.453 - DRILL)
N10 G90 G94 G17 G91.1
N15 G21
N20 G53 G0 Z0.
(DRILL1)
N25 M9
N30 T6 M6
N35 S6000 M3
N40 G54
N45 G0 X408. Y-20.
N50 G43 Z15. H6
N55 G0 Z5.
N60 G98 G81 X408. Y-20. Z-8.453 R5. F75.
N65 X348.
N70 X325.
N75 X265.
N80 X242.
N85 X182.
N90 X159.
N95 X99.
N100 G80
N105 G0 Z15.
N110 G53 Z0.
N115 M30
%
