%
(6969)
(PROFILE CUT 6MM END MILL)
(T1  D=6. CR=0. - ZMIN=-1. - FLAT END MILL)
N10 G90 G94 G17 G91.1
N15 G21
N20 G53 G0 Z0.
(2D CONTOUR1)
N25 M9
N30 T1 M6
N35 S20000 M3
N40 G54
N45 G0 X33.7 Y0.6
N50 G43 Z15. H1
N55 G0 Z5.
N60 G1 Z1.75 F333.33
N65 Z0.1
N70 G18 G2 X34.3 Z-0.5 I0.6 K0.
N75 G1 X34.9 F500.
N80 G17 G2 X35.5 Y0. I0. J-0.6
N85 X-35.5 I-35.5 J0. F650.
N90 X35.5 I35.5 J0.
N95 X34.9 Y-0.6 I-0.6 J0. F500.
N100 G1 X34.3
N105 G18 G3 X33.7 Z0.1 I0. K0.6
N110 G0 Z5.
N115 Y0.6
N120 G1 Z1.25 F333.33
N125 Z-0.4
N130 G2 X34.3 Z-1. I0.6 K0.
N135 G1 X34.9 F500.
N140 G17 G2 X35.5 Y0. I0. J-0.6
N145 X-35.5 I-35.5 J0. F650.
N150 X35.5 I35.5 J0.
N155 X34.9 Y-0.6 I-0.6 J0. F500.
N160 G1 X34.3
N165 G18 G3 X33.7 Z-0.4 I0. K0.6
N170 G0 Z15.
N175 G17
N180 G53 G0 Z0.
N185 M30
%
