%
(1001)
(T5  D=19.05 CR=9.525 - ZMIN=-100.761 - BALL END MILL)
N10 G90 G94 G17 G91.1
N15 G21
N20 G53 G0 Z0.
(PARALLEL2)
N25 M9
N30 T5 M6
N35 S24000 M3
N40 G54
N45 G0 X309.45 Y1020.568
N50 G43 Z10. H5
N55 G1 Z-23.095 F5000.
N60 G19 G2 Y1018.663 Z-25. J-1.905 K0. F1000.
N65 G1 Y630.005 F5000.
N70 G2 Y628.1 Z-23.095 J0. K1.905 F1000.
N75 G1 Z5. F5000.
N80 X294.454 Y482.374
N85 Z-23.095
N90 G3 Y484.279 Z-25. J1.905 K0. F1000.
N95 G1 Y1245.583 F5000.
N100 G3 Y1247.488 Z-23.095 J0. K1.905 F1000.
N105 G1 Z5. F5000.
N110 X279.457 Y1361.961
N115 Z-23.095
N120 G2 Y1360.056 Z-25. J-1.905 K0. F1000.
N125 G1 Y338.553 F5000.
N130 G2 Y336.648 Z-23.095 J0. K1.905 F1000.
N135 G1 Z5. F5000.
N140 X264.461 Y247.436
N145 Z-23.095
N150 G3 Y249.341 Z-25. J1.905 K0. F1000.
N155 G1 Y736.348 F5000.
N160 Y889.069 Z-21.103
N165 Y971.3 Z-21.362
N170 Y1068.216 Z-24.651
N175 Y1424.502 Z-25.
N180 G3 Y1426.409 Z-23.095 J0.002 K1.905 F1000.
N185 G1 Z5. F5000.
N190 X249.465 Y1480.878
N195 Z-23.095
N200 G2 Y1478.97 Z-25. J-1.905 K0. F1000.
N205 G1 Y1197.034 Z-24.546 F5000.
N210 Y1137.064 Z-19.954
N215 Y1056.301 Z-16.81
N220 Y943.233 Z-16.885
N225 Y764.086 Z-22.131
N230 Y670.107 Z-25.
N235 Y180.434
N240 G2 Y178.529 Z-23.095 J0. K1.905 F1000.
N245 G1 Z5. F5000.
N250 X234.468 Y109.622
N255 Z-23.095
N260 G3 Y111.527 Z-25. J1.905 K0. F1000.
N265 G1 Y672.507 F5000.
N270 Y863.401 Z-18.797
N275 Y980.875 Z-16.361
N280 Y1113.443 Z-16.849
N285 Y1214.58 Z-20.105
N290 Y1268.436 Z-24.766
N295 Y1512.908 Z-25.
N300 G3 Y1514.815 Z-23.095 J0.002 K1.905 F1000.
N305 G1 Z5. F5000.
N310 X219.472 Y1548.754
N315 Z-23.095
N320 G2 Y1546.845 Z-25. J-1.905 K0. F1000.
N325 G1 Y1306.025 Z-24.515 F5000.
N330 Y1214.983 Z-19.361
N335 Y1097.51 Z-16.409
N340 Y962.415 Z-16.568
N345 Y812.637 Z-20.505
N350 Y671.669 Z-25.
N355 Y66.026
N360 G2 Y65.606 Z-24.903 J0. K0.952
N365 G3 Y65.187 Z-24.806 J-0.419 K-0.855
N370 G1 Y56.324
N375 G17 G2 X216.614 Y53.466 I-2.858 J0.
N380 G1 X207.333
N385 G2 X204.475 Y56.324 I0. J2.858
N390 G19 G2 Y56.743 Z-24.903 J0. K-0.952
N395 G3 Y57.162 Z-25. J0.419 K0.855
N400 G1 Y674.003
N405 Y794.413 Z-21.175
N410 Y958.876 Z-16.665
N415 Y1096.907 Z-16.295
N420 Y1217.317 Z-19.147
N425 Y1317.17 Z-24.545
N430 Y1575.611 Z-25.
N435 G3 Y1576.032 Z-24.903 J0.002 K0.952
N440 G2 Y1576.451 Z-24.806 J0.419 K-0.855
N445 G1 Y1592.611
N450 G17 G3 X201.618 Y1595.469 I-2.857 J0.
N455 G1 X192.337
N460 G3 X189.479 Y1592.611 I0. J-2.858
N465 G19 G3 Y1592.192 Z-24.903 J0. K-0.953
N470 G2 Y1591.772 Z-25. J-0.419 K0.855
N475 G1 Y1324.52 Z-24.646
N480 Y1224.667 Z-19.208
N485 Y1107.194 Z-16.329
N490 Y1010.381 Z-16.131
N495 Y875.287 Z-18.605
N500 Y672.645 Z-25.
N505 Y48.298
N510 G2 Y47.879 Z-24.903 J0. K0.952
N515 G3 Y47.46 Z-24.806 J-0.419 K-0.855
N520 G1 Y38.596
N525 G17 G2 X186.622 Y35.739 I-2.857 J0.
N530 G1 X177.34
N535 G2 X174.483 Y38.596 I0. J2.857
N540 G19 G2 Y39.015 Z-24.903 J0. K-0.952
N545 G3 Y39.434 Z-25. J0.419 K0.855
N550 G1 Y674.019
N555 Y817.924 Z-20.433
N560 Y973.576 Z-16.471
N565 Y1108.67 Z-16.247
N570 Y1226.144 Z-19.071
N575 Y1328.933 Z-24.631
N580 Y1607.932 Z-25.
N585 G3 Y1608.353 Z-24.903 J0.001 K0.952
N590 G2 Y1608.772 Z-24.806 J0.419 K-0.855
N595 G1 Y1624.932
N600 G17 G3 X171.625 Y1627.79 I-2.857 J0.
N605 G1 X162.344
N610 G3 X159.486 Y1624.932 I0. J-2.858
N615 G19 G3 Y1624.513 Z-24.903 J0. K-0.952
N620 G2 Y1624.093 Z-25. J-0.419 K0.855
N625 G1 Y1333.346 Z-24.678
N630 Y1233.494 Z-19.182
N635 Y1113.083 Z-16.193
N640 Y975.052 Z-16.432
N645 Y819.4 Z-20.384
N650 Y672.558 Z-25.
N655 Y30.92
N660 G2 Y30.501 Z-24.903 J0. K0.952
N665 G3 Y30.081 Z-24.806 J-0.419 K-0.855
N670 G1 Y29.637
N675 G17 G2 X156.629 Y26.779 I-2.857 J0.
N680 G1 X147.347
N685 G2 X144.49 Y29.637 I0. J2.858
N690 G19 G2 Y30.056 Z-24.903 J0. K-0.952
N695 G3 Y30.475 Z-25. J0.419 K0.855
N700 G1 Y674.035
N705 Y812.066 Z-20.627
N710 Y973.592 Z-16.433
N715 Y1111.623 Z-16.104
N720 Y1232.033 Z-18.981
N725 Y1334.823 Z-24.554
N730 Y1640.253 Z-25.
N735 G3 Y1640.674 Z-24.903 J0.001 K0.952
N740 G2 Y1641.093 Z-24.806 J0.419 K-0.855
N745 G1 Y1657.253
N750 G17 G3 X141.632 Y1660.111 I-2.857 J0.
N755 G1 X132.351
N760 G3 X129.494 Y1657.253 I0. J-2.857
N765 G19 G3 Y1656.834 Z-24.903 J0. K-0.952
N770 G2 Y1656.414 Z-25. J-0.419 K0.855
N775 G1 Y1339.236 Z-24.692
N780 Y1236.447 Z-19.044
N785 Y1118.973 Z-16.126
N790 Y983.879 Z-16.284
N795 Y828.227 Z-20.096
N800 Y672.574 Z-25.
N805 Y30.475
N810 G2 Y30.056 Z-24.903 J0. K0.952
N815 G3 Y29.637 Z-24.806 J-0.419 K-0.855
N820 G17 G2 X126.636 Y26.779 I-2.857 J0.
N825 G1 X117.355
N830 G2 X114.497 Y29.637 I0. J2.858
N835 G19 G2 Y30.056 Z-24.903 J0. K-0.952
N840 G3 Y30.475 Z-25. J0.419 K0.855
N845 G1 Y673.443
N850 Y829.095 Z-20.068
N855 Y984.747 Z-16.26
N860 Y1119.841 Z-16.089
N865 Y1237.315 Z-18.992
N870 Y1340.104 Z-24.618
N875 Y1671.966 Z-25.
N880 G3 Y1672.387 Z-24.903 J0.001 K0.952
N885 G2 Y1672.806 Z-24.806 J0.419 K-0.855
N890 G1 Y1679.174
N895 G17 G3 X111.64 Y1682.032 I-2.857 J0.
N900 G1 X102.358
N905 G3 X99.501 Y1679.174 I0. J-2.858
N910 G19 G3 Y1678.755 Z-24.903 J0. K-0.953
N915 G2 Y1678.335 Z-25. J-0.419 K0.855
N920 G1 Y1340.599 Z-24.554
N925 Y1237.809 Z-18.946
N930 Y1120.336 Z-16.057
N935 Y995.838 Z-16.108
N940 Y846.059 Z-19.519
N945 Y672.786 Z-25.
N950 Y30.475
N955 G2 Y30.056 Z-24.903 J0. K0.952
N960 G3 Y29.637 Z-24.806 J-0.419 K-0.855
N965 G17 G2 X96.643 Y26.779 I-2.858 J0.
N970 G1 X87.362
N975 G2 X84.505 Y29.637 I0. J2.858
N980 G19 G2 Y30.056 Z-24.903 J0. K-0.952
N985 G3 Y30.475 Z-25. J0.419 K0.855
N990 G1 Y672.784
N995 Y848.994 Z-19.426
N1000 Y998.773 Z-16.069
N1005 Y1123.171 Z-16.063
N1010 Y1240.644 Z-19.004
N1015 Y1343.433 Z-24.687
N1020 Y1684.106 Z-25.
N1025 G3 Y1684.526 Z-24.903 J0.001 K0.952
N1030 G2 Y1684.946 Z-24.806 J0.419 K-0.855
N1035 G1 Y1690.717
N1040 G17 G3 X81.647 Y1693.575 I-2.857 J0.
N1045 G1 X72.366
N1050 G3 X69.508 Y1690.717 I0. J-2.857
N1055 G19 G3 Y1690.298 Z-24.903 J0. K-0.952
N1060 G2 Y1689.878 Z-25. J-0.419 K0.855
N1065 G1 Y1343.331 Z-24.625
N1070 Y1240.542 Z-18.963
N1075 Y1123.069 Z-16.041
N1080 Y998.772 Z-16.061
N1085 Y846.056 Z-19.519
N1090 Y672.783 Z-25.
N1095 Y30.475
N1100 G2 Y28.57 Z-23.095 J0. K1.905 F1000.
N1105 G1 Z5. F5000.
N1110 X54.512 Y-30.155
N1115 Z-23.095
N1120 G3 Y-28.25 Z-25. J1.905 K0. F1000.
N1125 G1 Y672.782 F5000.
N1130 Y837.245 Z-19.804
N1135 Y992.897 Z-16.119
N1140 Y1127.433 Z-16.077
N1145 Y1244.906 Z-19.111
N1150 Y1344.759 Z-24.69
N1155 Y1788.221 Z-25.
N1160 G3 Y1788.641 Z-24.903 J0.001 K0.952
N1165 G2 Y1789.06 Z-24.806 J0.419 K-0.855
N1170 G1 Y1790.364
N1175 G17 G3 X51.654 Y1793.222 I-2.857 J0.
N1180 G1 X42.373
N1185 G3 X39.515 Y1790.364 I0. J-2.857
N1190 G19 G3 Y1789.945 Z-24.903 J0. K-0.952
N1195 G2 Y1789.525 Z-25. J-0.419 K0.855
N1200 G1 Y1343.126 Z-24.545
N1205 Y1240.337 Z-18.911
N1210 Y1122.863 Z-16.012
N1215 Y995.833 Z-16.083
N1220 Y843.117 Z-19.614
N1225 Y672.781 Z-25.
N1230 Y-29.554
N1235 G2 Y-29.974 Z-24.903 J0. K0.952
N1240 G3 Y-30.393 Z-24.806 J-0.419 K-0.855
N1245 G17 G2 X36.658 Y-33.25 I-2.857 J0.
N1250 G1 X27.377
N1255 G2 X24.519 Y-30.393 I0. J2.858
N1260 G19 G2 Y-29.974 Z-24.903 J0. K-0.952
N1265 G3 Y-29.554 Z-25. J0.419 K0.855
N1270 G1 Y672.78
N1275 Y843.116 Z-19.614
N1280 Y995.832 Z-16.081
N1285 Y1122.863 Z-16.006
N1290 Y1240.337 Z-18.9
N1295 Y1343.126 Z-24.529
N1300 Y1789.525 Z-25.
N1305 G3 Y1789.945 Z-24.903 J0.001 K0.952
N1310 G2 Y1790.364 Z-24.806 J0.419 K-0.855
N1315 G17 G3 X21.662 Y1793.222 I-2.858 J0.
N1320 G1 X12.38
N1325 G3 X9.523 Y1790.364 I0. J-2.858
N1330 G19 G3 Y1789.945 Z-24.903 J0. K-0.952
N1335 G2 Y1789.525 Z-25. J-0.419 K0.855
N1340 G1 Y1343.126 Z-24.521
N1345 Y1240.337 Z-18.895
N1350 Y1122.863 Z-16.003
N1355 Y995.831 Z-16.08
N1360 Y843.115 Z-19.614
N1365 Y672.779 Z-25.
N1370 Y-29.554
N1375 G2 Y-29.974 Z-24.903 J0. K0.952
N1380 G3 Y-30.393 Z-24.806 J-0.419 K-0.855
N1385 G17 G2 X6.665 Y-33.25 I-2.858 J0.
N1390 G1 X-2.616
N1395 G2 X-5.474 Y-30.393 I0. J2.858
N1400 G19 G2 Y-29.974 Z-24.903 J0. K-0.952
N1405 G3 Y-29.554 Z-25. J0.419 K0.855
N1410 G1 Y672.778
N1415 Y843.114 Z-19.614
N1420 Y995.83 Z-16.08
N1425 Y1122.863 Z-16.003
N1430 Y1240.337 Z-18.894
N1435 Y1343.126 Z-24.521
N1440 Y1789.525 Z-25.
N1445 G3 Y1789.945 Z-24.903 J0.001 K0.952
N1450 G2 Y1790.364 Z-24.806 J0.419 K-0.855
N1455 G17 G3 X-8.331 Y1793.222 I-2.858 J0.
N1460 G1 X-17.613
N1465 G3 X-20.47 Y1790.364 I0. J-2.858
N1470 G19 G3 Y1789.945 Z-24.903 J0. K-0.952
N1475 G2 Y1789.525 Z-25. J-0.419 K0.855
N1480 G1 Y1343.126 Z-24.526
N1485 Y1240.337 Z-18.898
N1490 Y1122.863 Z-16.005
N1495 Y995.829 Z-16.08
N1500 Y843.113 Z-19.614
N1505 Y672.777 Z-25.
N1510 Y-29.554
N1515 G2 Y-29.974 Z-24.903 J0. K0.952
N1520 G3 Y-30.393 Z-24.806 J-0.419 K-0.855
N1525 G17 G2 X-23.328 Y-33.25 I-2.858 J0.
N1530 G1 X-32.609
N1535 G2 X-35.466 Y-30.393 I0. J2.858
N1540 G19 G2 Y-29.974 Z-24.903 J0. K-0.952
N1545 G3 Y-29.554 Z-25. J0.419 K0.855
N1550 G1 Y672.776
N1555 Y843.113 Z-19.614
N1560 Y995.828 Z-16.082
N1565 Y1122.863 Z-16.01
N1570 Y1240.337 Z-18.908
N1575 Y1343.126 Z-24.54
N1580 Y1789.525 Z-25.
N1585 G3 Y1789.945 Z-24.903 J0.001 K0.952
N1590 G2 Y1790.364 Z-24.806 J0.419 K-0.855
N1595 G17 G3 X-38.324 Y1793.222 I-2.858 J0.
N1600 G1 X-47.605
N1605 G3 X-50.463 Y1790.364 I0. J-2.857
N1610 G1 Y1790.272
N1615 G19 G3 Y1789.853 Z-24.903 J0. K-0.952
N1620 G2 Y1789.433 Z-25. J-0.419 K0.855
N1625 G1 Y1343.034 Z-24.556
N1630 Y1240.245 Z-18.92
N1635 Y1122.771 Z-16.019
N1640 Y992.891 Z-16.118
N1645 Y837.238 Z-19.804
N1650 Y672.776 Z-25.
N1655 Y-29.462
N1660 G2 Y-31.367 Z-23.095 J0. K1.905 F1000.
N1665 G1 Z5. F5000.
N1670 X-65.459 Y28.57
N1675 Z-23.095
N1680 G3 Y30.475 Z-25. J1.905 K0. F1000.
N1685 G1 Y672.775 F5000.
N1690 Y872.48 Z-18.692
N1695 Y1019.322 Z-15.864
N1700 Y1121.69 Z-16.02
N1705 Y1239.164 Z-18.903
N1710 Y1341.953 Z-24.512
N1715 Y1691.436 Z-25.
N1720 G3 Y1691.857 Z-24.903 J0.001 K0.952
N1725 G2 Y1692.276 Z-24.806 J0.419 K-0.855
N1730 G17 G3 X-68.317 Y1695.134 I-2.858 J0.
N1735 G1 X-77.598
N1740 G3 X-80.455 Y1692.276 I0. J-2.858
N1745 G1 Y1686.504
N1750 G19 G3 Y1686.085 Z-24.903 J0. K-0.953
N1755 G2 Y1685.665 Z-25. J-0.419 K0.855
N1760 G1 Y1342.055 Z-24.57
N1765 Y1239.266 Z-18.941
N1770 Y1121.792 Z-16.041
N1775 Y1019.321 Z-15.873
N1780 Y872.479 Z-18.692
N1785 Y672.775 Z-25.
N1790 Y30.475
N1795 G2 Y30.056 Z-24.903 J0. K0.952
N1800 G3 Y29.637 Z-24.806 J-0.419 K-0.855
N1805 G17 G2 X-83.313 Y26.779 I-2.857 J0.
N1810 G1 X-92.594
N1815 G2 X-95.452 Y29.637 I0. J2.858
N1820 G19 G2 Y30.056 Z-24.903 J0. K-0.952
N1825 G3 Y30.475 Z-25. J0.419 K0.855
N1830 G1 Y672.774
N1835 Y875.416 Z-18.609
N1840 Y1022.258 Z-15.866
N1845 Y1121.894 Z-16.068
N1850 Y1239.368 Z-18.991
N1855 Y1342.157 Z-24.647
N1860 Y1679.893 Z-25.
N1865 G3 Y1680.313 Z-24.903 J0.001 K0.952
N1870 G2 Y1680.732 Z-24.806 J0.419 K-0.855
N1875 G17 G3 X-98.309 Y1683.59 I-2.858 J0.
N1880 G1 X-107.591
N1885 G3 X-110.448 Y1680.732 I0. J-2.858
N1890 G1 Y1674.961
N1895 G19 G3 Y1674.542 Z-24.903 J0. K-0.953
N1900 G2 Y1674.121 Z-25. J-0.419 K0.855
N1905 G1 Y1339.322 Z-24.534
N1910 Y1236.533 Z-18.943
N1915 Y1116.123 Z-16.032
N1920 Y1019.321 Z-15.9
N1925 Y872.479 Z-18.692
N1930 Y672.774 Z-25.
N1935 Y30.475
N1940 G2 Y30.056 Z-24.903 J0. K0.952
N1945 G3 Y29.637 Z-24.806 J-0.419 K-0.855
N1950 G17 G2 X-113.306 Y26.779 I-2.857 J0.
N1955 G1 X-122.587
N1960 G2 X-125.445 Y29.637 I0. J2.858
N1965 G19 G2 Y30.056 Z-24.903 J0. K-0.952
N1970 G3 Y30.475 Z-25. J0.419 K0.855
N1975 G1 Y674.001
N1980 Y814.969 Z-20.531
N1985 Y976.495 Z-16.378
N1990 Y1114.526 Z-16.058
N1995 Y1234.936 Z-18.96
N2000 Y1337.725 Z-24.546
N2005 Y1660.777 Z-25.
N2010 G3 Y1661.198 Z-24.903 J0.001 K0.952
N2015 G2 Y1661.617 Z-24.806 J0.419 K-0.855
N2020 G17 G3 X-128.302 Y1664.474 I-2.857 J0.
N2025 G1 X-137.583
N2030 G3 X-140.441 Y1661.617 I0. J-2.857
N2035 G1 Y1645.456
N2040 G19 G3 Y1645.037 Z-24.903 J0. K-0.953
N2045 G2 Y1644.617 Z-25. J-0.419 K0.855
N2050 G1 Y1336.249 Z-24.604
N2055 Y1233.46 Z-19.006
N2060 Y1113.05 Z-16.101
N2065 Y975.018 Z-16.41
N2070 Y816.429 Z-20.482
N2075 Y672.524 Z-25.
N2080 Y30.475
N2085 G2 Y30.056 Z-24.903 J0. K0.952
N2090 G3 Y29.637 Z-24.806 J-0.419 K-0.855
N2095 G17 G2 X-143.298 Y26.779 I-2.857 J0.
N2100 G1 X-152.58
N2105 G2 X-155.437 Y29.637 I0. J2.858
N2110 G19 G2 Y30.056 Z-24.903 J0. K-0.952
N2115 G3 Y30.475 Z-25. J0.419 K0.855
N2120 G1 Y673.985
N2125 Y809.079 Z-20.726
N2130 Y970.605 Z-16.483
N2135 Y1108.636 Z-16.129
N2140 Y1229.047 Z-18.963
N2145 Y1331.836 Z-24.502
N2150 Y1628.456 Z-25.
N2155 G3 Y1628.877 Z-24.903 J0.002 K0.952
N2160 G2 Y1629.296 Z-24.806 J0.419 K-0.855
N2165 G17 G3 X-158.295 Y1632.154 I-2.857 J0.
N2170 G1 X-167.576
N2175 G3 X-170.434 Y1629.296 I0. J-2.857
N2180 G1 Y1613.135
N2185 G19 G3 Y1612.716 Z-24.903 J0. K-0.953
N2190 G2 Y1612.296 Z-25. J-0.419 K0.855
N2195 G1 Y1330.359 Z-24.657
N2200 Y1227.57 Z-19.076
N2205 Y1107.16 Z-16.203
N2210 Y972.066 Z-16.483
N2215 Y816.413 Z-20.483
N2220 Y672.508 Z-25.
N2225 Y37.041
N2230 G2 Y36.622 Z-24.903 J0. K0.952
N2235 G3 Y36.203 Z-24.806 J-0.419 K-0.855
N2240 G17 G2 X-173.291 Y33.345 I-2.857 J0.
N2245 G1 X-182.573
N2250 G2 X-185.43 Y36.203 I0. J2.858
N2255 G1 Y45.067
N2260 G19 G2 Y45.486 Z-24.903 J0. K-0.952
N2265 G3 Y45.905 Z-25. J0.419 K0.855
N2270 G1 Y673.969
N2275 Y814.937 Z-20.532
N2280 Y970.589 Z-16.521
N2285 Y1105.683 Z-16.287
N2290 Y1223.157 Z-19.097
N2295 Y1325.946 Z-24.652
N2300 Y1596.135 Z-25.
N2305 G3 Y1596.555 Z-24.903 J0.001 K0.952
N2310 G2 Y1596.974 Z-24.806 J0.419 K-0.855
N2315 G17 G3 X-188.288 Y1599.832 I-2.857 J0.
N2320 G1 X-197.569
N2325 G3 X-200.426 Y1596.974 I0. J-2.858
N2330 G1 Y1580.814
N2335 G19 G3 Y1580.395 Z-24.903 J0. K-0.952
N2340 G2 Y1579.974 Z-25. J-0.419 K0.855
N2345 G1 Y1318.596 Z-24.514
N2350 Y1218.744 Z-19.137
N2355 Y1098.333 Z-16.289
N2360 Y960.302 Z-16.655
N2365 Y795.839 Z-21.139
N2370 Y672.492 Z-25.
N2375 Y54.769
N2380 G2 Y54.35 Z-24.903 J0. K0.952
N2385 G3 Y53.93 Z-24.806 J-0.419 K-0.855
N2390 G17 G2 X-203.284 Y51.073 I-2.857 J0.
N2395 G1 X-212.565
N2400 G2 X-215.423 Y53.93 I0. J2.858
N2405 G1 Y62.794
N2410 G19 G2 Y63.213 Z-24.903 J0. K-0.952
N2415 G3 Y63.632 Z-25. J0.419 K0.855
N2420 G1 Y672.021
N2425 Y818.863 Z-20.313
N2430 Y965.705 Z-16.533
N2435 Y1100.799 Z-16.418
N2440 Y1218.272 Z-19.396
N2445 Y1312.251 Z-24.686
N2450 Y1556.009 Z-25.
N2455 G3 Y1557.916 Z-23.095 J0.002 K1.905 F1000.
N2460 G1 Z5. F5000.
N2465 X-230.419 Y1523.978
N2470 Z-23.095
N2475 G2 Y1522.071 Z-25. J-1.905 K0. F1000.
N2480 G1 Y1281.251 Z-24.723 F5000.
N2485 Y1239.629 Z-21.055
N2490 Y1139.777 Z-17.292
N2495 Y1013.493 Z-16.151
N2500 Y890.146 Z-18.014
N2505 Y669.883 Z-25.
N2510 Y92.922
N2515 G2 Y91.017 Z-23.095 J0. K1.905 F1000.
N2520 G1 Z5. F5000.
N2525 X-245.415 Y159.924
N2530 Z-23.095
N2535 G3 Y161.829 Z-25. J1.905 K0. F1000.
N2540 G1 Y671.379 F5000.
N2545 Y871.083 Z-18.545
N2550 Y982.683 Z-16.44
N2555 Y1100.157 Z-17.141
N2560 Y1166.235 Z-20.18
N2565 Y1223.5 Z-25.
N2570 Y1488.134
N2575 G3 Y1490.039 Z-23.095 J0. K1.905 F1000.
N2580 G1 Z5. F5000.
N2585 X-260.412 Y1443.81
N2590 Z-23.095
N2595 G2 Y1441.903 Z-25. J-1.905 K0. F1000.
N2600 G1 Y1115.792 Z-24.642 F5000.
N2605 Y1014.919 Z-19.937
N2610 Y915.067 Z-18.994
N2615 Y771.162 Z-22.603
N2620 Y702.418 Z-25.
N2625 Y230.736
N2630 G2 Y228.831 Z-23.095 J0. K1.905 F1000.
N2635 G1 Z5. F5000.
N2640 X-275.408 Y297.785
N2645 Z-23.095
N2650 G3 Y299.69 Z-25. J1.905 K0. F1000.
N2655 G1 Y1377.456 F5000.
N2660 G3 Y1379.361 Z-23.095 J0. K1.905 F1000.
N2665 G1 Z5. F5000.
N2670 X-290.405 Y1282.43
N2675 Z-23.095
N2680 G2 Y1280.525 Z-25. J-1.905 K0. F1000.
N2685 G1 Y444.933 F5000.
N2690 G2 Y443.028 Z-23.095 J0. K1.905 F1000.
N2695 G1 Z5. F5000.
N2700 X-305.401 Y588.754
N2705 Z-23.095
N2710 G3 Y590.659 Z-25. J1.905 K0. F1000.
N2715 G1 Y1117.952 F5000.
N2720 G3 Y1119.857 Z-23.095 J0. K1.905 F1000.
N2725 G1 Z10. F5000.
N2730 G17
(PARALLEL2 2)
N2735 G0 X309.45 Y1020.568
N2740 G1 Z10. F5000.
N2745 Z-48.095
N2750 G19 G2 Y1018.663 Z-50. J-1.905 K0. F1000.
N2755 G1 Y630.005 F5000.
N2760 G2 Y628.1 Z-48.095 J0. K1.905 F1000.
N2765 G1 Z5. F5000.
N2770 X294.454 Y482.506
N2775 Z-48.095
N2780 G3 Y484.411 Z-50. J1.905 K0. F1000.
N2785 G1 Y1245.583 F5000.
N2790 G3 Y1247.488 Z-48.095 J0. K1.905 F1000.
N2795 G1 Z5. F5000.
N2800 X279.457 Y1361.961
N2805 Z-48.095
N2810 G2 Y1360.056 Z-50. J-1.905 K0. F1000.
N2815 G1 Y1000.5 Z-49.99 F5000.
N2820 Y981.844 Z-44.847
N2825 Y956.59 Z-42.204
N2830 Y894.267 Z-39.535
N2835 Y826.279 Z-40.068
N2840 Y761.124 Z-43.823
N2845 Y721.802 Z-47.914
N2850 Y710.308 Z-50.
N2855 Y338.636
N2860 G2 Y336.731 Z-48.095 J0. K1.905 F1000.
N2865 G1 Z5. F5000.
N2870 X264.461 Y247.436
N2875 Z-48.095
N2880 G3 Y249.341 Z-50. J1.905 K0. F1000.
N2885 G1 Y444.638 F5000.
N2890 Y491.781 Z-49.509
N2895 Y513.157 Z-44.839
N2900 Y546.594 Z-39.732
N2905 Y594.261 Z-34.796
N2910 Y701.909 Z-28.121
N2915 Y843.551 Z-23.124
N2920 Y939.868 Z-22.114
N2925 Y1044.683 Z-24.717
N2930 Y1124.003 Z-30.197
N2935 Y1163.662 Z-34.908
N2940 Y1196.819 Z-40.771
N2945 Y1215.304 Z-46.433
N2950 Y1220.918 Z-50.
N2955 Y1424.414
N2960 G3 Y1426.319 Z-48.095 J0. K1.905 F1000.
N2965 G1 Z5. F5000.
N2970 X249.465 Y1480.789
N2975 Z-48.095
N2980 G2 Y1478.882 Z-50. J-1.905 K0. F1000.
N2985 G1 Y1317.251 Z-49.801 F5000.
N2990 Y1302.18 Z-43.387
N2995 Y1278.077 Z-37.091
N3000 Y1238.738 Z-30.442
N3005 Y1171.287 Z-23.344
N3010 Y1086.302 Z-18.634
N3015 Y998.484 Z-17.444
N3020 Y885.17 Z-19.178
N3025 Y593.388 Z-29.686
N3030 Y477.241 Z-35.463
N3035 Y426.676 Z-40.227
N3040 Y387.283 Z-46.553
N3045 Y371.475 Z-50.
N3050 Y180.434
N3055 G2 Y178.529 Z-48.095 J0. K1.905 F1000.
N3060 G1 Z5. F5000.
N3065 X234.468 Y109.622
N3070 Z-48.095
N3075 G3 Y111.527 Z-50. J1.905 K0. F1000.
N3080 G1 Y288.201 F5000.
N3085 Y309.369 Z-45.927
N3090 Y350.634 Z-41.416
N3095 Y568.763 Z-30.702
N3100 Y871.878 Z-19.528
N3105 Y990.857 Z-17.28
N3110 Y1113.007 Z-17.843
N3115 Y1213.573 Z-21.062
N3120 Y1270.23 Z-26.025
N3125 Y1315.295 Z-32.46
N3130 Y1342.53 Z-37.963
N3135 Y1361.236 Z-42.851
N3140 Y1378.818 Z-49.691
N3145 Y1512.819 Z-50.
N3150 G3 Y1514.729 Z-48.095 J0.004 K1.905 F1000.
N3155 G1 Z5. F5000.
N3160 X219.472 Y1548.757
N3165 Z-48.095
N3170 G2 Y1546.845 Z-50. J-1.905 K0. F1000.
N3175 G1 Y1422.2 Z-49.553 F5000.
N3180 Y1407.775 Z-44.05
N3185 Y1389.153 Z-38.703
N3190 Y1356.701 Z-32.015
N3195 Y1314.181 Z-26.244
N3200 Y1232.028 Z-21.094
N3205 Y1118.715 Z-17.71
N3210 Y985.571 Z-17.315
N3215 Y860.926 Z-19.934
N3220 Y557.812 Z-31.189
N3225 Y322.686 Z-42.849
N3230 Y243.366 Z-48.184
N3235 Y227.53 Z-50.
N3240 Y66.026
N3245 G2 Y65.606 Z-49.903 J0. K0.952
N3250 G3 Y65.187 Z-49.806 J-0.419 K-0.855
N3255 G1 Y56.324
N3260 G17 G2 X216.614 Y53.466 I-2.858 J0.
N3265 G1 X207.333
N3270 G2 X204.475 Y56.324 I0. J2.858
N3275 G19 G2 Y56.743 Z-49.903 J0. K-0.953
N3280 G3 Y57.162 Z-50. J0.419 K0.855
N3285 G1 Y205.637
N3290 Y304.787 Z-43.898
N3295 Y531.414 Z-32.361
N3300 Y828.863 Z-21.03
N3305 Y973.338 Z-17.465
N3310 Y1109.314 Z-17.445
N3315 Y1225.461 Z-20.471
N3320 Y1324.61 Z-26.102
N3325 Y1386.933 Z-32.066
N3330 Y1414.313 Z-37.141
N3335 Y1439.424 Z-43.682
N3340 Y1456.632 Z-49.953
N3345 Y1575.611 Z-50.
N3350 G3 Y1576.031 Z-49.903 J0. K0.952
N3355 G2 Y1576.45 Z-49.806 J0.419 K-0.855
N3360 G1 Y1592.612
N3365 G17 G3 X201.618 Y1595.469 I-2.857 J0.
N3370 G1 X192.337
N3375 G3 X189.479 Y1592.612 I0. J-2.857
N3380 G19 G3 Y1592.193 Z-49.903 J0. K-0.953
N3385 G2 Y1591.772 Z-50. J-0.419 K0.855
N3390 G1 Y1482.38 Z-49.805
N3395 Y1460.366 Z-42.507
N3400 Y1437.772 Z-37.294
N3405 Y1381.353 Z-30.428
N3410 Y1292.118 Z-23.518
N3415 Y1184.47 Z-18.846
N3420 Y1059.825 Z-17.009
N3425 Y920.78 Z-18.396
N3430 Y645.994 Z-27.615
N3435 Y388.205 Z-39.25
N3440 Y212.569 Z-49.916
N3445 Y48.298 Z-50.
N3450 G2 Y47.879 Z-49.903 J0. K0.952
N3455 G3 Y47.459 Z-49.806 J-0.419 K-0.855
N3460 G1 Y38.596
N3465 G17 G2 X186.622 Y35.739 I-2.857 J0.
N3470 G1 X177.34
N3475 G2 X174.483 Y38.596 I0. J2.857
N3480 G19 G2 Y39.015 Z-49.903 J0. K-0.953
N3485 G3 Y39.434 Z-50. J0.419 K0.855
N3490 G1 Y202.919
N3495 Y378.555 Z-39.759
N3500 Y633.511 Z-28.11
N3505 Y913.962 Z-18.574
N3510 Y1055.605 Z-16.938
N3515 Y1183.083 Z-18.651
N3520 Y1290.731 Z-23.168
N3525 Y1381.382 Z-29.969
N3530 Y1437.729 Z-36.198
N3535 Y1473.752 Z-41.587
N3540 Y1489.86 Z-45.509
N3545 Y1503.601 Z-49.994
N3550 Y1607.932 Z-50.
N3555 G3 Y1608.351 Z-49.903 J0. K0.952
N3560 G2 Y1608.771 Z-49.806 J0.419 K-0.855
N3565 G1 Y1624.843
N3570 G17 G3 X171.625 Y1627.7 I-2.857 J0.
N3575 G1 X162.344
N3580 G3 X159.486 Y1624.843 I0. J-2.857
N3585 G19 G3 Y1624.423 Z-49.903 J0. K-0.953
N3590 G2 Y1624.004 Z-50. J-0.419 K0.855
N3595 G1 Y1520.132
N3600 Y1501.052 Z-45.227
N3605 Y1462.032 Z-38.923
N3610 Y1408.913 Z-32.364
N3615 Y1323.927 Z-25.019
N3620 Y1221.945 Z-19.743
N3625 Y1102.966 Z-17.095
N3630 Y966.989 Z-17.546
N3635 Y802.684 Z-21.939
N3640 Y510.901 Z-33.295
N3645 Y292.773 Z-44.621
N3650 Y204.954 Z-50.
N3655 Y30.92
N3660 G2 Y30.501 Z-49.903 J0. K0.952
N3665 G3 Y30.081 Z-49.806 J-0.419 K-0.855
N3670 G1 Y29.716
N3675 G17 G2 X156.629 Y26.859 I-2.857 J0.
N3680 G1 X147.347
N3685 G2 X144.49 Y29.716 I0. J2.858
N3690 G19 G2 Y30.136 Z-49.903 J0. K-0.953
N3695 G3 Y30.555 Z-50. J0.419 K0.855
N3700 G1 Y205.55
N3705 Y378.354 Z-39.77
N3710 Y633.31 Z-28.118
N3715 Y913.761 Z-18.579
N3720 Y1055.403 Z-16.823
N3725 Y1182.881 Z-18.39
N3730 Y1293.362 Z-22.894
N3735 Y1384.013 Z-29.575
N3740 Y1437.752 Z-35.298
N3745 Y1496.977 Z-43.797
N3750 Y1528.328 Z-49.666
N3755 Y1640.165 Z-50.
N3760 G3 Y1640.587 Z-49.903 J0.003 K0.952
N3765 G2 Y1641.006 Z-49.806 J0.419 K-0.855
N3770 G1 Y1657.166
N3775 G17 G3 X141.632 Y1660.024 I-2.857 J0.
N3780 G1 X132.351
N3785 G3 X129.494 Y1657.166 I0. J-2.858
N3790 G19 G3 Y1656.747 Z-49.903 J0. K-0.953
N3795 G2 Y1656.325 Z-50. J-0.419 K0.855
N3800 G1 Y1531.592 Z-49.655
N3805 Y1494.83 Z-42.99
N3810 Y1427.033 Z-33.741
N3815 Y1362.011 Z-27.447
N3820 Y1265.695 Z-21.316
N3825 Y1152.381 Z-17.629
N3830 Y1019.237 Z-16.927
N3835 Y874.763 Z-19.628
N3840 Y574.481 Z-30.524
N3845 Y336.522 Z-42.059
N3850 Y203.379 Z-50.
N3855 Y30.567
N3860 G2 Y30.147 Z-49.903 J0. K0.952
N3865 G3 Y29.728 Z-49.806 J-0.419 K-0.855
N3870 G1 Y29.724
N3875 G17 G2 X126.636 Y26.866 I-2.857 J0.
N3880 G1 X117.355
N3885 G2 X114.497 Y29.724 I0. J2.858
N3890 G19 G2 Y30.143 Z-49.903 J0. K-0.953
N3895 G3 Y30.562 Z-50. J0.419 K0.855
N3900 G1 Y203.173
N3905 Y350.481 Z-41.279
N3910 Y594.105 Z-29.705
N3915 Y891.554 Z-19.152
N3920 Y1036.029 Z-16.804
N3925 Y1166.339 Z-17.848
N3930 Y1279.653 Z-21.907
N3935 Y1375.97 Z-28.472
N3940 Y1438.108 Z-34.809
N3945 Y1497.043 Z-43.005
N3950 Y1533.157 Z-49.52
N3955 Y1671.966 Z-50.
N3960 G3 Y1672.389 Z-49.903 J0.003 K0.952
N3965 G2 Y1672.808 Z-49.806 J0.419 K-0.855
N3970 G1 Y1679.085
N3975 G17 G3 X111.64 Y1681.943 I-2.857 J0.
N3980 G1 X102.358
N3985 G3 X99.501 Y1679.085 I0. J-2.858
N3990 G19 G3 Y1678.666 Z-49.903 J0. K-0.952
N3995 G2 Y1678.246 Z-50. J-0.419 K0.855
N4000 G1 Y1536.516 Z-49.858
N4005 Y1498.715 Z-43.03
N4010 Y1445.491 Z-35.534
N4015 Y1383.405 Z-29.008
N4020 Y1289.922 Z-22.371
N4025 Y1179.441 Z-18.104
N4030 Y1051.845 Z-16.74
N4035 Y907.37 Z-18.737
N4040 Y621.253 Z-28.599
N4045 Y369.13 Z-40.262
N4050 Y204.825 Z-50.
N4055 Y30.572
N4060 G2 Y30.153 Z-49.903 J0. K0.952
N4065 G3 Y29.733 Z-49.806 J-0.419 K-0.855
N4070 G17 G2 X96.643 Y26.876 I-2.858 J0.
N4075 G1 X87.362
N4080 G2 X84.505 Y29.733 I0. J2.858
N4085 G19 G2 Y30.152 Z-49.903 J0. K-0.953
N4090 G3 Y30.572 Z-50. J0.419 K0.855
N4095 G1 Y204.824
N4100 Y335.135 Z-42.138
N4105 Y573.093 Z-30.582
N4110 Y873.375 Z-19.667
N4115 Y1020.683 Z-16.867
N4120 Y1125.027 Z-17.086
N4125 Y1244.006 Z-20.139
N4130 Y1345.989 Z-25.878
N4135 Y1430.964 Z-33.707
N4140 Y1498.861 Z-42.884
N4145 Y1536.798 Z-49.687
N4150 Y1684.106 Z-50.
N4155 G3 Y1684.528 Z-49.903 J0.002 K0.952
N4160 G2 Y1684.947 Z-49.806 J0.419 K-0.855
N4165 G1 Y1690.719
N4170 G17 G3 X81.647 Y1693.577 I-2.857 J0.
N4175 G1 X72.366
N4180 G3 X69.508 Y1690.719 I0. J-2.858
N4185 G19 G3 Y1690.3 Z-49.903 J0. K-0.952
N4190 G2 Y1689.878 Z-50. J-0.419 K0.855
N4195 G1 Y1536.904 Z-49.558
N4200 Y1498.951 Z-42.784
N4205 Y1445.686 Z-35.351
N4210 Y1389.332 Z-29.385
N4215 Y1295.848 Z-22.587
N4220 Y1185.367 Z-18.182
N4225 Y1056.848 Z-16.694
N4230 Y913.033 Z-18.597
N4235 Y632.582 Z-28.147
N4240 Y377.626 Z-39.808
N4245 Y204.823 Z-50.
N4250 Y30.572
N4255 G2 Y28.667 Z-48.095 J0. K1.905 F1000.
N4260 G1 Z5. F5000.
N4265 X54.512 Y-30.155
N4270 Z-48.095
N4275 G3 Y-28.25 Z-50. J1.905 K0. F1000.
N4280 G1 Y204.821 F5000.
N4285 Y312.469 Z-43.444
N4290 Y539.097 Z-32.042
N4295 Y836.545 Z-20.827
N4300 Y992.352 Z-17.127
N4305 Y1127.205 Z-17.074
N4310 Y1246.185 Z-20.165
N4315 Y1348.167 Z-25.942
N4320 Y1433.152 Z-33.822
N4325 Y1500.979 Z-43.034
N4330 Y1538.931 Z-49.867
N4335 Y1788.221 Z-50.
N4340 G3 Y1788.641 Z-49.903 J0. K0.952
N4345 G2 Y1789.06 Z-49.806 J0.419 K-0.855
N4350 G1 Y1790.276
N4355 G17 G3 X51.654 Y1793.133 I-2.857 J0.
N4360 G1 X42.373
N4365 G3 X39.515 Y1790.276 I0. J-2.858
N4370 G19 G3 Y1789.857 Z-49.903 J0. K-0.952
N4375 G2 Y1789.437 Z-50. J-0.419 K0.855
N4380 G1 Y1538.641 Z-49.748
N4385 Y1501.188 Z-43.019
N4390 Y1433.688 Z-33.847
N4395 Y1348.703 Z-25.954
N4400 Y1246.721 Z-20.169
N4405 Y1127.741 Z-17.07
N4410 Y992.351 Z-17.124
N4415 Y836.544 Z-20.827
N4420 Y539.096 Z-32.042
N4425 Y312.468 Z-43.444
N4430 Y204.82 Z-50.
N4435 Y-29.554
N4440 G2 Y-29.974 Z-49.903 J0. K0.952
N4445 G3 Y-30.393 Z-49.806 J-0.419 K-0.855
N4450 G17 G2 X36.658 Y-33.25 I-2.857 J0.
N4455 G1 X27.377
N4460 G2 X24.519 Y-30.393 I0. J2.858
N4465 G19 G2 Y-29.974 Z-49.903 J0. K-0.953
N4470 G3 Y-29.554 Z-50. J0.419 K0.855
N4475 G1 Y204.819
N4480 Y337.963 Z-41.978
N4485 Y578.755 Z-30.344
N4490 Y879.036 Z-19.507
N4495 Y1026.344 Z-16.805
N4500 Y1156.094 Z-17.502
N4505 Y1269.408 Z-21.156
N4510 Y1365.725 Z-27.262
N4515 Y1433.566 Z-33.811
N4520 Y1501.398 Z-43.024
N4525 Y1540.058 Z-49.998
N4530 Y1789.437 Z-50.
N4535 G3 Y1789.856 Z-49.903 J0. K0.952
N4540 G2 Y1790.275 Z-49.806 J0.419 K-0.855
N4545 G17 G3 X21.662 Y1793.132 I-2.858 J0.
N4550 G1 X12.38
N4555 G3 X9.523 Y1790.275 I0. J-2.858
N4560 G19 G3 Y1789.856 Z-49.903 J0. K-0.953
N4565 G2 Y1789.437 Z-50. J-0.419 K0.855
N4570 G1 Y1540.058 Z-49.983
N4575 Y1501.425 Z-43.016
N4580 Y1433.921 Z-33.841
N4585 Y1366.079 Z-27.282
N4590 Y1269.762 Z-21.167
N4595 Y1156.448 Z-17.505
N4600 Y1026.343 Z-16.803
N4605 Y879.035 Z-19.507
N4610 Y578.754 Z-30.344
N4615 Y337.962 Z-41.978
N4620 Y204.818 Z-50.
N4625 Y-29.554
N4630 G2 Y-29.974 Z-49.903 J0. K0.952
N4635 G3 Y-30.393 Z-49.806 J-0.419 K-0.855
N4640 G17 G2 X6.665 Y-33.25 I-2.858 J0.
N4645 G1 X-2.616
N4650 G2 X-5.474 Y-30.393 I0. J2.858
N4655 G19 G2 Y-29.974 Z-49.903 J0. K-0.953
N4660 G3 Y-29.554 Z-50. J0.419 K0.855
N4665 G1 Y204.818
N4670 Y312.466 Z-43.444
N4675 Y539.093 Z-32.042
N4680 Y836.542 Z-20.827
N4685 Y992.348 Z-17.121
N4690 Y1127.708 Z-17.059
N4695 Y1246.687 Z-20.151
N4700 Y1348.67 Z-25.928
N4705 Y1433.655 Z-33.81
N4710 Y1501.488 Z-43.024
N4715 Y1540.058 Z-49.981
N4720 Y1789.437 Z-50.
N4725 G3 Y1789.856 Z-49.903 J0. K0.952
N4730 G2 Y1790.275 Z-49.806 J0.419 K-0.855
N4735 G17 G3 X-8.331 Y1793.132 I-2.858 J0.
N4740 G1 X-17.613
N4745 G3 X-20.47 Y1790.275 I0. J-2.858
N4750 G19 G3 Y1789.856 Z-49.903 J0. K-0.953
N4755 G2 Y1789.437 Z-50. J-0.419 K0.855
N4760 G1 Y1540.058 Z-49.993
N4765 Y1501.398 Z-43.02
N4770 Y1433.565 Z-33.808
N4775 Y1348.58 Z-25.927
N4780 Y1246.598 Z-20.151
N4785 Y1127.618 Z-17.061
N4790 Y992.347 Z-17.121
N4795 Y836.541 Z-20.827
N4800 Y539.092 Z-32.042
N4805 Y312.465 Z-43.444
N4810 Y204.817 Z-50.
N4815 Y-29.554
N4820 G2 Y-29.974 Z-49.903 J0. K0.952
N4825 G3 Y-30.393 Z-49.806 J-0.419 K-0.855
N4830 G17 G2 X-23.328 Y-33.25 I-2.858 J0.
N4835 G1 X-32.609
N4840 G2 X-35.466 Y-30.393 I0. J2.858
N4845 G19 G2 Y-29.974 Z-49.903 J0. K-0.953
N4850 G3 Y-29.554 Z-50. J0.419 K0.855
N4855 G1 Y204.816
N4860 Y312.464 Z-43.444
N4865 Y539.091 Z-32.042
N4870 Y836.54 Z-20.827
N4875 Y992.346 Z-17.123
N4880 Y1127.326 Z-17.063
N4885 Y1246.305 Z-20.149
N4890 Y1348.288 Z-25.919
N4895 Y1433.273 Z-33.793
N4900 Y1501.103 Z-42.996
N4905 Y1538.641 Z-49.738
N4910 Y1789.437 Z-50.
N4915 G3 Y1789.857 Z-49.903 J0.001 K0.952
N4920 G2 Y1790.276 Z-49.806 J0.419 K-0.855
N4925 G17 G3 X-38.324 Y1793.133 I-2.858 J0.
N4930 G1 X-47.605
N4935 G3 X-50.463 Y1790.276 I0. J-2.857
N4940 G1 Y1790.273
N4945 G19 G3 Y1789.854 Z-49.903 J0. K-0.952
N4950 G2 Y1789.433 Z-50. J-0.419 K0.855
N4955 G1 Y1537.31 Z-49.525
N4960 Y1501.991 Z-43.184
N4965 Y1434.163 Z-33.927
N4970 Y1349.178 Z-26.008
N4975 Y1247.196 Z-20.202
N4980 Y1128.216 Z-17.083
N4985 Y992.346 Z-17.126
N4990 Y836.539 Z-20.827
N4995 Y539.091 Z-32.042
N5000 Y312.463 Z-43.444
N5005 Y204.815 Z-50.
N5010 Y-29.462
N5015 G2 Y-31.367 Z-48.095 J0. K1.905 F1000.
N5020 G1 Z5. F5000.
N5025 X-65.459 Y28.666
N5030 Z-48.095
N5035 G3 Y30.571 Z-50. J1.905 K0. F1000.
N5040 G1 Y204.815 F5000.
N5045 Y309.63 Z-43.611
N5050 Y536.257 Z-32.167
N5055 Y833.706 Z-20.919
N5060 Y989.512 Z-17.17
N5065 Y1123.918 Z-17.046
N5070 Y1242.897 Z-20.047
N5075 Y1344.88 Z-25.729
N5080 Y1429.953 Z-33.496
N5085 Y1500.52 Z-43.015
N5090 Y1538.463 Z-49.842
N5095 Y1691.436 Z-50.
N5100 G3 Y1691.856 Z-49.903 J0.001 K0.952
N5105 G2 Y1692.276 Z-49.806 J0.419 K-0.855
N5110 G17 G3 X-68.317 Y1695.133 I-2.858 J0.
N5115 G1 X-77.598
N5120 G3 X-80.455 Y1692.276 I0. J-2.858
N5125 G1 Y1686.503
N5130 G19 G3 Y1686.084 Z-49.903 J0. K-0.953
N5135 G2 Y1685.665 Z-50. J-0.419 K0.855
N5140 G1 Y1538.357 Z-49.957
N5145 Y1500.433 Z-43.106
N5150 Y1432.62 Z-33.875
N5155 Y1347.635 Z-25.982
N5160 Y1245.653 Z-20.197
N5165 Y1129.506 Z-17.133
N5170 Y995.177 Z-17.103
N5175 Y842.204 Z-20.644
N5180 Y544.755 Z-31.796
N5185 Y315.295 Z-43.278
N5190 Y204.814 Z-50.
N5195 Y30.571
N5200 G2 Y30.152 Z-49.903 J0. K0.952
N5205 G3 Y29.733 Z-49.806 J-0.419 K-0.855
N5210 G17 G2 X-83.313 Y26.875 I-2.857 J0.
N5215 G1 X-92.594
N5220 G2 X-95.452 Y29.733 I0. J2.858
N5225 G1 Y29.737
N5230 G19 G2 Y30.156 Z-49.903 J0. K-0.953
N5235 G3 Y30.575 Z-50. J0.419 K0.855
N5240 G1 Y203.654
N5245 Y322.633 Z-42.852
N5250 Y554.926 Z-31.355
N5255 Y855.208 Z-20.232
N5260 Y1002.515 Z-17.039
N5265 Y1125.618 Z-17.113
N5270 Y1244.598 Z-20.2
N5275 Y1346.58 Z-25.976
N5280 Y1431.565 Z-33.857
N5285 Y1499.423 Z-43.093
N5290 Y1535.241 Z-49.534
N5295 Y1679.805 Z-50.
N5300 G3 Y1680.227 Z-49.903 J0.003 K0.952
N5305 G2 Y1680.646 Z-49.806 J0.419 K-0.855
N5310 G17 G3 X-98.309 Y1683.503 I-2.858 J0.
N5315 G1 X-107.591
N5320 G3 X-110.448 Y1680.646 I0. J-2.857
N5325 G1 Y1674.961
N5330 G19 G3 Y1674.542 Z-49.903 J0. K-0.952
N5335 G2 Y1674.121 Z-50. J-0.419 K0.855
N5340 G1 Y1535.312 Z-49.857
N5345 Y1497.352 Z-42.983
N5350 Y1429.496 Z-33.762
N5355 Y1344.51 Z-25.918
N5360 Y1242.528 Z-20.176
N5365 Y1123.549 Z-17.124
N5370 Y998.01 Z-17.095
N5375 Y847.869 Z-20.462
N5380 Y547.588 Z-31.673
N5385 Y318.127 Z-43.112
N5390 Y204.814 Z-50.
N5395 Y30.571
N5400 G2 Y30.152 Z-49.903 J0. K0.952
N5405 G3 Y29.733 Z-49.806 J-0.419 K-0.855
N5410 G1 Y29.637
N5415 G17 G2 X-113.306 Y26.779 I-2.857 J0.
N5420 G1 X-122.587
N5425 G2 X-125.445 Y29.637 I0. J2.858
N5430 G19 G2 Y30.056 Z-49.903 J0. K-0.953
N5435 G3 Y30.475 Z-50. J0.419 K0.855
N5440 G1 Y204.446
N5445 Y312.094 Z-43.466
N5450 Y541.554 Z-31.935
N5455 Y839.002 Z-20.748
N5460 Y989.143 Z-17.211
N5465 Y1122.287 Z-17.154
N5470 Y1241.266 Z-20.209
N5475 Y1343.249 Z-25.951
N5480 Y1428.234 Z-33.814
N5485 Y1496.042 Z-43.088
N5490 Y1533.299 Z-49.87
N5495 Y1660.777 Z-50.
N5500 G3 Y1661.198 Z-49.903 J0.001 K0.952
N5505 G2 Y1661.617 Z-49.806 J0.419 K-0.855
N5510 G17 G3 X-128.302 Y1664.474 I-2.857 J0.
N5515 G1 X-137.583
N5520 G3 X-140.441 Y1661.617 I0. J-2.857
N5525 G1 Y1645.367
N5530 G19 G3 Y1644.947 Z-49.903 J0. K-0.953
N5535 G2 Y1644.528 Z-50. J-0.419 K0.855
N5540 G1 Y1530.98
N5545 Y1498.107 Z-43.85
N5550 Y1438.858 Z-35.346
N5555 Y1359.538 Z-27.387
N5560 Y1263.222 Z-21.289
N5565 Y1147.075 Z-17.586
N5570 Y1013.931 Z-16.982
N5575 Y869.456 Z-19.785
N5580 Y569.175 Z-30.747
N5585 Y331.216 Z-42.36
N5590 Y203.738 Z-50.
N5595 Y30.59
N5600 G2 Y30.171 Z-49.903 J0. K0.952
N5605 G3 Y29.752 Z-49.806 J-0.419 K-0.855
N5610 G1 Y29.712
N5615 G17 G2 X-143.298 Y26.854 I-2.857 J0.
N5620 G1 X-152.58
N5625 G2 X-155.437 Y29.712 I0. J2.858
N5630 G19 G2 Y30.131 Z-49.903 J0. K-0.953
N5635 G3 Y30.55 Z-50. J0.419 K0.855
N5640 G1 Y205.248
N5645 Y253.407 Z-47.104
N5650 Y451.706 Z-36.058
N5655 Y729.324 Z-24.487
N5660 Y944.62 Z-17.915
N5665 Y1083.43 Z-16.935
N5670 Y1205.242 Z-19.132
N5675 Y1310.057 Z-24.042
N5680 Y1397.875 Z-31.126
N5685 Y1468.696 Z-39.751
N5690 Y1507.62 Z-46.193
N5695 Y1523.224 Z-49.771
N5700 Y1628.368 Z-50.
N5705 G3 Y1628.789 Z-49.903 J0.002 K0.952
N5710 G2 Y1629.208 Z-49.806 J0.419 K-0.855
N5715 G17 G3 X-158.295 Y1632.066 I-2.857 J0.
N5720 G1 X-167.576
N5725 G3 X-170.434 Y1629.208 I0. J-2.858
N5730 G1 Y1613.137
N5735 G19 G3 Y1612.718 Z-49.903 J0. K-0.952
N5740 G2 Y1612.296 Z-50. J-0.419 K0.855
N5745 G1 Y1507.839 Z-49.676
N5750 Y1488.834 Z-44.039
N5755 Y1466.847 Z-40.116
N5760 Y1398.929 Z-31.597
N5765 Y1311.111 Z-24.35
N5770 Y1206.296 Z-19.318
N5775 Y1084.483 Z-17.017
N5780 Y945.674 Z-17.901
N5785 Y736.044 Z-24.246
N5790 Y455.592 Z-35.87
N5795 Y257.293 Z-46.85
N5800 Y203.469 Z-50.
N5805 Y37.041
N5810 G2 Y36.622 Z-49.903 J0. K0.952
N5815 G3 Y36.203 Z-49.806 J-0.419 K-0.855
N5820 G17 G2 X-173.291 Y33.345 I-2.857 J0.
N5825 G1 X-182.573
N5830 G2 X-185.43 Y36.203 I0. J2.858
N5835 G1 Y45.067
N5840 G19 G2 Y45.486 Z-49.903 J0. K-0.953
N5845 G3 Y45.905 Z-50. J0.419 K0.855
N5850 G1 Y205.421
N5855 Y270.577 Z-45.997
N5860 Y480.207 Z-34.702
N5865 Y766.324 Z-23.179
N5870 Y953.292 Z-17.783
N5875 Y1092.101 Z-17.157
N5880 Y1213.913 Z-19.748
N5885 Y1315.896 Z-24.953
N5890 Y1400.881 Z-32.294
N5895 Y1451.529 Z-39.073
N5900 Y1470.315 Z-43.748
N5905 Y1487.859 Z-49.635
N5910 Y1596.135 Z-50.
N5915 G3 Y1596.557 Z-49.903 J0.003 K0.952
N5920 G2 Y1596.977 Z-49.806 J0.419 K-0.855
N5925 G17 G3 X-188.288 Y1599.834 I-2.857 J0.
N5930 G1 X-197.569
N5935 G3 X-200.426 Y1596.977 I0. J-2.857
N5940 G1 Y1580.813
N5945 G19 G3 Y1580.394 Z-49.903 J0. K-0.953
N5950 G2 Y1579.974 Z-50. J-0.419 K0.855
N5955 G1 Y1464.122 Z-49.998
N5960 Y1448.051 Z-44.152
N5965 Y1426.677 Z-38.366
N5970 Y1399.577 Z-33.165
N5975 Y1334.775 Z-26.736
N5980 Y1238.459 Z-20.951
N5985 Y1122.312 Z-17.598
N5990 Y989.168 Z-17.302
N5995 Y856.025 Z-20.171
N6000 Y555.743 Z-31.304
N6005 Y323.45 Z-42.804
N6010 Y204.471 Z-50.
N6015 Y54.769
N6020 G2 Y54.35 Z-49.903 J0. K0.952
N6025 G3 Y53.93 Z-49.806 J-0.419 K-0.855
N6030 G17 G2 X-203.284 Y51.073 I-2.857 J0.
N6035 G1 X-212.565
N6040 G2 X-215.423 Y53.93 I0. J2.858
N6045 G1 Y62.794
N6050 G19 G2 Y63.213 Z-49.903 J0. K-0.953
N6055 G3 Y63.632 Z-50. J0.419 K0.855
N6060 G1 Y213.811
N6065 Y225.958 Z-49.231
N6070 Y342.104 Z-41.745
N6075 Y585.729 Z-30.009
N6080 Y886.01 Z-19.201
N6085 Y1013.488 Z-17.117
N6090 Y1143.799 Z-18.13
N6095 Y1254.28 Z-22.049
N6100 Y1333.599 Z-27.55
N6105 Y1371.734 Z-33.053
N6110 Y1395.635 Z-38.099
N6115 Y1416.442 Z-43.763
N6120 Y1432.66 Z-49.792
N6125 Y1556.009 Z-50.
N6130 G3 Y1557.917 Z-48.095 J0.003 K1.905 F1000.
N6135 G1 Z5. F5000.
N6140 X-230.419 Y1523.891
N6145 Z-48.095
N6150 G2 Y1521.983 Z-50. J-1.905 K0. F1000.
N6155 G1 Y1392.092 Z-49.76 F5000.
N6160 Y1375.211 Z-43.18
N6165 Y1346.276 Z-35.77
N6170 Y1305.921 Z-28.795
N6175 Y1256.835 Z-23.248
N6180 Y1181.764 Z-19.476
N6185 Y1062.785 Z-17.216
N6190 Y926.809 Z-18.089
N6195 Y666.187 Z-26.744
N6200 Y402.733 Z-38.494
N6205 Y309.957 Z-44.076
N6210 Y275.15 Z-49.045
N6215 Y267.416 Z-50.
N6220 Y92.922
N6225 G2 Y91.017 Z-48.095 J0. K1.905 F1000.
N6230 G1 Z5. F5000.
N6235 X-245.415 Y159.924
N6240 Z-48.095
N6245 G3 Y161.829 Z-50. J1.905 K0. F1000.
N6250 G1 Y347.624 F5000.
N6255 Y355.569 Z-48.082
N6260 Y385.521 Z-42.711
N6265 Y432.367 Z-37.623
N6270 Y528.684 Z-32.467
N6275 Y823.299 Z-21.087
N6280 Y959.276 Z-17.636
N6285 Y1085.337 Z-17.85
N6290 Y1151.909 Z-20.351
N6295 Y1217.065 Z-25.448
N6300 Y1264.354 Z-31.219
N6305 Y1302.158 Z-38.269
N6310 Y1325.508 Z-45.019
N6315 Y1336.16 Z-49.997
N6320 Y1488.045 Z-50.
N6325 G3 Y1489.95 Z-48.095 J0. K1.905 F1000.
N6330 G1 Z5. F5000.
N6335 X-260.412 Y1443.721
N6340 Z-48.095
N6345 G2 Y1441.814 Z-50. J-1.905 K0. F1000.
N6350 G1 Y1252.225 Z-49.806 F5000.
N6355 Y1243.945 Z-45.831
N6360 Y1226.026 Z-40.227
N6365 Y1190.99 Z-33.725
N6370 Y1148.862 Z-28.874
N6375 Y1092.205 Z-24.417
N6380 Y990.223 Z-20.488
N6385 Y896.739 Z-20.309
N6390 Y738.1 Z-24.861
N6395 Y599.291 Z-31.675
N6400 Y522.933 Z-38.163
N6405 Y480.904 Z-44.085
N6410 Y454.634 Z-50.
N6415 Y230.736
N6420 G2 Y228.831 Z-48.095 J0. K1.905 F1000.
N6425 G1 Z5. F5000.
N6430 X-275.408 Y297.862
N6435 Z-48.095
N6440 G3 Y299.767 Z-50. J1.905 K0. F1000.
N6445 G1 Y626.936 F5000.
N6450 Y648.343 Z-45.936
N6455 Y675.592 Z-41.996
N6460 Y754.911 Z-35.857
N6465 Y845.562 Z-32.475
N6470 Y927.715 Z-32.369
N6475 Y1012.7 Z-35.994
N6480 Y1049.049 Z-39.814
N6485 Y1078.181 Z-44.386
N6490 Y1090.486 Z-49.989
N6495 Y1377.368 Z-50.
N6500 G3 Y1379.273 Z-48.095 J0. K1.905 F1000.
N6505 G1 Z5. F5000.
N6510 X-290.405 Y1282.43
N6515 Z-48.095
N6520 G2 Y1280.525 Z-50. J-1.905 K0. F1000.
N6525 G1 Y445.019 F5000.
N6530 G2 Y443.114 Z-48.095 J0. K1.905 F1000.
N6535 G1 Z5. F5000.
N6540 X-305.401 Y588.754
N6545 Z-48.095
N6550 G3 Y590.659 Z-50. J1.905 K0. F1000.
N6555 G1 Y1117.952 F5000.
N6560 G3 Y1119.857 Z-48.095 J0. K1.905 F1000.
N6565 G1 Z10. F5000.
N6570 G17
(PARALLEL2 3)
N6575 G0 X278.99 Y875.932
N6580 G1 Z10. F5000.
N6585 Z-35.862
N6590 Z-39.176 F1000.
N6595 G19 G2 Y874.06 Z-41.081 J-1.905 K0.
N6600 G1 Y822.732 Z-41.954 F5000.
N6605 G2 Y820.795 Z-40.049 J-0.032 K1.905 F1000.
N6610 G1 Z-36.882
N6615 Z5. F5000.
N6620 X263.994 Y495.239
N6625 Z-45.354
N6630 Z-47.646 F1000.
N6635 G3 Y497.55 Z-49.507 J1.905 K0.
N6640 G1 Y513.62 Z-45.999 F5000.
N6645 Y543.552 Z-41.091
N6650 Y594.958 Z-35.663
N6655 Y703.954 Z-28.91
N6660 Y847.01 Z-23.921
N6665 Y943.744 Z-23.035
N6670 Y1047.289 Z-25.743
N6675 Y1131.761 Z-31.832
N6680 Y1183.301 Z-39.114
N6685 Y1201.348 Z-43.644
N6690 G3 Y1203.717 Z-41.796 J0.464 K1.848 F1000.
N6695 G1 Z-39.243
N6700 Z5. F5000.
N6705 X248.998 Y1313.672
N6710 Z-44.573
N6715 Z-46.547 F1000.
N6720 G2 Y1311.085 Z-48.325 J-1.905 K0.
N6725 G1 Y1297.553 Z-43.136 F5000.
N6730 Y1272.992 Z-37.012
N6735 Y1229.536 Z-30.051
N6740 Y1152.218 Z-22.796
N6745 Y1063.659 Z-18.902
N6750 Y951.939 Z-18.768
N6755 Y799.345 Z-22.908
N6760 Y515.957 Z-34.083
N6765 Y445.11 Z-39.041
N6770 Y411.147 Z-43.252
N6775 Y380.164 Z-49.231
N6780 Y365.63 Z-53.572
N6785 G2 Y363.179 Z-51.746 J-0.545 K1.825 F1000.
N6790 G1 Z-49.744
N6795 Z5. F5000.
N6800 X234.002 Y268.871
N6805 Z-53.105
N6810 Z-54.891 F1000.
N6815 G3 Y271.427 Z-56.681 J1.905 K0.
N6820 G1 Y284.199 Z-52.039 F5000.
N6825 Y312.839 Z-46.301
N6830 Y353.055 Z-42.198
N6835 Y584.67 Z-31.028
N6840 Y884.408 Z-20.169
N6845 Y1004.303 Z-18.21
N6850 Y1132.92 Z-19.227
N6855 Y1222.842 Z-22.54
N6860 Y1285.514 Z-28.744
N6865 Y1328.599 Z-35.71
N6870 Y1357.111 Z-42.561
N6875 Y1372.172 Z-47.893
N6880 Y1381.425 Z-52.715
N6885 G3 Y1384.21 Z-51.025 J0.88 K1.689 F1000.
N6890 G1 Z-49.579
N6895 Z5. F5000.
N6900 X219.006 Y1435.598
N6905 Z-54.248
N6910 Z-55.175 F1000.
N6915 G2 Y1432.698 Z-56.8 J-1.905 K0.
N6920 G1 Y1423.924 Z-51.424 F5000.
N6925 Y1411.106 Z-46.057
N6930 Y1389.251 Z-39.632
N6935 Y1357.049 Z-32.978
N6940 Y1313.841 Z-27.167
N6945 Y1229.37 Z-21.959
N6950 Y1114.925 Z-18.638
N6955 Y981.405 Z-18.356
N6960 Y856.061 Z-21.09
N6965 Y553.598 Z-32.372
N6970 Y319.258 Z-44.049
N6975 Y240.577 Z-49.422
N6980 Y213.3 Z-54.195
N6985 Y198.59 Z-59.317
N6990 Y197.529 Z-59.915
N6995 G2 Y194.689 Z-58.255 J-0.935 K1.66 F1000.
N7000 G1 Z-56.926
N7005 Z5. F5000.
N7010 X204.01 Y134.141
N7015 Z-61.721
N7020 Z-62.624 F1000.
N7025 G3 Y137.061 Z-64.236 J1.905 K0.
N7030 G1 Y138.116 Z-63.572 F5000.
N7035 Y151.087 Z-58.403
N7040 Y174.974 Z-53.922
N7045 Y300.319 Z-45.167
N7050 Y523.76 Z-33.702
N7055 Y820.772 Z-22.297
N7060 Y970.641 Z-18.496
N7065 Y1106.885 Z-18.413
N7070 Y1224.055 Z-21.408
N7075 Y1322.151 Z-26.904
N7080 Y1387.548 Z-33.093
N7085 Y1413.957 Z-37.986
N7090 Y1434.606 Z-43.255
N7095 Y1454.694 Z-50.146
N7100 Y1464.134 Z-54.746
N7105 Y1472.41 Z-60.577
N7110 G3 Y1475.412 Z-59.019 J1.097 K1.557 F1000.
N7115 G1 Z-58.562
N7120 Z5. F5000.
N7125 X189.014 Y1507.466
N7130 Z-62.461
N7135 G2 Y1504.394 Z-63.967 J-1.905 K0. F1000.
N7140 G1 Y1495.463 Z-57.05 F5000.
N7145 Y1477.553 Z-48.956
N7150 Y1459.786 Z-43.288
N7155 Y1437.709 Z-38.239
N7160 Y1398.579 Z-33.198
N7165 Y1314.108 Z-25.912
N7170 Y1210.562 Z-20.678
N7175 Y1090.667 Z-18.165
N7180 Y951.698 Z-18.806
N7185 Y763.681 Z-24.268
N7190 Y477.568 Z-35.825
N7195 Y270.477 Z-47.006
N7200 Y145.132 Z-56.356
N7205 Y123.333 Z-58.971
N7210 Y116.84 Z-63.119
N7215 Y115.552 Z-64.733
N7220 G2 Y114.808 Z-65.091 J-0.745 K0.594
N7225 G1 Y105.067
N7230 X188.875 Y104.184 Z-65.099
N7235 X188.469 Y103.388 Z-65.12
N7240 X187.838 Y102.756 Z-65.154
N7245 X187.043 Y102.35 Z-65.197
N7250 X186.161 Y102.21 Z-65.244
N7255 X176.872 Z-65.743
N7260 X175.99 Y102.35 Z-65.79
N7265 X175.194 Y102.756 Z-65.833
N7270 X174.563 Y103.388 Z-65.866
N7275 X174.158 Y104.184 Z-65.888
N7280 X174.018 Y105.067 Z-65.896
N7285 G3 Y105.76 Z-65.597 J0. K0.952
N7290 G1 Y108.795 Z-62.386
N7295 Y115.908 Z-59.289
N7300 Y210.033 Z-51.103
N7305 Y381.7 Z-40.594
N7310 Y637.84 Z-28.939
N7315 Y915.778 Z-19.529
N7320 Y1057.472 Z-17.934
N7325 Y1182.817 Z-19.64
N7330 Y1291.812 Z-24.224
N7335 Y1381.733 Z-30.996
N7340 Y1452.579 Z-39.204
N7345 Y1479.387 Z-43.653
N7350 Y1499.799 Z-49.489
N7355 Y1514.447 Z-55.488
N7360 Y1521.843 Z-59.535
N7365 Y1530.753 Z-67.088
N7370 G3 Y1531.369 Z-67.314 J0.616 K0.727
N7375 G1 Y1553.428
N7380 X173.881 Y1554.312 Z-67.341
N7385 X173.483 Y1555.108 Z-67.419
N7390 X172.863 Y1555.74 Z-67.542
N7395 X172.081 Y1556.146 Z-67.696
N7400 X171.215 Y1556.286 Z-67.866
N7405 X161.826 Z-69.716
N7410 X160.959 Y1556.146 Z-69.887
N7415 X160.178 Y1555.74 Z-70.041
N7420 X159.558 Y1555.108 Z-70.163
N7425 X159.159 Y1554.312 Z-70.242
N7430 X159.022 Y1553.428 Z-70.269
N7435 G2 Y1552.783 Z-70.017 J0. K0.952
N7440 G1 Y1544.792 Z-62.653
N7445 Y1537.003 Z-57.951
N7450 Y1522.374 Z-51.732
N7455 Y1510.973 Z-48.246
N7460 Y1483.192 Z-43.142
N7465 Y1420.827 Z-34.668
N7470 Y1336.356 Z-26.895
N7475 Y1235.535 Z-21.261
N7480 Y1115.64 Z-18.218
N7485 Y979.396 Z-18.378
N7490 Y826.802 Z-22.143
N7495 Y529.79 Z-33.453
N7500 Y306.349 Z-44.807
N7505 Y164.655 Z-54.645
N7510 Y105.577 Z-60.625
N7515 Y99.395 Z-64.18
N7520 Y97.6 Z-66.34
N7525 Y97.493 Z-66.484
N7530 G2 Y96.76 Z-66.827 J-0.732 K0.609
N7535 G1 Y91.483
N7540 X158.882 Y90.6 Z-66.828
N7545 X158.477 Y89.803 Z-66.829
N7550 X157.844 Y89.171 Z-66.83
N7555 X157.048 Y88.765 Z-66.832
N7560 X156.165 Y88.625 Z-66.835
N7565 X146.884 Z-66.859
N7570 X146.001 Y88.765 Z-66.862
N7575 X145.204 Y89.171 Z-66.864
N7580 X144.572 Y89.803 Z-66.866
N7585 X144.166 Y90.6 Z-66.867
N7590 X144.026 Y91.483
N7595 G3 Y92.246 Z-66.484 J0. K0.952
N7600 G1 Y93.134 Z-65.292
N7605 Y97.664 Z-61.895
N7610 Y102.863 Z-60.715
N7615 Y162.577 Z-54.821
N7620 Y301.546 Z-45.093
N7625 Y524.986 Z-33.665
N7630 Y819.274 Z-22.389
N7635 Y977.317 Z-18.385
N7640 Y1113.562 Z-18.12
N7645 Y1233.457 Z-21.035
N7650 Y1334.277 Z-26.514
N7655 Y1418.739 Z-34.089
N7660 Y1470.175 Z-40.616
N7665 Y1510.545 Z-47.163
N7670 Y1536.69 Z-52.586
N7675 Y1551.535 Z-58.013
N7680 Y1564.93 Z-66.19
N7685 Y1571.467 Z-72.905
N7690 G3 Y1572.15 Z-73.193 J0.682 K0.664
N7695 G1 Y1588.066
N7700 X143.888 Y1588.949 Z-73.212
N7705 X143.486 Y1589.745 Z-73.268
N7710 X142.859 Y1590.378 Z-73.354
N7715 X142.07 Y1590.784 Z-73.462
N7720 X141.195 Y1590.923 Z-73.582
N7725 X131.861 Z-74.864
N7730 X130.986 Y1590.784 Z-74.984
N7735 X130.197 Y1590.378 Z-75.093
N7740 X129.571 Y1589.745 Z-75.179
N7745 X129.169 Y1588.949 Z-75.234
N7750 X129.03 Y1588.066 Z-75.253
N7755 G2 Y1587.419 Z-75. J0. K0.952
N7760 G1 Y1578.101 Z-66.387
N7765 Y1573.644 Z-63.478
N7770 Y1562.508 Z-58.147
N7775 Y1543.939 Z-53.305
N7780 Y1512.446 Z-46.996
N7785 Y1469.252 Z-40.108
N7790 Y1403.914 Z-32.259
N7795 Y1313.993 Z-24.984
N7800 Y1207.722 Z-20.021
N7805 Y1085.102 Z-17.85
N7810 Y946.133 Z-18.875
N7815 Y730.867 Z-25.432
N7820 Y452.929 Z-37.
N7825 Y254.012 Z-48.068
N7830 Y136.842 Z-57.128
N7835 Y100.06 Z-61.066
N7840 Y94.155 Z-63.766
N7845 Y91.613 Z-66.625
N7850 Y91.567 Z-66.681
N7855 G2 Y90.855 Z-67. J-0.712 K0.633
N7860 G1 Y90.4
N7865 X128.89 Y89.517
N7870 X128.485 Y88.721 Z-67.001
N7875 X127.852 Y88.088 Z-67.002
N7880 X127.056 Y87.683 Z-67.003
N7885 X126.173 Y87.543 Z-67.004
N7890 X116.892 Z-67.017
N7895 X116.009 Y87.683 Z-67.018
N7900 X115.212 Y88.088 Z-67.019
N7905 X114.58 Y88.721 Z-67.02
N7910 X114.174 Y89.517
N7915 X114.034 Y90.4
N7920 G3 Y91.13 Z-66.681 J0. K0.952
N7925 G1 Y93.137 Z-64.29
N7930 Y98.707 Z-61.302
N7935 Y121.643 Z-58.636
N7940 Y225.188 Z-50.02
N7945 Y405.031 Z-39.379
N7950 Y669.345 Z-27.715
N7955 Y928.209 Z-19.242
N7960 Y1069.903 Z-17.764
N7965 Y1195.248 Z-19.571
N7970 Y1304.243 Z-24.267
N7975 Y1394.164 Z-31.128
N7980 Y1448.55 Z-37.087
N7985 Y1505.553 Z-45.418
N7990 Y1542.461 Z-52.468
N7995 Y1568.392 Z-58.663
N8000 Y1584.526 Z-64.137
N8005 Y1592.223 Z-69.03
N8010 Y1598.325 Z-74.621
N8015 Y1601.108 Z-75.
N8020 G3 Y1601.655 Z-74.911 J0.128 K0.944
N8025 G1 Y1601.667 Z-74.906
N8030 G2 Y1602.086 Z-74.809 J0.419 K-0.855
N8035 G1 Y1613.786
N8040 G17 G3 X111.177 Y1616.644 I-2.857 J0.
N8045 G1 X101.896
N8050 G3 X99.038 Y1613.786 I0. J-2.858
N8055 G19 G3 Y1613.367 Z-74.906 J0. K-0.952
N8060 G2 Y1612.87 Z-75. J-0.419 K0.855
N8065 G1 Y1607.863 Z-74.59
N8070 Y1599.652 Z-68.283
N8075 Y1590.081 Z-64.368
N8080 Y1567.016 Z-57.786
N8085 Y1538.409 Z-51.258
N8090 Y1501.32 Z-44.462
N8095 Y1439.072 Z-35.765
N8100 Y1365.665 Z-28.488
N8105 Y1267.569 Z-22.23
N8110 Y1153.124 Z-18.54
N8115 Y1022.088 Z-17.871
N8120 Y874.944 Z-20.623
N8125 Y572.482 Z-31.609
N8130 Y335.416 Z-43.123
N8135 Y182.823 Z-53.164
N8140 Y103.978 Z-60.583
N8145 Y96.163 Z-62.081
N8150 Y91.623 Z-65.518
N8155 Y90.733 Z-66.73
N8160 Y90.702 Z-66.772
N8165 G2 Y89.934 Z-67.16 J-0.768 K0.564
N8170 G1 Y89.654 Z-67.156
N8175 G17 G2 X96.181 Y86.796 I-2.857 J0.
N8180 G1 X86.9
N8185 G2 X84.042 Y89.654 I0. J2.857
N8190 G19 G3 Y90.418 Z-66.772 J0. K0.952
N8195 G1 Y91.407 Z-65.441
N8200 Y96.138 Z-61.996
N8205 Y103.976 Z-60.583
N8210 Y171.922 Z-54.041
N8215 Y316.341 Z-44.219
N8220 Y547.956 Z-32.658
N8225 Y847.693 Z-21.468
N8230 Y997.562 Z-18.081
N8235 Y1133.648 Z-18.191
N8240 Y1250.818 Z-21.425
N8245 Y1351.639 Z-27.298
N8250 Y1436.097 Z-35.3
N8255 Y1492.983 Z-42.966
N8260 Y1532.972 Z-49.943
N8265 Y1564.268 Z-56.764
N8270 Y1589.994 Z-63.772
N8275 Y1607.493 Z-69.835
N8280 Y1615.653 Z-74.702
N8285 Y1623.027 Z-75.
N8290 G3 Y1623.485 Z-74.904 J0.038 K0.952
N8295 G1 Z-74.903
N8300 G2 Y1623.904 Z-74.806 J0.419 K-0.855
N8305 G1 Y1632.64
N8310 G17 G3 X81.185 Y1635.497 I-2.857 J0.
N8315 G1 X71.904
N8320 G3 X69.046 Y1632.64 I0. J-2.857
N8325 G19 G3 Y1632.22 Z-74.903 J0. K-0.952
N8330 G2 Y1631.768 Z-75. J-0.419 K0.855
N8335 G1 Y1620.589 Z-74.608
N8340 Y1601.464 Z-67.064
N8345 Y1581.067 Z-60.87
N8350 Y1555.18 Z-54.447
N8355 Y1518.435 Z-47.087
N8360 Y1475.205 Z-40.226
N8365 Y1421.284 Z-33.566
N8370 Y1334.095 Z-25.976
N8375 Y1230.55 Z-20.582
N8380 Y1110.655 Z-17.909
N8385 Y992.111 Z-18.135
N8390 Y836.793 Z-21.82
N8395 Y539.78 Z-33.013
N8400 Y310.89 Z-44.538
N8405 Y169.196 Z-54.266
N8410 Y103.975 Z-60.583
N8415 Y94.923 Z-62.482
N8420 Y90.186 Z-66.796
N8425 Y90.169 Z-66.812
N8430 G2 Y89.528 Z-67.06 J-0.641 K0.704
N8435 G1 Y89.45 Z-67.059
N8440 G17 G2 X66.189 Y86.593 I-2.858 J0.
N8445 G1 X56.908
N8450 G2 X54.05 Y89.45 I0. J2.857
N8455 G19 G3 Y90.09 Z-66.812 J0. K0.952
N8460 G1 Y94.886 Z-62.464
N8465 Y103.974 Z-60.583
N8470 Y182.819 Z-53.164
N8475 Y338.137 Z-42.97
N8480 Y577.927 Z-31.38
N8485 Y877.665 Z-20.546
N8490 Y1024.808 Z-17.823
N8495 Y1156.177 Z-18.523
N8500 Y1270.622 Z-22.248
N8505 Y1368.718 Z-28.552
N8510 Y1434.038 Z-34.928
N8515 Y1490.514 Z-42.403
N8520 Y1530.641 Z-49.258
N8525 Y1561.994 Z-55.896
N8530 Y1587.798 Z-62.589
N8535 Y1608.104 Z-69.059
N8540 Y1622.917 Z-74.925
N8545 Y1639.266 Z-75.
N8550 G3 Y1639.69 Z-74.903 J0.004 K0.952
N8555 G2 Y1640.109 Z-74.806 J0.419 K-0.855
N8560 G1 Y1646.547
N8565 G17 G3 X51.193 Y1649.405 I-2.857 J0.
N8570 G1 X41.912
N8575 G3 X39.055 Y1646.547 I0. J-2.858
N8580 G19 G3 Y1646.128 Z-74.903 J0. K-0.952
N8585 G2 Y1645.696 Z-75. J-0.419 K0.855
N8590 G1 Y1623.223 Z-74.701
N8595 Y1608.534 Z-69.036
N8600 Y1588.222 Z-62.607
N8605 Y1562.416 Z-55.922
N8610 Y1531.057 Z-49.28
N8615 Y1490.964 Z-42.425
N8620 Y1431.791 Z-34.636
N8625 Y1347.32 Z-26.855
N8630 Y1246.499 Z-21.16
N8635 Y1129.329 Z-18.088
N8640 Y994.834 Z-18.093
N8645 Y839.515 Z-21.732
N8650 Y542.503 Z-32.895
N8655 Y313.612 Z-44.379
N8660 Y169.193 Z-54.266
N8665 Y103.973 Z-60.583
N8670 Y94.879 Z-62.461
N8675 Y90.074 Z-66.812
N8680 G2 Y89.435 Z-67.058 J-0.639 K0.706
N8685 G1 Y89.312
N8690 X38.915 Y88.429 Z-67.06
N8695 X38.509 Y87.632 Z-67.063
N8700 X37.877 Y87. Z-67.068
N8705 X37.08 Y86.594 Z-67.074
N8710 X36.197 Y86.454 Z-67.08
N8715 X26.916 Z-67.152
N8720 X26.033 Y86.594 Z-67.158
N8725 X25.236 Y87. Z-67.165
N8730 X24.604 Y87.632 Z-67.169
N8735 X24.198 Y88.429 Z-67.173
N8740 X24.059 Y89.312 Z-67.174
N8745 G3 Y90.059 Z-66.812 J0. K0.952
N8750 G1 Y91.55 Z-64.928
N8755 Y97.018 Z-61.599
N8760 Y105.623 Z-60.39
N8765 Y181.791 Z-53.245
N8770 Y334.385 Z-43.181
N8775 Y571.45 Z-31.652
N8780 Y873.912 Z-20.652
N8785 Y1021.056 Z-17.84
N8790 Y1145.622 Z-18.319
N8795 Y1260.067 Z-21.731
N8800 Y1358.163 Z-27.662
N8805 Y1431.661 Z-34.6
N8810 Y1491.34 Z-42.456
N8815 Y1531.417 Z-49.316
N8820 Y1562.764 Z-55.964
N8825 Y1588.574 Z-62.655
N8830 Y1608.896 Z-69.081
N8835 Y1623.917 Z-74.847
N8840 Y1651.166 Z-75.
N8845 G3 Y1651.59 Z-74.903 J0.005 K0.952
N8850 G2 Y1652.009 Z-74.806 J0.419 K-0.855
N8855 G1 Y1656.627
N8860 G17 G3 X21.201 Y1659.485 I-2.858 J0.
N8865 G1 X11.92
N8870 G3 X9.063 Y1656.627 I0. J-2.858
N8875 G19 G3 Y1656.208 Z-74.903 J0. K-0.952
N8880 G2 Y1655.789 Z-75. J-0.419 K0.855
N8885 G1 Y1624.392 Z-74.998
N8890 Y1604.469 Z-67.539
N8895 Y1578.909 Z-59.97
N8900 Y1547.756 Z-52.597
N8905 Y1510.823 Z-45.586
N8910 Y1453.829 Z-37.234
N8915 Y1399.664 Z-31.256
N8920 Y1307.018 Z-24.155
N8925 Y1198.022 Z-19.47
N8930 Y1072.677 Z-17.679
N8935 Y929.435 Z-19.214
N8940 Y670.57 Z-27.668
N8945 Y406.257 Z-39.317
N8950 Y223.689 Z-50.125
N8955 Y120.144 Z-58.791
N8960 Y97.349 Z-61.503
N8965 Y91.93 Z-64.535
N8970 Y90.043 Z-66.812
N8975 Y90.039 Z-66.819
N8980 G2 Y89.305 Z-67.164 J-0.734 K0.608
N8985 G1 Y89.255
N8990 X8.923 Y88.372
N8995 X8.517 Y87.576 Z-67.166
N9000 X7.885 Y86.944 Z-67.169
N9005 X7.088 Y86.538 Z-67.172
N9010 X6.205 Y86.398 Z-67.175
N9015 X-3.076 Z-67.213
N9020 X-3.959 Y86.538 Z-67.217
N9025 X-4.755 Y86.944 Z-67.22
N9030 X-5.388 Y87.576 Z-67.222
N9035 X-5.794 Y88.372 Z-67.224
N9040 X-5.933 Y89.255 Z-67.225
N9045 G3 Y90.035 Z-66.819 J0. K0.952
N9050 G1 Y90.59 Z-66.028
N9055 Y96.053 Z-61.923
N9060 Y109.295 Z-59.969
N9065 Y190.99 Z-52.527
N9070 Y349.033 Z-42.36
N9075 Y594.273 Z-30.699
N9080 Y891.285 Z-20.16
N9085 Y1038.429 Z-17.728
N9090 Y1167.723 Z-18.722
N9095 Y1279.443 Z-22.646
N9100 Y1374.814 Z-29.01
N9105 Y1453.835 Z-37.234
N9110 Y1510.829 Z-45.586
N9115 Y1547.762 Z-52.598
N9120 Y1578.916 Z-59.971
N9125 Y1604.475 Z-67.539
N9130 Y1623.957 Z-74.811
N9135 Y1656.655 Z-75.
N9140 G3 Y1657.08 Z-74.903 J0.006 K0.952
N9145 G2 Y1657.499 Z-74.806 J0.419 K-0.855
N9150 G17 G3 X-8.791 Y1660.357 I-2.858 J0.
N9155 G1 X-18.072
N9160 G3 X-20.929 Y1657.499 I0. J-2.858
N9165 G1 Y1653.043
N9170 G19 G3 Y1652.624 Z-74.903 J0. K-0.952
N9175 G2 Y1652.189 Z-75. J-0.419 K0.855
N9180 G1 Y1623.147 Z-74.509
N9185 Y1604.392 Z-67.534
N9190 Y1578.835 Z-59.965
N9195 Y1547.682 Z-52.593
N9200 Y1510.75 Z-45.583
N9205 Y1453.757 Z-37.232
N9210 Y1374.735 Z-29.01
N9215 Y1279.364 Z-22.647
N9220 Y1167.644 Z-18.724
N9225 Y1038.428 Z-17.729
N9230 Y891.284 Z-20.16
N9235 Y594.272 Z-30.699
N9240 Y349.032 Z-42.36
N9245 Y190.989 Z-52.527
N9250 Y109.294 Z-59.969
N9255 Y96.057 Z-61.925
N9260 Y90.598 Z-66.035
N9265 Y90.05 Z-66.817
N9270 G2 Y89.27 Z-67.223 J-0.78 K0.546
N9275 G17 G2 X-23.787 Y86.413 I-2.858 J0.
N9280 G1 X-33.068
N9285 G2 X-35.925 Y89.27 I0. J2.857
N9290 G1 Y89.284
N9295 G19 G3 Y90.064 Z-66.817 J0. K0.952
N9300 G1 Y90.065 Z-66.815
N9305 Y90.606 Z-66.043
N9310 Y96.061 Z-61.927
N9315 Y109.294 Z-59.969
N9320 Y190.988 Z-52.527
N9325 Y349.031 Z-42.36
N9330 Y594.271 Z-30.699
N9335 Y891.284 Z-20.16
N9340 Y1038.427 Z-17.732
N9345 Y1167.381 Z-18.725
N9350 Y1279.101 Z-22.645
N9355 Y1374.472 Z-29.003
N9360 Y1453.494 Z-37.22
N9365 Y1510.484 Z-45.563
N9370 Y1547.414 Z-52.567
N9375 Y1578.564 Z-59.934
N9380 Y1604.114 Z-67.504
N9385 Y1622.964 Z-74.549
N9390 Y1646.909 Z-75.
N9395 G3 Y1647.346 Z-74.903 J0.018 K0.952
N9400 G2 Y1647.766 Z-74.806 J0.419 K-0.855
N9405 G17 G3 X-38.783 Y1650.623 I-2.858 J0.
N9410 G1 X-48.064
N9415 G3 X-50.921 Y1647.766 I0. J-2.858
N9420 G1 Y1641.55
N9425 G19 G3 Y1641.131 Z-74.903 J0. K-0.952
N9430 G2 Y1640.688 Z-75. J-0.419 K0.855
N9435 G1 Y1622.255 Z-74.541
N9440 Y1608.482 Z-69.148
N9445 Y1588.188 Z-62.676
N9450 Y1562.389 Z-55.972
N9455 Y1531.034 Z-49.319
N9460 Y1490.938 Z-42.458
N9465 Y1420.091 Z-33.38
N9470 Y1332.895 Z-25.85
N9475 Y1229.349 Z-20.508
N9480 Y1109.454 Z-17.883
N9485 Y973.03 Z-18.394
N9490 Y804.087 Z-22.893
N9495 Y512.524 Z-34.223
N9500 Y294.533 Z-45.515
N9505 Y158.289 Z-55.187
N9510 Y101.343 Z-60.896
N9515 Y94.879 Z-62.464
N9520 Y90.08 Z-66.813
N9525 G2 Y89.441 Z-67.06 J-0.64 K0.706
N9530 G1 X-51.061 Y88.558
N9535 X-51.467 Y87.761 Z-67.061
N9540 X-52.099 Y87.129 Z-67.063
N9545 X-52.896 Y86.723 Z-67.064
N9550 X-53.779 Y86.583 Z-67.066
N9555 X-63.06 Z-67.087
N9560 X-63.943 Y86.723 Z-67.089
N9565 X-64.739 Y87.129 Z-67.091
N9570 X-65.372 Y87.761 Z-67.092
N9575 X-65.777 Y88.558 Z-67.093
N9580 X-65.917 Y89.441
N9585 Y89.455
N9590 G3 Y90.13 Z-66.813 J0. K0.952
N9595 G1 Y90.139 Z-66.805
N9600 Y93.84 Z-63.093
N9605 Y100.03 Z-61.055
N9610 Y155.563 Z-55.424
N9615 Y289.083 Z-45.847
N9620 Y507.074 Z-34.469
N9625 Y798.636 Z-23.074
N9630 Y970.304 Z-18.437
N9635 Y1106.972 Z-17.876
N9640 Y1226.867 Z-20.443
N9645 Y1330.413 Z-25.712
N9650 Y1417.609 Z-33.165
N9655 Y1488.456 Z-42.145
N9660 Y1528.637 Z-48.946
N9665 Y1560.02 Z-55.526
N9670 Y1585.839 Z-62.166
N9675 Y1606.145 Z-68.614
N9680 Y1620.92 Z-74.541
N9685 Y1633.425 Z-75.
N9690 G3 Y1633.879 Z-74.903 J0.035 K0.952
N9695 G2 Y1634.298 Z-74.806 J0.419 K-0.855
N9700 G17 G3 X-68.775 Y1637.155 I-2.858 J0.
N9705 G1 X-78.056
N9710 G3 X-80.913 Y1634.298 I0. J-2.857
N9715 G1 Y1625.844
N9720 G19 G3 Y1625.425 Z-74.903 J0. K-0.952
N9725 G1 Y1625.422 Z-74.905
N9730 G2 Y1624.946 Z-75. J-0.419 K0.855
N9735 G1 Y1616.762 Z-74.509
N9740 Y1610.763 Z-70.991
N9745 Y1593.273 Z-64.708
N9750 Y1570.199 Z-58.188
N9755 Y1538.978 Z-51.108
N9760 Y1501.859 Z-44.355
N9765 Y1433.815 Z-35.021
N9770 Y1349.343 Z-27.112
N9775 Y1248.522 Z-21.32
N9780 Y1131.352 Z-18.156
N9785 Y997.552 Z-18.079
N9790 Y847.684 Z-21.468
N9795 Y547.946 Z-32.659
N9800 Y316.331 Z-44.219
N9805 Y171.912 Z-54.041
N9810 Y103.967 Z-60.583
N9815 Y96.121 Z-61.984
N9820 Y91.363 Z-65.427
N9825 Y90.359 Z-66.774
N9830 G2 Y89.595 Z-67.158 J-0.764 K0.569
N9835 G1 X-81.053 Y88.712 Z-67.157
N9840 X-81.459 Y87.915 Z-67.153
N9845 X-82.091 Y87.283 Z-67.148
N9850 X-82.888 Y86.877 Z-67.141
N9855 X-83.771 Y86.738 Z-67.133
N9860 X-93.052 Z-67.054
N9865 X-93.935 Y86.877 Z-67.046
N9870 X-94.731 Y87.283 Z-67.039
N9875 X-95.363 Y87.915 Z-67.034
N9880 X-95.769 Y88.712 Z-67.03
N9885 X-95.909 Y89.595 Z-67.029
N9890 Y89.969
N9895 G3 Y90.654 Z-66.738 J0. K0.952
N9900 G1 Y94.002 Z-63.266
N9905 Y99.619 Z-61.105
N9910 Y155.563 Z-55.424
N9915 Y289.082 Z-45.847
N9920 Y507.073 Z-34.469
N9925 Y798.635 Z-23.074
N9930 Y970.303 Z-18.447
N9935 Y1106.546 Z-17.915
N9940 Y1226.441 Z-20.505
N9945 Y1329.987 Z-25.798
N9950 Y1417.183 Z-33.286
N9955 Y1488.03 Z-42.326
N9960 Y1528.165 Z-49.174
N9965 Y1559.502 Z-55.861
N9970 Y1585.261 Z-62.722
N9975 Y1599.926 Z-67.81
N9980 Y1609.662 Z-74.68
N9985 Y1615.112 Z-75.
N9990 G3 Y1615.587 Z-74.904 J0.056 K0.951
N9995 G1 Y1615.59 Z-74.903
N10000 G2 Y1616.009 Z-74.806 J0.419 K-0.855
N10005 G17 G3 X-98.767 Y1618.867 I-2.858 J0.
N10010 G1 X-108.048
N10015 G3 X-110.905 Y1616.009 I0. J-2.858
N10020 G1 Y1604.53
N10025 G19 G3 Y1604.11 Z-74.903 J0. K-0.952
N10030 G2 Y1603.691 Z-75. J-0.419 K0.855
N10035 G1 Y1600.772 Z-74.999
N10040 Y1595.405 Z-69.956
N10045 Y1587.203 Z-64.649
N10050 Y1576.758 Z-60.866
N10055 Y1550.927 Z-54.254
N10060 Y1519.495 Z-47.82
N10065 Y1476.403 Z-40.8
N10070 Y1402.831 Z-31.942
N10075 Y1312.91 Z-24.778
N10080 Y1206.639 Z-19.9
N10085 Y1084.02 Z-17.8
N10090 Y953.954 Z-18.731
N10095 Y757.762 Z-24.477
N10100 Y474.374 Z-35.978
N10105 Y267.283 Z-47.208
N10110 Y144.663 Z-56.398
N10115 Y100.029 Z-61.055
N10120 Y94.046 Z-63.461
N10125 Y91.029 Z-66.696
N10130 G2 Y90.332 Z-66.999 J-0.696 K0.65
N10135 G1 X-111.045 Y89.449
N10140 X-111.451 Y88.653
N10145 X-112.083 Y88.021 Z-67.
N10150 X-112.88 Y87.615 Z-67.001
N10155 X-113.763 Y87.475 Z-67.002
N10160 X-123.044 Z-67.012
N10165 X-123.927 Y87.615 Z-67.013
N10170 X-124.723 Y88.021 Z-67.014
N10175 X-125.355 Y88.653 Z-67.015
N10180 X-125.761 Y89.449
N10185 X-125.901 Y90.332
N10190 Y90.729
N10195 G3 Y91.441 Z-66.696 J0. K0.952
N10200 G1 Y91.498 Z-66.635
N10205 Y94.039 Z-63.778
N10210 Y99.788 Z-61.105
N10215 Y150.141 Z-55.902
N10220 Y278.211 Z-46.518
N10225 Y488.027 Z-35.341
N10230 Y774.14 Z-23.908
N10235 Y959.432 Z-18.645
N10240 Y1098.401 Z-17.917
N10245 Y1221.021 Z-20.45
N10250 Y1324.567 Z-25.645
N10255 Y1411.763 Z-33.027
N10260 Y1482.61 Z-42.005
N10265 Y1522.774 Z-48.821
N10270 Y1554.093 Z-55.559
N10275 Y1567.988 Z-59.581
N10280 Y1580.517 Z-66.486
N10285 Y1589.089 Z-74.456
N10290 Y1590.408 Z-75.
N10295 G3 Y1591.191 Z-74.975 J0.363 K0.881
N10300 G2 Y1591.61 Z-74.878 J0.419 K-0.855
N10305 G1 X-126.04 Y1592.493 Z-74.866
N10310 X-126.445 Y1593.289 Z-74.831
N10315 X-127.075 Y1593.922 Z-74.777
N10320 X-127.868 Y1594.328 Z-74.71
N10325 X-128.748 Y1594.467 Z-74.635
N10330 X-138.05 Z-73.842
N10335 X-138.93 Y1594.328 Z-73.767
N10340 X-139.723 Y1593.922 Z-73.699
N10345 X-140.353 Y1593.289 Z-73.645
N10350 X-140.758 Y1592.493 Z-73.611
N10355 X-140.897 Y1591.61 Z-73.599
N10360 Y1576.502
N10365 G3 Y1576.083 Z-73.696 J0. K-0.952
N10370 G2 Y1574.977 Z-73.5 J-0.419 K0.855
N10375 G1 Y1568.532 Z-66.781
N10380 Y1555.208 Z-58.561
N10385 Y1540.303 Z-53.166
N10390 Y1511.531 Z-47.223
N10395 Y1468.358 Z-40.273
N10400 Y1394.786 Z-31.543
N10405 Y1304.865 Z-24.536
N10410 Y1198.595 Z-19.808
N10415 Y1073.25 Z-17.838
N10420 Y931.556 Z-19.176
N10425 Y678.142 Z-27.38
N10430 Y411.103 Z-39.07
N10435 Y228.535 Z-49.786
N10440 Y122.265 Z-58.57
N10445 Y99.598 Z-61.198
N10450 Y94.631 Z-63.686
N10455 Y92.058 Z-66.571
N10460 G2 Y91.347 Z-66.889 J-0.711 K0.634
N10465 G1 X-141.037 Y90.464 Z-66.89
N10470 X-141.443 Y89.668
N10475 X-142.075 Y89.036 Z-66.892
N10480 X-142.872 Y88.63 Z-66.893
N10485 X-143.755 Y88.49 Z-66.895
N10490 X-153.036 Z-66.911
N10495 X-153.919 Y88.63 Z-66.913
N10500 X-154.715 Y89.036 Z-66.914
N10505 X-155.347 Y89.668 Z-66.915
N10510 X-155.753 Y90.464 Z-66.916
N10515 X-155.893 Y91.347
N10520 Y95.348
N10525 G3 Y96.082 Z-66.571 J0. K0.952
N10530 G1 Y96.142 Z-66.503
N10535 Y97.942 Z-64.327
N10540 Y104.079 Z-60.79
N10545 Y171.404 Z-54.083
N10550 Y315.823 Z-44.249
N10555 Y544.714 Z-32.799
N10560 Y844.451 Z-21.572
N10565 Y988.87 Z-18.254
N10570 Y1122.389 Z-18.292
N10575 Y1239.559 Z-21.392
N10580 Y1340.38 Z-27.136
N10585 Y1424.17 Z-34.976
N10590 Y1490.111 Z-44.13
N10595 Y1516.508 Z-49.117
N10600 Y1529.127 Z-53.109
N10605 Y1541.238 Z-58.497
N10610 Y1548.995 Z-63.235
N10615 Y1556.914 Z-70.652
N10620 G3 Y1557.566 Z-70.91 J0.651 K0.695
N10625 G1 X-156.03 Y1558.449 Z-70.882
N10630 X-156.428 Y1559.245 Z-70.802
N10635 X-157.048 Y1559.877 Z-70.677
N10640 X-157.829 Y1560.283 Z-70.52
N10645 X-158.694 Y1560.423 Z-70.346
N10650 X-168.088 Z-68.456
N10655 X-168.953 Y1560.283 Z-68.281
N10660 X-169.734 Y1559.877 Z-68.124
N10665 X-170.354 Y1559.245 Z-68.
N10670 X-170.752 Y1558.449 Z-67.92
N10675 X-170.889 Y1557.566 Z-67.892
N10680 Y1536.215
N10685 G2 Y1535.598 Z-67.666 J0. K0.952
N10690 G1 Y1526.486 Z-59.93
N10695 Y1514.645 Z-53.841
N10700 Y1499.703 Z-48.318
N10705 Y1481.652 Z-43.683
N10710 Y1427.502 Z-35.803
N10715 Y1348.48 Z-28.043
N10720 Y1250.384 Z-22.044
N10725 Y1135.939 Z-18.591
N10730 Y1002.42 Z-18.149
N10735 Y863.451 Z-20.974
N10740 Y563.713 Z-31.981
N10745 Y329.373 Z-43.466
N10750 Y179.504 Z-53.427
N10755 Y112.35 Z-59.882
N10760 Y106.011 Z-63.407
N10765 Y104.015 Z-65.737
N10770 G2 Y103.291 Z-66.07 J-0.723 K0.62
N10775 G1 X-171.029 Y102.408 Z-66.062
N10780 X-171.434 Y101.612 Z-66.037
N10785 X-172.065 Y100.98 Z-65.999
N10790 X-172.86 Y100.574 Z-65.951
N10795 X-173.741 Y100.434 Z-65.898
N10800 X-183.033 Z-65.339
N10805 X-183.914 Y100.574 Z-65.286
N10810 X-184.709 Y100.98 Z-65.238
N10815 X-185.34 Y101.612 Z-65.2
N10820 X-185.745 Y102.408 Z-65.175
N10825 X-185.885 Y103.291 Z-65.167
N10830 Y112.858
N10835 G3 Y113.508 Z-64.91 J0. K0.952
N10840 G1 Y118.01 Z-60.705
N10845 Y125.468 Z-58.243
N10850 Y233.101 Z-49.47
N10855 Y418.393 Z-38.7
N10860 Y688.157 Z-27.001
N10865 Y933.397 Z-19.144
N10870 Y1072.366 Z-18.038
N10875 Y1194.985 Z-20.126
N10880 Y1301.256 Z-25.011
N10885 Y1388.452 Z-32.014
N10890 Y1445.55 Z-39.11
N10895 Y1467.615 Z-44.273
N10900 Y1485.387 Z-50.156
N10905 Y1500.312 Z-56.956
N10910 Y1510.25 Z-64.635
N10915 G3 Y1513.319 Z-63.128 J1.165 K1.507 F1000.
N10920 G1 Z5. F5000.
N10925 X-200.881 Y1482.62
N10930 Z-59.481
N10935 Z-59.818 F1000.
N10940 G2 Y1479.598 Z-61.361 J-1.905 K0.
N10945 G1 Y1471.403 Z-55.429 F5000.
N10950 Y1462. Z-50.773
N10955 Y1447.067 Z-45.249
N10960 Y1425.103 Z-39.259
N10965 Y1395.975 Z-33.766
N10970 Y1327.853 Z-27.217
N10975 Y1229.757 Z-21.585
N10980 Y1112.587 Z-18.459
N10985 Y976.343 Z-18.44
N10990 Y834.649 Z-21.855
N10995 Y537.637 Z-33.091
N11000 Y308.746 Z-44.664
N11005 Y168.415 Z-54.338
N11010 Y143.91 Z-58.317
N11015 Y129.676 Z-63.302
N11020 Y126.522 Z-65.132
N11025 G2 Y123.661 Z-63.485 J-0.956 K1.648 F1000.
N11030 G1 Z-63.025
N11035 Z5. F5000.
N11040 X-215.877 Y181.859
N11045 Z-57.7
N11050 Z-58.908 F1000.
N11055 G3 Y184.673 Z-60.582 J1.905 K0.
N11060 G1 Y186.419 Z-59.633 F5000.
N11065 Y202.5 Z-54.348
N11070 Y230.01 Z-49.911
N11075 Y358.08 Z-41.862
N11080 Y606.044 Z-30.169
N11085 Y900.332 Z-19.796
N11090 Y1033.851 Z-18.061
N11095 Y1159.196 Z-19.494
N11100 Y1265.466 Z-23.664
N11105 Y1336.313 Z-28.909
N11110 Y1370.376 Z-34.059
N11115 Y1401.124 Z-40.779
N11120 Y1421.246 Z-47.01
N11125 Y1433.021 Z-52.136
N11130 Y1441.648 Z-57.597
N11135 G3 Y1444.572 Z-55.988 J1.019 K1.61 F1000.
N11140 G1 Z-55.157
N11145 Z5. F5000.
N11150 X-230.873 Y1396.009
N11155 Z-50.577
N11160 Z-51.921 F1000.
N11165 G2 Y1393.197 Z-53.597 J-1.905 K0.
N11170 G1 Y1384.081 Z-48.665 F5000.
N11175 Y1364.526 Z-41.908
N11180 Y1336.488 Z-35.33
N11185 Y1295.255 Z-28.666
N11190 Y1251.3 Z-23.94
N11195 Y1175.004 Z-20.274
N11200 Y1055.109 Z-18.176
N11205 Y918.864 Z-19.261
N11210 Y640.926 Z-28.735
N11215 Y384.787 Z-40.43
N11220 Y313.94 Z-44.852
N11225 Y280.892 Z-49.608
N11230 Y259.831 Z-55.339
N11235 Y255.478 Z-57.325
N11240 G2 Y252.783 Z-55.592 J-0.791 K1.733 F1000.
N11245 G1 Z-53.86
N11250 Z5. F5000.
N11255 X-245.869 Y342.216
N11260 Z-50.405
N11265 Z-52.383 F1000.
N11270 G3 Y344.763 Z-54.176 J1.905 K0.
N11275 G1 Y346.694 Z-53.485 F5000.
N11280 Y365.127 Z-48.265
N11285 Y398.164 Z-42.588
N11290 Y446.533 Z-37.722
N11295 Y600.489 Z-30.375
N11300 Y894.777 Z-19.863
N11305 Y1014.672 Z-18.334
N11310 Y1112.768 Z-19.606
N11315 Y1194.514 Z-24.587
N11320 Y1251.446 Z-30.873
N11325 Y1290.908 Z-37.683
N11330 Y1315.459 Z-44.194
N11335 Y1327.753 Z-49.281
N11340 G3 Y1330.386 Z-47.521 J0.728 K1.76 F1000.
N11345 G1 Z-45.624
N11350 Z5. F5000.
N11355 X-260.865 Y1231.682
N11360 Z-40.344
N11365 Z-42.78 F1000.
N11370 G2 Y1229.246 Z-44.609 J-1.905 K0.
N11375 G1 Y1214.462 Z-40.312 F5000.
N11380 Y1178.262 Z-33.967
N11385 Y1107.415 Z-26.921
N11390 Y1017.494 Z-22.663
N11395 Y927.573 Z-21.249
N11400 Y794.053 Z-24.124
N11405 Y638.735 Z-30.651
N11410 Y546.089 Z-37.487
N11415 Y501.271 Z-43.095
N11420 Y471.942 Z-48.945
N11425 Y466.475 Z-50.448
N11430 G2 Y464.065 Z-48.611 J-0.505 K1.837 F1000.
N11435 G1 Z-46.403
N11440 Z5. F5000.
N11445 X-275.861 Y683.488
N11450 Z-39.996
N11455 Z-42.835 F1000.
N11460 G3 Y685.594 Z-44.73 J1.905 K0.
N11465 G1 Y723.798 Z-40.674 F5000.
N11470 Y808.27 Z-36.136
N11475 Y895.466 Z-34.668
N11480 Y971.763 Z-36.498
N11485 Y1018.086 Z-40.322
N11490 G3 Y1020.148 Z-38.423 J0.157 K1.899 F1000.
N11495 G1 Z-35.279
N11500 Z10. F5000.
N11505 G17
(PARALLEL2 4)
N11510 G0 X278.153 Y855.463
N11515 G1 Z10. F5000.
N11520 Z-41.069
N11525 Z-48.969 F1000.
N11530 G19 G2 Y853.542 Z-50.874 J-1.905 K0.
N11535 G1 Y847.42 Z-50.824 F5000.
N11540 Y842.231 Z-51.052
N11545 G2 Y840.242 Z-49.149 J-0.084 K1.903 F1000.
N11550 G1 Z-41.332
N11555 Z5. F5000.
N11560 X275.153 Y684.917
N11565 Z-44.713
N11570 Z-52.163 F1000.
N11575 G3 Y687.544 Z-53.926 J1.905 K0.
N11580 G1 Y692.002 Z-52.099 F5000.
N11585 Y696.81 Z-50.347
N11590 Y698.989 Z-49.729
N11595 Y703.415 Z-48.875
N11600 Y712.028 Z-47.671
N11605 Y732.588 Z-45.335
N11610 Y754.529 Z-43.223
N11615 Y774.02 Z-41.794
N11620 Y795.271 Z-40.691
N11625 Y818.128 Z-39.826
N11630 Y842.616 Z-39.176
N11635 Y869.4 Z-38.763
N11640 Y897.714 Z-38.748
N11645 Y922.202 Z-39.271
N11650 Y947.455 Z-40.556
N11655 Y970.766 Z-42.141
N11660 Y984.217 Z-43.256
N11665 Y993.925 Z-44.137
N11670 Y999.111 Z-44.896
N11675 Y1002.018 Z-45.545
N11680 Y1014.911 Z-49.541
N11685 G3 Y1017.38 Z-47.722 J0.564 K1.82 F1000.
N11690 G1 Z-40.255
N11695 Z5. F5000.
N11700 X272.153 Y1085.092
N11705 Z-41.103
N11710 Z-48.177 F1000.
N11715 G2 Y1082.323 Z-49.875 J-1.905 K0.
N11720 G1 Y1078.316 Z-47.836 F5000.
N11725 Y1074.223 Z-45.978
N11730 Y1071.682 Z-45.197
N11735 Y1067.588 Z-44.347
N11740 Y1060.182 Z-43.182
N11745 Y1049.786 Z-41.744
N11750 Y1037.895 Z-40.138
N11755 Y1027.468 Z-38.947
N11760 Y1015.518 Z-37.9
N11765 Y990.348 Z-36.442
N11770 Y965.86 Z-35.325
N11775 Y943.668 Z-34.525
N11780 Y920.711 Z-33.943
N11785 Y895.458 Z-33.73
N11790 Y867.909 Z-33.897
N11795 Y840.36 Z-34.379
N11800 Y815.107 Z-35.034
N11805 Y791.404 Z-35.844
N11810 Y770.088 Z-36.761
N11815 Y749.624 Z-37.864
N11820 Y731.6 Z-39.012
N11825 Y709.592 Z-40.64
N11830 Y690.466 Z-42.238
N11835 Y674.193 Z-43.791
N11840 Y664.671 Z-44.994
N11845 Y655.192 Z-46.508
N11850 Y635.561 Z-50.036
N11855 Y632.045 Z-50.842
N11860 Y629.881 Z-51.508
N11865 Y628.481 Z-52.14
N11870 Y622.764 Z-55.358
N11875 G2 Y619.925 Z-53.698 J-0.934 K1.66 F1000.
N11880 G1 Z-46.376
N11885 Z5. F5000.
N11890 X269.153 Y570.928
N11895 Z-47.768
N11900 Z-54.977 F1000.
N11905 G3 Y573.94 Z-56.528 J1.905 K0.
N11910 G1 Y578.108 Z-53.554 F5000.
N11915 Y579.122 Z-52.961
N11920 Y580.533 Z-52.391
N11925 Y583.839 Z-51.43
N11930 Y601.247 Z-47.416
N11935 Y607.145 Z-46.285
N11940 Y616.082 Z-44.965
N11945 Y633.311 Z-42.859
N11950 Y652.385 Z-40.721
N11955 Y668.507 Z-39.201
N11960 Y687.504 Z-37.792
N11965 Y705.38 Z-36.662
N11970 Y725.549 Z-35.507
N11975 Y745.193 Z-34.503
N11980 Y762.573 Z-33.708
N11985 Y782.384 Z-32.906
N11990 Y810.698 Z-31.959
N11995 Y837.481 Z-31.259
N12000 Y865.795 Z-30.727
N12005 Y892.579 Z-30.46
N12010 Y920.128 Z-30.442
N12015 Y940.024 Z-30.694
N12020 Y963.747 Z-31.203
N12025 Y992.826 Z-32.079
N12030 Y1015.773 Z-33.165
N12035 Y1036.056 Z-34.557
N12040 Y1056.994 Z-36.212
N12045 Y1071.932 Z-37.546
N12050 Y1080.888 Z-38.41
N12055 Y1090.554 Z-39.651
N12060 Y1097.211 Z-40.748
N12065 Y1116.363 Z-44.378
N12070 Y1119.287 Z-45.019
N12075 Y1122.506 Z-45.92
N12080 Y1124.338 Z-46.661
N12085 Y1130.594 Z-50.481
N12090 G3 Y1133.492 Z-48.855 J0.993 K1.626 F1000.
N12095 G1 Z-42.09
N12100 Z5. F5000.
N12105 X266.153 Y1171.934
N12110 Z-43.227
N12115 Z-49.676 F1000.
N12120 G2 Y1168.9 Z-51.21 J-1.905 K0.
N12125 G1 Y1165.294 Z-48.555 F5000.
N12130 Y1163.519 Z-47.347
N12135 Y1161.735 Z-46.572
N12140 Y1158.536 Z-45.592
N12145 Y1150.609 Z-43.638
N12150 Y1137.445 Z-40.662
N12155 Y1132.285 Z-39.742
N12160 Y1122.626 Z-38.446
N12165 Y1113.693 Z-37.36
N12170 Y1095.807 Z-35.354
N12175 Y1078.086 Z-33.572
N12180 Y1059.146 Z-32.213
N12185 Y1029.327 Z-30.625
N12190 Y1002.543 Z-29.456
N12195 Y970.403 Z-28.351
N12200 Y943.619 Z-27.791
N12205 Y920.662 Z-27.61
N12210 Y890.818 Z-27.836
N12215 Y862.503 Z-28.269
N12220 Y825.006 Z-29.107
N12225 Y785.214 Z-30.296
N12230 Y749.33 Z-31.612
N12235 Y715.203 Z-33.112
N12240 Y685.933 Z-34.711
N12245 Y665.164 Z-36.108
N12250 Y649.155 Z-37.311
N12255 Y630.179 Z-38.857
N12260 Y614.871 Z-40.203
N12265 Y600.135 Z-41.75
N12270 Y586.999 Z-43.528
N12275 Y568.164 Z-46.325
N12280 Y560.788 Z-47.61
N12285 Y555.659 Z-48.777
N12290 Y544.53 Z-51.841
N12295 Y540.196 Z-53.078
N12300 Y538.145 Z-53.859
N12305 Y536.871 Z-54.608
N12310 Y533.443 Z-57.558
N12315 G2 Y530.295 Z-56.114 J-1.243 K1.444 F1000.
N12320 G1 Z-49.018
N12325 Z5. F5000.
N12330 X263.153 Y495.009
N12335 Z-50.159
N12340 Z-57.146 F1000.
N12345 G3 Y498.236 Z-58.518 J1.905 K0.
N12350 G1 Y500.747 Z-56.097 F5000.
N12355 Y501.696 Z-55.314
N12360 Y502.383 Z-54.925
N12365 Y503.777 Z-54.311
N12370 Y509.896 Z-52.271
N12375 Y518.356 Z-49.652
N12380 Y522.438 Z-48.65
N12385 Y527.883 Z-47.604
N12390 Y542.206 Z-45.094
N12395 Y552.631 Z-43.4
N12400 Y564.66 Z-41.883
N12405 Y579.788 Z-40.271
N12410 Y598.734 Z-38.387
N12415 Y611.479 Z-37.248
N12420 Y630.315 Z-35.838
N12425 Y649.923 Z-34.595
N12430 Y679.914 Z-32.882
N12435 Y707.215 Z-31.487
N12440 Y742.147 Z-29.932
N12445 Y783.439 Z-28.406
N12450 Y826.293 Z-27.122
N12455 Y863.025 Z-26.283
N12460 Y890.574 Z-25.862
N12465 Y920.418 Z-25.63
N12470 Y947.202 Z-25.799
N12475 Y981.638 Z-26.393
N12480 Y1011.482 Z-27.142
N12485 Y1033.675 Z-27.965
N12490 Y1055.101 Z-29.109
N12495 Y1074.041 Z-30.293
N12500 Y1092.063 Z-31.547
N12505 Y1105.529 Z-32.578
N12510 Y1118.231 Z-33.644
N12515 Y1131.086 Z-35.068
N12520 Y1148.735 Z-37.452
N12525 Y1162.091 Z-39.402
N12530 Y1168.753 Z-40.456
N12535 Y1174.612 Z-41.7
N12540 Y1182.583 Z-43.815
N12545 Y1188.355 Z-45.442
N12550 Y1193.149 Z-46.877
N12555 Y1195.584 Z-47.882
N12560 Y1196.735 Z-48.59
N12565 Y1200.717 Z-51.968
N12570 G3 Y1201.333 Z-52.195 J0.616 K0.726
N12575 G1 Y1228.746
N12580 X263.135 Y1228.99 Z-52.2
N12585 X263.08 Y1229.229 Z-52.216
N12590 X262.99 Y1229.455 Z-52.242
N12595 X262.867 Y1229.664 Z-52.277
N12600 X262.714 Y1229.85 Z-52.321
N12605 X262.535 Y1230.009 Z-52.372
N12610 X262.334 Y1230.137 Z-52.43
N12615 X262.117 Y1230.231 Z-52.493
N12620 X261.888 Y1230.288 Z-52.558
N12625 X261.653 Y1230.307 Z-52.626
N12630 X261.419 Y1230.288 Z-52.693
N12635 X261.19 Y1230.231 Z-52.759
N12640 X260.973 Y1230.137 Z-52.822
N12645 X260.772 Y1230.009 Z-52.879
N12650 X260.593 Y1229.85 Z-52.931
N12655 X260.44 Y1229.664 Z-52.975
N12660 X260.317 Y1229.455 Z-53.01
N12665 X260.227 Y1229.229 Z-53.036
N12670 X260.172 Y1228.99 Z-53.052
N12675 X260.154 Y1228.746 Z-53.057
N12680 G2 Y1228.088 Z-52.793 J0. K0.952
N12685 G1 Y1224.57 Z-49.433
N12690 Y1223.182 Z-48.54
N12695 Y1220.759 Z-47.497
N12700 Y1214.441 Z-45.409
N12705 Y1205.842 Z-42.767
N12710 Y1200.761 Z-41.5
N12715 Y1194.134 Z-40.276
N12720 Y1182.307 Z-38.257
N12725 Y1166.757 Z-35.771
N12730 Y1155.6 Z-34.358
N12735 Y1146.65 Z-33.439
N12740 Y1130.225 Z-31.884
N12745 Y1112.294 Z-30.329
N12750 Y1094.349 Z-28.91
N12755 Y1075.392 Z-27.747
N12760 Y1047.078 Z-26.488
N12765 Y1014.938 Z-25.336
N12770 Y983.562 Z-24.51
N12775 Y962.136 Z-24.104
N12780 Y941.474 Z-23.913
N12785 Y920.047 Z-23.932
N12790 Y887.907 Z-24.382
N12795 Y856.532 Z-25.031
N12800 Y807.556 Z-26.348
N12805 Y757.815 Z-27.994
N12810 Y722.654 Z-29.353
N12815 Y689.138 Z-30.791
N12820 Y658.712 Z-32.239
N12825 Y628.239 Z-33.95
N12830 Y609.188 Z-35.216
N12835 Y585.661 Z-36.915
N12840 Y568.267 Z-38.306
N12845 Y552.182 Z-39.891
N12850 Y534.245 Z-42.001
N12855 Y521.306 Z-43.626
N12860 Y511.982 Z-45.037
N12865 Y502.267 Z-46.892
N12870 Y491.687 Z-49.02
N12875 Y486.355 Z-50.241
N12880 Y482.967 Z-51.268
N12885 Y471.962 Z-55.24
N12890 Y470.573 Z-55.902
N12895 Y469.986 Z-56.265
N12900 Y469.131 Z-57.028
N12905 Y466.989 Z-59.404
N12910 G2 Y466.282 Z-59.718 J-0.707 K0.638
N12915 G1 Y437.881
N12920 X260.135 Y437.636 Z-59.724
N12925 X260.08 Y437.398 Z-59.74
N12930 X259.99 Y437.171 Z-59.766
N12935 X259.867 Y436.962 Z-59.802
N12940 X259.714 Y436.776 Z-59.847
N12945 X259.535 Y436.616 Z-59.899
N12950 X259.335 Y436.488 Z-59.958
N12955 X259.117 Y436.394 Z-60.022
N12960 X258.888 Y436.337 Z-60.089
N12965 X258.654 Y436.318 Z-60.158
N12970 X258.419 Y436.337 Z-60.226
N12975 X258.19 Y436.394 Z-60.293
N12980 X257.973 Y436.488 Z-60.357
N12985 X257.772 Y436.616 Z-60.416
N12990 X257.593 Y436.776 Z-60.468
N12995 X257.44 Y436.962 Z-60.513
N13000 X257.317 Y437.171 Z-60.549
N13005 X257.227 Y437.398 Z-60.575
N13010 X257.172 Y437.636 Z-60.591
N13015 X257.154 Y437.881 Z-60.597
N13020 G3 Y438.615 Z-60.252 J0. K0.953
N13025 G1 Y440.584 Z-57.871
N13030 Y441.477 Z-57.091
N13035 Y442.154 Z-56.68
N13040 Y443.767 Z-55.923
N13045 Y450.764 Z-53.126
N13050 Y454.217 Z-51.824
N13055 Y458.11 Z-50.699
N13060 Y463.154 Z-49.538
N13065 Y474.933 Z-46.935
N13070 Y482.214 Z-45.551
N13075 Y491.995 Z-44.092
N13080 Y507.887 Z-41.915
N13085 Y517.915 Z-40.685
N13090 Y531.393 Z-39.326
N13095 Y552.449 Z-37.488
N13100 Y570.888 Z-36.038
N13105 Y595.04 Z-34.478
N13110 Y628.621 Z-32.603
N13115 Y668.744 Z-30.69
N13120 Y721.287 Z-28.567
N13125 Y793.986 Z-25.988
N13130 Y856.736 Z-24.037
N13135 Y889.641 Z-23.215
N13140 Y920.251 Z-22.697
N13145 Y941.678 Z-22.666
N13150 Y976.879 Z-22.937
N13155 Y1009.785 Z-23.453
N13160 Y1031.977 Z-24.041
N13165 Y1064.117 Z-25.355
N13170 Y1093.197 Z-26.829
N13175 Y1116.063 Z-28.179
N13180 Y1133.302 Z-29.435
N13185 Y1148.978 Z-30.941
N13190 Y1165.386 Z-32.657
N13195 Y1181.781 Z-34.502
N13200 Y1189.222 Z-35.418
N13205 Y1198.86 Z-36.857
N13210 Y1212.87 Z-39.448
N13215 Y1223.172 Z-41.462
N13220 Y1229.027 Z-42.735
N13225 Y1232.61 Z-43.765
N13230 Y1244.631 Z-47.985
N13235 Y1246.472 Z-48.742
N13240 Y1248.201 Z-49.675
N13245 Y1249.156 Z-50.426
N13250 Y1252.1 Z-53.612
N13255 G3 Y1252.8 Z-53.919 J0.7 K0.646
N13260 G1 Y1274.358
N13265 X257.135 Y1274.602 Z-53.924
N13270 X257.08 Y1274.84 Z-53.94
N13275 X256.99 Y1275.066 Z-53.965
N13280 X256.867 Y1275.275 Z-54.001
N13285 X256.714 Y1275.461 Z-54.045
N13290 X256.535 Y1275.62 Z-54.096
N13295 X256.335 Y1275.748 Z-54.154
N13300 X256.117 Y1275.842 Z-54.216
N13305 X255.888 Y1275.899 Z-54.282
N13310 X255.654 Y1275.918 Z-54.349
N13315 X255.419 Y1275.899 Z-54.416
N13320 X255.19 Y1275.842 Z-54.482
N13325 X254.973 Y1275.748 Z-54.544
N13330 X254.772 Y1275.62 Z-54.602
N13335 X254.593 Y1275.461 Z-54.653
N13340 X254.44 Y1275.275 Z-54.697
N13345 X254.317 Y1275.066 Z-54.732
N13350 X254.227 Y1274.84 Z-54.758
N13355 X254.172 Y1274.602 Z-54.774
N13360 X254.154 Y1274.358 Z-54.779
N13365 G2 Y1273.626 Z-54.437 J0. K0.952
N13370 G1 Y1270.886 Z-51.154
N13375 Y1269.631 Z-50.248
N13380 Y1267.867 Z-49.35
N13385 Y1256.979 Z-45.038
N13390 Y1253.249 Z-43.838
N13395 Y1247.804 Z-42.478
N13400 Y1240.113 Z-40.8
N13405 Y1227.638 Z-38.188
N13410 Y1219.524 Z-36.732
N13415 Y1212.106 Z-35.661
N13420 Y1197.234 Z-33.721
N13425 Y1180.856 Z-31.728
N13430 Y1167.443 Z-30.222
N13435 Y1152.5 Z-28.943
N13440 Y1130.028 Z-27.301
N13445 Y1111.925 Z-26.111
N13450 Y1093.643 Z-25.024
N13455 Y1073.747 Z-24.037
N13460 Y1047.728 Z-23.171
N13465 Y1013.292 Z-22.31
N13470 Y986.509 Z-21.867
N13475 Y962.786 Z-21.739
N13480 Y939.829 Z-21.848
N13485 Y918.402 Z-22.162
N13490 Y875.548 Z-23.255
N13495 Y787.545 Z-26.109
N13500 Y692.655 Z-29.519
N13505 Y636.294 Z-31.722
N13510 Y595.036 Z-33.533
N13515 Y564.319 Z-35.187
N13520 Y539.474 Z-36.787
N13525 Y519.311 Z-38.338
N13530 Y504.925 Z-39.681
N13535 Y489.271 Z-41.269
N13540 Y477.905 Z-42.645
N13545 Y467.757 Z-44.135
N13550 Y454.874 Z-46.153
N13555 Y447.255 Z-47.566
N13560 Y437.306 Z-49.941
N13565 Y429.677 Z-51.876
N13570 Y426.452 Z-52.892
N13575 Y422.566 Z-54.522
N13580 Y416.524 Z-57.189
N13585 Y415.187 Z-57.961
N13590 Y414.303 Z-58.758
N13595 Y412.609 Z-61.047
N13600 G2 Y411.843 Z-61.433 J-0.766 K0.567
N13605 G1 Y387.758
N13610 X254.135 Y387.515 Z-61.437
N13615 X254.08 Y387.278 Z-61.452
N13620 X253.99 Y387.053 Z-61.476
N13625 X253.867 Y386.846 Z-61.509
N13630 X253.715 Y386.66 Z-61.549
N13635 X253.536 Y386.502 Z-61.597
N13640 X253.335 Y386.375 Z-61.651
N13645 X253.117 Y386.282 Z-61.708
N13650 X252.889 Y386.225 Z-61.769
N13655 X252.654 Y386.206 Z-61.832
N13660 X252.419 Y386.225 Z-61.894
N13665 X252.19 Y386.282 Z-61.955
N13670 X251.973 Y386.375 Z-62.013
N13675 X251.772 Y386.502 Z-62.067
N13680 X251.593 Y386.66 Z-62.114
N13685 X251.441 Y386.846 Z-62.155
N13690 X251.318 Y387.053 Z-62.188
N13695 X251.227 Y387.278 Z-62.212
N13700 X251.173 Y387.515 Z-62.226
N13705 X251.154 Y387.758 Z-62.231
N13710 G3 Y388.542 Z-61.82 J0. K0.952
N13715 G1 Y390.236 Z-59.367
N13720 Y391.096 Z-58.633
N13725 Y392.283 Z-57.935
N13730 Y395.603 Z-56.352
N13735 Y400.652 Z-54.03
N13740 Y403.205 Z-53.116
N13745 Y407.394 Z-51.932
N13750 Y418.107 Z-49.082
N13755 Y424.032 Z-47.778
N13760 Y431.779 Z-46.399
N13765 Y444.34 Z-44.296
N13770 Y453.679 Z-42.989
N13775 Y463.5 Z-41.838
N13780 Y477.348 Z-40.341
N13785 Y493.446 Z-38.899
N13790 Y512.221 Z-37.517
N13795 Y536.168 Z-36.054
N13800 Y566.575 Z-34.587
N13805 Y623.502 Z-32.208
N13810 Y686.182 Z-29.747
N13815 Y779.538 Z-26.358
N13820 Y872.132 Z-23.317
N13825 Y918.047 Z-22.09
N13830 Y940.239 Z-21.705
N13835 Y973.91 Z-21.376
N13840 Y1007.581 Z-21.349
N13845 Y1029.773 Z-21.578
N13850 Y1049.095 Z-22.022
N13855 Y1083.34 Z-23.194
N13860 Y1113.184 Z-24.485
N13865 Y1130.642 Z-25.544
N13870 Y1147.116 Z-26.749
N13875 Y1163.565 Z-28.053
N13880 Y1184.484 Z-29.862
N13885 Y1199.404 Z-31.373
N13890 Y1212.787 Z-33.132
N13895 Y1227.64 Z-35.215
N13900 Y1241.729 Z-37.328
N13905 Y1248.361 Z-38.54
N13910 Y1255.68 Z-40.16
N13915 Y1268.818 Z-43.259
N13920 Y1273.162 Z-44.386
N13925 Y1276.703 Z-45.55
N13930 Y1282.938 Z-48.118
N13935 Y1287.643 Z-50.191
N13940 Y1289.357 Z-51.159
N13945 Y1290.567 Z-52.161
N13950 Y1293.02 Z-55.26
N13955 G3 Y1293.767 Z-55.621 J0.747 K0.591
N13960 G1 Y1311.491
N13965 X251.136 Y1311.735 Z-55.627
N13970 X251.081 Y1311.973 Z-55.642
N13975 X250.991 Y1312.199 Z-55.668
N13980 X250.868 Y1312.408 Z-55.703
N13985 X250.715 Y1312.594 Z-55.747
N13990 X250.536 Y1312.753 Z-55.798
N13995 X250.335 Y1312.881 Z-55.856
N14000 X250.118 Y1312.974 Z-55.918
N14005 X249.889 Y1313.032 Z-55.983
N14010 X249.654 Y1313.051 Z-56.05
N14015 X249.419 Y1313.032 Z-56.117
N14020 X249.191 Y1312.974 Z-56.183
N14025 X248.973 Y1312.881 Z-56.245
N14030 X248.772 Y1312.753 Z-56.302
N14035 X248.594 Y1312.594 Z-56.354
N14040 X248.441 Y1312.408 Z-56.397
N14045 X248.318 Y1312.199 Z-56.433
N14050 X248.228 Y1311.973 Z-56.458
N14055 X248.173 Y1311.735 Z-56.474
N14060 X248.154 Y1311.491 Z-56.479
N14065 G2 Y1310.716 Z-56.081 J0. K0.952
N14070 G1 Y1308.546 Z-53.046
N14075 Y1307.552 Z-52.149
N14080 Y1305.725 Z-51.055
N14085 Y1296.018 Z-46.567
N14090 Y1292.295 Z-45.286
N14095 Y1287.967 Z-44.087
N14100 Y1279.257 Z-41.835
N14105 Y1270.529 Z-39.657
N14110 Y1263.176 Z-38.218
N14115 Y1254.301 Z-36.736
N14120 Y1240.97 Z-34.627
N14125 Y1227.621 Z-32.628
N14130 Y1215.711 Z-31.189
N14135 Y1196.312 Z-29.228
N14140 Y1179.885 Z-27.695
N14145 Y1163.449 Z-26.273
N14150 Y1148.44 Z-25.195
N14155 Y1117.831 Z-23.54
N14160 Y1087.986 Z-22.214
N14165 Y1070.386 Z-21.685
N14170 Y1049.724 Z-21.355
N14175 Y1016.436 Z-21.131
N14180 Y974.73 Z-21.293
N14185 Y938.764 Z-21.687
N14190 Y917.337 Z-22.07
N14195 Y871.422 Z-23.306
N14200 Y778.827 Z-26.357
N14205 Y685.472 Z-29.756
N14210 Y622.027 Z-32.254
N14215 Y557.188 Z-34.974
N14220 Y510.329 Z-37.07
N14225 Y487.276 Z-38.327
N14230 Y467.699 Z-39.706
N14235 Y451.443 Z-41.105
N14240 Y438.052 Z-42.559
N14245 Y424.082 Z-44.331
N14250 Y414.141 Z-45.889
N14255 Y398.782 Z-48.764
N14260 Y392.865 Z-50.104
N14265 Y382.684 Z-52.932
N14270 Y378.665 Z-54.17
N14275 Y375.958 Z-55.292
N14280 Y369.692 Z-58.566
N14285 Y368.7 Z-59.146
N14290 Y368.139 Z-59.558
N14295 Y367.367 Z-60.392
N14300 Y366.078 Z-62.581
N14305 G2 Y365.257 Z-63.05 J-0.821 K0.483
N14310 G1 Y344.207
N14315 X248.136 Y343.965 Z-63.054
N14320 X248.081 Y343.729 Z-63.068
N14325 X247.991 Y343.504 Z-63.091
N14330 X247.868 Y343.297 Z-63.122
N14335 X247.715 Y343.113 Z-63.161
N14340 X247.536 Y342.955 Z-63.207
N14345 X247.335 Y342.828 Z-63.257
N14350 X247.118 Y342.735 Z-63.313
N14355 X246.889 Y342.679 Z-63.371
N14360 X246.654 Y342.66 Z-63.43
N14365 X246.42 Y342.679 Z-63.49
N14370 X246.191 Y342.735 Z-63.548
N14375 X245.973 Y342.828 Z-63.603
N14380 X245.773 Y342.955 Z-63.654
N14385 X245.594 Y343.113 Z-63.699
N14390 X245.441 Y343.297 Z-63.738
N14395 X245.318 Y343.504 Z-63.769
N14400 X245.228 Y343.729 Z-63.792
N14405 X245.173 Y343.965 Z-63.806
N14410 X245.154 Y344.207 Z-63.811
N14415 G3 Y345.054 Z-63.294 J0. K0.952
N14420 G1 Y346.103 Z-61.253
N14425 Y346.621 Z-60.533
N14430 Y347.752 Z-59.629
N14435 Y350.345 Z-58.101
N14440 Y354.474 Z-55.77
N14445 Y356.983 Z-54.718
N14450 Y361.774 Z-53.2
N14455 Y369.027 Z-51.033
N14460 Y374.273 Z-49.774
N14465 Y384.94 Z-47.688
N14470 Y393.562 Z-46.152
N14475 Y403.863 Z-44.654
N14480 Y415.218 Z-43.183
N14485 Y428.617 Z-41.801
N14490 Y446.074 Z-40.382
N14495 Y465.204 Z-39.189
N14500 Y490.253 Z-37.973
N14505 Y551.902 Z-35.195
N14510 Y615.947 Z-32.488
N14515 Y678.56 Z-30.01
N14520 Y774.212 Z-26.51
N14525 Y869.868 Z-23.336
N14530 Y916.548 Z-22.053
N14535 Y937.975 Z-21.655
N14540 Y973.941 Z-21.245
N14545 Y1016.03 Z-21.064
N14550 Y1058.118 Z-21.214
N14555 Y1084.902 Z-21.58
N14560 Y1107.859 Z-22.093
N14565 Y1123.164 Z-22.671
N14570 Y1145.356 Z-23.866
N14575 Y1163.59 Z-24.98
N14580 Y1182.396 Z-26.254
N14585 Y1196.588 Z-27.511
N14590 Y1211.51 Z-29.021
N14595 Y1230.892 Z-31.132
N14600 Y1245.04 Z-32.808
N14605 Y1254.679 Z-34.251
N14610 Y1267.989 Z-36.493
N14615 Y1282.016 Z-38.986
N14620 Y1287.888 Z-40.179
N14625 Y1294.425 Z-41.832
N14630 Y1307.432 Z-45.442
N14635 Y1310.28 Z-46.336
N14640 Y1313.738 Z-47.69
N14645 Y1319.796 Z-50.624
N14650 Y1322.433 Z-51.995
N14655 Y1324.014 Z-53.057
N14660 Y1324.919 Z-53.946
N14665 Y1326.942 Z-56.896
N14670 G3 Y1327.728 Z-57.31 J0.786 K0.539
N14675 G1 Y1342.797
N14680 X245.136 Y1343.04 Z-57.315
N14685 X245.081 Y1343.277 Z-57.329
N14690 X244.991 Y1343.502 Z-57.353
N14695 X244.868 Y1343.71 Z-57.386
N14700 X244.715 Y1343.895 Z-57.427
N14705 X244.536 Y1344.053 Z-57.475
N14710 X244.335 Y1344.181 Z-57.529
N14715 X244.118 Y1344.274 Z-57.587
N14720 X243.889 Y1344.331 Z-57.648
N14725 X243.654 Y1344.35 Z-57.711
N14730 X243.42 Y1344.331 Z-57.774
N14735 X243.191 Y1344.274 Z-57.835
N14740 X242.973 Y1344.181 Z-57.893
N14745 X242.773 Y1344.053 Z-57.947
N14750 X242.594 Y1343.895 Z-57.995
N14755 X242.441 Y1343.71 Z-58.036
N14760 X242.318 Y1343.502 Z-58.069
N14765 X242.228 Y1343.277 Z-58.093
N14770 X242.173 Y1343.04 Z-58.108
N14775 X242.155 Y1342.797 Z-58.113
N14780 G2 Y1341.999 Z-57.68 J0. K0.952
N14785 G1 Y1340.183 Z-54.892
N14790 Y1339.568 Z-54.209
N14795 Y1338.04 Z-53.052
N14800 Y1334.867 Z-51.308
N14805 Y1330.238 Z-48.848
N14810 Y1327.52 Z-47.666
N14815 Y1323.28 Z-46.231
N14820 Y1316.824 Z-44.281
N14825 Y1307.647 Z-41.613
N14830 Y1301.627 Z-40.245
N14835 Y1292.062 Z-38.369
N14840 Y1280.268 Z-36.164
N14845 Y1270.301 Z-34.395
N14850 Y1259.534 Z-32.904
N14855 Y1241.674 Z-30.68
N14860 Y1225.285 Z-28.788
N14865 Y1213.355 Z-27.522
N14870 Y1198.407 Z-26.294
N14875 Y1178.932 Z-24.869
N14880 Y1161.488 Z-23.704
N14885 Y1146.332 Z-22.898
N14890 Y1126.436 Z-22.235
N14895 Y1103.479 Z-21.683
N14900 Y1065.981 Z-21.208
N14905 Y1026.189 Z-21.011
N14910 Y984.1 Z-21.126
N14915 Y942.777 Z-21.565
N14920 Y917.524 Z-22.028
N14925 Y870.844 Z-23.304
N14930 Y774.423 Z-26.502
N14935 Y678.77 Z-30.001
N14940 Y613.828 Z-32.572
N14945 Y552.197 Z-35.173
N14950 Y490.548 Z-37.954
N14955 Y436.518 Z-40.553
N14960 Y419.04 Z-41.622
N14965 Y403.593 Z-42.874
N14970 Y390.196 Z-44.274
N14975 Y379.511 Z-45.675
N14980 Y369.884 Z-47.122
N14985 Y362.261 Z-48.509
N14990 Y352.099 Z-50.617
N14995 Y346.865 Z-51.93
N15000 Y340.939 Z-53.828
N15005 Y336.327 Z-55.401
N15010 Y333.833 Z-56.487
N15015 Y330.921 Z-58.266
N15020 Y327.828 Z-60.267
N15025 Y327.264 Z-60.671
N15030 Y326.676 Z-61.207
N15035 Y326.161 Z-61.944
N15040 Y325.207 Z-64.032
N15045 G2 Y324.341 Z-64.589 J-0.866 K0.396
N15050 G1 Y305.6
N15055 X242.136 Y305.359 Z-64.594
N15060 X242.081 Y305.124 Z-64.606
N15065 X241.991 Y304.901 Z-64.627
N15070 X241.868 Y304.695 Z-64.656
N15075 X241.715 Y304.511 Z-64.692
N15080 X241.536 Y304.354 Z-64.733
N15085 X241.336 Y304.228 Z-64.78
N15090 X241.118 Y304.135 Z-64.831
N15095 X240.889 Y304.079 Z-64.884
N15100 X240.655 Y304.06 Z-64.938
N15105 X240.42 Y304.079 Z-64.993
N15110 X240.191 Y304.135 Z-65.046
N15115 X239.974 Y304.228 Z-65.097
N15120 X239.773 Y304.354 Z-65.144
N15125 X239.594 Y304.511 Z-65.185
N15130 X239.441 Y304.695 Z-65.221
N15135 X239.318 Y304.901 Z-65.25
N15140 X239.228 Y305.124 Z-65.271
N15145 X239.173 Y305.359 Z-65.283
N15150 X239.155 Y305.6 Z-65.288
N15155 G3 Y306.482 Z-64.695 J0. K0.952
N15160 G1 Y307.294 Z-62.704
N15165 Y307.9 Z-61.798
N15170 Y308.696 Z-61.102
N15175 Y312.96 Z-58.103
N15180 Y314.739 Z-57.019
N15185 Y316.596 Z-56.176
N15190 Y322.1 Z-54.179
N15195 Y325.935 Z-52.872
N15200 Y330.496 Z-51.642
N15205 Y335.548 Z-50.514
N15210 Y343.611 Z-48.822
N15215 Y351.884 Z-47.427
N15220 Y361.364 Z-46.025
N15225 Y372.734 Z-44.672
N15230 Y386.816 Z-43.371
N15235 Y402.378 Z-42.294
N15240 Y433.65 Z-40.687
N15245 Y493.57 Z-37.808
N15250 Y552.773 Z-35.146
N15255 Y615.362 Z-32.509
N15260 Y679.539 Z-29.972
N15265 Y774.426 Z-26.501
N15270 Y870.847 Z-23.303
N15275 Y917.527 Z-22.027
N15280 Y948.137 Z-21.472
N15285 Y990.991 Z-21.059
N15290 Y1031.549 Z-20.954
N15295 Y1066.688 Z-21.13
N15300 Y1104.185 Z-21.602
N15305 Y1140.152 Z-22.341
N15310 Y1166.17 Z-23.226
N15315 Y1182.239 Z-24.006
N15320 Y1194.996 Z-24.908
N15325 Y1209.949 Z-26.088
N15330 Y1229.376 Z-27.745
N15335 Y1241.314 Z-28.938
N15340 Y1253.222 Z-30.406
N15345 Y1266.607 Z-32.146
N15350 Y1284.434 Z-34.616
N15355 Y1292.932 Z-36.051
N15360 Y1305.069 Z-38.454
N15365 Y1317.549 Z-41.045
N15370 Y1322.649 Z-42.246
N15375 Y1328.395 Z-43.94
N15380 Y1336.966 Z-46.673
N15385 Y1341.611 Z-48.234
N15390 Y1344.607 Z-49.584
N15395 Y1351.66 Z-53.515
N15400 Y1353.201 Z-54.61
N15405 Y1354.018 Z-55.441
N15410 Y1355.901 Z-58.505
N15415 G3 Y1356.713 Z-58.959 J0.812 K0.499
N15420 G1 Y1369.74
N15425 X239.136 Y1369.984 Z-58.964
N15430 X239.081 Y1370.221 Z-58.979
N15435 X238.991 Y1370.446 Z-59.003
N15440 X238.868 Y1370.654 Z-59.036
N15445 X238.715 Y1370.84 Z-59.078
N15450 X238.536 Y1370.998 Z-59.126
N15455 X238.336 Y1371.125 Z-59.181
N15460 X238.118 Y1371.219 Z-59.24
N15465 X237.889 Y1371.276 Z-59.302
N15470 X237.655 Y1371.295 Z-59.366
N15475 X237.42 Y1371.276 Z-59.43
N15480 X237.191 Y1371.219 Z-59.492
N15485 X236.974 Y1371.125 Z-59.551
N15490 X236.773 Y1370.998 Z-59.605
N15495 X236.594 Y1370.84 Z-59.654
N15500 X236.441 Y1370.654 Z-59.695
N15505 X236.318 Y1370.446 Z-59.729
N15510 X236.228 Y1370.221 Z-59.753
N15515 X236.173 Y1369.984 Z-59.768
N15520 X236.155 Y1369.74 Z-59.773
N15525 G2 Y1368.917 Z-59.299 J0. K0.952
N15530 G1 Y1367.313 Z-56.536
N15535 Y1366.286 Z-55.408
N15540 Y1364.598 Z-54.182
N15545 Y1358.805 Z-50.747
N15550 Y1356.32 Z-49.507
N15555 Y1352.852 Z-48.161
N15560 Y1340.78 Z-44.081
N15565 Y1335.743 Z-42.665
N15570 Y1328.442 Z-40.978
N15575 Y1316.72 Z-38.422
N15580 Y1307.36 Z-36.484
N15585 Y1300.521 Z-35.357
N15590 Y1288.657 Z-33.567
N15595 Y1275.295 Z-31.653
N15600 Y1263.406 Z-30.042
N15605 Y1254.468 Z-29.022
N15610 Y1238.046 Z-27.43
N15615 Y1223.109 Z-26.081
N15620 Y1211.152 Z-25.081
N15625 Y1197.516 Z-24.238
N15630 Y1171.498 Z-23.119
N15635 Y1136.297 Z-22.139
N15640 Y1099.565 Z-21.428
N15645 Y1064.364 Z-21.05
N15650 Y1024.872 Z-20.929
N15655 Y982.784 Z-21.106
N15660 Y941.46 Z-21.575
N15665 Y916.207 Z-22.061
N15670 Y869.527 Z-23.35
N15675 Y772.341 Z-26.581
N15680 Y679.75 Z-29.966
N15685 Y615.663 Z-32.496
N15690 Y553.074 Z-35.132
N15695 Y492.253 Z-37.867
N15700 Y434.728 Z-40.631
N15705 Y379.701 Z-43.456
N15710 Y364.748 Z-44.449
N15715 Y352.004 Z-45.602
N15720 Y340.299 Z-46.979
N15725 Y330.641 Z-48.438
N15730 Y322.528 Z-49.866
N15735 Y315.945 Z-51.302
N15740 Y309.926 Z-52.733
N15745 Y305.719 Z-53.986
N15750 Y301.291 Z-55.642
N15755 Y297.386 Z-57.209
N15760 Y295.572 Z-58.165
N15765 Y292.697 Z-60.295
N15770 Y290.163 Z-62.312
N15775 Y289.596 Z-63.023
N15780 Y289.312 Z-63.678
N15785 Y288.701 Z-65.362
N15790 G2 Y287.806 Z-65.99 J-0.895 K0.325
N15795 G1 Y270.887
N15800 X236.136 Y270.646 Z-65.994
N15805 X236.081 Y270.412 Z-66.006
N15810 X235.991 Y270.189 Z-66.026
N15815 X235.868 Y269.984 Z-66.053
N15820 X235.716 Y269.8 Z-66.087
N15825 X235.537 Y269.644 Z-66.126
N15830 X235.336 Y269.518 Z-66.171
N15835 X235.118 Y269.426 Z-66.219
N15840 X234.89 Y269.369 Z-66.269
N15845 X234.655 Y269.351 Z-66.321
N15850 X234.42 Y269.369 Z-66.373
N15855 X234.191 Y269.426 Z-66.424
N15860 X233.974 Y269.518 Z-66.472
N15865 X233.773 Y269.644 Z-66.516
N15870 X233.594 Y269.8 Z-66.556
N15875 X233.441 Y269.984 Z-66.59
N15880 X233.318 Y270.189 Z-66.617
N15885 X233.228 Y270.412 Z-66.637
N15890 X233.173 Y270.646 Z-66.649
N15895 X233.155 Y270.887 Z-66.653
N15900 G3 Y271.79 Z-66.001 J0. K0.953
N15905 G1 Y272.376 Z-64.242
N15910 Y272.829 Z-63.379
N15915 Y273.401 Z-62.759
N15920 Y273.974 Z-62.268
N15925 Y277.764 Z-59.135
N15930 Y279.542 Z-58.094
N15935 Y283.262 Z-56.475
N15940 Y287.661 Z-54.741
N15945 Y291.536 Z-53.556
N15950 Y299.536 Z-51.588
N15955 Y306.138 Z-50.234
N15960 Y314.921 Z-48.738
N15965 Y324.932 Z-47.366
N15970 Y336.318 Z-46.164
N15975 Y349.092 Z-45.152
N15980 Y375.491 Z-43.677
N15985 Y433.534 Z-40.688
N15990 Y489.631 Z-37.989
N15995 Y550.52 Z-35.244
N16000 Y612.78 Z-32.617
N16005 Y677.665 Z-30.051
N16010 Y771.786 Z-26.607
N16015 Y868.207 Z-23.401
N16020 Y914.887 Z-22.104
N16025 Y935.549 Z-21.684
N16030 Y971.515 Z-21.186
N16035 Y1014.369 Z-20.909
N16040 Y1055.744 Z-20.956
N16045 Y1095.536 Z-21.31
N16050 Y1132.268 Z-21.936
N16055 Y1168.235 Z-22.894
N16060 Y1201.14 Z-24.067
N16065 Y1226.37 Z-25.408
N16070 Y1238.344 Z-26.346
N16075 Y1253.272 Z-27.796
N16080 Y1271.173 Z-29.663
N16085 Y1281.599 Z-30.883
N16090 Y1291.986 Z-32.397
N16095 Y1308.29 Z-34.917
N16100 Y1320.866 Z-36.995
N16105 Y1327.475 Z-38.337
N16110 Y1339.169 Z-41.011
N16115 Y1349.374 Z-43.461
N16120 Y1353.684 Z-44.695
N16125 Y1360.756 Z-47.171
N16130 Y1365.682 Z-48.965
N16135 Y1369.143 Z-50.344
N16140 Y1371.763 Z-51.698
N16145 Y1376.828 Z-54.907
N16150 Y1378.014 Z-55.727
N16155 Y1378.955 Z-56.557
N16160 Y1379.678 Z-57.452
N16165 Y1381.131 Z-60.061
N16170 G3 Y1381.963 Z-60.55 J0.832 K0.463
N16175 G1 Y1393.415
N16180 X233.137 Y1393.658 Z-60.555
N16185 X233.082 Y1393.896 Z-60.57
N16190 X232.992 Y1394.121 Z-60.595
N16195 X232.869 Y1394.329 Z-60.629
N16200 X232.716 Y1394.515 Z-60.671
N16205 X232.537 Y1394.673 Z-60.72
N16210 X232.336 Y1394.801 Z-60.775
N16215 X232.119 Y1394.894 Z-60.835
N16220 X231.89 Y1394.951 Z-60.897
N16225 X231.655 Y1394.97 Z-60.962
N16230 X231.42 Y1394.951 Z-61.026
N16235 X231.192 Y1394.894 Z-61.089
N16240 X230.974 Y1394.801 Z-61.149
N16245 X230.773 Y1394.673 Z-61.204
N16250 X230.594 Y1394.515 Z-61.253
N16255 X230.442 Y1394.329 Z-61.295
N16260 X230.319 Y1394.121 Z-61.329
N16265 X230.229 Y1393.896 Z-61.354
N16270 X230.174 Y1393.658 Z-61.369
N16275 X230.155 Y1393.415 Z-61.374
N16280 G2 Y1392.568 Z-60.858 J0. K0.952
N16285 G1 Y1391.205 Z-58.216
N16290 Y1390.503 Z-57.314
N16295 Y1389.458 Z-56.395
N16300 Y1387.017 Z-54.742
N16305 Y1382.751 Z-51.98
N16310 Y1380.788 Z-50.985
N16315 Y1376.626 Z-49.328
N16320 Y1369.617 Z-46.672
N16325 Y1365.381 Z-45.195
N16330 Y1361.063 Z-43.979
N16335 Y1349.425 Z-41.066
N16340 Y1339.947 Z-38.797
N16345 Y1331.851 Z-37.247
N16350 Y1317.07 Z-34.71
N16355 Y1303.746 Z-32.552
N16360 Y1294.841 Z-31.28
N16365 Y1278.454 Z-29.375
N16370 Y1263.543 Z-27.752
N16375 Y1254.59 Z-26.861
N16380 Y1242.591 Z-25.986
N16385 Y1225.198 Z-24.972
N16390 Y1199.985 Z-23.886
N16395 Y1165.549 Z-22.696
N16400 Y1131.113 Z-21.85
N16405 Y1093.615 Z-21.241
N16410 Y1054.205 Z-20.915
N16415 Y1013.265 Z-20.902
N16420 Y970.411 Z-21.199
N16425 Y934.445 Z-21.711
N16430 Y913.018 Z-22.161
N16435 Y865.573 Z-23.494
N16440 Y769.152 Z-26.707
N16445 Y678.854 Z-30.01
N16450 Y613.972 Z-32.573
N16455 Y551.644 Z-35.197
N16460 Y491.909 Z-37.883
N16465 Y434.931 Z-40.618
N16470 Y377.646 Z-43.562
N16475 Y330.664 Z-46.153
N16480 Y317.769 Z-47.117
N16485 Y306.464 Z-48.289
N16490 Y296.452 Z-49.654
N16495 Y287.75 Z-51.171
N16500 Y281.081 Z-52.582
N16505 Y274.402 Z-54.29
N16510 Y270.533 Z-55.496
N16515 Y267.388 Z-56.76
N16520 Y263.088 Z-58.719
N16525 Y261.303 Z-59.781
N16530 Y260.206 Z-60.689
N16535 Y257.102 Z-63.52
N16540 Y256.569 Z-64.148
N16545 Y256.17 Z-65.002
N16550 Y255.665 Z-66.663
N16555 X229.787 Y253.739 Z-66.74
N16560 X229.417 Y251.814 Z-66.818
N16565 X229.046 Y249.888 Z-66.896
N16570 X228.671 Y247.963 Z-66.973
N16575 X228.295 Y246.038 Z-67.051
N16580 X227.917 Y244.114 Z-67.129
N16585 X227.537 Y242.19 Z-67.207
N16590 X227.155 Y240.267 Z-67.284
N16595 Y240.631 Z-65.973
N16600 Y240.996 Z-64.998
N16605 Y241.475 Z-64.353
N16610 Y244.504 Z-61.37
N16615 Y245.584 Z-60.445
N16620 Y246.75 Z-59.702
N16625 Y249.771 Z-58.189
N16630 Y252.856 Z-56.786
N16635 Y256.04 Z-55.647
N16640 Y261.233 Z-54.184
N16645 Y267.13 Z-52.753
N16650 Y273.742 Z-51.453
N16655 Y282.388 Z-50.061
N16660 Y292.416 Z-48.821
N16665 Y303.902 Z-47.771
N16670 Y322.668 Z-46.607
N16675 Y371.379 Z-43.897
N16680 Y428.769 Z-40.926
N16685 Y485.435 Z-38.185
N16690 Y545.931 Z-35.45
N16695 Y609.024 Z-32.779
N16700 Y673.112 Z-30.236
N16705 Y762.645 Z-26.945
N16710 Y861.361 Z-23.639
N16715 Y911.102 Z-22.221
N16720 Y933.294 Z-21.738
N16725 Y970.026 Z-21.204
N16730 Y1012.88 Z-20.893
N16735 Y1052.673 Z-20.892
N16740 Y1091.7 Z-21.177
N16745 Y1128.432 Z-21.743
N16750 Y1164.398 Z-22.591
N16755 Y1195.773 Z-23.6
N16760 Y1227.794 Z-24.949
N16765 Y1250.483 Z-26.125
N16770 Y1268.014 Z-27.317
N16775 Y1278.465 Z-28.284
N16780 Y1291.129 Z-29.751
N16785 Y1307.502 Z-31.766
N16790 Y1317.157 Z-33.095
N16795 Y1323.81 Z-34.219
N16800 Y1335.628 Z-36.298
N16805 Y1347.426 Z-38.478
N16810 Y1352.568 Z-39.499
N16815 Y1359.118 Z-41.109
N16820 Y1369.275 Z-43.757
N16825 Y1375.778 Z-45.532
N16830 Y1380.034 Z-46.933
N16835 Y1387.698 Z-49.973
N16840 Y1391.834 Z-51.685
N16845 Y1394.435 Z-53.073
N16850 Y1399.385 Z-56.438
N16855 Y1400.526 Z-57.304
N16860 Y1401.417 Z-58.172
N16865 Y1402.087 Z-59.093
N16870 Y1403.347 Z-61.627
N16875 G3 Y1404.2 Z-62.155 J0.853 K0.424
N16880 G1 Y1414.41
N16885 X227.137 Y1414.652 Z-62.16
N16890 X227.082 Y1414.889 Z-62.174
N16895 X226.992 Y1415.113 Z-62.197
N16900 X226.869 Y1415.32 Z-62.229
N16905 X226.716 Y1415.505 Z-62.268
N16910 X226.537 Y1415.663 Z-62.314
N16915 X226.336 Y1415.79 Z-62.366
N16920 X226.119 Y1415.883 Z-62.421
N16925 X225.89 Y1415.94 Z-62.48
N16930 X225.655 Y1415.959 Z-62.541
N16935 X225.421 Y1415.94 Z-62.601
N16940 X225.192 Y1415.883 Z-62.66
N16945 X224.974 Y1415.79 Z-62.715
N16950 X224.774 Y1415.663 Z-62.767
N16955 X224.595 Y1415.505 Z-62.813
N16960 X224.442 Y1415.32 Z-62.852
N16965 X224.319 Y1415.113 Z-62.884
N16970 X224.229 Y1414.889 Z-62.907
N16975 X224.174 Y1414.652 Z-62.921
N16980 X224.156 Y1414.41 Z-62.926
N16985 G2 Y1413.552 Z-62.387 J0. K0.953
N16990 G1 Y1412.328 Z-59.852
N16995 Y1411.657 Z-58.925
N17000 Y1410.772 Z-58.05
N17005 Y1408.434 Z-56.274
N17010 Y1405.396 Z-54.111
N17015 Y1403.504 Z-53.
N17020 Y1400.817 Z-51.741
N17025 Y1391.138 Z-47.704
N17030 Y1387.607 Z-46.5
N17035 Y1379.685 Z-44.236
N17040 Y1368.833 Z-41.28
N17045 Y1363. Z-39.911
N17050 Y1349.023 Z-37.165
N17055 Y1337.228 Z-34.968
N17060 Y1329.099 Z-33.587
N17065 Y1314.982 Z-31.663
N17070 Y1301.594 Z-29.943
N17075 Y1292.659 Z-28.888
N17080 Y1282.201 Z-27.979
N17085 Y1267.214 Z-26.897
N17090 Y1241.341 Z-25.473
N17095 Y1215.052 Z-24.245
N17100 Y1181.005 Z-23.015
N17105 Y1145.038 Z-22.036
N17110 Y1109.071 Z-21.371
N17115 Y1070.809 Z-20.964
N17120 Y1031.016 Z-20.844
N17125 Y990.458 Z-21.017
N17130 Y946.839 Z-21.511
N17135 Y916.23 Z-22.106
N17140 Y869.55 Z-23.392
N17145 Y772.364 Z-26.614
N17150 Y674.414 Z-30.193
N17155 Y609.559 Z-32.762
N17160 Y547.252 Z-35.395
N17165 Y486.91 Z-38.118
N17170 Y429.809 Z-40.874
N17175 Y372.419 Z-43.842
N17180 Y324.313 Z-46.512
N17185 Y289.606 Z-48.575
N17190 Y278.846 Z-49.439
N17195 Y268.806 Z-50.563
N17200 Y260.142 Z-51.842
N17205 Y252.198 Z-53.349
N17210 Y246.291 Z-54.739
N17215 Y241.099 Z-56.212
N17220 Y237.909 Z-57.328
N17225 Y235.118 Z-58.577
N17230 Y231.691 Z-60.385
N17235 Y230.531 Z-61.139
N17240 Y229.462 Z-62.091
N17245 Y226.479 Z-65.262
N17250 Y226.221 Z-65.644
N17255 Y225.856 Z-66.637
N17260 Y225.533 Z-67.902
N17265 X223.787 Y223.766 Z-67.98
N17270 X223.417 Y221.999 Z-68.058
N17275 X223.044 Y220.232 Z-68.136
N17280 X222.671 Y218.466 Z-68.214
N17285 X222.295 Y216.701 Z-68.291
N17290 X221.917 Y214.935 Z-68.369
N17295 X221.537 Y213.17 Z-68.447
N17300 X221.156 Y211.406 Z-68.525
N17305 Y211.925 Z-66.576
N17310 Y212.368 Z-65.864
N17315 Y215.061 Z-62.814
N17320 Y216.301 Z-61.719
N17325 Y218.629 Z-60.308
N17330 Y221.633 Z-58.721
N17335 Y224.782 Z-57.466
N17340 Y229.294 Z-56.066
N17345 Y234.516 Z-54.709
N17350 Y241.777 Z-53.208
N17355 Y249.757 Z-51.912
N17360 Y259.116 Z-50.759
N17365 Y269.181 Z-49.862
N17370 Y286.592 Z-48.756
N17375 Y325.953 Z-46.417
N17380 Y374.688 Z-43.72
N17385 Y431.091 Z-40.81
N17390 Y487.451 Z-38.094
N17395 Y547.953 Z-35.368
N17400 Y610.288 Z-32.738
N17405 Y674.414 Z-30.2
N17410 Y771.6 Z-26.65
N17415 Y868.786 Z-23.429
N17420 Y915.466 Z-22.14
N17425 Y947.224 Z-21.515
N17430 Y991.99 Z-21.003
N17435 Y1033.314 Z-20.83
N17440 Y1072.341 Z-20.947
N17445 Y1110.603 Z-21.356
N17450 Y1147.335 Z-22.039
N17455 Y1181.006 Z-22.944
N17460 Y1211.609 Z-24.03
N17465 Y1237.574 Z-25.154
N17470 Y1260.396 Z-26.356
N17475 Y1278.534 Z-27.437
N17480 Y1288.927 Z-28.13
N17485 Y1304.622 Z-29.422
N17490 Y1313.564 Z-30.4
N17495 Y1326.197 Z-32.107
N17500 Y1341.043 Z-34.231
N17505 Y1348.438 Z-35.446
N17510 Y1361.681 Z-38.04
N17515 Y1374.896 Z-40.788
N17520 Y1379.997 Z-41.986
N17525 Y1387.93 Z-44.242
N17530 Y1397.278 Z-46.999
N17535 Y1400.819 Z-48.172
N17540 Y1404.961 Z-49.895
N17545 Y1410.452 Z-52.312
N17550 Y1413.794 Z-53.915
N17555 Y1415.668 Z-55.072
N17560 Y1419.806 Z-58.226
N17565 Y1421.273 Z-59.558
N17570 Y1421.973 Z-60.489
N17575 Y1423.231 Z-63.137
N17580 G3 Y1424.091 Z-63.681 J0.86 K0.409
N17585 G1 Y1433.266
N17590 X221.137 Y1433.507 Z-63.686
N17595 X221.082 Y1433.743 Z-63.699
N17600 X220.992 Y1433.966 Z-63.721
N17605 X220.869 Y1434.173 Z-63.75
N17610 X220.716 Y1434.357 Z-63.787
N17615 X220.537 Y1434.514 Z-63.83
N17620 X220.337 Y1434.641 Z-63.878
N17625 X220.119 Y1434.733 Z-63.931
N17630 X219.89 Y1434.79 Z-63.986
N17635 X219.656 Y1434.809 Z-64.042
N17640 X219.421 Y1434.79 Z-64.099
N17645 X219.192 Y1434.733 Z-64.154
N17650 X218.975 Y1434.641 Z-64.206
N17655 X218.774 Y1434.514 Z-64.254
N17660 X218.595 Y1434.357 Z-64.298
N17665 X218.442 Y1434.173 Z-64.334
N17670 X218.319 Y1433.966 Z-64.364
N17675 X218.229 Y1433.743 Z-64.386
N17680 X218.174 Y1433.507 Z-64.399
N17685 X218.156 Y1433.266 Z-64.403
N17690 G2 Y1432.396 Z-63.839 J0. K0.952
N17695 G1 Y1431.346 Z-61.488
N17700 Y1430.493 Z-60.283
N17705 Y1429.033 Z-58.94
N17710 Y1425.065 Z-55.799
N17715 Y1423.211 Z-54.626
N17720 Y1421.235 Z-53.631
N17725 Y1414.428 Z-50.488
N17730 Y1410.991 Z-49.027
N17735 Y1406.749 Z-47.59
N17740 Y1395.998 Z-44.298
N17745 Y1390.243 Z-42.623
N17750 Y1382.943 Z-40.945
N17755 Y1369.749 Z-38.106
N17760 Y1360.198 Z-36.165
N17765 Y1353.541 Z-35.072
N17770 Y1337.229 Z-32.607
N17775 Y1327.578 Z-31.239
N17780 Y1318.635 Z-30.268
N17785 Y1304.441 Z-29.028
N17790 Y1288.065 Z-27.898
N17795 Y1268.517 Z-26.673
N17800 Y1247.208 Z-25.531
N17805 Y1221.28 Z-24.347
N17810 Y1196.081 Z-23.375
N17815 Y1160.879 Z-22.325
N17820 Y1123.382 Z-21.524
N17825 Y1085.12 Z-21.029
N17830 Y1045.327 Z-20.828
N17835 Y1004.004 Z-20.928
N17840 Y959.62 Z-21.358
N17845 Y922.123 Z-21.987
N17850 Y873.912 Z-23.286
N17855 Y778.257 Z-26.43
N17860 Y681.836 Z-29.926
N17865 Y617.666 Z-32.442
N17870 Y556.043 Z-35.02
N17875 Y495.576 Z-37.719
N17880 Y437.562 Z-40.489
N17885 Y380.113 Z-43.432
N17890 Y331.852 Z-46.08
N17895 Y291.842 Z-48.434
N17900 Y255.798 Z-50.706
N17905 Y245.629 Z-51.519
N17910 Y236.261 Z-52.602
N17915 Y228.272 Z-53.84
N17920 Y221.004 Z-55.3
N17925 Y215.772 Z-56.615
N17930 Y210.618 Z-58.228
N17935 Y207.478 Z-59.506
N17940 Y205.367 Z-60.621
N17945 Y202.77 Z-62.23
N17950 Y201.421 Z-63.363
N17955 Y198.653 Z-66.701
N17960 Y198.174 Z-67.684
N17965 Y197.848 Z-69.14
N17970 X217.788 Y196.218 Z-69.219
N17975 X217.416 Y194.588 Z-69.297
N17980 X217.045 Y192.958 Z-69.376
N17985 X216.67 Y191.329 Z-69.454
N17990 X216.295 Y189.7 Z-69.533
N17995 X215.917 Y188.072 Z-69.612
N18000 X215.538 Y186.444 Z-69.69
N18005 X215.156 Y184.816 Z-69.769
N18010 Y185.117 Z-68.355
N18015 Y185.624 Z-67.343
N18020 Y187.942 Z-64.364
N18025 Y189.13 Z-63.24
N18030 Y191.374 Z-61.713
N18035 Y192.664 Z-60.933
N18040 Y195.63 Z-59.547
N18045 Y198.808 Z-58.393
N18050 Y203.99 Z-56.881
N18055 Y209.902 Z-55.517
N18060 Y217.196 Z-54.194
N18065 Y225.204 Z-53.088
N18070 Y234.587 Z-52.15
N18075 Y248.861 Z-51.163
N18080 Y283.935 Z-48.919
N18085 Y322.666 Z-46.607
N18090 Y371.38 Z-43.897
N18095 Y428.387 Z-40.946
