%
(1001)
(T1  D=6. CR=0. - ZMIN=-5. - FLAT END MILL)
N10 G90 G94 G17 G91.1
N15 G21
N20 G53 G0 Z0.
(2D CONTOUR2)
N25 M9
N30 T1 M6
N35 S22000 M3
N40 G54
N45 M8
N50 G0 X378.02 Y66.029
N55 G43 Z15. H1
N60 G0 Z5.
N65 G1 Z1. F333.33
N70 Z0.6
N75 X378.027 Y66.031 Z0.506
N80 X378.048 Y66.037 Z0.415
N85 X378.082 Y66.047 Z0.328
N90 X378.13 Y66.061 Z0.247
N95 X378.188 Y66.078 Z0.176
N100 X378.257 Y66.099 Z0.115
N105 X378.334 Y66.121 Z0.065
N110 X378.417 Y66.146 Z0.029
N115 X378.505 Y66.172 Z0.007
N120 X378.595 Y66.198 Z0.
N125 X379.171 Y66.368 F500.
N130 G3 X379.577 Y67.113 I-0.169 J0.576
N135 G1 X377.393 Y74.534 F1500.
N140 X373.637 Y63.903
N145 X380.522
N150 X379.577 Y67.113
N155 G3 X378.832 Y67.519 I-0.576 J-0.169 F500.
N160 G1 X378.257 Y67.349
N165 X378.166 Y67.323 Z0.007
N170 X378.079 Y67.297 Z0.029
N175 X377.995 Y67.272 Z0.065
N180 X377.918 Y67.25 Z0.115
N185 X377.849 Y67.23 Z0.176
N190 X377.791 Y67.212 Z0.247
N195 X377.744 Y67.198 Z0.328
N200 X377.709 Y67.188 Z0.415
N205 X377.688 Y67.182 Z0.506
N210 X377.681 Y67.18 Z0.6
N215 G0 Z15.
N220 X396.252 Y61.155
N225 Z5.
N230 G1 Z1. F333.33
N235 Z-4.4
N240 X396.245 Y61.153 Z-4.494
N245 X396.224 Y61.147 Z-4.585
N250 X396.19 Y61.136 Z-4.672
N255 X396.142 Y61.122 Z-4.753
N260 X396.084 Y61.104 Z-4.824
N265 X396.015 Y61.083 Z-4.885
N270 X395.939 Y61.06 Z-4.935
N275 X395.855 Y61.034 Z-4.971
N280 X395.768 Y61.008 Z-4.993
N285 X395.678 Y60.98 Z-5.
N290 X395.104 Y60.806 F500.
N295 G3 X394.705 Y60.057 I0.175 J-0.574
N300 G1 X397.338 Y51.402 F1500.
N305 X397.415 Y51.155
N310 X397.418 Y51.145
N315 X397.495 Y50.894
N320 X397.572 Y50.648
N325 X397.648 Y50.409
N330 X397.727 Y50.165
N335 X397.805 Y49.926
N340 X397.883 Y49.694
N345 X397.962 Y49.462
N350 X398.043 Y49.237
N355 X398.124 Y49.013
N360 X398.209 Y48.79
N365 X398.297 Y48.561
N370 X398.39 Y48.328
N375 X398.481 Y48.1
N380 X398.57 Y47.886
N385 X398.651 Y47.696
N390 X398.725 Y47.537
N395 X398.801 Y47.386
N400 X398.886 Y47.232
N405 X398.982 Y47.068
N410 X399.074 Y46.919
N415 X399.152 Y46.803
N420 X399.226 Y46.704
N425 X399.315 Y46.596
N430 X399.415 Y46.482
N435 X399.508 Y46.386
N440 X399.569 Y46.328
N445 X399.612 Y46.294
N450 X399.671 Y46.252
N455 X399.752 Y46.202
N460 X399.856 Y46.146
N465 X399.987 Y46.083
N470 X400.131 Y46.019
N475 X400.273 Y45.963
N480 X400.41 Y45.915
N485 X400.566 Y45.868
N490 X400.76 Y45.815
N495 X403.255 Y45.177
N500 Y42.847
N505 Y37.764
N510 X380.382
N515 Y40.764
N520 Y45.341
N525 X382.833 Y45.797
N530 X383.018 Y45.831
N535 X383.189 Y45.864
N540 X383.346 Y45.896
N545 X383.49 Y45.927
N550 X383.627 Y45.959
N555 X383.772 Y45.997
N560 X383.936 Y46.041
N565 X384.115 Y46.09
N570 X384.292 Y46.139
N575 X384.444 Y46.183
N580 X384.566 Y46.22
N585 X384.655 Y46.25
N590 X384.73 Y46.279
N595 X384.795 Y46.307
N600 X384.847 Y46.332
N605 X384.856 Y46.36
N610 X384.864 Y46.442
N615 X384.872 Y46.554
N620 X384.88 Y46.705
N625 X384.883 Y46.768
N630 X384.877 Y46.904
N635 X384.867 Y47.141
N640 X384.856 Y47.355
N645 X384.842 Y47.551
N650 X384.824 Y47.735
N655 X384.801 Y47.919
N660 X384.772 Y48.113
N665 X384.739 Y48.313
N670 X384.698 Y48.529
N675 X384.654 Y48.756
N680 X384.607 Y48.982
N685 X384.557 Y49.214
N690 X384.505 Y49.444
N695 X384.453 Y49.669
N700 X384.397 Y49.899
N705 X384.34 Y50.128
N710 X384.283 Y50.346
N715 X384.22 Y50.574
N720 X384.155 Y50.807
N725 X384.089 Y51.035
N730 X384.019 Y51.273
N735 X383.948 Y51.511
N740 X383.875 Y51.749
N745 X383.872 Y51.76
N750 X383.797 Y52.009
N755 X383.782 Y52.061
N760 X383.116 Y54.431
N765 X370.456
N770 X369.945 Y53.001
N775 X369.859 Y52.754
N780 X369.769 Y52.497
N785 X369.683 Y52.251
N790 X369.602 Y52.014
N795 X369.521 Y51.772
N800 X369.442 Y51.53
N805 X369.366 Y51.292
N810 X369.29 Y51.049
N815 X369.215 Y50.805
N820 X369.142 Y50.56
N825 X369.07 Y50.316
N830 X369.001 Y50.076
N835 X368.937 Y49.846
N840 X368.879 Y49.621
N845 X368.823 Y49.401
N850 X368.773 Y49.18
N855 X368.726 Y48.963
N860 X368.684 Y48.75
N865 X368.647 Y48.542
N870 X368.617 Y48.344
N875 X368.591 Y48.146
N880 X368.571 Y47.952
N885 X368.555 Y47.746
N890 X368.542 Y47.518
N895 X368.53 Y47.274
N900 X368.524 Y47.111
N905 X368.526 Y47.001
N910 X368.533 Y46.838
N915 X368.542 Y46.715
N920 X368.552 Y46.631
N925 X368.562 Y46.573
N930 X368.577 Y46.511
N935 X368.594 Y46.452
N940 X368.614 Y46.398
N945 X368.632 Y46.356
N950 X368.643 Y46.346
N955 X368.701 Y46.31
N960 X368.776 Y46.267
N965 X368.868 Y46.222
N970 X368.968 Y46.177
N975 X369.072 Y46.135
N980 X369.186 Y46.094
N985 X369.313 Y46.055
N990 X369.447 Y46.017
N995 X369.591 Y45.981
N1000 X369.747 Y45.947
N1005 X369.919 Y45.913
N1010 X370.108 Y45.879
N1015 X370.315 Y45.845
N1020 X373.057 Y45.4
N1025 Y42.847
N1030 Y37.764
N1035 X351.421
N1040 Y40.764
N1045 Y45.276
N1050 X353.797 Y45.782
N1055 X354.102 Y45.847
N1060 X354.31 Y45.898
N1065 X354.437 Y45.938
N1070 X354.537 Y45.979
N1075 X354.65 Y46.038
N1080 X354.782 Y46.118
N1085 X354.919 Y46.215
N1090 X355.058 Y46.326
N1095 X355.201 Y46.455
N1100 X355.35 Y46.604
N1105 X355.503 Y46.772
N1110 X355.658 Y46.958
N1115 X355.811 Y47.156
N1120 X355.964 Y47.368
N1125 X356.114 Y47.59
N1130 X356.259 Y47.82
N1135 X356.4 Y48.06
N1140 X356.545 Y48.319
N1145 X356.692 Y48.593
N1150 X356.84 Y48.879
N1155 X356.987 Y49.171
N1160 X357.129 Y49.461
N1165 X357.264 Y49.746
N1170 X357.393 Y50.031
N1175 X357.52 Y50.322
N1180 X357.643 Y50.616
N1185 X357.766 Y50.92
N1190 X357.89 Y51.233
N1195 X358.015 Y51.556
N1200 X358.139 Y51.877
N1205 X373.413 Y92.514
N1210 X374.144 Y94.458
N1215 X384.238
N1220 X394.705 Y60.057
N1225 G3 X395.453 Y59.658 I0.574 J0.175 F500.
N1230 G1 X396.027 Y59.832
N1235 X396.117 Y59.86 Z-4.993
N1240 X396.205 Y59.886 Z-4.971
N1245 X396.288 Y59.912 Z-4.935
N1250 X396.365 Y59.935 Z-4.885
N1255 X396.433 Y59.956 Z-4.824
N1260 X396.492 Y59.974 Z-4.753
N1265 X396.539 Y59.988 Z-4.672
N1270 X396.573 Y59.998 Z-4.585
N1275 X396.594 Y60.005 Z-4.494
N1280 X396.601 Y60.007 Z-4.4
N1285 G0 Z5.
N1290 X414.899 Y62.729
N1295 G1 Z1. F333.33
N1300 Z-4.4
N1305 G18 G2 X415.499 Z-5. I0.6 K0.
N1310 G1 X416.099 F500.
N1315 G17 G3 X416.699 Y63.329 I0. J0.6
N1320 G1 Y84.292 F1500.
N1325 X414.944
N1330 X414.67 Y84.288
N1335 X414.409 Y84.282
N1340 X414.174 Y84.271
N1345 X413.938 Y84.253
N1350 X413.685 Y84.229
N1355 X413.439 Y84.201
N1360 X413.235 Y84.173
N1365 X413.074 Y84.144
N1370 X412.939 Y84.111
N1375 X412.821 Y84.075
N1380 X412.729 Y84.04
N1385 X412.648 Y84.002
N1390 X412.552 Y83.948
N1395 X412.436 Y83.874
N1400 X412.333 Y83.8
N1405 X412.247 Y83.728
N1410 X412.155 Y83.641
N1415 X412.046 Y83.525
N1420 X411.927 Y83.388
N1425 X411.821 Y83.253
N1430 X411.719 Y83.11
N1435 X411.61 Y82.942
N1440 X411.49 Y82.745
N1445 X411.368 Y82.533
N1450 X411.252 Y82.322
N1455 X411.14 Y82.105
N1460 X411.033 Y81.888
N1465 X410.93 Y81.665
N1470 X410.829 Y81.433
N1475 X410.731 Y81.198
N1480 X410.635 Y80.953
N1485 X410.541 Y80.705
N1490 X410.448 Y80.447
N1495 X410.357 Y80.187
N1500 X410.27 Y79.926
N1505 X410.184 Y79.66
N1510 X410.103 Y79.401
N1515 X410.024 Y79.132
N1520 X409.944 Y78.853
N1525 X409.866 Y78.578
N1530 X409.791 Y78.297
N1535 X409.714 Y78.011
N1540 X409.64 Y77.725
N1545 X409.564 Y77.429
N1550 X409.489 Y77.132
N1555 X408.842 Y74.57
N1560 X400.033
N1565 Y93.764
N1570 X446.31
N1575 Y90.764
N1580 Y74.57
N1585 X439.838
N1590 X437.524
N1595 X436.936 Y76.808
N1600 X436.853 Y77.127
N1605 X436.767 Y77.446
N1610 X436.683 Y77.759
N1615 X436.596 Y78.068
N1620 X436.511 Y78.372
N1625 X436.423 Y78.67
N1630 X436.331 Y78.973
N1635 X436.236 Y79.279
N1640 X436.139 Y79.584
N1645 X436.042 Y79.884
N1650 X435.945 Y80.174
N1655 X435.85 Y80.446
N1660 X435.75 Y80.715
N1665 X435.646 Y80.981
N1670 X435.539 Y81.242
N1675 X435.425 Y81.504
N1680 X435.305 Y81.768
N1685 X435.185 Y82.022
N1690 X435.064 Y82.264
N1695 X434.943 Y82.491
N1700 X434.831 Y82.687
N1705 X434.719 Y82.864
N1710 X434.594 Y83.046
N1715 X434.458 Y83.227
N1720 X434.328 Y83.388
N1725 X434.206 Y83.524
N1730 X434.084 Y83.647
N1735 X433.96 Y83.757
N1740 X433.842 Y83.851
N1745 X433.723 Y83.933
N1750 X433.607 Y84.002
N1755 X433.499 Y84.057
N1760 X433.394 Y84.101
N1765 X433.286 Y84.136
N1770 X433.158 Y84.168
N1775 X432.984 Y84.2
N1780 X432.763 Y84.23
N1785 X432.523 Y84.255
N1790 X432.277 Y84.272
N1795 X432.015 Y84.283
N1800 X431.724 Y84.289
N1805 X431.415 Y84.292
N1810 X429.644
N1815 Y50.231
N1820 X429.645 Y49.977
N1825 X429.647 Y49.722
N1830 X429.65 Y49.479
N1835 X429.655 Y49.246
N1840 X429.663 Y49.02
N1845 X429.673 Y48.799
N1850 X429.688 Y48.573
N1855 X429.705 Y48.348
N1860 X429.725 Y48.128
N1865 X429.748 Y47.908
N1870 X429.774 Y47.695
N1875 X429.801 Y47.505
N1880 X429.83 Y47.333
N1885 X429.862 Y47.174
N1890 X429.898 Y47.028
N1895 X429.939 Y46.884
N1900 X429.982 Y46.753
N1905 X430.024 Y46.643
N1910 X430.061 Y46.558
N1915 X430.085 Y46.512
N1920 X430.095 Y46.496
N1925 X430.119 Y46.468
N1930 X430.148 Y46.44
N1935 X430.181 Y46.413
N1940 X430.224 Y46.383
N1945 X430.267 Y46.357
N1950 X430.32 Y46.329
N1955 X430.416 Y46.288
N1960 X430.56 Y46.233
N1965 X430.727 Y46.175
N1970 X430.904 Y46.119
N1975 X431.096 Y46.063
N1980 X431.308 Y46.006
N1985 X431.54 Y45.947
N1990 X431.786 Y45.886
N1995 X432.034 Y45.824
N2000 X434.581 Y45.206
N2005 Y42.847
N2010 Y37.764
N2015 X411.762
N2020 Y40.764
N2025 Y45.209
N2030 X414.058 Y45.764
N2035 X414.31 Y45.824
N2040 X414.55 Y45.883
N2045 X414.778 Y45.942
N2050 X414.995 Y46.
N2055 X415.2 Y46.058
N2060 X415.396 Y46.118
N2065 X415.583 Y46.18
N2070 X415.757 Y46.242
N2075 X415.907 Y46.301
N2080 X416.03 Y46.354
N2085 X416.126 Y46.402
N2090 X416.19 Y46.439
N2095 X416.216 Y46.456
N2100 X416.232 Y46.47
N2105 X416.248 Y46.488
N2110 X416.268 Y46.515
N2115 X416.286 Y46.543
N2120 X416.307 Y46.581
N2125 X416.334 Y46.642
N2130 X416.368 Y46.733
N2135 X416.406 Y46.852
N2140 X416.444 Y46.991
N2145 X416.48 Y47.144
N2150 X416.514 Y47.32
N2155 X416.546 Y47.509
N2160 X416.574 Y47.699
N2165 X416.598 Y47.902
N2170 X416.62 Y48.11
N2175 X416.638 Y48.33
N2180 X416.654 Y48.561
N2185 X416.668 Y48.793
N2190 X416.68 Y49.025
N2195 X416.688 Y49.252
N2200 X416.694 Y49.484
N2205 X416.697 Y49.727
N2210 X416.699 Y49.971
N2215 Y63.329
N2220 G3 X416.099 Y63.929 I-0.6 J0. F500.
N2225 G1 X415.499
N2230 G18 G3 X414.899 Z-4.4 I0. K0.6
N2235 G0 Z5.
N2240 X446.096 Y46.746
N2245 G1 Z1. F333.33
N2250 Z-4.4
N2255 X446.098 Y46.739 Z-4.494
N2260 X446.103 Y46.718 Z-4.585
N2265 X446.113 Y46.683 Z-4.672
N2270 X446.125 Y46.636 Z-4.753
N2275 X446.141 Y46.576 Z-4.824
N2280 X446.159 Y46.507 Z-4.885
N2285 X446.179 Y46.43 Z-4.935
N2290 X446.202 Y46.345 Z-4.971
N2295 X446.225 Y46.257 Z-4.993
N2300 X446.249 Y46.166 Z-5.
N2305 X446.402 Y45.586 F500.
N2310 G17 G3 X447.135 Y45.159 I0.58 J0.153
N2315 G1 X449.37 Y45.748 F1500.
N2320 X449.606 Y45.81
N2325 X449.825 Y45.87
N2330 X450.029 Y45.927
N2335 X450.218 Y45.984
N2340 X450.394 Y46.04
N2345 X450.562 Y46.099
N2350 X450.728 Y46.162
N2355 X450.882 Y46.225
N2360 X451.013 Y46.283
N2365 X451.109 Y46.331
N2370 X451.138 Y46.347
N2375 X451.149 Y46.369
N2380 X451.16 Y46.395
N2385 X451.178 Y46.451
N2390 X451.204 Y46.546
N2395 X451.23 Y46.669
N2400 X451.258 Y46.823
N2405 X451.284 Y46.995
N2410 X451.307 Y47.181
N2415 X451.328 Y47.379
N2420 X451.346 Y47.583
N2425 X451.362 Y47.799
N2430 X451.376 Y48.016
N2435 X451.387 Y48.239
N2440 X451.397 Y48.467
N2445 X451.405 Y48.696
N2450 X451.412 Y48.919
N2455 X451.415 Y49.148
N2460 X451.418 Y49.389
N2465 X451.42 Y49.63
N2470 X451.421 Y49.87
N2475 Y81.405
N2480 X451.42 Y81.645
N2485 X451.418 Y81.891
N2490 X451.416 Y82.137
N2495 X451.413 Y82.377
N2500 X451.409 Y82.618
N2505 X451.405 Y82.846
N2510 X451.398 Y83.068
N2515 X451.39 Y83.279
N2520 X451.377 Y83.489
N2525 X451.362 Y83.705
N2530 X451.345 Y83.914
N2535 X451.324 Y84.136
N2540 X451.301 Y84.351
N2545 X451.28 Y84.53
N2550 X451.257 Y84.678
N2555 X451.232 Y84.813
N2560 X451.205 Y84.928
N2565 X451.176 Y85.029
N2570 X451.148 Y85.114
N2575 X451.127 Y85.165
N2580 X451.121 Y85.176
N2585 X451.109 Y85.185
N2590 X451.084 Y85.2
N2595 X451.018 Y85.232
N2600 X450.899 Y85.284
N2605 X450.742 Y85.347
N2610 X450.57 Y85.41
N2615 X450.39 Y85.472
N2620 X450.197 Y85.535
N2625 X449.992 Y85.598
N2630 X449.775 Y85.663
N2635 X449.55 Y85.728
N2640 X447.135 Y86.416
N2645 Y88.681
N2650 Y93.764
N2655 X468.652
N2660 Y90.764
N2665 Y86.33
N2670 X466.37 Y85.768
N2675 X466.159 Y85.716
N2680 X465.973 Y85.668
N2685 X465.808 Y85.624
N2690 X465.65 Y85.577
N2695 X465.48 Y85.523
N2700 X465.291 Y85.46
N2705 X465.108 Y85.398
N2710 X464.977 Y85.351
N2715 X464.904 Y85.321
N2720 X464.854 Y85.297
N2725 X464.804 Y85.27
N2730 X464.754 Y85.238
N2735 X464.703 Y85.203
N2740 X464.662 Y85.17
N2745 X464.652 Y85.144
N2750 X464.629 Y85.072
N2755 X464.598 Y84.965
N2760 X464.568 Y84.841
N2765 X464.539 Y84.703
N2770 X464.514 Y84.564
N2775 X464.492 Y84.423
N2780 X464.474 Y84.275
N2785 X464.459 Y84.114
N2790 X464.445 Y83.939
N2795 X464.433 Y83.75
N2800 X464.422 Y83.535
N2805 X464.41 Y83.314
N2810 X464.4 Y83.092
N2815 X464.389 Y82.877
N2820 X464.381 Y82.675
N2825 X464.375 Y82.473
N2830 X464.371 Y82.271
N2835 X464.368 Y82.069
N2840 X464.367 Y81.854
N2845 X464.366 Y81.632
N2850 Y50.123
N2855 X464.367 Y49.877
N2860 X464.368 Y49.63
N2865 X464.37 Y49.395
N2870 X464.373 Y49.166
N2875 X464.379 Y48.938
N2880 X464.386 Y48.703
N2885 X464.404 Y48.21
N2890 X464.413 Y47.976
N2895 X464.424 Y47.753
N2900 X464.436 Y47.554
N2905 X464.45 Y47.38
N2910 X464.47 Y47.206
N2915 X464.494 Y47.027
N2920 X464.521 Y46.861
N2925 X464.549 Y46.714
N2930 X464.581 Y46.574
N2935 X464.614 Y46.454
N2940 X464.64 Y46.372
N2945 X464.647 Y46.356
N2950 X464.669 Y46.34
N2955 X464.72 Y46.31
N2960 X464.797 Y46.271
N2965 X464.904 Y46.223
N2970 X465.042 Y46.167
N2975 X465.21 Y46.106
N2980 X465.394 Y46.042
N2985 X465.579 Y45.982
N2990 X465.765 Y45.925
N2995 X465.964 Y45.869
N3000 X466.181 Y45.81
N3005 X468.652 Y45.16
N3010 Y42.847
N3015 Y37.764
N3020 X447.135
N3025 Y40.764
N3030 Y45.159
N3035 G3 X446.535 Y45.759 I-0.6 J0. F500.
N3040 G1 X445.935
N3045 G18 G3 X445.335 Z-4.4 I0. K0.6
N3050 G0 Z5.
N3055 X440.258 Y19.8
N3060 G1 Z1. F333.33
N3065 Z-4.4
N3070 G19 G2 Y19.2 Z-5. J-0.6 K0.
N3075 G1 Y18.6 F500.
N3080 G17 G3 X440.858 Y18. I0.6 J0.
N3085 G1 X714.293 F1500.
N3090 G2 X737. Y40.707 I35.707 J-13.
N3095 G1 Y89.293
N3100 G2 X714.293 Y112. I13. J35.707
N3105 G1 X85.707
N3110 G2 X63. Y89.293 I-35.707 J13.
N3115 G1 Y40.707
N3120 G2 X85.707 Y18. I-13. J-35.707
N3125 G1 X440.858
N3130 G3 X441.458 Y18.6 I0. J0.6 F500.
N3135 G1 Y19.2
N3140 G19 G3 Y19.8 Z-4.4 J0. K0.6
N3145 G0 Z5.
N3150 X481.36 Y38.26
N3155 G1 Z1. F333.33
N3160 Z-4.4
N3165 X481.364 Y38.266 Z-4.494
N3170 X481.375 Y38.285 Z-4.585
N3175 X481.393 Y38.316 Z-4.672
N3180 X481.418 Y38.359 Z-4.753
N3185 X481.449 Y38.411 Z-4.824
N3190 X481.485 Y38.473 Z-4.885
N3195 X481.525 Y38.543 Z-4.935
N3200 X481.569 Y38.618 Z-4.971
N3205 X481.615 Y38.697 Z-4.993
N3210 X481.663 Y38.778 Z-5.
N3215 X481.965 Y39.296 F500.
N3220 G17 G3 X481.749 Y40.117 I-0.518 J0.302
N3225 G1 X481.618 Y40.194 F1500.
N3230 X481.483 Y40.277
N3235 X480.817 Y40.715
N3240 X480.688 Y40.804
N3245 X480.046 Y41.275
N3250 X479.926 Y41.369
N3255 X479.309 Y41.872
N3260 X479.199 Y41.966
N3265 X478.607 Y42.499
N3270 X478.505 Y42.594
N3275 X477.938 Y43.154
N3280 X477.839 Y43.258
N3285 X477.299 Y43.843
N3290 X477.208 Y43.947
N3295 X476.696 Y44.557
N3300 X476.607 Y44.67
N3305 X476.125 Y45.304
N3310 X476.043 Y45.416
N3315 X475.591 Y46.072
N3320 X475.517 Y46.185
N3325 X475.095 Y46.86
N3330 X475.03 Y46.969
N3335 X474.637 Y47.662
N3340 X474.584 Y47.76
N3345 X474.217 Y48.467
N3350 X474.17 Y48.561
N3355 X473.828 Y49.28
N3360 X473.786 Y49.371
N3365 X473.469 Y50.101
N3370 X473.431 Y50.191
N3375 X473.137 Y50.931
N3380 X473.104 Y51.017
N3385 X472.833 Y51.766
N3390 X472.804 Y51.849
N3395 X472.555 Y52.606
N3400 X472.53 Y52.688
N3405 X472.303 Y53.451
N3410 X472.28 Y53.531
N3415 X472.074 Y54.3
N3420 X472.054 Y54.379
N3425 X471.869 Y55.153
N3430 X471.851 Y55.232
N3435 X471.687 Y56.011
N3440 X471.672 Y56.087
N3445 X471.528 Y56.87
N3450 X471.517 Y56.938
N3455 X471.391 Y57.724
N3460 X471.381 Y57.788
N3465 X471.272 Y58.577
N3470 X471.265 Y58.629
N3475 X471.17 Y59.42
N3480 X471.165 Y59.473
N3485 X471.084 Y60.265
N3490 X471.078 Y60.321
N3495 X471.012 Y61.115
N3500 X471.008 Y61.171
N3505 X470.957 Y61.966
N3510 X470.954 Y62.026
N3515 X470.919 Y62.821
N3520 X470.917 Y62.866
N3525 X470.894 Y63.662
N3530 Y63.688
N3535 X470.878 Y64.484
N3540 X470.877 Y64.503
N3545 X470.866 Y65.299
N3550 Y65.38
N3555 X470.874 Y65.987
N3560 X470.875 Y66.007
N3565 X470.887 Y66.614
N3570 Y66.633
N3575 X470.903 Y67.24
N3580 X470.905 Y67.284
N3585 X470.93 Y67.891
N3590 X470.932 Y67.935
N3595 X470.966 Y68.541
N3600 X470.968 Y68.581
N3605 X471.01 Y69.186
N3610 X471.013 Y69.226
N3615 X471.063 Y69.83
N3620 X471.067 Y69.875
N3625 X471.126 Y70.479
N3630 X471.13 Y70.514
N3635 X471.196 Y71.117
N3640 X471.201 Y71.161
N3645 X471.276 Y71.763
N3650 X471.281 Y71.803
N3655 X471.364 Y72.404
N3660 X471.372 Y72.458
N3665 X471.466 Y73.058
N3670 X471.476 Y73.117
N3675 X471.582 Y73.715
N3680 X471.593 Y73.774
N3685 X471.711 Y74.369
N3690 X471.723 Y74.424
N3695 X471.852 Y75.017
N3700 X471.863 Y75.066
N3705 X472.002 Y75.657
N3710 X472.014 Y75.706
N3715 X472.163 Y76.295
N3720 X472.176 Y76.344
N3725 X472.335 Y76.93
N3730 X472.353 Y76.994
N3735 X472.525 Y77.576
N3740 X472.543 Y77.635
N3745 X472.727 Y78.214
N3750 X472.749 Y78.278
N3755 X472.946 Y78.852
N3760 X472.972 Y78.925
N3765 X473.184 Y79.494
N3770 X473.207 Y79.554
N3775 X473.431 Y80.118
N3780 X473.459 Y80.187
N3785 X473.697 Y80.745
N3790 X473.724 Y80.805
N3795 X473.974 Y81.358
N3800 X474.006 Y81.427
N3805 X474.27 Y81.973
N3810 X474.307 Y82.047
N3815 X474.586 Y82.586
N3820 X474.62 Y82.651
N3825 X474.912 Y83.183
N3830 X474.951 Y83.251
N3835 X475.257 Y83.776
N3840 X475.293 Y83.836
N3845 X475.611 Y84.353
N3850 X475.652 Y84.418
N3855 X475.983 Y84.926
N3860 X476.038 Y85.008
N3865 X476.386 Y85.505
N3870 X476.441 Y85.581
N3875 X476.804 Y86.067
N3880 X476.865 Y86.146
N3885 X477.244 Y86.62
N3890 X477.309 Y86.699
N3895 X477.704 Y87.16
N3900 X477.767 Y87.231
N3905 X478.176 Y87.679
N3910 X478.243 Y87.75
N3915 X478.667 Y88.185
N3920 X478.734 Y88.252
N3925 X479.171 Y88.672
N3930 X479.245 Y88.741
N3935 X479.696 Y89.147
N3940 X479.773 Y89.214
N3945 X480.238 Y89.605
N3950 X480.313 Y89.665
N3955 X480.79 Y90.04
N3960 X480.868 Y90.1
N3965 X481.357 Y90.46
N3970 X481.448 Y90.523
N3975 X481.95 Y90.865
N3980 X482.047 Y90.928
N3985 X482.562 Y91.25
N3990 X482.647 Y91.301
N3995 X483.172 Y91.605
N4000 X483.246 Y91.646
N4005 X483.78 Y91.936
N4010 X483.856 Y91.976
N4015 X484.397 Y92.249
N4020 X484.5 Y92.299
N4025 X485.052 Y92.552
N4030 X485.155 Y92.597
N4035 X485.715 Y92.829
N4040 X485.811 Y92.867
N4045 X486.38 Y93.08
N4050 X486.46 Y93.109
N4055 X487.034 Y93.305
N4060 X487.121 Y93.333
N4065 X487.701 Y93.513
N4070 X487.791 Y93.539
N4075 X488.376 Y93.7
N4080 X488.471 Y93.724
N4085 X489.061 Y93.866
N4090 X489.159 Y93.887
N4095 X489.754 Y94.009
N4100 X489.844 Y94.026
N4105 X490.442 Y94.13
N4110 X490.518 Y94.142
N4115 X491.118 Y94.23
N4120 X491.185 Y94.239
N4125 X491.788 Y94.314
N4130 X491.87 Y94.323
N4135 X492.474 Y94.381
N4140 X492.579 Y94.389
N4145 X493.184 Y94.426
N4150 X493.276 Y94.43
N4155 X493.883 Y94.448
N4160 X493.93 Y94.449
N4165 X494.536 Y94.458
N4170 X494.622
N4175 X495.214 Y94.45
N4180 X495.249 Y94.449
N4185 X495.84 Y94.434
N4190 X495.91 Y94.431
N4195 X496.501 Y94.403
N4200 X496.589 Y94.397
N4205 X497.179 Y94.351
N4210 X497.251 Y94.344
N4215 X497.839 Y94.284
N4220 X497.891 Y94.278
N4225 X498.479 Y94.208
N4230 X498.536 Y94.2
N4235 X499.123 Y94.119
N4240 X499.199 Y94.107
N4245 X499.782 Y94.01
N4250 X499.871 Y93.994
N4255 X500.452 Y93.88
N4260 X500.545 Y93.86
N4265 X501.122 Y93.727
N4270 X501.218 Y93.703
N4275 X501.79 Y93.552
N4280 X501.884 Y93.525
N4285 X502.451 Y93.355
N4290 X502.541 Y93.326
N4295 X503.102 Y93.138
N4300 X503.188 Y93.108
N4305 X503.744 Y92.902
N4310 X503.832 Y92.869
N4315 X504.38 Y92.646
N4320 X504.463 Y92.611
N4325 X505.005 Y92.373
N4330 X505.096 Y92.33
N4335 X505.629 Y92.074
N4340 X505.726 Y92.025
N4345 X506.25 Y91.749
N4350 X506.348 Y91.695
N4355 X506.861 Y91.4
N4360 X506.95 Y91.347
N4365 X507.453 Y91.033
N4370 X507.543 Y90.976
N4375 X508.034 Y90.645
N4380 X508.128 Y90.579
N4385 X508.606 Y90.23
N4390 X508.7 Y90.159
N4395 X509.164 Y89.791
N4400 X509.252 Y89.719
N4405 X509.702 Y89.333
N4410 X509.784 Y89.261
N4415 X510.219 Y88.86
N4420 X510.291 Y88.792
N4425 X510.713 Y88.376
N4430 X510.786 Y88.301
N4435 X511.193 Y87.871
N4440 X511.263 Y87.794
N4445 X511.655 Y87.351
N4450 X511.728 Y87.265
N4455 X512.103 Y86.807
N4460 X512.174 Y86.717
N4465 X512.531 Y86.245
N4470 X512.588 Y86.168
N4475 X512.93 Y85.685
N4480 X512.975 Y85.619
N4485 X513.304 Y85.126
N4490 X513.353 Y85.05
N4495 X513.667 Y84.549
N4500 X513.722 Y84.458
N4505 X514.018 Y83.945
N4510 X514.071 Y83.85
N4515 X514.348 Y83.327
N4520 X514.383 Y83.259
N4525 X514.647 Y82.729
N4530 X514.678 Y82.664
N4535 X514.929 Y82.128
N4540 X514.959 Y82.062
N4545 X515.197 Y81.52
N4550 X515.231 Y81.44
N4555 X515.453 Y80.891
N4560 X515.481 Y80.819
N4565 X515.689 Y80.265
N4570 X515.714 Y80.194
N4575 X515.908 Y79.635
N4580 X515.927 Y79.579
N4585 X516.11 Y79.016
N4590 X516.128 Y78.961
N4595 X516.299 Y78.395
N4600 X516.314 Y78.344
N4605 X516.476 Y77.775
N4610 X516.49 Y77.724
N4615 X516.642 Y77.152
N4620 X516.658 Y77.091
N4625 X516.798 Y76.516
N4630 X516.812 Y76.455
N4635 X516.94 Y75.877
N4640 X516.955 Y75.806
N4645 X517.069 Y75.226
N4650 X517.078 Y75.175
N4655 X517.182 Y74.592
N4660 X517.191 Y74.541
N4665 X517.285 Y73.957
N4670 X517.291 Y73.916
N4675 X517.377 Y73.331
N4680 X517.383 Y73.29
N4685 X517.461 Y72.704
N4690 X517.466 Y72.663
N4695 X517.536 Y72.075
N4700 X517.54 Y72.04
N4705 X517.603 Y71.451
N4710 X517.607 Y71.411
N4715 X517.662 Y70.821
N4720 X517.666 Y70.781
N4725 X517.713 Y70.191
N4730 X517.715 Y70.15
N4735 X517.754 Y69.56
N4740 X517.757 Y69.514
N4745 X517.787 Y68.923
N4750 X517.789 Y68.877
N4755 X517.81 Y68.286
N4760 X517.811 Y68.245
N4765 X517.824 Y67.654
N4770 X517.825 Y67.628
N4775 X517.833 Y67.037
N4780 Y67.021
N4785 X517.838 Y66.429
N4790 Y66.365
N4795 X517.83 Y65.75
N4800 Y65.735
N4805 X517.819 Y65.119
N4810 X517.818 Y65.095
N4815 X517.802 Y64.48
N4820 X517.801 Y64.45
N4825 X517.779 Y63.835
N4830 X517.777 Y63.791
N4835 X517.746 Y63.177
N4840 X517.744 Y63.133
N4845 X517.704 Y62.518
N4850 X517.701 Y62.474
N4855 X517.651 Y61.861
N4860 X517.648 Y61.817
N4865 X517.59 Y61.204
N4870 X517.585 Y61.16
N4875 X517.518 Y60.548
N4880 X517.514 Y60.509
N4885 X517.439 Y59.898
N4890 X517.433 Y59.854
N4895 X517.349 Y59.244
N4900 X517.343 Y59.2
N4905 X517.25 Y58.592
N4910 X517.242 Y58.543
N4915 X517.139 Y57.936
N4920 X517.129 Y57.882
N4925 X517.015 Y57.277
N4930 X517.004 Y57.219
N4935 X516.878 Y56.616
N4940 X516.865 Y56.558
N4945 X516.727 Y55.958
N4950 X516.713 Y55.899
N4955 X516.563 Y55.302
N4960 X516.547 Y55.244
N4965 X516.385 Y54.65
N4970 X516.369 Y54.591
N4975 X516.195 Y54.001
N4980 X516.177 Y53.943
N4985 X515.991 Y53.356
N4990 X515.972 Y53.297
N4995 X515.774 Y52.714
N5000 X515.751 Y52.651
N5005 X515.54 Y52.072
N5010 X515.516 Y52.009
N5015 X515.292 Y51.435
N5020 X515.265 Y51.367
N5025 X515.027 Y50.799
N5030 X514.995 Y50.727
N5035 X514.742 Y50.165
N5040 X514.712 Y50.101
N5045 X514.446 Y49.546
N5050 X514.415 Y49.483
N5055 X514.136 Y48.934
N5060 X514.103 Y48.871
N5065 X513.811 Y48.329
N5070 X513.77 Y48.255
N5075 X513.463 Y47.722
N5080 X513.414 Y47.638
N5085 X513.09 Y47.115
N5090 X513.037 Y47.033
N5095 X512.696 Y46.52
N5100 X512.649 Y46.452
N5105 X512.294 Y45.949
N5110 X512.248 Y45.885
N5115 X511.88 Y45.391
N5120 X511.82 Y45.314
N5125 X511.436 Y44.833
N5130 X511.371 Y44.754
N5135 X510.971 Y44.286
N5140 X510.899 Y44.205
N5145 X510.482 Y43.752
N5150 X510.411 Y43.677
N5155 X509.979 Y43.239
N5160 X509.902 Y43.163
N5165 X509.454 Y42.74
N5170 X509.376 Y42.669
N5175 X508.914 Y42.262
N5180 X508.829 Y42.191
N5185 X508.352 Y41.801
N5190 X508.268 Y41.735
N5195 X507.777 Y41.363
N5200 X507.694 Y41.302
N5205 X507.191 Y40.947
N5210 X507.106 Y40.889
N5215 X506.591 Y40.551
N5220 X506.504 Y40.497
N5225 X505.978 Y40.177
N5230 X505.889 Y40.125
N5235 X505.352 Y39.823
N5240 X505.265 Y39.776
N5245 X504.719 Y39.493
N5250 X504.628 Y39.447
N5255 X504.072 Y39.182
N5260 X503.977 Y39.139
N5265 X503.412 Y38.894
N5270 X503.32 Y38.855
N5275 X502.748 Y38.629
N5280 X502.655 Y38.594
N5285 X502.075 Y38.386
N5290 X501.987 Y38.356
N5295 X501.401 Y38.167
N5300 X501.317 Y38.141
N5305 X500.726 Y37.969
N5310 X500.643 Y37.946
N5315 X500.047 Y37.791
N5320 X499.961 Y37.77
N5325 X499.361 Y37.632
N5330 X499.267 Y37.612
N5335 X498.663 Y37.494
N5340 X498.571 Y37.477
N5345 X497.964 Y37.378
N5350 X497.886 Y37.366
N5355 X497.275 Y37.283
N5360 X497.209 Y37.275
N5365 X496.598 Y37.205
N5370 X496.519 Y37.197
N5375 X495.905 Y37.143
N5380 X495.812 Y37.137
N5385 X495.198 Y37.102
N5390 X495.119 Y37.099
N5395 X494.503 Y37.081
N5400 X494.461 Y37.08
N5405 X493.846 Y37.07
N5410 X493.734
N5415 X492.937 Y37.088
N5420 X492.887 Y37.089
N5425 X492.092 Y37.12
N5430 X491.993 Y37.125
N5435 X491.199 Y37.182
N5440 X491.072 Y37.194
N5445 X490.281 Y37.284
N5450 X490.172 Y37.299
N5455 X489.385 Y37.418
N5460 X489.296 Y37.433
N5465 X488.512 Y37.576
N5470 X488.418 Y37.595
N5475 X487.64 Y37.763
N5480 X487.527 Y37.79
N5485 X486.756 Y37.987
N5490 X486.627 Y38.024
N5495 X485.865 Y38.256
N5500 X485.739 Y38.297
N5505 X484.988 Y38.563
N5510 X484.869 Y38.608
N5515 X484.13 Y38.905
N5520 X484.009 Y38.957
N5525 X483.284 Y39.287
N5530 X483.15 Y39.352
N5535 X482.443 Y39.717
N5540 X482.306 Y39.792
N5545 X481.749 Y40.117
N5550 G3 X480.929 Y39.901 I-0.302 J-0.518 F500.
N5555 G1 X480.626 Y39.383
N5560 X480.579 Y39.302 Z-4.993
N5565 X480.533 Y39.223 Z-4.971
N5570 X480.489 Y39.147 Z-4.935
N5575 X480.448 Y39.078 Z-4.885
N5580 X480.412 Y39.016 Z-4.824
N5585 X480.382 Y38.963 Z-4.753
N5590 X480.357 Y38.921 Z-4.672
N5595 X480.339 Y38.89 Z-4.585
N5600 X480.328 Y38.871 Z-4.494
N5605 X480.324 Y38.865 Z-4.4
N5610 G0 Z5.
N5615 X502.396 Y65.584
N5620 G1 Z1. F333.33
N5625 Z-4.4
N5630 X502.404 Z-4.494
N5635 X502.426 Z-4.585
N5640 X502.462 Y65.585 Z-4.672
N5645 X502.511 Z-4.753
N5650 X502.572 Y65.586 Z-4.824
N5655 X502.644 Y65.587 Z-4.885
N5660 X502.724 Y65.588 Z-4.935
N5665 X502.811 Z-4.971
N5670 X502.902 Y65.589 Z-4.993
N5675 X502.996 Y65.59 Z-5.
N5680 X503.596 Y65.597 F500.
N5685 G3 X504.19 Y66.203 I-0.006 J0.6
N5690 G1 X504.189 Y66.255 F1500.
N5695 X504.18 Y66.696
N5700 X504.165 Y67.14
N5705 X504.146 Y67.587
N5710 X504.123 Y68.037
N5715 X504.096 Y68.494
N5720 X504.066 Y68.95
N5725 X504.033 Y69.405
N5730 X503.998 Y69.864
N5735 X503.96 Y70.32
N5740 X503.92 Y70.765
N5745 X503.875 Y71.204
N5750 X503.826 Y71.633
N5755 X503.77 Y72.061
N5760 X503.707 Y72.497
N5765 X503.639 Y72.933
N5770 X503.565 Y73.374
N5775 X503.488 Y73.814
N5780 X503.407 Y74.244
N5785 X503.322 Y74.67
N5790 X503.231 Y75.088
N5795 X503.134 Y75.501
N5800 X503.029 Y75.912
N5805 X502.917 Y76.324
N5810 X502.8 Y76.73
N5815 X502.676 Y77.128
N5820 X502.542 Y77.533
N5825 X502.4 Y77.942
N5830 X502.251 Y78.351
N5835 X502.101 Y78.749
N5840 X501.951 Y79.121
N5845 X501.795 Y79.479
N5850 X501.626 Y79.837
N5855 X501.446 Y80.197
N5860 X501.259 Y80.548
N5865 X501.068 Y80.885
N5870 X500.868 Y81.212
N5875 X500.655 Y81.539
N5880 X500.431 Y81.862
N5885 X500.217 Y82.153
N5890 X500.012 Y82.406
N5895 X499.79 Y82.651
N5900 X499.548 Y82.897
N5905 X499.295 Y83.133
N5910 X499.041 Y83.349
N5915 X498.776 Y83.552
N5920 X498.491 Y83.752
N5925 X498.198 Y83.939
N5930 X497.897 Y84.114
N5935 X497.591 Y84.274
N5940 X497.289 Y84.416
N5945 X497.003 Y84.533
N5950 X496.719 Y84.629
N5955 X496.401 Y84.718
N5960 X496.048 Y84.8
N5965 X495.687 Y84.872
N5970 X495.344 Y84.926
N5975 X495.029 Y84.961
N5980 X494.689 Y84.979
N5985 X494.348 Y84.985
N5990 X493.854 Y84.966
N5995 X493.341 Y84.935
N6000 X492.882 Y84.887
N6005 X492.448 Y84.816
N6010 X492.025 Y84.721
N6015 X491.612 Y84.602
N6020 X491.214 Y84.46
N6025 X490.832 Y84.294
N6030 X490.461 Y84.103
N6035 X490.1 Y83.886
N6040 X489.745 Y83.642
N6045 X489.398 Y83.371
N6050 X489.059 Y83.075
N6055 X488.728 Y82.754
N6060 X488.409 Y82.411
N6065 X488.106 Y82.053
N6070 X487.824 Y81.685
N6075 X487.56 Y81.302
N6080 X487.307 Y80.893
N6085 X487.063 Y80.461
N6090 X486.833 Y80.014
N6095 X486.615 Y79.552
N6100 X486.412 Y79.081
N6105 X486.221 Y78.596
N6110 X486.04 Y78.092
N6115 X485.87 Y77.583
N6120 X485.716 Y77.074
N6125 X485.575 Y76.559
N6130 X485.446 Y76.039
N6135 X485.331 Y75.51
N6140 X485.224 Y74.967
N6145 X485.126 Y74.412
N6150 X485.035 Y73.85
N6155 X484.952 Y73.287
N6160 X484.878 Y72.721
N6165 X484.811 Y72.151
N6170 X484.75 Y71.577
N6175 X484.696 Y70.998
N6180 X484.648 Y70.421
N6185 X484.608 Y69.846
N6190 X484.574 Y69.27
N6195 X484.548 Y68.699
N6200 X484.53 Y68.125
N6205 X484.519 Y67.539
N6210 X484.511 Y66.94
N6215 X484.505 Y66.365
N6220 X484.513 Y65.76
N6225 X484.522 Y65.131
N6230 X484.534 Y64.514
N6235 X484.552 Y63.901
N6240 X484.576 Y63.294
N6245 X484.607 Y62.689
N6250 X484.645 Y62.084
N6255 X484.69 Y61.483
N6260 X484.743 Y60.884
N6265 X484.804 Y60.286
N6270 X484.872 Y59.692
N6275 X484.949 Y59.104
N6280 X485.034 Y58.519
N6285 X485.131 Y57.933
N6290 X485.235 Y57.351
N6295 X485.35 Y56.774
N6300 X485.473 Y56.202
N6305 X485.607 Y55.639
N6310 X485.751 Y55.084
N6315 X485.906 Y54.541
N6320 X486.074 Y54.004
N6325 X486.255 Y53.478
N6330 X486.449 Y52.962
N6335 X486.659 Y52.454
N6340 X486.883 Y51.953
N6345 X487.12 Y51.466
N6350 X487.37 Y50.992
N6355 X487.632 Y50.537
N6360 X487.899 Y50.116
N6365 X488.177 Y49.724
N6370 X488.477 Y49.347
N6375 X488.806 Y48.974
N6380 X489.151 Y48.617
N6385 X489.491 Y48.299
N6390 X489.831 Y48.021
N6395 X490.194 Y47.764
N6400 X490.582 Y47.523
N6405 X490.977 Y47.31
N6410 X491.366 Y47.134
N6415 X491.777 Y46.982
N6420 X492.232 Y46.846
N6425 X492.707 Y46.729
N6430 X493.159 Y46.643
N6435 X493.605 Y46.589
N6440 X494.107 Y46.558
N6445 X494.611 Y46.543
N6450 X494.992 Y46.555
N6455 X495.391 Y46.578
N6460 X495.759 Y46.617
N6465 X496.13 Y46.674
N6470 X496.503 Y46.749
N6475 X496.866 Y46.839
N6480 X497.199 Y46.939
N6485 X497.508 Y47.052
N6490 X497.821 Y47.19
N6495 X498.147 Y47.353
N6500 X498.469 Y47.535
N6505 X498.772 Y47.725
N6510 X499.052 Y47.923
N6515 X499.322 Y48.139
N6520 X499.593 Y48.381
N6525 X499.871 Y48.652
N6530 X500.149 Y48.945
N6535 X500.406 Y49.237
N6540 X500.638 Y49.525
N6545 X500.863 Y49.834
N6550 X501.086 Y50.167
N6555 X501.301 Y50.516
N6560 X501.504 Y50.871
N6565 X501.7 Y51.242
N6570 X501.891 Y51.629
N6575 X502.07 Y52.02
N6580 X502.24 Y52.418
N6585 X502.4 Y52.822
N6590 X502.551 Y53.237
N6595 X502.695 Y53.658
N6600 X502.83 Y54.086
N6605 X502.959 Y54.522
N6610 X503.079 Y54.961
N6615 X503.191 Y55.406
N6620 X503.297 Y55.856
N6625 X503.396 Y56.314
N6630 X503.489 Y56.773
N6635 X503.575 Y57.233
N6640 X503.655 Y57.698
N6645 X503.729 Y58.167
N6650 X503.798 Y58.639
N6655 X503.861 Y59.113
N6660 X503.919 Y59.587
N6665 X503.971 Y60.062
N6670 X504.018 Y60.538
N6675 X504.058 Y61.011
N6680 X504.093 Y61.484
N6685 X504.121 Y61.958
N6690 X504.143 Y62.433
N6695 X504.16 Y62.916
N6700 X504.174 Y63.408
N6705 X504.185 Y63.904
N6710 X504.192 Y64.405
N6715 X504.199 Y64.892
N6720 X504.198 Y65.334
N6725 X504.194 Y65.798
N6730 X504.19 Y66.203
N6735 G3 X503.584 Y66.797 I-0.6 J-0.006 F500.
N6740 G1 X502.984 Y66.79
N6745 X502.89 Y66.789 Z-4.993
N6750 X502.798 Y66.788 Z-4.971
N6755 X502.711 Z-4.935
N6760 X502.631 Y66.787 Z-4.885
N6765 X502.559 Y66.786 Z-4.824
N6770 X502.498 Y66.785 Z-4.753
N6775 X502.449 Z-4.672
N6780 X502.413 Y66.784 Z-4.585
N6785 X502.391 Z-4.494
N6790 X502.384 Z-4.4
N6795 G0 Z5.
N6800 X521.134 Y84.235
N6805 G1 Z1. F333.33
N6810 Z-4.4
N6815 X521.136 Y84.242 Z-4.494
N6820 X521.142 Y84.263 Z-4.585
N6825 X521.152 Y84.298 Z-4.672
N6830 X521.165 Y84.345 Z-4.753
N6835 X521.182 Y84.404 Z-4.824
N6840 X521.201 Y84.473 Z-4.885
N6845 X521.223 Y84.55 Z-4.935
N6850 X521.247 Y84.634 Z-4.971
N6855 X521.272 Y84.722 Z-4.993
N6860 X521.297 Y84.812 Z-5.
N6865 X521.461 Y85.39 F500.
N6870 G3 X521.047 Y86.13 I-0.577 J0.163
N6875 G1 X520.052 Y86.412 F1500.
N6880 Y88.681
N6885 Y93.764
N6890 X534.576
N6895 X536.253
N6900 X554.288 Y64.453
N6905 X554.286 Y64.57
N6910 X554.276 Y65.117
N6915 X554.267 Y65.659
N6920 X554.259 Y66.206
N6925 X554.251 Y66.748
N6930 X554.243 Y67.29
N6935 X554.236 Y67.837
N6940 X554.23 Y68.385
N6945 X554.225 Y68.932
N6950 X554.22 Y69.474
N6955 X554.216 Y70.021
N6960 X554.213 Y70.569
N6965 X554.21 Y71.111
N6970 X554.208 Y71.655
N6975 X554.205 Y72.195
N6980 X554.203 Y72.742
N6985 X554.201 Y73.284
N6990 X554.199 Y73.826
N6995 Y73.837
N7000 Y81.409
N7005 X554.195 Y81.891
N7010 X554.192 Y82.134
N7015 Y82.146
N7020 X554.19 Y82.396
N7025 X554.188 Y82.64
N7030 X554.185 Y82.871
N7035 X554.181 Y83.097
N7040 X554.175 Y83.316
N7045 X554.167 Y83.518
N7050 X554.154 Y83.725
N7055 X554.139 Y83.95
N7060 X554.122 Y84.169
N7065 X554.103 Y84.382
N7070 X554.083 Y84.582
N7075 X554.062 Y84.758
N7080 X554.039 Y84.909
N7085 X554.016 Y85.035
N7090 X553.991 Y85.14
N7095 X553.968 Y85.219
N7100 X553.925 Y85.246
N7105 X553.813 Y85.296
N7110 X553.669 Y85.355
N7115 X553.505 Y85.416
N7120 X553.326 Y85.479
N7125 X553.137 Y85.541
N7130 X552.94 Y85.603
N7135 X552.733 Y85.665
N7140 X552.512 Y85.728
N7145 X550.098 Y86.415
N7150 Y88.681
N7155 Y93.764
N7160 X569.346
N7165 Y90.764
N7170 Y86.425
N7175 X567.18 Y85.799
N7180 X566.938 Y85.729
N7185 X566.686 Y85.657
N7190 X566.435 Y85.586
N7195 X566.203 Y85.521
N7200 X566.03 Y85.47
N7205 X565.904 Y85.428
N7210 X565.769 Y85.376
N7215 X565.601 Y85.306
N7220 X565.46 Y85.245
N7225 X565.404 Y85.217
N7230 X565.387 Y85.206
N7235 X565.373 Y85.197
N7240 X565.349 Y85.136
N7245 X565.318 Y85.044
N7250 X565.287 Y84.931
N7255 X565.257 Y84.803
N7260 X565.226 Y84.644
N7265 X565.198 Y84.477
N7270 X565.176 Y84.31
N7275 X565.155 Y84.125
N7280 X565.138 Y83.938
N7285 X565.124 Y83.734
N7290 X565.11 Y83.506
N7295 X565.098 Y83.271
N7300 X565.087 Y83.037
N7305 X565.078 Y82.808
N7310 X565.071 Y82.585
N7315 X565.067 Y82.357
N7320 X565.063 Y82.128
N7325 X565.062 Y81.893
N7330 X565.061 Y81.641
N7335 X565.06 Y81.394
N7340 Y40.764
N7345 Y37.764
N7350 X557.416
N7355 X555.733
N7360 X554.856 Y39.2
N7365 X535.102 Y71.532
N7370 X535.104 Y71.445
N7375 X535.115 Y70.713
N7380 X535.126 Y69.986
N7385 X535.135 Y69.25
N7390 X535.144 Y68.522
N7395 X535.153 Y67.795
N7400 X535.16 Y67.059
N7405 X535.167 Y66.331
N7410 X535.173 Y65.6
N7415 X535.178 Y64.868
N7420 X535.182 Y64.136
N7425 X535.186 Y63.409
N7430 X535.189 Y62.677
N7435 X535.191 Y61.945
N7440 X535.193 Y61.218
N7445 X535.195 Y60.49
N7450 X535.196 Y59.759
N7455 X535.197 Y59.031
N7460 X535.198 Y58.303
N7465 X535.199 Y57.576
N7470 Y50.167
N7475 X535.2 Y49.925
N7480 X535.202 Y49.677
N7485 X535.204 Y49.435
N7490 X535.208 Y49.2
N7495 X535.212 Y48.97
N7500 X535.219 Y48.74
N7505 X535.237 Y48.245
N7510 X535.246 Y48.009
N7515 X535.257 Y47.786
N7520 X535.269 Y47.586
N7525 X535.284 Y47.404
N7530 X535.302 Y47.229
N7535 X535.326 Y47.054
N7540 X535.354 Y46.881
N7545 X535.383 Y46.726
N7550 X535.415 Y46.585
N7555 X535.446 Y46.468
N7560 X535.473 Y46.384
N7565 X535.482 Y46.361
N7570 X535.504 Y46.342
N7575 X535.524 Y46.328
N7580 X535.56 Y46.307
N7585 X535.624 Y46.273
N7590 X535.73 Y46.226
N7595 X535.871 Y46.169
N7600 X536.032 Y46.11
N7605 X536.211 Y46.048
N7610 X536.399 Y45.988
N7615 X536.595 Y45.929
N7620 X536.806 Y45.869
N7625 X537.029 Y45.808
N7630 X539.485 Y45.146
N7635 Y42.847
N7640 Y37.764
N7645 X520.052
N7650 Y40.764
N7655 Y45.159
N7660 X522.287 Y45.748
N7665 X522.523 Y45.81
N7670 X522.742 Y45.87
N7675 X522.946 Y45.927
N7680 X523.133 Y45.983
N7685 X523.31 Y46.04
N7690 X523.479 Y46.099
N7695 X523.642 Y46.161
N7700 X523.798 Y46.225
N7705 X523.931 Y46.284
N7710 X524.029 Y46.332
N7715 X524.054 Y46.347
N7720 X524.06 Y46.357
N7725 X524.076 Y46.395
N7730 X524.097 Y46.456
N7735 X524.119 Y46.541
N7740 X524.147 Y46.669
N7745 X524.174 Y46.823
N7750 X524.2 Y46.995
N7755 X524.224 Y47.181
N7760 X524.244 Y47.379
N7765 X524.263 Y47.589
N7770 X524.279 Y47.793
N7775 X524.292 Y48.016
N7780 X524.305 Y48.245
N7785 X524.314 Y48.467
N7790 X524.322 Y48.69
N7795 X524.328 Y48.919
N7800 X524.332 Y49.154
N7805 X524.335 Y49.389
N7810 X524.337 Y49.63
N7815 X524.338 Y49.87
N7820 Y81.405
N7825 X524.337 Y81.645
N7830 X524.335 Y81.891
N7835 X524.333 Y82.137
N7840 X524.33 Y82.377
N7845 X524.327 Y82.611
N7850 X524.321 Y82.845
N7855 X524.315 Y83.067
N7860 X524.306 Y83.277
N7865 X524.294 Y83.487
N7870 X524.279 Y83.697
N7875 X524.26 Y83.918
N7880 X524.24 Y84.139
N7885 X524.219 Y84.348
N7890 X524.197 Y84.527
N7895 X524.173 Y84.682
N7900 X524.148 Y84.817
N7905 X524.123 Y84.926
N7910 X524.097 Y85.019
N7915 X524.074 Y85.086
N7920 X524.055 Y85.13
N7925 X524.041 Y85.158
N7930 X524.033 Y85.171
N7935 X524.016 Y85.184
N7940 X523.991 Y85.199
N7945 X523.928 Y85.23
N7950 X523.81 Y85.282
N7955 X523.653 Y85.344
N7960 X523.478 Y85.41
N7965 X523.291 Y85.475
N7970 X523.099 Y85.539
N7975 X522.899 Y85.601
N7980 X522.69 Y85.664
N7985 X522.47 Y85.727
N7990 X521.047 Y86.13
N7995 G3 X520.306 Y85.717 I-0.163 J-0.577 F500.
N8000 G1 X520.143 Y85.139
N8005 X520.117 Y85.049 Z-4.993
N8010 X520.092 Y84.961 Z-4.971
N8015 X520.068 Y84.877 Z-4.935
N8020 X520.047 Y84.8 Z-4.885
N8025 X520.027 Y84.731 Z-4.824
N8030 X520.01 Y84.672 Z-4.753
N8035 X519.997 Y84.625 Z-4.672
N8040 X519.987 Y84.59 Z-4.585
N8045 X519.981 Y84.569 Z-4.494
N8050 X519.979 Y84.562 Z-4.4
N8055 G0 Z5.
N8060 X587.112 Y77.441
N8065 G1 Z1. F333.33
N8070 Z-4.4
N8075 X587.119 Z-4.494
N8080 X587.141 Y77.44 Z-4.585
N8085 X587.177 Z-4.672
N8090 X587.226 Y77.439 Z-4.753
N8095 X587.287 Y77.438 Z-4.824
N8100 X587.359 Y77.437 Z-4.885
N8105 X587.439 Y77.435 Z-4.935
N8110 X587.526 Y77.434 Z-4.971
N8115 X587.618 Y77.432 Z-4.993
N8120 X587.712 Y77.431 Z-5.
N8125 X588.311 Y77.421 F500.
N8130 G3 X588.921 Y78.01 I0.01 J0.6
N8135 G1 X588.923 Y78.065 F1500.
N8140 X588.945 Y78.693
N8145 X588.947 Y78.741
N8150 X588.979 Y79.367
N8155 X588.986 Y79.472
N8160 X589.04 Y80.096
N8165 X589.057 Y80.245
N8170 X589.142 Y80.866
N8175 X589.167 Y81.018
N8180 X589.284 Y81.635
N8185 X589.314 Y81.778
N8190 X589.461 Y82.388
N8195 X589.498 Y82.526
N8200 X589.674 Y83.129
N8205 X589.715 Y83.259
N8210 X589.918 Y83.852
N8215 X589.972 Y83.996
N8220 X590.205 Y84.578
N8225 X590.269 Y84.726
N8230 X590.533 Y85.295
N8235 X590.604 Y85.439
N8240 X590.898 Y85.993
N8245 X590.979 Y86.136
N8250 X591.303 Y86.673
N8255 X591.394 Y86.815
N8260 X591.748 Y87.334
N8265 X591.843 Y87.465
N8270 X592.224 Y87.964
N8275 X592.331 Y88.096
N8280 X592.74 Y88.572
N8285 X592.851 Y88.694
N8290 X593.285 Y89.146
N8295 X593.399 Y89.26
N8300 X593.857 Y89.689
N8305 X593.971 Y89.79
N8310 X594.45 Y90.195
N8315 X594.566 Y90.288
N8320 X595.065 Y90.669
N8325 X595.181 Y90.753
N8330 X595.697 Y91.11
N8335 X595.819 Y91.19
N8340 X596.352 Y91.521
N8345 X596.47 Y91.59
N8350 X597.017 Y91.896
N8355 X597.131 Y91.957
N8360 X597.691 Y92.239
N8365 X597.797 Y92.29
N8370 X598.368 Y92.551
N8375 X598.465 Y92.593
N8380 X599.045 Y92.833
N8385 X599.14 Y92.871
N8390 X599.727 Y93.091
N8395 X599.822 Y93.124
N8400 X600.416 Y93.325
N8405 X600.512 Y93.355
N8410 X601.113 Y93.535
N8415 X601.206 Y93.562
N8420 X601.812 Y93.722
N8425 X601.906 Y93.745
N8430 X602.517 Y93.887
N8435 X602.609 Y93.907
N8440 X603.224 Y94.028
N8445 X603.316 Y94.045
N8450 X603.935 Y94.148
N8455 X604.026 Y94.161
N8460 X604.648 Y94.245
N8465 X604.736 Y94.256
N8470 X605.359 Y94.321
N8475 X605.445 Y94.328
N8480 X606.07 Y94.376
N8485 X606.139 Y94.38
N8490 X606.765 Y94.413
N8495 X606.812 Y94.415
N8500 X607.439 Y94.438
N8505 X607.461 Y94.439
N8510 X608.089 Y94.457
N8515 X608.225 Y94.458
N8520 X608.701 Y94.45
N8525 X609.181 Y94.442
N8530 X609.194 Y94.441
N8535 X609.67 Y94.431
N8540 X609.688 Y94.43
N8545 X610.163 Y94.417
N8550 X610.187 Y94.416
N8555 X610.663 Y94.399
N8560 X610.693 Y94.397
N8565 X611.168 Y94.375
N8570 X611.203 Y94.374
N8575 X611.678 Y94.346
N8580 X611.713 Y94.344
N8585 X612.187 Y94.311
N8590 X612.222 Y94.308
N8595 X612.696 Y94.269
N8600 X612.731 Y94.266
N8605 X613.205 Y94.222
N8610 X613.24 Y94.219
N8615 X613.713 Y94.169
N8620 X613.748 Y94.165
N8625 X614.221 Y94.109
N8630 X614.257 Y94.105
N8635 X614.729 Y94.044
N8640 X614.765 Y94.039
N8645 X615.235 Y93.973
N8650 X615.269 Y93.967
N8655 X615.74 Y93.895
N8660 X615.777 Y93.889
N8665 X616.246 Y93.811
N8670 X616.284 Y93.805
N8675 X616.752 Y93.721
N8680 X616.789 Y93.714
N8685 X617.256 Y93.624
N8690 X617.294 Y93.616
N8695 X617.76 Y93.521
N8700 X617.792 Y93.514
N8705 X618.257 Y93.413
N8710 X618.285 Y93.406
N8715 X618.749 Y93.301
N8720 X618.773 Y93.295
N8725 X619.236 Y93.186
N8730 X619.253 Y93.182
N8735 X619.715 Y93.07
N8740 X619.727 Y93.067
N8745 X620.189 Y92.953
N8750 X620.2 Y92.951
N8755 X620.661 Y92.835
N8760 X621.125 Y92.719
N8765 X623.394 Y92.149
N8770 Y76.653
N8775 X616.921
N8780 X614.651
N8785 X614.034 Y78.837
N8790 X613.934 Y79.19
N8795 X613.837 Y79.53
N8800 X613.741 Y79.854
N8805 X613.644 Y80.169
N8810 X613.545 Y80.473
N8815 X613.444 Y80.764
N8820 X613.338 Y81.047
N8825 X613.227 Y81.323
N8830 X613.112 Y81.591
N8835 X612.991 Y81.851
N8840 X612.866 Y82.103
N8845 X612.735 Y82.345
N8850 X612.598 Y82.581
N8855 X612.457 Y82.806
N8860 X612.313 Y83.018
N8865 X612.164 Y83.219
N8870 X612.009 Y83.411
N8875 X611.852 Y83.59
N8880 X611.693 Y83.756
N8885 X611.54 Y83.9
N8890 X611.388 Y84.027
N8895 X611.232 Y84.143
N8900 X611.069 Y84.25
N8905 X610.899 Y84.347
N8910 X610.72 Y84.436
N8915 X610.532 Y84.518
N8920 X610.329 Y84.592
N8925 X610.109 Y84.661
N8930 X609.873 Y84.723
N8935 X609.617 Y84.78
N8940 X609.343 Y84.831
N8945 X609.059 Y84.876
N8950 X608.777 Y84.913
N8955 X608.496 Y84.941
N8960 X608.212 Y84.96
N8965 X607.908 Y84.973
N8970 X607.576 Y84.981
N8975 X607.284 Y84.986
N8980 X607.027 Y84.978
N8985 X606.733 Y84.967
N8990 X606.471 Y84.951
N8995 X606.232 Y84.93
N9000 X606.001 Y84.901
N9005 X605.778 Y84.865
N9010 X605.555 Y84.82
N9015 X605.332 Y84.766
N9020 X605.104 Y84.703
N9025 X604.874 Y84.631
N9030 X604.65 Y84.552
N9035 X604.434 Y84.468
N9040 X604.232 Y84.381
N9045 X604.042 Y84.289
N9050 X603.865 Y84.194
N9055 X603.704 Y84.097
N9060 X603.551 Y83.994
N9065 X603.408 Y83.885
N9070 X603.272 Y83.771
N9075 X603.136 Y83.644
N9080 X603. Y83.503
N9085 X602.865 Y83.35
N9090 X602.737 Y83.191
N9095 X602.615 Y83.025
N9100 X602.504 Y82.859
N9105 X602.406 Y82.696
N9110 X602.322 Y82.538
N9115 X602.253 Y82.389
N9120 X602.188 Y82.225
N9125 X602.124 Y82.033
N9130 X602.06 Y81.815
N9135 X602.003 Y81.592
N9140 X601.957 Y81.374
N9145 X601.922 Y81.177
N9150 X601.9 Y80.992
N9155 X601.885 Y80.77
N9160 X601.873 Y80.498
N9165 X601.867 Y80.257
N9170 X601.875 Y79.942
N9175 X601.888 Y79.595
N9180 X601.909 Y79.289
N9185 X601.94 Y79.007
N9190 X601.982 Y78.733
N9195 X602.038 Y78.459
N9200 X602.103 Y78.193
N9205 X602.18 Y77.939
N9210 X602.267 Y77.692
N9215 X602.367 Y77.453
N9220 X602.476 Y77.222
N9225 X602.594 Y77.004
N9230 X602.721 Y76.799
N9235 X602.864 Y76.596
N9240 X603.031 Y76.382
N9245 X603.228 Y76.15
N9250 X603.441 Y75.915
N9255 X603.657 Y75.692
N9260 X603.875 Y75.482
N9265 X604.107 Y75.275
N9270 X604.354 Y75.068
N9275 X604.615 Y74.862
N9280 X604.886 Y74.658
N9285 X605.164 Y74.459
N9290 X605.447 Y74.267
N9295 X605.742 Y74.076
N9300 X606.052 Y73.884
N9305 X606.377 Y73.688
N9310 X606.713 Y73.49
N9315 X607.051 Y73.293
N9320 X607.388 Y73.1
N9325 X607.723 Y72.913
N9330 X608.056 Y72.731
N9335 X608.391 Y72.553
N9340 X608.736 Y72.375
N9345 X609.087 Y72.196
N9350 X609.445 Y72.016
N9355 X609.811 Y71.832
N9360 X609.859 Y71.808
N9365 X610.345 Y71.553
N9370 X610.835 Y71.296
N9375 X610.844 Y71.292
N9380 X611.329 Y71.035
N9385 X611.342 Y71.028
N9390 X611.826 Y70.769
N9395 X611.844 Y70.76
N9400 X612.326 Y70.497
N9405 X612.348 Y70.485
N9410 X612.828 Y70.219
N9415 X612.86 Y70.201
N9420 X613.336 Y69.929
N9425 X613.369 Y69.909
N9430 X613.842 Y69.631
N9435 X613.883 Y69.607
N9440 X614.352 Y69.32
N9445 X614.399 Y69.292
N9450 X614.862 Y68.998
N9455 X614.9 Y68.973
N9460 X615.359 Y68.672
N9465 X615.396 Y68.647
N9470 X615.85 Y68.339
N9475 X615.882 Y68.317
N9480 X616.332 Y68.003
N9485 X616.368 Y67.978
N9490 X616.814 Y67.657
N9495 X616.865 Y67.619
N9500 X617.304 Y67.289
N9505 X617.358 Y67.247
N9510 X617.789 Y66.907
N9515 X617.856 Y66.852
N9520 X618.277 Y66.5
N9525 X618.352 Y66.435
N9530 X618.761 Y66.069
N9535 X618.84 Y65.996
N9540 X619.236 Y65.615
N9545 X619.32 Y65.532
N9550 X619.7 Y65.136
N9555 X619.768 Y65.063
N9560 X620.135 Y64.655
N9565 X620.199 Y64.581
N9570 X620.553 Y64.161
N9575 X620.621 Y64.077
N9580 X620.959 Y63.644
N9585 X621.029 Y63.551
N9590 X621.35 Y63.106
N9595 X621.418 Y63.008
N9600 X621.721 Y62.55
N9605 X621.787 Y62.446
N9610 X622.071 Y61.976
N9615 X622.132 Y61.871
N9620 X622.397 Y61.389
N9625 X622.459 Y61.27
N9630 X622.702 Y60.778
N9635 X622.763 Y60.647
N9640 X622.982 Y60.143
N9645 X623.043 Y59.991
N9650 X623.234 Y59.476
N9655 X623.287 Y59.323
N9660 X623.45 Y58.799
N9665 X623.486 Y58.672
N9670 X623.626 Y58.141
N9675 X623.656 Y58.016
N9680 X623.773 Y57.479
N9685 X623.798 Y57.353
N9690 X623.892 Y56.812
N9695 X623.913 Y56.671
N9700 X623.981 Y56.126
N9705 X623.995 Y55.99
N9710 X624.038 Y55.443
N9715 X624.044 Y55.344
N9720 X624.069 Y54.796
N9725 X624.071 Y54.747
N9730 X624.087 Y54.198
N9735 Y54.038
N9740 X624.074 Y53.501
N9745 X624.073 Y53.478
N9750 X624.057 Y52.942
N9755 X624.054 Y52.88
N9760 X624.026 Y52.345
N9765 X624.02 Y52.261
N9770 X623.977 Y51.726
N9775 X623.968 Y51.625
N9780 X623.907 Y51.092
N9785 X623.893 Y50.991
N9790 X623.814 Y50.46
N9795 X623.797 Y50.354
N9800 X623.699 Y49.826
N9805 X623.676 Y49.714
N9810 X623.558 Y49.19
N9815 X623.53 Y49.079
N9820 X623.392 Y48.56
N9825 X623.36 Y48.449
N9830 X623.202 Y47.935
N9835 X623.167 Y47.828
N9840 X622.99 Y47.321
N9845 X622.946 Y47.203
N9850 X622.748 Y46.705
N9855 X622.689 Y46.566
N9860 X622.466 Y46.077
N9865 X622.406 Y45.953
N9870 X622.161 Y45.476
N9875 X622.095 Y45.354
N9880 X621.828 Y44.888
N9885 X621.764 Y44.781
N9890 X621.478 Y44.326
N9895 X621.404 Y44.215
N9900 X621.099 Y43.774
N9905 X621.021 Y43.667
N9910 X620.696 Y43.24
N9915 X620.607 Y43.129
N9920 X620.262 Y42.717
N9925 X620.16 Y42.601
N9930 X619.794 Y42.208
N9935 X619.687 Y42.099
N9940 X619.302 Y41.725
N9945 X619.188 Y41.62
N9950 X618.784 Y41.267
N9955 X618.677 Y41.177
N9960 X618.257 Y40.842
N9965 X618.15 Y40.761
N9970 X617.715 Y40.445
N9975 X617.606 Y40.37
N9980 X617.158 Y40.074
N9985 X617.042 Y40.001
N9990 X616.581 Y39.726
N9995 X616.47 Y39.663
N10000 X615.998 Y39.408
N10005 X615.894 Y39.355
N10010 X615.412 Y39.118
N10015 X615.319 Y39.074
N10020 X614.829 Y38.854
N10025 X614.729 Y38.811
N10030 X614.231 Y38.609
N10035 X614.126 Y38.569
N10040 X613.622 Y38.386
N10045 X613.512 Y38.348
N10050 X613.001 Y38.184
N10055 X612.903 Y38.155
N10060 X612.386 Y38.009
N10065 X612.3 Y37.986
N10070 X611.779 Y37.855
N10075 X611.704 Y37.837
N10080 X611.18 Y37.72
N10085 X611.114 Y37.706
N10090 X610.588 Y37.601
N10095 X610.526 Y37.589
N10100 X609.996 Y37.495
N10105 X609.94 Y37.485
N10110 X609.41 Y37.401
N10115 X609.352 Y37.392
N10120 X608.821 Y37.319
N10125 X608.76 Y37.311
N10130 X608.226 Y37.248
N10135 X608.165 Y37.242
N10140 X607.631 Y37.19
N10145 X607.568 Y37.184
N10150 X607.033 Y37.144
N10155 X606.968 Y37.139
N10160 X606.432 Y37.11
N10165 X606.372 Y37.108
N10170 X605.836 Y37.09
N10175 X605.795 Y37.088
N10180 X605.258 Y37.077
N10185 X605.238
N10190 X604.701 Y37.07
N10195 X604.62
N10200 X604.166 Y37.076
N10205 X604.151
N10210 X603.697 Y37.085
N10215 X603.664
N10220 X603.21 Y37.099
N10225 X603.165 Y37.1
N10230 X602.712 Y37.12
N10235 X602.669 Y37.123
N10240 X602.215 Y37.149
N10245 X602.18 Y37.152
N10250 X601.727 Y37.183
N10255 X601.702 Y37.185
N10260 X601.25 Y37.221
N10265 X601.231 Y37.222
N10270 X600.778 Y37.261
N10275 X600.75 Y37.264
N10280 X600.298 Y37.306
N10285 X600.264 Y37.31
N10290 X599.812 Y37.358
N10295 X599.769 Y37.363
N10300 X599.319 Y37.417
N10305 X599.281 Y37.422
N10310 X598.831 Y37.482
N10315 X598.802 Y37.486
N10320 X598.352 Y37.551
N10325 X598.329 Y37.554
N10330 X597.88 Y37.622
N10335 X597.865 Y37.625
N10340 X597.416 Y37.695
N10345 X597.398 Y37.698
N10350 X596.95 Y37.771
N10355 X596.928 Y37.775
N10360 X596.481 Y37.851
N10365 X596.459 Y37.855
N10370 X596.012 Y37.935
N10375 X595.988 Y37.939
N10380 X595.541 Y38.023
N10385 X595.516 Y38.027
N10390 X595.071 Y38.114
N10395 X595.05 Y38.119
N10400 X594.605 Y38.209
N10405 X594.584 Y38.213
N10410 X594.139 Y38.307
N10415 X594.115 Y38.312
N10420 X593.672 Y38.409
N10425 X593.653 Y38.413
N10430 X593.21 Y38.514
N10435 X593.189 Y38.518
N10440 X592.746 Y38.622
N10445 X592.723 Y38.627
N10450 X592.282 Y38.734
N10455 X592.264 Y38.738
N10460 X591.823 Y38.848
N10465 X591.807 Y38.852
N10470 X591.367 Y38.963
N10475 X591.356 Y38.966
N10480 X590.917 Y39.08
N10485 X590.474 Y39.195
N10490 X588.227 Y39.777
N10495 Y55.569
N10500 X594.699
N10505 X597.066
N10510 X597.617 Y53.268
N10515 X597.709 Y52.883
N10520 X597.799 Y52.514
N10525 X597.887 Y52.172
N10530 X597.977 Y51.85
N10535 X598.075 Y51.531
N10540 X598.178 Y51.218
N10545 X598.293 Y50.901
N10550 X598.415 Y50.58
N10555 X598.541 Y50.27
N10560 X598.67 Y49.975
N10565 X598.8 Y49.698
N10570 X598.934 Y49.439
N10575 X599.073 Y49.193
N10580 X599.214 Y48.966
N10585 X599.36 Y48.755
N10590 X599.52 Y48.548
N10595 X599.685 Y48.351
N10600 X599.856 Y48.169
N10605 X600.034 Y47.997
N10610 X600.219 Y47.836
N10615 X600.414 Y47.685
N10620 X600.623 Y47.539
N10625 X600.84 Y47.402
N10630 X601.054 Y47.282
N10635 X601.264 Y47.179
N10640 X601.484 Y47.086
N10645 X601.729 Y46.998
N10650 X601.994 Y46.915
N10655 X602.274 Y46.839
N10660 X602.564 Y46.772
N10665 X602.863 Y46.714
N10670 X603.168 Y46.664
N10675 X603.474 Y46.625
N10680 X603.784 Y46.594
N10685 X604.104 Y46.573
N10690 X604.445 Y46.558
N10695 X604.812 Y46.548
N10700 X605.152 Y46.542
N10705 X605.399 Y46.546
N10710 X605.67 Y46.553
N10715 X605.917 Y46.563
N10720 X606.145 Y46.578
N10725 X606.373 Y46.6
N10730 X606.607 Y46.629
N10735 X606.841 Y46.663
N10740 X607.076 Y46.704
N10745 X607.307 Y46.749
N10750 X607.531 Y46.799
N10755 X607.745 Y46.853
N10760 X607.943 Y46.911
N10765 X608.129 Y46.972
N10770 X608.312 Y47.04
N10775 X608.493 Y47.115
N10780 X608.673 Y47.199
N10785 X608.854 Y47.291
N10790 X609.032 Y47.389
N10795 X609.196 Y47.488
N10800 X609.339 Y47.582
N10805 X609.462 Y47.673
N10810 X609.583 Y47.772
N10815 X609.708 Y47.886
N10820 X609.836 Y48.013
N10825 X609.962 Y48.149
N10830 X610.083 Y48.292
N10835 X610.189 Y48.427
N10840 X610.274 Y48.548
N10845 X610.353 Y48.676
N10850 X610.438 Y48.83
N10855 X610.532 Y49.016
N10860 X610.625 Y49.215
N10865 X610.703 Y49.396
N10870 X610.763 Y49.556
N10875 X610.821 Y49.734
N10880 X610.877 Y49.931
N10885 X610.929 Y50.141
N10890 X610.977 Y50.363
N10895 X611.02 Y50.586
N10900 X611.055 Y50.805
N10905 X611.083 Y51.026
N10910 X611.106 Y51.248
N10915 X611.122 Y51.476
N10920 X611.133 Y51.718
N10925 X611.14 Y51.985
N10930 X611.143 Y52.227
N10935 X611.136 Y52.597
N10940 X611.123 Y52.967
N10945 X611.1 Y53.286
N10950 X611.063 Y53.593
N10955 X611.01 Y53.914
N10960 X610.942 Y54.243
N10965 X610.867 Y54.55
N10970 X610.786 Y54.821
N10975 X610.693 Y55.077
N10980 X610.587 Y55.324
N10985 X610.464 Y55.567
N10990 X610.326 Y55.807
N10995 X610.173 Y56.04
N11000 X610.001 Y56.272
N11005 X609.806 Y56.51
N11010 X609.588 Y56.752
N11015 X609.356 Y56.993
N11020 X609.11 Y57.23
N11025 X608.851 Y57.462
N11030 X608.579 Y57.69
N11035 X608.294 Y57.916
N11040 X607.998 Y58.137
N11045 X607.691 Y58.356
N11050 X607.367 Y58.575
N11055 X607.036 Y58.791
N11060 X606.696 Y59.006
N11065 X606.345 Y59.22
N11070 X605.988 Y59.433
N11075 X605.626 Y59.644
N11080 X605.259 Y59.853
N11085 X604.892 Y60.058
N11090 X604.524 Y60.26
N11095 X604.154 Y60.458
N11100 X603.78 Y60.654
N11105 X603.398 Y60.85
N11110 X603.011 Y61.046
N11115 X602.618 Y61.244
N11120 X602.22 Y61.443
N11125 X602.189 Y61.459
N11130 X601.741 Y61.69
N11135 X601.287 Y61.925
N11140 X601.27 Y61.934
N11145 X600.824 Y62.169
N11150 X600.803 Y62.18
N11155 X600.359 Y62.419
N11160 X600.331 Y62.434
N11165 X599.889 Y62.677
N11170 X599.854 Y62.697
N11175 X599.416 Y62.945
N11180 X599.388 Y62.962
N11185 X598.952 Y63.216
N11190 X598.919 Y63.235
N11195 X598.487 Y63.494
N11200 X598.461 Y63.51
N11205 X598.031 Y63.774
N11210 X597.997 Y63.795
N11215 X597.571 Y64.064
N11220 X597.537 Y64.086
N11225 X597.114 Y64.361
N11230 X597.066 Y64.393
N11235 X596.649 Y64.676
N11240 X596.597 Y64.712
N11245 X596.186 Y65.004
N11250 X596.133 Y65.043
N11255 X595.728 Y65.344
N11260 X595.669 Y65.389
N11265 X595.272 Y65.7
N11270 X595.217 Y65.744
N11275 X594.827 Y66.064
N11280 X594.766 Y66.115
N11285 X594.385 Y66.446
N11290 X594.325 Y66.499
N11295 X593.953 Y66.84
N11300 X593.889 Y66.9
N11305 X593.527 Y67.251
N11310 X593.462 Y67.316
N11315 X593.111 Y67.678
N11320 X593.044 Y67.75
N11325 X592.705 Y68.123
N11330 X592.64 Y68.196
N11335 X592.313 Y68.581
N11340 X592.242 Y68.668
N11345 X591.93 Y69.064
N11350 X591.863 Y69.153
N11355 X591.566 Y69.56
N11360 X591.505 Y69.646
N11365 X591.222 Y70.064
N11370 X591.154 Y70.17
N11375 X590.889 Y70.599
N11380 X590.823 Y70.712
N11385 X590.577 Y71.152
N11390 X590.508 Y71.283
N11395 X590.284 Y71.734
N11400 X590.223 Y71.866
N11405 X590.021 Y72.328
N11410 X589.97 Y72.453
N11415 X589.789 Y72.924
N11420 X589.742 Y73.055
N11425 X589.583 Y73.533
N11430 X589.543 Y73.664
N11435 X589.406 Y74.149
N11440 X589.375 Y74.269
N11445 X589.258 Y74.76
N11450 X589.23 Y74.891
N11455 X589.135 Y75.386
N11460 X589.11 Y75.535
N11465 X589.04 Y76.034
N11470 X589.023 Y76.177
N11475 X588.978 Y76.678
N11480 X588.969 Y76.792
N11485 X588.942 Y77.295
N11490 X588.94 Y77.355
N11495 X588.923 Y77.859
N11500 X588.921 Y78.01
N11505 G3 X588.332 Y78.62 I-0.6 J0.01 F500.
N11510 G1 X587.732 Y78.63
N11515 X587.638 Y78.632 Z-4.993
N11520 X587.546 Y78.634 Z-4.971
N11525 X587.459 Y78.635 Z-4.935
N11530 X587.379 Y78.636 Z-4.885
N11535 X587.307 Y78.638 Z-4.824
N11540 X587.246 Y78.639 Z-4.753
N11545 X587.197 Z-4.672
N11550 X587.161 Y78.64 Z-4.585
N11555 X587.139 Z-4.494
N11560 X587.132 Y78.641 Z-4.4
N11565 G0 Z5.
N11570 X621.844 Y73.969
N11575 G1 Z1. F333.33
N11580 Z-4.4
N11585 G18 G2 X622.444 Z-5. I0.6 K0.
N11590 G1 X623.044 F500.
N11595 G17 G3 X623.644 Y74.57 I0. J0.6
N11600 G1 Y93.764 F1500.
N11605 X669.921
N11610 Y74.57
N11615 X663.449
N11620 X661.135
N11625 X660.547 Y76.808
N11630 X660.464 Y77.127
N11635 X660.378 Y77.446
N11640 X660.292 Y77.763
N11645 X660.208 Y78.068
N11650 X660.123 Y78.368
N11655 X660.034 Y78.67
N11660 X659.942 Y78.973
N11665 X659.847 Y79.279
N11670 X659.75 Y79.584
N11675 X659.653 Y79.884
N11680 X659.556 Y80.174
N11685 X659.461 Y80.446
N11690 X659.361 Y80.715
N11695 X659.257 Y80.981
N11700 X659.15 Y81.242
N11705 X659.036 Y81.504
N11710 X658.916 Y81.768
N11715 X658.796 Y82.022
N11720 X658.673 Y82.267
N11725 X658.555 Y82.491
N11730 X658.444 Y82.684
N11735 X658.33 Y82.864
N11740 X658.205 Y83.046
N11745 X658.069 Y83.227
N11750 X657.939 Y83.388
N11755 X657.817 Y83.524
N11760 X657.695 Y83.647
N11765 X657.571 Y83.757
N11770 X657.451 Y83.853
N11775 X657.334 Y83.933
N11780 X657.22 Y84.001
N11785 X657.11 Y84.057
N11790 X657.005 Y84.101
N11795 X656.897 Y84.136
N11800 X656.769 Y84.168
N11805 X656.595 Y84.2
N11810 X656.374 Y84.23
N11815 X656.134 Y84.255
N11820 X655.888 Y84.272
N11825 X655.626 Y84.283
N11830 X655.335 Y84.289
N11835 X655.026 Y84.292
N11840 X653.255
N11845 Y50.231
N11850 X653.256 Y49.977
N11855 X653.258 Y49.722
N11860 X653.261 Y49.479
N11865 X653.266 Y49.246
N11870 X653.273 Y49.02
N11875 X653.284 Y48.799
N11880 X653.299 Y48.573
N11885 X653.316 Y48.348
N11890 X653.336 Y48.128
N11895 X653.359 Y47.908
N11900 X653.385 Y47.695
N11905 X653.411 Y47.505
N11910 X653.441 Y47.333
N11915 X653.473 Y47.174
N11920 X653.509 Y47.028
N11925 X653.55 Y46.884
N11930 X653.593 Y46.753
N11935 X653.635 Y46.643
N11940 X653.672 Y46.558
N11945 X653.696 Y46.512
N11950 X653.706 Y46.496
N11955 X653.728 Y46.471
N11960 X653.759 Y46.44
N11965 X653.794 Y46.411
N11970 X653.832 Y46.385
N11975 X653.878 Y46.357
N11980 X653.934 Y46.328
N11985 X654.027 Y46.288
N11990 X654.171 Y46.233
N11995 X654.338 Y46.175
N12000 X654.515 Y46.119
N12005 X654.708 Y46.063
N12010 X654.919 Y46.006
N12015 X655.151 Y45.947
N12020 X655.397 Y45.886
N12025 X655.646 Y45.824
N12030 X658.192 Y45.206
N12035 Y42.847
N12040 Y37.764
N12045 X635.373
N12050 Y40.764
N12055 Y45.209
N12060 X637.669 Y45.764
N12065 X637.921 Y45.824
N12070 X638.161 Y45.883
N12075 X638.389 Y45.942
N12080 X638.606 Y46.
N12085 X638.812 Y46.059
N12090 X639.007 Y46.118
N12095 X639.193 Y46.179
N12100 X639.368 Y46.242
N12105 X639.518 Y46.301
N12110 X639.641 Y46.354
N12115 X639.737 Y46.402
N12120 X639.801 Y46.439
N12125 X639.827 Y46.456
N12130 X639.843 Y46.47
N12135 X639.859 Y46.488
N12140 X639.879 Y46.515
N12145 X639.898 Y46.543
N12150 X639.918 Y46.581
N12155 X639.945 Y46.642
N12160 X639.979 Y46.733
N12165 X640.017 Y46.852
N12170 X640.055 Y46.991
N12175 X640.092 Y47.149
N12180 X640.126 Y47.32
N12185 X640.157 Y47.504
N12190 X640.185 Y47.699
N12195 X640.209 Y47.902
N12200 X640.231 Y48.11
N12205 X640.249 Y48.33
N12210 X640.265 Y48.561
N12215 X640.279 Y48.793
N12220 X640.291 Y49.025
N12225 X640.299 Y49.257
N12230 X640.305 Y49.484
N12235 X640.308 Y49.722
N12240 X640.31 Y49.971
N12245 Y84.292
N12250 X638.555
N12255 X638.281 Y84.288
N12260 X638.02 Y84.282
N12265 X637.785 Y84.271
N12270 X637.549 Y84.253
N12275 X637.296 Y84.229
N12280 X637.05 Y84.201
N12285 X636.846 Y84.173
N12290 X636.685 Y84.144
N12295 X636.551 Y84.111
N12300 X636.433 Y84.075
N12305 X636.338 Y84.039
N12310 X636.259 Y84.002
N12315 X636.163 Y83.948
N12320 X636.047 Y83.874
N12325 X635.944 Y83.8
N12330 X635.858 Y83.728
N12335 X635.766 Y83.641
N12340 X635.656 Y83.525
N12345 X635.538 Y83.388
N12350 X635.432 Y83.253
N12355 X635.33 Y83.11
N12360 X635.221 Y82.942
N12365 X635.101 Y82.745
N12370 X634.979 Y82.533
N12375 X634.863 Y82.322
N12380 X634.751 Y82.105
N12385 X634.644 Y81.888
N12390 X634.543 Y81.669
N12395 X634.44 Y81.433
N12400 X634.341 Y81.194
N12405 X634.247 Y80.957
N12410 X634.153 Y80.705
N12415 X634.059 Y80.447
N12420 X633.969 Y80.187
N12425 X633.88 Y79.922
N12430 X633.795 Y79.66
N12435 X633.714 Y79.401
N12440 X633.635 Y79.132
N12445 X633.555 Y78.853
N12450 X633.477 Y78.578
N12455 X633.403 Y78.302
N12460 X633.326 Y78.011
N12465 X633.25 Y77.72
N12470 X633.175 Y77.429
N12475 X633.1 Y77.132
N12480 X632.453 Y74.57
N12485 X623.644
N12490 G3 X623.044 Y73.969 I0. J-0.6 F500.
N12495 G1 Y73.369
N12500 G19 G2 Y72.77 Z-4.4 J0. K0.6
N12505 G0 Z5.
N12510 X669.571 Y53.897
N12515 G1 Z1. F333.33
N12520 Z-4.4
N12525 G2 Y53.297 Z-5. J-0.6 K0.
N12530 G1 Y52.697 F500.
N12535 G17 G3 X670.171 Y52.097 I0.6 J0.
N12540 G1 X683.81 F1500.
N12545 Y37.764
N12550 X670.171
N12555 Y52.097
N12560 G3 X669.571 Y52.697 I-0.6 J0. F500.
N12565 G1 X668.971
N12570 G18 G3 X668.371 Z-4.4 I0. K0.6
N12575 G0 Z5.
N12580 X712.666 Y52.131
N12585 G1 Z1. F333.33
N12590 Z-4.4
N12595 X712.669 Y52.137 Z-4.494
N12600 X712.681 Y52.156 Z-4.585
N12605 X712.7 Y52.186 Z-4.672
N12610 X712.726 Y52.228 Z-4.753
N12615 X712.759 Y52.28 Z-4.824
N12620 X712.797 Y52.34 Z-4.885
N12625 X712.839 Y52.409 Z-4.935
N12630 X712.885 Y52.482 Z-4.971
N12635 X712.934 Y52.56 Z-4.993
N12640 X712.983 Y52.64 Z-5.
N12645 X713.301 Y53.148 F500.
N12650 G17 G3 X713.11 Y53.975 I-0.509 J0.318
N12655 G2 X707.953 Y60.111 I6.889 J11.025 F1500.
N12660 X707. Y65. I12.047 J4.887
N12665 X733. I13. J0.
N12670 X720. Y52. I-13. J0.
N12675 X713.11 Y53.975 I-0.001 J13.001
N12680 G3 X712.284 Y53.784 I-0.318 J-0.509 F500.
N12685 G1 X711.966 Y53.275
N12690 X711.916 Y53.196 Z-4.993
N12695 X711.868 Y53.118 Z-4.971
N12700 X711.821 Y53.044 Z-4.935
N12705 X711.779 Y52.976 Z-4.885
N12710 X711.741 Y52.916 Z-4.824
N12715 X711.709 Y52.864 Z-4.753
N12720 X711.682 Y52.822 Z-4.672
N12725 X711.663 Y52.791 Z-4.585
N12730 X711.652 Y52.773 Z-4.494
N12735 X711.648 Y52.767 Z-4.4
N12740 G0 Z5.
N12745 X355.174 Y94.364
N12750 G1 Z1. F333.33
N12755 Z-4.4
N12760 G18 G3 X354.574 Z-5. I-0.6 K0.
N12765 G1 X353.974 F500.
N12770 G17 G3 X353.374 Y93.764 I0. J-0.6
N12775 G1 Y90.764 F1500.
N12780 Y86.425
N12785 X351.208 Y85.799
N12790 X350.966 Y85.729
N12795 X350.714 Y85.657
N12800 X350.463 Y85.586
N12805 X350.454 Y85.583
N12810 X350.23 Y85.521
N12815 X350.059 Y85.47
N12820 X349.932 Y85.428
N12825 X349.795 Y85.375
N12830 X349.628 Y85.306
N12835 X349.49 Y85.246
N12840 X349.432 Y85.217
N12845 X349.415 Y85.206
N12850 X349.401 Y85.196
N12855 X349.374 Y85.131
N12860 X349.345 Y85.044
N12865 X349.316 Y84.936
N12870 X349.285 Y84.803
N12875 X349.254 Y84.644
N12880 X349.225 Y84.472
N12885 X349.202 Y84.304
N12890 X349.182 Y84.13
N12895 X349.166 Y83.944
N12900 X349.152 Y83.734
N12905 X349.138 Y83.5
N12910 X349.125 Y83.271
N12915 X349.115 Y83.042
N12920 X349.106 Y82.808
N12925 X349.099 Y82.585
N12930 X349.095 Y82.357
N12935 X349.091 Y82.122
N12940 X349.089 Y81.887
N12945 X349.088 Y81.646
N12950 Y37.764
N12955 X341.444
N12960 X339.761
N12965 X319.129 Y71.533
N12970 X319.143 Y70.717
N12975 X319.153 Y69.982
N12980 X319.163 Y69.254
N12985 X319.172 Y68.522
N12990 X319.18 Y67.791
N12995 X319.188 Y67.063
N13000 X319.194 Y66.327
N13005 X319.2 Y65.6
N13010 X319.205 Y64.868
N13015 X319.21 Y64.141
N13020 X319.213 Y63.405
N13025 X319.216 Y62.677
N13030 X319.219 Y61.95
N13035 X319.221 Y61.218
N13040 X319.223 Y60.49
N13045 X319.224 Y59.759
N13050 X319.225 Y59.031
N13055 X319.226 Y58.303
N13060 X319.227 Y57.576
N13065 Y50.167
N13070 X319.228 Y49.919
N13075 X319.229 Y49.677
N13080 X319.232 Y49.435
N13085 X319.235 Y49.2
N13090 X319.24 Y48.976
N13095 X319.255 Y48.493
N13100 X319.274 Y48.009
N13105 X319.285 Y47.786
N13110 X319.297 Y47.586
N13115 X319.312 Y47.404
N13120 X319.331 Y47.229
N13125 X319.354 Y47.054
N13130 X319.382 Y46.881
N13135 X319.412 Y46.721
N13140 X319.442 Y46.585
N13145 X319.472 Y46.474
N13150 X319.501 Y46.384
N13155 X319.51 Y46.36
N13160 X319.529 Y46.344
N13165 X319.554 Y46.326
N13170 X319.587 Y46.307
N13175 X319.649 Y46.275
N13180 X319.758 Y46.226
N13185 X319.899 Y46.169
N13190 X320.06 Y46.11
N13195 X320.239 Y46.048
N13200 X320.427 Y45.988
N13205 X320.623 Y45.929
N13210 X320.834 Y45.869
N13215 X321.057 Y45.808
N13220 X323.513 Y45.146
N13225 Y42.847
N13230 Y37.764
N13235 X304.08
N13240 Y40.764
N13245 Y45.156
N13250 X306.312 Y45.747
N13255 X306.549 Y45.81
N13260 X306.771 Y45.87
N13265 X306.975 Y45.928
N13270 X307.161 Y45.983
N13275 X307.338 Y46.04
N13280 X307.507 Y46.099
N13285 X307.67 Y46.161
N13290 X307.826 Y46.225
N13295 X307.959 Y46.284
N13300 X308.056 Y46.332
N13305 X308.082 Y46.347
N13310 X308.091 Y46.364
N13315 X308.106 Y46.4
N13320 X308.125 Y46.456
N13325 X308.147 Y46.541
N13330 X308.175 Y46.669
N13335 X308.202 Y46.823
N13340 X308.228 Y46.995
N13345 X308.252 Y47.181
N13350 X308.272 Y47.379
N13355 X308.291 Y47.583
N13360 X308.306 Y47.793
N13365 X308.32 Y48.022
N13370 X308.333 Y48.245
N13375 X308.342 Y48.461
N13380 X308.349 Y48.69
N13385 X308.356 Y48.925
N13390 X308.36 Y49.154
N13395 X308.363 Y49.383
N13400 X308.366 Y50.123
N13405 Y81.399
N13410 X308.364 Y81.639
N13415 Y81.651
N13420 X308.363 Y81.891
N13425 X308.36 Y82.131
N13430 X308.357 Y82.377
N13435 X308.353 Y82.617
N13440 X308.349 Y82.851
N13445 X308.343 Y83.067
N13450 X308.334 Y83.277
N13455 X308.322 Y83.487
N13460 X308.307 Y83.697
N13465 X308.288 Y83.918
N13470 X308.268 Y84.139
N13475 X308.247 Y84.343
N13480 X308.224 Y84.527
N13485 X308.2 Y84.688
N13490 X308.176 Y84.817
N13495 X308.151 Y84.926
N13500 X308.126 Y85.014
N13505 X308.101 Y85.086
N13510 X308.081 Y85.134
N13515 X308.069 Y85.158
N13520 X308.061 Y85.171
N13525 X308.047 Y85.182
N13530 X308.018 Y85.199
N13535 X307.954 Y85.231
N13540 X307.838 Y85.282
N13545 X307.683 Y85.344
N13550 X307.505 Y85.41
N13555 X307.318 Y85.475
N13560 X307.126 Y85.539
N13565 X306.927 Y85.601
N13570 X306.719 Y85.663
N13575 X306.496 Y85.728
N13580 X304.08 Y86.415
N13585 Y88.681
N13590 Y93.764
N13595 X318.603
N13600 X320.279
N13605 X338.315 Y64.453
N13610 X338.295 Y65.659
N13615 X338.286 Y66.201
N13620 X338.278 Y66.748
N13625 X338.271 Y67.296
N13630 X338.264 Y67.837
N13635 X338.258 Y68.385
N13640 X338.253 Y68.932
N13645 X338.248 Y69.474
N13650 X338.244 Y70.021
N13655 X338.241 Y70.569
N13660 X338.238 Y71.111
N13665 X338.235 Y71.653
N13670 X338.233 Y72.2
N13675 X338.231 Y72.742
N13680 X338.229 Y73.284
N13685 X338.227 Y73.826
N13690 Y73.837
N13695 Y81.409
N13700 X338.223 Y81.891
N13705 X338.22 Y82.134
N13710 Y82.146
N13715 X338.218 Y82.39
N13720 X338.215 Y82.634
N13725 X338.212 Y82.877
N13730 X338.209 Y83.103
N13735 X338.203 Y83.31
N13740 X338.194 Y83.518
N13745 X338.182 Y83.731
N13750 X338.167 Y83.944
N13755 X338.149 Y84.169
N13760 X338.131 Y84.387
N13765 X338.111 Y84.582
N13770 X338.09 Y84.758
N13775 X338.067 Y84.909
N13780 X338.044 Y85.035
N13785 X338.02 Y85.134
N13790 X337.996 Y85.219
N13795 X337.953 Y85.246
N13800 X337.841 Y85.296
N13805 X337.697 Y85.355
N13810 X337.533 Y85.416
N13815 X337.354 Y85.479
N13820 X337.165 Y85.541
N13825 X336.97 Y85.602
N13830 X336.76 Y85.665
N13835 X336.54 Y85.728
N13840 X334.125 Y86.413
N13845 Y88.681
N13850 Y93.764
N13855 X353.374
N13860 G3 X353.974 Y94.364 I0. J0.6 F500.
N13865 G1 Y94.964
N13870 G19 G3 Y95.564 Z-4.4 J0. K0.6
N13875 G0 Z5.
N13880 X301.162 Y81.538
N13885 G1 Z1. F333.33
N13890 Z-4.4
N13895 X301.155 Y81.536 Z-4.494
N13900 X301.134 Y81.528 Z-4.585
N13905 X301.1 Y81.515 Z-4.672
N13910 X301.054 Y81.498 Z-4.753
N13915 X300.997 Y81.477 Z-4.824
N13920 X300.93 Y81.452 Z-4.885
N13925 X300.855 Y81.423 Z-4.935
N13930 X300.773 Y81.393 Z-4.971
N13935 X300.688 Y81.361 Z-4.993
N13940 X300.6 Y81.328 Z-5.
N13945 X300.038 Y81.117 F500.
N13950 G17 G3 X299.687 Y80.344 I0.211 J-0.562
N13955 G1 X299.717 Y80.265 F1500.
N13960 X299.742 Y80.194
N13965 X299.936 Y79.635
N13970 X299.955 Y79.579
N13975 X300.138 Y79.016
N13980 X300.155 Y78.961
N13985 X300.327 Y78.395
N13990 X300.342 Y78.344
N13995 X300.504 Y77.775
N14000 X300.518 Y77.724
N14005 X300.67 Y77.152
N14010 X300.686 Y77.091
N14015 X300.826 Y76.516
N14020 X300.841 Y76.45
N14025 X300.968 Y75.872
N14030 X300.981 Y75.811
N14035 X301.096 Y75.23
N14040 X301.106 Y75.175
N14045 X301.21 Y74.592
N14050 X301.219 Y74.541
N14055 X301.313 Y73.957
N14060 X301.319 Y73.916
N14065 X301.405 Y73.331
N14070 X301.411 Y73.29
N14075 X301.489 Y72.704
N14080 X301.494 Y72.663
N14085 X301.564 Y72.075
N14090 X301.568 Y72.04
N14095 X301.631 Y71.451
N14100 X301.635 Y71.411
N14105 X301.69 Y70.821
N14110 X301.694 Y70.781
N14115 X301.741 Y70.191
N14120 X301.744 Y70.145
N14125 X301.782 Y69.555
N14130 X301.784 Y69.514
N14135 X301.814 Y68.923
N14140 X301.816 Y68.882
N14145 X301.838 Y68.291
N14150 X301.839 Y68.245
N14155 X301.852 Y67.654
N14160 X301.853 Y67.628
N14165 X301.861 Y67.037
N14170 Y67.021
N14175 X301.866 Y66.429
N14180 Y66.365
N14185 X301.858 Y65.75
N14190 Y65.735
N14195 X301.847 Y65.119
N14200 X301.846 Y65.095
N14205 X301.83 Y64.48
N14210 X301.829 Y64.446
N14215 X301.806 Y63.83
N14220 X301.804 Y63.791
N14225 X301.773 Y63.177
N14230 X301.771 Y63.133
N14235 X301.731 Y62.518
N14240 X301.728 Y62.479
N14245 X301.68 Y61.866
N14250 X301.676 Y61.817
N14255 X301.618 Y61.204
N14260 X301.613 Y61.16
N14265 X301.546 Y60.548
N14270 X301.542 Y60.509
N14275 X301.467 Y59.898
N14280 X301.461 Y59.854
N14285 X301.377 Y59.244
N14290 X301.371 Y59.2
N14295 X301.278 Y58.592
N14300 X301.27 Y58.543
N14305 X301.167 Y57.936
N14310 X301.157 Y57.882
N14315 X301.043 Y57.277
N14320 X301.032 Y57.219
N14325 X300.906 Y56.616
N14330 X300.893 Y56.558
N14335 X300.755 Y55.958
N14340 X300.741 Y55.899
N14345 X300.591 Y55.302
N14350 X300.575 Y55.244
N14355 X300.413 Y54.65
N14360 X300.395 Y54.587
N14365 X300.22 Y53.996
N14370 X300.205 Y53.947
N14375 X300.02 Y53.36
N14380 X299.998 Y53.293
N14385 X299.799 Y52.71
N14390 X299.78 Y52.655
N14395 X299.57 Y52.077
N14400 X299.544 Y52.009
N14405 X299.32 Y51.435
N14410 X299.293 Y51.367
N14415 X299.055 Y50.799
N14420 X299.023 Y50.727
N14425 X298.77 Y50.165
N14430 X298.74 Y50.101
N14435 X298.474 Y49.546
N14440 X298.443 Y49.483
N14445 X298.164 Y48.934
N14450 X298.131 Y48.871
N14455 X297.839 Y48.329
N14460 X297.798 Y48.255
N14465 X297.491 Y47.722
N14470 X297.442 Y47.638
N14475 X297.118 Y47.115
N14480 X297.065 Y47.033
N14485 X296.724 Y46.52
N14490 X296.677 Y46.452
N14495 X296.322 Y45.949
N14500 X296.276 Y45.885
N14505 X295.908 Y45.391
N14510 X295.848 Y45.314
N14515 X295.464 Y44.833
N14520 X295.396 Y44.751
N14525 X294.995 Y44.283
N14530 X294.928 Y44.208
N14535 X294.512 Y43.754
N14540 X294.437 Y43.675
N14545 X294.004 Y43.236
N14550 X293.931 Y43.165
N14555 X293.484 Y42.742
N14560 X293.401 Y42.667
N14565 X292.938 Y42.26
N14570 X292.856 Y42.191
N14575 X292.379 Y41.801
N14580 X292.297 Y41.737
N14585 X291.807 Y41.364
N14590 X291.722 Y41.302
N14595 X291.219 Y40.947
N14600 X291.134 Y40.889
N14605 X290.619 Y40.551
N14610 X290.532 Y40.497
N14615 X290.006 Y40.177
N14620 X289.917 Y40.125
N14625 X289.38 Y39.823
N14630 X289.293 Y39.776
N14635 X288.747 Y39.493
N14640 X288.656 Y39.447
N14645 X288.1 Y39.182
N14650 X288.005 Y39.139
N14655 X287.44 Y38.894
N14660 X287.348 Y38.855
N14665 X286.776 Y38.629
N14670 X286.683 Y38.594
N14675 X286.103 Y38.386
N14680 X286.015 Y38.356
N14685 X285.429 Y38.167
N14690 X285.345 Y38.141
N14695 X284.754 Y37.969
N14700 X284.671 Y37.946
N14705 X284.075 Y37.791
N14710 X283.989 Y37.77
N14715 X283.389 Y37.632
N14720 X283.295 Y37.612
N14725 X282.691 Y37.494
N14730 X282.599 Y37.477
N14735 X281.991 Y37.378
N14740 X281.913 Y37.366
N14745 X281.303 Y37.283
N14750 X281.236 Y37.275
N14755 X280.624 Y37.205
N14760 X280.547 Y37.197
N14765 X279.934 Y37.143
N14770 X279.84 Y37.137
N14775 X279.225 Y37.102
N14780 X279.146 Y37.099
N14785 X278.531 Y37.081
N14790 X278.489 Y37.08
N14795 X277.873 Y37.07
N14800 X277.761
N14805 X276.965 Y37.088
N14810 X276.915 Y37.089
N14815 X276.12 Y37.12
N14820 X276.021 Y37.125
N14825 X275.227 Y37.182
N14830 X275.1 Y37.194
N14835 X274.309 Y37.284
N14840 X274.2 Y37.299
N14845 X273.413 Y37.418
N14850 X273.324 Y37.433
N14855 X272.54 Y37.576
N14860 X272.446 Y37.595
N14865 X271.668 Y37.763
N14870 X271.555 Y37.79
N14875 X270.784 Y37.987
N14880 X270.655 Y38.024
N14885 X269.893 Y38.256
N14890 X269.767 Y38.297
N14895 X269.016 Y38.563
N14900 X268.897 Y38.608
N14905 X268.158 Y38.905
N14910 X268.037 Y38.957
N14915 X267.312 Y39.287
N14920 X267.179 Y39.351
N14925 X266.471 Y39.716
N14930 X266.331 Y39.793
N14935 X265.644 Y40.194
N14940 X265.511 Y40.277
N14945 X264.845 Y40.715
N14950 X264.716 Y40.804
N14955 X264.074 Y41.275
N14960 X263.954 Y41.369
N14965 X263.337 Y41.872
N14970 X263.227 Y41.966
N14975 X262.635 Y42.499
N14980 X262.533 Y42.594
N14985 X261.966 Y43.154
N14990 X261.866 Y43.258
N14995 X261.328 Y43.843
N15000 X261.236 Y43.947
N15005 X260.724 Y44.557
N15010 X260.635 Y44.67
N15015 X260.153 Y45.304
N15020 X260.071 Y45.416
N15025 X259.619 Y46.072
N15030 X259.545 Y46.185
N15035 X259.123 Y46.86
N15040 X259.058 Y46.969
N15045 X258.665 Y47.662
N15050 X258.612 Y47.76
N15055 X258.245 Y48.467
N15060 X258.198 Y48.561
N15065 X257.856 Y49.28
N15070 X257.815 Y49.371
N15075 X257.497 Y50.101
N15080 X257.459 Y50.191
N15085 X257.165 Y50.931
N15090 X257.132 Y51.017
N15095 X256.861 Y51.766
N15100 X256.832 Y51.849
N15105 X256.583 Y52.606
N15110 X256.558 Y52.688
N15115 X256.331 Y53.451
N15120 X256.308 Y53.531
N15125 X256.102 Y54.3
N15130 X256.082 Y54.379
N15135 X255.897 Y55.153
N15140 X255.879 Y55.232
N15145 X255.715 Y56.011
N15150 X255.7 Y56.087
N15155 X255.556 Y56.87
N15160 X255.545 Y56.938
N15165 X255.419 Y57.724
N15170 X255.409 Y57.788
N15175 X255.3 Y58.577
N15180 X255.293 Y58.629
N15185 X255.198 Y59.42
N15190 X255.193 Y59.473
N15195 X255.112 Y60.265
N15200 X255.106 Y60.321
N15205 X255.04 Y61.115
N15210 X255.036 Y61.171
N15215 X254.985 Y61.966
N15220 X254.982 Y62.026
N15225 X254.947 Y62.821
N15230 X254.945 Y62.862
N15235 X254.921 Y63.658
N15240 Y63.692
N15245 X254.906 Y64.488
N15250 X254.905 Y64.503
N15255 X254.894 Y65.299
N15260 Y65.38
N15265 X254.902 Y65.987
N15270 Y66.002
N15275 X254.913 Y66.609
N15280 X254.914 Y66.638
N15285 X254.931 Y67.245
N15290 X254.933 Y67.284
N15295 X254.958 Y67.891
N15300 X254.959 Y67.93
N15305 X254.992 Y68.536
N15310 X254.996 Y68.586
N15315 X255.039 Y69.191
N15320 X255.041 Y69.226
N15325 X255.091 Y69.83
N15330 X255.095 Y69.87
N15335 X255.153 Y70.474
N15340 X255.157 Y70.518
N15345 X255.224 Y71.122
N15350 X255.229 Y71.161
N15355 X255.304 Y71.763
N15360 X255.309 Y71.803
N15365 X255.392 Y72.404
N15370 X255.4 Y72.458
N15375 X255.494 Y73.058
N15380 X255.504 Y73.117
N15385 X255.61 Y73.715
N15390 X255.621 Y73.774
N15395 X255.739 Y74.369
N15400 X255.751 Y74.424
N15405 X255.88 Y75.017
N15410 X255.891 Y75.066
N15415 X256.03 Y75.657
N15420 X256.041 Y75.702
N15425 X256.189 Y76.29
N15430 X256.204 Y76.349
N15435 X256.364 Y76.935
N15440 X256.38 Y76.989
N15445 X256.551 Y77.571
N15450 X256.572 Y77.64
N15455 X256.757 Y78.218
N15460 X256.777 Y78.278
N15465 X256.974 Y78.852
N15470 X256.998 Y78.921
N15475 X257.209 Y79.49
N15480 X257.236 Y79.559
N15485 X257.461 Y80.123
N15490 X257.487 Y80.187
N15495 X257.725 Y80.745
N15500 X257.752 Y80.805
N15505 X258.002 Y81.358
N15510 X258.034 Y81.427
N15515 X258.298 Y81.973
N15520 X258.335 Y82.047
N15525 X258.614 Y82.586
N15530 X258.648 Y82.651
N15535 X258.94 Y83.183
N15540 X258.977 Y83.247
N15545 X259.282 Y83.772
N15550 X259.32 Y83.836
N15555 X259.638 Y84.353
N15560 X259.682 Y84.422
N15565 X260.014 Y84.93
N15570 X260.064 Y85.004
N15575 X260.411 Y85.502
N15580 X260.468 Y85.581
N15585 X260.831 Y86.067
N15590 X260.894 Y86.149
N15595 X261.274 Y86.623
N15600 X261.335 Y86.696
N15605 X261.729 Y87.157
N15610 X261.796 Y87.234
N15615 X262.206 Y87.682
N15620 X262.271 Y87.75
N15625 X262.695 Y88.185
N15630 X262.762 Y88.252
N15635 X263.199 Y88.672
N15640 X263.273 Y88.741
N15645 X263.724 Y89.147
N15650 X263.801 Y89.214
N15655 X264.266 Y89.605
N15660 X264.341 Y89.665
N15665 X264.818 Y90.04
N15670 X264.896 Y90.1
N15675 X265.385 Y90.46
N15680 X265.476 Y90.523
N15685 X265.978 Y90.865
N15690 X266.073 Y90.927
N15695 X266.587 Y91.248
N15700 X266.676 Y91.302
N15705 X267.202 Y91.606
N15710 X267.272 Y91.645
N15715 X267.805 Y91.935
N15720 X267.885 Y91.977
N15725 X268.427 Y92.25
N15730 X268.526 Y92.298
N15735 X269.077 Y92.551
N15740 X269.184 Y92.598
N15745 X269.745 Y92.83
N15750 X269.839 Y92.867
N15755 X270.408 Y93.08
N15760 X270.488 Y93.109
N15765 X271.062 Y93.305
N15770 X271.149 Y93.333
N15775 X271.729 Y93.513
N15780 X271.819 Y93.539
N15785 X272.404 Y93.7
N15790 X272.499 Y93.724
N15795 X273.089 Y93.866
N15800 X273.187 Y93.887
N15805 X273.782 Y94.009
N15810 X273.872 Y94.026
N15815 X274.47 Y94.13
N15820 X274.546 Y94.142
N15825 X275.146 Y94.23
N15830 X275.213 Y94.239
N15835 X275.816 Y94.314
N15840 X275.898 Y94.323
N15845 X276.502 Y94.381
N15850 X276.607 Y94.389
N15855 X277.212 Y94.426
N15860 X277.304 Y94.43
N15865 X277.911 Y94.448
N15870 X277.958 Y94.449
N15875 X278.565 Y94.458
N15880 X278.65
N15885 X279.242 Y94.45
N15890 X279.277 Y94.449
N15895 X279.868 Y94.434
N15900 X279.937 Y94.431
N15905 X280.528 Y94.403
N15910 X280.616 Y94.397
N15915 X281.206 Y94.351
N15920 X281.277 Y94.345
N15925 X281.866 Y94.284
N15930 X281.919 Y94.278
N15935 X282.507 Y94.208
N15940 X282.564 Y94.2
N15945 X283.15 Y94.118
N15950 X283.225 Y94.107
N15955 X283.809 Y94.01
N15960 X283.899 Y93.994
N15965 X284.48 Y93.88
N15970 X284.573 Y93.86
N15975 X285.15 Y93.727
N15980 X285.246 Y93.703
N15985 X285.818 Y93.552
N15990 X285.911 Y93.525
N15995 X286.479 Y93.355
N16000 X286.569 Y93.326
N16005 X287.13 Y93.138
N16010 X287.218 Y93.107
N16015 X287.773 Y92.902
N16020 X287.857 Y92.869
N16025 X288.406 Y92.647
N16030 X288.491 Y92.611
N16035 X289.033 Y92.373
N16040 X289.124 Y92.33
N16045 X289.657 Y92.074
N16050 X289.754 Y92.025
N16055 X290.278 Y91.749
N16060 X290.376 Y91.695
N16065 X290.889 Y91.4
N16070 X290.978 Y91.347
N16075 X291.481 Y91.033
N16080 X291.571 Y90.976
N16085 X292.062 Y90.645
N16090 X292.156 Y90.579
N16095 X292.634 Y90.23
N16100 X292.728 Y90.159
N16105 X293.192 Y89.791
N16110 X293.282 Y89.717
N16115 X293.731 Y89.331
N16120 X293.808 Y89.263
N16125 X294.244 Y88.862
N16130 X294.319 Y88.792
N16135 X294.741 Y88.376
N16140 X294.814 Y88.301
N16145 X295.221 Y87.871
N16150 X295.291 Y87.794
N16155 X295.683 Y87.351
N16160 X295.759 Y87.262
N16165 X296.133 Y86.804
N16170 X296.199 Y86.72
N16175 X296.557 Y86.248
N16180 X296.616 Y86.168
N16185 X296.958 Y85.685
N16190 X297.003 Y85.619
N16195 X297.332 Y85.126
N16200 X297.381 Y85.05
N16205 X297.695 Y84.549
N16210 X297.752 Y84.454
N16215 X298.047 Y83.941
N16220 X298.096 Y83.854
N16225 X298.374 Y83.331
N16230 X298.413 Y83.255
N16235 X298.676 Y82.725
N16240 X298.703 Y82.668
N16245 X298.955 Y82.132
N16250 X298.987 Y82.062
N16255 X299.225 Y81.52
N16260 X299.259 Y81.44
N16265 X299.481 Y80.891
N16270 X299.509 Y80.819
N16275 X299.687 Y80.344
N16280 G3 X300.46 Y79.993 I0.562 J0.211 F500.
N16285 G1 X301.021 Y80.204
N16290 X301.109 Y80.237 Z-4.993
N16295 X301.195 Y80.269 Z-4.971
N16300 X301.276 Y80.3 Z-4.935
N16305 X301.351 Y80.328 Z-4.885
N16310 X301.419 Y80.353 Z-4.824
N16315 X301.476 Y80.375 Z-4.753
N16320 X301.522 Y80.392 Z-4.672
N16325 X301.556 Y80.405 Z-4.585
N16330 X301.576 Y80.412 Z-4.494
N16335 X301.583 Y80.415 Z-4.4
N16340 G0 Z5.
N16345 X286.427 Y65.392
N16350 G1 Z1. F333.33
N16355 Z-4.4
N16360 X286.434 Z-4.494
N16365 X286.456 Z-4.585
N16370 X286.492 Y65.393 Z-4.672
N16375 X286.542 Z-4.753
N16380 X286.603 Y65.394 Z-4.824
N16385 X286.674 Y65.395 Z-4.885
N16390 X286.755 Y65.396 Z-4.935
N16395 X286.842 Y65.397 Z-4.971
N16400 X286.933 Y65.398 Z-4.993
N16405 X287.027 Y65.399 Z-5.
N16410 X287.627 Y65.407 F500.
N16415 G3 X288.219 Y66.014 I-0.008 J0.6
N16420 G1 X288.216 Y66.252 F1500.
N16425 X288.207 Y66.699
N16430 X288.193 Y67.143
N16435 X288.174 Y67.587
N16440 X288.151 Y68.037
N16445 X288.124 Y68.494
N16450 X288.094 Y68.95
N16455 X288.061 Y69.405
N16460 X288.026 Y69.861
N16465 X287.987 Y70.316
N16470 X287.947 Y70.765
N16475 X287.902 Y71.204
N16480 X287.853 Y71.636
N16485 X287.798 Y72.064
N16490 X287.736 Y72.494
N16495 X287.666 Y72.933
N16500 X287.593 Y73.377
N16505 X287.516 Y73.814
N16510 X287.435 Y74.244
N16515 X287.35 Y74.67
N16520 X287.259 Y75.088
N16525 X287.162 Y75.501
N16530 X287.057 Y75.912
N16535 X286.946 Y76.321
N16540 X286.828 Y76.727
N16545 X286.703 Y77.131
N16550 X286.569 Y77.536
N16555 X286.428 Y77.942
N16560 X286.28 Y78.348
N16565 X286.129 Y78.746
N16570 X285.978 Y79.121
N16575 X285.821 Y79.481
N16580 X285.654 Y79.837
N16585 X285.473 Y80.197
N16590 X285.286 Y80.55
N16595 X285.096 Y80.885
N16600 X284.898 Y81.21
N16605 X284.682 Y81.539
N16610 X284.459 Y81.862
N16615 X284.245 Y82.153
N16620 X284.038 Y82.408
N16625 X283.82 Y82.65
N16630 X283.575 Y82.897
N16635 X283.321 Y83.134
N16640 X283.069 Y83.349
N16645 X282.804 Y83.552
N16650 X282.519 Y83.752
N16655 X282.226 Y83.939
N16660 X281.925 Y84.114
N16665 X281.62 Y84.273
N16670 X281.316 Y84.416
N16675 X281.03 Y84.533
N16680 X280.748 Y84.629
N16685 X280.428 Y84.718
N16690 X280.075 Y84.8
N16695 X279.715 Y84.872
N16700 X279.372 Y84.926
N16705 X279.057 Y84.961
N16710 X278.716 Y84.979
N16715 X278.376 Y84.985
N16720 X277.882 Y84.966
N16725 X277.369 Y84.935
N16730 X276.91 Y84.887
N16735 X276.477 Y84.816
N16740 X276.053 Y84.721
N16745 X275.64 Y84.602
N16750 X275.242 Y84.46
N16755 X274.86 Y84.294
N16760 X274.488 Y84.103
N16765 X274.127 Y83.886
N16770 X273.774 Y83.643
N16775 X273.426 Y83.371
N16780 X273.087 Y83.075
N16785 X272.755 Y82.752
N16790 X272.436 Y82.411
N16795 X272.135 Y82.054
N16800 X271.852 Y81.685
N16805 X271.588 Y81.302
N16810 X271.335 Y80.893
N16815 X271.09 Y80.459
N16820 X270.86 Y80.014
N16825 X270.643 Y79.554
N16830 X270.44 Y79.081
N16835 X270.249 Y78.596
N16840 X270.068 Y78.092
N16845 X269.898 Y77.583
N16850 X269.743 Y77.072
N16855 X269.602 Y76.559
N16860 X269.475 Y76.041
N16865 X269.359 Y75.51
N16870 X269.252 Y74.967
N16875 X269.154 Y74.412
N16880 X269.063 Y73.85
N16885 X268.98 Y73.287
N16890 X268.906 Y72.721
N16895 X268.839 Y72.151
N16900 X268.778 Y71.575
N16905 X268.723 Y70.998
N16910 X268.676 Y70.424
N16915 X268.636 Y69.846
N16920 X268.602 Y69.27
N16925 X268.576 Y68.699
N16930 X268.558 Y68.123
N16935 X268.546 Y67.536
N16940 X268.538 Y66.942
N16945 X268.533 Y66.365
N16950 X268.54 Y65.76
N16955 X268.55 Y65.133
N16960 X268.562 Y64.514
N16965 X268.58 Y63.901
N16970 X268.604 Y63.294
N16975 X268.635 Y62.689
N16980 X268.673 Y62.084
N16985 X268.718 Y61.483
N16990 X268.771 Y60.882
N16995 X268.831 Y60.286
N17000 X268.899 Y59.694
N17005 X268.977 Y59.104
N17010 X269.063 Y58.516
N17015 X269.158 Y57.933
N17020 X269.263 Y57.351
N17025 X269.377 Y56.774
N17030 X269.501 Y56.204
N17035 X269.635 Y55.639
N17040 X269.779 Y55.084
N17045 X269.935 Y54.538
N17050 X270.101 Y54.004
N17055 X270.282 Y53.48
N17060 X270.477 Y52.962
N17065 X270.687 Y52.454
N17070 X270.911 Y51.953
N17075 X271.148 Y51.466
N17080 X271.398 Y50.992
N17085 X271.66 Y50.537
N17090 X271.928 Y50.114
N17095 X272.205 Y49.723
N17100 X272.503 Y49.348
N17105 X272.834 Y48.974
N17110 X273.179 Y48.617
N17115 X273.519 Y48.299
N17120 X273.859 Y48.02
N17125 X274.22 Y47.765
N17130 X274.609 Y47.524
N17135 X275.005 Y47.31
N17140 X275.395 Y47.133
N17145 X275.805 Y46.982
N17150 X276.26 Y46.846
N17155 X276.734 Y46.729
N17160 X277.187 Y46.643
N17165 X277.632 Y46.589
N17170 X278.135 Y46.558
N17175 X278.639 Y46.543
N17180 X279.02 Y46.555
N17185 X279.419 Y46.578
N17190 X279.787 Y46.617
N17195 X280.157 Y46.674
N17200 X280.531 Y46.749
N17205 X280.894 Y46.839
N17210 X281.227 Y46.939
N17215 X281.535 Y47.052
N17220 X281.849 Y47.19
N17225 X282.176 Y47.354
N17230 X282.496 Y47.534
N17235 X282.799 Y47.725
N17240 X283.081 Y47.924
N17245 X283.35 Y48.139
N17250 X283.62 Y48.38
N17255 X283.898 Y48.652
N17260 X284.178 Y48.947
N17265 X284.434 Y49.237
N17270 X284.666 Y49.525
N17275 X284.891 Y49.834
N17280 X285.114 Y50.167
N17285 X285.329 Y50.516
N17290 X285.532 Y50.871
N17295 X285.728 Y51.242
N17300 X285.919 Y51.629
N17305 X286.098 Y52.02
N17310 X286.267 Y52.416
N17315 X286.427 Y52.822
N17320 X286.579 Y53.237
N17325 X286.723 Y53.658
N17330 X286.859 Y54.089
N17335 X286.987 Y54.522
N17340 X287.107 Y54.961
N17345 X287.219 Y55.406
N17350 X287.325 Y55.856
N17355 X287.424 Y56.314
N17360 X287.517 Y56.773
N17365 X287.603 Y57.233
N17370 X287.683 Y57.698
N17375 X287.757 Y58.167
N17380 X287.826 Y58.639
N17385 X287.889 Y59.113
N17390 X287.947 Y59.587
N17395 X287.999 Y60.062
N17400 X288.046 Y60.538
N17405 X288.086 Y61.011
N17410 X288.121 Y61.484
N17415 X288.149 Y61.958
N17420 X288.171 Y62.433
N17425 X288.188 Y62.916
N17430 X288.202 Y63.405
N17435 X288.212 Y63.904
N17440 X288.22 Y64.408
N17445 X288.227 Y64.888
N17450 X288.225 Y65.334
N17455 X288.222 Y65.798
N17460 X288.219 Y66.014
N17465 G3 X287.612 Y66.607 I-0.6 J-0.008 F500.
N17470 G1 X287.012 Y66.599
N17475 X286.918 Y66.598 Z-4.993
N17480 X286.827 Y66.597 Z-4.971
N17485 X286.74 Y66.596 Z-4.935
N17490 X286.659 Y66.595 Z-4.885
N17495 X286.588 Y66.594 Z-4.824
N17500 X286.527 Y66.593 Z-4.753
N17505 X286.477 Y66.592 Z-4.672
N17510 X286.441 Z-4.585
N17515 X286.419 Z-4.494
N17520 X286.412 Z-4.4
N17525 G0 Z5.
N17530 X247.371 Y65.187
N17535 G1 Z1. F333.33
N17540 Z-4.4
N17545 X247.366 Y65.192 Z-4.494
N17550 X247.35 Y65.208 Z-4.585
N17555 X247.325 Y65.234 Z-4.672
N17560 X247.291 Y65.269 Z-4.753
N17565 X247.248 Y65.313 Z-4.824
N17570 X247.198 Y65.364 Z-4.885
N17575 X247.141 Y65.421 Z-4.935
N17580 X247.08 Y65.483 Z-4.971
N17585 X247.016 Y65.548 Z-4.993
N17590 X246.951 Y65.615 Z-5.
N17595 X246.53 Y66.044 F500.
N17600 G3 X245.682 Y66.051 I-0.428 J-0.42
N17605 G1 X245.6 Y65.971 F1500.
N17610 X245.534 Y65.909
N17615 X245.225 Y65.623
N17620 X245.175 Y65.578
N17625 X244.86 Y65.299
N17630 X244.809 Y65.255
N17635 X244.488 Y64.984
N17640 X244.423 Y64.931
N17645 X244.094 Y64.669
N17650 X244.028 Y64.618
N17655 X243.692 Y64.365
N17660 X243.628 Y64.318
N17665 X243.286 Y64.074
N17670 X243.222 Y64.03
N17675 X242.873 Y63.795
N17680 X242.817 Y63.758
N17685 X242.463 Y63.531
N17690 X242.41 Y63.497
N17695 X242.052 Y63.278
N17700 X241.995 Y63.244
N17705 X241.978 Y63.234
N17710 X242.054 Y63.154
N17715 X242.298 Y62.887
N17720 X242.361 Y62.816
N17725 X242.597 Y62.541
N17730 X242.656 Y62.47
N17735 X242.883 Y62.189
N17740 X242.919 Y62.143
N17745 X243.141 Y61.857
N17750 X243.171 Y61.817
N17755 X243.388 Y61.527
N17760 X243.413 Y61.493
N17765 X243.626 Y61.2
N17770 X243.659 Y61.153
N17775 X243.866 Y60.856
N17780 X243.895 Y60.814
N17785 X244.097 Y60.514
N17790 X244.126 Y60.47
N17795 X244.323 Y60.166
N17800 X244.353 Y60.119
N17805 X244.544 Y59.811
N17810 X244.569 Y59.77
N17815 X244.755 Y59.46
N17820 X244.771 Y59.433
N17825 X244.954 Y59.121
N17830 X244.968 Y59.096
N17835 X245.148 Y58.782
N17840 X245.158 Y58.764
N17845 X245.336 Y58.449
N17850 X245.348 Y58.427
N17855 X245.523 Y58.11
N17860 X245.7 Y57.79
N17865 X245.708 Y57.776
N17870 X245.881 Y57.458
N17875 X246.054 Y57.139
N17880 X246.066 Y57.118
N17885 X249.256 Y51.139
N17890 X249.401 Y50.867
N17895 X249.538 Y50.608
N17900 X249.676 Y50.354
N17905 X249.813 Y50.103
N17910 X249.947 Y49.861
N17915 X250.085 Y49.621
N17920 X250.226 Y49.378
N17925 X250.369 Y49.135
N17930 X250.515 Y48.893
N17935 X250.661 Y48.654
N17940 X250.801 Y48.43
N17945 X250.941 Y48.214
N17950 X251.08 Y48.006
N17955 X251.215 Y47.814
N17960 X251.351 Y47.63
N17965 X251.488 Y47.454
N17970 X251.627 Y47.286
N17975 X251.776 Y47.116
N17980 X251.928 Y46.951
N17985 X252.079 Y46.795
N17990 X252.233 Y46.647
N17995 X252.376 Y46.517
N18000 X252.5 Y46.413
N18005 X252.608 Y46.333
N18010 X252.705 Y46.269
N18015 X252.794 Y46.219
N18020 X252.893 Y46.172
N18025 X253.033 Y46.115
N18030 X253.22 Y46.048
N18035 X253.418 Y45.984
N18040 X253.592 Y45.934
N18045 X253.767 Y45.892
N18050 X253.984 Y45.849
N18055 X256.727 Y45.357
N18060 Y42.847
N18065 Y37.764
N18070 X243.582
N18075 X241.984
N18080 X241.092 Y39.09
N18085 X240.861 Y39.434
N18090 X240.854 Y39.446
N18095 X240.625 Y39.79
N18100 X240.619 Y39.798
N18105 X240.391 Y40.144
N18110 X240.377 Y40.164
N18115 X240.152 Y40.51
N18120 X240.138 Y40.532
N18125 X239.916 Y40.881
N18130 X239.898 Y40.91
N18135 X239.68 Y41.261
N18140 X239.661 Y41.292
N18145 X239.447 Y41.646
N18150 X239.427 Y41.681
N18155 X239.218 Y42.037
N18160 X239.204 Y42.06
N18165 X238.998 Y42.419
N18170 X238.986 Y42.441
N18175 X238.783 Y42.801
N18180 X238.771 Y42.823
N18185 X238.571 Y43.185
N18190 X238.563 Y43.199
N18195 X238.365 Y43.562
N18200 X238.164 Y43.935
N18205 X238.153 Y43.954
N18210 X237.959 Y44.319
N18215 X237.764 Y44.686
N18220 X237.757 Y44.699
N18225 X237.565 Y45.065
N18230 X237.372 Y45.434
N18235 X237.366 Y45.446
N18240 X237.176 Y45.813
N18245 X236.983 Y46.188
N18250 X236.794 Y46.557
N18255 X236.604 Y46.926
N18260 X236.413 Y47.3
N18265 X236.225 Y47.669
N18270 X236.036 Y48.041
N18275 X232.955 Y54.082
N18280 X232.838 Y54.303
N18285 X232.709 Y54.545
N18290 X232.58 Y54.786
N18295 X232.453 Y55.022
N18300 X232.325 Y55.256
N18305 X232.199 Y55.485
N18310 X232.07 Y55.713
N18315 X231.942 Y55.94
N18320 X231.811 Y56.166
N18325 X231.679 Y56.391
N18330 X231.549 Y56.61
N18335 X231.42 Y56.823
N18340 X231.292 Y57.029
N18345 X231.162 Y57.232
N18350 X231.03 Y57.432
N18355 X230.899 Y57.625
N18360 X230.767 Y57.812
N18365 X230.633 Y57.996
N18370 X230.5 Y58.171
N18375 X230.369 Y58.336
N18380 X230.248 Y58.481
N18385 X230.14 Y58.602
N18390 X230.044 Y58.7
N18395 X229.954 Y58.783
N18400 X229.875 Y58.849
N18405 X229.808 Y58.897
N18410 X229.735 Y58.943
N18415 X229.649 Y58.99
N18420 X229.546 Y59.038
N18425 X229.437 Y59.083
N18430 X229.334 Y59.118
N18435 X229.233 Y59.146
N18440 X229.122 Y59.171
N18445 X228.975 Y59.195
N18450 X228.788 Y59.219
N18455 X228.577 Y59.24
N18460 X228.354 Y59.258
N18465 X228.132 Y59.273
N18470 X227.91 Y59.282
N18475 X227.681 Y59.288
N18480 X227.434 Y59.291
N18485 X227.17 Y59.292
N18490 X226.171
N18495 Y50.145
N18500 X226.172 Y49.898
N18505 Y49.886
N18510 Y49.645
N18515 X226.174 Y49.416
N18520 X226.177 Y49.186
N18525 X226.183 Y48.963
N18530 X226.191 Y48.74
N18535 X226.201 Y48.505
N18540 X226.212 Y48.264
N18545 X226.225 Y48.018
N18550 X226.237 Y47.783
N18555 X226.25 Y47.572
N18560 X226.266 Y47.373
N18565 X226.284 Y47.198
N18570 X226.305 Y47.036
N18575 X226.329 Y46.888
N18580 X226.357 Y46.747
N18585 X226.389 Y46.613
N18590 X226.425 Y46.486
N18595 X226.463 Y46.366
N18600 X226.473 Y46.341
N18605 X226.49 Y46.329
N18610 X226.519 Y46.312
N18615 X226.565 Y46.289
N18620 X226.654 Y46.251
N18625 X226.796 Y46.197
N18630 X226.983 Y46.131
N18635 X227.195 Y46.06
N18640 X227.403 Y45.992
N18645 X227.607 Y45.928
N18650 X227.818 Y45.865
N18655 X228.038 Y45.801
N18660 X230.458 Y45.117
N18665 Y42.847
N18670 Y37.764
N18675 X208.941
N18680 Y40.764
N18685 Y45.156
N18690 X211.173 Y45.747
N18695 X211.41 Y45.81
N18700 X211.632 Y45.87
N18705 X211.836 Y45.928
N18710 X212.022 Y45.983
N18715 X212.199 Y46.04
N18720 X212.368 Y46.099
N18725 X212.531 Y46.161
N18730 X212.687 Y46.225
N18735 X212.82 Y46.284
N18740 X212.917 Y46.332
N18745 X212.943 Y46.347
N18750 X212.952 Y46.364
N18755 X212.967 Y46.4
N18760 X212.986 Y46.456
N18765 X213.008 Y46.541
N18770 X213.036 Y46.669
N18775 X213.063 Y46.823
N18780 X213.089 Y46.995
N18785 X213.113 Y47.181
N18790 X213.133 Y47.379
N18795 X213.152 Y47.583
N18800 X213.167 Y47.793
N18805 X213.181 Y48.022
N18810 X213.194 Y48.245
N18815 X213.203 Y48.461
N18820 X213.21 Y48.69
N18825 X213.217 Y48.925
N18830 X213.221 Y49.154
N18835 X213.224 Y49.389
N18840 X213.226 Y49.624
N18845 Y49.864
N18850 Y49.876
N18855 X213.227 Y50.123
N18860 Y81.399
N18865 X213.225 Y81.639
N18870 Y81.651
N18875 X213.224 Y81.891
N18880 X213.218 Y82.383
N18885 X213.215 Y82.618
N18890 X213.21 Y82.846
N18895 X213.204 Y83.068
N18900 X213.195 Y83.279
N18905 X213.183 Y83.489
N18910 X213.168 Y83.699
N18915 X213.149 Y83.92
N18920 X213.129 Y84.141
N18925 X213.108 Y84.345
N18930 X213.085 Y84.53
N18935 X213.062 Y84.684
N18940 X213.039 Y84.807
N18945 X213.01 Y84.928
N18950 X212.982 Y85.029
N18955 X212.955 Y85.109
N18960 X212.93 Y85.169
N18965 X212.915 Y85.185
N18970 X212.887 Y85.201
N18975 X212.826 Y85.231
N18980 X212.704 Y85.284
N18985 X212.548 Y85.347
N18990 X212.377 Y85.409
N18995 X212.195 Y85.472
N19000 X212.002 Y85.535
N19005 X211.796 Y85.599
N19010 X211.581 Y85.663
N19015 X211.355 Y85.728
N19020 X208.941 Y86.418
N19025 Y88.681
N19030 Y93.764
N19035 X230.224
N19040 X230.25
N19045 X230.784 Y93.759
N19050 X230.799
N19055 X231.333 Y93.752
N19060 X231.363 Y93.751
N19065 X231.897 Y93.738
N19070 X231.942 Y93.737
N19075 X232.475 Y93.716
N19080 X232.53 Y93.714
N19085 X233.063 Y93.683
N19090 X233.114 Y93.68
N19095 X233.646 Y93.64
N19100 X233.691 Y93.637
N19105 X234.223 Y93.589
N19110 X234.261 Y93.586
N19115 X234.792 Y93.531
N19120 X234.83 Y93.527
N19125 X235.361 Y93.466
N19130 X235.412 Y93.46
N19135 X235.941 Y93.39
N19140 X236.001 Y93.381
N19145 X236.529 Y93.3
N19150 X236.599 Y93.289
N19155 X237.124 Y93.196
N19160 X237.192 Y93.183
N19165 X237.716 Y93.077
N19170 X237.781 Y93.063
N19175 X238.302 Y92.946
N19180 X238.364 Y92.932
N19185 X238.882 Y92.804
N19190 X238.949 Y92.787
N19195 X239.465 Y92.647
N19200 X239.546 Y92.623
N19205 X240.057 Y92.469
N19210 X240.15 Y92.439
N19215 X240.655 Y92.269
N19220 X240.747 Y92.236
N19225 X241.247 Y92.049
N19230 X241.332 Y92.016
N19235 X241.827 Y91.813
N19240 X241.914 Y91.775
N19245 X242.401 Y91.558
N19250 X242.496 Y91.513
N19255 X242.976 Y91.278
N19260 X243.092 Y91.218
N19265 X243.561 Y90.963
N19270 X243.687 Y90.89
N19275 X244.143 Y90.613
N19280 X244.263 Y90.535
N19285 X244.705 Y90.236
N19290 X244.813 Y90.159
N19295 X245.242 Y89.841
N19300 X245.355 Y89.753
N19305 X245.768 Y89.414
N19310 X245.884 Y89.314
N19315 X246.279 Y88.955
N19320 X246.397 Y88.842
N19325 X246.772 Y88.461
N19330 X246.888 Y88.337
N19335 X247.241 Y87.935
N19340 X247.356 Y87.797
N19345 X247.684 Y87.376
N19350 X247.784 Y87.24
N19355 X248.088 Y86.8
N19360 X248.172 Y86.671
N19365 X248.453 Y86.217
N19370 X248.529 Y86.088
N19375 X248.787 Y85.62
N19380 X248.86 Y85.48
N19385 X249.093 Y84.999
N19390 X249.165 Y84.837
N19395 X249.369 Y84.344
N19400 X249.424 Y84.202
N19405 X249.603 Y83.699
N19410 X249.645 Y83.57
N19415 X249.801 Y83.059
N19420 X249.833 Y82.947
N19425 X249.969 Y82.43
N19430 X249.998 Y82.313
N19435 X250.113 Y81.791
N19440 X250.134 Y81.684
N19445 X250.23 Y81.159
N19450 X250.248 Y81.047
N19455 X250.324 Y80.518
N19460 X250.338 Y80.406
N19465 X250.394 Y79.875
N19470 X250.405 Y79.751
N19475 X250.439 Y79.219
N19480 X250.443 Y79.14
N19485 X250.463 Y78.606
N19490 X250.464 Y78.562
N19495 X250.476 Y78.027
N19500 Y77.896
N19505 X250.467 Y77.475
N19510 Y77.447
N19515 X250.454 Y77.027
N19520 X250.451 Y76.955
N19525 X250.428 Y76.536
N19530 X250.422 Y76.45
N19535 X250.387 Y76.031
N19540 X250.377 Y75.939
N19545 X250.329 Y75.521
N19550 X250.318 Y75.435
N19555 X250.258 Y75.019
N19560 X250.246 Y74.941
N19565 X250.175 Y74.526
N19570 X250.16 Y74.447
N19575 X250.078 Y74.035
N19580 X250.058 Y73.943
N19585 X249.963 Y73.533
N19590 X249.94 Y73.44
N19595 X249.832 Y73.034
N19600 X249.804 Y72.934
N19605 X249.682 Y72.532
N19610 X249.65 Y72.431
N19615 X249.514 Y72.034
N19620 X249.478 Y71.934
N19625 X249.328 Y71.542
N19630 X249.296 Y71.463
N19635 X249.135 Y71.074
N19640 X249.099 Y70.99
N19645 X248.926 Y70.606
N19650 X248.888 Y70.526
N19655 X248.704 Y70.148
N19660 X248.65 Y70.042
N19665 X248.451 Y69.672
N19670 X248.398 Y69.577
N19675 X248.186 Y69.215
N19680 X248.127 Y69.118
N19685 X247.901 Y68.763
N19690 X247.853 Y68.69
N19695 X247.617 Y68.342
N19700 X247.566 Y68.27
N19705 X247.32 Y67.929
N19710 X247.267 Y67.857
N19715 X247.011 Y67.524
N19720 X246.95 Y67.448
N19725 X246.683 Y67.123
N19730 X246.616 Y67.044
N19735 X246.338 Y66.728
N19740 X246.265 Y66.648
N19745 X245.976 Y66.343
N19750 X245.9 Y66.265
N19755 X245.682 Y66.051
N19760 G3 X245.674 Y65.203 I0.42 J-0.428 F500.
N19765 G1 X246.094 Y64.775
N19770 X246.16 Y64.708 Z-4.993
N19775 X246.224 Y64.642 Z-4.971
N19780 X246.285 Y64.58 Z-4.935
N19785 X246.341 Y64.523 Z-4.885
N19790 X246.391 Y64.472 Z-4.824
N19795 X246.434 Y64.428 Z-4.753
N19800 X246.469 Y64.393 Z-4.672
N19805 X246.494 Y64.367 Z-4.585
N19810 X246.509 Y64.352 Z-4.494
N19815 X246.515 Y64.347 Z-4.4
N19820 G0 Z5.
N19825 X235.02 Y76.26
N19830 G1 Z1. F333.33
N19835 Z-4.4
N19840 X235.027 Z-4.494
N19845 X235.049 Z-4.585
N19850 X235.085 Y76.259 Z-4.672
N19855 X235.135 Y76.257 Z-4.753
N19860 X235.196 Y76.256 Z-4.824
N19865 X235.267 Y76.254 Z-4.885
N19870 X235.348 Y76.252 Z-4.935
N19875 X235.434 Y76.25 Z-4.971
N19880 X235.526 Y76.248 Z-4.993
N19885 X235.62 Y76.246 Z-5.
N19890 X236.22 Y76.232 F500.
N19895 G3 X236.834 Y76.817 I0.014 J0.6
N19900 G1 X236.837 Y76.955 F1500.
N19905 X236.827 Y77.325
N19910 X236.81 Y77.746
N19915 X236.788 Y78.141
N19920 X236.757 Y78.513
N19925 X236.715 Y78.867
N19930 X236.662 Y79.209
N19935 X236.597 Y79.537
N19940 X236.517 Y79.861
N19945 X236.423 Y80.184
N19950 X236.317 Y80.498
N19955 X236.199 Y80.801
N19960 X236.076 Y81.078
N19965 X235.943 Y81.334
N19970 X235.794 Y81.585
N19975 X235.627 Y81.833
N19980 X235.447 Y82.071
N19985 X235.265 Y82.287
N19990 X235.085 Y82.472
N19995 X234.891 Y82.647
N20000 X234.666 Y82.824
N20005 X234.412 Y83.003
N20010 X234.145 Y83.172
N20015 X233.878 Y83.323
N20020 X233.609 Y83.457
N20025 X233.325 Y83.579
N20030 X233.021 Y83.693
N20035 X232.697 Y83.798
N20040 X232.362 Y83.892
N20045 X232.019 Y83.974
N20050 X231.666 Y84.046
N20055 X231.306 Y84.107
N20060 X230.935 Y84.157
N20065 X230.556 Y84.198
N20070 X230.167 Y84.229
N20075 X229.764 Y84.252
N20080 X229.344 Y84.269
N20085 X228.906 Y84.282
N20090 X228.494 Y84.292
N20095 X228.315 Y84.291
N20100 X228.092 Y84.289
N20105 X227.871 Y84.288
N20110 X227.65 Y84.286
N20115 X227.429 Y84.285
N20120 X227.209 Y84.283
N20125 X226.989 Y84.281
N20130 X226.77 Y84.279
N20135 X226.552 Y84.276
N20140 X226.335 Y84.273
N20145 X226.171 Y84.271
N20150 Y68.764
N20155 X227.282
N20160 X227.675 Y68.77
N20165 X228.085 Y68.778
N20170 X228.485 Y68.788
N20175 X228.879 Y68.8
N20180 X229.26 Y68.817
N20185 X229.631 Y68.839
N20190 X229.991 Y68.866
N20195 X230.347 Y68.902
N20200 X230.703 Y68.945
N20205 X231.057 Y68.995
N20210 X231.391 Y69.05
N20215 X231.699 Y69.111
N20220 X231.984 Y69.179
N20225 X232.262 Y69.259
N20230 X232.538 Y69.352
N20235 X232.809 Y69.457
N20240 X233.077 Y69.574
N20245 X233.346 Y69.705
N20250 X233.608 Y69.846
N20255 X233.862 Y69.997
N20260 X234.105 Y70.156
N20265 X234.329 Y70.317
N20270 X234.54 Y70.486
N20275 X234.738 Y70.662
N20280 X234.921 Y70.843
N20285 X235.097 Y71.038
N20290 X235.269 Y71.248
N20295 X235.433 Y71.471
N20300 X235.59 Y71.707
N20305 X235.739 Y71.954
N20310 X235.879 Y72.211
N20315 X236.011 Y72.479
N20320 X236.136 Y72.762
N20325 X236.251 Y73.047
N20330 X236.35 Y73.327
N20335 X236.438 Y73.613
N20340 X236.516 Y73.907
N20345 X236.585 Y74.215
N20350 X236.646 Y74.538
N20355 X236.698 Y74.865
N20360 X236.741 Y75.199
N20365 X236.775 Y75.533
N20370 X236.799 Y75.875
N20375 X236.816 Y76.239
N20380 X236.829 Y76.625
N20385 X236.834 Y76.817
N20390 G3 X236.248 Y77.431 I-0.6 J0.014 F500.
N20395 G1 X235.648 Y77.446
N20400 X235.554 Y77.448 Z-4.993
N20405 X235.463 Y77.45 Z-4.971
N20410 X235.376 Y77.452 Z-4.935
N20415 X235.296 Y77.454 Z-4.885
N20420 X235.224 Y77.456 Z-4.824
N20425 X235.163 Y77.457 Z-4.753
N20430 X235.114 Y77.458 Z-4.672
N20435 X235.078 Y77.459 Z-4.585
N20440 X235.056 Y77.46 Z-4.494
N20445 X235.048 Z-4.4
N20450 G0 Z5.
N20455 X205.424 Y81.317
N20460 G1 Z1. F333.33
N20465 Z-4.4
N20470 X205.417 Y81.314 Z-4.494
N20475 X205.396 Y81.307 Z-4.585
N20480 X205.362 Y81.295 Z-4.672
N20485 X205.316 Y81.279 Z-4.753
N20490 X205.258 Y81.259 Z-4.824
N20495 X205.191 Y81.235 Z-4.885
N20500 X205.115 Y81.209 Z-4.935
N20505 X205.033 Y81.181 Z-4.971
N20510 X204.946 Y81.151 Z-4.993
N20515 X204.857 Y81.12 Z-5.
N20520 X204.291 Y80.923 F500.
N20525 G3 X203.92 Y80.16 I0.197 J-0.567
N20530 G1 X204.102 Y79.635 F1500.
N20535 X204.121 Y79.579
N20540 X204.304 Y79.016
N20545 X204.32 Y78.966
N20550 X204.493 Y78.399
N20555 X204.509 Y78.344
N20560 X204.671 Y77.775
N20565 X204.685 Y77.724
N20570 X204.837 Y77.152
N20575 X204.853 Y77.091
N20580 X204.993 Y76.516
N20585 X205.008 Y76.45
N20590 X205.135 Y75.872
N20595 X205.148 Y75.811
N20600 X205.263 Y75.23
N20605 X205.274 Y75.17
N20610 X205.377 Y74.587
N20615 X205.384 Y74.546
N20620 X205.479 Y73.962
N20625 X205.487 Y73.911
N20630 X205.572 Y73.326
N20635 X205.577 Y73.29
N20640 X205.655 Y72.704
N20645 X205.659 Y72.668
N20650 X205.73 Y72.08
N20655 X205.735 Y72.04
N20660 X205.798 Y71.451
N20665 X205.802 Y71.406
N20670 X205.856 Y70.816
N20675 X205.86 Y70.781
N20680 X205.907 Y70.191
N20685 X205.909 Y70.15
N20690 X205.948 Y69.56
N20695 X205.951 Y69.514
N20700 X205.981 Y68.923
N20705 X205.983 Y68.877
N20710 X206.004 Y68.286
N20715 X206.005 Y68.25
N20720 X206.019 Y67.659
N20725 X206.02 Y67.623
N20730 X206.027 Y67.031
N20735 X206.033 Y66.435
N20740 Y66.36
N20745 X206.024 Y65.745
N20750 X206.013 Y65.119
N20755 X206.012 Y65.1
N20760 X205.997 Y64.484
N20765 X205.996 Y64.446
N20770 X205.973 Y63.83
N20775 X205.971 Y63.791
N20780 X205.94 Y63.177
N20785 X205.938 Y63.133
N20790 X205.898 Y62.518
N20795 X205.894 Y62.474
N20800 X205.845 Y61.861
N20805 X205.842 Y61.817
N20810 X205.784 Y61.204
N20815 X205.78 Y61.165
N20820 X205.714 Y60.553
N20825 X205.708 Y60.504
N20830 X205.632 Y59.893
N20835 X205.628 Y59.859
N20840 X205.545 Y59.249
N20845 X205.538 Y59.2
N20850 X205.445 Y58.592
N20855 X205.436 Y58.538
N20860 X205.332 Y57.931
N20865 X205.323 Y57.882
N20870 X205.209 Y57.277
N20875 X205.198 Y57.219
N20880 X205.072 Y56.616
N20885 X205.06 Y56.563
N20890 X204.923 Y55.963
N20895 X204.908 Y55.899
N20900 X204.758 Y55.302
N20905 X204.741 Y55.239
N20910 X204.578 Y54.645
N20915 X204.563 Y54.591
N20920 X204.389 Y54.001
N20925 X204.371 Y53.943
N20930 X204.185 Y53.356
N20935 X204.166 Y53.297
N20940 X203.968 Y52.714
N20945 X203.945 Y52.651
N20950 X203.734 Y52.072
N20955 X203.71 Y52.009
N20960 X203.486 Y51.435
N20965 X203.459 Y51.367
N20970 X203.221 Y50.799
N20975 X203.191 Y50.731
N20980 X202.939 Y50.169
N20985 X202.907 Y50.101
N20990 X202.641 Y49.546
N20995 X202.61 Y49.483
N21000 X202.331 Y48.934
N21005 X202.298 Y48.871
N21010 X202.006 Y48.329
N21015 X201.965 Y48.255
N21020 X201.658 Y47.722
N21025 X201.607 Y47.635
N21030 X201.281 Y47.112
N21035 X201.233 Y47.037
N21040 X200.893 Y46.524
N21045 X200.844 Y46.452
N21050 X200.489 Y45.949
N21055 X200.44 Y45.881
N21060 X200.071 Y45.388
N21065 X200.014 Y45.314
N21070 X199.63 Y44.833
N21075 X199.565 Y44.754
N21080 X199.165 Y44.286
N21085 X199.093 Y44.205
N21090 X198.676 Y43.752
N21095 X198.605 Y43.677
N21100 X198.173 Y43.239
N21105 X198.096 Y43.163
N21110 X197.648 Y42.74
N21115 X197.57 Y42.669
N21120 X197.108 Y42.262
N21125 X197.023 Y42.191
N21130 X196.546 Y41.801
N21135 X196.464 Y41.737
N21140 X195.974 Y41.364
N21145 X195.889 Y41.302
N21150 X195.386 Y40.947
N21155 X195.301 Y40.889
N21160 X194.786 Y40.551
N21165 X194.699 Y40.497
N21170 X194.173 Y40.177
N21175 X194.084 Y40.125
N21180 X193.547 Y39.823
N21185 X193.458 Y39.775
N21190 X192.911 Y39.492
N21195 X192.822 Y39.447
N21200 X192.266 Y39.182
N21205 X192.173 Y39.14
N21210 X191.609 Y38.894
N21215 X191.513 Y38.855
N21220 X190.94 Y38.628
N21225 X190.851 Y38.594
N21230 X190.272 Y38.387
N21235 X190.182 Y38.356
N21240 X189.596 Y38.167
N21245 X189.512 Y38.141
N21250 X188.921 Y37.969
N21255 X188.838 Y37.946
N21260 X188.242 Y37.791
N21265 X188.156 Y37.77
N21270 X187.556 Y37.632
N21275 X187.462 Y37.612
N21280 X186.858 Y37.494
N21285 X186.766 Y37.477
