%
(1001)
(T2  D=3. CR=0. - ZMIN=-5. - FLAT END MILL)
N10 G90 G94 G17 G91.1
N15 G21
N20 G53 G0 Z0.
(2D CONTOUR2)
N25 M9
N30 T2 M6
N35 S5000 M3
N40 G54
N45 M8
N50 G0 X380.237 Y66.994
N55 G43 Z15. H2
N60 G0 Z5.
N65 G1 Z1. F333.33
N70 Z0.3
N75 X380.245 Y66.996 Z0.233
N80 X380.266 Y67.003 Z0.17
N85 X380.3 Y67.013 Z0.113
N90 X380.346 Y67.026 Z0.065
N95 X380.4 Y67.042 Z0.03
N100 X380.461 Y67.06 Z0.008
N105 X380.525 Y67.079 Z0.
N110 X380.813 Y67.164 F1000.
N115 G3 X381.016 Y67.536 I-0.085 J0.288
N120 G1 X377.523 Y79.404
N125 X371.516 Y62.403
N130 X382.527
N135 X381.016 Y67.536
N140 G3 X380.644 Y67.739 I-0.288 J-0.085
N145 G1 X380.356 Y67.655
N150 X380.292 Y67.636 Z0.008
N155 X380.231 Y67.618 Z0.03
N160 X380.176 Y67.602 Z0.065
N165 X380.131 Y67.588 Z0.113
N170 X380.096 Y67.578 Z0.17
N175 X380.075 Y67.572 Z0.233
N180 X380.068 Y67.57 Z0.3
N185 G0 Z15.
N190 X394.043 Y60.169
N195 Z5.
N200 G1 Z1. F333.33
N205 Z-4.7
N210 X394.036 Y60.167 Z-4.767
N215 X394.015 Y60.161 Z-4.83
N220 X393.981 Y60.15 Z-4.887
N225 X393.935 Y60.137 Z-4.935
N230 X393.881 Y60.12 Z-4.97
N235 X393.82 Y60.102 Z-4.992
N240 X393.756 Y60.082 Z-5.
N245 X393.469 Y59.995 F1000.
N250 G3 X393.27 Y59.621 I0.087 J-0.287
N255 G1 X395.905 Y50.96
N260 X395.983 Y50.709
N265 X396.063 Y50.45
N270 X396.141 Y50.199
N275 X396.219 Y49.951
N280 X396.301 Y49.701
N285 X396.381 Y49.454
N290 X396.463 Y49.211
N295 X396.546 Y48.968
N300 X396.631 Y48.729
N305 X396.718 Y48.491
N310 X396.808 Y48.253
N315 X396.901 Y48.014
N320 X396.996 Y47.772
N325 X397.092 Y47.534
N330 X397.188 Y47.302
N335 X397.282 Y47.084
N340 X397.375 Y46.883
N345 X397.474 Y46.688
N350 X397.58 Y46.493
N355 X397.696 Y46.295
N360 X397.813 Y46.106
N365 X397.927 Y45.937
N370 X398.044 Y45.779
N375 X398.174 Y45.621
N380 X398.313 Y45.464
N385 X398.453 Y45.319
N390 X398.581 Y45.198
N395 X398.707 Y45.096
N400 X398.846 Y44.998
N405 X399.001 Y44.903
N410 X399.172 Y44.811
N415 X399.358 Y44.721
N420 X399.553 Y44.635
N425 X399.749 Y44.557
N430 X399.944 Y44.489
N435 X400.15 Y44.426
N440 X400.377 Y44.364
N445 X401.755 Y44.012
N450 Y39.264
N455 X381.882
N460 Y42.847
N465 Y44.094
N470 X383.108 Y44.322
N475 X383.297 Y44.357
N480 X383.479 Y44.392
N485 X383.654 Y44.428
N490 X383.822 Y44.464
N495 X383.986 Y44.503
N500 X384.154 Y44.546
N505 X384.331 Y44.594
N510 X384.515 Y44.645
N515 X384.699 Y44.696
N520 X384.87 Y44.745
N525 X385.024 Y44.792
N530 X385.162 Y44.838
N535 X385.291 Y44.888
N540 X385.415 Y44.94
N545 X385.53 Y44.995
N550 X385.639 Y45.054
N555 X385.735 Y45.113
N560 X385.819 Y45.172
N565 X385.893 Y45.23
N570 X385.958 Y45.291
N575 X386.021 Y45.358
N580 X386.078 Y45.428
N585 X386.128 Y45.499
N590 X386.173 Y45.575
N595 X386.21 Y45.65
N600 X386.244 Y45.733
N605 X386.275 Y45.827
N610 X386.302 Y45.93
N615 X386.325 Y46.043
N620 X386.344 Y46.17
N625 X386.359 Y46.308
N630 X386.37 Y46.463
N635 X386.379 Y46.636
N640 X386.384 Y46.766
N645 X386.376 Y46.964
N650 X386.366 Y47.213
N655 X386.353 Y47.45
N660 X386.336 Y47.678
N665 X386.315 Y47.9
N670 X386.288 Y48.12
N675 X386.254 Y48.346
N680 X386.216 Y48.575
N685 X386.172 Y48.811
N690 X386.125 Y49.052
N695 X386.075 Y49.293
N700 X386.022 Y49.536
N705 X385.968 Y49.779
N710 X385.912 Y50.018
N715 X385.853 Y50.259
N720 X385.793 Y50.5
N725 X385.731 Y50.735
N730 X385.665 Y50.974
N735 X385.598 Y51.216
N740 X385.529 Y51.455
N745 X385.457 Y51.699
N750 X385.385 Y51.943
N755 X385.31 Y52.187
N760 X385.234 Y52.441
N765 X385.226 Y52.467
N770 X384.253 Y55.931
N775 X369.4
N780 X368.531 Y53.501
N785 X368.443 Y53.249
N790 X368.353 Y52.992
N795 X368.265 Y52.74
N800 X368.18 Y52.493
N805 X368.097 Y52.243
N810 X368.015 Y51.993
N815 X367.935 Y51.744
N820 X367.857 Y51.492
N825 X367.78 Y51.24
N830 X367.704 Y50.987
N835 X367.629 Y50.734
N840 X367.558 Y50.483
N845 X367.489 Y50.237
N850 X367.425 Y49.993
N855 X367.365 Y49.75
N860 X367.309 Y49.507
N865 X367.256 Y49.266
N870 X367.21 Y49.026
N875 X367.167 Y48.787
N880 X367.131 Y48.554
N885 X367.101 Y48.319
N890 X367.077 Y48.087
N895 X367.059 Y47.848
N900 X367.044 Y47.598
N905 X367.032 Y47.34
N910 X367.023 Y47.122
N915 X367.027 Y46.95
N920 X367.036 Y46.752
N925 X367.049 Y46.573
N930 X367.067 Y46.415
N935 X367.092 Y46.271
N940 X367.126 Y46.126
N945 X367.168 Y45.985
N950 X367.218 Y45.847
N955 X367.273 Y45.719
N960 X367.332 Y45.604
N965 X367.392 Y45.504
N970 X367.456 Y45.416
N975 X367.529 Y45.331
N980 X367.61 Y45.252
N985 X367.698 Y45.178
N990 X367.806 Y45.1
N995 X367.935 Y45.02
N1000 X368.074 Y44.941
N1005 X368.225 Y44.866
N1010 X368.382 Y44.796
N1015 X368.542 Y44.731
N1020 X368.71 Y44.672
N1025 X368.884 Y44.617
N1030 X369.064 Y44.566
N1035 X369.25 Y44.52
N1040 X369.441 Y44.478
N1045 X369.643 Y44.439
N1050 X369.852 Y44.401
N1055 X370.071 Y44.365
N1060 X371.557 Y44.124
N1065 Y39.264
N1070 X352.921
N1075 Y42.847
N1080 Y44.062
N1085 X354.109 Y44.314
N1090 X354.438 Y44.385
N1095 X354.716 Y44.453
N1100 X354.951 Y44.527
N1105 X355.167 Y44.617
N1110 X355.384 Y44.728
N1115 X355.604 Y44.862
N1120 X355.82 Y45.014
N1125 X356.03 Y45.183
N1130 X356.235 Y45.367
N1135 X356.436 Y45.569
N1140 X356.634 Y45.787
N1145 X356.827 Y46.017
N1150 X357.014 Y46.259
N1155 X357.195 Y46.511
N1160 X357.37 Y46.771
N1165 X357.539 Y47.038
N1170 X357.701 Y47.313
N1175 X357.861 Y47.599
N1180 X358.02 Y47.895
N1185 X358.176 Y48.197
N1190 X358.331 Y48.504
N1195 X358.48 Y48.811
N1200 X358.625 Y49.115
N1205 X358.763 Y49.422
N1210 X358.899 Y49.732
N1215 X359.03 Y50.045
N1220 X359.159 Y50.363
N1225 X359.287 Y50.687
N1230 X359.415 Y51.016
N1235 X359.541 Y51.345
N1240 X374.817 Y91.986
N1245 X375.182 Y92.958
N1250 X383.127
N1255 X393.27 Y59.621
N1260 G3 X393.644 Y59.421 I0.287 J0.087
N1265 G1 X393.931 Y59.508
N1270 X393.995 Y59.528 Z-4.992
N1275 X394.056 Y59.546 Z-4.97
N1280 X394.11 Y59.563 Z-4.935
N1285 X394.155 Y59.576 Z-4.887
N1290 X394.19 Y59.587 Z-4.83
N1295 X394.211 Y59.593 Z-4.767
N1300 X394.218 Y59.595 Z-4.7
N1305 G0 Z5.
N1310 X417.299 Y63.029
N1315 G1 Z1. F333.33
N1320 Z-4.7
N1325 G18 G2 X417.599 Z-5. I0.3 K0.
N1330 G1 X417.899 F1000.
N1335 G17 G3 X418.199 Y63.329 I0. J0.3
N1340 G1 Y85.792
N1345 X414.935
N1350 X414.642 Y85.788
N1355 X414.356 Y85.781
N1360 X414.083 Y85.768
N1365 X413.81 Y85.748
N1370 X413.529 Y85.721
N1375 X413.252 Y85.69
N1380 X412.996 Y85.654
N1385 X412.763 Y85.611
N1390 X412.544 Y85.559
N1395 X412.336 Y85.495
N1400 X412.145 Y85.423
N1405 X411.964 Y85.338
N1410 X411.78 Y85.235
N1415 X411.591 Y85.114
N1420 X411.414 Y84.986
N1425 X411.251 Y84.851
N1430 X411.092 Y84.7
N1435 X410.931 Y84.529
N1440 X410.77 Y84.343
N1445 X410.62 Y84.153
N1450 X410.48 Y83.955
N1455 X410.34 Y83.741
N1460 X410.2 Y83.51
N1465 X410.06 Y83.269
N1470 X409.928 Y83.027
N1475 X409.8 Y82.781
N1480 X409.679 Y82.533
N1485 X409.562 Y82.28
N1490 X409.449 Y82.022
N1495 X409.341 Y81.761
N1500 X409.235 Y81.494
N1505 X409.133 Y81.224
N1510 X409.035 Y80.949
N1515 X408.938 Y80.672
N1520 X408.845 Y80.395
N1525 X408.754 Y80.113
N1530 X408.668 Y79.835
N1535 X408.584 Y79.552
N1540 X408.501 Y79.263
N1545 X408.42 Y78.976
N1550 X408.342 Y78.686
N1555 X408.264 Y78.392
N1560 X408.188 Y78.099
N1565 X408.111 Y77.8
N1570 X408.035 Y77.501
N1575 X407.674 Y76.07
N1580 X401.533
N1585 Y92.264
N1590 X444.81
N1595 Y77.57
N1600 Y76.07
N1605 X439.838
N1610 X438.681
N1615 X438.387 Y77.189
N1620 X438.302 Y77.512
N1625 X438.215 Y77.835
N1630 X438.129 Y78.155
N1635 X438.041 Y78.473
N1640 X437.952 Y78.788
N1645 X437.86 Y79.1
N1650 X437.765 Y79.413
N1655 X437.667 Y79.728
N1660 X437.568 Y80.042
N1665 X437.466 Y80.353
N1670 X437.365 Y80.659
N1675 X437.261 Y80.955
N1680 X437.152 Y81.248
N1685 X437.039 Y81.539
N1690 X436.92 Y81.826
N1695 X436.796 Y82.113
N1700 X436.666 Y82.399
N1705 X436.534 Y82.679
N1710 X436.397 Y82.952
N1715 X436.257 Y83.215
N1720 X436.117 Y83.46
N1725 X435.971 Y83.692
N1730 X435.811 Y83.922
N1735 X435.642 Y84.148
N1740 X435.47 Y84.36
N1745 X435.296 Y84.555
N1750 X435.115 Y84.736
N1755 X434.927 Y84.905
N1760 X434.735 Y85.057
N1765 X434.535 Y85.195
N1770 X434.332 Y85.317
N1775 X434.126 Y85.421
N1780 X433.918 Y85.508
N1785 X433.703 Y85.578
N1790 X433.474 Y85.635
N1795 X433.22 Y85.682
N1800 X432.941 Y85.72
N1805 X432.653 Y85.749
N1810 X432.361 Y85.77
N1815 X432.061 Y85.782
N1820 X431.746 Y85.789
N1825 X431.422 Y85.792
N1830 X428.144
N1835 Y50.229
N1840 X428.145 Y49.968
N1845 X428.147 Y49.708
N1850 X428.15 Y49.453
N1855 X428.155 Y49.204
N1860 X428.164 Y48.958
N1865 X428.176 Y48.715
N1870 X428.191 Y48.469
N1875 X428.21 Y48.224
N1880 X428.232 Y47.981
N1885 X428.257 Y47.739
N1890 X428.286 Y47.501
N1895 X428.318 Y47.274
N1900 X428.355 Y47.057
N1905 X428.398 Y46.847
N1910 X428.448 Y46.644
N1915 X428.505 Y46.444
N1920 X428.567 Y46.252
N1925 X428.636 Y46.072
N1930 X428.709 Y45.908
N1935 X428.782 Y45.767
N1940 X428.858 Y45.646
N1945 X428.94 Y45.536
N1950 X429.039 Y45.426
N1955 X429.149 Y45.32
N1960 X429.268 Y45.221
N1965 X429.399 Y45.129
N1970 X429.534 Y45.047
N1975 X429.679 Y44.972
N1980 X429.849 Y44.899
N1985 X430.045 Y44.823
N1990 X430.254 Y44.751
N1995 X430.47 Y44.683
N2000 X430.694 Y44.618
N2005 X430.928 Y44.555
N2010 X431.173 Y44.492
N2015 X431.425 Y44.43
N2020 X431.678 Y44.367
N2025 X433.081 Y44.027
N2030 Y39.264
N2035 X413.262
N2040 Y42.847
N2045 Y44.028
N2050 X414.41 Y44.305
N2055 X414.666 Y44.367
N2060 X414.914 Y44.428
N2065 X415.158 Y44.49
N2070 X415.394 Y44.554
N2075 X415.625 Y44.619
N2080 X415.85 Y44.688
N2085 X416.07 Y44.761
N2090 X416.282 Y44.837
N2095 X416.482 Y44.915
N2100 X416.665 Y44.995
N2105 X416.832 Y45.078
N2110 X416.98 Y45.162
N2115 X417.104 Y45.245
N2120 X417.211 Y45.331
N2125 X417.312 Y45.427
N2130 X417.409 Y45.536
N2135 X417.499 Y45.655
N2140 X417.58 Y45.782
N2145 X417.653 Y45.918
N2150 X417.722 Y46.07
N2155 X417.786 Y46.24
N2160 X417.845 Y46.427
N2165 X417.899 Y46.625
N2170 X417.947 Y46.831
N2175 X417.99 Y47.05
N2180 X418.028 Y47.275
N2185 X418.061 Y47.502
N2190 X418.089 Y47.735
N2195 X418.113 Y47.972
N2200 X418.133 Y48.214
N2205 X418.151 Y48.463
N2210 X418.166 Y48.712
N2215 X418.178 Y48.96
N2220 X418.188 Y49.207
N2225 X418.193 Y49.456
N2230 X418.197 Y49.71
N2235 X418.199 Y49.965
N2240 Y63.329
N2245 G3 X417.899 Y63.629 I-0.3 J0.
N2250 G1 X417.599
N2255 G18 G3 X417.299 Z-4.7 I0. K0.3
N2260 G0 Z5.
N2265 X452.021 Y53.166
N2270 G1 Z1. F333.33
N2275 Z-4.7
N2280 G2 X452.321 Z-5. I0.3 K0.
N2285 G1 X452.621 F1000.
N2290 G17 G3 X452.921 Y53.466 I0. J0.3
N2295 G1 Y81.408
N2300 X452.92 Y81.654
N2305 X452.918 Y81.903
N2310 X452.916 Y82.152
N2315 X452.913 Y82.398
N2320 X452.909 Y82.645
N2325 X452.904 Y82.885
N2330 X452.897 Y83.122
N2335 X452.888 Y83.353
N2340 X452.874 Y83.584
N2345 X452.858 Y83.818
N2350 X452.839 Y84.048
N2355 X452.816 Y84.284
N2360 X452.792 Y84.517
N2365 X452.767 Y84.732
N2370 X452.736 Y84.931
N2375 X452.7 Y85.122
N2380 X452.658 Y85.303
N2385 X452.609 Y85.475
N2390 X452.554 Y85.637
N2395 X452.497 Y85.779
N2400 X452.435 Y85.904
N2405 X452.37 Y86.013
N2410 X452.301 Y86.109
N2415 X452.22 Y86.202
N2420 X452.13 Y86.29
N2425 X452.029 Y86.372
N2430 X451.918 Y86.449
N2435 X451.796 Y86.521
N2440 X451.65 Y86.593
N2445 X451.475 Y86.669
N2450 X451.279 Y86.747
N2455 X451.076 Y86.823
N2460 X450.867 Y86.895
N2465 X450.65 Y86.965
N2470 X450.427 Y87.034
N2475 X450.198 Y87.102
N2480 X449.964 Y87.17
N2485 X448.635 Y87.548
N2490 Y92.264
N2495 X467.152
N2500 Y88.681
N2505 Y87.505
N2510 X466.011 Y87.224
N2515 X465.795 Y87.171
N2520 X465.591 Y87.119
N2525 X465.399 Y87.067
N2530 X465.21 Y87.011
N2535 X465.016 Y86.949
N2540 X464.813 Y86.882
N2545 X464.614 Y86.814
N2550 X464.44 Y86.752
N2555 X464.298 Y86.694
N2560 X464.17 Y86.633
N2565 X464.045 Y86.564
N2570 X463.923 Y86.488
N2575 X463.805 Y86.404
N2580 X463.691 Y86.315
N2585 X463.592 Y86.227
N2590 X463.511 Y86.143
N2595 X463.45 Y86.069
N2600 X463.4 Y85.996
N2605 X463.346 Y85.899
N2610 X463.291 Y85.781
N2615 X463.241 Y85.654
N2620 X463.193 Y85.509
N2625 X463.147 Y85.345
N2630 X463.105 Y85.172
N2635 X463.067 Y84.992
N2640 X463.034 Y84.81
N2645 X463.006 Y84.627
N2650 X462.983 Y84.44
N2655 X462.964 Y84.245
N2660 X462.948 Y84.044
N2665 X462.936 Y83.835
N2670 X462.924 Y83.614
N2675 X462.912 Y83.389
N2680 X462.901 Y83.164
N2685 X462.891 Y82.943
N2690 X462.882 Y82.728
N2695 X462.875 Y82.513
N2700 X462.871 Y82.298
N2705 X462.868 Y82.083
N2710 X462.867 Y81.861
N2715 X462.866 Y81.636
N2720 Y50.12
N2725 X462.867 Y49.871
N2730 X462.868 Y49.621
N2735 X462.87 Y49.377
N2740 X462.874 Y49.137
N2745 X462.879 Y48.896
N2750 X462.887 Y48.653
N2755 X462.905 Y48.154
N2760 X462.915 Y47.91
N2765 X462.926 Y47.673
N2770 X462.939 Y47.448
N2775 X462.957 Y47.235
N2780 X462.981 Y47.022
N2785 X463.01 Y46.807
N2790 X463.043 Y46.6
N2795 X463.082 Y46.402
N2800 X463.126 Y46.209
N2805 X463.175 Y46.027
N2810 X463.228 Y45.865
N2815 X463.283 Y45.725
N2820 X463.339 Y45.609
N2825 X463.398 Y45.511
N2830 X463.466 Y45.419
N2835 X463.545 Y45.329
N2840 X463.638 Y45.241
N2845 X463.744 Y45.156
N2850 X463.863 Y45.074
N2855 X463.997 Y44.995
N2860 X464.148 Y44.918
N2865 X464.316 Y44.842
N2870 X464.502 Y44.768
N2875 X464.705 Y44.693
N2880 X464.916 Y44.62
N2885 X465.129 Y44.551
N2890 X465.343 Y44.486
N2895 X465.564 Y44.423
N2900 X465.794 Y44.361
N2905 X467.152 Y44.004
N2910 Y39.264
N2915 X448.635
N2920 Y42.847
N2925 Y44.003
N2930 X449.753 Y44.298
N2935 X449.993 Y44.361
N2940 X450.225 Y44.424
N2945 X450.448 Y44.487
N2950 X450.664 Y44.551
N2955 X450.872 Y44.618
N2960 X451.075 Y44.69
N2965 X451.276 Y44.766
N2970 X451.471 Y44.845
N2975 X451.652 Y44.926
N2980 X451.813 Y45.005
N2985 X451.953 Y45.085
N2990 X452.065 Y45.158
N2995 X452.147 Y45.224
N3000 X452.22 Y45.296
N3005 X452.301 Y45.393
N3010 X452.383 Y45.508
N3015 X452.453 Y45.624
N3020 X452.515 Y45.745
N3025 X452.568 Y45.875
N3030 X452.617 Y46.023
N3035 X452.662 Y46.193
N3040 X452.702 Y46.378
N3045 X452.738 Y46.579
N3050 X452.77 Y46.791
N3055 X452.797 Y47.009
N3060 X452.821 Y47.233
N3065 X452.841 Y47.461
N3070 X452.859 Y47.695
N3075 X452.873 Y47.93
N3080 X452.886 Y48.167
N3085 X452.896 Y48.408
N3090 X452.905 Y48.649
N3095 X452.911 Y48.886
N3100 X452.915 Y49.127
N3105 X452.918 Y49.374
N3110 X452.92 Y49.621
N3115 X452.921 Y49.867
N3120 Y53.466
N3125 G3 X452.621 Y53.766 I-0.3 J0.
N3130 G1 X452.321
N3135 G18 G3 X452.021 Z-4.7 I0. K0.3
N3140 G0 Z5.
N3145 X473.728 Y51.057
N3150 G1 Z1. F333.33
N3155 Z-4.7
N3160 X473.735 Y51.06 Z-4.767
N3165 X473.756 Y51.067 Z-4.83
N3170 X473.789 Y51.08 Z-4.887
N3175 X473.834 Y51.096 Z-4.935
N3180 X473.887 Y51.115 Z-4.97
N3185 X473.947 Y51.137 Z-4.992
N3190 X474.01 Y51.159 Z-5.
N3195 X474.292 Y51.261 F1000.
N3200 G17 G3 X474.472 Y51.646 I-0.102 J0.282
N3205 G1 X474.244 Y52.277
N3210 X474.229 Y52.318
N3215 X473.98 Y53.075
N3220 X473.967 Y53.116
N3225 X473.74 Y53.879
N3230 X473.729 Y53.919
N3235 X473.523 Y54.688
N3240 X473.513 Y54.727
N3245 X473.328 Y55.502
N3250 X473.319 Y55.541
N3255 X473.155 Y56.32
N3260 X473.148 Y56.358
N3265 X473.004 Y57.141
N3270 X472.998 Y57.175
N3275 X472.872 Y57.961
N3280 X472.867 Y57.993
N3285 X472.758 Y58.782
N3290 X472.755 Y58.808
N3295 X472.66 Y59.599
N3300 X472.657 Y59.625
N3305 X472.576 Y60.418
N3310 X472.573 Y60.446
N3315 X472.507 Y61.239
N3320 X472.505 Y61.267
N3325 X472.454 Y62.062
N3330 X472.452 Y62.092
N3335 X472.417 Y62.887
N3340 Y62.91
N3345 X472.394 Y63.705
N3350 X472.393 Y63.718
N3355 X472.377 Y64.514
N3360 X472.366 Y65.32
N3365 Y65.361
N3370 X472.374 Y65.967
N3375 X472.386 Y66.584
N3380 X472.403 Y67.2
N3385 Y67.223
N3390 X472.428 Y67.829
N3395 X472.429 Y67.851
N3400 X472.463 Y68.457
N3405 X472.465 Y68.477
N3410 X472.507 Y69.082
N3415 X472.508 Y69.102
N3420 X472.558 Y69.707
N3425 X472.56 Y69.729
N3430 X472.619 Y70.333
N3435 X472.621 Y70.35
N3440 X472.687 Y70.953
N3445 X472.689 Y70.976
N3450 X472.764 Y71.578
N3455 X472.767 Y71.598
N3460 X472.85 Y72.199
N3465 X472.854 Y72.226
N3470 X472.948 Y72.826
N3475 X472.953 Y72.855
N3480 X473.059 Y73.453
N3485 X473.065 Y73.482
N3490 X473.183 Y74.078
N3495 X473.188 Y74.105
N3500 X473.317 Y74.698
N3505 X473.323 Y74.723
N3510 X473.462 Y75.313
N3515 X473.468 Y75.338
N3520 X473.617 Y75.926
N3525 X473.623 Y75.951
N3530 X473.782 Y76.537
N3535 X473.791 Y76.569
N3540 X473.963 Y77.151
N3545 X473.973 Y77.181
N3550 X474.157 Y77.759
N3555 X474.167 Y77.791
N3560 X474.364 Y78.365
N3565 X474.377 Y78.402
N3570 X474.589 Y78.971
N3575 X474.601 Y79.001
N3580 X474.825 Y79.564
N3585 X474.839 Y79.599
N3590 X475.077 Y80.157
N3595 X475.09 Y80.187
N3600 X475.34 Y80.74
N3605 X475.356 Y80.774
N3610 X475.62 Y81.321
N3615 X475.639 Y81.358
N3620 X475.918 Y81.897
N3625 X475.935 Y81.929
N3630 X476.227 Y82.461
N3635 X476.246 Y82.495
N3640 X476.552 Y83.02
N3645 X476.57 Y83.05
N3650 X476.888 Y83.567
N3655 X476.909 Y83.599
N3660 X477.24 Y84.108
N3665 X477.268 Y84.148
N3670 X477.616 Y84.646
N3675 X477.643 Y84.684
N3680 X478.006 Y85.17
N3685 X478.036 Y85.21
N3690 X478.415 Y85.684
N3695 X478.448 Y85.723
N3700 X478.843 Y86.184
N3705 X478.874 Y86.219
N3710 X479.283 Y86.667
N3715 X479.317 Y86.703
N3720 X479.741 Y87.138
N3725 X479.775 Y87.171
N3730 X480.212 Y87.592
N3735 X480.249 Y87.626
N3740 X480.7 Y88.032
N3745 X480.738 Y88.065
N3750 X481.203 Y88.456
N3755 X481.24 Y88.486
N3760 X481.717 Y88.862
N3765 X481.757 Y88.892
N3770 X482.246 Y89.251
N3775 X482.291 Y89.283
N3780 X482.793 Y89.624
N3785 X482.842 Y89.656
N3790 X483.357 Y89.977
N3795 X483.399 Y90.003
N3800 X483.924 Y90.307
N3805 X483.961 Y90.328
N3810 X484.495 Y90.617
N3815 X484.533 Y90.637
N3820 X485.074 Y90.911
N3825 X485.125 Y90.936
N3830 X485.677 Y91.189
N3835 X485.729 Y91.211
N3840 X486.289 Y91.443
N3845 X486.337 Y91.462
N3850 X486.906 Y91.675
N3855 X486.946 Y91.69
N3860 X487.52 Y91.886
N3865 X487.563 Y91.9
N3870 X488.143 Y92.079
N3875 X488.189 Y92.093
N3880 X488.774 Y92.253
N3885 X488.821 Y92.265
N3890 X489.411 Y92.407
N3895 X489.46 Y92.418
N3900 X490.055 Y92.54
N3905 X490.1 Y92.548
N3910 X490.698 Y92.652
N3915 X490.736 Y92.658
N3920 X491.336 Y92.746
N3925 X491.369 Y92.75
N3930 X491.972 Y92.825
N3935 X492.014 Y92.83
N3940 X492.618 Y92.888
N3945 X492.67 Y92.892
N3950 X493.275 Y92.929
N3955 X493.321 Y92.931
N3960 X493.928 Y92.949
N3965 X493.951
N3970 X494.558 Y92.958
N3975 X494.601
N3980 X495.193 Y92.95
N3985 X495.21
N3990 X495.802 Y92.935
N3995 X495.837 Y92.933
N4000 X496.428 Y92.904
N4005 X496.472 Y92.902
N4010 X497.062 Y92.856
N4015 X497.098 Y92.852
N4020 X497.686 Y92.792
N4025 X497.712 Y92.789
N4030 X498.3 Y92.718
N4035 X498.328 Y92.715
N4040 X498.915 Y92.633
N4045 X498.953 Y92.627
N4050 X499.536 Y92.53
N4055 X499.581 Y92.522
N4060 X500.162 Y92.408
N4065 X500.209 Y92.398
N4070 X500.786 Y92.265
N4075 X500.833 Y92.253
N4080 X501.405 Y92.102
N4085 X501.452 Y92.088
N4090 X502.019 Y91.918
N4095 X502.065 Y91.904
N4100 X502.626 Y91.716
N4105 X502.669 Y91.701
N4110 X503.225 Y91.495
N4115 X503.268 Y91.478
N4120 X503.816 Y91.256
N4125 X503.858 Y91.239
N4130 X504.4 Y91.
N4135 X504.446 Y90.979
N4140 X504.979 Y90.722
N4145 X505.027 Y90.698
N4150 X505.551 Y90.422
N4155 X505.6 Y90.395
N4160 X506.113 Y90.1
N4165 X506.158 Y90.073
N4170 X506.661 Y89.76
N4175 X506.705 Y89.731
N4180 X507.196 Y89.401
N4185 X507.243 Y89.368
N4190 X507.721 Y89.019
N4195 X507.769 Y88.983
N4200 X508.233 Y88.615
N4205 X508.276 Y88.579
N4210 X508.726 Y88.194
N4215 X508.767 Y88.158
N4220 X509.202 Y87.757
N4225 X509.238 Y87.723
N4230 X509.66 Y87.307
N4235 X509.697 Y87.27
N4240 X510.104 Y86.84
N4245 X510.139 Y86.801
N4250 X510.531 Y86.358
N4255 X510.568 Y86.315
N4260 X510.943 Y85.857
N4265 X510.978 Y85.812
N4270 X511.335 Y85.34
N4275 X511.363 Y85.301
N4280 X511.705 Y84.818
N4285 X511.728 Y84.785
N4290 X512.057 Y84.293
N4295 X512.082 Y84.255
N4300 X512.396 Y83.753
N4305 X512.423 Y83.707
N4310 X512.719 Y83.195
N4315 X512.745 Y83.147
N4320 X513.022 Y82.624
N4325 X513.04 Y82.591
N4330 X513.304 Y82.06
N4335 X513.319 Y82.028
N4340 X513.57 Y81.492
N4345 X513.585 Y81.459
N4350 X513.823 Y80.917
N4355 X513.84 Y80.877
N4360 X514.062 Y80.328
N4365 X514.076 Y80.292
N4370 X514.284 Y79.738
N4375 X514.297 Y79.703
N4380 X514.491 Y79.144
N4385 X514.501 Y79.116
N4390 X514.684 Y78.553
N4395 X514.692 Y78.525
N4400 X514.864 Y77.959
N4405 X514.872 Y77.933
N4410 X515.034 Y77.364
N4415 X515.041 Y77.339
N4420 X515.193 Y76.767
N4425 X515.2 Y76.736
N4430 X515.34 Y76.161
N4435 X515.348 Y76.131
N4440 X515.476 Y75.553
N4445 X515.483 Y75.517
N4450 X515.597 Y74.937
N4455 X515.602 Y74.911
N4460 X515.706 Y74.328
N4465 X515.71 Y74.303
N4470 X515.804 Y73.719
N4475 X515.807 Y73.698
N4480 X515.893 Y73.113
N4485 X515.896 Y73.093
N4490 X515.974 Y72.506
N4495 X515.977 Y72.486
N4500 X516.046 Y71.898
N4505 X516.048 Y71.88
N4510 X516.111 Y71.292
N4515 X516.114 Y71.271
N4520 X516.169 Y70.682
N4525 X516.17 Y70.662
N4530 X516.217 Y70.072
N4535 X516.219 Y70.051
N4540 X516.258 Y69.461
N4545 X516.259 Y69.438
N4550 X516.289 Y68.847
N4555 X516.29 Y68.824
N4560 X516.311 Y68.233
N4565 X516.312 Y68.212
N4570 X516.325 Y67.621
N4575 Y67.608
N4580 X516.333 Y67.016
N4585 X516.338 Y66.417
N4590 Y66.385
N4595 X516.33 Y65.769
N4600 X516.319 Y65.146
N4605 X516.318 Y65.134
N4610 X516.302 Y64.519
N4615 Y64.504
N4620 X516.28 Y63.889
N4625 X516.279 Y63.867
N4630 X516.248 Y63.252
N4635 X516.247 Y63.23
N4640 X516.207 Y62.616
N4645 X516.205 Y62.594
N4650 X516.156 Y61.98
N4655 X516.154 Y61.958
N4660 X516.096 Y61.345
N4665 X516.094 Y61.323
N4670 X516.027 Y60.711
N4675 X516.025 Y60.692
N4680 X515.95 Y60.081
N4685 X515.947 Y60.059
N4690 X515.863 Y59.449
N4695 X515.86 Y59.427
N4700 X515.767 Y58.818
N4705 X515.763 Y58.794
N4710 X515.66 Y58.187
N4715 X515.655 Y58.16
N4720 X515.541 Y57.555
N4725 X515.535 Y57.526
N4730 X515.409 Y56.923
N4735 X515.403 Y56.894
N4740 X515.265 Y56.294
N4745 X515.258 Y56.265
N4750 X515.108 Y55.668
N4755 X515.1 Y55.638
N4760 X514.938 Y55.045
N4765 X514.93 Y55.015
N4770 X514.756 Y54.425
N4775 X514.747 Y54.396
N4780 X514.561 Y53.809
N4785 X514.551 Y53.779
N4790 X514.353 Y53.196
N4795 X514.342 Y53.165
N4800 X514.131 Y52.586
N4805 X514.119 Y52.555
N4810 X513.895 Y51.981
N4815 X513.881 Y51.947
N4820 X513.643 Y51.379
N4825 X513.628 Y51.343
N4830 X513.375 Y50.781
N4835 X513.36 Y50.749
N4840 X513.094 Y50.194
N4845 X513.078 Y50.163
N4850 X512.799 Y49.614
N4855 X512.783 Y49.582
N4860 X512.491 Y49.04
N4865 X512.47 Y49.003
N4870 X512.163 Y48.47
N4875 X512.138 Y48.428
N4880 X511.814 Y47.905
N4885 X511.788 Y47.864
N4890 X511.447 Y47.351
N4895 X511.424 Y47.317
N4900 X511.069 Y46.814
N4905 X511.045 Y46.781
N4910 X510.677 Y46.288
N4915 X510.648 Y46.25
N4920 X510.264 Y45.768
N4925 X510.231 Y45.729
N4930 X509.831 Y45.261
N4935 X509.795 Y45.22
N4940 X509.378 Y44.767
N4945 X509.343 Y44.73
N4950 X508.911 Y44.291
N4955 X508.872 Y44.254
N4960 X508.424 Y43.831
N4965 X508.385 Y43.795
N4970 X507.923 Y43.389
N4975 X507.881 Y43.353
N4980 X507.404 Y42.963
N4985 X507.361 Y42.93
N4990 X506.87 Y42.558
N4995 X506.829 Y42.527
N5000 X506.326 Y42.172
N5005 X506.283 Y42.143
N5010 X505.768 Y41.806
N5015 X505.725 Y41.778
N5020 X505.199 Y41.459
N5025 X505.155 Y41.433
N5030 X504.618 Y41.131
N5035 X504.574 Y41.108
N5040 X504.028 Y40.824
N5045 X503.982 Y40.801
N5050 X503.426 Y40.536
N5055 X503.379 Y40.515
N5060 X502.814 Y40.269
N5065 X502.768 Y40.25
N5070 X502.196 Y40.024
N5075 X502.15 Y40.006
N5080 X501.569 Y39.798
N5085 X501.526 Y39.783
N5090 X500.94 Y39.594
N5095 X500.898 Y39.581
N5100 X500.307 Y39.409
N5105 X500.265 Y39.397
N5110 X499.669 Y39.242
N5115 X499.626 Y39.232
N5120 X499.026 Y39.094
N5125 X498.979 Y39.084
N5130 X498.375 Y38.966
N5135 X498.329 Y38.958
N5140 X497.722 Y38.858
N5145 X497.683 Y38.852
N5150 X497.072 Y38.769
N5155 X497.039 Y38.765
N5160 X496.428 Y38.695
N5165 X496.389 Y38.691
N5170 X495.775 Y38.638
N5175 X495.728 Y38.634
N5180 X495.114 Y38.6
N5185 X495.074 Y38.598
N5190 X494.458 Y38.58
N5195 X494.438 Y38.579
N5200 X493.823 Y38.57
N5205 X493.766
N5210 X492.969 Y38.587
N5215 X492.944 Y38.588
N5220 X492.15 Y38.618
N5225 X492.1 Y38.621
N5230 X491.306 Y38.678
N5235 X491.242 Y38.684
N5240 X490.452 Y38.774
N5245 X490.397 Y38.782
N5250 X489.61 Y38.901
N5255 X489.565 Y38.909
N5260 X488.781 Y39.052
N5265 X488.735 Y39.061
N5270 X487.957 Y39.229
N5275 X487.9 Y39.243
N5280 X487.129 Y39.44
N5285 X487.065 Y39.458
N5290 X486.303 Y39.691
N5295 X486.24 Y39.711
N5300 X485.489 Y39.977
N5305 X485.429 Y40.
N5310 X484.69 Y40.297
N5315 X484.629 Y40.323
N5320 X483.904 Y40.653
N5325 X483.837 Y40.685
N5330 X483.13 Y41.05
N5335 X483.062 Y41.087
N5340 X482.374 Y41.489
N5345 X482.306 Y41.531
N5350 X481.64 Y41.968
N5355 X481.576 Y42.013
N5360 X480.934 Y42.484
N5365 X480.874 Y42.531
N5370 X480.257 Y43.034
N5375 X480.202 Y43.082
N5380 X479.61 Y43.614
N5385 X479.559 Y43.662
N5390 X478.992 Y44.221
N5395 X478.942 Y44.273
N5400 X478.403 Y44.859
N5405 X478.358 Y44.911
N5410 X477.846 Y45.521
N5415 X477.801 Y45.577
N5420 X477.319 Y46.211
N5425 X477.278 Y46.268
N5430 X476.826 Y46.923
N5435 X476.789 Y46.98
N5440 X476.367 Y47.655
N5445 X476.334 Y47.71
N5450 X475.941 Y48.402
N5455 X475.915 Y48.451
N5460 X475.548 Y49.158
N5465 X475.524 Y49.205
N5470 X475.182 Y49.924
N5475 X475.162 Y49.969
N5480 X474.844 Y50.7
N5485 X474.825 Y50.745
N5490 X474.531 Y51.485
N5495 X474.515 Y51.528
N5500 X474.472 Y51.646
N5505 G3 X474.088 Y51.826 I-0.282 J-0.102
N5510 G1 X473.806 Y51.724
N5515 X473.743 Y51.701 Z-4.992
N5520 X473.683 Y51.679 Z-4.97
N5525 X473.63 Y51.66 Z-4.935
N5530 X473.585 Y51.644 Z-4.887
N5535 X473.552 Y51.632 Z-4.83
N5540 X473.531 Y51.624 Z-4.767
N5545 X473.524 Y51.621 Z-4.7
N5550 G0 Z5.
N5555 X504.793 Y65.909
N5560 G1 Z1. F333.33
N5565 Z-4.7
N5570 X504.801 Z-4.767
N5575 X504.823 Y65.91 Z-4.83
N5580 X504.858 Z-4.887
N5585 X504.906 Y65.911 Z-4.935
N5590 X504.963 Z-4.97
N5595 X505.026 Y65.912 Z-4.992
N5600 X505.093 Z-5.
N5605 X505.393 Y65.916 F1000.
N5610 G3 X505.69 Y66.219 I-0.003 J0.3
N5615 G1 X505.689 Y66.278
N5620 X505.68 Y66.737
N5625 X505.664 Y67.197
N5630 X505.645 Y67.658
N5635 X505.62 Y68.121
N5640 X505.593 Y68.587
N5645 X505.563 Y69.052
N5650 X505.529 Y69.517
N5655 X505.493 Y69.984
N5660 X505.455 Y70.449
N5665 X505.413 Y70.909
N5670 X505.367 Y71.365
N5675 X505.315 Y71.816
N5680 X505.256 Y72.266
N5685 X505.191 Y72.719
N5690 X505.12 Y73.172
N5695 X505.044 Y73.628
N5700 X504.964 Y74.082
N5705 X504.88 Y74.531
N5710 X504.79 Y74.977
N5715 X504.694 Y75.419
N5720 X504.591 Y75.857
N5725 X504.48 Y76.293
N5730 X504.362 Y76.729
N5735 X504.237 Y77.16
N5740 X504.105 Y77.587
N5745 X503.963 Y78.015
N5750 X503.814 Y78.444
N5755 X503.658 Y78.873
N5760 X503.499 Y79.294
N5765 X503.335 Y79.701
N5770 X503.162 Y80.098
N5775 X502.976 Y80.492
N5780 X502.779 Y80.885
N5785 X502.574 Y81.271
N5790 X502.36 Y81.647
N5795 X502.137 Y82.013
N5800 X501.9 Y82.376
N5805 X501.653 Y82.733
N5810 X501.405 Y83.07
N5815 X501.152 Y83.382
N5820 X500.882 Y83.681
N5825 X500.594 Y83.973
N5830 X500.292 Y84.254
N5835 X499.984 Y84.516
N5840 X499.663 Y84.763
N5845 X499.326 Y84.999
N5850 X498.978 Y85.221
N5855 X498.622 Y85.427
N5860 X498.259 Y85.618
N5865 X497.892 Y85.79
N5870 X497.529 Y85.939
N5875 X497.161 Y86.063
N5880 X496.773 Y86.171
N5885 X496.365 Y86.267
N5890 X495.95 Y86.348
N5895 X495.544 Y86.413
N5900 X495.15 Y86.456
N5905 X494.742 Y86.478
N5910 X494.333 Y86.486
N5915 X493.78 Y86.464
N5920 X493.217 Y86.43
N5925 X492.683 Y86.374
N5930 X492.163 Y86.29
N5935 X491.652 Y86.175
N5940 X491.15 Y86.03
N5945 X490.663 Y85.855
N5950 X490.19 Y85.651
N5955 X489.732 Y85.415
N5960 X489.288 Y85.149
N5965 X488.857 Y84.852
N5970 X488.442 Y84.528
N5975 X488.041 Y84.178
N5980 X487.656 Y83.803
N5985 X487.287 Y83.407
N5990 X486.937 Y82.994
N5995 X486.61 Y82.567
N6000 X486.304 Y82.123
N6005 X486.016 Y81.657
N6010 X485.743 Y81.174
N6015 X485.487 Y80.678
N6020 X485.247 Y80.17
N6025 X485.024 Y79.652
N6030 X484.817 Y79.124
N6035 X484.622 Y78.584
N6040 X484.441 Y78.038
N6045 X484.274 Y77.49
N6050 X484.123 Y76.936
N6055 X483.985 Y76.379
N6060 X483.862 Y75.815
N6065 X483.75 Y75.242
N6070 X483.647 Y74.662
N6075 X483.553 Y74.079
N6080 X483.467 Y73.494
N6085 X483.389 Y72.906
N6090 X483.32 Y72.317
N6095 X483.258 Y71.725
N6100 X483.202 Y71.13
N6105 X483.153 Y70.536
N6110 X483.111 Y69.942
N6115 X483.076 Y69.348
N6120 X483.049 Y68.756
N6125 X483.031 Y68.163
N6130 X483.019 Y67.563
N6135 X483.011 Y66.957
N6140 X483.005 Y66.363
N6145 X483.013 Y65.74
N6150 X483.022 Y65.105
N6155 X483.035 Y64.476
N6160 X483.053 Y63.85
N6165 X483.077 Y63.226
N6170 X483.11 Y62.603
N6175 X483.148 Y61.981
N6180 X483.195 Y61.361
N6185 X483.249 Y60.743
N6190 X483.312 Y60.125
N6195 X483.383 Y59.509
N6200 X483.463 Y58.898
N6205 X483.552 Y58.288
N6210 X483.652 Y57.679
N6215 X483.761 Y57.073
N6220 X483.881 Y56.47
N6225 X484.01 Y55.871
N6230 X484.151 Y55.277
N6235 X484.303 Y54.69
N6240 X484.469 Y54.11
N6245 X484.649 Y53.536
N6250 X484.844 Y52.97
N6255 X485.054 Y52.412
N6260 X485.28 Y51.861
N6265 X485.523 Y51.319
N6270 X485.782 Y50.787
N6275 X486.057 Y50.267
N6280 X486.348 Y49.761
N6285 X486.653 Y49.28
N6290 X486.977 Y48.823
N6295 X487.327 Y48.383
N6300 X487.703 Y47.957
N6305 X488.099 Y47.547
N6310 X488.503 Y47.169
N6315 X488.921 Y46.828
N6320 X489.364 Y46.513
N6325 X489.83 Y46.224
N6330 X490.311 Y45.966
N6335 X490.797 Y45.745
N6340 X491.303 Y45.559
N6345 X491.838 Y45.399
N6350 X492.387 Y45.263
N6355 X492.928 Y45.16
N6360 X493.469 Y45.094
N6365 X494.039 Y45.06
N6370 X494.611 Y45.042
N6375 X495.058 Y45.056
N6380 X495.514 Y45.083
N6385 X495.953 Y45.129
N6390 X496.393 Y45.197
N6395 X496.831 Y45.285
N6400 X497.261 Y45.391
N6405 X497.673 Y45.515
N6410 X498.068 Y45.66
N6415 X498.46 Y45.832
N6420 X498.852 Y46.029
N6425 X499.237 Y46.245
N6430 X499.606 Y46.477
N6435 X499.954 Y46.725
N6440 X500.29 Y46.993
N6445 X500.617 Y47.284
N6450 X500.939 Y47.599
N6455 X501.255 Y47.932
N6460 X501.554 Y48.27
N6465 X501.83 Y48.614
N6470 X502.094 Y48.976
N6475 X502.347 Y49.356
N6480 X502.59 Y49.748
N6485 X502.819 Y50.148
N6490 X503.037 Y50.561
N6495 X503.245 Y50.984
N6500 X503.442 Y51.413
N6505 X503.628 Y51.848
N6510 X503.802 Y52.289
N6515 X503.966 Y52.737
N6520 X504.121 Y53.19
N6525 X504.265 Y53.649
N6530 X504.402 Y54.113
N6535 X504.529 Y54.58
N6540 X504.649 Y55.051
N6545 X504.76 Y55.526
N6550 X504.864 Y56.005
N6555 X504.962 Y56.486
N6560 X505.051 Y56.969
N6565 X505.135 Y57.454
N6570 X505.212 Y57.942
N6575 X505.283 Y58.432
N6580 X505.349 Y58.923
N6585 X505.409 Y59.414
N6590 X505.463 Y59.907
N6595 X505.511 Y60.4
N6600 X505.554 Y60.892
N6605 X505.589 Y61.385
N6610 X505.619 Y61.878
N6615 X505.642 Y62.371
N6620 X505.66 Y62.869
N6625 X505.673 Y63.372
N6630 X505.684 Y63.876
N6635 X505.692 Y64.383
N6640 X505.699 Y64.883
N6645 X505.698 Y65.342
N6650 X505.694 Y65.812
N6655 X505.69 Y66.219
N6660 G3 X505.387 Y66.516 I-0.3 J-0.003
N6665 G1 X505.087 Y66.512
N6670 X505.02 Z-4.992
N6675 X504.957 Y66.511 Z-4.97
N6680 X504.9 Y66.51 Z-4.935
N6685 X504.852 Z-4.887
N6690 X504.816 Z-4.83
N6695 X504.794 Y66.509 Z-4.767
N6700 X504.787 Z-4.7
N6705 G0 Z5.
N6710 X520.652 Y87.246
N6715 G1 Z1. F333.33
N6720 Z-4.7
N6725 G18 G2 X520.952 Z-5. I0.3 K0.
N6730 G1 X521.252 F1000.
N6735 G17 G3 X521.552 Y87.546 I0. J0.3
N6740 G1 Y92.264
N6745 X534.576
N6750 X535.414
N6755 X535.854 Y91.55
N6760 X554.319 Y61.539
N6765 X554.666 Y60.981
N6770 X554.84 Y60.7
N6775 X555.016 Y60.413
N6780 X555.188 Y60.133
N6785 X555.364 Y59.842
N6790 X555.369 Y59.833
N6795 X555.538 Y59.55
N6800 X555.546 Y59.537
N6805 X555.712 Y59.252
N6810 X555.88 Y58.961
N6815 X555.919 Y58.893
N6820 X555.912 Y59.166
N6825 X555.899 Y59.716
N6830 X555.887 Y60.257
N6835 X555.875 Y60.793
N6840 X555.859 Y61.33
N6845 X555.844 Y61.875
N6850 X555.83 Y62.419
N6855 X555.816 Y62.964
N6860 X555.805 Y63.511
N6865 X555.795 Y64.056
N6870 X555.785 Y64.597
N6875 X555.776 Y65.142
N6880 X555.767 Y65.684
N6885 X555.759 Y66.228
N6890 X555.751 Y66.77
N6895 X555.743 Y67.312
N6900 X555.736 Y67.857
N6905 X555.73 Y68.401
N6910 X555.725 Y68.946
N6915 X555.72 Y69.488
N6920 X555.716 Y70.033
N6925 X555.713 Y70.577
N6930 X555.71 Y71.119
N6935 X555.708 Y71.662
N6940 X555.705 Y72.203
N6945 X555.703 Y72.748
N6950 X555.701 Y73.289
N6955 X555.699 Y73.831
N6960 Y81.415
N6965 X555.695 Y81.906
N6970 X555.692 Y82.152
N6975 X555.69 Y82.408
N6980 X555.688 Y82.655
N6985 X555.685 Y82.895
N6990 X555.68 Y83.133
N6995 X555.674 Y83.368
N7000 X555.665 Y83.593
N7005 X555.651 Y83.821
N7010 X555.635 Y84.058
N7015 X555.617 Y84.292
N7020 X555.597 Y84.523
N7025 X555.574 Y84.747
N7030 X555.548 Y84.959
N7035 X555.519 Y85.158
N7040 X555.484 Y85.344
N7045 X555.443 Y85.518
N7050 X555.397 Y85.678
N7055 X555.346 Y85.821
N7060 X555.291 Y85.947
N7065 X555.234 Y86.053
N7070 X555.173 Y86.146
N7075 X555.106 Y86.23
N7080 X555.031 Y86.306
N7085 X554.946 Y86.378
N7090 X554.842 Y86.451
N7095 X554.718 Y86.525
N7100 X554.573 Y86.599
N7105 X554.403 Y86.675
N7110 X554.215 Y86.752
N7115 X554.017 Y86.826
N7120 X553.809 Y86.899
N7125 X553.596 Y86.969
N7130 X553.379 Y87.037
N7135 X553.156 Y87.104
N7140 X552.925 Y87.17
N7145 X551.598 Y87.548
N7150 Y92.264
N7155 X567.846
N7160 Y88.681
N7165 Y87.553
N7170 X566.763 Y87.24
N7175 X566.521 Y87.17
N7180 X566.273 Y87.099
N7185 X566.027 Y87.029
N7190 X565.789 Y86.962
N7195 X565.581 Y86.901
N7200 X565.398 Y86.84
N7205 X565.213 Y86.77
N7210 X565.012 Y86.686
N7215 X564.826 Y86.605
N7220 X564.685 Y86.535
N7225 X564.568 Y86.465
N7230 X564.458 Y86.387
N7235 X564.353 Y86.299
N7240 X564.259 Y86.208
N7245 X564.184 Y86.12
N7250 X564.118 Y86.028
N7255 X564.056 Y85.921
N7260 X563.995 Y85.793
N7265 X563.937 Y85.646
N7270 X563.883 Y85.48
N7275 X563.833 Y85.302
N7280 X563.79 Y85.114
N7285 X563.75 Y84.911
N7290 X563.715 Y84.703
N7295 X563.687 Y84.494
N7300 X563.662 Y84.276
N7305 X563.642 Y84.057
N7310 X563.627 Y83.829
N7315 X563.613 Y83.589
N7320 X563.6 Y83.345
N7325 X563.589 Y83.102
N7330 X563.579 Y82.861
N7335 X563.572 Y82.624
N7340 X563.567 Y82.383
N7345 X563.563 Y82.143
N7350 X563.562 Y81.899
N7355 X563.561 Y81.646
N7360 X563.56 Y81.397
N7365 Y40.764
N7370 Y39.264
N7375 X557.416
N7380 X556.575
N7385 X556.136 Y39.982
N7390 X535.348 Y74.006
N7395 X535.175 Y74.286
N7400 X534.999 Y74.573
N7405 X534.824 Y74.857
N7410 X534.649 Y75.146
N7415 X534.473 Y75.44
N7420 X534.467 Y75.448
N7425 X534.298 Y75.735
N7430 X534.129 Y76.023
N7435 X533.96 Y76.311
N7440 X533.795 Y76.591
N7445 X533.629 Y76.868
N7450 X533.491 Y77.094
N7455 X533.506 Y76.525
N7460 X533.521 Y75.791
N7465 X533.536 Y75.064
N7470 X533.551 Y74.336
N7475 X533.565 Y73.607
N7480 X533.579 Y72.879
N7485 X533.592 Y72.15
N7490 X533.604 Y71.42
N7495 X533.615 Y70.691
N7500 X533.626 Y69.963
N7505 X533.635 Y69.231
N7510 X533.644 Y68.504
N7515 X533.653 Y67.776
N7520 X533.66 Y67.045
N7525 X533.667 Y66.317
N7530 X533.673 Y65.587
N7535 X533.678 Y64.858
N7540 X533.682 Y64.128
N7545 X533.686 Y63.401
N7550 X533.689 Y62.671
N7555 X533.691 Y61.941
N7560 X533.693 Y61.214
N7565 X533.695 Y60.486
N7570 X533.696 Y59.756
N7575 X533.697 Y59.029
N7580 X533.698 Y58.301
N7585 X533.699 Y57.574
N7590 Y50.164
N7595 X533.7 Y49.916
N7600 X533.702 Y49.665
N7605 X533.704 Y49.418
N7610 X533.708 Y49.173
N7615 X533.713 Y48.931
N7620 X533.72 Y48.69
N7625 X533.738 Y48.189
N7630 X533.748 Y47.944
N7635 X533.759 Y47.706
N7640 X533.772 Y47.479
N7645 X533.79 Y47.262
N7650 X533.813 Y47.049
N7655 X533.842 Y46.836
N7660 X533.876 Y46.624
N7665 X533.914 Y46.422
N7670 X533.958 Y46.227
N7675 X534.006 Y46.046
N7680 X534.058 Y45.883
N7685 X534.113 Y45.742
N7690 X534.169 Y45.627
N7695 X534.227 Y45.528
N7700 X534.295 Y45.436
N7705 X534.38 Y45.34
N7710 X534.481 Y45.242
N7715 X534.589 Y45.153
N7720 X534.702 Y45.072
N7725 X534.829 Y44.996
N7730 X534.973 Y44.921
N7735 X535.143 Y44.846
N7740 X535.33 Y44.77
N7745 X535.53 Y44.696
N7750 X535.74 Y44.624
N7755 X535.954 Y44.556
N7760 X536.174 Y44.49
N7765 X536.401 Y44.425
N7770 X536.635 Y44.361
N7775 X537.985 Y43.997
N7780 Y39.264
N7785 X521.552
N7790 Y42.847
N7795 Y44.003
N7800 X522.67 Y44.298
N7805 X522.91 Y44.361
N7810 X523.142 Y44.424
N7815 X523.365 Y44.487
N7820 X523.58 Y44.551
N7825 X523.788 Y44.618
N7830 X523.992 Y44.69
N7835 X524.191 Y44.765
N7840 X524.387 Y44.845
N7845 X524.569 Y44.926
N7850 X524.731 Y45.006
N7855 X524.868 Y45.084
N7860 X524.981 Y45.159
N7865 X525.065 Y45.226
N7870 X525.137 Y45.296
N7875 X525.216 Y45.391
N7880 X525.299 Y45.508
N7885 X525.372 Y45.626
N7890 X525.43 Y45.743
N7895 X525.484 Y45.875
N7900 X525.534 Y46.026
N7905 X525.578 Y46.19
N7910 X525.618 Y46.378
N7915 X525.655 Y46.579
N7920 X525.686 Y46.791
N7925 X525.714 Y47.009
N7930 X525.737 Y47.233
N7935 X525.758 Y47.464
N7940 X525.775 Y47.693
N7945 X525.789 Y47.93
N7950 X525.803 Y48.17
N7955 X525.813 Y48.408
N7960 X525.822 Y48.646
N7965 X525.827 Y48.886
N7970 X525.832 Y49.13
N7975 X525.835 Y49.374
N7980 X525.837 Y49.621
N7985 X525.838 Y49.867
N7990 Y81.408
N7995 X525.837 Y81.654
N8000 X525.835 Y81.903
N8005 X525.833 Y82.152
N8010 X525.83 Y82.398
N8015 X525.826 Y82.641
N8020 X525.82 Y82.884
N8025 X525.814 Y83.121
N8030 X525.804 Y83.352
N8035 X525.791 Y83.583
N8040 X525.774 Y83.813
N8045 X525.755 Y84.049
N8050 X525.733 Y84.285
N8055 X525.709 Y84.515
N8060 X525.684 Y84.73
N8065 X525.653 Y84.932
N8070 X525.617 Y85.123
N8075 X525.576 Y85.301
N8080 X525.528 Y85.469
N8085 X525.476 Y85.621
N8090 X525.418 Y85.76
N8095 X525.354 Y85.886
N8100 X525.284 Y86.001
N8105 X525.209 Y86.104
N8110 X525.126 Y86.201
N8115 X525.037 Y86.288
N8120 X524.939 Y86.369
N8125 X524.828 Y86.447
N8130 X524.707 Y86.518
N8135 X524.563 Y86.59
N8140 X524.388 Y86.666
N8145 X524.193 Y86.744
N8150 X523.987 Y86.821
N8155 X523.774 Y86.895
N8160 X523.559 Y86.966
N8165 X523.339 Y87.035
N8170 X523.114 Y87.103
N8175 X522.883 Y87.17
N8180 X521.552 Y87.546
N8185 G3 X521.182 Y87.339 I-0.082 J-0.289
N8190 G1 X521.1 Y87.051
N8195 X521.082 Y86.987 Z-4.992
N8200 X521.064 Y86.926 Z-4.97
N8205 X521.049 Y86.871 Z-4.935
N8210 X521.036 Y86.825 Z-4.887
N8215 X521.026 Y86.791 Z-4.83
N8220 X521.02 Y86.769 Z-4.767
N8225 X521.018 Y86.762 Z-4.7
N8230 G0 Z5.
N8235 X513.286 Y112.6
N8240 G1 Z1. F333.33
N8245 Z-4.7
N8250 G19 G3 Y112.9 Z-5. J0.3 K0.
N8255 G1 Y113.2 F1000.
N8260 G17 G3 X512.986 Y113.5 I-0.3 J0.
N8265 G1 X84.641
N8270 G2 X61.5 Y90.359 I-34.641 J11.5
N8275 G1 Y39.641
N8280 G2 X84.641 Y16.5 I-11.5 J-34.641
N8285 G1 X715.359
N8290 G2 X738.5 Y39.641 I34.641 J-11.5
N8295 G1 Y90.359
N8300 G2 X715.359 Y113.5 I11.5 J34.641
N8305 G1 X512.986
N8310 G3 X512.686 Y113.2 I0. J-0.3
N8315 G1 Y112.9
N8320 G19 G2 Y112.6 Z-4.7 J0. K0.3
N8325 G0 Z5.
N8330 X593. Y87.954
N8335 G1 Z1. F333.33
N8340 Z-4.7
N8345 X593.006 Y87.949 Z-4.767
N8350 X593.023 Y87.934 Z-4.83
N8355 X593.05 Y87.911 Z-4.887
N8360 X593.086 Y87.88 Z-4.935
N8365 X593.129 Y87.843 Z-4.97
N8370 X593.177 Y87.802 Z-4.992
N8375 X593.228 Y87.758 Z-5.
N8380 X593.455 Y87.563 F1000.
N8385 G17 G3 X593.878 Y87.595 I0.195 J0.228
N8390 G1 X593.933 Y87.655
N8395 X594.367 Y88.108
N8400 X594.425 Y88.165
N8405 X594.883 Y88.594
N8410 X594.94 Y88.644
N8415 X595.419 Y89.049
N8420 X595.477 Y89.096
N8425 X595.976 Y89.477
N8430 X596.034 Y89.519
N8435 X596.549 Y89.875
N8440 X596.611 Y89.915
N8445 X597.144 Y90.246
N8450 X597.203 Y90.281
N8455 X597.75 Y90.587
N8460 X597.806 Y90.617
N8465 X598.366 Y90.9
N8470 X598.419 Y90.925
N8475 X598.99 Y91.186
N8480 X599.039 Y91.207
N8485 X599.619 Y91.447
N8490 X599.667 Y91.466
N8495 X600.254 Y91.686
N8500 X600.301 Y91.703
N8505 X600.895 Y91.903
N8510 X600.943 Y91.918
N8515 X601.544 Y92.099
N8520 X601.591 Y92.112
N8525 X602.197 Y92.272
N8530 X602.243 Y92.284
N8535 X602.854 Y92.425
N8540 X602.901 Y92.435
N8545 X603.516 Y92.557
N8550 X603.562 Y92.565
N8555 X604.181 Y92.668
N8560 X604.226 Y92.675
N8565 X604.848 Y92.758
N8570 X604.892 Y92.764
N8575 X605.515 Y92.829
N8580 X605.558 Y92.833
N8585 X606.183 Y92.88
N8590 X606.218 Y92.882
N8595 X606.844 Y92.915
N8600 X606.867 Y92.916
N8605 X607.494 Y92.939
N8610 X607.505
N8615 X608.132 Y92.958
N8620 X608.201
N8625 X608.677 Y92.95
N8630 X609.154 Y92.942
N8635 X609.636 Y92.931
N8640 X610.121 Y92.917
N8645 X610.133
N8650 X610.608 Y92.9
N8655 X610.623 Y92.899
N8660 X611.098 Y92.877
N8665 X611.116 Y92.876
N8670 X611.591 Y92.848
N8675 X611.609 Y92.847
N8680 X612.083 Y92.814
N8685 X612.1 Y92.813
N8690 X612.574 Y92.774
N8695 X612.591 Y92.773
N8700 X613.065 Y92.729
N8705 X613.083 Y92.727
N8710 X613.556 Y92.677
N8715 X613.573 Y92.675
N8720 X614.047 Y92.62
N8725 X614.064 Y92.617
N8730 X614.536 Y92.556
N8735 X614.554 Y92.554
N8740 X615.024 Y92.487
N8745 X615.042 Y92.485
N8750 X615.513 Y92.413
N8755 X615.531 Y92.41
N8760 X616. Y92.332
N8765 X616.019 Y92.328
N8770 X616.487 Y92.244
N8775 X616.506 Y92.241
N8780 X616.973 Y92.151
N8785 X616.991 Y92.147
N8790 X617.457 Y92.051
N8795 X617.474 Y92.048
N8800 X617.939 Y91.947
N8805 X617.953 Y91.944
N8810 X618.417 Y91.838
N8815 X618.428 Y91.835
N8820 X618.891 Y91.726
N8825 X619.362 Y91.612
N8830 X619.83 Y91.497
N8835 X620.296 Y91.38
N8840 X620.759 Y91.264
N8845 X621.894 Y90.979
N8850 Y78.153
N8855 X616.921
N8860 X615.786
N8865 X615.478 Y79.245
N8870 X615.377 Y79.6
N8875 X615.278 Y79.949
N8880 X615.177 Y80.288
N8885 X615.073 Y80.623
N8890 X614.966 Y80.952
N8895 X614.855 Y81.273
N8900 X614.737 Y81.588
N8905 X614.613 Y81.899
N8910 X614.481 Y82.203
N8915 X614.343 Y82.502
N8920 X614.197 Y82.794
N8925 X614.044 Y83.078
N8930 X613.882 Y83.357
N8935 X613.713 Y83.627
N8940 X613.537 Y83.886
N8945 X613.351 Y84.136
N8950 X613.158 Y84.377
N8955 X612.957 Y84.606
N8960 X612.748 Y84.822
N8965 X612.536 Y85.022
N8970 X612.318 Y85.204
N8975 X612.091 Y85.373
N8980 X611.854 Y85.529
N8985 X611.608 Y85.67
N8990 X611.352 Y85.798
N8995 X611.087 Y85.912
N9000 X610.811 Y86.013
N9005 X610.525 Y86.103
N9010 X610.227 Y86.181
N9015 X609.918 Y86.25
N9020 X609.598 Y86.309
N9025 X609.272 Y86.361
N9030 X608.947 Y86.403
N9035 X608.622 Y86.435
N9040 X608.295 Y86.458
N9045 X607.957 Y86.472
N9050 X607.606 Y86.481
N9055 X607.274 Y86.486
N9060 X606.977 Y86.477
N9065 X606.66 Y86.465
N9070 X606.36 Y86.447
N9075 X606.072 Y86.422
N9080 X605.788 Y86.386
N9085 X605.509 Y86.341
N9090 X605.232 Y86.285
N9095 X604.955 Y86.219
N9100 X604.679 Y86.142
N9105 X604.402 Y86.055
N9110 X604.13 Y85.96
N9115 X603.864 Y85.856
N9120 X603.607 Y85.745
N9125 X603.36 Y85.626
N9130 X603.122 Y85.498
N9135 X602.896 Y85.362
N9140 X602.68 Y85.215
N9145 X602.472 Y85.059
N9150 X602.275 Y84.893
N9155 X602.083 Y84.713
N9160 X601.897 Y84.521
N9165 X601.718 Y84.317
N9170 X601.547 Y84.106
N9175 X601.387 Y83.886
N9180 X601.236 Y83.662
N9185 X601.101 Y83.435
N9190 X600.978 Y83.207
N9195 X600.873 Y82.978
N9200 X600.779 Y82.739
N9205 X600.693 Y82.483
N9210 X600.613 Y82.21
N9215 X600.543 Y81.934
N9220 X600.484 Y81.66
N9225 X600.438 Y81.395
N9230 X600.407 Y81.134
N9235 X600.387 Y80.854
N9240 X600.374 Y80.549
N9245 X600.366 Y80.259
N9250 X600.375 Y79.895
N9255 X600.39 Y79.515
N9260 X600.414 Y79.157
N9265 X600.452 Y78.81
N9270 X600.505 Y78.469
N9275 X600.574 Y78.13
N9280 X600.656 Y77.797
N9285 X600.754 Y77.472
N9290 X600.867 Y77.154
N9295 X600.995 Y76.844
N9300 X601.139 Y76.542
N9305 X601.296 Y76.251
N9310 X601.468 Y75.973
N9315 X601.658 Y75.703
N9320 X601.868 Y75.433
N9325 X602.101 Y75.16
N9330 X602.346 Y74.889
N9335 X602.597 Y74.63
N9340 X602.855 Y74.382
N9345 X603.125 Y74.141
N9350 X603.406 Y73.905
N9355 X603.699 Y73.673
N9360 X603.999 Y73.448
N9365 X604.306 Y73.228
N9370 X604.618 Y73.017
N9375 X604.94 Y72.809
N9380 X605.27 Y72.604
N9385 X605.609 Y72.4
N9390 X605.954 Y72.196
N9395 X606.302 Y71.994
N9400 X606.65 Y71.795
N9405 X606.997 Y71.601
N9410 X607.345 Y71.411
N9415 X607.694 Y71.225
N9420 X608.05 Y71.041
N9425 X608.409 Y70.858
N9430 X608.772 Y70.675
N9435 X609.14 Y70.491
N9440 X609.164 Y70.478
N9445 X609.65 Y70.224
N9450 X610.138 Y69.968
N9455 X610.628 Y69.709
N9460 X611.118 Y69.447
N9465 X611.127 Y69.442
N9470 X611.609 Y69.18
N9475 X611.62 Y69.174
N9480 X612.1 Y68.907
N9485 X612.116 Y68.898
N9490 X612.592 Y68.626
N9495 X612.609 Y68.617
N9500 X613.082 Y68.338
N9505 X613.102 Y68.326
N9510 X613.571 Y68.04
N9515 X613.594 Y68.026
N9520 X614.057 Y67.731
N9525 X614.076 Y67.719
N9530 X614.535 Y67.418
N9535 X614.554 Y67.405
N9540 X615.008 Y67.097
N9545 X615.024 Y67.086
N9550 X615.474 Y66.772
N9555 X615.492 Y66.76
N9560 X615.938 Y66.439
N9565 X615.964 Y66.42
N9570 X616.402 Y66.09
N9575 X616.429 Y66.069
N9580 X616.86 Y65.729
N9585 X616.894 Y65.702
N9590 X617.315 Y65.35
N9595 X617.352 Y65.317
N9600 X617.761 Y64.951
N9605 X617.801 Y64.915
N9610 X618.197 Y64.534
N9615 X618.238 Y64.492
N9620 X618.618 Y64.097
N9625 X618.653 Y64.06
N9630 X619.02 Y63.652
N9635 X619.051 Y63.615
N9640 X619.405 Y63.195
N9645 X619.44 Y63.153
N9650 X619.778 Y62.72
N9655 X619.813 Y62.674
N9660 X620.134 Y62.229
N9665 X620.168 Y62.18
N9670 X620.471 Y61.722
N9675 X620.504 Y61.67
N9680 X620.788 Y61.2
N9685 X620.818 Y61.147
N9690 X621.083 Y60.666
N9695 X621.114 Y60.606
N9700 X621.357 Y60.114
N9705 X621.388 Y60.048
N9710 X621.607 Y59.545
N9715 X621.637 Y59.469
N9720 X621.828 Y58.954
N9725 X621.854 Y58.878
N9730 X622.017 Y58.354
N9735 X622.036 Y58.29
N9740 X622.175 Y57.759
N9745 X622.191 Y57.696
N9750 X622.308 Y57.159
N9755 X622.32 Y57.097
N9760 X622.414 Y56.556
N9765 X622.424 Y56.485
N9770 X622.492 Y55.94
N9775 X622.499 Y55.872
N9780 X622.542 Y55.325
N9785 X622.545 Y55.276
N9790 X622.57 Y54.728
N9795 X622.571 Y54.703
N9800 X622.587 Y54.154
N9805 X622.588 Y54.074
N9810 X622.575 Y53.537
N9815 X622.574 Y53.526
N9820 X622.557 Y52.989
N9825 X622.556 Y52.959
N9830 X622.528 Y52.423
N9835 X622.525 Y52.381
N9840 X622.482 Y51.846
N9845 X622.477 Y51.796
N9850 X622.416 Y51.262
N9855 X622.41 Y51.212
N9860 X622.331 Y50.681
N9865 X622.322 Y50.627
N9870 X622.224 Y50.1
N9875 X622.212 Y50.044
N9880 X622.094 Y49.52
N9885 X622.081 Y49.464
N9890 X621.943 Y48.945
N9895 X621.927 Y48.89
N9900 X621.769 Y48.376
N9905 X621.751 Y48.323
N9910 X621.574 Y47.816
N9915 X621.552 Y47.757
N9920 X621.354 Y47.258
N9925 X621.325 Y47.189
N9930 X621.102 Y46.7
N9935 X621.072 Y46.638
N9940 X620.827 Y46.16
N9945 X620.794 Y46.1
N9950 X620.527 Y45.633
N9955 X620.494 Y45.58
N9960 X620.208 Y45.125
N9965 X620.172 Y45.07
N9970 X619.866 Y44.629
N9975 X619.827 Y44.575
N9980 X619.502 Y44.148
N9985 X619.457 Y44.092
N9990 X619.112 Y43.681
N9995 X619.061 Y43.623
N10000 X618.695 Y43.229
N10005 X618.642 Y43.175
N10010 X618.257 Y42.801
N10015 X618.2 Y42.749
N10020 X617.796 Y42.395
N10025 X617.742 Y42.35
N10030 X617.323 Y42.016
N10035 X617.269 Y41.975
N10040 X616.834 Y41.659
N10045 X616.779 Y41.622
N10050 X616.331 Y41.326
N10055 X616.273 Y41.289
N10060 X615.812 Y41.014
N10065 X615.757 Y40.983
N10070 X615.285 Y40.728
N10075 X615.233 Y40.701
N10080 X614.751 Y40.464
N10085 X614.705 Y40.443
N10090 X614.215 Y40.222
N10095 X614.165 Y40.201
N10100 X613.667 Y39.999
N10105 X613.614 Y39.979
N10110 X613.11 Y39.795
N10115 X613.055 Y39.777
N10120 X612.544 Y39.613
N10125 X612.495 Y39.598
N10130 X611.978 Y39.452
N10135 X611.935 Y39.441
N10140 X611.414 Y39.31
N10145 X611.377 Y39.301
N10150 X610.853 Y39.184
N10155 X610.819 Y39.177
N10160 X610.293 Y39.072
N10165 X610.262 Y39.066
N10170 X609.733 Y38.971
N10175 X609.705 Y38.967
N10180 X609.175 Y38.883
N10185 X609.146 Y38.878
N10190 X608.615 Y38.805
N10195 X608.584 Y38.801
N10200 X608.05 Y38.738
N10205 X608.02 Y38.735
N10210 X607.486 Y38.683
N10215 X607.455 Y38.68
N10220 X606.919 Y38.639
N10225 X606.887 Y38.637
N10230 X606.351 Y38.608
N10235 X606.321 Y38.607
N10240 X605.785 Y38.589
N10245 X605.765 Y38.588
N10250 X605.228 Y38.577
N10255 X605.217
N10260 X604.68 Y38.57
N10265 X604.64
N10270 X604.186 Y38.576
N10275 X603.724 Y38.584
N10280 X603.708 Y38.585
N10285 X603.254 Y38.598
N10290 X603.232 Y38.599
N10295 X602.779 Y38.619
N10300 X602.757 Y38.62
N10305 X602.303 Y38.647
N10310 X602.286 Y38.648
N10315 X601.833 Y38.68
N10320 X601.82 Y38.681
N10325 X601.368 Y38.716
N10330 X600.906 Y38.756
N10335 X600.892 Y38.757
N10340 X600.44 Y38.8
N10345 X600.422 Y38.801
N10350 X599.97 Y38.85
N10355 X599.949 Y38.852
N10360 X599.499 Y38.906
N10365 X599.48 Y38.909
N10370 X599.03 Y38.969
N10375 X599.016 Y38.971
N10380 X598.566 Y39.036
N10385 X598.554 Y39.037
N10390 X598.105 Y39.105
N10395 X597.648 Y39.177
N10400 X597.191 Y39.252
N10405 X597.181 Y39.253
N10410 X596.734 Y39.33
N10415 X596.723 Y39.332
N10420 X596.276 Y39.411
N10425 X596.264 Y39.414
N10430 X595.817 Y39.497
N10435 X595.804 Y39.499
N10440 X595.359 Y39.586
N10445 X595.348 Y39.589
N10450 X594.903 Y39.679
N10455 X594.893 Y39.681
N10460 X594.448 Y39.775
N10465 X594.436 Y39.777
N10470 X593.993 Y39.874
N10475 X593.983 Y39.877
N10480 X593.54 Y39.977
N10485 X593.53 Y39.979
N10490 X593.087 Y40.082
N10495 X593.076 Y40.085
N10500 X592.635 Y40.192
N10505 X592.185 Y40.304
N10510 X591.737 Y40.417
N10515 X591.292 Y40.532
N10520 X590.85 Y40.647
N10525 X589.727 Y40.938
N10530 Y54.069
N10535 X594.699
N10540 X595.882
N10545 X596.158 Y52.919
N10550 X596.251 Y52.53
N10555 X596.344 Y52.149
N10560 X596.438 Y51.783
N10565 X596.538 Y51.428
N10570 X596.645 Y51.075
N10575 X596.761 Y50.728
N10580 X596.886 Y50.379
N10585 X597.02 Y50.03
N10590 X597.159 Y49.688
N10595 X597.303 Y49.355
N10600 X597.455 Y49.035
N10605 X597.614 Y48.726
N10610 X597.783 Y48.427
N10615 X597.96 Y48.142
N10620 X598.148 Y47.871
N10625 X598.351 Y47.607
N10630 X598.564 Y47.354
N10635 X598.787 Y47.116
N10640 X599.021 Y46.89
N10645 X599.267 Y46.677
N10650 X599.523 Y46.477
N10655 X599.793 Y46.289
N10660 X600.073 Y46.113
N10665 X600.356 Y45.954
N10670 X600.641 Y45.813
N10675 X600.937 Y45.688
N10680 X601.25 Y45.576
N10685 X601.575 Y45.474
N10690 X601.91 Y45.384
N10695 X602.251 Y45.305
N10700 X602.6 Y45.237
N10705 X602.951 Y45.18
N10710 X603.304 Y45.134
N10715 X603.66 Y45.099
N10720 X604.021 Y45.075
N10725 X604.393 Y45.059
N10730 X604.778 Y45.049
N10735 X605.15 Y45.042
N10740 X605.429 Y45.046
N10745 X605.72 Y45.053
N10750 X605.998 Y45.065
N10755 X606.267 Y45.083
N10760 X606.536 Y45.109
N10765 X606.807 Y45.142
N10770 X607.078 Y45.182
N10775 X607.348 Y45.228
N10780 X607.616 Y45.281
N10785 X607.88 Y45.34
N10790 X608.137 Y45.405
N10795 X608.385 Y45.477
N10800 X608.626 Y45.556
N10805 X608.862 Y45.644
N10810 X609.096 Y45.742
N10815 X609.328 Y45.849
N10820 X609.557 Y45.965
N10825 X609.781 Y46.089
N10830 X609.997 Y46.219
N10835 X610.197 Y46.351
N10840 X610.384 Y46.489
N10845 X610.564 Y46.637
N10850 X610.742 Y46.798
N10855 X610.916 Y46.972
N10860 X611.084 Y47.154
N10865 X611.246 Y47.343
N10870 X611.394 Y47.533
N10875 X611.526 Y47.721
N10880 X611.648 Y47.917
N10885 X611.765 Y48.13
N10890 X611.882 Y48.362
N10895 X611.994 Y48.602
N10900 X612.094 Y48.835
N10905 X612.179 Y49.06
N10910 X612.256 Y49.297
N10915 X612.326 Y49.545
N10920 X612.39 Y49.801
N10925 X612.447 Y50.063
N10930 X612.497 Y50.327
N10935 X612.539 Y50.59
N10940 X612.574 Y50.855
N10945 X612.6 Y51.12
N10950 X612.619 Y51.389
N10955 X612.632 Y51.665
N10960 X612.639 Y51.954
N10965 X612.644 Y52.23
N10970 X612.636 Y52.639
N10975 X612.621 Y53.048
N10980 X612.594 Y53.43
N10985 X612.548 Y53.806
N10990 X612.485 Y54.187
N10995 X612.406 Y54.571
N11000 X612.316 Y54.942
N11005 X612.211 Y55.292
N11010 X612.088 Y55.631
N11015 X611.946 Y55.96
N11020 X611.784 Y56.281
N11025 X611.603 Y56.595
N11030 X611.403 Y56.898
N11035 X611.184 Y57.194
N11040 X610.945 Y57.486
N11045 X610.687 Y57.774
N11050 X610.415 Y58.056
N11055 X610.13 Y58.329
N11060 X609.834 Y58.594
N11065 X609.527 Y58.853
N11070 X609.209 Y59.104
N11075 X608.882 Y59.349
N11080 X608.546 Y59.588
N11085 X608.199 Y59.823
N11090 X607.846 Y60.054
N11095 X607.486 Y60.28
N11100 X607.12 Y60.504
N11105 X606.749 Y60.725
N11110 X606.375 Y60.943
N11115 X605.997 Y61.159
N11120 X605.619 Y61.371
N11125 X605.238 Y61.579
N11130 X604.856 Y61.784
N11135 X604.47 Y61.985
N11140 X604.081 Y62.186
N11145 X603.688 Y62.385
N11150 X603.291 Y62.584
N11155 X602.892 Y62.784
N11160 X602.877 Y62.792
N11165 X602.429 Y63.023
N11170 X601.978 Y63.257
N11175 X601.523 Y63.496
N11180 X601.512 Y63.502
N11185 X601.068 Y63.74
N11190 X601.055 Y63.748
N11195 X600.613 Y63.991
N11200 X600.595 Y64.001
N11205 X600.157 Y64.25
N11210 X600.143 Y64.258
N11215 X599.707 Y64.512
N11220 X599.69 Y64.522
N11225 X599.258 Y64.781
N11230 X599.245 Y64.789
N11235 X598.815 Y65.053
N11240 X598.799 Y65.063
N11245 X598.373 Y65.332
N11250 X598.356 Y65.343
N11255 X597.933 Y65.619
N11260 X597.909 Y65.634
N11265 X597.492 Y65.917
N11270 X597.466 Y65.936
N11275 X597.055 Y66.227
N11280 X597.028 Y66.247
N11285 X596.623 Y66.548
N11290 X596.594 Y66.57
N11295 X596.197 Y66.881
N11300 X596.169 Y66.903
N11305 X595.779 Y67.223
N11310 X595.749 Y67.249
N11315 X595.368 Y67.579
N11320 X595.337 Y67.606
N11325 X594.965 Y67.946
N11330 X594.934 Y67.977
N11335 X594.572 Y68.328
N11340 X594.539 Y68.36
N11345 X594.188 Y68.722
N11350 X594.155 Y68.758
N11355 X593.816 Y69.131
N11360 X593.783 Y69.168
N11365 X593.456 Y69.553
N11370 X593.421 Y69.596
N11375 X593.109 Y69.992
N11380 X593.075 Y70.036
N11385 X592.778 Y70.444
N11390 X592.748 Y70.487
N11395 X592.465 Y70.905
N11400 X592.431 Y70.958
N11405 X592.166 Y71.387
N11410 X592.132 Y71.444
N11415 X591.886 Y71.884
N11420 X591.852 Y71.949
N11425 X591.628 Y72.401
N11430 X591.598 Y72.466
N11435 X591.396 Y72.929
N11440 X591.37 Y72.991
N11445 X591.189 Y73.462
N11450 X591.165 Y73.528
N11455 X591.006 Y74.006
N11460 X590.986 Y74.072
N11465 X590.849 Y74.557
N11470 X590.834 Y74.617
N11475 X590.717 Y75.108
N11480 X590.703 Y75.173
N11485 X590.608 Y75.669
N11490 X590.596 Y75.743
N11495 X590.526 Y76.242
N11500 X590.517 Y76.313
N11505 X590.471 Y76.815
N11510 X590.467 Y76.872
N11515 X590.44 Y77.375
N11520 X590.439 Y77.405
N11525 X590.422 Y77.91
N11530 Y78.013
N11535 X590.444 Y78.64
N11540 X590.445 Y78.664
N11545 X590.477 Y79.29
N11550 X590.481 Y79.343
N11555 X590.535 Y79.967
N11560 X590.543 Y80.041
N11565 X590.628 Y80.662
N11570 X590.64 Y80.739
N11575 X590.757 Y81.355
N11580 X590.773 Y81.426
N11585 X590.92 Y82.037
N11590 X590.938 Y82.106
N11595 X591.114 Y82.709
N11600 X591.135 Y82.774
N11605 X591.338 Y83.367
N11610 X591.364 Y83.439
N11615 X591.597 Y84.021
N11620 X591.629 Y84.095
N11625 X591.893 Y84.664
N11630 X591.929 Y84.736
N11635 X592.223 Y85.29
N11640 X592.263 Y85.362
N11645 X592.587 Y85.899
N11650 X592.633 Y85.97
N11655 X592.987 Y86.489
N11660 X593.034 Y86.554
N11665 X593.415 Y87.052
N11670 X593.469 Y87.119
N11675 X593.878 Y87.595
N11680 G3 X593.846 Y88.018 I-0.228 J0.195
N11685 G1 X593.619 Y88.213
N11690 X593.568 Y88.257 Z-4.992
N11695 X593.52 Y88.298 Z-4.97
N11700 X593.477 Y88.335 Z-4.935
N11705 X593.441 Y88.366 Z-4.887
N11710 X593.414 Y88.389 Z-4.83
N11715 X593.397 Y88.404 Z-4.767
N11720 X593.391 Y88.409 Z-4.7
N11725 G0 Z5.
N11730 X624.844 Y93.164
N11735 G1 Z1. F333.33
N11740 Z-4.7
N11745 G19 G2 Y92.864 Z-5. J-0.3 K0.
N11750 G1 Y92.564 F1000.
N11755 G17 G3 X625.144 Y92.264 I0.3 J0.
N11760 G1 X668.421
N11765 Y76.07
N11770 X663.449
N11775 X662.292
N11780 X661.998 Y77.189
N11785 X661.913 Y77.512
N11790 X661.826 Y77.835
N11795 X661.74 Y78.158
N11800 X661.653 Y78.473
N11805 X661.563 Y78.786
N11810 X661.471 Y79.1
N11815 X661.376 Y79.413
N11820 X661.278 Y79.728
N11825 X661.179 Y80.042
N11830 X661.077 Y80.353
N11835 X660.975 Y80.659
N11840 X660.872 Y80.955
N11845 X660.763 Y81.248
N11850 X660.65 Y81.539
N11855 X660.531 Y81.826
N11860 X660.407 Y82.113
N11865 X660.277 Y82.399
N11870 X660.145 Y82.679
N11875 X660.007 Y82.953
N11880 X659.869 Y83.215
N11885 X659.729 Y83.458
N11890 X659.582 Y83.692
N11895 X659.422 Y83.922
N11900 X659.253 Y84.148
N11905 X659.081 Y84.36
N11910 X658.907 Y84.555
N11915 X658.726 Y84.736
N11920 X658.538 Y84.905
N11925 X658.345 Y85.058
N11930 X658.147 Y85.195
N11935 X657.944 Y85.316
N11940 X657.737 Y85.421
N11945 X657.529 Y85.508
N11950 X657.314 Y85.578
N11955 X657.085 Y85.635
N11960 X656.831 Y85.682
N11965 X656.552 Y85.72
N11970 X656.264 Y85.749
N11975 X655.972 Y85.77
N11980 X655.672 Y85.782
N11985 X655.357 Y85.789
N11990 X655.033 Y85.792
N11995 X651.755
N12000 Y50.229
N12005 X651.756 Y49.968
N12010 X651.758 Y49.708
N12015 X651.761 Y49.453
N12020 X651.766 Y49.204
N12025 X651.775 Y48.958
N12030 X651.787 Y48.715
N12035 X651.802 Y48.469
N12040 X651.821 Y48.224
N12045 X651.843 Y47.981
N12050 X651.868 Y47.739
N12055 X651.897 Y47.501
N12060 X651.929 Y47.274
N12065 X651.966 Y47.057
N12070 X652.009 Y46.847
N12075 X652.058 Y46.644
N12080 X652.115 Y46.444
N12085 X652.178 Y46.252
N12090 X652.247 Y46.072
N12095 X652.32 Y45.908
N12100 X652.393 Y45.767
N12105 X652.469 Y45.646
N12110 X652.551 Y45.536
N12115 X652.648 Y45.428
N12120 X652.761 Y45.32
N12125 X652.881 Y45.22
N12130 X653.009 Y45.13
N12135 X653.146 Y45.047
N12140 X653.291 Y44.972
N12145 X653.46 Y44.899
N12150 X653.656 Y44.823
N12155 X653.865 Y44.751
N12160 X654.081 Y44.683
N12165 X654.305 Y44.618
N12170 X654.539 Y44.555
N12175 X654.784 Y44.492
N12180 X655.036 Y44.43
N12185 X655.289 Y44.367
N12190 X656.692 Y44.027
N12195 Y39.264
N12200 X636.873
N12205 Y42.847
N12210 Y44.028
N12215 X638.021 Y44.305
N12220 X638.277 Y44.367
N12225 X638.525 Y44.428
N12230 X638.769 Y44.49
N12235 X639.005 Y44.554
N12240 X639.237 Y44.62
N12245 X639.462 Y44.688
N12250 X639.68 Y44.761
N12255 X639.893 Y44.837
N12260 X640.093 Y44.915
N12265 X640.276 Y44.995
N12270 X640.443 Y45.078
N12275 X640.591 Y45.162
N12280 X640.715 Y45.245
N12285 X640.822 Y45.331
N12290 X640.923 Y45.427
N12295 X641.02 Y45.536
N12300 X641.11 Y45.655
N12305 X641.191 Y45.782
N12310 X641.264 Y45.918
N12315 X641.333 Y46.07
N12320 X641.397 Y46.24
N12325 X641.456 Y46.427
N12330 X641.51 Y46.625
N12335 X641.558 Y46.833
N12340 X641.601 Y47.05
N12345 X641.639 Y47.273
N12350 X641.672 Y47.502
N12355 X641.7 Y47.735
N12360 X641.724 Y47.972
N12365 X641.744 Y48.214
N12370 X641.762 Y48.463
N12375 X641.777 Y48.712
N12380 X641.789 Y48.96
N12385 X641.799 Y49.209
N12390 X641.805 Y49.456
N12395 X641.808 Y49.708
N12400 X641.81 Y49.965
N12405 Y85.792
N12410 X638.546
N12415 X638.253 Y85.788
N12420 X637.967 Y85.781
N12425 X637.694 Y85.768
N12430 X637.421 Y85.748
N12435 X637.14 Y85.721
N12440 X636.863 Y85.69
N12445 X636.607 Y85.654
N12450 X636.374 Y85.611
N12455 X636.156 Y85.559
N12460 X635.948 Y85.495
N12465 X635.755 Y85.422
N12470 X635.575 Y85.338
N12475 X635.391 Y85.235
N12480 X635.202 Y85.114
N12485 X635.025 Y84.986
N12490 X634.862 Y84.851
N12495 X634.703 Y84.7
N12500 X634.542 Y84.529
N12505 X634.381 Y84.343
N12510 X634.231 Y84.153
N12515 X634.091 Y83.955
N12520 X633.951 Y83.741
N12525 X633.811 Y83.51
N12530 X633.671 Y83.269
N12535 X633.539 Y83.027
N12540 X633.411 Y82.781
N12545 X633.29 Y82.533
N12550 X633.174 Y82.282
N12555 X633.061 Y82.022
N12560 X632.951 Y81.759
N12565 X632.847 Y81.496
N12570 X632.745 Y81.224
N12575 X632.646 Y80.949
N12580 X632.549 Y80.672
N12585 X632.455 Y80.392
N12590 X632.365 Y80.113
N12595 X632.279 Y79.835
N12600 X632.195 Y79.552
N12605 X632.112 Y79.263
N12610 X632.031 Y78.976
N12615 X631.953 Y78.688
N12620 X631.876 Y78.392
N12625 X631.798 Y78.097
N12630 X631.722 Y77.8
N12635 X631.646 Y77.501
N12640 X631.285 Y76.07
N12645 X625.144
N12650 Y92.264
N12655 G3 X624.844 Y92.564 I-0.3 J0.
N12660 G1 X624.544
N12665 G18 G3 X624.244 Z-4.7 I0. K0.3
N12670 G0 Z5.
N12675 X671.371 Y51.497
N12680 G1 Z1. F333.33
N12685 Z-4.7
N12690 G19 G2 Y51.197 Z-5. J-0.3 K0.
N12695 G1 Y50.897 F1000.
N12700 G17 G3 X671.671 Y50.597 I0.3 J0.
N12705 G1 X682.31
N12710 Y39.264
N12715 X671.671
N12720 Y50.597
N12725 G3 X671.371 Y50.897 I-0.3 J0.
N12730 G1 X671.071
N12735 G18 G3 X670.771 Z-4.7 I0. K0.3
N12740 G0 Z5.
N12745 X713.683 Y54.325
N12750 G1 Z1. F333.33
N12755 Z-4.7
N12760 X713.687 Y54.331 Z-4.767
N12765 X713.699 Y54.35 Z-4.83
N12770 X713.717 Y54.381 Z-4.887
N12775 X713.743 Y54.421 Z-4.935
N12780 X713.773 Y54.469 Z-4.97
N12785 X713.806 Y54.523 Z-4.992
N12790 X713.842 Y54.579 Z-5.
N12795 X714.001 Y54.834 F1000.
N12800 G17 G3 X713.905 Y55.247 I-0.254 J0.159
N12805 G2 X709.343 Y60.675 I6.094 J9.753
N12810 X708.5 Y65. I10.657 J4.323
N12815 X731.5 I11.5 J0.
N12820 X720. Y53.5 I-11.5 J0.
N12825 X713.905 Y55.247 I-0.001 J11.501
N12830 G3 X713.492 Y55.152 I-0.159 J-0.254
N12835 G1 X713.333 Y54.897
N12840 X713.298 Y54.841 Z-4.992
N12845 X713.264 Y54.787 Z-4.97
N12850 X713.234 Y54.739 Z-4.935
N12855 X713.209 Y54.698 Z-4.887
N12860 X713.19 Y54.668 Z-4.83
N12865 X713.178 Y54.649 Z-4.767
N12870 X713.174 Y54.643 Z-4.7
N12875 G0 Z5.
N12880 X352.774 Y92.564
N12885 G1 Z1. F333.33
N12890 Z-4.7
N12895 G18 G3 X352.474 Z-5. I-0.3 K0.
N12900 G1 X352.174 F1000.
N12905 G17 G3 X351.874 Y92.264 I0. J-0.3
N12910 G1 Y88.681
N12915 Y87.553
N12920 X350.791 Y87.24
N12925 X350.549 Y87.17
N12930 X350.301 Y87.099
N12935 X350.055 Y87.029
N12940 X349.816 Y86.962
N12945 X349.61 Y86.901
N12950 X349.426 Y86.84
N12955 X349.24 Y86.769
N12960 X349.039 Y86.686
N12965 X348.855 Y86.605
N12970 X348.713 Y86.535
N12975 X348.596 Y86.465
N12980 X348.484 Y86.386
N12985 X348.38 Y86.299
N12990 X348.288 Y86.209
N12995 X348.21 Y86.119
N13000 X348.146 Y86.028
N13005 X348.085 Y85.923
N13010 X348.023 Y85.793
N13015 X347.964 Y85.643
N13020 X347.91 Y85.48
N13025 X347.861 Y85.304
N13030 X347.818 Y85.114
N13035 X347.778 Y84.911
N13040 X347.743 Y84.7
N13045 X347.713 Y84.491
N13050 X347.69 Y84.279
N13055 X347.671 Y84.06
N13060 X347.655 Y83.829
N13065 X347.641 Y83.586
N13070 X347.627 Y83.345
N13075 X347.617 Y83.105
N13080 X347.607 Y82.861
N13085 X347.6 Y82.624
N13090 X347.595 Y82.383
N13095 X347.591 Y82.14
N13100 X347.589 Y81.896
N13105 X347.588 Y81.649
N13110 Y39.264
N13115 X341.444
N13120 X340.603
N13125 X340.164 Y39.982
N13130 X319.376 Y74.006
N13135 X319.203 Y74.286
N13140 X319.027 Y74.573
N13145 X318.852 Y74.857
N13150 X318.677 Y75.146
N13155 X318.501 Y75.44
N13160 X318.495 Y75.448
N13165 X318.326 Y75.735
N13170 X318.157 Y76.023
N13175 X317.988 Y76.311
N13180 X317.823 Y76.591
N13185 X317.657 Y76.868
N13190 X317.519 Y77.094
N13195 X317.534 Y76.525
N13200 X317.549 Y75.791
N13205 X317.564 Y75.064
N13210 X317.578 Y74.335
N13215 X317.593 Y73.609
N13220 X317.606 Y72.877
N13225 X317.619 Y72.15
N13230 X317.631 Y71.42
N13235 X317.643 Y70.693
N13240 X317.653 Y69.961
N13245 X317.663 Y69.233
N13250 X317.672 Y68.504
N13255 X317.68 Y67.774
N13260 X317.688 Y67.047
N13265 X317.694 Y66.315
N13270 X317.7 Y65.587
N13275 X317.705 Y64.858
N13280 X317.71 Y64.13
N13285 X317.713 Y63.398
N13290 X317.716 Y62.671
N13295 X317.719 Y61.943
N13300 X317.721 Y61.214
N13305 X317.723 Y60.486
N13310 X317.724 Y59.756
N13315 X317.725 Y59.029
N13320 X317.726 Y58.301
N13325 X317.727 Y57.574
N13330 Y50.164
N13335 X317.728 Y49.913
N13340 X317.729 Y49.665
N13345 X317.732 Y49.418
N13350 X317.735 Y49.173
N13355 X317.74 Y48.934
N13360 X317.756 Y48.439
N13365 X317.776 Y47.944
N13370 X317.787 Y47.706
N13375 X317.8 Y47.479
N13380 X317.818 Y47.262
N13385 X317.841 Y47.049
N13390 X317.87 Y46.836
N13395 X317.904 Y46.624
N13400 X317.943 Y46.419
N13405 X317.985 Y46.227
N13410 X318.033 Y46.049
N13415 X318.086 Y45.883
N13420 X318.141 Y45.742
N13425 X318.197 Y45.627
N13430 X318.255 Y45.528
N13435 X318.324 Y45.434
N13440 X318.408 Y45.338
N13445 X318.506 Y45.244
N13450 X318.615 Y45.154
N13455 X318.731 Y45.071
N13460 X318.856 Y44.996
N13465 X319. Y44.922
N13470 X319.171 Y44.846
N13475 X319.358 Y44.77
N13480 X319.558 Y44.696
N13485 X319.768 Y44.624
N13490 X319.982 Y44.556
N13495 X320.202 Y44.49
N13500 X320.429 Y44.425
N13505 X320.663 Y44.361
N13510 X322.013 Y43.997
N13515 Y39.264
N13520 X305.58
N13525 Y42.847
N13530 Y44.002
N13535 X306.696 Y44.297
N13540 X306.936 Y44.361
N13545 X307.169 Y44.424
N13550 X307.394 Y44.487
N13555 X307.608 Y44.551
N13560 X307.816 Y44.618
N13565 X308.02 Y44.69
N13570 X308.219 Y44.765
N13575 X308.415 Y44.845
N13580 X308.597 Y44.926
N13585 X308.759 Y45.006
N13590 X308.896 Y45.084
N13595 X309.009 Y45.159
N13600 X309.091 Y45.224
N13605 X309.164 Y45.296
N13610 X309.245 Y45.393
N13615 X309.327 Y45.508
N13620 X309.398 Y45.624
N13625 X309.458 Y45.743
N13630 X309.513 Y45.878
N13635 X309.562 Y46.026
N13640 X309.606 Y46.19
N13645 X309.646 Y46.378
N13650 X309.683 Y46.579
N13655 X309.714 Y46.791
N13660 X309.742 Y47.009
N13665 X309.765 Y47.233
N13670 X309.786 Y47.461
N13675 X309.802 Y47.693
N13680 X309.818 Y47.933
N13685 X309.831 Y48.17
N13690 X309.841 Y48.405
N13695 X309.849 Y48.646
N13700 X309.855 Y48.889
N13705 X309.86 Y49.13
N13710 X309.863 Y49.371
N13715 X309.866 Y50.12
N13720 Y81.405
N13725 X309.864 Y81.651
N13730 X309.863 Y81.903
N13735 X309.86 Y82.149
N13740 X309.857 Y82.398
N13745 X309.853 Y82.644
N13750 X309.848 Y82.887
N13755 X309.842 Y83.121
N13760 X309.832 Y83.352
N13765 X309.819 Y83.583
N13770 X309.802 Y83.813
N13775 X309.783 Y84.049
N13780 X309.761 Y84.285
N13785 X309.738 Y84.512
N13790 X309.711 Y84.73
N13795 X309.68 Y84.935
N13800 X309.645 Y85.123
N13805 X309.604 Y85.301
N13810 X309.557 Y85.466
N13815 X309.503 Y85.621
N13820 X309.444 Y85.762
N13825 X309.382 Y85.886
N13830 X309.312 Y86.001
N13835 X309.237 Y86.104
N13840 X309.154 Y86.201
N13845 X309.065 Y86.288
N13850 X308.967 Y86.369
N13855 X308.857 Y86.446
N13860 X308.734 Y86.518
N13865 X308.589 Y86.591
N13870 X308.416 Y86.666
N13875 X308.222 Y86.744
N13880 X308.014 Y86.821
N13885 X307.802 Y86.895
N13890 X307.586 Y86.966
N13895 X307.366 Y87.035
N13900 X307.141 Y87.103
N13905 X306.909 Y87.17
N13910 X305.58 Y87.548
N13915 Y92.264
N13920 X318.603
N13925 X319.441
N13930 X338.347 Y61.539
N13935 X338.694 Y60.981
N13940 X338.869 Y60.696
N13945 X339.042 Y60.415
N13950 X339.217 Y60.129
N13955 X339.391 Y59.842
N13960 X339.396 Y59.833
N13965 X339.565 Y59.55
N13970 X339.571 Y59.541
N13975 X339.738 Y59.256
N13980 X339.743 Y59.247
N13985 X339.908 Y58.961
N13990 X339.947 Y58.893
N13995 X339.94 Y59.166
N14000 X339.927 Y59.716
N14005 X339.915 Y60.255
N14010 X339.902 Y60.793
N14015 X339.887 Y61.333
N14020 X339.872 Y61.875
N14025 X339.858 Y62.419
N14030 X339.844 Y62.964
N14035 X339.833 Y63.511
N14040 X339.822 Y64.053
N14045 X339.813 Y64.6
N14050 X339.795 Y65.684
N14055 X339.786 Y66.226
N14060 X339.778 Y66.77
N14065 X339.771 Y67.315
N14070 X339.764 Y67.857
N14075 X339.758 Y68.401
N14080 X339.753 Y68.946
N14085 X339.748 Y69.488
N14090 X339.744 Y70.033
N14095 X339.741 Y70.577
N14100 X339.738 Y71.119
N14105 X339.735 Y71.661
N14110 X339.733 Y72.206
N14115 X339.731 Y72.748
N14120 X339.729 Y73.289
N14125 X339.727 Y73.831
N14130 Y81.415
N14135 X339.723 Y81.906
N14140 X339.72 Y82.152
N14145 X339.718 Y82.405
N14150 X339.715 Y82.652
N14155 X339.712 Y82.898
N14160 X339.708 Y83.136
N14165 X339.702 Y83.365
N14170 X339.692 Y83.593
N14175 X339.679 Y83.824
N14180 X339.663 Y84.055
N14185 X339.644 Y84.292
N14190 X339.624 Y84.526
N14195 X339.602 Y84.747
N14200 X339.576 Y84.959
N14205 X339.547 Y85.158
N14210 X339.512 Y85.344
N14215 X339.472 Y85.515
N14220 X339.424 Y85.678
N14225 X339.373 Y85.823
N14230 X339.319 Y85.947
N14235 X339.262 Y86.053
N14240 X339.201 Y86.146
N14245 X339.134 Y86.23
N14250 X339.059 Y86.306
N14255 X338.974 Y86.378
N14260 X338.87 Y86.451
N14265 X338.746 Y86.525
N14270 X338.601 Y86.599
N14275 X338.431 Y86.675
N14280 X338.243 Y86.752
N14285 X338.045 Y86.826
N14290 X337.837 Y86.899
N14295 X337.624 Y86.969
N14300 X337.407 Y87.037
N14305 X337.183 Y87.104
N14310 X336.953 Y87.17
N14315 X335.625 Y87.547
N14320 Y92.264
N14325 X351.874
N14330 G3 X352.174 Y92.564 I0. J0.3
N14335 G1 Y92.864
N14340 G19 G3 Y93.164 Z-4.7 J0. K0.3
N14345 G0 Z5.
N14350 X299.02 Y80.414
N14355 G1 Z1. F333.33
N14360 Z-4.7
N14365 X299.013 Y80.412 Z-4.767
N14370 X298.992 Y80.404 Z-4.83
N14375 X298.959 Y80.391 Z-4.887
N14380 X298.914 Y80.375 Z-4.935
N14385 X298.861 Y80.355 Z-4.97
N14390 X298.801 Y80.333 Z-4.992
N14395 X298.739 Y80.309 Z-5.
N14400 X298.458 Y80.204 F1000.
N14405 G17 G3 X298.283 Y79.817 I0.105 J-0.281
N14410 G1 X298.312 Y79.738
N14415 X298.325 Y79.703
N14420 X298.519 Y79.144
N14425 X298.529 Y79.116
N14430 X298.712 Y78.553
N14435 X298.72 Y78.525
N14440 X298.892 Y77.959
N14445 X298.9 Y77.933
N14450 X299.062 Y77.364
N14455 X299.069 Y77.339
N14460 X299.221 Y76.767
N14465 X299.228 Y76.736
N14470 X299.368 Y76.161
N14475 X299.376 Y76.128
N14480 X299.503 Y75.55
N14485 X299.509 Y75.52
N14490 X299.624 Y74.939
N14495 X299.63 Y74.911
N14500 X299.734 Y74.328
N14505 X299.738 Y74.303
N14510 X299.832 Y73.719
N14515 X299.835 Y73.698
N14520 X299.921 Y73.113
N14525 X299.924 Y73.093
N14530 X300.002 Y72.506
N14535 X300.004 Y72.486
N14540 X300.074 Y71.898
N14545 X300.076 Y71.88
N14550 X300.139 Y71.292
N14555 X300.142 Y71.271
N14560 X300.197 Y70.682
N14565 X300.198 Y70.662
N14570 X300.245 Y70.072
N14575 X300.247 Y70.049
N14580 X300.285 Y69.458
N14585 X300.286 Y69.438
N14590 X300.316 Y68.847
N14595 X300.317 Y68.827
N14600 X300.339 Y68.235
N14605 X300.34 Y68.212
N14610 X300.353 Y67.621
N14615 Y67.608
N14620 X300.361 Y67.016
N14625 X300.366 Y66.417
N14630 Y66.385
N14635 X300.358 Y65.769
N14640 X300.347 Y65.146
N14645 X300.346 Y65.134
N14650 X300.331 Y64.519
N14655 X300.33 Y64.502
N14660 X300.307 Y63.886
N14665 X300.306 Y63.867
N14670 X300.275 Y63.252
N14675 X300.274 Y63.23
N14680 X300.234 Y62.616
N14685 X300.232 Y62.596
N14690 X300.184 Y61.983
N14695 X300.182 Y61.958
N14700 X300.124 Y61.345
N14705 X300.122 Y61.323
N14710 X300.055 Y60.711
N14715 X300.053 Y60.692
N14720 X299.978 Y60.081
N14725 X299.975 Y60.059
N14730 X299.891 Y59.449
N14735 X299.888 Y59.427
N14740 X299.795 Y58.818
N14745 X299.791 Y58.794
N14750 X299.688 Y58.187
N14755 X299.683 Y58.16
N14760 X299.569 Y57.555
N14765 X299.563 Y57.526
N14770 X299.437 Y56.923
N14775 X299.431 Y56.894
N14780 X299.293 Y56.294
N14785 X299.286 Y56.265
N14790 X299.136 Y55.668
N14795 X299.128 Y55.638
N14800 X298.966 Y55.045
N14805 X298.957 Y55.013
N14810 X298.782 Y54.423
N14815 X298.775 Y54.398
N14820 X298.59 Y53.811
N14825 X298.579 Y53.777
N14830 X298.38 Y53.194
N14835 X298.37 Y53.167
N14840 X298.16 Y52.589
N14845 X298.147 Y52.555
N14850 X297.923 Y51.981
N14855 X297.909 Y51.947
N14860 X297.671 Y51.379
N14865 X297.656 Y51.343
N14870 X297.403 Y50.781
N14875 X297.388 Y50.749
N14880 X297.122 Y50.194
N14885 X297.106 Y50.163
N14890 X296.827 Y49.614
N14895 X296.811 Y49.582
N14900 X296.519 Y49.04
N14905 X296.498 Y49.003
N14910 X296.191 Y48.47
N14915 X296.166 Y48.428
N14920 X295.842 Y47.905
N14925 X295.816 Y47.864
N14930 X295.475 Y47.351
N14935 X295.452 Y47.317
N14940 X295.097 Y46.814
N14945 X295.073 Y46.781
N14950 X294.705 Y46.288
N14955 X294.676 Y46.25
N14960 X294.292 Y45.768
N14965 X294.258 Y45.727
N14970 X293.857 Y45.26
N14975 X293.823 Y45.222
N14980 X293.407 Y44.768
N14985 X293.369 Y44.729
N14990 X292.936 Y44.29
N14995 X292.9 Y44.255
N15000 X292.453 Y43.832
N15005 X292.412 Y43.794
N15010 X291.949 Y43.387
N15015 X291.908 Y43.353
N15020 X291.431 Y42.963
N15025 X291.39 Y42.931
N15030 X290.9 Y42.559
N15035 X290.857 Y42.527
N15040 X290.354 Y42.172
N15045 X290.311 Y42.143
N15050 X289.796 Y41.806
N15055 X289.753 Y41.778
N15060 X289.227 Y41.459
N15065 X289.183 Y41.433
N15070 X288.646 Y41.131
N15075 X288.602 Y41.108
N15080 X288.056 Y40.824
N15085 X288.01 Y40.801
N15090 X287.454 Y40.536
N15095 X287.407 Y40.515
N15100 X286.842 Y40.269
N15105 X286.796 Y40.25
N15110 X286.224 Y40.024
N15115 X286.177 Y40.006
N15120 X285.598 Y39.798
N15125 X285.554 Y39.783
N15130 X284.968 Y39.594
N15135 X284.926 Y39.581
N15140 X284.335 Y39.409
N15145 X284.293 Y39.397
N15150 X283.697 Y39.242
N15155 X283.654 Y39.232
N15160 X283.054 Y39.094
N15165 X283.007 Y39.084
N15170 X282.403 Y38.966
N15175 X282.357 Y38.958
N15180 X281.749 Y38.858
N15185 X281.71 Y38.853
N15190 X281.1 Y38.769
N15195 X281.067 Y38.765
N15200 X280.455 Y38.695
N15205 X280.416 Y38.691
N15210 X279.803 Y38.638
N15215 X279.756 Y38.634
N15220 X279.141 Y38.6
N15225 X279.101 Y38.598
N15230 X278.486 Y38.58
N15235 X278.466 Y38.579
N15240 X277.85 Y38.57
N15245 X277.793
N15250 X276.997 Y38.587
N15255 X276.973 Y38.588
N15260 X276.177 Y38.618
N15265 X276.128 Y38.621
N15270 X275.334 Y38.678
N15275 X275.271 Y38.684
N15280 X274.479 Y38.774
N15285 X274.425 Y38.782
N15290 X273.638 Y38.901
N15295 X273.593 Y38.909
N15300 X272.809 Y39.052
N15305 X272.763 Y39.061
N15310 X271.985 Y39.229
N15315 X271.928 Y39.243
N15320 X271.157 Y39.44
N15325 X271.093 Y39.458
N15330 X270.331 Y39.691
N15335 X270.268 Y39.711
N15340 X269.517 Y39.977
N15345 X269.457 Y40.
N15350 X268.718 Y40.297
N15355 X268.657 Y40.323
N15360 X267.932 Y40.653
N15365 X267.866 Y40.685
N15370 X267.158 Y41.049
N15375 X267.088 Y41.088
N15380 X266.401 Y41.489
N15385 X266.334 Y41.531
N15390 X265.668 Y41.968
N15395 X265.604 Y42.013
N15400 X264.962 Y42.484
N15405 X264.902 Y42.531
N15410 X264.285 Y43.034
N15415 X264.23 Y43.082
N15420 X263.638 Y43.614
N15425 X263.587 Y43.662
N15430 X263.02 Y44.221
N15435 X262.97 Y44.273
N15440 X262.431 Y44.859
N15445 X262.386 Y44.911
N15450 X261.874 Y45.521
N15455 X261.829 Y45.577
N15460 X261.347 Y46.211
N15465 X261.306 Y46.268
N15470 X260.854 Y46.923
N15475 X260.817 Y46.98
N15480 X260.395 Y47.655
N15485 X260.362 Y47.71
N15490 X259.969 Y48.402
N15495 X259.943 Y48.451
N15500 X259.576 Y49.158
N15505 X259.552 Y49.205
N15510 X259.21 Y49.924
N15515 X259.19 Y49.969
N15520 X258.872 Y50.7
N15525 X258.853 Y50.745
N15530 X258.559 Y51.485
N15535 X258.543 Y51.528
N15540 X258.272 Y52.277
N15545 X258.257 Y52.318
N15550 X258.008 Y53.075
N15555 X257.995 Y53.116
N15560 X257.768 Y53.879
N15565 X257.757 Y53.919
N15570 X257.551 Y54.688
N15575 X257.541 Y54.727
N15580 X257.356 Y55.502
N15585 X257.347 Y55.541
N15590 X257.183 Y56.32
N15595 X257.176 Y56.358
N15600 X257.032 Y57.141
N15605 X257.026 Y57.175
N15610 X256.9 Y57.961
N15615 X256.895 Y57.993
N15620 X256.786 Y58.782
N15625 X256.783 Y58.808
N15630 X256.688 Y59.599
N15635 X256.685 Y59.625
N15640 X256.604 Y60.418
N15645 X256.601 Y60.446
N15650 X256.535 Y61.239
N15655 X256.533 Y61.267
N15660 X256.482 Y62.062
N15665 X256.48 Y62.092
N15670 X256.445 Y62.887
N15675 Y62.908
N15680 X256.421 Y63.703
N15685 X256.42 Y63.72
N15690 X256.405 Y64.516
N15695 X256.394 Y65.32
N15700 Y65.361
N15705 X256.402 Y65.967
N15710 X256.413 Y66.581
N15715 X256.414 Y66.596
N15720 X256.431 Y67.203
N15725 Y67.223
N15730 X256.456 Y67.829
N15735 X256.457 Y67.849
N15740 X256.49 Y68.455
N15745 X256.492 Y68.479
N15750 X256.535 Y69.085
N15755 X256.536 Y69.102
N15760 X256.586 Y69.707
N15765 X256.588 Y69.727
N15770 X256.646 Y70.331
N15775 X256.648 Y70.353
N15780 X256.715 Y70.956
N15785 X256.717 Y70.976
N15790 X256.793 Y71.578
N15795 X256.795 Y71.598
N15800 X256.878 Y72.199
N15805 X256.882 Y72.226
N15810 X256.976 Y72.826
N15815 X256.981 Y72.855
N15820 X257.087 Y73.453
N15825 X257.093 Y73.482
N15830 X257.211 Y74.078
N15835 X257.216 Y74.105
N15840 X257.345 Y74.698
N15845 X257.351 Y74.723
N15850 X257.49 Y75.313
N15855 X257.495 Y75.336
N15860 X257.643 Y75.924
N15865 X257.651 Y75.954
N15870 X257.811 Y76.539
N15875 X257.819 Y76.566
N15880 X257.99 Y77.149
N15885 X258. Y77.183
N15890 X258.185 Y77.761
N15895 X258.195 Y77.791
N15900 X258.392 Y78.365
N15905 X258.405 Y78.4
N15910 X258.616 Y78.968
N15915 X258.629 Y79.003
N15920 X258.854 Y79.567
N15925 X258.867 Y79.599
N15930 X259.105 Y80.157
N15935 X259.118 Y80.187
N15940 X259.368 Y80.74
N15945 X259.384 Y80.774
N15950 X259.648 Y81.321
N15955 X259.667 Y81.358
N15960 X259.946 Y81.897
N15965 X259.963 Y81.929
N15970 X260.255 Y82.461
N15975 X260.273 Y82.493
N15980 X260.578 Y83.018
N15985 X260.597 Y83.05
N15990 X260.915 Y83.567
N15995 X260.937 Y83.601
N16000 X261.269 Y84.109
N16005 X261.294 Y84.147
N16010 X261.641 Y84.644
N16015 X261.67 Y84.684
N16020 X262.033 Y85.17
N16025 X262.065 Y85.211
N16030 X262.445 Y85.685
N16035 X262.475 Y85.722
N16040 X262.869 Y86.183
N16045 X262.903 Y86.221
N16050 X263.313 Y86.669
N16055 X263.345 Y86.703
N16060 X263.769 Y87.138
N16065 X263.803 Y87.171
N16070 X264.24 Y87.592
N16075 X264.277 Y87.626
N16080 X264.728 Y88.032
N16085 X264.766 Y88.065
N16090 X265.231 Y88.456
N16095 X265.268 Y88.486
N16100 X265.745 Y88.862
N16105 X265.785 Y88.892
N16110 X266.274 Y89.251
N16115 X266.319 Y89.283
N16120 X266.821 Y89.624
N16125 X266.869 Y89.655
N16130 X267.383 Y89.977
N16135 X267.427 Y90.004
N16140 X267.953 Y90.308
N16145 X267.988 Y90.327
N16150 X268.521 Y90.617
N16155 X268.561 Y90.638
N16160 X269.103 Y90.911
N16165 X269.152 Y90.935
N16170 X269.703 Y91.188
N16175 X269.757 Y91.212
N16180 X270.318 Y91.444
N16185 X270.365 Y91.462
N16190 X270.934 Y91.675
N16195 X270.974 Y91.69
N16200 X271.548 Y91.886
N16205 X271.591 Y91.9
N16210 X272.171 Y92.079
N16215 X272.217 Y92.093
N16220 X272.802 Y92.253
N16225 X272.849 Y92.265
N16230 X273.439 Y92.407
N16235 X273.488 Y92.418
N16240 X274.083 Y92.54
N16245 X274.128 Y92.548
N16250 X274.726 Y92.652
N16255 X274.764 Y92.658
N16260 X275.364 Y92.746
N16265 X275.397 Y92.75
N16270 X276. Y92.825
N16275 X276.042 Y92.83
N16280 X276.646 Y92.888
N16285 X276.698 Y92.892
N16290 X277.303 Y92.929
N16295 X277.349 Y92.931
N16300 X277.956 Y92.949
N16305 X277.979
N16310 X278.586 Y92.958
N16315 X278.629
N16320 X279.221 Y92.95
N16325 X279.238
N16330 X279.829 Y92.935
N16335 X279.864 Y92.933
N16340 X280.455 Y92.904
N16345 X280.499 Y92.902
N16350 X281.089 Y92.856
N16355 X281.125 Y92.852
N16360 X281.714 Y92.792
N16365 X281.74 Y92.789
N16370 X282.328 Y92.718
N16375 X282.357 Y92.715
N16380 X282.943 Y92.633
N16385 X282.98 Y92.627
N16390 X283.564 Y92.53
N16395 X283.609 Y92.522
N16400 X284.19 Y92.408
N16405 X284.237 Y92.398
N16410 X284.814 Y92.265
N16415 X284.861 Y92.253
N16420 X285.433 Y92.102
N16425 X285.48 Y92.088
N16430 X286.047 Y91.918
N16435 X286.093 Y91.904
N16440 X286.654 Y91.716
N16445 X286.697 Y91.7
N16450 X287.252 Y91.495
N16455 X287.295 Y91.479
N16460 X287.844 Y91.257
N16465 X287.886 Y91.239
N16470 X288.428 Y91.
N16475 X288.474 Y90.979
N16480 X289.007 Y90.722
N16485 X289.055 Y90.698
N16490 X289.579 Y90.422
N16495 X289.628 Y90.395
N16500 X290.141 Y90.1
N16505 X290.186 Y90.073
N16510 X290.689 Y89.76
N16515 X290.733 Y89.731
N16520 X291.224 Y89.401
N16525 X291.271 Y89.368
N16530 X291.749 Y89.019
N16535 X291.797 Y88.983
N16540 X292.261 Y88.615
N16545 X292.306 Y88.578
N16550 X292.755 Y88.193
N16555 X292.793 Y88.159
N16560 X293.229 Y87.758
N16565 X293.266 Y87.723
N16570 X293.688 Y87.307
N16575 X293.725 Y87.27
N16580 X294.132 Y86.84
N16585 X294.167 Y86.801
N16590 X294.559 Y86.358
N16595 X294.597 Y86.313
N16600 X294.971 Y85.855
N16605 X295.004 Y85.813
N16610 X295.362 Y85.341
N16615 X295.391 Y85.301
N16620 X295.733 Y84.818
N16625 X295.756 Y84.785
N16630 X296.085 Y84.293
N16635 X296.11 Y84.255
N16640 X296.424 Y83.753
N16645 X296.452 Y83.706
N16650 X296.747 Y83.193
N16655 X296.771 Y83.149
N16660 X297.049 Y82.626
N16665 X297.069 Y82.589
N16670 X297.332 Y82.058
N16675 X297.345 Y82.03
N16680 X297.597 Y81.494
N16685 X297.613 Y81.459
N16690 X297.851 Y80.917
N16695 X297.868 Y80.877
N16700 X298.09 Y80.328
N16705 X298.104 Y80.292
N16710 X298.283 Y79.817
N16715 G3 X298.669 Y79.642 I0.281 J0.105
N16720 G1 X298.95 Y79.747
N16725 X299.012 Y79.771 Z-4.992
N16730 X299.072 Y79.793 Z-4.97
N16735 X299.125 Y79.813 Z-4.935
N16740 X299.169 Y79.83 Z-4.887
N16745 X299.203 Y79.842 Z-4.83
N16750 X299.224 Y79.85 Z-4.767
N16755 X299.231 Y79.853 Z-4.7
N16760 G0 Z5.
N16765 X288.823 Y65.722
N16770 G1 Z1. F333.33
N16775 Z-4.7
N16780 X288.831 Z-4.767
N16785 X288.853 Z-4.83
N16790 X288.889 Y65.723 Z-4.887
N16795 X288.936 Z-4.935
N16800 X288.993 Y65.724 Z-4.97
N16805 X289.056 Y65.725 Z-4.992
N16810 X289.123 Y65.726 Z-5.
N16815 X289.423 Y65.73 F1000.
N16820 G3 X289.719 Y66.033 I-0.004 J0.3
N16825 G1 X289.716 Y66.277
N16830 X289.706 Y66.738
N16835 X289.692 Y67.198
N16840 X289.673 Y67.658
N16845 X289.648 Y68.121
N16850 X289.621 Y68.587
N16855 X289.59 Y69.052
N16860 X289.557 Y69.517
N16865 X289.521 Y69.982
N16870 X289.482 Y70.447
N16875 X289.44 Y70.909
N16880 X289.394 Y71.365
N16885 X289.342 Y71.817
N16890 X289.284 Y72.267
N16895 X289.219 Y72.718
N16900 X289.147 Y73.172
N16905 X289.071 Y73.629
N16910 X288.992 Y74.082
N16915 X288.908 Y74.531
N16920 X288.818 Y74.977
N16925 X288.722 Y75.419
N16930 X288.619 Y75.857
N16935 X288.508 Y76.293
N16940 X288.39 Y76.727
N16945 X288.264 Y77.159
N16950 X288.131 Y77.588
N16955 X287.99 Y78.017
N16960 X287.842 Y78.444
N16965 X287.686 Y78.871
N16970 X287.526 Y79.293
N16975 X287.362 Y79.701
N16980 X287.188 Y80.099
N16985 X287.004 Y80.492
N16990 X286.806 Y80.885
N16995 X286.601 Y81.272
N17000 X286.388 Y81.647
N17005 X286.165 Y82.012
N17010 X285.927 Y82.376
N17015 X285.681 Y82.733
N17020 X285.432 Y83.07
N17025 X285.179 Y83.382
N17030 X284.91 Y83.68
N17035 X284.621 Y83.973
N17040 X284.319 Y84.254
N17045 X284.012 Y84.516
N17050 X283.691 Y84.763
N17055 X283.354 Y84.999
N17060 X283.006 Y85.221
N17065 X282.65 Y85.427
N17070 X282.287 Y85.618
N17075 X281.919 Y85.79
N17080 X281.556 Y85.939
N17085 X281.19 Y86.063
N17090 X280.8 Y86.171
N17095 X280.392 Y86.267
N17100 X279.978 Y86.348
N17105 X279.572 Y86.413
N17110 X279.178 Y86.456
N17115 X278.769 Y86.478
N17120 X278.361 Y86.486
N17125 X277.808 Y86.464
N17130 X277.245 Y86.43
N17135 X276.711 Y86.374
N17140 X276.191 Y86.29
N17145 X275.68 Y86.175
N17150 X275.178 Y86.03
N17155 X274.691 Y85.855
N17160 X274.218 Y85.651
N17165 X273.759 Y85.415
N17170 X273.315 Y85.149
N17175 X272.886 Y84.853
N17180 X272.47 Y84.528
N17185 X272.069 Y84.178
N17190 X271.684 Y83.803
N17195 X271.314 Y83.407
N17200 X270.966 Y82.995
N17205 X270.638 Y82.567
N17210 X270.332 Y82.123
N17215 X270.044 Y81.657
N17220 X269.771 Y81.173
N17225 X269.514 Y80.678
N17230 X269.276 Y80.171
N17235 X269.052 Y79.652
N17240 X268.845 Y79.124
N17245 X268.65 Y78.584
N17250 X268.469 Y78.038
N17255 X268.302 Y77.489
N17260 X268.15 Y76.936
N17265 X268.013 Y76.38
N17270 X267.89 Y75.815
N17275 X267.778 Y75.242
N17280 X267.675 Y74.662
N17285 X267.581 Y74.079
N17290 X267.495 Y73.494
N17295 X267.417 Y72.906
N17300 X267.348 Y72.317
N17305 X267.286 Y71.724
N17310 X267.229 Y71.13
N17315 X267.181 Y70.537
N17320 X267.139 Y69.942
N17325 X267.104 Y69.348
N17330 X267.077 Y68.756
N17335 X267.059 Y68.162
N17340 X267.046 Y67.562
N17345 X267.038 Y66.958
N17350 X267.033 Y66.363
N17355 X267.04 Y65.74
N17360 X267.05 Y65.106
N17365 X267.063 Y64.476
N17370 X267.081 Y63.85
N17375 X267.105 Y63.226
N17380 X267.138 Y62.603
N17385 X267.176 Y61.981
N17390 X267.223 Y61.361
N17395 X267.277 Y60.741
N17400 X267.339 Y60.125
N17405 X267.411 Y59.511
N17410 X267.491 Y58.898
N17415 X267.58 Y58.287
N17420 X267.679 Y57.679
N17425 X267.789 Y57.073
N17430 X267.908 Y56.47
N17435 X268.038 Y55.872
N17440 X268.179 Y55.277
N17445 X268.331 Y54.69
N17450 X268.497 Y54.109
N17455 X268.676 Y53.536
N17460 X268.871 Y52.971
N17465 X269.082 Y52.412
N17470 X269.308 Y51.861
N17475 X269.551 Y51.319
N17480 X269.81 Y50.787
N17485 X270.085 Y50.267
N17490 X270.376 Y49.761
N17495 X270.682 Y49.279
N17500 X271.005 Y48.822
N17505 X271.354 Y48.384
N17510 X271.731 Y47.957
N17515 X272.126 Y47.547
N17520 X272.531 Y47.169
N17525 X272.948 Y46.827
N17530 X273.39 Y46.514
N17535 X273.858 Y46.224
N17540 X274.339 Y45.966
N17545 X274.825 Y45.745
N17550 X275.33 Y45.559
N17555 X275.866 Y45.399
N17560 X276.414 Y45.263
N17565 X276.955 Y45.16
N17570 X277.496 Y45.094
N17575 X278.067 Y45.06
N17580 X278.639 Y45.042
N17585 X279.086 Y45.056
N17590 X279.542 Y45.083
N17595 X279.981 Y45.129
N17600 X280.419 Y45.197
N17605 X280.858 Y45.285
N17610 X281.289 Y45.391
N17615 X281.701 Y45.515
N17620 X282.096 Y45.66
N17625 X282.487 Y45.832
N17630 X282.88 Y46.029
N17635 X283.264 Y46.245
N17640 X283.633 Y46.477
N17645 X283.983 Y46.725
N17650 X284.318 Y46.993
N17655 X284.644 Y47.284
N17660 X284.966 Y47.599
N17665 X285.284 Y47.933
N17670 X285.582 Y48.27
N17675 X285.858 Y48.614
N17680 X286.121 Y48.976
N17685 X286.375 Y49.356
N17690 X286.618 Y49.748
N17695 X286.847 Y50.148
N17700 X287.065 Y50.561
N17705 X287.273 Y50.984
N17710 X287.47 Y51.413
N17715 X287.655 Y51.847
N17720 X287.829 Y52.289
N17725 X287.994 Y52.737
N17730 X288.148 Y53.19
N17735 X288.293 Y53.65
N17740 X288.43 Y54.113
N17745 X288.557 Y54.58
N17750 X288.677 Y55.051
N17755 X288.788 Y55.526
N17760 X288.892 Y56.005
N17765 X288.99 Y56.486
N17770 X289.079 Y56.969
N17775 X289.163 Y57.454
N17780 X289.24 Y57.942
N17785 X289.311 Y58.432
N17790 X289.377 Y58.923
N17795 X289.437 Y59.414
N17800 X289.491 Y59.907
N17805 X289.539 Y60.4
N17810 X289.582 Y60.892
N17815 X289.617 Y61.385
N17820 X289.647 Y61.878
N17825 X289.67 Y62.371
N17830 X289.688 Y62.869
N17835 X289.701 Y63.37
N17840 X289.711 Y63.876
N17845 X289.72 Y64.384
N17850 X289.727 Y64.881
N17855 X289.725 Y65.342
N17860 X289.722 Y65.812
N17865 X289.719 Y66.033
N17870 G3 X289.415 Y66.329 I-0.3 J-0.004
N17875 G1 X289.116 Y66.326
N17880 X289.049 Y66.325 Z-4.992
N17885 X288.985 Y66.324 Z-4.97
N17890 X288.929 Y66.323 Z-4.935
N17895 X288.881 Z-4.887
N17900 X288.845 Y66.322 Z-4.83
N17905 X288.823 Z-4.767
N17910 X288.816 Z-4.7
N17915 G0 Z5.
N17920 X245.475 Y66.69
N17925 G1 Z1. F333.33
N17930 Z-4.7
N17935 X245.47 Y66.695 Z-4.767
N17940 X245.455 Y66.711 Z-4.83
N17945 X245.43 Y66.736 Z-4.887
N17950 X245.396 Y66.77 Z-4.935
N17955 X245.357 Y66.811 Z-4.97
N17960 X245.312 Y66.856 Z-4.992
N17965 X245.265 Y66.904 Z-5.
N17970 X245.055 Y67.118 F1000.
N17975 G3 X244.631 Y67.122 I-0.214 J-0.21
N17980 G1 X244.549 Y67.041
N17985 X244.516 Y67.01
N17990 X244.207 Y66.724
N17995 X244.182 Y66.702
N18000 X243.867 Y66.424
N18005 X243.841 Y66.401
N18010 X243.52 Y66.13
N18015 X243.488 Y66.104
N18020 X243.159 Y65.842
N18025 X243.126 Y65.816
N18030 X242.79 Y65.563
N18035 X242.758 Y65.54
N18040 X242.416 Y65.296
N18045 X242.384 Y65.274
N18050 X242.035 Y65.039
N18055 X242.007 Y65.021
N18060 X241.653 Y64.793
N18065 X241.626 Y64.776
N18070 X241.268 Y64.557
N18075 X241.24 Y64.54
N18080 X240.877 Y64.329
N18085 X240.848 Y64.312
N18090 X240.48 Y64.109
N18095 X240.453 Y64.094
N18100 X240.081 Y63.898
N18105 X240.053 Y63.884
N18110 X239.677 Y63.696
N18115 X239.651 Y63.683
N18120 X239.371 Y63.55
N18125 X239.415 Y63.516
N18130 X239.7 Y63.293
N18135 X239.742 Y63.26
N18140 X240.019 Y63.027
N18145 X240.053 Y62.997
N18150 X240.323 Y62.755
N18155 X240.356 Y62.725
N18160 X240.619 Y62.476
N18165 X240.655 Y62.44
N18170 X240.909 Y62.182
N18175 X240.947 Y62.142
N18180 X241.191 Y61.875
N18185 X241.222 Y61.839
N18190 X241.458 Y61.564
N18195 X241.488 Y61.529
N18200 X241.715 Y61.247
N18205 X241.733 Y61.225
N18210 X241.955 Y60.938
N18215 X241.97 Y60.918
N18220 X242.187 Y60.628
N18225 X242.2 Y60.611
N18230 X242.413 Y60.318
N18235 X242.429 Y60.295
N18240 X242.636 Y59.998
N18245 X242.651 Y59.977
N18250 X242.853 Y59.677
N18255 X242.867 Y59.655
N18260 X243.064 Y59.351
N18265 X243.079 Y59.327
N18270 X243.27 Y59.02
N18275 X243.283 Y58.999
N18280 X243.469 Y58.689
N18285 X243.477 Y58.675
N18290 X243.66 Y58.363
N18295 X243.667 Y58.35
N18300 X243.847 Y58.036
N18305 X244.03 Y57.712
N18310 X244.036 Y57.701
N18315 X244.211 Y57.384
N18320 X244.387 Y57.065
N18325 X244.563 Y56.741
N18330 X244.737 Y56.422
N18335 X244.742 Y56.411
N18340 X247.932 Y50.433
N18345 X248.076 Y50.162
N18350 X248.217 Y49.898
N18355 X248.358 Y49.637
N18360 X248.499 Y49.378
N18365 X248.641 Y49.125
N18370 X248.785 Y48.872
N18375 X248.932 Y48.619
N18380 X249.081 Y48.367
N18385 X249.232 Y48.115
N18390 X249.385 Y47.866
N18395 X249.535 Y47.625
N18400 X249.689 Y47.389
N18405 X249.843 Y47.158
N18410 X249.997 Y46.938
N18415 X250.156 Y46.723
N18420 X250.318 Y46.515
N18425 X250.485 Y46.314
N18430 X250.659 Y46.114
N18435 X250.838 Y45.919
N18440 X251.021 Y45.732
N18445 X251.207 Y45.552
N18450 X251.392 Y45.384
N18455 X251.571 Y45.235
N18460 X251.747 Y45.104
N18465 X251.923 Y44.989
N18470 X252.1 Y44.888
N18475 X252.287 Y44.799
N18480 X252.498 Y44.713
N18485 X252.735 Y44.628
N18490 X252.979 Y44.549
N18495 X253.212 Y44.482
N18500 X253.447 Y44.426
N18505 X253.705 Y44.375
N18510 X255.227 Y44.102
N18515 Y39.264
N18520 X243.582
N18525 X242.783
N18530 X242.337 Y39.927
N18535 X242.106 Y40.271
N18540 X241.873 Y40.621
N18545 X241.642 Y40.97
N18550 X241.636 Y40.98
N18555 X241.411 Y41.327
N18560 X241.404 Y41.338
N18565 X241.182 Y41.687
N18570 X241.173 Y41.701
N18575 X240.955 Y42.052
N18580 X240.945 Y42.068
N18585 X240.731 Y42.422
N18590 X240.721 Y42.439
N18595 X240.512 Y42.796
N18600 X240.505 Y42.807
N18605 X240.299 Y43.166
N18610 X240.293 Y43.177
N18615 X240.09 Y43.537
N18620 X240.084 Y43.548
N18625 X239.884 Y43.91
N18630 X239.682 Y44.28
N18635 X239.483 Y44.649
N18640 X239.478 Y44.658
N18645 X239.284 Y45.023
N18650 X239.089 Y45.389
N18655 X238.894 Y45.762
N18660 X238.701 Y46.129
N18665 X238.508 Y46.503
N18670 X238.317 Y46.874
N18675 X238.128 Y47.242
N18680 X237.939 Y47.611
N18685 X237.749 Y47.982
N18690 X237.561 Y48.351
N18695 X237.373 Y48.721
N18700 X234.286 Y54.774
N18705 X234.162 Y55.008
N18710 X234.031 Y55.253
N18715 X233.901 Y55.496
N18720 X233.771 Y55.737
N18725 X233.64 Y55.977
N18730 X233.509 Y56.214
N18735 X233.377 Y56.45
N18740 X233.243 Y56.685
N18745 X233.108 Y56.92
N18750 X232.972 Y57.153
N18755 X232.835 Y57.383
N18760 X232.698 Y57.608
N18765 X232.56 Y57.83
N18770 X232.419 Y58.049
N18775 X232.276 Y58.266
N18780 X232.132 Y58.478
N18785 X231.986 Y58.686
N18790 X231.837 Y58.891
N18795 X231.685 Y59.09
N18800 X231.533 Y59.283
N18805 X231.383 Y59.462
N18810 X231.235 Y59.627
N18815 X231.09 Y59.776
N18820 X230.942 Y59.913
N18825 X230.795 Y60.035
N18830 X230.648 Y60.141
N18835 X230.493 Y60.238
N18840 X230.327 Y60.329
N18845 X230.149 Y60.412
N18850 X229.965 Y60.487
N18855 X229.781 Y60.551
N18860 X229.595 Y60.603
N18865 X229.403 Y60.644
N18870 X229.191 Y60.679
N18875 X228.959 Y60.709
N18880 X228.715 Y60.734
N18885 X228.464 Y60.754
N18890 X228.213 Y60.77
N18895 X227.962 Y60.782
N18900 X227.708 Y60.788
N18905 X227.444 Y60.791
N18910 X227.172 Y60.792
N18915 X224.671
N18920 Y50.142
N18925 X224.672 Y49.892
N18930 Y49.639
N18935 X224.674 Y49.398
N18940 X224.678 Y49.157
N18945 X224.683 Y48.919
N18950 X224.692 Y48.681
N18955 X224.702 Y48.437
N18960 X224.714 Y48.19
N18965 X224.727 Y47.94
N18970 X224.74 Y47.697
N18975 X224.754 Y47.465
N18980 X224.772 Y47.24
N18985 X224.793 Y47.026
N18990 X224.82 Y46.82
N18995 X224.852 Y46.621
N19000 X224.892 Y46.426
N19005 X224.936 Y46.236
N19010 X224.989 Y46.051
N19015 X225.047 Y45.87
N19020 X225.107 Y45.712
N19025 X225.165 Y45.585
N19030 X225.215 Y45.496
N19035 X225.268 Y45.422
N19040 X225.343 Y45.338
N19045 X225.441 Y45.245
N19050 X225.555 Y45.153
N19055 X225.673 Y45.07
N19060 X225.796 Y44.997
N19065 X225.932 Y44.928
N19070 X226.093 Y44.859
N19075 X226.282 Y44.788
N19080 X226.495 Y44.713
N19085 X226.721 Y44.637
N19090 X226.945 Y44.563
N19095 X227.168 Y44.493
N19100 X227.394 Y44.426
N19105 X227.626 Y44.359
N19110 X228.958 Y43.982
N19115 Y39.264
N19120 X210.441
N19125 Y42.847
N19130 Y44.002
N19135 X211.557 Y44.297
N19140 X211.797 Y44.361
N19145 X212.03 Y44.424
N19150 X212.255 Y44.487
N19155 X212.469 Y44.551
N19160 X212.677 Y44.618
N19165 X212.881 Y44.69
N19170 X213.08 Y44.765
N19175 X213.276 Y44.845
N19180 X213.458 Y44.926
N19185 X213.62 Y45.006
N19190 X213.757 Y45.084
N19195 X213.87 Y45.159
N19200 X213.952 Y45.224
N19205 X214.025 Y45.296
N19210 X214.106 Y45.393
N19215 X214.188 Y45.508
N19220 X214.259 Y45.624
N19225 X214.319 Y45.743
N19230 X214.374 Y45.878
N19235 X214.423 Y46.026
N19240 X214.467 Y46.19
N19245 X214.507 Y46.378
N19250 X214.544 Y46.579
N19255 X214.575 Y46.791
N19260 X214.603 Y47.009
N19265 X214.626 Y47.233
N19270 X214.647 Y47.461
N19275 X214.663 Y47.693
N19280 X214.679 Y47.933
N19285 X214.692 Y48.17
N19290 X214.702 Y48.405
N19295 X214.71 Y48.646
N19300 X214.716 Y48.889
N19305 X214.721 Y49.13
N19310 X214.724 Y49.374
N19315 X214.726 Y49.618
N19320 Y49.864
N19325 X214.727 Y50.12
N19330 Y81.405
N19335 X214.725 Y81.651
N19340 X214.724 Y81.903
N19345 X214.718 Y82.401
N19350 X214.715 Y82.645
N19355 X214.71 Y82.885
N19360 X214.703 Y83.122
N19365 X214.693 Y83.353
N19370 X214.68 Y83.584
N19375 X214.663 Y83.815
N19380 X214.644 Y84.051
N19385 X214.622 Y84.287
N19390 X214.599 Y84.514
N19395 X214.572 Y84.732
N19400 X214.542 Y84.934
N19405 X214.506 Y85.119
N19410 X214.463 Y85.303
N19415 X214.415 Y85.475
N19420 X214.36 Y85.634
N19425 X214.301 Y85.782
N19430 X214.24 Y85.906
N19435 X214.178 Y86.011
N19440 X214.106 Y86.109
N19445 X214.026 Y86.202
N19450 X213.935 Y86.29
N19455 X213.835 Y86.372
N19460 X213.723 Y86.449
N19465 X213.601 Y86.521
N19470 X213.457 Y86.592
N19475 X213.28 Y86.669
N19480 X213.085 Y86.747
N19485 X212.882 Y86.822
N19490 X212.672 Y86.895
N19495 X212.455 Y86.965
N19500 X212.231 Y87.034
N19505 X212.004 Y87.102
N19510 X211.769 Y87.17
N19515 X210.441 Y87.549
N19520 Y92.264
N19525 X230.224
N19530 X230.237
N19535 X230.771 Y92.259
N19540 X231.313 Y92.252
N19545 X231.328 Y92.251
N19550 X231.862 Y92.239
N19555 X231.884 Y92.238
N19560 X232.417 Y92.217
N19565 X232.444 Y92.216
N19570 X232.977 Y92.186
N19575 X233.003 Y92.184
N19580 X233.535 Y92.145
N19585 X233.557 Y92.143
N19590 X234.089 Y92.095
N19595 X234.109 Y92.093
N19600 X234.64 Y92.039
N19605 X234.658 Y92.037
N19610 X235.189 Y91.976
N19615 X235.215 Y91.973
N19620 X235.744 Y91.903
N19625 X235.774 Y91.899
N19630 X236.302 Y91.818
N19635 X236.337 Y91.812
N19640 X236.862 Y91.719
N19645 X236.896 Y91.712
N19650 X237.42 Y91.607
N19655 X237.453 Y91.6
N19660 X237.974 Y91.483
N19665 X238.005 Y91.476
N19670 X238.523 Y91.348
N19675 X238.556 Y91.339
N19680 X239.072 Y91.199
N19685 X239.113 Y91.187
N19690 X239.624 Y91.033
N19695 X239.67 Y91.018
N19700 X240.175 Y90.848
N19705 X240.221 Y90.831
N19710 X240.721 Y90.644
N19715 X240.763 Y90.627
N19720 X241.258 Y90.425
N19725 X241.302 Y90.406
N19730 X241.789 Y90.188
N19735 X241.837 Y90.166
N19740 X242.317 Y89.931
N19745 X242.375 Y89.901
N19750 X242.844 Y89.646
N19755 X242.906 Y89.609
N19760 X243.362 Y89.332
N19765 X243.423 Y89.293
N19770 X243.865 Y88.994
N19775 X243.919 Y88.955
N19780 X244.348 Y88.637
N19785 X244.404 Y88.593
N19790 X244.817 Y88.254
N19795 X244.875 Y88.204
N19800 X245.27 Y87.845
N19805 X245.329 Y87.788
N19810 X245.704 Y87.408
N19815 X245.762 Y87.346
N19820 X246.115 Y86.945
N19825 X246.172 Y86.875
N19830 X246.5 Y86.454
N19835 X246.55 Y86.386
N19840 X246.854 Y85.947
N19845 X246.897 Y85.882
N19850 X247.178 Y85.428
N19855 X247.215 Y85.363
N19860 X247.473 Y84.896
N19865 X247.51 Y84.825
N19870 X247.743 Y84.345
N19875 X247.779 Y84.264
N19880 X247.983 Y83.771
N19885 X248.01 Y83.7
N19890 X248.189 Y83.197
N19895 X248.211 Y83.132
N19900 X248.367 Y82.621
N19905 X248.383 Y82.565
N19910 X248.519 Y82.048
N19915 X248.533 Y81.99
N19920 X248.648 Y81.468
N19925 X248.659 Y81.415
N19930 X248.755 Y80.889
N19935 X248.764 Y80.833
N19940 X248.84 Y80.305
N19945 X248.847 Y80.248
N19950 X248.903 Y79.717
N19955 X248.908 Y79.656
N19960 X248.942 Y79.123
N19965 X248.944 Y79.084
N19970 X248.964 Y78.55
N19975 X248.965 Y78.528
N19980 X248.977 Y77.994
N19985 Y77.928
N19990 X248.968 Y77.508
N19995 X248.967 Y77.493
N20000 X248.954 Y77.073
N20005 X248.953 Y77.037
N20010 X248.93 Y76.618
N20015 X248.927 Y76.575
N20020 X248.892 Y76.156
N20025 X248.887 Y76.11
N20030 X248.839 Y75.692
N20035 X248.834 Y75.649
N20040 X248.774 Y75.233
N20045 X248.767 Y75.194
N20050 X248.696 Y74.779
N20055 X248.689 Y74.74
N20060 X248.607 Y74.328
N20065 X248.597 Y74.282
N20070 X248.502 Y73.872
N20075 X248.491 Y73.826
N20080 X248.383 Y73.419
N20085 X248.368 Y73.369
N20090 X248.246 Y72.967
N20095 X248.23 Y72.917
N20100 X248.094 Y72.519
N20105 X248.076 Y72.469
N20110 X247.926 Y72.077
N20115 X247.911 Y72.037
N20120 X247.75 Y71.649
N20125 X247.731 Y71.607
N20130 X247.558 Y71.223
N20135 X247.539 Y71.183
N20140 X247.355 Y70.805
N20145 X247.328 Y70.752
N20150 X247.129 Y70.382
N20155 X247.103 Y70.334
N20160 X246.891 Y69.972
N20165 X246.862 Y69.924
N20170 X246.636 Y69.568
N20175 X246.611 Y69.532
N20180 X246.375 Y69.184
N20185 X246.35 Y69.148
N20190 X246.104 Y68.807
N20195 X246.077 Y68.771
N20200 X245.821 Y68.438
N20205 X245.791 Y68.4
N20210 X245.524 Y68.075
N20215 X245.491 Y68.035
N20220 X245.213 Y67.72
N20225 X245.176 Y67.679
N20230 X244.887 Y67.374
N20235 X244.849 Y67.336
N20240 X244.631 Y67.122
N20245 G3 X244.627 Y66.698 I0.21 J-0.214
N20250 G1 X244.837 Y66.483
N20255 X244.884 Y66.436 Z-4.992
N20260 X244.928 Y66.391 Z-4.97
N20265 X244.968 Y66.35 Z-4.935
N20270 X245.001 Y66.316 Z-4.887
N20275 X245.027 Y66.291 Z-4.83
N20280 X245.042 Y66.275 Z-4.767
N20285 X245.047 Y66.269 Z-4.7
N20290 G0 Z5.
N20295 X237.426 Y76.503
N20300 G1 Z1. F333.33
N20305 Z-4.7
N20310 X237.434 Z-4.767
N20315 X237.456 Z-4.83
N20320 X237.492 Y76.502 Z-4.887
N20325 X237.539 Y76.501 Z-4.935
N20330 X237.596 Y76.499 Z-4.97
N20335 X237.66 Y76.498 Z-4.992
N20340 X237.726 Y76.496 Z-5.
N20345 X238.026 Y76.489 F1000.
N20350 G3 X238.333 Y76.782 I0.007 J0.3
N20355 G1 X238.337 Y76.959
N20360 X238.326 Y77.375
N20365 X238.309 Y77.818
N20370 X238.285 Y78.246
N20375 X238.249 Y78.663
N20380 X238.202 Y79.071
N20385 X238.139 Y79.471
N20390 X238.061 Y79.862
N20395 X237.966 Y80.25
N20400 X237.855 Y80.634
N20405 X237.727 Y81.01
N20410 X237.584 Y81.378
N20415 X237.428 Y81.729
N20420 X237.255 Y82.063
N20425 X237.062 Y82.387
N20430 X236.849 Y82.704
N20435 X236.619 Y83.008
N20440 X236.378 Y83.293
N20445 X236.127 Y83.553
N20450 X235.857 Y83.795
N20455 X235.563 Y84.027
N20460 X235.246 Y84.25
N20465 X234.917 Y84.459
N20470 X234.581 Y84.649
N20475 X234.239 Y84.819
N20480 X233.884 Y84.971
N20485 X233.514 Y85.109
N20490 X233.131 Y85.234
N20495 X232.741 Y85.343
N20500 X232.344 Y85.439
N20505 X231.94 Y85.521
N20510 X231.531 Y85.59
N20515 X231.116 Y85.646
N20520 X230.696 Y85.691
N20525 X230.27 Y85.726
N20530 X229.838 Y85.751
N20535 X229.396 Y85.768
N20540 X228.945 Y85.782
N20545 X228.508 Y85.792
N20550 X228.306 Y85.791
N20555 X228.084 Y85.789
N20560 X227.861 Y85.788
N20565 X227.639 Y85.786
N20570 X227.417 Y85.785
N20575 X227.196 Y85.783
N20580 X226.974 Y85.781
N20585 X226.753 Y85.779
N20590 X226.533 Y85.776
N20595 X226.313 Y85.773
N20600 X226.093 Y85.77
N20605 X225.874 Y85.766
N20610 X225.655 Y85.761
N20615 X225.437 Y85.756
N20620 X225.219 Y85.751
N20625 X225.002 Y85.744
N20630 X224.786 Y85.736
N20635 X224.671 Y85.732
N20640 Y67.264
N20645 X227.294
N20650 X227.701 Y67.27
N20655 X228.117 Y67.278
N20660 X228.528 Y67.288
N20665 X228.935 Y67.301
N20670 X229.337 Y67.319
N20675 X229.732 Y67.342
N20680 X230.123 Y67.372
N20685 X230.51 Y67.411
N20690 X230.898 Y67.457
N20695 X231.284 Y67.512
N20700 X231.659 Y67.574
N20705 X232.02 Y67.645
N20710 X232.368 Y67.729
N20715 X232.709 Y67.827
N20720 X233.047 Y67.941
N20725 X233.38 Y68.069
N20730 X233.707 Y68.212
N20735 X234.03 Y68.37
N20740 X234.347 Y68.541
N20745 X234.656 Y68.724
N20750 X234.954 Y68.919
N20755 X235.237 Y69.123
N20760 X235.507 Y69.339
N20765 X235.764 Y69.567
N20770 X236.005 Y69.806
N20775 X236.235 Y70.06
N20780 X236.454 Y70.328
N20785 X236.661 Y70.609
N20790 X236.857 Y70.903
N20795 X237.041 Y71.207
N20800 X237.212 Y71.521
N20805 X237.371 Y71.845
N20810 X237.519 Y72.178
N20815 X237.654 Y72.517
N20820 X237.775 Y72.856
N20825 X237.881 Y73.201
N20830 X237.973 Y73.551
N20835 X238.054 Y73.911
N20840 X238.124 Y74.28
N20845 X238.183 Y74.652
N20850 X238.232 Y75.028
N20855 X238.269 Y75.405
N20860 X238.297 Y75.786
N20865 X238.315 Y76.179
N20870 X238.329 Y76.583
N20875 X238.333 Y76.782
N20880 G3 X238.041 Y77.089 I-0.3 J0.007
N20885 G1 X237.741 Y77.096
N20890 X237.674 Y77.098 Z-4.992
N20895 X237.61 Y77.099 Z-4.97
N20900 X237.554 Y77.1 Z-4.935
N20905 X237.506 Y77.102 Z-4.887
N20910 X237.47 Z-4.83
N20915 X237.448 Y77.103 Z-4.767
N20920 X237.441 Z-4.7
N20925 G0 Z5.
N20930 X203.255 Y80.246
N20935 G1 Z1. F333.33
N20940 Z-4.7
N20945 X203.248 Y80.244 Z-4.767
N20950 X203.227 Y80.237 Z-4.83
N20955 X203.193 Y80.225 Z-4.887
N20960 X203.148 Y80.209 Z-4.935
N20965 X203.095 Y80.191 Z-4.97
N20970 X203.035 Y80.17 Z-4.992
N20975 X202.972 Y80.148 Z-5.
N20980 X202.688 Y80.05 F1000.
N20985 G3 X202.503 Y79.668 I0.098 J-0.283
N20990 G1 X202.685 Y79.144
N20995 X202.695 Y79.116
N21000 X202.878 Y78.553
N21005 X202.886 Y78.527
N21010 X203.059 Y77.961
N21015 X203.067 Y77.933
N21020 X203.229 Y77.364
N21025 X203.236 Y77.339
N21030 X203.388 Y76.767
N21035 X203.395 Y76.736
N21040 X203.535 Y76.161
N21045 X203.543 Y76.128
N21050 X203.67 Y75.55
N21055 X203.676 Y75.52
N21060 X203.791 Y74.939
N21065 X203.797 Y74.909
N21070 X203.9 Y74.326
N21075 X203.904 Y74.306
N21080 X203.999 Y73.721
N21085 X204.002 Y73.696
N21090 X204.087 Y73.11
N21095 X204.09 Y73.093
N21100 X204.168 Y72.506
N21105 X204.17 Y72.488
N21110 X204.241 Y71.9
N21115 X204.243 Y71.88
N21120 X204.306 Y71.292
N21125 X204.309 Y71.269
N21130 X204.363 Y70.68
N21135 X204.364 Y70.662
N21140 X204.411 Y70.072
N21145 X204.413 Y70.051
N21150 X204.452 Y69.461
N21155 X204.453 Y69.438
N21160 X204.483 Y68.847
N21165 X204.484 Y68.824
N21170 X204.505 Y68.233
N21175 X204.506 Y68.215
N21180 X204.52 Y67.623
N21185 Y67.606
N21190 X204.527 Y67.014
N21195 X204.533 Y66.419
N21200 Y66.382
N21205 X204.524 Y65.767
N21210 X204.513 Y65.146
N21215 X204.498 Y64.521
N21220 X204.497 Y64.502
N21225 X204.474 Y63.886
N21230 X204.473 Y63.867
N21235 X204.442 Y63.252
N21240 X204.441 Y63.23
N21245 X204.401 Y62.616
N21250 X204.399 Y62.594
N21255 X204.35 Y61.98
N21260 X204.348 Y61.958
N21265 X204.29 Y61.345
N21270 X204.288 Y61.326
N21275 X204.222 Y60.714
N21280 X204.22 Y60.689
N21285 X204.144 Y60.078
N21290 X204.141 Y60.061
N21295 X204.058 Y59.451
N21300 X204.055 Y59.427
N21305 X203.962 Y58.818
N21310 X203.957 Y58.792
N21315 X203.853 Y58.185
N21320 X203.849 Y58.16
N21325 X203.735 Y57.555
N21330 X203.729 Y57.526
N21335 X203.603 Y56.923
N21340 X203.597 Y56.897
N21345 X203.46 Y56.296
N21350 X203.453 Y56.265
N21355 X203.303 Y55.668
N21360 X203.295 Y55.636
N21365 X203.132 Y55.042
N21370 X203.124 Y55.015
N21375 X202.95 Y54.425
N21380 X202.941 Y54.396
N21385 X202.755 Y53.809
N21390 X202.745 Y53.779
N21395 X202.547 Y53.196
N21400 X202.536 Y53.165
N21405 X202.325 Y52.586
N21410 X202.313 Y52.555
N21415 X202.089 Y51.981
N21420 X202.075 Y51.947
N21425 X201.837 Y51.379
