(Exported by FreeCAD)
(Post Processor: linuxcnc_post)
(Output Time:2021-07-25 08:47:59.865379)
(begin preamble)
G17 G54 G40 G49 G80 G90
G21
(begin operation: T1: 6mm end mill002)
(machine: not set, mm/min)
(T1: 6mm end mill002)
M6 T1
M3 S12000
(finish operation: T1: 6mm end mill002)
(begin operation: RampEntryDressup)
(machine: not set, mm/min)
G0 X0.000 Y0.000 Z10.000
G0 X43.407 Y386.232 Z10.000
G0 X43.407 Y386.232 Z6.000
G1 X38.407 Y386.232 Z3.113 F600.000
G1 X38.407 Y386.036 Z3.000 F600.000
G1 X38.407 Y386.232 Z2.887 F600.000
G1 X43.407 Y386.232 Z0.000 F600.000
G1 X38.407 Y386.232 Z-0.000 F600.000
G1 X38.407 Y41.585 Z0.000 F600.000
G1 X43.407 Y41.585 Z0.000 F600.000
G1 X43.407 Y386.232 Z-0.000 F600.000
G1 X40.809 Y386.232 Z-1.500 F600.000
G1 X43.407 Y386.232 Z-3.000 F600.000
G1 X38.407 Y386.232 Z-3.000 F600.000
G1 X38.407 Y41.585 Z-3.000 F600.000
G1 X43.407 Y41.585 Z-3.000 F600.000
G1 X43.407 Y386.232 Z-3.000 F600.000
G1 X40.809 Y386.232 Z-4.500 F600.000
G1 X43.407 Y386.232 Z-6.000 F600.000
G1 X38.407 Y386.232 Z-6.000 F600.000
G1 X38.407 Y41.585 Z-6.000 F600.000
G1 X43.407 Y41.585 Z-6.000 F600.000
G1 X43.407 Y386.232 Z-6.000 F600.000
G1 X40.809 Y386.232 Z-7.500 F600.000
G1 X43.407 Y386.232 Z-9.000 F600.000
G1 X38.407 Y386.232 Z-9.000 F600.000
G1 X38.407 Y41.585 Z-9.000 F600.000
G1 X43.407 Y41.585 Z-9.000 F600.000
G1 X43.407 Y386.232 Z-9.000 F600.000
G1 X40.809 Y386.232 Z-10.500 F600.000
G1 X43.407 Y386.232 Z-12.000 F600.000
G1 X38.407 Y386.232 Z-12.000 F600.000
G1 X38.407 Y41.585 Z-12.000 F600.000
G1 X43.407 Y41.585 Z-12.000 F600.000
G1 X43.407 Y386.232 Z-12.000 F600.000
G1 X40.809 Y386.232 Z-13.500 F600.000
G1 X43.407 Y386.232 Z-15.000 F600.000
G1 X38.407 Y386.232 Z-15.000 F600.000
G1 X38.407 Y41.585 Z-15.000 F600.000
G1 X43.407 Y41.585 Z-15.000 F600.000
G1 X43.407 Y386.232 Z-15.000 F600.000
G1 X40.809 Y386.232 Z-16.500 F600.000
G1 X43.407 Y386.232 Z-18.000 F600.000
G1 X38.407 Y386.232 Z-18.000 F600.000
G1 X38.407 Y41.585 Z-18.000 F600.000
G1 X43.407 Y41.585 Z-18.000 F600.000
G1 X43.407 Y386.232 Z-18.000 F600.000
G1 X40.809 Y386.232 Z-19.500 F600.000
G1 X43.407 Y386.232 Z-21.000 F600.000
G1 X38.407 Y386.232 Z-21.000 F600.000
G1 X38.407 Y41.585 Z-21.000 F600.000
G1 X43.407 Y41.585 Z-21.000 F600.000
G1 X43.407 Y386.232 Z-21.000 F600.000
G1 X40.809 Y386.232 Z-22.500 F600.000
G1 X43.407 Y386.232 Z-24.000 F600.000
G1 X38.407 Y386.232 Z-24.000 F600.000
G1 X38.407 Y41.585 Z-24.000 F600.000
G1 X43.407 Y41.585 Z-24.000 F600.000
G1 X43.407 Y386.232 Z-24.000 F600.000
G0 X43.407 Y386.232 Z10.000
(finish operation: RampEntryDressup)
(begin postamble)
M05
G17 G54 G90 G80 G40
M2
