%
(1001)
(T1  D=6. CR=0. - ZMIN=-8. - FLAT END MILL)
N10 G90 G94 G17 G91.1
N15 G21
N20 G53 G0 Z0.
(CONTOUR1)
N25 M9
N30 T1 M6
N35 S24000 M3
N40 G54
N45 G0 X-4.355 Y-1.137
N50 G43 Z35. H1
N55 G0 Z2.597
N60 G1 Z-0.432 F1333.33
N65 X-4.349 Y-1.139 Z-0.522
N70 X-4.33 Y-1.147 Z-0.609
N75 X-4.298 Y-1.16 Z-0.691
N80 X-4.255 Y-1.178 Z-0.767
N85 X-4.201 Y-1.2 Z-0.836
N90 X-4.138 Y-1.226 Z-0.894
N95 X-4.067 Y-1.255 Z-0.94
N100 X-3.991 Y-1.286 Z-0.975
N105 X-3.91 Y-1.319 Z-0.995
N110 X-3.828 Y-1.353 Z-1.003
N115 G3 X-3. Y-0.798 I0.228 J0.555 F4000.
N120 G1 Y291.829
N125 X-2.997 Y291.961
N130 X-2.993 Y292.025
N135 X-2.985 Y292.123
N140 X-2.974 Y292.221
N145 X-2.959 Y292.319
N150 X-2.941 Y292.417
N155 X-2.92 Y292.514
N160 X-2.895 Y292.612
N165 X-2.835 Y292.808
N170 X-2.805 Y292.891
N175 X-2.759 Y293.004
N180 X-2.667 Y293.2
N185 X-2.609 Y293.308
N190 X-2.557 Y293.396
N195 X-2.426 Y293.592
N200 X-2.413 Y293.609
N205 X-2.27 Y293.788
N210 X-2.217 Y293.847
N215 X-2.085 Y293.983
N220 X-2.022 Y294.043
N225 X-1.862 Y294.179
N230 X-1.826 Y294.207
N235 X-1.63 Y294.345
N240 X-1.583 Y294.375
N245 X-1.434 Y294.462
N250 X-1.238 Y294.559
N255 X-1.212 Y294.571
N260 X-1.042 Y294.64
N265 X-0.847 Y294.705
N270 X-0.651 Y294.755
N275 X-0.596 Y294.767
N280 X-0.455 Y294.792
N285 X-0.259 Y294.815
N290 X-0.063 Y294.826
N295 X0.132 Y294.827
N300 X349.867
N305 X350.063 Y294.826
N310 X350.259 Y294.815
N315 X350.455 Y294.792
N320 X350.596 Y294.767
N325 X350.651 Y294.755
N330 X350.847 Y294.705
N335 X351.042 Y294.64
N340 X351.212 Y294.571
N345 X351.238 Y294.559
N350 X351.434 Y294.462
N355 X351.583 Y294.375
N360 X351.63 Y294.345
N365 X351.826 Y294.207
N370 X351.862 Y294.179
N375 X352.022 Y294.043
N380 X352.085 Y293.983
N385 X352.217 Y293.847
N390 X352.27 Y293.788
N395 X352.413 Y293.609
N400 X352.426 Y293.592
N405 X352.557 Y293.396
N410 X352.609 Y293.308
N415 X352.667 Y293.2
N420 X352.759 Y293.004
N425 X352.805 Y292.891
N430 X352.835 Y292.808
N435 X352.895 Y292.612
N440 X352.92 Y292.514
N445 X352.941 Y292.417
N450 X352.959 Y292.319
N455 X352.974 Y292.221
N460 X352.985 Y292.123
N465 X352.993 Y292.025
N470 X352.997 Y291.961
N475 X353. Y291.829
N480 Y-0.798
N485 X352.999 Y-0.994
N490 X352.995 Y-1.092
N495 X352.988 Y-1.19
N500 X352.978 Y-1.288
N505 X352.965 Y-1.386
N510 X352.948 Y-1.484
N515 X352.928 Y-1.582
N520 X352.877 Y-1.778
N525 X352.811 Y-1.973
N530 X352.805 Y-1.991
N535 X352.731 Y-2.169
N540 X352.633 Y-2.365
N545 X352.609 Y-2.408
N550 X352.516 Y-2.561
N555 X352.413 Y-2.709
N560 X352.377 Y-2.757
N565 X352.217 Y-2.947
N570 X352.212 Y-2.953
N575 X352.022 Y-3.143
N580 X352.016 Y-3.149
N585 X351.826 Y-3.307
N590 X351.776 Y-3.345
N595 X351.63 Y-3.445
N600 X351.473 Y-3.54
N605 X351.434 Y-3.562
N610 X351.238 Y-3.659
N615 X351.052 Y-3.736
N620 X351.042 Y-3.74
N625 X350.847 Y-3.805
N630 X350.651 Y-3.855
N635 X350.455 Y-3.892
N640 X350.259 Y-3.915
N645 X350.063 Y-3.926
N650 X349.867 Y-3.927
N655 X0.132
N660 X-0.063 Y-3.926
N665 X-0.259 Y-3.915
N670 X-0.455 Y-3.892
N675 X-0.651 Y-3.855
N680 X-0.847 Y-3.805
N685 X-1.042 Y-3.74
N690 X-1.052 Y-3.736
N695 X-1.238 Y-3.659
N700 X-1.434 Y-3.562
N705 X-1.473 Y-3.54
N710 X-1.63 Y-3.445
N715 X-1.776 Y-3.345
N720 X-1.826 Y-3.307
N725 X-2.016 Y-3.149
N730 X-2.022 Y-3.143
N735 X-2.212 Y-2.953
N740 X-2.217 Y-2.947
N745 X-2.377 Y-2.757
N750 X-2.413 Y-2.709
N755 X-2.516 Y-2.561
N760 X-2.609 Y-2.408
N765 X-2.633 Y-2.365
N770 X-2.731 Y-2.169
N775 X-2.805 Y-1.991
N780 X-2.811 Y-1.973
N785 X-2.877 Y-1.778
N790 X-2.928 Y-1.582
N795 X-2.948 Y-1.484
N800 X-2.965 Y-1.386
N805 X-2.978 Y-1.288
N810 X-2.988 Y-1.19
N815 X-2.995 Y-1.092
N820 X-2.999 Y-0.994
N825 G3 X-4.199 Y-1.017 I-0.6 J-0.023
N830 G1 X-4.2 Y-2.378
N835 Z-1.4 F1333.33
N840 G18 G2 X-3.6 Z-2. I0.6 K0.
N845 G17 G3 X-3. Y-1.778 I0. J0.6 F4000.
N850 G1 Y292.612
N855 X-2.999 Y292.808
N860 X-2.996 Y292.906
N865 X-2.989 Y293.004
N870 X-2.979 Y293.102
N875 X-2.966 Y293.2
N880 X-2.949 Y293.298
N885 X-2.929 Y293.396
N890 X-2.879 Y293.592
N895 X-2.814 Y293.788
N900 X-2.805 Y293.813
N905 X-2.734 Y293.983
N910 X-2.637 Y294.179
N915 X-2.609 Y294.23
N920 X-2.521 Y294.375
N925 X-2.413 Y294.531
N930 X-2.383 Y294.571
N935 X-2.22 Y294.767
N940 X-2.217 Y294.769
N945 X-2.024 Y294.963
N950 X-2.022 Y294.965
N955 X-1.826 Y295.129
N960 X-1.787 Y295.159
N965 X-1.63 Y295.267
N970 X-1.487 Y295.355
N975 X-1.434 Y295.384
N980 X-1.238 Y295.481
N985 X-1.073 Y295.55
N990 X-1.042 Y295.562
N995 X-0.847 Y295.627
N1000 X-0.651 Y295.677
N1005 X-0.455 Y295.714
N1010 X-0.259 Y295.738
N1015 X-0.123 Y295.746
N1020 X-0.063 Y295.748
N1025 X0.132 Y295.749
N1030 X349.867
N1035 X350.063 Y295.748
N1040 X350.123 Y295.746
N1045 X350.259 Y295.738
N1050 X350.455 Y295.714
N1055 X350.651 Y295.677
N1060 X350.847 Y295.627
N1065 X351.042 Y295.562
N1070 X351.073 Y295.55
N1075 X351.238 Y295.481
N1080 X351.434 Y295.384
N1085 X351.487 Y295.355
N1090 X351.63 Y295.267
N1095 X351.787 Y295.159
N1100 X351.826 Y295.129
N1105 X352.022 Y294.965
N1110 X352.024 Y294.963
N1115 X352.217 Y294.77
N1120 X352.22 Y294.767
N1125 X352.383 Y294.571
N1130 X352.413 Y294.531
N1135 X352.521 Y294.375
N1140 X352.609 Y294.23
N1145 X352.637 Y294.179
N1150 X352.734 Y293.983
N1155 X352.805 Y293.813
N1160 X352.814 Y293.788
N1165 X352.879 Y293.592
N1170 X352.929 Y293.396
N1175 X352.949 Y293.298
N1180 X352.966 Y293.2
N1185 X352.979 Y293.102
N1190 X352.989 Y293.004
N1195 X352.996 Y292.906
N1200 X352.999 Y292.808
N1205 X353. Y292.612
N1210 Y-1.778
N1215 X352.999 Y-1.934
N1220 X352.997 Y-1.973
N1225 X352.992 Y-2.071
N1230 X352.983 Y-2.169
N1235 X352.971 Y-2.267
N1240 X352.955 Y-2.365
N1245 X352.936 Y-2.463
N1250 X352.914 Y-2.561
N1255 X352.859 Y-2.757
N1260 X352.805 Y-2.913
N1265 X352.789 Y-2.953
N1270 X352.704 Y-3.149
N1275 X352.609 Y-3.33
N1280 X352.601 Y-3.345
N1285 X352.478 Y-3.54
N1290 X352.413 Y-3.631
N1295 X352.332 Y-3.736
N1300 X352.217 Y-3.87
N1305 X352.159 Y-3.932
N1310 X352.022 Y-4.065
N1315 X351.951 Y-4.128
N1320 X351.826 Y-4.229
N1325 X351.695 Y-4.324
N1330 X351.63 Y-4.367
N1335 X351.434 Y-4.484
N1340 X351.366 Y-4.52
N1345 X351.238 Y-4.581
N1350 X351.042 Y-4.662
N1355 X350.884 Y-4.716
N1360 X350.847 Y-4.727
N1365 X350.651 Y-4.777
N1370 X350.455 Y-4.814
N1375 X350.259 Y-4.838
N1380 X350.063 Y-4.848
N1385 X349.867 Y-4.849
N1390 X0.132
N1395 X-0.063 Y-4.848
N1400 X-0.259 Y-4.838
N1405 X-0.455 Y-4.814
N1410 X-0.651 Y-4.777
N1415 X-0.847 Y-4.727
N1420 X-0.884 Y-4.716
N1425 X-1.042 Y-4.662
N1430 X-1.238 Y-4.581
N1435 X-1.366 Y-4.52
N1440 X-1.434 Y-4.484
N1445 X-1.63 Y-4.367
N1450 X-1.695 Y-4.324
N1455 X-1.826 Y-4.229
N1460 X-1.951 Y-4.128
N1465 X-2.022 Y-4.065
N1470 X-2.159 Y-3.932
N1475 X-2.217 Y-3.869
N1480 X-2.332 Y-3.736
N1485 X-2.413 Y-3.631
N1490 X-2.478 Y-3.54
N1495 X-2.601 Y-3.345
N1500 X-2.609 Y-3.33
N1505 X-2.704 Y-3.149
N1510 X-2.789 Y-2.953
N1515 X-2.805 Y-2.913
N1520 X-2.859 Y-2.757
N1525 X-2.914 Y-2.561
N1530 X-2.936 Y-2.463
N1535 X-2.955 Y-2.365
N1540 X-2.971 Y-2.267
N1545 X-2.983 Y-2.169
N1550 X-2.992 Y-2.071
N1555 X-2.997 Y-1.973
N1560 X-2.999 Y-1.934
N1565 G3 X-4.198 Y-1.954 I-0.6 J-0.021
N1570 G1 X-4.2 Y-3.357
N1575 Z-2.4 F1333.33
N1580 G18 G2 X-3.6 Z-3. I0.6 K0.
N1585 G17 G3 X-3. Y-2.757 I0. J0.6 F4000.
N1590 G1 Y293.592
N1595 X-2.999 Y293.743
N1600 X-2.998 Y293.788
N1605 X-2.992 Y293.885
N1610 X-2.984 Y293.983
N1615 X-2.972 Y294.081
N1620 X-2.957 Y294.179
N1625 X-2.939 Y294.277
N1630 X-2.917 Y294.375
N1635 X-2.862 Y294.571
N1640 X-2.805 Y294.737
N1645 X-2.794 Y294.767
N1650 X-2.709 Y294.963
N1655 X-2.609 Y295.154
N1660 X-2.606 Y295.159
N1665 X-2.485 Y295.355
N1670 X-2.413 Y295.455
N1675 X-2.34 Y295.55
N1680 X-2.217 Y295.694
N1685 X-2.168 Y295.746
N1690 X-2.022 Y295.89
N1695 X-1.963 Y295.942
N1700 X-1.826 Y296.054
N1705 X-1.71 Y296.138
N1710 X-1.63 Y296.192
N1715 X-1.434 Y296.308
N1720 X-1.386 Y296.334
N1725 X-1.238 Y296.406
N1730 X-1.042 Y296.486
N1735 X-0.917 Y296.53
N1740 X-0.847 Y296.551
N1745 X-0.651 Y296.602
N1750 X-0.455 Y296.638
N1755 X-0.259 Y296.662
N1760 X-0.063 Y296.673
N1765 X0.132
N1770 X349.867
N1775 X350.063
N1780 X350.259 Y296.662
N1785 X350.455 Y296.638
N1790 X350.651 Y296.602
N1795 X350.847 Y296.551
N1800 X350.917 Y296.53
N1805 X351.042 Y296.486
N1810 X351.238 Y296.406
N1815 X351.386 Y296.334
N1820 X351.434 Y296.308
N1825 X351.63 Y296.192
N1830 X351.71 Y296.138
N1835 X351.826 Y296.054
N1840 X351.963 Y295.942
N1845 X352.022 Y295.89
N1850 X352.168 Y295.746
N1855 X352.217 Y295.694
N1860 X352.34 Y295.55
N1865 X352.413 Y295.455
N1870 X352.485 Y295.355
N1875 X352.606 Y295.159
N1880 X352.609 Y295.154
N1885 X352.709 Y294.963
N1890 X352.794 Y294.767
N1895 X352.805 Y294.738
N1900 X352.862 Y294.571
N1905 X352.917 Y294.375
N1910 X352.939 Y294.277
N1915 X352.957 Y294.179
N1920 X352.972 Y294.081
N1925 X352.984 Y293.983
N1930 X352.992 Y293.885
N1935 X352.998 Y293.788
N1940 X352.999 Y293.743
N1945 X353. Y293.592
N1950 Y-2.757
N1955 X352.999 Y-2.859
N1960 X352.997 Y-2.898
N1965 X352.995 Y-2.953
N1970 X352.987 Y-3.051
N1975 X352.976 Y-3.149
N1980 X352.962 Y-3.247
N1985 X352.945 Y-3.345
N1990 X352.924 Y-3.442
N1995 X352.9 Y-3.54
N2000 X352.841 Y-3.736
N2005 X352.805 Y-3.838
N2010 X352.767 Y-3.932
N2015 X352.677 Y-4.128
N2020 X352.609 Y-4.254
N2025 X352.568 Y-4.324
N2030 X352.439 Y-4.52
N2035 X352.413 Y-4.555
N2040 X352.286 Y-4.716
N2045 X352.217 Y-4.794
N2050 X352.104 Y-4.911
N2055 X352.022 Y-4.99
N2060 X351.885 Y-5.107
N2065 X351.826 Y-5.154
N2070 X351.63 Y-5.292
N2075 X351.612 Y-5.303
N2080 X351.434 Y-5.408
N2085 X351.253 Y-5.499
N2090 X351.238 Y-5.506
N2095 X351.042 Y-5.586
N2100 X350.847 Y-5.651
N2105 X350.681 Y-5.695
N2110 X350.651 Y-5.702
N2115 X350.455 Y-5.738
N2120 X350.259 Y-5.762
N2125 X350.063 Y-5.773
N2130 X349.867
N2135 X0.132
N2140 X-0.063
N2145 X-0.259 Y-5.762
N2150 X-0.455 Y-5.738
N2155 X-0.651 Y-5.702
N2160 X-0.681 Y-5.695
N2165 X-0.847 Y-5.651
N2170 X-1.042 Y-5.586
N2175 X-1.238 Y-5.506
N2180 X-1.253 Y-5.499
N2185 X-1.434 Y-5.408
N2190 X-1.612 Y-5.303
N2195 X-1.63 Y-5.292
N2200 X-1.826 Y-5.154
N2205 X-1.885 Y-5.107
N2210 X-2.022 Y-4.99
N2215 X-2.104 Y-4.911
N2220 X-2.217 Y-4.794
N2225 X-2.286 Y-4.716
N2230 X-2.413 Y-4.555
N2235 X-2.439 Y-4.52
N2240 X-2.568 Y-4.324
N2245 X-2.609 Y-4.254
N2250 X-2.677 Y-4.128
N2255 X-2.767 Y-3.932
N2260 X-2.805 Y-3.837
N2265 X-2.841 Y-3.736
N2270 X-2.9 Y-3.54
N2275 X-2.924 Y-3.442
N2280 X-2.945 Y-3.345
N2285 X-2.962 Y-3.247
N2290 X-2.976 Y-3.149
N2295 X-2.987 Y-3.051
N2300 X-2.995 Y-2.953
N2305 X-2.997 Y-2.898
N2310 X-2.999 Y-2.859
N2315 G3 X-4.198 Y-2.879 I-0.6 J-0.021
N2320 G1 X-4.2 Y-4.14
N2325 Z-3.4 F1333.33
N2330 G18 G2 X-3.6 Z-4. I0.6 K0.
N2335 G17 G3 X-3. Y-3.54 I0. J0.6 F4000.
N2340 G1 Y294.571
N2345 X-2.998 Y294.709
N2350 X-2.995 Y294.767
N2355 X-2.988 Y294.865
N2360 X-2.977 Y294.963
N2365 X-2.963 Y295.061
N2370 X-2.946 Y295.159
N2375 X-2.926 Y295.257
N2380 X-2.902 Y295.355
N2385 X-2.843 Y295.55
N2390 X-2.805 Y295.657
N2395 X-2.769 Y295.746
N2400 X-2.679 Y295.942
N2405 X-2.609 Y296.074
N2410 X-2.572 Y296.138
N2415 X-2.443 Y296.334
N2420 X-2.413 Y296.375
N2425 X-2.291 Y296.53
N2430 X-2.217 Y296.614
N2435 X-2.11 Y296.726
N2440 X-2.022 Y296.81
N2445 X-1.892 Y296.921
N2450 X-1.826 Y296.973
N2455 X-1.63 Y297.112
N2460 X-1.621 Y297.117
N2465 X-1.434 Y297.228
N2470 X-1.265 Y297.313
N2475 X-1.238 Y297.325
N2480 X-1.042 Y297.406
N2485 X-0.847 Y297.471
N2490 X-0.704 Y297.509
N2495 X-0.651 Y297.521
N2500 X-0.455 Y297.558
N2505 X-0.259 Y297.582
N2510 X-0.063 Y297.592
N2515 X0.132 Y297.593
N2520 X349.867
N2525 X350.063 Y297.592
N2530 X350.259 Y297.582
N2535 X350.455 Y297.558
N2540 X350.651 Y297.522
N2545 X350.704 Y297.509
N2550 X350.847 Y297.471
N2555 X351.042 Y297.406
N2560 X351.238 Y297.325
N2565 X351.265 Y297.313
N2570 X351.434 Y297.228
N2575 X351.621 Y297.117
N2580 X351.63 Y297.112
N2585 X351.826 Y296.973
N2590 X351.892 Y296.921
N2595 X352.022 Y296.81
N2600 X352.11 Y296.726
N2605 X352.217 Y296.614
N2610 X352.291 Y296.53
N2615 X352.413 Y296.375
N2620 X352.443 Y296.334
N2625 X352.572 Y296.138
N2630 X352.609 Y296.074
N2635 X352.68 Y295.942
N2640 X352.769 Y295.746
N2645 X352.805 Y295.657
N2650 X352.843 Y295.55
N2655 X352.902 Y295.355
N2660 X352.926 Y295.257
N2665 X352.946 Y295.159
N2670 X352.963 Y295.061
N2675 X352.977 Y294.963
N2680 X352.988 Y294.865
N2685 X352.995 Y294.767
N2690 X352.998 Y294.709
N2695 X353. Y294.571
N2700 Y-3.54
N2705 Y-3.736 F1333.33
N2710 X352.997 Y-3.834 F4000.
N2715 X352.99 Y-3.932
N2720 X352.981 Y-4.03
N2725 X352.968 Y-4.128
N2730 X352.952 Y-4.226
N2735 X352.933 Y-4.324
N2740 X352.884 Y-4.52
N2745 X352.82 Y-4.716
N2750 X352.805 Y-4.757
N2755 X352.741 Y-4.911
N2760 X352.646 Y-5.107
N2765 X352.609 Y-5.174
N2770 X352.531 Y-5.303
N2775 X352.413 Y-5.475
N2780 X352.395 Y-5.499
N2785 X352.234 Y-5.695
N2790 X352.217 Y-5.714
N2795 X352.042 Y-5.891
N2800 X352.022 Y-5.91
N2805 X351.826 Y-6.073
N2810 X351.808 Y-6.087
N2815 X351.63 Y-6.212
N2820 X351.515 Y-6.283
N2825 X351.434 Y-6.328
N2830 X351.238 Y-6.425
N2835 X351.114 Y-6.478
N2840 X351.042 Y-6.506
N2845 X350.847 Y-6.571
N2850 X350.651 Y-6.622
N2855 X350.455 Y-6.658
N2860 X350.334 Y-6.674
N2865 X350.259 Y-6.682
N2870 X350.063 Y-6.692
N2875 X349.867 Y-6.693
N2880 X0.132
N2885 X-0.063 Y-6.692
N2890 X-0.259 Y-6.682
N2895 X-0.334 Y-6.674
N2900 X-0.455 Y-6.658
N2905 X-0.651 Y-6.621
N2910 X-0.847 Y-6.571
N2915 X-1.042 Y-6.506
N2920 X-1.114 Y-6.478
N2925 X-1.238 Y-6.425
N2930 X-1.434 Y-6.328
N2935 X-1.515 Y-6.283
N2940 X-1.63 Y-6.212
N2945 X-1.808 Y-6.087
N2950 X-1.826 Y-6.073
N2955 X-2.022 Y-5.91
N2960 X-2.042 Y-5.891
N2965 X-2.217 Y-5.714
N2970 X-2.234 Y-5.695
N2975 X-2.395 Y-5.499
N2980 X-2.413 Y-5.475
N2985 X-2.531 Y-5.303
N2990 X-2.609 Y-5.174
N2995 X-2.646 Y-5.107
N3000 X-2.741 Y-4.911
N3005 X-2.805 Y-4.757
N3010 X-2.82 Y-4.716
N3015 X-2.884 Y-4.52
N3020 X-2.933 Y-4.324
N3025 X-2.952 Y-4.226
N3030 X-2.968 Y-4.128
N3035 X-2.981 Y-4.03
N3040 X-2.99 Y-3.932
N3045 X-2.997 Y-3.834
N3050 X-3. Y-3.736
N3055 G3 X-4.199 Y-3.754 I-0.6 J-0.018
N3060 G1 X-4.2 Y-5.12
N3065 Z-4.4 F1333.33
N3070 G18 G2 X-3.6 Z-5. I0.6 K0.
N3075 G17 G3 X-3. Y-4.52 I0. J0.6 F4000.
N3080 G1 Y295.355
N3085 Y295.55
N3090 X-2.997 Y295.648
N3095 X-2.992 Y295.746
N3100 X-2.983 Y295.844
N3105 X-2.97 Y295.942
N3110 X-2.955 Y296.04
N3115 X-2.936 Y296.138
N3120 X-2.914 Y296.236
N3125 X-2.888 Y296.334
N3130 X-2.826 Y296.53
N3135 X-2.805 Y296.586
N3140 X-2.748 Y296.726
N3145 X-2.654 Y296.921
N3150 X-2.609 Y297.003
N3155 X-2.541 Y297.117
N3160 X-2.413 Y297.304
N3165 X-2.407 Y297.313
N3170 X-2.248 Y297.509
N3175 X-2.217 Y297.543
N3180 X-2.058 Y297.705
N3185 X-2.022 Y297.739
N3190 X-1.828 Y297.901
N3195 X-1.826 Y297.902
N3200 X-1.63 Y298.041
N3205 X-1.54 Y298.097
N3210 X-1.434 Y298.157
N3215 X-1.238 Y298.254
N3220 X-1.151 Y298.293
N3225 X-1.042 Y298.335
N3230 X-0.847 Y298.4
N3235 X-0.651 Y298.451
N3240 X-0.455 Y298.487
N3245 X-0.447 Y298.488
N3250 X-0.259 Y298.511
N3255 X-0.063 Y298.521
N3260 X0.132 Y298.522
N3265 X349.867
N3270 X350.063 Y298.521
N3275 X350.259 Y298.511
N3280 X350.447 Y298.488
N3285 X350.455 Y298.487
N3290 X350.651 Y298.451
N3295 X350.847 Y298.4
N3300 X351.042 Y298.335
N3305 X351.151 Y298.293
N3310 X351.238 Y298.254
N3315 X351.434 Y298.157
N3320 X351.54 Y298.097
N3325 X351.63 Y298.041
N3330 X351.826 Y297.902
N3335 X351.828 Y297.901
N3340 X352.022 Y297.739
N3345 X352.058 Y297.705
N3350 X352.217 Y297.543
N3355 X352.248 Y297.509
N3360 X352.407 Y297.313
N3365 X352.413 Y297.304
N3370 X352.541 Y297.117
N3375 X352.609 Y297.003
N3380 X352.654 Y296.921
N3385 X352.748 Y296.726
N3390 X352.805 Y296.586
N3395 X352.826 Y296.53
N3400 X352.888 Y296.334
N3405 X352.914 Y296.236
N3410 X352.936 Y296.138
N3415 X352.955 Y296.04
N3420 X352.97 Y295.942
N3425 X352.983 Y295.844
N3430 X352.992 Y295.746
N3435 X352.997 Y295.648
N3440 X353. Y295.55
N3445 Y295.355
N3450 Y-4.52
N3455 X352.999 Y-4.716
N3460 X352.994 Y-4.814
N3465 X352.986 Y-4.911
N3470 X352.975 Y-5.009
N3475 X352.96 Y-5.107
N3480 X352.943 Y-5.205
N3485 X352.922 Y-5.303
N3490 X352.869 Y-5.499
N3495 X352.805 Y-5.686
N3500 X352.802 Y-5.695
N3505 X352.718 Y-5.891
N3510 X352.618 Y-6.087
N3515 X352.609 Y-6.103
N3520 X352.498 Y-6.283
N3525 X352.413 Y-6.404
N3530 X352.357 Y-6.478
N3535 X352.217 Y-6.643
N3540 X352.188 Y-6.674
N3545 X352.022 Y-6.839
N3550 X351.986 Y-6.87
N3555 X351.826 Y-7.002
N3560 X351.74 Y-7.066
N3565 X351.63 Y-7.141
N3570 X351.434 Y-7.257
N3575 X351.425 Y-7.262
N3580 X351.238 Y-7.354
N3585 X351.042 Y-7.435
N3590 X350.979 Y-7.458
N3595 X350.847 Y-7.5
N3600 X350.651 Y-7.551
N3605 X350.455 Y-7.587
N3610 X350.259 Y-7.611
N3615 X350.063 Y-7.621
N3620 X349.867 Y-7.622
N3625 X0.132
N3630 X-0.063 Y-7.621
N3635 X-0.259 Y-7.611
N3640 X-0.455 Y-7.587
N3645 X-0.651 Y-7.551
N3650 X-0.847 Y-7.5
N3655 X-0.979 Y-7.458
N3660 X-1.042 Y-7.435
N3665 X-1.238 Y-7.354
N3670 X-1.425 Y-7.262
N3675 X-1.434 Y-7.257
N3680 X-1.63 Y-7.141
N3685 X-1.74 Y-7.066
N3690 X-1.826 Y-7.002
N3695 X-1.986 Y-6.87
N3700 X-2.022 Y-6.839
N3705 X-2.188 Y-6.674
N3710 X-2.217 Y-6.643
N3715 X-2.357 Y-6.478
N3720 X-2.413 Y-6.404
N3725 X-2.498 Y-6.283
N3730 X-2.609 Y-6.103
N3735 X-2.618 Y-6.087
N3740 X-2.718 Y-5.891
N3745 X-2.802 Y-5.695
N3750 X-2.805 Y-5.686
N3755 X-2.869 Y-5.499
N3760 X-2.922 Y-5.303
N3765 X-2.943 Y-5.205
N3770 X-2.96 Y-5.107
N3775 X-2.975 Y-5.009
N3780 X-2.986 Y-4.911
N3785 X-2.994 Y-4.814
N3790 X-2.999 Y-4.716
N3795 G3 X-4.198 Y-4.743 I-0.599 J-0.029
N3800 G1 X-4.2 Y-6.099
N3805 Z-5.4 F1333.33
N3810 G18 G2 X-3.6 Z-6. I0.6 K0.
N3815 G17 G3 X-3. Y-5.499 I0. J0.6 F4000.
N3820 G1 Y296.334
N3825 X-2.999 Y296.53
N3830 X-2.995 Y296.628
N3835 X-2.987 Y296.726
N3840 X-2.976 Y296.824
N3845 X-2.962 Y296.921
N3850 X-2.945 Y297.019
N3855 X-2.924 Y297.117
N3860 X-2.872 Y297.313
N3865 X-2.805 Y297.509
N3870 Y297.511
N3875 X-2.723 Y297.705
N3880 X-2.624 Y297.901
N3885 X-2.609 Y297.927
N3890 X-2.505 Y298.097
N3895 X-2.413 Y298.229
N3900 X-2.365 Y298.293
N3905 X-2.217 Y298.467
N3910 X-2.198 Y298.488
N3915 X-2.022 Y298.663
N3920 X-1.998 Y298.684
N3925 X-1.826 Y298.827
N3930 X-1.754 Y298.88
N3935 X-1.63 Y298.965
N3940 X-1.444 Y299.076
N3945 X-1.434 Y299.081
N3950 X-1.238 Y299.179
N3955 X-1.042 Y299.259
N3960 X-1.008 Y299.272
N3965 X-0.847 Y299.324
N3970 X-0.651 Y299.375
N3975 X-0.455 Y299.412
N3980 X-0.259 Y299.435
N3985 X-0.063 Y299.446
N3990 X0.132
N3995 X349.867
N4000 X350.063
N4005 X350.259 Y299.435
N4010 X350.455 Y299.412
N4015 X350.651 Y299.375
N4020 X350.847 Y299.324
N4025 X351.008 Y299.272
N4030 X351.042 Y299.259
N4035 X351.238 Y299.179
N4040 X351.434 Y299.081
N4045 X351.444 Y299.076
N4050 X351.63 Y298.965
N4055 X351.754 Y298.88
N4060 X351.826 Y298.827
N4065 X351.998 Y298.684
N4070 X352.022 Y298.663
N4075 X352.198 Y298.488
N4080 X352.217 Y298.467
N4085 X352.365 Y298.293
N4090 X352.413 Y298.229
N4095 X352.505 Y298.097
N4100 X352.609 Y297.927
N4105 X352.624 Y297.901
N4110 X352.723 Y297.705
N4115 X352.805 Y297.511
N4120 Y297.509
N4125 X352.872 Y297.313
N4130 X352.924 Y297.117
N4135 X352.945 Y297.019
N4140 X352.962 Y296.921
N4145 X352.976 Y296.824
N4150 X352.987 Y296.726
N4155 X352.995 Y296.628
N4160 X352.999 Y296.53
N4165 X353. Y296.334
N4170 Y-5.499
N4175 X352.998 Y-5.649
N4180 X352.996 Y-5.695
N4185 X352.99 Y-5.793
N4190 X352.98 Y-5.891
N4195 X352.967 Y-5.989
N4200 X352.951 Y-6.087
N4205 X352.931 Y-6.185
N4210 X352.908 Y-6.283
N4215 X352.852 Y-6.478
N4220 X352.805 Y-6.611
N4225 X352.78 Y-6.674
N4230 X352.692 Y-6.87
N4235 X352.609 Y-7.027
N4240 X352.587 Y-7.066
N4245 X352.461 Y-7.262
N4250 X352.413 Y-7.329
N4255 X352.312 Y-7.458
N4260 X352.217 Y-7.567
N4265 X352.135 Y-7.654
N4270 X352.022 Y-7.763
N4275 X351.922 Y-7.85
N4280 X351.826 Y-7.927
N4285 X351.66 Y-8.045
N4290 X351.63 Y-8.065
N4295 X351.434 Y-8.181
N4300 X351.318 Y-8.241
N4305 X351.238 Y-8.279
N4310 X351.042 Y-8.359
N4315 X350.847 Y-8.424
N4320 X350.802 Y-8.437
N4325 X350.651 Y-8.475
N4330 X350.455 Y-8.512
N4335 X350.259 Y-8.535
N4340 X350.063 Y-8.546
N4345 X349.867
N4350 X0.132
N4355 X-0.063
N4360 X-0.259 Y-8.535
N4365 X-0.455 Y-8.512
N4370 X-0.651 Y-8.475
N4375 X-0.802 Y-8.437
N4380 X-0.847 Y-8.424
N4385 X-1.042 Y-8.359
N4390 X-1.238 Y-8.279
N4395 X-1.318 Y-8.241
N4400 X-1.434 Y-8.181
N4405 X-1.63 Y-8.065
N4410 X-1.66 Y-8.045
N4415 X-1.826 Y-7.927
N4420 X-1.922 Y-7.85
N4425 X-2.022 Y-7.763
N4430 X-2.135 Y-7.654
N4435 X-2.217 Y-7.567
N4440 X-2.312 Y-7.458
N4445 X-2.413 Y-7.329
N4450 X-2.461 Y-7.262
N4455 X-2.587 Y-7.066
N4460 X-2.609 Y-7.027
N4465 X-2.692 Y-6.87
N4470 X-2.78 Y-6.674
N4475 X-2.805 Y-6.611
N4480 X-2.852 Y-6.478
N4485 X-2.908 Y-6.283
N4490 X-2.931 Y-6.185
N4495 X-2.951 Y-6.087
N4500 X-2.967 Y-5.989
N4505 X-2.98 Y-5.891
N4510 X-2.99 Y-5.793
N4515 X-2.996 Y-5.695
N4520 X-2.998 Y-5.649
N4525 G3 X-3.815 Y-5.115 I-0.599 J-0.025
N4530 G1 X-4.697 Y-5.457
N4535 X-4.784 Y-5.491 Z-5.993
N4540 X-4.869 Y-5.524 Z-5.971
N4545 X-4.951 Y-5.555 Z-5.935
N4550 X-5.025 Y-5.584 Z-5.885
N4555 X-5.092 Y-5.61 Z-5.824
N4560 X-5.149 Y-5.632 Z-5.753
N4565 X-5.195 Y-5.65 Z-5.672
N4570 X-5.229 Y-5.663 Z-5.585
N4575 X-5.249 Y-5.671 Z-5.494
N4580 X-5.256 Y-5.674 Z-5.4
N4585 G0 Z5.
N4590 X-4.352 Y311.468
N4595 Z2.596
N4600 G1 Z-0.436 F1333.33
N4605 X-4.346 Y311.466 Z-0.525
N4610 X-4.327 Y311.458 Z-0.611
N4615 X-4.295 Y311.445 Z-0.693
N4620 X-4.252 Y311.427 Z-0.769
N4625 X-4.199 Y311.405 Z-0.837
N4630 X-4.136 Y311.379 Z-0.894
N4635 X-4.066 Y311.351 Z-0.941
N4640 X-3.99 Y311.319 Z-0.975
N4645 X-3.91 Y311.286 Z-0.996
N4650 X-3.828 Y311.253 Z-1.003
N4655 G3 X-3. Y311.807 I0.228 J0.555 F4000.
N4660 G1 Y1647.433
N4665 Y1647.629
N4670 X-2.99 Y1647.825
N4675 X-2.968 Y1648.021
N4680 X-2.933 Y1648.216
N4685 X-2.884 Y1648.412
N4690 X-2.82 Y1648.608
N4695 X-2.805 Y1648.65
N4700 X-2.741 Y1648.804
N4705 X-2.646 Y1649.
N4710 X-2.609 Y1649.066
N4715 X-2.531 Y1649.196
N4720 X-2.413 Y1649.368
N4725 X-2.395 Y1649.392
N4730 X-2.234 Y1649.588
N4735 X-2.217 Y1649.606
N4740 X-2.042 Y1649.783
N4745 X-2.022 Y1649.802
N4750 X-1.826 Y1649.966
N4755 X-1.808 Y1649.979
N4760 X-1.63 Y1650.104
N4765 X-1.515 Y1650.175
N4770 X-1.434 Y1650.221
N4775 X-1.238 Y1650.318
N4780 X-1.114 Y1650.371
N4785 X-1.042 Y1650.399
N4790 X-0.847 Y1650.464
N4795 X-0.651 Y1650.514
N4800 X-0.455 Y1650.551
N4805 X-0.334 Y1650.567
N4810 X-0.259 Y1650.574
N4815 X-0.063 Y1650.585
N4820 X0.132 Y1650.586
N4825 X349.867
N4830 X350.063 Y1650.585
N4835 X350.259 Y1650.574
N4840 X350.334 Y1650.567
N4845 X350.455 Y1650.551
N4850 X350.651 Y1650.514
N4855 X350.847 Y1650.464
N4860 X351.042 Y1650.399
N4865 X351.114 Y1650.371
N4870 X351.238 Y1650.318
N4875 X351.434 Y1650.221
N4880 X351.515 Y1650.175
N4885 X351.63 Y1650.104
N4890 X351.808 Y1649.979
N4895 X351.826 Y1649.966
N4900 X352.022 Y1649.802
N4905 X352.042 Y1649.783
N4910 X352.217 Y1649.606
N4915 X352.234 Y1649.588
N4920 X352.395 Y1649.392
N4925 X352.413 Y1649.368
N4930 X352.531 Y1649.196
N4935 X352.609 Y1649.066
N4940 X352.646 Y1649.
N4945 X352.741 Y1648.804
N4950 X352.805 Y1648.65
N4955 X352.82 Y1648.608
N4960 X352.884 Y1648.412
N4965 X352.933 Y1648.216
N4970 X352.968 Y1648.021
N4975 X352.99 Y1647.825
N4980 X353. Y1647.629
N4985 Y1647.433
N4990 Y311.807
N4995 X352.999 Y311.612
N5000 X352.994 Y311.514
N5005 X352.987 Y311.416
N5010 X352.976 Y311.318
N5015 X352.962 Y311.22
N5020 X352.944 Y311.122
N5025 X352.924 Y311.024
N5030 X352.871 Y310.828
N5035 X352.805 Y310.633
N5040 Y310.632
N5045 X352.722 Y310.436
N5050 X352.623 Y310.241
N5055 X352.609 Y310.216
N5060 X352.504 Y310.045
N5065 X352.413 Y309.915
N5070 X352.363 Y309.849
N5075 X352.217 Y309.676
N5080 X352.196 Y309.653
N5085 X352.022 Y309.48
N5090 X351.996 Y309.457
N5095 X351.826 Y309.316
N5100 X351.751 Y309.261
N5105 X351.63 Y309.178
N5110 X351.44 Y309.065
N5115 X351.434 Y309.062
N5120 X351.238 Y308.964
N5125 X351.042 Y308.884
N5130 X351.002 Y308.869
N5135 X350.847 Y308.819
N5140 X350.651 Y308.768
N5145 X350.455 Y308.732
N5150 X350.259 Y308.708
N5155 X350.063 Y308.698
N5160 X349.867 Y308.697
N5165 X0.132
N5170 X-0.063 Y308.698
N5175 X-0.259 Y308.708
N5180 X-0.455 Y308.732
N5185 X-0.651 Y308.768
N5190 X-0.847 Y308.819
N5195 X-1.002 Y308.869
N5200 X-1.042 Y308.884
N5205 X-1.238 Y308.964
N5210 X-1.434 Y309.062
N5215 X-1.44 Y309.065
N5220 X-1.63 Y309.178
N5225 X-1.751 Y309.261
N5230 X-1.826 Y309.317
N5235 X-1.996 Y309.457
N5240 X-2.022 Y309.48
N5245 X-2.196 Y309.653
N5250 X-2.217 Y309.676
N5255 X-2.363 Y309.849
N5260 X-2.413 Y309.915
N5265 X-2.504 Y310.045
N5270 X-2.609 Y310.216
N5275 X-2.623 Y310.241
N5280 X-2.722 Y310.436
N5285 X-2.805 Y310.632
N5290 Y310.633
N5295 X-2.871 Y310.828
N5300 X-2.924 Y311.024
N5305 X-2.944 Y311.122
N5310 X-2.962 Y311.22
N5315 X-2.976 Y311.318
N5320 X-2.987 Y311.416
N5325 X-2.994 Y311.514
N5330 X-2.999 Y311.612
N5335 G3 X-3.859 Y312.125 I-0.599 J-0.027
N5340 G1 X-3.894 Y312.108
N5345 X-3.978 Y312.068 Z-0.995
N5350 X-4.061 Y312.028 Z-0.973
N5355 X-4.139 Y311.99 Z-0.937
N5360 X-4.211 Y311.955 Z-0.888
N5365 X-4.276 Y311.924 Z-0.827
N5370 X-4.331 Y311.898 Z-0.755
N5375 X-4.375 Y311.876 Z-0.675
N5380 X-4.408 Y311.861 Z-0.588
N5385 X-4.428 Y311.851 Z-0.496
N5390 X-4.434 Y311.848 Z-0.403
N5395 G0 Z5.
N5400 X355.188 Y310.687
N5405 Z1.6
N5410 G1 Z-1.4 F1333.33
N5415 X355.182 Y310.69 Z-1.494
N5420 X355.161 Y310.698 Z-1.585
N5425 X355.127 Y310.711 Z-1.672
N5430 X355.081 Y310.729 Z-1.753
N5435 X355.024 Y310.75 Z-1.824
N5440 X354.958 Y310.776 Z-1.885
N5445 X354.883 Y310.805 Z-1.935
N5450 X354.801 Y310.836 Z-1.971
N5455 X354.716 Y310.869 Z-1.993
N5460 X354.628 Y310.903 Z-2.
N5465 X353.813 Y311.216 F4000.
N5470 G3 X352.998 Y310.68 I-0.215 J-0.56
N5475 G1 X352.997 Y310.632
N5480 X352.99 Y310.534
N5485 X352.981 Y310.436
N5490 X352.968 Y310.338
N5495 X352.952 Y310.241
N5500 X352.933 Y310.143
N5505 X352.91 Y310.045
N5510 X352.853 Y309.849
N5515 X352.805 Y309.71
N5520 X352.782 Y309.653
N5525 X352.695 Y309.457
N5530 X352.609 Y309.294
N5535 X352.59 Y309.261
N5540 X352.465 Y309.065
N5545 X352.413 Y308.993
N5550 X352.317 Y308.869
N5555 X352.217 Y308.754
N5560 X352.141 Y308.674
N5565 X352.022 Y308.558
N5570 X351.929 Y308.478
N5575 X351.826 Y308.394
N5580 X351.669 Y308.282
N5585 X351.63 Y308.256
N5590 X351.434 Y308.14
N5595 X351.33 Y308.086
N5600 X351.238 Y308.042
N5605 X351.042 Y307.962
N5610 X350.847 Y307.897
N5615 X350.823 Y307.89
N5620 X350.651 Y307.846
N5625 X350.455 Y307.81
N5630 X350.259 Y307.786
N5635 X350.063 Y307.776
N5640 X349.867 Y307.775
N5645 X0.132
N5650 X-0.063 Y307.776
N5655 X-0.259 Y307.786
N5660 X-0.455 Y307.81
N5665 X-0.651 Y307.846
N5670 X-0.823 Y307.89
N5675 X-0.847 Y307.897
N5680 X-1.042 Y307.962
N5685 X-1.238 Y308.042
N5690 X-1.33 Y308.086
N5695 X-1.434 Y308.14
N5700 X-1.63 Y308.256
N5705 X-1.669 Y308.282
N5710 X-1.826 Y308.394
N5715 X-1.929 Y308.478
N5720 X-2.022 Y308.558
N5725 X-2.141 Y308.674
N5730 X-2.217 Y308.754
N5735 X-2.317 Y308.869
N5740 X-2.413 Y308.993
N5745 X-2.465 Y309.065
N5750 X-2.59 Y309.261
N5755 X-2.609 Y309.294
N5760 X-2.695 Y309.457
N5765 X-2.782 Y309.653
N5770 X-2.805 Y309.711
N5775 X-2.853 Y309.849
N5780 X-2.91 Y310.045
N5785 X-2.933 Y310.143
N5790 X-2.952 Y310.241
N5795 X-2.968 Y310.338
N5800 X-2.981 Y310.436
N5805 X-2.99 Y310.534
N5810 X-2.997 Y310.632
N5815 X-2.998 Y310.68
N5820 G3 X-3.813 Y311.216 I-0.6 J-0.024
N5825 G1 X-4.628 Y310.903
N5830 X-4.716 Y310.869 Z-1.993
N5835 X-4.801 Y310.836 Z-1.971
N5840 X-4.883 Y310.805 Z-1.935
N5845 X-4.958 Y310.776 Z-1.885
N5850 X-5.024 Y310.75 Z-1.824
N5855 X-5.081 Y310.729 Z-1.753
N5860 X-5.127 Y310.711 Z-1.672
N5865 X-5.161 Y310.698 Z-1.585
N5870 X-5.182 Y310.69 Z-1.494
N5875 X-5.188 Y310.687 Z-1.4
N5880 G0 Z5.
N5885 X-4.482 Y1654.578
N5890 Z2.597
N5895 G1 Z-0.403 F1333.33
N5900 X-4.475 Y1654.575 Z-0.496
N5905 X-4.455 Y1654.567 Z-0.588
N5910 X-4.421 Y1654.554 Z-0.675
N5915 X-4.375 Y1654.536 Z-0.755
N5920 X-4.318 Y1654.514 Z-0.827
N5925 X-4.252 Y1654.487 Z-0.888
N5930 X-4.177 Y1654.458 Z-0.937
N5935 X-4.096 Y1654.426 Z-0.973
N5940 X-4.011 Y1654.393 Z-0.995
N5945 X-3.923 Y1654.358 Z-1.003
N5950 X-3.819 Y1654.318 F4000.
N5955 G3 X-3. Y1654.876 I0.219 J0.558
N5960 G1 Y2068.941
N5965 Y2069.137
N5970 X-2.99 Y2069.333
N5975 X-2.967 Y2069.529
N5980 X-2.931 Y2069.725
N5985 X-2.881 Y2069.921
N5990 X-2.816 Y2070.117
N5995 X-2.805 Y2070.147
N6000 X-2.737 Y2070.313
N6005 X-2.64 Y2070.508
N6010 X-2.609 Y2070.564
N6015 X-2.524 Y2070.704
N6020 X-2.413 Y2070.865
N6025 X-2.387 Y2070.9
N6030 X-2.225 Y2071.096
N6035 X-2.217 Y2071.104
N6040 X-2.03 Y2071.292
N6045 X-2.022 Y2071.3
N6050 X-1.826 Y2071.464
N6055 X-1.794 Y2071.488
N6060 X-1.63 Y2071.602
N6065 X-1.496 Y2071.684
N6070 X-1.434 Y2071.718
N6075 X-1.238 Y2071.816
N6080 X-1.087 Y2071.879
N6085 X-1.042 Y2071.896
N6090 X-0.847 Y2071.961
N6095 X-0.651 Y2072.012
N6100 X-0.455 Y2072.049
N6105 X-0.259 Y2072.072
N6110 X-0.218 Y2072.075
N6115 X-0.063 Y2072.083
N6120 X0.132
N6125 X349.867
N6130 X350.063
N6135 X350.218 Y2072.075
N6140 X350.259 Y2072.072
N6145 X350.455 Y2072.049
N6150 X350.651 Y2072.012
N6155 X350.847 Y2071.961
N6160 X351.042 Y2071.896
N6165 X351.087 Y2071.879
N6170 X351.238 Y2071.816
N6175 X351.434 Y2071.718
N6180 X351.496 Y2071.684
N6185 X351.63 Y2071.602
N6190 X351.794 Y2071.488
N6195 X351.826 Y2071.464
N6200 X352.022 Y2071.3
N6205 X352.03 Y2071.292
N6210 X352.217 Y2071.104
N6215 X352.225 Y2071.096
N6220 X352.387 Y2070.9
N6225 X352.413 Y2070.865
N6230 X352.524 Y2070.704
N6235 X352.609 Y2070.564
N6240 X352.64 Y2070.508
N6245 X352.737 Y2070.313
N6250 X352.805 Y2070.148
N6255 X352.816 Y2070.117
N6260 X352.881 Y2069.921
N6265 X352.931 Y2069.725
N6270 X352.967 Y2069.529
N6275 X352.99 Y2069.333
N6280 X353. Y2069.137
N6285 Y2068.941
N6290 Y1654.876
N6295 X352.998 Y1654.734
N6300 X352.996 Y1654.68
N6305 X352.979 Y1654.484
N6310 X352.949 Y1654.288
N6315 X352.906 Y1654.093
N6320 X352.849 Y1653.897
N6325 X352.805 Y1653.773
N6330 X352.776 Y1653.701
N6335 X352.688 Y1653.505
N6340 X352.609 Y1653.357
N6345 X352.581 Y1653.309
N6350 X352.455 Y1653.113
N6355 X352.413 Y1653.055
N6360 X352.305 Y1652.917
N6365 X352.217 Y1652.817
N6370 X352.126 Y1652.721
N6375 X352.022 Y1652.621
N6380 X351.912 Y1652.526
N6385 X351.826 Y1652.457
N6390 X351.646 Y1652.33
N6395 X351.63 Y1652.319
N6400 X351.434 Y1652.203
N6405 X351.3 Y1652.134
N6410 X351.238 Y1652.105
N6415 X351.042 Y1652.025
N6420 X350.847 Y1651.96
N6425 X350.769 Y1651.938
N6430 X350.651 Y1651.909
N6435 X350.455 Y1651.872
N6440 X350.259 Y1651.849
N6445 X350.063 Y1651.838
N6450 X349.867
N6455 X0.132
N6460 X-0.063
N6465 X-0.259 Y1651.849
N6470 X-0.455 Y1651.872
N6475 X-0.651 Y1651.909
N6480 X-0.769 Y1651.938
N6485 X-0.847 Y1651.96
N6490 X-1.042 Y1652.025
N6495 X-1.238 Y1652.105
N6500 X-1.3 Y1652.134
N6505 X-1.434 Y1652.203
N6510 X-1.63 Y1652.319
N6515 X-1.646 Y1652.33
N6520 X-1.826 Y1652.457
N6525 X-1.912 Y1652.526
N6530 X-2.022 Y1652.621
N6535 X-2.126 Y1652.721
N6540 X-2.217 Y1652.817
N6545 X-2.305 Y1652.917
N6550 X-2.413 Y1653.055
N6555 X-2.455 Y1653.113
N6560 X-2.581 Y1653.309
N6565 X-2.609 Y1653.357
N6570 X-2.688 Y1653.505
N6575 X-2.776 Y1653.701
N6580 X-2.805 Y1653.773
N6585 X-2.849 Y1653.897
N6590 X-2.906 Y1654.093
N6595 X-2.949 Y1654.288
N6600 X-2.979 Y1654.484
N6605 X-2.996 Y1654.68
N6610 X-2.998 Y1654.734
N6615 G3 X-4.198 Y1654.711 I-0.599 J-0.026
N6620 G1 X-4.232 Y1647.296
N6625 Z-1.4 F1333.33
N6630 X-4.225 Z-1.494
N6635 X-4.203 Y1647.295 Z-1.585
N6640 X-4.167 Y1647.292 Z-1.672
N6645 X-4.118 Y1647.29 Z-1.753
N6650 X-4.057 Y1647.286 Z-1.824
N6655 X-3.985 Y1647.282 Z-1.885
N6660 X-3.905 Y1647.277 Z-1.935
N6665 X-3.818 Y1647.272 Z-1.971
N6670 X-3.727 Y1647.267 Z-1.993
N6675 X-3.633 Y1647.261 Z-2.
N6680 G3 X-2.999 Y1647.825 I0.035 J0.599 F4000.
N6685 G1 X-2.987 Y1648.021
N6690 X-2.963 Y1648.216
N6695 X-2.925 Y1648.412
N6700 X-2.874 Y1648.608
N6705 X-2.807 Y1648.804
N6710 X-2.805 Y1648.811
N6715 X-2.726 Y1649.
N6720 X-2.627 Y1649.196
N6725 X-2.609 Y1649.227
N6730 X-2.509 Y1649.392
N6735 X-2.413 Y1649.529
N6740 X-2.369 Y1649.588
N6745 X-2.217 Y1649.767
N6750 X-2.203 Y1649.783
N6755 X-2.022 Y1649.963
N6760 X-2.004 Y1649.979
N6765 X-1.826 Y1650.127
N6770 X-1.761 Y1650.175
N6775 X-1.63 Y1650.265
N6780 X-1.453 Y1650.371
N6785 X-1.434 Y1650.382
N6790 X-1.238 Y1650.479
N6795 X-1.042 Y1650.56
N6800 X-1.023 Y1650.567
N6805 X-0.847 Y1650.625
N6810 X-0.651 Y1650.675
N6815 X-0.455 Y1650.712
N6820 X-0.259 Y1650.735
N6825 X-0.063 Y1650.746
N6830 X0.132 Y1650.747
N6835 X349.867
N6840 X350.063 Y1650.746
N6845 X350.259 Y1650.735
N6850 X350.455 Y1650.712
N6855 X350.651 Y1650.675
N6860 X350.847 Y1650.625
N6865 X351.023 Y1650.567
N6870 X351.042 Y1650.56
N6875 X351.238 Y1650.479
N6880 X351.434 Y1650.382
N6885 X351.453 Y1650.371
N6890 X351.63 Y1650.265
N6895 X351.761 Y1650.175
N6900 X351.826 Y1650.127
N6905 X352.004 Y1649.979
N6910 X352.022 Y1649.963
N6915 X352.203 Y1649.783
N6920 X352.217 Y1649.767
N6925 X352.369 Y1649.588
N6930 X352.413 Y1649.529
N6935 X352.509 Y1649.392
N6940 X352.609 Y1649.227
N6945 X352.627 Y1649.196
N6950 X352.726 Y1649.
N6955 X352.805 Y1648.811
N6960 X352.807 Y1648.804
N6965 X352.874 Y1648.608
N6970 X352.925 Y1648.412
N6975 X352.963 Y1648.216
N6980 X352.987 Y1648.021
N6985 X352.999 Y1647.825
N6990 X353. Y1647.629
N6995 Y310.828
N7000 G3 X353.785 Y310.257 I0.6 J0.
N7005 G1 X354.63 Y310.531
N7010 X354.719 Y310.56 Z-1.993
N7015 X354.807 Y310.588 Z-1.971
N7020 X354.889 Y310.615 Z-1.935
N7025 X354.966 Y310.64 Z-1.885
N7030 X355.034 Y310.662 Z-1.824
N7035 X355.092 Y310.681 Z-1.753
N7040 X355.139 Y310.696 Z-1.672
N7045 X355.173 Y310.707 Z-1.585
N7050 X355.194 Y310.714 Z-1.494
N7055 X355.201 Y310.716 Z-1.4
N7060 G0 Z5.
N7065 X-5.201
N7070 Z1.597
N7075 G1 Z-1.4 F1333.33
N7080 X-5.194 Y310.714 Z-1.494
N7085 X-5.173 Y310.707 Z-1.585
N7090 X-5.139 Y310.696 Z-1.672
N7095 X-5.092 Y310.681 Z-1.753
N7100 X-5.034 Y310.662 Z-1.824
N7105 X-4.966 Y310.64 Z-1.885
N7110 X-4.889 Y310.615 Z-1.935
N7115 X-4.807 Y310.588 Z-1.971
N7120 X-4.719 Y310.56 Z-1.993
N7125 X-4.63 Y310.531 Z-2.
N7130 X-3.785 Y310.257 F4000.
N7135 G3 X-3. Y310.828 I0.185 J0.571
N7140 G1 Y1647.629
N7145 G3 X-3.762 Y1648.207 I-0.6 J0.
N7150 G1 X-4.953 Y1647.873
N7155 X-5.043 Y1647.848 Z-1.993
N7160 X-5.131 Y1647.823 Z-1.971
N7165 X-5.215 Y1647.8 Z-1.935
N7170 X-5.292 Y1647.778 Z-1.885
N7175 X-5.361 Y1647.759 Z-1.824
N7180 X-5.42 Y1647.742 Z-1.753
N7185 X-5.468 Y1647.729 Z-1.672
N7190 X-5.502 Y1647.719 Z-1.585
N7195 X-5.523 Y1647.714 Z-1.494
N7200 X-5.53 Y1647.712 Z-1.4
N7205 G0 Z5.
N7210 X-5.289 Y2069.951
N7215 Z1.595
N7220 G1 Z-1.4 F1333.33
N7225 X-5.282 Y2069.948 Z-1.494
N7230 X-5.262 Y2069.941 Z-1.585
N7235 X-5.228 Y2069.928 Z-1.672
N7240 X-5.182 Y2069.91 Z-1.753
N7245 X-5.125 Y2069.889 Z-1.824
N7250 X-5.058 Y2069.863 Z-1.885
N7255 X-4.983 Y2069.835 Z-1.935
N7260 X-4.901 Y2069.804 Z-1.971
N7265 X-4.816 Y2069.772 Z-1.993
N7270 X-4.728 Y2069.738 Z-2.
N7275 X-3.811 Y2069.391 F4000.
N7280 G3 X-2.999 Y2069.921 I0.213 J0.561
N7285 G1 X-2.989 Y2070.117
N7290 X-2.966 Y2070.313
N7295 X-2.93 Y2070.508
N7300 X-2.88 Y2070.704
N7305 X-2.815 Y2070.9
N7310 X-2.805 Y2070.927
N7315 X-2.735 Y2071.096
N7320 X-2.638 Y2071.292
N7325 X-2.609 Y2071.343
N7330 X-2.522 Y2071.488
N7335 X-2.413 Y2071.645
N7340 X-2.384 Y2071.684
N7345 X-2.221 Y2071.879
N7350 X-2.217 Y2071.883
N7355 X-2.126 Y2071.979
N7360 X-2.026 Y2072.075
N7365 X-2.022 Y2072.079
N7370 X-1.826 Y2072.243
N7375 X-1.788 Y2072.271
N7380 X-1.63 Y2072.381
N7385 X-1.489 Y2072.467
N7390 X-1.434 Y2072.498
N7395 X-1.238 Y2072.595
N7400 X-1.076 Y2072.663
N7405 X-1.042 Y2072.676
N7410 X-0.847 Y2072.74
N7415 X-0.651 Y2072.791
N7420 X-0.455 Y2072.828
N7425 X-0.259 Y2072.851
N7430 X-0.15 Y2072.859
N7435 X-0.063 Y2072.862
N7440 X0.132 Y2072.863
N7445 X349.867
N7450 X350.063 Y2072.862
N7455 X350.15 Y2072.859
N7460 X350.259 Y2072.851
N7465 X350.455 Y2072.828
N7470 X350.651 Y2072.791
N7475 X350.847 Y2072.741
N7480 X351.042 Y2072.676
N7485 X351.076 Y2072.663
N7490 X351.238 Y2072.595
N7495 X351.434 Y2072.498
N7500 X351.489 Y2072.467
N7505 X351.63 Y2072.381
N7510 X351.788 Y2072.271
N7515 X351.826 Y2072.243
N7520 X352.022 Y2072.079
N7525 X352.026 Y2072.075
N7530 X352.126 Y2071.979
N7535 X352.217 Y2071.883
N7540 X352.221 Y2071.879
N7545 X352.384 Y2071.684
N7550 X352.413 Y2071.645
N7555 X352.522 Y2071.488
N7560 X352.609 Y2071.344
N7565 X352.638 Y2071.292
N7570 X352.735 Y2071.096
N7575 X352.805 Y2070.927
N7580 X352.815 Y2070.9
N7585 X352.88 Y2070.704
N7590 X352.93 Y2070.508
N7595 X352.966 Y2070.313
N7600 X352.989 Y2070.117
N7605 X352.999 Y2069.921
N7610 X353. Y2069.725
N7615 Y1654.68
N7620 X352.997 Y1654.545
N7625 X352.994 Y1654.484
N7630 X352.975 Y1654.288
N7635 X352.943 Y1654.093
N7640 X352.897 Y1653.897
N7645 X352.837 Y1653.701
N7650 X352.805 Y1653.612
N7655 X352.762 Y1653.505
N7660 X352.67 Y1653.309
N7665 X352.609 Y1653.195
N7670 X352.561 Y1653.113
N7675 X352.43 Y1652.917
N7680 X352.413 Y1652.894
N7685 X352.276 Y1652.721
N7690 X352.217 Y1652.655
N7695 X352.092 Y1652.526
N7700 X352.022 Y1652.459
N7705 X351.869 Y1652.33
N7710 X351.826 Y1652.296
N7715 X351.63 Y1652.157
N7720 X351.593 Y1652.134
N7725 X351.434 Y1652.041
N7730 X351.238 Y1651.944
N7735 X351.226 Y1651.938
N7740 X351.042 Y1651.863
N7745 X350.847 Y1651.798
N7750 X350.651 Y1651.748
N7755 X350.626 Y1651.742
N7760 X350.455 Y1651.711
N7765 X350.259 Y1651.687
N7770 X350.063 Y1651.677
N7775 X349.867 Y1651.676
N7780 X0.132
N7785 X-0.063 Y1651.677
N7790 X-0.259 Y1651.687
N7795 X-0.455 Y1651.711
N7800 X-0.626 Y1651.742
N7805 X-0.651 Y1651.748
N7810 X-0.847 Y1651.798
N7815 X-1.042 Y1651.863
N7820 X-1.226 Y1651.938
N7825 X-1.238 Y1651.944
N7830 X-1.434 Y1652.041
N7835 X-1.593 Y1652.134
N7840 X-1.63 Y1652.157
N7845 X-1.826 Y1652.296
N7850 X-1.869 Y1652.33
N7855 X-2.022 Y1652.459
N7860 X-2.092 Y1652.526
N7865 X-2.217 Y1652.655
N7870 X-2.276 Y1652.721
N7875 X-2.413 Y1652.894
N7880 X-2.43 Y1652.917
N7885 X-2.561 Y1653.113
N7890 X-2.609 Y1653.195
N7895 X-2.67 Y1653.309
N7900 X-2.762 Y1653.505
N7905 X-2.805 Y1653.612
N7910 X-2.837 Y1653.701
N7915 X-2.897 Y1653.897
N7920 X-2.943 Y1654.093
N7925 X-2.975 Y1654.288
N7930 X-2.994 Y1654.484
N7935 X-2.997 Y1654.543
N7940 X-3. Y1654.68
N7945 Y2069.725
N7950 X-2.999 Y2070.704 Z-3.
N7955 X-2.989 Y2070.9
N7960 X-2.966 Y2071.096
N7965 X-2.929 Y2071.292
N7970 X-2.879 Y2071.488
N7975 X-2.814 Y2071.684
N7980 X-2.805 Y2071.708
N7985 X-2.734 Y2071.879
N7990 X-2.636 Y2072.075
N7995 X-2.609 Y2072.125
N8000 X-2.52 Y2072.271
N8005 X-2.413 Y2072.426
N8010 X-2.382 Y2072.467
N8015 X-2.219 Y2072.663
N8020 X-2.217 Y2072.665
N8025 X-2.125 Y2072.762
N8030 X-2.023 Y2072.859
N8035 X-2.022 Y2072.86
N8040 X-1.826 Y2073.024
N8045 X-1.785 Y2073.055
N8050 X-1.63 Y2073.162
N8055 X-1.485 Y2073.25
N8060 X-1.434 Y2073.279
N8065 X-1.238 Y2073.376
N8070 X-1.07 Y2073.446
N8075 X-1.042 Y2073.457
N8080 X-0.847 Y2073.522
N8085 X-0.651 Y2073.572
N8090 X-0.455 Y2073.609
N8095 X-0.259 Y2073.633
N8100 X-0.096 Y2073.642
N8105 X-0.063 Y2073.643
N8110 X0.132 Y2073.644
N8115 X349.867
N8120 X350.063 Y2073.643
N8125 X350.096 Y2073.642
N8130 X350.259 Y2073.633
N8135 X350.455 Y2073.609
N8140 X350.651 Y2073.572
N8145 X350.847 Y2073.522
N8150 X351.042 Y2073.457
N8155 X351.07 Y2073.446
N8160 X351.238 Y2073.376
N8165 X351.434 Y2073.279
N8170 X351.485 Y2073.25
N8175 X351.63 Y2073.162
N8180 X351.785 Y2073.055
N8185 X351.826 Y2073.024
N8190 X352.022 Y2072.86
N8195 X352.023 Y2072.859
N8200 X352.125 Y2072.762
N8205 X352.217 Y2072.665
N8210 X352.219 Y2072.663
N8215 X352.382 Y2072.467
N8220 X352.413 Y2072.426
N8225 X352.52 Y2072.271
N8230 X352.609 Y2072.125
N8235 X352.636 Y2072.075
N8240 X352.734 Y2071.879
N8245 X352.805 Y2071.708
N8250 X352.814 Y2071.684
N8255 X352.879 Y2071.488
N8260 X352.929 Y2071.292
N8265 X352.966 Y2071.096
N8270 X352.989 Y2070.9
N8275 X352.999 Y2070.704
N8280 X353. Y2070.508
N8285 Y1654.68
N8290 Y1654.484
N8295 X352.995 Y1654.347
N8300 X352.991 Y1654.288
N8305 X352.97 Y1654.093
N8310 X352.936 Y1653.897
N8315 X352.888 Y1653.701
N8320 X352.825 Y1653.505
N8325 X352.805 Y1653.45
N8330 X352.747 Y1653.309
N8335 X352.653 Y1653.113
N8340 X352.609 Y1653.033
N8345 X352.54 Y1652.917
N8350 X352.413 Y1652.732
N8355 X352.405 Y1652.721
N8360 X352.246 Y1652.526
N8365 X352.217 Y1652.493
N8370 X352.056 Y1652.33
N8375 X352.022 Y1652.297
N8380 X351.826 Y1652.134
N8385 X351.63 Y1651.995
N8390 X351.537 Y1651.938
N8395 X351.434 Y1651.879
N8400 X351.238 Y1651.782
N8405 X351.147 Y1651.742
N8410 X351.042 Y1651.701
N8415 X350.847 Y1651.636
N8420 X350.651 Y1651.586
N8425 X350.455 Y1651.549
N8430 X350.437 Y1651.546
N8435 X350.259 Y1651.525
N8440 X350.063 Y1651.515
N8445 X349.867 Y1651.514
N8450 X0.132
N8455 X-0.063 Y1651.515
N8460 X-0.259 Y1651.525
N8465 X-0.437 Y1651.546
N8470 X-0.455 Y1651.549
N8475 X-0.651 Y1651.586
N8480 X-0.847 Y1651.636
N8485 X-1.042 Y1651.701
N8490 X-1.147 Y1651.742
N8495 X-1.238 Y1651.782
N8500 X-1.434 Y1651.879
N8505 X-1.537 Y1651.938
N8510 X-1.63 Y1651.995
N8515 X-1.826 Y1652.134
N8520 X-2.022 Y1652.298
N8525 X-2.056 Y1652.33
N8530 X-2.217 Y1652.493
N8535 X-2.246 Y1652.526
N8540 X-2.405 Y1652.721
N8545 X-2.413 Y1652.732
N8550 X-2.54 Y1652.917
N8555 X-2.609 Y1653.033
N8560 X-2.653 Y1653.113
N8565 X-2.747 Y1653.309
N8570 X-2.805 Y1653.45
N8575 X-2.825 Y1653.505
N8580 X-2.888 Y1653.701
N8585 X-2.936 Y1653.897
N8590 X-2.97 Y1654.093
N8595 X-2.991 Y1654.288
N8600 X-2.995 Y1654.345
N8605 X-3. Y1654.484
N8610 Y1654.68
N8615 Y2070.508
N8620 G3 X-3.6 Y2071.108 I-0.6 J0.
N8625 G2 X-3.9 Y2071.408 I0. J0.3
N8630 G1 X-3.896 Y2071.478
N8635 X-3.884 Y2071.546
N8640 X-3.864 Y2071.612
N8645 X-2.764 Y2074.656
N8650 Z-3.4 F1333.33
N8655 X-2.761 Y2074.65 Z-3.494
N8660 X-2.749 Y2074.631 Z-3.585
N8665 X-2.731 Y2074.6 Z-3.672
N8670 X-2.705 Y2074.558 Z-3.753
N8675 X-2.673 Y2074.506 Z-3.824
N8680 X-2.636 Y2074.444 Z-3.885
N8685 X-2.595 Y2074.376 Z-3.935
N8690 X-2.55 Y2074.301 Z-3.971
N8695 X-2.502 Y2074.223 Z-3.993
N8700 X-2.454 Y2074.143 Z-4.
N8705 G3 X-1.63 Y2073.94 I0.513 J0.311 F4000.
N8710 G1 X-1.474 Y2074.034
N8715 X-1.434 Y2074.056
N8720 X-1.425 Y2074.061
N8725 X-1.417 Y2074.065
N8730 X-1.414 Y2074.067
N8735 X-1.238 Y2074.154
N8740 X-1.054 Y2074.23
N8745 X-1.042 Y2074.234
N8750 X-1.034 Y2074.237
N8755 X-1.03 Y2074.239
N8760 X-0.847 Y2074.299
N8765 X-0.837 Y2074.302
N8770 X-0.832 Y2074.303
N8775 X-0.651 Y2074.35
N8780 X-0.644 Y2074.351
N8785 X-0.455 Y2074.386
N8790 X-0.259 Y2074.41
N8795 X-0.063 Y2074.42
N8800 X0.132 Y2074.421
N8805 X349.867
N8810 X350.063 Y2074.42
N8815 X350.259 Y2074.41
N8820 X350.455 Y2074.386
N8825 X350.651 Y2074.35
N8830 X350.657 Y2074.348
N8835 X350.847 Y2074.299
N8840 X350.851 Y2074.298
N8845 X351.042 Y2074.234
N8850 X351.054 Y2074.23
N8855 X351.238 Y2074.154
N8860 X351.243 Y2074.152
N8865 X351.336 Y2074.107
N8870 X351.422 Y2074.063
N8875 X351.43 Y2074.058
N8880 X351.434 Y2074.056
N8885 X351.474 Y2074.034
N8890 X351.63 Y2073.94
N8895 G3 X352.537 Y2074.515 I0.311 J0.513
N8900 G1 X352.53 Y2074.58 Z-3.993
N8905 X352.524 Y2074.641 Z-3.971
N8910 X352.518 Y2074.696 Z-3.937
N8915 X352.514 Y2074.742 Z-3.891
N8920 X352.51 Y2074.776 Z-3.835
N8925 X352.508 Y2074.797 Z-3.774
N8930 X352.507 Y2074.805 Z-3.709
N8935 G0 Z5.
N8940 X-0.052 Y2076.202
N8945 Z-1.402
N8950 G1 Z-4.4 F1333.33
N8955 X-0.054 Y2076.195 Z-4.494
N8960 X-0.062 Y2076.175 Z-4.585
N8965 X-0.076 Y2076.141 Z-4.672
N8970 X-0.093 Y2076.095 Z-4.753
N8975 X-0.116 Y2076.038 Z-4.824
N8980 X-0.142 Y2075.972 Z-4.885
N8985 X-0.171 Y2075.897 Z-4.935
N8990 X-0.203 Y2075.816 Z-4.971
N8995 X-0.236 Y2075.731 Z-4.993
N9000 X-0.27 Y2075.643 Z-5.
N9005 X-0.426 Y2075.243 F4000.
N9010 G3 X0.132 Y2074.425 I0.559 J-0.218
N9015 G1 X349.867
N9020 G3 X350.426 Y2075.243 I0. J0.6
N9025 G1 X350.27 Y2075.643
N9030 X350.236 Y2075.731 Z-4.993
N9035 X350.203 Y2075.816 Z-4.971
N9040 X350.171 Y2075.897 Z-4.935
N9045 X350.142 Y2075.972 Z-4.885
N9050 X350.116 Y2076.038 Z-4.824
N9055 X350.093 Y2076.095 Z-4.753
N9060 X350.075 Y2076.141 Z-4.672
N9065 X350.062 Y2076.175 Z-4.585
N9070 X350.054 Y2076.195 Z-4.494
N9075 X350.052 Y2076.202 Z-4.4
N9080 G0 Z5.
N9085 X0.051 Y2076.963
N9090 Z-2.4
N9095 G1 Z-5.4 F1333.33
N9100 X0.049 Y2076.956 Z-5.494
N9105 X0.043 Y2076.935 Z-5.585
N9110 X0.033 Y2076.9 Z-5.672
N9115 X0.02 Y2076.853 Z-5.753
N9120 X0.004 Y2076.794 Z-5.824
N9125 X-0.016 Y2076.725 Z-5.885
N9130 X-0.037 Y2076.647 Z-5.935
N9135 X-0.061 Y2076.564 Z-5.971
N9140 X-0.085 Y2076.475 Z-5.993
N9145 X-0.111 Y2076.385 Z-6.
N9150 X-0.445 Y2075.187 F4000.
N9155 G3 X0.132 Y2074.425 I0.578 J-0.161
N9160 G1 X349.867
N9165 G3 X350.445 Y2075.187 I0. J0.6
N9170 G1 X350.111 Y2076.385
N9175 X350.085 Y2076.475 Z-5.993
N9180 X350.061 Y2076.564 Z-5.971
N9185 X350.037 Y2076.647 Z-5.935
N9190 X350.016 Y2076.725 Z-5.885
N9195 X349.996 Y2076.794 Z-5.824
N9200 X349.98 Y2076.853 Z-5.753
N9205 X349.967 Y2076.9 Z-5.672
N9210 X349.957 Y2076.935 Z-5.585
N9215 X349.951 Y2076.956 Z-5.494
N9220 X349.949 Y2076.963 Z-5.4
N9225 G0 Z5.
N9230 X0.133 Y2077.428
N9235 Z-7.4
N9240 G1 X0.131 Y2077.421 Z-7.494 F1333.33
N9245 X0.125 Y2077.399 Z-7.585
N9250 X0.116 Y2077.364 Z-7.672
N9255 X0.104 Y2077.317 Z-7.753
N9260 X0.089 Y2077.258 Z-7.824
N9265 X0.071 Y2077.188 Z-7.885
N9270 X0.051 Y2077.11 Z-7.935
N9275 X0.029 Y2077.026 Z-7.971
N9280 X0.006 Y2076.938 Z-7.993
N9285 X-0.017 Y2076.847 Z-8.
N9290 X-0.449 Y2075.175 F4000.
N9295 G3 X0.132 Y2074.425 I0.581 J-0.15
N9300 G1 X349.867
N9305 G3 X350.448 Y2075.175 I0. J0.6
N9310 G1 X350.017 Y2076.847
N9315 X349.994 Y2076.938 Z-7.993
N9320 X349.971 Y2077.026 Z-7.971
N9325 X349.949 Y2077.11 Z-7.935
N9330 X349.929 Y2077.188 Z-7.885
N9335 X349.911 Y2077.258 Z-7.824
N9340 X349.896 Y2077.317 Z-7.753
N9345 X349.884 Y2077.364 Z-7.672
N9350 X349.875 Y2077.399 Z-7.585
N9355 X349.869 Y2077.421 Z-7.494
N9360 X349.867 Y2077.428 Z-7.4
N9365 G0 Z5.
N9370 X355.925 Y1647.841
N9375 Z0.599
N9380 G1 Z-2.4 F1333.33
N9385 X355.918 Y1647.843 Z-2.494
N9390 X355.896 Y1647.848 Z-2.585
N9395 X355.862 Y1647.857 Z-2.672
N9400 X355.814 Y1647.87 Z-2.753
N9405 X355.755 Y1647.885 Z-2.824
N9410 X355.685 Y1647.903 Z-2.885
N9415 X355.608 Y1647.923 Z-2.935
N9420 X355.524 Y1647.945 Z-2.971
N9425 X355.435 Y1647.968 Z-2.993
N9430 X355.344 Y1647.992 Z-3.
N9435 X353.751 Y1648.405 F4000.
N9440 G3 X353. Y1647.825 I-0.151 J-0.581
N9445 G1 Y309.849
N9450 X352.997 Y309.715
N9455 X352.993 Y309.653
N9460 X352.985 Y309.555
N9465 X352.974 Y309.457
N9470 X352.959 Y309.359
N9475 X352.942 Y309.261
N9480 X352.92 Y309.163
N9485 X352.895 Y309.065
N9490 X352.835 Y308.869
N9495 X352.805 Y308.786
N9500 X352.759 Y308.674
N9505 X352.667 Y308.478
N9510 X352.609 Y308.37
N9515 X352.557 Y308.282
N9520 X352.426 Y308.086
N9525 X352.413 Y308.068
N9530 X352.271 Y307.89
N9535 X352.217 Y307.83
N9540 X352.086 Y307.694
N9545 X352.022 Y307.634
N9550 X351.862 Y307.498
N9555 X351.826 Y307.47
N9560 X351.63 Y307.332
N9565 X351.584 Y307.302
N9570 X351.434 Y307.215
N9575 X351.238 Y307.118
N9580 X351.213 Y307.107
N9585 X351.042 Y307.037
N9590 X350.847 Y306.972
N9595 X350.651 Y306.922
N9600 X350.598 Y306.911
N9605 X350.455 Y306.885
N9610 X350.259 Y306.862
N9615 X350.063 Y306.851
N9620 X349.867
N9625 X0.132
N9630 X-0.063
N9635 X-0.259 Y306.862
N9640 X-0.455 Y306.885
N9645 X-0.598 Y306.911
N9650 X-0.651 Y306.922
N9655 X-0.847 Y306.972
N9660 X-1.042 Y307.037
N9665 X-1.213 Y307.107
N9670 X-1.238 Y307.118
N9675 X-1.434 Y307.215
N9680 X-1.584 Y307.302
N9685 X-1.63 Y307.332
N9690 X-1.826 Y307.47
N9695 X-1.862 Y307.498
N9700 X-2.022 Y307.634
N9705 X-2.086 Y307.694
N9710 X-2.217 Y307.83
N9715 X-2.271 Y307.89
N9720 X-2.413 Y308.068
N9725 X-2.426 Y308.086
N9730 X-2.557 Y308.282
N9735 X-2.609 Y308.37
N9740 X-2.667 Y308.478
N9745 X-2.759 Y308.674
N9750 X-2.805 Y308.786
N9755 X-2.835 Y308.869
N9760 X-2.895 Y309.065
N9765 X-2.92 Y309.163
N9770 X-2.942 Y309.261
N9775 X-2.959 Y309.359
N9780 X-2.974 Y309.457
N9785 X-2.985 Y309.555
N9790 X-2.993 Y309.653
N9795 X-2.997 Y309.715
N9800 X-3. Y309.849
N9805 Y1647.825
N9810 X-2.998 Y1648.021 F1333.33
N9815 X-2.984 Y1648.216 F4000.
N9820 X-2.957 Y1648.412
N9825 X-2.917 Y1648.608
N9830 X-2.863 Y1648.804
N9835 X-2.805 Y1648.972
N9840 X-2.794 Y1649.
N9845 X-2.71 Y1649.196
N9850 X-2.609 Y1649.389
N9855 X-2.607 Y1649.392
N9860 X-2.486 Y1649.588
N9865 X-2.413 Y1649.69
N9870 X-2.342 Y1649.783
N9875 X-2.217 Y1649.929
N9880 X-2.17 Y1649.979
N9885 X-2.022 Y1650.125
N9890 X-1.965 Y1650.175
N9895 X-1.826 Y1650.288
N9900 X-1.713 Y1650.371
N9905 X-1.63 Y1650.427
N9910 X-1.434 Y1650.543
N9915 X-1.389 Y1650.567
N9920 X-1.238 Y1650.641
N9925 X-1.042 Y1650.721
N9930 X-0.922 Y1650.763
N9935 X-0.847 Y1650.786
N9940 X-0.651 Y1650.837
N9945 X-0.455 Y1650.873
N9950 X-0.259 Y1650.897
N9955 X-0.063 Y1650.907
N9960 X0.132 Y1650.908
N9965 X349.867
N9970 X350.063 Y1650.907
N9975 X350.259 Y1650.897
N9980 X350.455 Y1650.873
N9985 X350.651 Y1650.837
N9990 X350.847 Y1650.786
N9995 X350.922 Y1650.763
N10000 X351.042 Y1650.721
N10005 X351.238 Y1650.641
N10010 X351.389 Y1650.567
N10015 X351.434 Y1650.543
N10020 X351.63 Y1650.427
N10025 X351.713 Y1650.371
N10030 X351.826 Y1650.288
N10035 X351.965 Y1650.175
N10040 X352.022 Y1650.125
N10045 X352.17 Y1649.979
N10050 X352.217 Y1649.929
N10055 X352.342 Y1649.783
N10060 X352.413 Y1649.69
N10065 X352.486 Y1649.588
N10070 X352.607 Y1649.392
N10075 X352.609 Y1649.389
N10080 X352.71 Y1649.196
N10085 X352.794 Y1649.
N10090 X352.805 Y1648.972
N10095 X352.863 Y1648.804
N10100 X352.917 Y1648.608
N10105 X352.957 Y1648.412
N10110 X352.984 Y1648.216
N10115 X352.998 Y1648.021
N10120 G3 X354.196 Y1648.059 I0.599 J0.042
N10125 G1 X354.2 Y1648.621
N10130 Z-3.4 F1333.33
N10135 G18 G3 X353.6 Z-4. I-0.6 K0.
N10140 G17 G3 X353. Y1648.021 I0. J-0.6 F4000.
N10145 G1 Y309.065
N10150 X352.999 Y308.869 F1333.33
N10155 X352.996 Y308.771 F4000.
N10160 X352.989 Y308.674
N10165 X352.979 Y308.576
N10170 X352.966 Y308.478
N10175 X352.949 Y308.38
N10180 X352.929 Y308.282
N10185 X352.879 Y308.086
N10190 X352.814 Y307.89
N10195 X352.805 Y307.866
N10200 X352.733 Y307.694
N10205 X352.636 Y307.498
N10210 X352.609 Y307.45
N10215 X352.52 Y307.302
N10220 X352.413 Y307.148
N10225 X352.382 Y307.107
N10230 X352.218 Y306.911
N10235 X352.217 Y306.91
N10240 X352.124 Y306.812
N10245 X352.022 Y306.715
N10250 Y306.714
N10255 X351.826 Y306.55
N10260 X351.784 Y306.519
N10265 X351.63 Y306.412
N10270 X351.483 Y306.323
N10275 X351.434 Y306.296
N10280 X351.238 Y306.198
N10285 X351.068 Y306.127
N10290 X351.042 Y306.118
N10295 X350.847 Y306.053
N10300 X350.651 Y306.002
N10305 X350.455 Y305.965
N10310 X350.259 Y305.942
N10315 X350.063 Y305.931
N10320 X349.867
N10325 X0.132
N10330 X-0.063
N10335 X-0.259 Y305.942
N10340 X-0.455 Y305.965
N10345 X-0.651 Y306.002
N10350 X-0.847 Y306.053
N10355 X-1.042 Y306.118
N10360 X-1.068 Y306.127
N10365 X-1.238 Y306.198
N10370 X-1.434 Y306.296
N10375 X-1.483 Y306.323
N10380 X-1.63 Y306.412
N10385 X-1.784 Y306.519
N10390 X-1.826 Y306.55
N10395 X-2.022 Y306.714
N10400 Y306.715
N10405 X-2.124 Y306.812
N10410 X-2.217 Y306.91
N10415 X-2.218 Y306.911
N10420 X-2.382 Y307.107
N10425 X-2.413 Y307.148
N10430 X-2.52 Y307.302
N10435 X-2.609 Y307.45
N10440 X-2.636 Y307.498
N10445 X-2.733 Y307.694
N10450 X-2.805 Y307.866
N10455 X-2.814 Y307.89
N10460 X-2.879 Y308.086
N10465 X-2.929 Y308.282
N10470 X-2.949 Y308.38
N10475 X-2.966 Y308.478
N10480 X-2.979 Y308.576
N10485 X-2.989 Y308.674
N10490 X-2.996 Y308.771
N10495 X-2.999 Y308.869
N10500 X-3. Y309.065
N10505 Y1648.021
N10510 G3 X-3.176 Y1648.445 I-0.6 J0.
N10515 G2 X-3.188 Y1649.281 I0.424 J0.424
N10520 G1 X-1.347 Y1651.229
N10525 G2 X-0.488 Y1651.242 I0.436 J-0.412
N10530 G3 X-0.063 Y1651.068 I0.423 J0.426
N10535 G1 X0.132 Y1651.069
N10540 X349.867
N10545 X350.063 Y1651.068
N10550 X350.099 Y1651.072
N10555 X350.133 Y1651.086
N10560 X350.161 Y1651.108
N10565 X350.179 Y1651.136
N10570 X350.181 Y1651.169
N10575 X350.169 Y1651.199
N10580 X350.145 Y1651.221
N10585 X349.948 Y1651.325
N10590 X349.917 Y1651.333
N10595 X349.886 Y1651.327
N10600 X349.86 Y1651.307
N10605 X349.846 Y1651.278
N10610 X349.847 Y1651.245
N10615 X349.861 Y1651.217
N10620 X349.887 Y1651.197
N10625 X349.919 Y1651.192
N10630 X349.95 Y1651.201
N10635 X349.974 Y1651.223
N10640 X349.985 Y1651.253
N10645 X349.982 Y1651.285
N10650 X349.965 Y1651.313
N10655 X349.937 Y1651.334
N10660 X349.903 Y1651.348
N10665 X349.867 Y1651.353
N10670 X0.132
N10675 X0.111 Y1651.35 Z-3.998
N10680 X0.092 Y1651.343 Z-3.993
N10685 X0.076 Y1651.332 Z-3.985
N10690 X0.063 Y1651.319 Z-3.974
N10695 X0.055 Y1651.305 Z-3.96
N10700 X0.05 Y1651.292 Z-3.944
N10705 X0.047 Y1651.281 Z-3.926
N10710 X0.046 Y1651.273 Z-3.906
N10715 Y1651.268 Z-3.885
N10720 Y1651.266 Z-3.864
N10725 G0 Z5.
N10730 X0.132 Y1651.071
N10735 Z2.929
N10740 G1 Z-6. F1333.33
N10745 X349.867 F4000.
N10750 X349.897 Y1651.075
N10755 X349.924 Y1651.086
N10760 X349.947 Y1651.104
N10765 X349.959 Y1651.121
N10770 X349.963 Y1651.142
N10775 Y1651.281
N10780 X349.959 Y1651.302
N10785 X349.947 Y1651.319
N10790 X349.924 Y1651.337
N10795 X349.897 Y1651.348
N10800 X349.867 Y1651.352
N10805 X0.132
N10810 G0 Z5.
N10815 Y1651.071
N10820 Z2.929
N10825 G1 Z-8. F1333.33
N10830 X349.867 F4000.
N10835 X349.897 Y1651.075
N10840 X349.924 Y1651.086
N10845 X349.947 Y1651.104
N10850 X349.959 Y1651.121
N10855 X349.963 Y1651.142
N10860 Y1651.281
N10865 X349.959 Y1651.302
N10870 X349.947 Y1651.319
N10875 X349.924 Y1651.337
N10880 X349.897 Y1651.348
N10885 X349.867 Y1651.352
N10890 X0.132
N10895 G0 Z5.
N10900 X-5.984 Y1654.483
N10905 Z-0.485
N10910 G1 Z-3.4 F1333.33
N10915 X-5.977 Y1654.481 Z-3.494
N10920 X-5.956 Y1654.475 Z-3.585
N10925 X-5.921 Y1654.466 Z-3.672
N10930 X-5.873 Y1654.454 Z-3.753
N10935 X-5.814 Y1654.438 Z-3.824
N10940 X-5.745 Y1654.42 Z-3.885
N10945 X-5.667 Y1654.4 Z-3.935
N10950 X-5.583 Y1654.378 Z-3.971
N10955 X-5.494 Y1654.355 Z-3.993
N10960 X-5.403 Y1654.332 Z-4.
N10965 X-3.751 Y1653.903 F4000.
N10970 G3 X-3. Y1654.484 I0.151 J0.581
N10975 G1 Y2071.292
N10980 G3 X-3.773 Y2071.866 I-0.6 J0.
N10985 G1 X-4.928 Y2071.519
N10990 X-5.018 Y2071.491 Z-3.993
N10995 X-5.105 Y2071.465 Z-3.971
N11000 X-5.189 Y2071.44 Z-3.935
N11005 X-5.266 Y2071.417 Z-3.885
N11010 X-5.334 Y2071.396 Z-3.824
N11015 X-5.393 Y2071.379 Z-3.753
N11020 X-5.44 Y2071.364 Z-3.672
N11025 X-5.474 Y2071.354 Z-3.585
N11030 X-5.495 Y2071.348 Z-3.494
N11035 X-5.502 Y2071.345 Z-3.4
N11040 G0 Z5.
N11045 X355.502
N11050 Z-0.404
N11055 G1 Z-3.4 F1333.33
N11060 X355.495 Y2071.348 Z-3.494
N11065 X355.474 Y2071.354 Z-3.585
N11070 X355.44 Y2071.364 Z-3.672
N11075 X355.393 Y2071.379 Z-3.753
N11080 X355.334 Y2071.396 Z-3.824
N11085 X355.266 Y2071.417 Z-3.885
N11090 X355.189 Y2071.44 Z-3.935
N11095 X355.105 Y2071.465 Z-3.971
N11100 X355.018 Y2071.491 Z-3.993
N11105 X354.928 Y2071.519 Z-4.
N11110 X353.773 Y2071.866 F4000.
N11115 G3 X353. Y2071.292 I-0.173 J-0.575
N11120 G1 Y1654.484
N11125 Y1654.331 Z-4.016
N11130 Y1654.185 Z-4.062
N11135 Y1654.051 Z-4.138
N11140 Y1653.936 Z-4.239
N11145 Y1653.843 Z-4.361
N11150 Y1653.711 Z-4.639
N11155 Y1653.619 Z-4.761
N11160 Y1653.503 Z-4.862
N11165 Y1653.369 Z-4.938
N11170 Y1653.223 Z-4.984
N11175 Y1653.07 Z-5.
N11180 Y1648.021
N11185 Y308.086
N11190 X352.998 Y307.89 F1333.33
N11195 X352.993 Y307.792 F4000.
N11200 X352.984 Y307.694
N11205 X352.972 Y307.596
N11210 X352.957 Y307.498
N11215 X352.939 Y307.4
N11220 X352.917 Y307.302
N11225 X352.863 Y307.107
N11230 X352.805 Y306.937
N11235 X352.795 Y306.911
N11240 X352.71 Y306.715
N11245 X352.609 Y306.521
N11250 X352.608 Y306.519
N11255 X352.486 Y306.323
N11260 X352.413 Y306.219
N11265 X352.342 Y306.127
N11270 X352.217 Y305.981
N11275 X352.171 Y305.931
N11280 X352.022 Y305.785
N11285 X351.966 Y305.736
N11290 X351.826 Y305.621
N11295 X351.714 Y305.54
N11300 X351.63 Y305.483
N11305 X351.434 Y305.367
N11310 X351.391 Y305.344
N11315 X351.238 Y305.269
N11320 X351.042 Y305.189
N11325 X350.925 Y305.148
N11330 X350.847 Y305.124
N11335 X350.651 Y305.073
N11340 X350.455 Y305.036
N11345 X350.259 Y305.013
N11350 X350.063 Y305.002
N11355 X349.867
N11360 X0.132
N11365 X-0.063
N11370 X-0.259 Y305.013
N11375 X-0.455 Y305.036
N11380 X-0.651 Y305.073
N11385 X-0.847 Y305.124
N11390 X-0.925 Y305.148
N11395 X-1.042 Y305.189
N11400 X-1.238 Y305.269
N11405 X-1.391 Y305.344
N11410 X-1.434 Y305.367
N11415 X-1.63 Y305.483
N11420 X-1.714 Y305.54
N11425 X-1.826 Y305.621
N11430 X-1.966 Y305.736
N11435 X-2.022 Y305.785
N11440 X-2.171 Y305.931
N11445 X-2.217 Y305.981
N11450 X-2.342 Y306.127
N11455 X-2.413 Y306.22
N11460 X-2.486 Y306.323
N11465 X-2.608 Y306.519
N11470 X-2.609 Y306.521
N11475 X-2.71 Y306.715
N11480 X-2.795 Y306.911
N11485 X-2.805 Y306.937
N11490 X-2.863 Y307.107
N11495 X-2.917 Y307.302
N11500 X-2.939 Y307.4
N11505 X-2.957 Y307.498
N11510 X-2.972 Y307.596
N11515 X-2.984 Y307.694
N11520 X-2.993 Y307.792
N11525 X-2.998 Y307.89
N11530 X-3. Y308.086
N11535 Y1648.021
N11540 Y1654.484
N11545 Y2071.292
N11550 G3 X-3.759 Y2071.87 I-0.6 J0.
N11555 G1 X-5.18 Y2071.48
N11560 X-5.271 Y2071.456 Z-4.993
N11565 X-5.359 Y2071.431 Z-4.971
N11570 X-5.443 Y2071.408 Z-4.935
N11575 X-5.52 Y2071.387 Z-4.885
N11580 X-5.589 Y2071.368 Z-4.824
N11585 X-5.648 Y2071.352 Z-4.753
N11590 X-5.696 Y2071.339 Z-4.672
N11595 X-5.73 Y2071.33 Z-4.585
N11600 X-5.752 Y2071.324 Z-4.494
N11605 X-5.759 Y2071.322 Z-4.4
N11610 G0 Z5.
N11615 X355.759
N11620 Z-1.407
N11625 G1 Z-4.4 F1333.33
N11630 X355.752 Y2071.324 Z-4.494
N11635 X355.73 Y2071.33 Z-4.585
N11640 X355.696 Y2071.339 Z-4.672
N11645 X355.648 Y2071.352 Z-4.753
N11650 X355.589 Y2071.368 Z-4.824
N11655 X355.52 Y2071.387 Z-4.885
N11660 X355.443 Y2071.408 Z-4.935
N11665 X355.359 Y2071.431 Z-4.971
N11670 X355.271 Y2071.456 Z-4.993
N11675 X355.18 Y2071.48 Z-5.
N11680 X353.759 Y2071.87 F4000.
N11685 G3 X353. Y2071.292 I-0.159 J-0.579
N11690 G1 Y1654.484
N11695 Y1654.331 Z-5.016
N11700 Y1654.185 Z-5.062
N11705 Y1654.051 Z-5.138
N11710 Y1653.936 Z-5.239
N11715 Y1653.843 Z-5.361
N11720 Y1653.711 Z-5.639
N11725 Y1653.619 Z-5.761
N11730 Y1653.503 Z-5.862
N11735 Y1653.369 Z-5.938
N11740 Y1653.223 Z-5.984
N11745 Y1653.07 Z-6.
N11750 Y1648.021
N11755 Y307.107
N11760 X352.998 Y306.964
N11765 X352.995 Y306.911
N11770 X352.988 Y306.813
N11775 X352.978 Y306.715
N11780 X352.964 Y306.617
N11785 X352.948 Y306.519
N11790 X352.927 Y306.421
N11795 X352.904 Y306.323
N11800 X352.846 Y306.127
N11805 X352.805 Y306.013
N11810 X352.773 Y305.931
N11815 X352.683 Y305.736
N11820 X352.609 Y305.596
N11825 X352.576 Y305.54
N11830 X352.448 Y305.344
N11835 X352.413 Y305.295
N11840 X352.297 Y305.148
N11845 X352.217 Y305.057
N11850 X352.117 Y304.952
N11855 X352.022 Y304.861
N11860 X351.901 Y304.756
N11865 X351.826 Y304.697
N11870 X351.632 Y304.56
N11875 X351.63 Y304.559
N11880 X351.434 Y304.442
N11885 X351.281 Y304.364
N11890 X351.238 Y304.345
N11895 X351.042 Y304.264
N11900 X350.847 Y304.199
N11905 X350.734 Y304.169
N11910 X350.651 Y304.149
N11915 X350.455 Y304.112
N11920 X350.259 Y304.089
N11925 X350.063 Y304.078
N11930 X349.867 Y304.077
N11935 X0.132
N11940 X-0.063 Y304.078
N11945 X-0.259 Y304.089
N11950 X-0.455 Y304.112
N11955 X-0.651 Y304.149
N11960 X-0.734 Y304.169
N11965 X-0.847 Y304.199
N11970 X-1.042 Y304.264
N11975 X-1.238 Y304.345
N11980 X-1.281 Y304.364
N11985 X-1.434 Y304.442
N11990 X-1.63 Y304.559
N11995 X-1.632 Y304.56
N12000 X-1.826 Y304.697
N12005 X-1.901 Y304.756
N12010 X-2.022 Y304.861
N12015 X-2.117 Y304.952
N12020 X-2.217 Y305.057
N12025 X-2.297 Y305.148
N12030 X-2.413 Y305.295
N12035 X-2.448 Y305.344
N12040 X-2.576 Y305.54
N12045 X-2.609 Y305.596
N12050 X-2.683 Y305.736
N12055 X-2.773 Y305.931
N12060 X-2.805 Y306.013
N12065 X-2.846 Y306.127
N12070 X-2.904 Y306.323
N12075 X-2.927 Y306.421
N12080 X-2.948 Y306.519
N12085 X-2.964 Y306.617
N12090 X-2.978 Y306.715
N12095 X-2.988 Y306.813
N12100 X-2.995 Y306.911
N12105 X-2.998 Y306.964
N12110 X-3. Y307.107
N12115 Y1648.021
N12120 Y1654.484
N12125 Y2071.292
N12130 G3 X-3.752 Y2071.872 I-0.6 J0.
N12135 G1 X-5.341 Y2071.458
N12140 X-5.431 Y2071.434 Z-5.993
N12145 X-5.52 Y2071.411 Z-5.971
N12150 X-5.604 Y2071.389 Z-5.935
N12155 X-5.682 Y2071.368 Z-5.885
N12160 X-5.751 Y2071.35 Z-5.824
N12165 X-5.81 Y2071.335 Z-5.753
N12170 X-5.858 Y2071.322 Z-5.672
N12175 X-5.893 Y2071.313 Z-5.585
N12180 X-5.914 Y2071.308 Z-5.494
N12185 X-5.921 Y2071.306 Z-5.4
N12190 G0 Z5.
N12195 X355.921
N12200 Z-2.43
N12205 G1 Z-5.4 F1333.33
N12210 X355.914 Y2071.308 Z-5.494
N12215 X355.893 Y2071.313 Z-5.585
N12220 X355.858 Y2071.322 Z-5.672
N12225 X355.81 Y2071.335 Z-5.753
N12230 X355.751 Y2071.35 Z-5.824
N12235 X355.682 Y2071.368 Z-5.885
N12240 X355.604 Y2071.389 Z-5.935
N12245 X355.52 Y2071.411 Z-5.971
N12250 X355.431 Y2071.434 Z-5.993
N12255 X355.341 Y2071.458 Z-6.
N12260 X353.752 Y2071.872 F4000.
N12265 G3 X353. Y2071.292 I-0.152 J-0.581
N12270 G1 Y1654.484
N12275 Y1654.331 Z-6.016
N12280 Y1654.185 Z-6.062
N12285 Y1654.051 Z-6.138
N12290 Y1653.936 Z-6.239
N12295 Y1653.843 Z-6.361
N12300 Y1653.711 Z-6.639
N12305 Y1653.619 Z-6.761
N12310 Y1653.503 Z-6.862
N12315 Y1653.369 Z-6.938
N12320 Y1653.223 Z-6.984
N12325 Y1653.07 Z-7.
N12330 Y1648.021
N12335 Y306.323
N12340 Y306.127
N12345 X352.997 Y306.029
N12350 X352.992 Y305.931
N12355 X352.983 Y305.833
N12360 X352.971 Y305.736
N12365 X352.955 Y305.638
N12370 X352.937 Y305.54
N12375 X352.914 Y305.442
N12380 X352.889 Y305.344
N12385 X352.827 Y305.148
N12390 X352.805 Y305.089
N12395 X352.749 Y304.952
N12400 X352.655 Y304.756
N12405 X352.609 Y304.672
N12410 X352.542 Y304.56
N12415 X352.413 Y304.371
N12420 X352.409 Y304.364
N12425 X352.25 Y304.169
N12430 X352.217 Y304.132
N12435 X352.061 Y303.973
N12440 X352.022 Y303.936
N12445 X351.831 Y303.777
N12450 X351.826 Y303.772
N12455 X351.63 Y303.634
N12460 X351.544 Y303.581
N12465 X351.434 Y303.518
N12470 X351.238 Y303.42
N12475 X351.157 Y303.385
N12480 X351.042 Y303.34
N12485 X350.847 Y303.275
N12490 X350.651 Y303.224
N12495 X350.465 Y303.189
N12500 X350.455 Y303.188
N12505 X350.259 Y303.164
N12510 X350.063 Y303.154
N12515 X349.867 Y303.153
N12520 X0.132
N12525 X-0.063 Y303.154
N12530 X-0.259 Y303.164
N12535 X-0.455 Y303.188
N12540 X-0.465 Y303.189
N12545 X-0.651 Y303.224
N12550 X-0.847 Y303.275
N12555 X-1.042 Y303.34
N12560 X-1.157 Y303.385
N12565 X-1.238 Y303.42
N12570 X-1.434 Y303.518
N12575 X-1.544 Y303.581
N12580 X-1.63 Y303.634
N12585 X-1.826 Y303.772
N12590 X-1.831 Y303.777
N12595 X-2.022 Y303.936
N12600 X-2.061 Y303.973
N12605 X-2.217 Y304.132
N12610 X-2.25 Y304.169
N12615 X-2.409 Y304.364
N12620 X-2.413 Y304.371
N12625 X-2.542 Y304.56
N12630 X-2.609 Y304.672
N12635 X-2.655 Y304.756
N12640 X-2.749 Y304.952
N12645 X-2.805 Y305.089
N12650 X-2.827 Y305.148
N12655 X-2.889 Y305.344
N12660 X-2.914 Y305.442
N12665 X-2.937 Y305.54
N12670 X-2.955 Y305.638
N12675 X-2.971 Y305.736
N12680 X-2.983 Y305.833
N12685 X-2.992 Y305.931
N12690 X-2.997 Y306.029
N12695 X-3. Y306.127
N12700 Y306.323
N12705 Y1648.021
N12710 Y1648.173 Z-7.016
N12715 Y1648.32 Z-7.062
N12720 Y1648.454 Z-7.138
N12725 Y1648.569 Z-7.239
N12730 Y1648.662 Z-7.361
N12735 Y1648.793 Z-7.639
N12740 Y1648.886 Z-7.761
N12745 Y1649.002 Z-7.862
N12750 Y1649.136 Z-7.938
N12755 Y1649.282 Z-7.984
N12760 Y1649.435 Z-8.
N12765 Y1654.484
N12770 Y2071.292
N12775 G3 X-3.75 Y2071.873 I-0.6 J0.
N12780 G1 X-5.422 Y2071.442
N12785 X-5.513 Y2071.418 Z-7.993
N12790 X-5.601 Y2071.395 Z-7.971
N12795 X-5.685 Y2071.374 Z-7.935
N12800 X-5.763 Y2071.354 Z-7.885
N12805 X-5.832 Y2071.336 Z-7.824
N12810 X-5.892 Y2071.32 Z-7.753
N12815 X-5.939 Y2071.308 Z-7.672
N12820 X-5.974 Y2071.299 Z-7.585
N12825 X-5.996 Y2071.294 Z-7.494
N12830 X-6.003 Y2071.292 Z-7.4
N12835 G0 Z5.
N12840 X356.003
N12845 Z-7.4
N12850 G1 X355.996 Y2071.294 Z-7.494 F1333.33
N12855 X355.974 Y2071.299 Z-7.585
N12860 X355.939 Y2071.308 Z-7.672
N12865 X355.892 Y2071.32 Z-7.753
N12870 X355.832 Y2071.336 Z-7.824
N12875 X355.763 Y2071.354 Z-7.885
N12880 X355.685 Y2071.374 Z-7.935
N12885 X355.601 Y2071.395 Z-7.971
N12890 X355.513 Y2071.418 Z-7.993
N12895 X355.422 Y2071.442 Z-8.
N12900 X353.75 Y2071.873 F4000.
N12905 G3 X353. Y2071.292 I-0.15 J-0.581
N12910 G1 Y1654.484
N12915 G3 X353.75 Y1653.903 I0.6 J0.
N12920 G1 X355.422 Y1654.334
N12925 X355.513 Y1654.358 Z-7.993
N12930 X355.601 Y1654.381 Z-7.971
N12935 X355.685 Y1654.403 Z-7.935
N12940 X355.763 Y1654.423 Z-7.885
N12945 X355.832 Y1654.44 Z-7.824
N12950 X355.892 Y1654.456 Z-7.753
N12955 X355.939 Y1654.468 Z-7.672
N12960 X355.974 Y1654.477 Z-7.585
N12965 X355.996 Y1654.483 Z-7.494
N12970 X356.003 Y1654.484 Z-7.4
N12975 G0 Z5.
N12980 X349.443 Y301.395
N12985 Z-3.688
N12990 G1 Z-7. F1333.33
N12995 G3 X349.867 Y300.371 I0.424 J-0.424 F4000.
N13000 G1 X350.063 Y300.37
N13005 X350.259 Y300.36
N13010 X350.455 Y300.336
N13015 X350.651 Y300.299
N13020 X350.838 Y300.251
N13025 X350.847 Y300.249
N13030 X351.042 Y300.184
N13035 X351.238 Y300.103
N13040 X351.339 Y300.055
N13045 X351.434 Y300.006
N13050 X351.63 Y299.889
N13055 X351.675 Y299.859
N13060 X351.826 Y299.751
N13065 X351.935 Y299.664
N13070 X352.022 Y299.587
N13075 X352.145 Y299.468
N13080 X352.217 Y299.391
N13085 X352.321 Y299.272
N13090 X352.413 Y299.153
N13095 X352.468 Y299.076
N13100 X352.593 Y298.88
N13105 X352.609 Y298.852
N13110 X352.697 Y298.684
N13115 X352.784 Y298.488
N13120 X352.805 Y298.435
N13125 X352.855 Y298.293
N13130 X352.911 Y298.097
N13135 X352.934 Y297.999
N13140 X352.953 Y297.901
N13145 X352.969 Y297.803
N13150 X352.981 Y297.705
N13155 X352.991 Y297.607
N13160 X352.997 Y297.509
N13165 X352.999 Y297.459
N13170 X353. Y297.313
N13175 Y-6.283
N13180 Y-6.478
N13185 X352.997 Y-6.613
N13190 X352.993 Y-6.674
N13195 X352.985 Y-6.772
N13200 X352.973 Y-6.87
N13205 X352.958 Y-6.968
N13210 X352.94 Y-7.066
N13215 X352.919 Y-7.164
N13220 X352.894 Y-7.262
N13225 X352.833 Y-7.458
N13230 X352.805 Y-7.535
N13235 X352.757 Y-7.654
N13240 X352.664 Y-7.85
N13245 X352.609 Y-7.952
N13250 X352.554 Y-8.045
N13255 X352.422 Y-8.241
N13260 X352.413 Y-8.253
N13265 X352.266 Y-8.437
N13270 X352.217 Y-8.491
N13275 X352.08 Y-8.633
N13280 X352.022 Y-8.687
N13285 X351.855 Y-8.829
N13290 X351.826 Y-8.851
N13295 X351.63 Y-8.989
N13300 X351.574 Y-9.025
N13305 X351.434 Y-9.106
N13310 X351.238 Y-9.203
N13315 X351.199 Y-9.221
N13320 X351.042 Y-9.284
N13325 X350.847 Y-9.349
N13330 X350.651 Y-9.399
N13335 X350.568 Y-9.416
N13340 X350.455 Y-9.436
N13345 X350.259 Y-9.46
N13350 X350.063 Y-9.47
N13355 X349.867 Y-9.471
N13360 X0.132
N13365 X-0.063 Y-9.47
N13370 X-0.259 Y-9.46
N13375 X-0.455 Y-9.436
N13380 X-0.568 Y-9.416
N13385 X-0.651 Y-9.399
N13390 X-0.847 Y-9.349
N13395 X-1.042 Y-9.284
N13400 X-1.199 Y-9.221
N13405 X-1.238 Y-9.203
N13410 X-1.434 Y-9.106
N13415 X-1.574 Y-9.025
N13420 X-1.63 Y-8.989
N13425 X-1.826 Y-8.851
N13430 X-1.855 Y-8.829
N13435 X-2.022 Y-8.687
N13440 X-2.08 Y-8.633
N13445 X-2.217 Y-8.491
N13450 X-2.266 Y-8.437
N13455 X-2.413 Y-8.253
N13460 X-2.422 Y-8.241
N13465 X-2.554 Y-8.045
N13470 X-2.609 Y-7.952
N13475 X-2.664 Y-7.85
N13480 X-2.757 Y-7.654
N13485 X-2.805 Y-7.535
N13490 X-2.833 Y-7.458
N13495 X-2.894 Y-7.262
N13500 X-2.919 Y-7.164
N13505 X-2.94 Y-7.066
N13510 X-2.958 Y-6.968
N13515 X-2.973 Y-6.87
N13520 X-2.985 Y-6.772
N13525 X-2.993 Y-6.674
N13530 X-2.997 Y-6.613
N13535 X-3. Y-6.478
N13540 Y-6.087
N13545 Y297.313
N13550 X-2.999 Y297.459
N13555 X-2.997 Y297.509
N13560 X-2.991 Y297.607
N13565 X-2.981 Y297.705
N13570 X-2.969 Y297.803
N13575 X-2.953 Y297.901
N13580 X-2.934 Y297.999
N13585 X-2.911 Y298.097
N13590 X-2.855 Y298.293
N13595 X-2.805 Y298.435
N13600 X-2.784 Y298.488
N13605 X-2.697 Y298.684
N13610 X-2.609 Y298.852
N13615 X-2.593 Y298.88
N13620 X-2.468 Y299.076
N13625 X-2.413 Y299.153
N13630 X-2.321 Y299.272
N13635 X-2.217 Y299.391
N13640 X-2.145 Y299.468
N13645 X-2.022 Y299.587
N13650 X-1.935 Y299.664
N13655 X-1.826 Y299.751
N13660 X-1.675 Y299.859
N13665 X-1.63 Y299.889
N13670 X-1.434 Y300.006
N13675 X-1.339 Y300.055
N13680 X-1.238 Y300.103
N13685 X-1.042 Y300.184
N13690 X-0.847 Y300.249
N13695 X-0.838 Y300.251
N13700 X-0.651 Y300.299
N13705 X-0.455 Y300.336
N13710 X-0.259 Y300.36
N13715 X-0.063 Y300.37
N13720 X0.132 Y300.371
N13725 X349.867
N13730 G3 X350.467 Y300.971 I0. J0.6
N13735 G2 X350.839 Y301.526 I0.6 J0.
N13740 G1 X353.271 Y302.527
N13745 Z-7.4 F1333.33
N13750 X353.266 Y302.532 Z-7.494
N13755 X353.251 Y302.549 Z-7.585
N13760 X353.227 Y302.576 Z-7.672
N13765 X353.194 Y302.612 Z-7.753
N13770 X353.153 Y302.658 Z-7.824
N13775 X353.105 Y302.711 Z-7.885
N13780 X353.051 Y302.77 Z-7.935
N13785 X352.993 Y302.835 Z-7.971
N13790 X352.932 Y302.903 Z-7.993
N13795 X352.869 Y302.973 Z-8.
N13800 G3 X352.022 Y303.017 I-0.446 J-0.402 F4000.
N13805 G1 X351.996 Y302.993
N13810 X351.922 Y302.93
N13815 X351.84 Y302.864
N13820 X351.832 Y302.858
N13825 X351.826 Y302.853
N13830 X351.751 Y302.798
N13835 X351.694 Y302.757
N13840 X351.63 Y302.715
N13845 X351.625 Y302.712
N13850 X351.45 Y302.607
N13855 X351.441 Y302.602
N13860 X351.434 Y302.598
N13865 X351.34 Y302.549
N13870 X351.24 Y302.502
N13875 X351.238 Y302.501
N13880 X351.042 Y302.42
N13885 X351.003 Y302.406
N13890 X350.847 Y302.355
N13895 X350.651 Y302.305
N13900 X350.455 Y302.268
N13905 X350.259 Y302.244
N13910 X350.063 Y302.234
N13915 X349.867 Y302.233
N13920 X0.132
N13925 X-0.063 Y302.234
N13930 X-0.259 Y302.244
N13935 X-0.455 Y302.268
N13940 X-0.651 Y302.305
N13945 X-0.847 Y302.355
N13950 X-1.003 Y302.406
N13955 X-1.042 Y302.42
N13960 X-1.234 Y302.499
N13965 X-1.238 Y302.501
N13970 X-1.334 Y302.546
N13975 X-1.427 Y302.594
N13980 X-1.434 Y302.598
N13985 X-1.441 Y302.602
N13990 X-1.45 Y302.607
N13995 X-1.625 Y302.712
N14000 X-1.63 Y302.715
N14005 X-1.694 Y302.757
N14010 X-1.751 Y302.798
N14015 X-1.826 Y302.853
N14020 X-1.904 Y302.915
N14025 X-1.981 Y302.981
N14030 X-1.989 Y302.987
N14035 X-1.996 Y302.993
N14040 X-2.022 Y303.017
N14045 G3 X-2.454 Y303.17 I-0.402 J-0.446
N14050 G2 X-2.92 Y303.473 I-0.024 J0.472
N14055 G1 X-3.283 Y304.415
N14060 G2 X-3.176 Y304.92 I0.442 J0.17
N14065 G3 X-3. Y305.344 I-0.424 J0.424
N14070 G1 Y1648.021
N14075 G3 X-3.75 Y1648.602 I-0.6 J0.
N14080 G1 X-5.422 Y1648.17
N14085 X-5.513 Y1648.147 Z-7.993
N14090 X-5.601 Y1648.124 Z-7.971
N14095 X-5.685 Y1648.102 Z-7.935
N14100 X-5.763 Y1648.082 Z-7.885
N14105 X-5.832 Y1648.064 Z-7.824
N14110 X-5.892 Y1648.049 Z-7.753
N14115 X-5.939 Y1648.037 Z-7.672
N14120 X-5.974 Y1648.028 Z-7.585
N14125 X-5.996 Y1648.022 Z-7.494
N14130 X-6.003 Y1648.02 Z-7.4
N14135 G0 Z5.
N14140 X356.003
N14145 Z-7.4
N14150 G1 X355.996 Y1648.022 Z-7.494 F1333.33
N14155 X355.974 Y1648.028 Z-7.585
N14160 X355.939 Y1648.037 Z-7.672
N14165 X355.892 Y1648.049 Z-7.753
N14170 X355.832 Y1648.064 Z-7.824
N14175 X355.763 Y1648.082 Z-7.885
N14180 X355.685 Y1648.102 Z-7.935
N14185 X355.601 Y1648.124 Z-7.971
N14190 X355.513 Y1648.147 Z-7.993
N14195 X355.422 Y1648.17 Z-8.
N14200 X353.75 Y1648.602 F4000.
N14205 G3 X353. Y1648.021 I-0.15 J-0.581
N14210 G1 Y305.344
N14215 Y298.293
N14220 Y-7.262
N14225 G3 X353.176 Y-7.686 I0.6 J0.
N14230 G2 X353.275 Y-8.099 I-0.287 J-0.287
N14235 G1 X353.001 Y-8.937
N14240 G2 X352.633 Y-9.217 I-0.386 J0.126
N14245 G3 X352.217 Y-9.411 I0.027 J-0.599
N14250 G1 X352.213 Y-9.416
N14255 X352.086 Y-9.547
N14260 X352.078 Y-9.554
N14265 X352.071 Y-9.561
N14270 X352.063 Y-9.568
N14275 X352.056 Y-9.575
N14280 X352.049 Y-9.582
N14285 X352.042 Y-9.589
N14290 X352.035 Y-9.595
N14295 X352.028 Y-9.601
N14300 X352.022 Y-9.607
N14305 X352.016 Y-9.612
N14310 X351.94 Y-9.679
N14315 X351.857 Y-9.747
N14320 X351.851 Y-9.752
N14325 X351.842 Y-9.758
N14330 X351.835 Y-9.764
N14335 X351.827 Y-9.77
N14340 X351.826 Y-9.771
N14345 X351.776 Y-9.808
N14350 X351.706 Y-9.858
N14355 X351.63 Y-9.909
N14360 X351.473 Y-10.004
N14365 X351.434 Y-10.026
N14370 X351.339 Y-10.075
N14375 X351.238 Y-10.123
N14380 X351.052 Y-10.2
N14385 X351.042 Y-10.204
N14390 X350.847 Y-10.269
N14395 X350.651 Y-10.319
N14400 X350.455 Y-10.356
N14405 X350.259 Y-10.379
N14410 X350.063 Y-10.39
N14415 X349.867 Y-10.391
N14420 X0.132
N14425 X-0.063 Y-10.39
N14430 X-0.259 Y-10.379
N14435 X-0.455 Y-10.356
N14440 X-0.651 Y-10.319
N14445 X-0.847 Y-10.269
N14450 X-1.042 Y-10.204
N14455 X-1.052 Y-10.2
N14460 X-1.238 Y-10.123
N14465 X-1.336 Y-10.076
N14470 X-1.43 Y-10.028
N14475 X-1.434 Y-10.026
N14480 X-1.473 Y-10.004
N14485 X-1.63 Y-9.909
N14490 X-1.706 Y-9.858
N14495 X-1.776 Y-9.808
N14500 X-1.826 Y-9.771
N14505 X-1.833 Y-9.766
N14510 X-1.84 Y-9.76
N14515 X-1.849 Y-9.753
N14520 X-1.855 Y-9.748
N14525 X-1.939 Y-9.68
N14530 X-2.016 Y-9.612
N14535 X-2.024 Y-9.604
N14540 X-2.031 Y-9.598
N14545 X-2.038 Y-9.592
N14550 X-2.045 Y-9.585
N14555 X-2.053 Y-9.578
N14560 X-2.06 Y-9.572
N14565 X-2.066 Y-9.565
N14570 X-2.074 Y-9.558
N14575 X-2.081 Y-9.552
N14580 X-2.086 Y-9.547
N14585 X-2.213 Y-9.416
N14590 X-2.217 Y-9.411
N14595 G3 X-2.633 Y-9.216 I-0.443 J-0.405
N14600 G2 X-3.001 Y-8.937 I0.018 J0.405
N14605 G1 X-3.275 Y-8.099
N14610 G2 X-3.176 Y-7.686 I0.386 J0.126
N14615 G3 X-3. Y-7.262 I-0.424 J0.424
N14620 G1 Y298.293
N14625 G3 X-3.176 Y298.717 I-0.6 J0.
N14630 G2 X-3.266 Y299.181 I0.299 J0.299
N14635 G1 X-2.911 Y300.018
N14640 G2 X-2.515 Y300.276 I0.39 J-0.165
N14645 G3 X-2.088 Y300.445 I0.01 J0.6
N14650 G1 X-2.085 Y300.447
N14655 X-2.022 Y300.507
N14660 X-2.02 Y300.509
N14665 X-1.876 Y300.631
N14670 X-1.868 Y300.638
N14675 X-1.862 Y300.643
N14680 X-1.826 Y300.671
N14685 X-1.824 Y300.673
N14690 X-1.669 Y300.783
N14695 X-1.661 Y300.789
N14700 X-1.653 Y300.794
N14705 X-1.646 Y300.799
N14710 X-1.639 Y300.803
N14715 X-1.63 Y300.809
N14720 X-1.583 Y300.839
N14725 X-1.434 Y300.926
N14730 X-1.425 Y300.93
N14735 X-1.42 Y300.933
N14740 X-1.238 Y301.023
N14745 X-1.212 Y301.035
N14750 X-1.042 Y301.104
N14755 X-0.847 Y301.169
N14760 X-0.651 Y301.219
N14765 X-0.597 Y301.231
N14770 X-0.455 Y301.256
N14775 X-0.259 Y301.279
N14780 X-0.063 Y301.29
N14785 X0.132 Y301.291
N14790 X349.867
N14795 X350.063 Y301.29
N14800 X350.259 Y301.279
N14805 X350.455 Y301.256
N14810 X350.597 Y301.231
N14815 X350.651 Y301.219
N14820 X350.847 Y301.169
N14825 X351.042 Y301.104
N14830 X351.212 Y301.035
N14835 X351.238 Y301.023
N14840 X351.245 Y301.02
N14845 X351.434 Y300.926
N14850 X351.583 Y300.839
N14855 X351.63 Y300.809
N14860 X351.639 Y300.803
N14865 X351.646 Y300.799
N14870 X351.653 Y300.794
N14875 X351.66 Y300.789
N14880 X351.669 Y300.783
N14885 X351.671 Y300.782
N14890 X351.826 Y300.671
N14895 X351.862 Y300.643
N14900 X351.87 Y300.636
N14905 X351.878 Y300.63
N14910 X352.022 Y300.507
N14915 X352.085 Y300.447
N14920 X352.088 Y300.445
N14925 G3 X353.103 Y300.824 I0.417 J0.431
N14930 G1 X353.108 Y300.88 Z-7.993
N14935 X353.112 Y300.932 Z-7.971
N14940 X353.116 Y300.977 Z-7.936
N14945 X353.119 Y301.012 Z-7.891
N14950 X353.121 Y301.034 Z-7.838
N14955 X353.122 Y301.041 Z-7.782
N14960 G0 Z35.
N14965 G53 Z0.
N14970 M30
%
