%
(1001)
(T1  D=6. CR=0. - ZMIN=-8. - FLAT END MILL)
N10 G90 G94 G17 G91.1
N15 G21
N20 G53 G0 Z0.
(2D CONTOUR6)
N25 T1 M6
N30 S24000 M3
N35 G54
N40 G0 X14.6 Y923.037
N45 G43 Z30. H1
N50 G0 Z5.
N55 G1 Z3.1 F50.
N60 G18 G2 X15.2 Z2.5 I0.6 K0.
N65 G1 X15.8 F4000.
N70 G17 G3 X16.4 Y923.637 I0. J0.6
N75 G1 Y1052.5 Z-2. F1333.33
N80 Y1666.67 F4000.
N85 G2 X20. Y1670.27 I3.6 J0.
N90 G1 X370.
N95 G2 X373.6 Y1666.67 I0. J-3.6
N100 G1 Y323.181
N105 G2 X370. Y319.581 I-3.6 J0.
N110 G1 X20.
N115 G2 X16.4 Y323.181 I0. J3.6
N120 G1 Y1052.5
N125 G2 X16.7 Y1052.95 I0.488 J0.
N130 G3 X17. Y1053.4 I-0.188 J0.45
N135 G1 Y1666.67
N140 G2 X20. Y1669.67 I3. J0.
N145 G1 X370.
N150 G2 X373. Y1666.67 I0. J-3.
N155 G1 Y323.181
N160 G2 X370. Y320.181 I-3. J0.
N165 G1 X20.
N170 G2 X17. Y323.181 I0. J3.
N175 G1 Y1053.4
N180 G3 X16.4 Y1054. I-0.6 J0.
N185 G1 X15.8
N190 G18 G3 X15.2 Z-1.4 I0. K0.6
N195 G0 Z5.
N200 X375.4 Y1806.133
N205 G1 Z3.1 F50.
N210 G3 X374.8 Z2.5 I-0.6 K0.
N215 G1 X374.2 F4000.
N220 G17 G3 X373.6 Y1805.533 I0. J-0.6
N225 G1 Y1676.67 Z-2. F1333.33
N230 G2 X370. Y1673.07 I-3.6 J0. F4000.
N235 G1 X20.
N240 G2 X16.4 Y1676.67 I0. J3.6
N245 G1 Y2097.51
N250 G2 X20. Y2101.11 I3.6 J0.
N255 G1 X370.
N260 G2 X373.6 Y2097.51 I0. J-3.6
N265 G1 Y1676.67
N270 G2 X373.266 Y1676.199 I-0.499 J0.
N275 G3 X372.866 Y1675.783 I0.213 J-0.605
N280 G2 X370. Y1673.67 I-2.866 J0.887
N285 G1 X20.
N290 G2 X17. Y1676.67 I0. J3.
N295 G1 Y2097.51
N300 G2 X20. Y2100.51 I3. J0.
N305 G1 X370.
N310 G2 X373. Y2097.51 I0. J-3.
N315 G1 Y1676.67
N320 G2 X372.866 Y1675.783 I-3. J0.
N325 G3 X373.262 Y1675.033 I0.573 J-0.177
N330 G1 X373.835 Y1674.856
N335 X373.925 Y1674.828 Z-1.993
N340 X374.012 Y1674.801 Z-1.971
N345 X374.095 Y1674.775 Z-1.935
N350 X374.172 Y1674.751 Z-1.885
N355 X374.24 Y1674.73 Z-1.824
N360 X374.299 Y1674.712 Z-1.753
N365 X374.346 Y1674.698 Z-1.672
N370 X374.38 Y1674.687 Z-1.585
N375 X374.401 Y1674.681 Z-1.494
N380 X374.408 Y1674.678 Z-1.4
N385 G0 Z5.
N390 X375.4 Y1806.133
N395 G1 Z1.1 F50.
N400 G18 G3 X374.8 Z0.5 I-0.6 K0.
N405 G1 X374.2 F4000.
N410 G17 G3 X373.6 Y1805.533 I0. J-0.6
N415 G1 Y1676.67 Z-4. F1333.33
N420 G2 X370. Y1673.07 I-3.6 J0. F4000.
N425 G1 X20.
N430 G2 X16.4 Y1676.67 I0. J3.6
N435 G1 Y2097.51
N440 G2 X20. Y2101.11 I3.6 J0.
N445 G1 X370.
N450 G2 X373.6 Y2097.51 I0. J-3.6
N455 G1 Y1676.67
N460 G2 X373.266 Y1676.199 I-0.499 J0.
N465 G3 X372.866 Y1675.783 I0.213 J-0.605
N470 G2 X370. Y1673.67 I-2.866 J0.887
N475 G1 X20.
N480 G2 X17. Y1676.67 I0. J3.
N485 G1 Y2097.51
N490 G2 X20. Y2100.51 I3. J0.
N495 G1 X370.
N500 G2 X373. Y2097.51 I0. J-3.
N505 G1 Y1676.67
N510 G2 X372.866 Y1675.783 I-3. J0.
N515 G3 X373.262 Y1675.033 I0.573 J-0.177
N520 G1 X373.835 Y1674.856
N525 X373.925 Y1674.828 Z-3.993
N530 X374.012 Y1674.801 Z-3.971
N535 X374.095 Y1674.775 Z-3.935
N540 X374.172 Y1674.751 Z-3.885
N545 X374.24 Y1674.73 Z-3.824
N550 X374.299 Y1674.712 Z-3.753
N555 X374.346 Y1674.698 Z-3.672
N560 X374.38 Y1674.687 Z-3.585
N565 X374.401 Y1674.681 Z-3.494
N570 X374.408 Y1674.678 Z-3.4
N575 G0 Z5.
N580 X246.192 Y318.581
N585 G1 Z3.1 F50.
N590 G19 G2 Y317.981 Z2.5 J-0.6 K0.
N595 G1 Y317.381 F4000.
N600 G17 G3 X246.792 Y316.781 I0.6 J0.
N605 G1 X370. Z-1.803 F1333.33
N610 G2 X373.6 Y313.181 Z-2. I0. J-3.6
N615 G1 Y7.491 F4000.
N620 G2 X370. Y3.891 I-3.6 J0.
N625 G1 X20.
N630 G2 X16.4 Y7.491 I0. J3.6
N635 G1 Y313.181
N640 G2 X20. Y316.781 I3.6 J0.
N645 G1 X370.
N650 G2 X373.6 Y313.181 I0. J-3.6
N655 X373.3 Y312.731 I-0.488 J0.
N660 G3 X373. Y312.281 I0.188 J-0.45
N665 G1 Y7.491
N670 G2 X370. Y4.491 I-3. J0.
N675 G1 X20.
N680 G2 X17. Y7.491 I0. J3.
N685 G1 Y313.181
N690 G2 X20. Y316.181 I3. J0.
N695 G1 X370.
N700 G2 X373. Y313.181 I0. J-3.
N705 G1 Y312.281
N710 G3 X373.6 Y311.681 I0.6 J0.
N715 G1 X374.2
N720 G18 G2 X374.8 Z-1.4 I0. K0.6
N725 G0 Z5.
N730 X246.192 Y318.581
N735 G1 Z1.1 F50.
N740 G19 G2 Y317.981 Z0.5 J-0.6 K0.
N745 G1 Y317.381 F4000.
N750 G17 G3 X246.792 Y316.781 I0.6 J0.
N755 G1 X370. Z-3.803 F1333.33
N760 G2 X373.6 Y313.181 Z-4. I0. J-3.6
N765 G1 Y7.491 F4000.
N770 G2 X370. Y3.891 I-3.6 J0.
N775 G1 X20.
N780 G2 X16.4 Y7.491 I0. J3.6
N785 G1 Y313.181
N790 G2 X20. Y316.781 I3.6 J0.
N795 G1 X370.
N800 G2 X373.6 Y313.181 I0. J-3.6
N805 X373.3 Y312.731 I-0.488 J0.
N810 G3 X373. Y312.281 I0.188 J-0.45
N815 G1 Y7.491
N820 G2 X370. Y4.491 I-3. J0.
N825 G1 X20.
N830 G2 X17. Y7.491 I0. J3.
N835 G1 Y313.181
N840 G2 X20. Y316.181 I3. J0.
N845 G1 X370.
N850 G2 X373. Y313.181 I0. J-3.
N855 G1 Y312.281
N860 G3 X373.6 Y311.681 I0.6 J0.
N865 G1 X374.2
N870 G18 G2 X374.8 Z-3.4 I0. K0.6
N875 G0 Z5.
N880 X14.6 Y923.037
N885 G1 Z1.1 F50.
N890 G2 X15.2 Z0.5 I0.6 K0.
N895 G1 X15.8 F4000.
N900 G17 G3 X16.4 Y923.637 I0. J0.6
N905 G1 Y1052.5 Z-4. F1333.33
N910 Y1666.67 F4000.
N915 G2 X20. Y1670.27 I3.6 J0.
N920 G1 X370.
N925 G2 X373.6 Y1666.67 I0. J-3.6
N930 G1 Y323.181
N935 G2 X370. Y319.581 I-3.6 J0.
N940 G1 X20.
N945 G2 X16.4 Y323.181 I0. J3.6
N950 G1 Y1052.5
N955 G2 X16.7 Y1052.95 I0.488 J0.
N960 G3 X17. Y1053.4 I-0.188 J0.45
N965 G1 Y1666.67
N970 G2 X20. Y1669.67 I3. J0.
N975 G1 X370.
N980 G2 X373. Y1666.67 I0. J-3.
N985 G1 Y323.181
N990 G2 X370. Y320.181 I-3. J0.
N995 G1 X20.
N1000 G2 X17. Y323.181 I0. J3.
N1005 G1 Y1053.4
N1010 G3 X16.4 Y1054. I-0.6 J0.
N1015 G1 X15.8
N1020 G18 G3 X15.2 Z-3.4 I0. K0.6
N1025 G0 Z5.
N1030 X14.6 Y923.037
N1035 G1 Z-0.9 F50.
N1040 G2 X15.2 Z-1.5 I0.6 K0.
N1045 G1 X15.8 F4000.
N1050 G17 G3 X16.4 Y923.637 I0. J0.6
N1055 G1 Y1023.864 Z-5. F1333.33
N1060 Y1025.65
N1065 Z-5.062 F50.
N1070 Y1052.5 Z-6. F1333.33
N1075 Y1319.36 F4000.
N1080 Z-5.
N1085 Y1331.36
N1090 Z-6. F50.
N1095 Y1555.78 F4000.
N1100 Z-5.
N1105 Y1567.78
N1110 Z-6. F50.
N1115 Y1666.67 F4000.
N1120 G2 X20. Y1670.27 I3.6 J0.
N1125 G1 X196.836
N1130 Z-5.
N1135 X216.577
N1140 Z-6. F50.
N1145 X370. F4000.
N1150 G2 X373.6 Y1666.67 I0. J-3.6
N1155 G1 Y1562.26
N1160 Z-5.
N1165 Y1550.26
N1170 Z-6. F50.
N1175 Y1351.02 F4000.
N1180 Z-5.
N1185 Y1339.02
N1190 Z-6. F50.
N1195 Y982.594 F4000.
N1200 Z-5.
N1205 Y970.594
N1210 Z-6. F50.
N1215 Y781.438 F4000.
N1220 Z-5.
N1225 Y769.438
N1230 Z-6. F50.
N1235 Y605.791 F4000.
N1240 Z-5.
N1245 Y593.791
N1250 Z-6. F50.
N1255 Y484.484 F4000.
N1260 Z-5.
N1265 Y472.484
N1270 Z-6. F50.
N1275 Y367.598 F4000.
N1280 Z-5.
N1285 Y355.598
N1290 Z-6. F50.
N1295 Y323.181 F4000.
N1300 G2 X370. Y319.581 I-3.6 J0.
N1305 G1 X198.382
N1310 Z-5.
N1315 X185.446
N1320 Z-6. F50.
N1325 X20. F4000.
N1330 G2 X16.4 Y323.181 I0. J3.6
N1335 G1 Y373.465
N1340 Z-5.
N1345 Y385.465
N1350 Z-6. F50.
N1355 Y472.806 F4000.
N1360 Z-5.
N1365 Y484.806
N1370 Z-6. F50.
N1375 Y598.397 F4000.
N1380 Z-5.
N1385 Y610.397
N1390 Z-6. F50.
N1395 Y790.459 F4000.
N1400 Z-5.
N1405 Y802.459
N1410 Z-6. F50.
N1415 Y1013.65 F4000.
N1420 Z-5.
N1425 Y1025.65
N1430 Z-6. F50.
N1435 Y1052.5 F4000.
N1440 G2 X16.7 Y1052.95 I0.488 J0.
N1445 G3 X17. Y1053.4 I-0.188 J0.45
N1450 G1 Y1319.36
N1455 Z-5.
N1460 Y1331.36
N1465 Z-6. F50.
N1470 Y1555.78 F4000.
N1475 Z-5.
N1480 Y1567.78
N1485 Z-6. F50.
N1490 Y1666.67 F4000.
N1495 G2 X20. Y1669.67 I3. J0.
N1500 G1 X196.836
N1505 Z-5.
N1510 X216.577
N1515 Z-6. F50.
N1520 X370. F4000.
N1525 G2 X373. Y1666.67 I0. J-3.
N1530 G1 Y1562.26
N1535 Z-5.
N1540 Y1550.26
N1545 Z-6. F50.
N1550 Y1351.02 F4000.
N1555 Z-5.
N1560 Y1339.02
N1565 Z-6. F50.
N1570 Y982.594 F4000.
N1575 Z-5.
N1580 Y970.594
N1585 Z-6. F50.
N1590 Y781.438 F4000.
N1595 Z-5.
N1600 Y769.438
N1605 Z-6. F50.
N1610 Y605.791 F4000.
N1615 Z-5.
N1620 Y593.791
N1625 Z-6. F50.
N1630 Y484.484 F4000.
N1635 Z-5.
N1640 Y472.484
N1645 Z-6. F50.
N1650 Y367.598 F4000.
N1655 Z-5.
N1660 Y355.598
N1665 Z-6. F50.
N1670 Y323.181 F4000.
N1675 G2 X370. Y320.181 I-3. J0.
N1680 G1 X198.382
N1685 Z-5.
N1690 X185.446
N1695 Z-6. F50.
N1700 X20. F4000.
N1705 G2 X17. Y323.181 I0. J3.
N1710 G1 Y373.465
N1715 Z-5.
N1720 Y385.465
N1725 Z-6. F50.
N1730 Y472.806 F4000.
N1735 Z-5.
N1740 Y484.806
N1745 Z-6. F50.
N1750 Y598.397 F4000.
N1755 Z-5.
N1760 Y610.397
N1765 Z-6. F50.
N1770 Y790.459 F4000.
N1775 Z-5.
N1780 Y802.459
N1785 Z-6. F50.
N1790 Y1013.65 F4000.
N1795 Z-5.
N1800 Y1025.65
N1805 Z-6. F50.
N1810 Y1053.4 F4000.
N1815 G3 X16.4 Y1054. I-0.6 J0.
N1820 G1 X15.8
N1825 G18 G3 X15.2 Z-5.4 I0. K0.6
N1830 G0 Z5.
N1835 X375.4 Y1806.133
N1840 G1 Z-0.9 F50.
N1845 G3 X374.8 Z-1.5 I-0.6 K0.
N1850 G1 X374.2 F4000.
N1855 G17 G3 X373.6 Y1805.533 I0. J-0.6
N1860 G1 Y1676.67 Z-6. F1333.33
N1865 G2 X370. Y1673.07 I-3.6 J0. F4000.
N1870 G1 X216.577
N1875 Z-5.
N1880 X196.836
N1885 Z-6. F50.
N1890 X20. F4000.
N1895 G2 X16.4 Y1676.67 I0. J3.6
N1900 G1 Y1736.42
N1905 Z-5.
N1910 Y1748.42
N1915 Z-6. F50.
N1920 Y1851.21 F4000.
N1925 Z-5.
N1930 Y1863.21
N1935 Z-6. F50.
N1940 Y2000.74 F4000.
N1945 Z-5.
N1950 Y2012.74
N1955 Z-6. F50.
N1960 Y2097.51 F4000.
N1965 G2 X20. Y2101.11 I3.6 J0.
N1970 G1 X172.913
N1975 Z-5.
N1980 X184.913
N1985 Z-6. F50.
N1990 X370. F4000.
N1995 G2 X373.6 Y2097.51 I0. J-3.6
N2000 G1 Y1984.49
N2005 Z-5.
N2010 Y1972.49
N2015 Z-6. F50.
N2020 Y1862.9 F4000.
N2025 Z-5.
N2030 Y1850.9
N2035 Z-6. F50.
N2040 Y1723.4 F4000.
N2045 Z-5.
N2050 Y1711.4
N2055 Z-6. F50.
N2060 Y1676.67 F4000.
N2065 G2 X373.266 Y1676.199 I-0.499 J0.
N2070 G3 X372.866 Y1675.783 I0.213 J-0.605
N2075 G2 X370. Y1673.67 I-2.866 J0.887
N2080 G1 X216.577
N2085 Z-5.
N2090 X196.836
N2095 Z-6. F50.
N2100 X20. F4000.
N2105 G2 X17. Y1676.67 I0. J3.
N2110 G1 Y1736.42
N2115 Z-5.
N2120 Y1748.42
N2125 Z-6. F50.
N2130 Y1851.21 F4000.
N2135 Z-5.
N2140 Y1863.21
N2145 Z-6. F50.
N2150 Y2000.74 F4000.
N2155 Z-5.
N2160 Y2012.74
N2165 Z-6. F50.
N2170 Y2097.51 F4000.
N2175 G2 X20. Y2100.51 I3. J0.
N2180 G1 X172.913
N2185 Z-5.
N2190 X184.913
N2195 Z-6. F50.
N2200 X370. F4000.
N2205 G2 X373. Y2097.51 I0. J-3.
N2210 G1 Y1984.49
N2215 Z-5.
N2220 Y1972.49
N2225 Z-6. F50.
N2230 Y1862.9 F4000.
N2235 Z-5.
N2240 Y1850.9
N2245 Z-6. F50.
N2250 Y1723.4 F4000.
N2255 Z-5.
N2260 Y1711.4
N2265 Z-6. F50.
N2270 Y1676.67 F4000.
N2275 G2 X372.866 Y1675.783 I-3. J0.
N2280 G3 X373.262 Y1675.033 I0.573 J-0.177
N2285 G1 X373.835 Y1674.856
N2290 X373.925 Y1674.828 Z-5.993
N2295 X374.012 Y1674.801 Z-5.971
N2300 X374.095 Y1674.775 Z-5.935
N2305 X374.172 Y1674.751 Z-5.885
N2310 X374.24 Y1674.73 Z-5.824
N2315 X374.299 Y1674.712 Z-5.753
N2320 X374.346 Y1674.698 Z-5.672
N2325 X374.38 Y1674.687 Z-5.585
N2330 X374.401 Y1674.681 Z-5.494
N2335 X374.408 Y1674.678 Z-5.4
N2340 G0 Z5.
N2345 X375.4 Y1806.133
N2350 G1 Z-2.9 F50.
N2355 G18 G3 X374.8 Z-3.5 I-0.6 K0.
N2360 G1 X374.2 F4000.
N2365 G17 G3 X373.6 Y1805.533 I0. J-0.6
N2370 G1 Y1723.4 Z-6.368 F1333.33
N2375 Z-5.
N2380 Y1711.4
N2385 Z-6.787 F50.
N2390 Y1676.67 Z-8. F1333.33
N2395 G2 X370. Y1673.07 I-3.6 J0. F4000.
N2400 G1 X216.577
N2405 Z-5.
N2410 X196.836
N2415 Z-8. F50.
N2420 X20. F4000.
N2425 G2 X16.4 Y1676.67 I0. J3.6
N2430 G1 Y1736.42
N2435 Z-5.
N2440 Y1748.42
N2445 Z-8. F50.
N2450 Y1851.21 F4000.
N2455 Z-5.
N2460 Y1863.21
N2465 Z-8. F50.
N2470 Y2000.74 F4000.
N2475 Z-5.
N2480 Y2012.74
N2485 Z-8. F50.
N2490 Y2097.51 F4000.
N2495 G2 X20. Y2101.11 I3.6 J0.
N2500 G1 X172.913
N2505 Z-5.
N2510 X184.913
N2515 Z-8. F50.
N2520 X370. F4000.
N2525 G2 X373.6 Y2097.51 I0. J-3.6
N2530 G1 Y1984.49
N2535 Z-5.
N2540 Y1972.49
N2545 Z-8. F50.
N2550 Y1862.9 F4000.
N2555 Z-5.
N2560 Y1850.9
N2565 Z-8. F50.
N2570 Y1723.4 F4000.
N2575 Z-5.
N2580 Y1711.4
N2585 Z-8. F50.
N2590 Y1676.67 F4000.
N2595 G2 X373.266 Y1676.199 I-0.499 J0.
N2600 G3 X372.866 Y1675.783 I0.213 J-0.605
N2605 G2 X370. Y1673.67 I-2.866 J0.887
N2610 G1 X216.577
N2615 Z-5.
N2620 X196.836
N2625 Z-8. F50.
N2630 X20. F4000.
N2635 G2 X17. Y1676.67 I0. J3.
N2640 G1 Y1736.42
N2645 Z-5.
N2650 Y1748.42
N2655 Z-8. F50.
N2660 Y1851.21 F4000.
N2665 Z-5.
N2670 Y1863.21
N2675 Z-8. F50.
N2680 Y2000.74 F4000.
N2685 Z-5.
N2690 Y2012.74
N2695 Z-8. F50.
N2700 Y2097.51 F4000.
N2705 G2 X20. Y2100.51 I3. J0.
N2710 G1 X172.913
N2715 Z-5.
N2720 X184.913
N2725 Z-8. F50.
N2730 X370. F4000.
N2735 G2 X373. Y2097.51 I0. J-3.
N2740 G1 Y1984.49
N2745 Z-5.
N2750 Y1972.49
N2755 Z-8. F50.
N2760 Y1862.9 F4000.
N2765 Z-5.
N2770 Y1850.9
N2775 Z-8. F50.
N2780 Y1723.4 F4000.
N2785 Z-5.
N2790 Y1711.4
N2795 Z-8. F50.
N2800 Y1676.67 F4000.
N2805 G2 X372.866 Y1675.783 I-3. J0.
N2810 G3 X373.262 Y1675.033 I0.573 J-0.177
N2815 G1 X373.835 Y1674.856
N2820 X373.925 Y1674.828 Z-7.993
N2825 X374.012 Y1674.801 Z-7.971
N2830 X374.095 Y1674.775 Z-7.935
N2835 X374.172 Y1674.751 Z-7.885
N2840 X374.24 Y1674.73 Z-7.824
N2845 X374.299 Y1674.712 Z-7.753
N2850 X374.346 Y1674.698 Z-7.672
N2855 X374.38 Y1674.687 Z-7.585
N2860 X374.401 Y1674.681 Z-7.494
N2865 X374.408 Y1674.678 Z-7.4
N2870 G0 Z5.
N2875 X246.192 Y318.581
N2880 G1 Z-0.9 F50.
N2885 G19 G2 Y317.981 Z-1.5 J-0.6 K0.
N2890 G1 Y317.381 F4000.
N2895 G17 G3 X246.792 Y316.781 I0.6 J0.
N2900 G1 X370. Z-5.803 F1333.33
N2905 G2 X373.6 Y313.181 Z-6. I0. J-3.6
N2910 G1 Y253.125 F4000.
N2915 Z-5.
N2920 Y241.125
N2925 Z-6. F50.
N2930 Y176.459 F4000.
N2935 Z-5.
N2940 Y164.459
N2945 Z-6. F50.
N2950 Y64.809 F4000.
N2955 Z-5.
N2960 Y52.809
N2965 Z-6. F50.
N2970 Y7.491 F4000.
N2975 G2 X370. Y3.891 I-3.6 J0.
N2980 G1 X212.07
N2985 Z-5.
N2990 X200.07
N2995 Z-6. F50.
N3000 X20. F4000.
N3005 G2 X16.4 Y7.491 I0. J3.6
N3010 G1 Y53.942
N3015 Z-5.
N3020 Y65.942
N3025 Z-6. F50.
N3030 Y175.11 F4000.
N3035 Z-5.
N3040 Y187.11
N3045 Z-6. F50.
N3050 Y261.556 F4000.
N3055 Z-5.
N3060 Y273.556
N3065 Z-6. F50.
N3070 Y313.181 F4000.
N3075 G2 X20. Y316.781 I3.6 J0.
N3080 G1 X185.446
N3085 Z-5.
N3090 X198.382
N3095 Z-6. F50.
N3100 X370. F4000.
N3105 G2 X373.6 Y313.181 I0. J-3.6
N3110 X373.3 Y312.731 I-0.488 J0.
N3115 G3 X373. Y312.281 I0.188 J-0.45
N3120 G1 Y253.125
N3125 Z-5.
N3130 Y241.125
N3135 Z-6. F50.
N3140 Y176.459 F4000.
N3145 Z-5.
N3150 Y164.459
N3155 Z-6. F50.
N3160 Y64.809 F4000.
N3165 Z-5.
N3170 Y52.809
N3175 Z-6. F50.
N3180 Y7.491 F4000.
N3185 G2 X370. Y4.491 I-3. J0.
N3190 G1 X212.07
N3195 Z-5.
N3200 X200.07
N3205 Z-6. F50.
N3210 X20. F4000.
N3215 G2 X17. Y7.491 I0. J3.
N3220 G1 Y53.942
N3225 Z-5.
N3230 Y65.942
N3235 Z-6. F50.
N3240 Y175.11 F4000.
N3245 Z-5.
N3250 Y187.11
N3255 Z-6. F50.
N3260 Y261.556 F4000.
N3265 Z-5.
N3270 Y273.556
N3275 Z-6. F50.
N3280 Y313.181 F4000.
N3285 G2 X20. Y316.181 I3. J0.
N3290 G1 X185.446
N3295 Z-5.
N3300 X198.382
N3305 Z-6. F50.
N3310 X370. F4000.
N3315 G2 X373. Y313.181 I0. J-3.
N3320 G1 Y312.281
N3325 G3 X373.6 Y311.681 I0.6 J0.
N3330 G1 X374.2
N3335 G18 G2 X374.8 Z-5.4 I0. K0.6
N3340 G0 Z5.
N3345 X246.192 Y318.581
N3350 G1 Z-2.9 F50.
N3355 G19 G2 Y317.981 Z-3.5 J-0.6 K0.
N3360 G1 Y317.381 F4000.
N3365 G17 G3 X246.792 Y316.781 I0.6 J0.
N3370 G1 X370. Z-7.803 F1333.33
N3375 G2 X373.6 Y313.181 Z-8. I0. J-3.6
N3380 G1 Y253.125 F4000.
N3385 Z-5.
N3390 Y241.125
N3395 Z-8. F50.
N3400 Y176.459 F4000.
N3405 Z-5.
N3410 Y164.459
N3415 Z-8. F50.
N3420 Y64.809 F4000.
N3425 Z-5.
N3430 Y52.809
N3435 Z-8. F50.
N3440 Y7.491 F4000.
N3445 G2 X370. Y3.891 I-3.6 J0.
N3450 G1 X212.07
N3455 Z-5.
N3460 X200.07
N3465 Z-8. F50.
N3470 X20. F4000.
N3475 G2 X16.4 Y7.491 I0. J3.6
N3480 G1 Y53.942
N3485 Z-5.
N3490 Y65.942
N3495 Z-8. F50.
N3500 Y175.11 F4000.
N3505 Z-5.
N3510 Y187.11
N3515 Z-8. F50.
N3520 Y261.556 F4000.
N3525 Z-5.
N3530 Y273.556
N3535 Z-8. F50.
N3540 Y313.181 F4000.
N3545 G2 X20. Y316.781 I3.6 J0.
N3550 G1 X185.446
N3555 Z-5.
N3560 X198.382
N3565 Z-8. F50.
N3570 X370. F4000.
N3575 G2 X373.6 Y313.181 I0. J-3.6
N3580 X373.3 Y312.731 I-0.488 J0.
N3585 G3 X373. Y312.281 I0.188 J-0.45
N3590 G1 Y253.125
N3595 Z-5.
N3600 Y241.125
N3605 Z-8. F50.
N3610 Y176.459 F4000.
N3615 Z-5.
N3620 Y164.459
N3625 Z-8. F50.
N3630 Y64.809 F4000.
N3635 Z-5.
N3640 Y52.809
N3645 Z-8. F50.
N3650 Y7.491 F4000.
N3655 G2 X370. Y4.491 I-3. J0.
N3660 G1 X212.07
N3665 Z-5.
N3670 X200.07
N3675 Z-8. F50.
N3680 X20. F4000.
N3685 G2 X17. Y7.491 I0. J3.
N3690 G1 Y53.942
N3695 Z-5.
N3700 Y65.942
N3705 Z-8. F50.
N3710 Y175.11 F4000.
N3715 Z-5.
N3720 Y187.11
N3725 Z-8. F50.
N3730 Y261.556 F4000.
N3735 Z-5.
N3740 Y273.556
N3745 Z-8. F50.
N3750 Y313.181 F4000.
N3755 G2 X20. Y316.181 I3. J0.
N3760 G1 X185.446
N3765 Z-5.
N3770 X198.382
N3775 Z-8. F50.
N3780 X370. F4000.
N3785 G2 X373. Y313.181 I0. J-3.
N3790 G1 Y312.281
N3795 G3 X373.6 Y311.681 I0.6 J0.
N3800 G1 X374.2
N3805 G18 G2 X374.8 Z-7.4 I0. K0.6
N3810 G0 Z5.
N3815 X14.6 Y923.037
N3820 G1 Z-2.9 F50.
N3825 G2 X15.2 Z-3.5 I0.6 K0.
N3830 G1 X15.8 F4000.
N3835 G17 G3 X16.4 Y923.637 I0. J0.6
N3840 G1 Y1013.65 Z-6.643 F1333.33
N3845 Z-5.
N3850 Y1025.65
N3855 Z-7.062 F50.
N3860 Y1052.5 Z-8. F1333.33
N3865 Y1319.36 F4000.
N3870 Z-5.
N3875 Y1331.36
N3880 Z-8. F50.
N3885 Y1555.78 F4000.
N3890 Z-5.
N3895 Y1567.78
N3900 Z-8. F50.
N3905 Y1666.67 F4000.
N3910 G2 X20. Y1670.27 I3.6 J0.
N3915 G1 X196.836
N3920 Z-5.
N3925 X216.577
N3930 Z-8. F50.
N3935 X370. F4000.
N3940 G2 X373.6 Y1666.67 I0. J-3.6
N3945 G1 Y1562.26
N3950 Z-5.
N3955 Y1550.26
N3960 Z-8. F50.
N3965 Y1351.02 F4000.
N3970 Z-5.
N3975 Y1339.02
N3980 Z-8. F50.
N3985 Y982.594 F4000.
N3990 Z-5.
N3995 Y970.594
N4000 Z-8. F50.
N4005 Y781.438 F4000.
N4010 Z-5.
N4015 Y769.438
N4020 Z-8. F50.
N4025 Y605.791 F4000.
N4030 Z-5.
N4035 Y593.791
N4040 Z-8. F50.
N4045 Y484.484 F4000.
N4050 Z-5.
N4055 Y472.484
N4060 Z-8. F50.
N4065 Y367.598 F4000.
N4070 Z-5.
N4075 Y355.598
N4080 Z-8. F50.
N4085 Y323.181 F4000.
N4090 G2 X370. Y319.581 I-3.6 J0.
N4095 G1 X198.382
N4100 Z-5.
N4105 X185.446
N4110 Z-8. F50.
N4115 X20. F4000.
N4120 G2 X16.4 Y323.181 I0. J3.6
N4125 G1 Y373.465
N4130 Z-5.
N4135 Y385.465
N4140 Z-8. F50.
N4145 Y472.806 F4000.
N4150 Z-5.
N4155 Y484.806
N4160 Z-8. F50.
N4165 Y598.397 F4000.
N4170 Z-5.
N4175 Y610.397
N4180 Z-8. F50.
N4185 Y790.459 F4000.
N4190 Z-5.
N4195 Y802.459
N4200 Z-8. F50.
N4205 Y1013.65 F4000.
N4210 Z-5.
N4215 Y1025.65
N4220 Z-8. F50.
N4225 Y1052.5 F4000.
N4230 G2 X16.7 Y1052.95 I0.488 J0.
N4235 G3 X17. Y1053.4 I-0.188 J0.45
N4240 G1 Y1319.36
N4245 Z-5.
N4250 Y1331.36
N4255 Z-8. F50.
N4260 Y1555.78 F4000.
N4265 Z-5.
N4270 Y1567.78
N4275 Z-8. F50.
N4280 Y1666.67 F4000.
N4285 G2 X20. Y1669.67 I3. J0.
N4290 G1 X196.836
N4295 Z-5.
N4300 X216.577
N4305 Z-8. F50.
N4310 X370. F4000.
N4315 G2 X373. Y1666.67 I0. J-3.
N4320 G1 Y1562.26
N4325 Z-5.
N4330 Y1550.26
N4335 Z-8. F50.
N4340 Y1351.02 F4000.
N4345 Z-5.
N4350 Y1339.02
N4355 Z-8. F50.
N4360 Y982.594 F4000.
N4365 Z-5.
N4370 Y970.594
N4375 Z-8. F50.
N4380 Y781.438 F4000.
N4385 Z-5.
N4390 Y769.438
N4395 Z-8. F50.
N4400 Y605.791 F4000.
N4405 Z-5.
N4410 Y593.791
N4415 Z-8. F50.
N4420 Y484.484 F4000.
N4425 Z-5.
N4430 Y472.484
N4435 Z-8. F50.
N4440 Y367.598 F4000.
N4445 Z-5.
N4450 Y355.598
N4455 Z-8. F50.
N4460 Y323.181 F4000.
N4465 G2 X370. Y320.181 I-3. J0.
N4470 G1 X198.382
N4475 Z-5.
N4480 X185.446
N4485 Z-8. F50.
N4490 X20. F4000.
N4495 G2 X17. Y323.181 I0. J3.
N4500 G1 Y373.465
N4505 Z-5.
N4510 Y385.465
N4515 Z-8. F50.
N4520 Y472.806 F4000.
N4525 Z-5.
N4530 Y484.806
N4535 Z-8. F50.
N4540 Y598.397 F4000.
N4545 Z-5.
N4550 Y610.397
N4555 Z-8. F50.
N4560 Y790.459 F4000.
N4565 Z-5.
N4570 Y802.459
N4575 Z-8. F50.
N4580 Y1013.65 F4000.
N4585 Z-5.
N4590 Y1025.65
N4595 Z-8. F50.
N4600 Y1053.4 F4000.
N4605 G3 X16.4 Y1054. I-0.6 J0.
N4610 G1 X15.8
N4615 G18 G3 X15.2 Z-7.4 I0. K0.6
N4620 G0 Z30.
N4625 G17
(CONTOUR2)
N4630 G0 X374.135 Y15.013
N4635 Z30.
N4640 Z0.633
N4645 G1 Z-0.2 F4000.
N4650 G3 X373.099 Y14.62 I-0.437 J-0.411
N4655 G1 X373.098 Y14.591
N4660 X373.096 Y14.545
N4665 X373.08 Y14.346
N4670 X373.051 Y14.147
N4675 X373.01 Y13.948
N4680 X372.954 Y13.749
N4685 X372.901 Y13.593
N4690 X372.884 Y13.55
N4695 X372.799 Y13.351
N4700 X372.702 Y13.161
N4705 X372.696 Y13.152
N4710 X372.575 Y12.952
N4715 X372.503 Y12.848
N4720 X372.431 Y12.753
N4725 X372.304 Y12.6
N4730 X372.262 Y12.554
N4735 X372.104 Y12.396
N4740 X372.059 Y12.355
N4745 X371.905 Y12.226
N4750 X371.813 Y12.156
N4755 X371.706 Y12.081
N4760 X371.507 Y11.959
N4765 X371.503 Y11.957
N4770 X371.308 Y11.857
N4775 X371.109 Y11.772
N4780 X371.072 Y11.758
N4785 X370.91 Y11.703
N4790 X370.711 Y11.648
N4795 X370.512 Y11.608
N4800 X370.313 Y11.581
N4805 X370.113 Y11.567
N4810 X369.914 Y11.565
N4815 X20.086
N4820 X19.887 Y11.567
N4825 X19.687 Y11.581
N4830 X19.488 Y11.608
N4835 X19.289 Y11.648
N4840 X19.09 Y11.703
N4845 X18.928 Y11.758
N4850 X18.891 Y11.772
N4855 X18.692 Y11.857
N4860 X18.497 Y11.957
N4865 X18.493 Y11.959
N4870 X18.294 Y12.081
N4875 X18.187 Y12.156
N4880 X18.095 Y12.226
N4885 X17.941 Y12.355
N4890 X17.896 Y12.396
N4895 X17.738 Y12.554
N4900 X17.696 Y12.6
N4905 X17.569 Y12.753
N4910 X17.497 Y12.848
N4915 X17.425 Y12.952
N4920 X17.304 Y13.152
N4925 X17.298 Y13.161
N4930 X17.201 Y13.351
N4935 X17.116 Y13.55
N4940 X17.099 Y13.593
N4945 X17.046 Y13.749
N4950 X16.99 Y13.948
N4955 X16.949 Y14.147
N4960 X16.92 Y14.346
N4965 X16.904 Y14.545
N4970 X16.902 Y14.591
N4975 X16.901 Y14.62
N4980 G3 X15.702 Y14.584 I-0.6 J-0.018
N4985 X16.068 Y14.049 I0.6 J0.018
N4990 G2 X16.393 Y13.275 I-0.233 J-0.553
N4995 X11.215 Y13.007 I-2.65 J1.048
N5000 G1 X11.206 Y13.025 F1333.33
N5005 G2 X13.627 Y17.171 Z-0.4 I2.537 J1.298
N5010 G1 X13.648 Y17.172
N5015 X13.953 Y17.182 F4000.
N5020 G2 X16.901 Y14.424 I0.095 J-2.853
N5025 G1 X16.902 Y14.396
N5030 X16.905 Y14.346
N5035 X16.921 Y14.147
N5040 X16.951 Y13.948
N5045 X16.994 Y13.749
N5050 X17.05 Y13.55
N5055 X17.099 Y13.408
N5060 X17.121 Y13.351
N5065 X17.208 Y13.152
N5070 X17.298 Y12.976
N5075 X17.312 Y12.952
N5080 X17.435 Y12.753
N5085 X17.497 Y12.663
N5090 X17.58 Y12.554
N5095 X17.696 Y12.415
N5100 X17.752 Y12.355
N5105 X17.896 Y12.212
N5110 X17.957 Y12.156
N5115 X18.095 Y12.041
N5120 X18.206 Y11.957
N5125 X18.294 Y11.896
N5130 X18.493 Y11.775
N5135 X18.523 Y11.758
N5140 X18.692 Y11.672
N5145 X18.891 Y11.587
N5150 X18.967 Y11.559
N5155 X19.09 Y11.518
N5160 X19.289 Y11.463
N5165 X19.488 Y11.423
N5170 X19.687 Y11.396
N5175 X19.887 Y11.382
N5180 X20.086 Y11.38
N5185 X369.914
N5190 X370.113 Y11.382
N5195 X370.313 Y11.396
N5200 X370.512 Y11.423
N5205 X370.711 Y11.463
N5210 X370.91 Y11.518
N5215 X371.033 Y11.559
N5220 X371.109 Y11.587
N5225 X371.308 Y11.672
N5230 X371.477 Y11.758
N5235 X371.507 Y11.775
N5240 X371.706 Y11.896
N5245 X371.794 Y11.957
N5250 X371.905 Y12.041
N5255 X372.043 Y12.156
N5260 X372.104 Y12.212
N5265 X372.248 Y12.355
N5270 X372.304 Y12.415
N5275 X372.42 Y12.554
N5280 X372.503 Y12.663
N5285 X372.565 Y12.753
N5290 X372.688 Y12.952
N5295 X372.702 Y12.976
N5300 X372.792 Y13.152
N5305 X372.879 Y13.351
N5310 X372.901 Y13.408
N5315 X372.95 Y13.55
N5320 X373.006 Y13.749
N5325 X373.049 Y13.948
N5330 X373.079 Y14.147
N5335 X373.095 Y14.346
N5340 X373.098 Y14.396
N5345 X373.099 Y14.424
N5350 G2 X374.298 Y14.384 I0.6 J-0.02
N5355 X373.93 Y13.85 I-0.6 J0.02
N5360 G3 X373.603 Y13.078 I0.232 J-0.554
N5365 X378.78 Y12.792 I2.654 J1.039
N5370 G1 X378.789 Y12.811 F1333.33
N5375 G3 X376.382 Y16.965 Z-0.6 I-2.533 J1.306
N5380 G1 X376.361 Y16.966
N5385 X376.056 Y16.977 F4000.
N5390 G3 X373.098 Y14.228 I-0.105 J-2.853
N5395 G1 X373.097 Y14.201
N5400 X373.095 Y14.147
N5405 X373.077 Y13.948
N5410 X373.046 Y13.749
N5415 X373.003 Y13.55
N5420 X372.945 Y13.351
N5425 X372.901 Y13.224
N5430 X372.873 Y13.152
N5435 X372.785 Y12.952
N5440 X372.702 Y12.791
N5445 X372.68 Y12.753
N5450 X372.556 Y12.554
N5455 X372.503 Y12.478
N5460 X372.409 Y12.355
N5465 X372.304 Y12.231
N5470 X372.235 Y12.156
N5475 X372.104 Y12.027
N5480 X372.027 Y11.957
N5485 X371.905 Y11.856
N5490 X371.774 Y11.758
N5495 X371.706 Y11.712
N5500 X371.507 Y11.59
N5505 X371.451 Y11.559
N5510 X371.308 Y11.487
N5515 X371.109 Y11.402
N5520 X370.992 Y11.36
N5525 X370.91 Y11.333
N5530 X370.711 Y11.278
N5535 X370.512 Y11.238
N5540 X370.313 Y11.211
N5545 X370.113 Y11.197
N5550 X369.914 Y11.195
N5555 X20.086
N5560 X19.887 Y11.197
N5565 X19.687 Y11.211
N5570 X19.488 Y11.238
N5575 X19.289 Y11.278
N5580 X19.09 Y11.333
N5585 X19.008 Y11.36
N5590 X18.891 Y11.402
N5595 X18.692 Y11.487
N5600 X18.549 Y11.559
N5605 X18.493 Y11.59
N5610 X18.294 Y11.712
N5615 X18.226 Y11.758
N5620 X18.095 Y11.856
N5625 X17.973 Y11.957
N5630 X17.896 Y12.027
N5635 X17.765 Y12.156
N5640 X17.696 Y12.231
N5645 X17.591 Y12.355
N5650 X17.497 Y12.478
N5655 X17.444 Y12.554
N5660 X17.32 Y12.753
N5665 X17.298 Y12.791
N5670 X17.215 Y12.952
N5675 X17.127 Y13.152
N5680 X17.099 Y13.224
N5685 X17.055 Y13.351
N5690 X16.997 Y13.55
N5695 X16.954 Y13.749
N5700 X16.923 Y13.948
N5705 X16.905 Y14.147
N5710 X16.903 Y14.201
N5715 X16.902 Y14.228
N5720 G3 X15.702 Y14.184 I-0.6 J-0.022
N5725 X16.072 Y13.652 I0.6 J0.022
N5730 G2 X16.402 Y12.881 I-0.23 J-0.554
N5735 X11.225 Y12.578 I-2.657 J1.03
N5740 G1 X11.216 Y12.597 F1333.33
N5745 G2 X13.61 Y16.758 Z-0.8 I2.529 J1.315
N5750 G1 X13.631 Y16.759
N5755 X13.935 Y16.771 F4000.
N5760 G2 X16.902 Y14.032 I0.114 J-2.853
N5765 G1 X16.903 Y14.006
N5770 X16.906 Y13.948
N5775 X16.925 Y13.749
N5780 X16.956 Y13.55
N5785 X17.001 Y13.351
N5790 X17.06 Y13.152
N5795 X17.099 Y13.039
N5800 X17.133 Y12.952
N5805 X17.222 Y12.753
N5810 X17.298 Y12.607
N5815 X17.328 Y12.554
N5820 X17.454 Y12.355
N5825 X17.497 Y12.294
N5830 X17.603 Y12.156
N5835 X17.696 Y12.046
N5840 X17.779 Y11.957
N5845 X17.896 Y11.842
N5850 X17.989 Y11.758
N5855 X18.095 Y11.671
N5860 X18.247 Y11.559
N5865 X18.294 Y11.527
N5870 X18.493 Y11.405
N5875 X18.576 Y11.36
N5880 X18.692 Y11.302
N5885 X18.891 Y11.217
N5890 X19.051 Y11.16
N5895 X19.09 Y11.148
N5900 X19.289 Y11.093
N5905 X19.488 Y11.053
N5910 X19.687 Y11.026
N5915 X19.887 Y11.012
N5920 X20.086 Y11.01
N5925 X369.914
N5930 X370.113 Y11.012
N5935 X370.313 Y11.026
N5940 X370.512 Y11.053
N5945 X370.711 Y11.093
N5950 X370.91 Y11.148
N5955 X370.949 Y11.16
N5960 X371.109 Y11.217
N5965 X371.308 Y11.302
N5970 X371.424 Y11.36
N5975 X371.507 Y11.405
N5980 X371.706 Y11.527
N5985 X371.753 Y11.559
N5990 X371.905 Y11.671
N5995 X372.011 Y11.758
N6000 X372.104 Y11.842
N6005 X372.221 Y11.957
N6010 X372.304 Y12.046
N6015 X372.397 Y12.156
N6020 X372.503 Y12.294
N6025 X372.546 Y12.355
N6030 X372.672 Y12.554
N6035 X372.702 Y12.607
N6040 X372.778 Y12.753
N6045 X372.867 Y12.952
N6050 X372.901 Y13.039
N6055 X372.94 Y13.152
N6060 X372.999 Y13.351
N6065 X373.044 Y13.55
N6070 X373.075 Y13.749
N6075 X373.094 Y13.948
N6080 X373.097 Y14.006
N6085 X373.098 Y14.032
N6090 G2 X374.297 Y13.985 I0.6 J-0.024
N6095 X373.931 Y13.456 I-0.6 J0.024
N6100 G3 X373.607 Y12.682 I0.233 J-0.553
N6105 X378.774 Y12.398 I2.649 J1.051
N6110 G1 X378.784 Y12.417 F1333.33
N6115 G3 X376.392 Y16.58 Z-1. I-2.528 J1.316
N6120 G1 X376.371
N6125 X376.066 Y16.593 F4000.
N6130 G3 X373.098 Y13.855 I-0.115 J-2.853
N6135 G1 X373.096 Y13.811
N6140 X373.093 Y13.749
N6145 X373.073 Y13.55
N6150 X373.041 Y13.351
N6155 X372.995 Y13.152
N6160 X372.936 Y12.952
N6165 X372.901 Y12.854
N6170 X372.862 Y12.753
N6175 X372.771 Y12.554
N6180 X372.702 Y12.422
N6185 X372.664 Y12.355
N6190 X372.536 Y12.156
N6195 X372.503 Y12.109
N6200 X372.386 Y11.957
N6205 X372.304 Y11.861
N6210 X372.208 Y11.758
N6215 X372.104 Y11.657
N6220 X371.994 Y11.559
N6225 X371.905 Y11.486
N6230 X371.733 Y11.36
N6235 X371.706 Y11.342
N6240 X371.507 Y11.22
N6245 X371.396 Y11.16
N6250 X371.308 Y11.117
N6255 X371.109 Y11.032
N6260 X370.91 Y10.963
N6265 X370.904 Y10.961
N6270 X370.711 Y10.909
N6275 X370.512 Y10.868
N6280 X370.313 Y10.841
N6285 X370.113 Y10.827
N6290 X369.914 Y10.825
N6295 X20.086
N6300 X19.887 Y10.827
N6305 X19.687 Y10.841
N6310 X19.488 Y10.868
N6315 X19.289 Y10.909
N6320 X19.096 Y10.961
N6325 X19.09 Y10.963
N6330 X18.891 Y11.032
N6335 X18.692 Y11.117
N6340 X18.604 Y11.16
N6345 X18.493 Y11.22
N6350 X18.294 Y11.342
N6355 X18.267 Y11.36
N6360 X18.095 Y11.486
N6365 X18.006 Y11.559
N6370 X17.896 Y11.657
N6375 X17.792 Y11.758
N6380 X17.696 Y11.861
N6385 X17.614 Y11.957
N6390 X17.497 Y12.109
N6395 X17.464 Y12.156
N6400 X17.336 Y12.355
N6405 X17.298 Y12.422
N6410 X17.229 Y12.554
N6415 X17.138 Y12.753
N6420 X17.099 Y12.854
N6425 X17.064 Y12.952
N6430 X17.005 Y13.152
N6435 X16.959 Y13.351
N6440 X16.927 Y13.55
N6445 X16.907 Y13.749
N6450 X16.904 Y13.811
N6455 X16.902 Y13.855
N6460 G3 X15.703 Y13.807 I-0.6 J-0.024
N6465 X16.049 Y13.287 I0.6 J0.024
N6470 G2 X16.344 Y12.498 I-0.253 J-0.544
N6475 X11.209 Y12.353 I-2.602 J1.162
N6480 G1 X11.199 Y12.372 F1333.33
N6485 G2 X13.636 Y16.509 Z-1.2 I2.542 J1.289
N6490 G1 X13.657
N6495 X13.962 Y16.518 F4000.
N6500 G2 X16.9 Y13.749 I0.084 J-2.854
N6505 G1 X16.904 Y13.616
N6510 X16.908 Y13.55
N6515 X16.929 Y13.351
N6520 X16.962 Y13.152
N6525 X17.009 Y12.952
N6530 X17.069 Y12.753
N6535 X17.099 Y12.669
N6540 X17.144 Y12.554
N6545 X17.236 Y12.355
N6550 X17.298 Y12.237
N6555 X17.345 Y12.156
N6560 X17.474 Y11.957
N6565 X17.497 Y11.924
N6570 X17.626 Y11.758
N6575 X17.696 Y11.676
N6580 X17.806 Y11.559
N6585 X17.896 Y11.472
N6590 X18.023 Y11.36
N6595 X18.095 Y11.301
N6600 X18.288 Y11.16
N6605 X18.294 Y11.157
N6610 X18.493 Y11.035
N6615 X18.632 Y10.961
N6620 X18.692 Y10.933
N6625 X18.891 Y10.847
N6630 X19.09 Y10.778
N6635 X19.143 Y10.762
N6640 X19.289 Y10.724
N6645 X19.488 Y10.683
N6650 X19.687 Y10.656
N6655 X19.887 Y10.643
N6660 X20.086 Y10.64
N6665 X369.914
N6670 X370.113 Y10.643
N6675 X370.313 Y10.656
N6680 X370.512 Y10.683
N6685 X370.711 Y10.724
N6690 X370.857 Y10.762
N6695 X370.91 Y10.778
N6700 X371.109 Y10.847
N6705 X371.308 Y10.933
N6710 X371.368 Y10.961
N6715 X371.507 Y11.035
N6720 X371.706 Y11.157
N6725 X371.712 Y11.16
N6730 X371.905 Y11.301
N6735 X371.977 Y11.36
N6740 X372.104 Y11.472
N6745 X372.194 Y11.559
N6750 X372.304 Y11.676
N6755 X372.374 Y11.758
N6760 X372.503 Y11.924
N6765 X372.526 Y11.957
N6770 X372.655 Y12.156
N6775 X372.702 Y12.237
N6780 X372.764 Y12.355
N6785 X372.856 Y12.554
N6790 X372.901 Y12.669
N6795 X372.931 Y12.753
N6800 X372.991 Y12.952
N6805 X373.038 Y13.152
N6810 X373.071 Y13.351
N6815 X373.092 Y13.55
N6820 X373.096 Y13.616
N6825 X373.1 Y13.749
N6830 G2 X374.299 Y13.713 I0.6 J-0.018
N6835 X373.926 Y13.175 I-0.6 J0.018
N6840 G3 X373.59 Y12.408 I0.226 J-0.556
N6845 X378.77 Y12.069 I2.666 J1.007
N6850 G1 X378.779 Y12.088 F1333.33
N6855 G3 X376.404 Y16.26 Z-1.4 I-2.523 J1.326
N6860 G1 X376.384 Y16.261
N6865 X376.079 Y16.275 F4000.
N6870 G3 X373.1 Y13.55 I-0.127 J-2.852
N6875 G1 X373.091 Y13.351
N6880 X373.069 Y13.152
N6885 X373.035 Y12.952
N6890 X372.988 Y12.753
N6895 X372.926 Y12.554
N6900 X372.901 Y12.484
N6905 X372.85 Y12.355
N6910 X372.757 Y12.156
N6915 X372.702 Y12.052
N6920 X372.647 Y11.957
N6925 X372.516 Y11.758
N6930 X372.503 Y11.739
N6935 X372.362 Y11.559
N6940 X372.304 Y11.491
N6945 X372.179 Y11.36
N6950 X372.104 Y11.287
N6955 X371.96 Y11.16
N6960 X371.905 Y11.116
N6965 X371.706 Y10.972
N6970 X371.69 Y10.961
N6975 X371.507 Y10.85
N6980 X371.339 Y10.762
N6985 X371.308 Y10.748
N6990 X371.109 Y10.663
N6995 X370.91 Y10.593
N7000 X370.806 Y10.563
N7005 X370.711 Y10.539
N7010 X370.512 Y10.498
N7015 X370.313 Y10.471
N7020 X370.113 Y10.458
N7025 X369.914 Y10.456
N7030 X20.086
N7035 X19.887 Y10.458
N7040 X19.687 Y10.471
N7045 X19.488 Y10.498
N7050 X19.289 Y10.539
N7055 X19.194 Y10.563
N7060 X19.09 Y10.593
N7065 X18.891 Y10.663
N7070 X18.692 Y10.748
N7075 X18.661 Y10.762
N7080 X18.493 Y10.85
N7085 X18.31 Y10.961
N7090 X18.294 Y10.972
N7095 X18.095 Y11.116
N7100 X18.04 Y11.16
N7105 X17.896 Y11.287
N7110 X17.821 Y11.36
N7115 X17.696 Y11.491
N7120 X17.638 Y11.559
N7125 X17.497 Y11.739
N7130 X17.484 Y11.758
N7135 X17.353 Y11.957
N7140 X17.298 Y12.052
N7145 X17.243 Y12.156
N7150 X17.15 Y12.355
N7155 X17.099 Y12.484
N7160 X17.074 Y12.554
N7165 X17.012 Y12.753
N7170 X16.965 Y12.952
N7175 X16.931 Y13.152
N7180 X16.909 Y13.351
N7185 X16.9 Y13.55
N7190 G3 X15.701 Y13.496 I-0.599 J-0.027
N7195 X16.076 Y12.967 I0.599 J0.027
N7200 G2 X16.412 Y12.2 I-0.225 J-0.556
N7205 X11.237 Y11.845 I-2.668 J1.001
N7210 G1 X11.227 Y11.863 F1333.33
N7215 G2 X13.584 Y16.047 Z-1.6 I2.517 J1.338
N7220 G1 X13.605 Y16.048
N7225 X13.909 Y16.063 F4000.
N7230 G2 X16.9 Y13.351 I0.14 J-2.852
N7235 G1 X16.91 Y13.152
N7240 X16.933 Y12.952
N7245 X16.968 Y12.753
N7250 X17.016 Y12.554
N7255 X17.079 Y12.355
N7260 X17.099 Y12.299
N7265 X17.156 Y12.156
N7270 X17.25 Y11.957
N7275 X17.298 Y11.867
N7280 X17.362 Y11.758
N7285 X17.494 Y11.559
N7290 X17.497 Y11.554
N7295 X17.65 Y11.36
N7300 X17.696 Y11.306
N7305 X17.835 Y11.16
N7310 X17.896 Y11.102
N7315 X18.057 Y10.961
N7320 X18.095 Y10.931
N7325 X18.294 Y10.787
N7330 X18.332 Y10.762
N7335 X18.493 Y10.665
N7340 X18.691 Y10.563
N7345 X18.692
N7350 X18.891 Y10.478
N7355 X19.09 Y10.408
N7360 X19.248 Y10.364
N7365 X19.289 Y10.354
N7370 X19.488 Y10.314
N7375 X19.687 Y10.287
N7380 X19.887 Y10.273
N7385 X20.086 Y10.271
N7390 X369.914
N7395 X370.113 Y10.273
N7400 X370.313 Y10.287
N7405 X370.512 Y10.314
N7410 X370.711 Y10.354
N7415 X370.752 Y10.364
N7420 X370.91 Y10.408
N7425 X371.109 Y10.478
N7430 X371.308 Y10.563
N7435 X371.309
N7440 X371.507 Y10.665
N7445 X371.668 Y10.762
N7450 X371.706 Y10.787
N7455 X371.905 Y10.931
N7460 X371.943 Y10.961
N7465 X372.104 Y11.102
N7470 X372.165 Y11.16
N7475 X372.304 Y11.306
N7480 X372.35 Y11.36
N7485 X372.503 Y11.554
N7490 X372.506 Y11.559
N7495 X372.638 Y11.758
N7500 X372.702 Y11.867
N7505 X372.75 Y11.957
N7510 X372.844 Y12.156
N7515 X372.901 Y12.299
N7520 X372.921 Y12.355
N7525 X372.984 Y12.554
N7530 X373.032 Y12.753
N7535 X373.067 Y12.952
N7540 X373.09 Y13.152
N7545 X373.1 Y13.351
N7550 G2 X374.298 Y13.292 I0.599 J-0.029
N7555 X373.922 Y12.764 I-0.599 J0.029
N7560 G3 X373.582 Y11.999 I0.223 J-0.557
N7565 X378.756 Y11.621 I2.673 J0.989
N7570 G1 X378.766 Y11.639 F1333.33
N7575 G3 X376.428 Y15.833 Z-1.8 I-2.511 J1.349
N7580 G1 X376.407 Y15.834
N7585 X376.103 Y15.85 F4000.
N7590 G3 X373.099 Y13.152 I-0.152 J-2.851
N7595 G1 X373.089 Y12.952
N7600 X373.065 Y12.753
N7605 X373.029 Y12.554
N7610 X372.98 Y12.355
N7615 X372.916 Y12.156
N7620 X372.901 Y12.114
N7625 X372.837 Y11.957
N7630 X372.743 Y11.758
N7635 X372.702 Y11.682
N7640 X372.629 Y11.559
N7645 X372.503 Y11.369
N7650 X372.496 Y11.36
N7655 X372.338 Y11.16
N7660 X372.304 Y11.121
N7665 X372.151 Y10.961
N7670 X372.104 Y10.917
N7675 X371.925 Y10.762
N7680 X371.905 Y10.747
N7685 X371.706 Y10.602
N7690 X371.646 Y10.563
N7695 X371.507 Y10.48
N7700 X371.308 Y10.378
N7705 X371.278 Y10.364
N7710 X371.109 Y10.293
N7715 X370.91 Y10.224
N7720 X370.711 Y10.169
N7725 X370.693 Y10.165
N7730 X370.512 Y10.129
N7735 X370.313 Y10.102
N7740 X370.113 Y10.088
N7745 X369.914 Y10.086
N7750 X20.086
N7755 X19.887 Y10.088
N7760 X19.687 Y10.102
N7765 X19.488 Y10.129
N7770 X19.307 Y10.165
N7775 X19.289 Y10.169
N7780 X19.09 Y10.224
N7785 X18.891 Y10.293
N7790 X18.722 Y10.364
N7795 X18.692 Y10.378
N7800 X18.493 Y10.48
N7805 X18.354 Y10.563
N7810 X18.294 Y10.602
N7815 X18.095 Y10.747
N7820 X18.075 Y10.762
N7825 X17.896 Y10.917
N7830 X17.849 Y10.961
N7835 X17.696 Y11.121
N7840 X17.662 Y11.16
N7845 X17.504 Y11.36
N7850 X17.497 Y11.369
N7855 X17.371 Y11.559
N7860 X17.298 Y11.682
N7865 X17.257 Y11.758
N7870 X17.163 Y11.957
N7875 X17.099 Y12.114
N7880 X17.084 Y12.156
N7885 X17.02 Y12.355
N7890 X16.971 Y12.554
N7895 X16.935 Y12.753
N7900 X16.911 Y12.952
N7905 X16.901 Y13.152
N7910 G3 X15.702 Y13.087 I-0.599 J-0.032
N7915 X16.081 Y12.562 I0.599 J0.032
N7920 G2 X16.424 Y11.798 I-0.221 J-0.558
N7925 X11.252 Y11.396 I-2.678 J0.976
N7930 G1 X11.242 Y11.415 F1333.33
N7935 G2 X13.56 Y15.618 Z-2. I2.505 J1.36
N7940 G1 X13.581 Y15.62
N7945 X13.886 Y15.637 F4000.
N7950 G2 X16.901 Y12.952 I0.165 J-2.85
N7955 G1 X16.913 Y12.753
N7960 X16.937 Y12.554
N7965 X16.974 Y12.355
N7970 X17.024 Y12.156
N7975 X17.089 Y11.957
N7980 X17.099 Y11.929
N7985 X17.169 Y11.758
N7990 X17.265 Y11.559
N7995 X17.298 Y11.497
N8000 X17.379 Y11.36
N8005 X17.497 Y11.184
N8010 X17.515 Y11.16
N8015 X17.674 Y10.961
N8020 X17.696 Y10.936
N8025 X17.864 Y10.762
N8030 X17.896 Y10.733
N8035 X18.093 Y10.563
N8040 X18.095 Y10.562
N8045 X18.294 Y10.417
N8050 X18.377 Y10.364
N8055 X18.493 Y10.295
N8060 X18.692 Y10.193
N8065 X18.753 Y10.165
N8070 X18.891 Y10.108
N8075 X19.09 Y10.039
N8080 X19.289 Y9.984
N8085 X19.372 Y9.966
N8090 X19.488 Y9.944
N8095 X19.687 Y9.917
N8100 X19.887 Y9.903
N8105 X20.086 Y9.901
N8110 X369.914
N8115 X370.113 Y9.903
N8120 X370.313 Y9.917
N8125 X370.512 Y9.944
N8130 X370.628 Y9.966
N8135 X370.711 Y9.984
N8140 X370.91 Y10.039
N8145 X371.109 Y10.108
N8150 X371.247 Y10.165
N8155 X371.308 Y10.193
N8160 X371.507 Y10.295
N8165 X371.623 Y10.364
N8170 X371.706 Y10.417
N8175 X371.905 Y10.562
N8180 X371.907 Y10.563
N8185 X372.104 Y10.733
N8190 X372.136 Y10.762
N8195 X372.304 Y10.936
N8200 X372.326 Y10.961
N8205 X372.485 Y11.16
N8210 X372.503 Y11.184
N8215 X372.621 Y11.36
N8220 X372.702 Y11.497
N8225 X372.735 Y11.559
N8230 X372.831 Y11.758
N8235 X372.901 Y11.929
N8240 X372.911 Y11.957
N8245 X372.976 Y12.156
N8250 X373.026 Y12.355
N8255 X373.063 Y12.554
N8260 X373.087 Y12.753
N8265 X373.099 Y12.952
N8270 G2 X374.297 Y12.883 I0.599 J-0.035
N8275 X373.917 Y12.359 I-0.599 J0.035
N8280 G3 X373.571 Y11.597 I0.219 J-0.559
N8285 X378.741 Y11.172 I2.682 J0.964
N8290 G1 X378.751 Y11.19 F1333.33
N8295 G3 X376.451 Y15.404 Z-2.2 I-2.498 J1.371
N8300 G1 X376.43 Y15.406
N8305 X376.126 Y15.425 F4000.
N8310 G3 X373.098 Y12.753 I-0.178 J-2.849
N8315 G1 X373.086 Y12.554
N8320 X373.061 Y12.355
N8325 X373.023 Y12.156
N8330 X372.971 Y11.957
N8335 X372.906 Y11.758
N8340 X372.901 Y11.745
N8345 X372.825 Y11.559
N8350 X372.728 Y11.36
N8355 X372.702 Y11.312
N8360 X372.612 Y11.16
N8365 X372.503 Y10.999
N8370 X372.475 Y10.961
N8375 X372.313 Y10.762
N8380 X372.304 Y10.752
N8385 X372.121 Y10.563
N8390 X372.104 Y10.548
N8395 X371.905 Y10.377
N8400 X371.889 Y10.364
N8405 X371.706 Y10.233
N8410 X371.6 Y10.165
N8415 X371.507 Y10.111
N8420 X371.308 Y10.008
N8425 X371.214 Y9.966
N8430 X371.109 Y9.923
N8435 X370.91 Y9.854
N8440 X370.711 Y9.799
N8445 X370.556 Y9.767
N8450 X370.512 Y9.759
N8455 X370.313 Y9.732
N8460 X370.113 Y9.718
N8465 X369.914 Y9.716
N8470 X20.086
N8475 X19.887 Y9.718
N8480 X19.687 Y9.732
N8485 X19.488 Y9.759
N8490 X19.444 Y9.767
N8495 X19.289 Y9.799
N8500 X19.09 Y9.854
N8505 X18.891 Y9.923
N8510 X18.786 Y9.966
N8515 X18.692 Y10.008
N8520 X18.493 Y10.111
N8525 X18.4 Y10.165
N8530 X18.294 Y10.233
N8535 X18.111 Y10.364
N8540 X18.095 Y10.377
N8545 X17.896 Y10.548
N8550 X17.879 Y10.563
N8555 X17.696 Y10.752
N8560 X17.687 Y10.762
N8565 X17.525 Y10.961
N8570 X17.497 Y10.999
N8575 X17.388 Y11.16
N8580 X17.298 Y11.312
N8585 X17.272 Y11.36
N8590 X17.175 Y11.559
N8595 X17.099 Y11.745
N8600 X17.094 Y11.758
N8605 X17.029 Y11.957
N8610 X16.977 Y12.156
N8615 X16.939 Y12.355
N8620 X16.914 Y12.554
N8625 X16.902 Y12.753
N8630 G3 X15.704 Y12.679 I-0.599 J-0.037
N8635 X16.086 Y12.156 I0.599 J0.037
N8640 G2 X16.435 Y11.396 I-0.217 J-0.56
N8645 X11.267 Y10.947 I-2.686 J0.952
N8650 G1 X11.256 Y10.966 F1333.33
N8655 G2 X13.537 Y15.19 Z-2.4 I2.492 J1.382
N8660 G1 X13.558 Y15.192
N8665 X13.863 Y15.212 F4000.
N8670 G2 X16.902 Y12.554 I0.191 J-2.849
N8675 G1 X16.915 Y12.355
N8680 X16.941 Y12.156
N8685 X16.98 Y11.957
N8690 X17.033 Y11.758
N8695 X17.099 Y11.56
N8700 Y11.559
N8705 X17.181 Y11.36
N8710 X17.28 Y11.16
N8715 X17.298 Y11.127
N8720 X17.397 Y10.961
N8725 X17.497 Y10.814
N8730 X17.536 Y10.762
N8735 X17.696 Y10.567
N8740 X17.7 Y10.563
N8745 X17.894 Y10.364
N8750 X17.896 Y10.363
N8755 X18.095 Y10.192
N8760 X18.13 Y10.165
N8765 X18.294 Y10.048
N8770 X18.424 Y9.966
N8775 X18.493 Y9.926
N8780 X18.692 Y9.823
N8785 X18.82 Y9.767
N8790 X18.891 Y9.738
N8795 X19.09 Y9.669
N8800 X19.289 Y9.614
N8805 X19.488 Y9.574
N8810 X19.528 Y9.568
N8815 X19.687 Y9.547
N8820 X19.887 Y9.533
N8825 X20.086 Y9.531
N8830 X369.914
N8835 X370.113 Y9.533
N8840 X370.313 Y9.547
N8845 X370.472 Y9.568
N8850 X370.512 Y9.574
N8855 X370.711 Y9.614
N8860 X370.91 Y9.669
N8865 X371.109 Y9.738
N8870 X371.18 Y9.767
N8875 X371.308 Y9.823
N8880 X371.507 Y9.926
N8885 X371.576 Y9.966
N8890 X371.706 Y10.048
N8895 X371.87 Y10.165
N8900 X371.905 Y10.192
N8905 X372.104 Y10.363
N8910 X372.106 Y10.364
N8915 X372.3 Y10.563
N8920 X372.304 Y10.567
N8925 X372.464 Y10.762
N8930 X372.503 Y10.814
N8935 X372.603 Y10.961
N8940 X372.702 Y11.127
N8945 X372.72 Y11.16
N8950 X372.819 Y11.36
N8955 X372.901 Y11.559
N8960 Y11.56
N8965 X372.967 Y11.758
N8970 X373.02 Y11.957
N8975 X373.059 Y12.156
N8980 X373.085 Y12.355
N8985 X373.098 Y12.554
N8990 G2 X374.295 Y12.474 I0.599 J-0.04
N8995 X373.952 Y11.971 I-0.599 J0.04
N9000 G3 X373.661 Y11.182 I0.255 J-0.543
N9005 X378.799 Y11.062 I2.598 J1.172
N9010 G1 X378.809 Y11.08 F1333.33
N9015 G3 X376.347 Y15.202 Z-2.6 I-2.55 J1.273
N9020 G1 X376.326 Y15.203
N9025 X376.021 Y15.21 F4000.
N9030 G3 X373.099 Y12.423 I-0.067 J-2.854
N9035 G1 Y12.392
N9040 X373.097 Y12.355
N9045 X373.083 Y12.156
N9050 X373.056 Y11.957
N9055 X373.016 Y11.758
N9060 X372.963 Y11.559
N9065 X372.901 Y11.375
N9070 X372.895 Y11.36
N9075 X372.812 Y11.16
N9080 X372.712 Y10.961
N9085 X372.702 Y10.943
N9090 X372.593 Y10.762
N9095 X372.503 Y10.63
N9100 X372.453 Y10.563
N9105 X372.304 Y10.382
N9110 X372.288 Y10.364
N9115 X372.104 Y10.178
N9120 X372.09 Y10.165
N9125 X371.905 Y10.007
N9130 X371.852 Y9.966
N9135 X371.706 Y9.863
N9140 X371.552 Y9.767
N9145 X371.507 Y9.741
N9150 X371.308 Y9.638
N9155 X371.145 Y9.568
N9160 X371.109 Y9.553
N9165 X370.91 Y9.484
N9170 X370.711 Y9.43
N9175 X370.512 Y9.389
N9180 X370.369 Y9.368
N9185 X370.313 Y9.362
N9190 X370.113 Y9.348
N9195 X369.914 Y9.346
N9200 X20.086
N9205 X19.887 Y9.348
N9210 X19.687 Y9.362
N9215 X19.631 Y9.368
N9220 X19.488 Y9.389
N9225 X19.289 Y9.43
N9230 X19.09 Y9.484
N9235 X18.891 Y9.553
N9240 X18.855 Y9.568
N9245 X18.692 Y9.638
N9250 X18.493 Y9.741
N9255 X18.448 Y9.767
N9260 X18.294 Y9.863
N9265 X18.148 Y9.966
N9270 X18.095 Y10.007
N9275 X17.91 Y10.165
N9280 X17.896 Y10.178
N9285 X17.712 Y10.364
N9290 X17.696 Y10.382
N9295 X17.547 Y10.563
N9300 X17.497 Y10.63
N9305 X17.407 Y10.762
N9310 X17.298 Y10.943
N9315 X17.288 Y10.961
N9320 X17.188 Y11.16
N9325 X17.105 Y11.36
N9330 X17.099 Y11.375
N9335 X17.037 Y11.559
N9340 X16.984 Y11.758
N9345 X16.944 Y11.957
N9350 X16.917 Y12.156
N9355 X16.903 Y12.355
N9360 X16.901 Y12.392
N9365 Y12.423
N9370 G3 X15.701 Y12.395 I-0.6 J-0.014
N9375 X16.065 Y11.857 I0.6 J0.014
N9380 G2 X16.385 Y11.081 I-0.236 J-0.552
N9385 X11.206 Y10.847 I-2.643 J1.066
N9390 G1 X11.196 Y10.866 F1333.33
N9395 G2 X13.644 Y14.996 Z-2.8 I2.546 J1.282
N9400 G1 X13.665
N9405 X13.97 Y15.004 F4000.
N9410 G2 X16.901 Y12.227 I0.077 J-2.854
N9415 G1 X16.902 Y12.197
N9420 X16.903 Y12.156
N9425 X16.918 Y11.957
N9430 X16.946 Y11.758
N9435 X16.987 Y11.559
N9440 X17.041 Y11.36
N9445 X17.099 Y11.19
N9450 X17.11 Y11.16
N9455 X17.195 Y10.961
N9460 X17.296 Y10.762
N9465 X17.298 Y10.758
N9470 X17.416 Y10.563
N9475 X17.497 Y10.445
N9480 X17.558 Y10.364
N9485 X17.696 Y10.197
N9490 X17.725 Y10.165
N9495 X17.896 Y9.993
N9500 X17.925 Y9.966
N9505 X18.095 Y9.822
N9510 X18.167 Y9.767
N9515 X18.294 Y9.678
N9520 X18.472 Y9.568
N9525 X18.493 Y9.556
N9530 X18.692 Y9.453
N9535 X18.891 Y9.368
N9540 X19.09 Y9.299
N9545 X19.289 Y9.245
N9550 X19.488 Y9.204
N9555 X19.687 Y9.177
N9560 X19.779 Y9.169
N9565 X19.887 Y9.163
N9570 X20.086 Y9.161
N9575 X369.914
N9580 X370.113 Y9.163
N9585 X370.221 Y9.169
N9590 X370.313 Y9.177
N9595 X370.512 Y9.204
N9600 X370.711 Y9.245
N9605 X370.91 Y9.299
N9610 X371.109 Y9.368
N9615 X371.308 Y9.453
N9620 X371.507 Y9.556
N9625 X371.528 Y9.568
N9630 X371.706 Y9.678
N9635 X371.833 Y9.767
N9640 X371.905 Y9.822
N9645 X372.075 Y9.966
N9650 X372.104 Y9.993
N9655 X372.275 Y10.165
N9660 X372.304 Y10.197
N9665 X372.442 Y10.364
N9670 X372.503 Y10.445
N9675 X372.584 Y10.563
N9680 X372.702 Y10.758
N9685 X372.704 Y10.762
N9690 X372.805 Y10.961
N9695 X372.89 Y11.16
N9700 X372.901 Y11.19
N9705 X372.959 Y11.36
N9710 X373.013 Y11.559
N9715 X373.054 Y11.758
N9720 X373.082 Y11.957
N9725 X373.097 Y12.156
N9730 X373.098 Y12.197
N9735 X373.099 Y12.227
N9740 G2 X374.299 Y12.195 I0.6 J-0.016
N9745 X373.934 Y11.659 I-0.6 J0.016
N9750 G3 X373.611 Y10.884 I0.235 J-0.552
N9755 X378.79 Y10.633 I2.647 J1.057
N9760 G1 X378.799 Y10.651 F1333.33
N9765 G3 X376.364 Y14.789 Z-3. I-2.541 J1.29
N9770 G1 X376.343 Y14.79
N9775 X376.039 Y14.799 F4000.
N9780 G3 X373.099 Y12.031 I-0.086 J-2.854
N9785 G1 X373.098 Y12.003
N9790 X373.096 Y11.957
N9795 X373.08 Y11.758
N9800 X373.051 Y11.559
N9805 X373.01 Y11.36
N9810 X372.954 Y11.16
N9815 X372.901 Y11.005
N9820 X372.884 Y10.961
N9825 X372.799 Y10.762
N9830 X372.702 Y10.573
N9835 X372.696 Y10.563
N9840 X372.575 Y10.364
N9845 X372.503 Y10.26
N9850 X372.431 Y10.165
N9855 X372.304 Y10.012
N9860 X372.262 Y9.966
N9865 X372.104 Y9.808
N9870 X372.059 Y9.767
N9875 X371.905 Y9.637
N9880 X371.813 Y9.568
N9885 X371.706 Y9.493
N9890 X371.507 Y9.371
N9895 X371.502 Y9.368
N9900 X371.308 Y9.269
N9905 X371.109 Y9.183
N9910 X371.072 Y9.169
N9915 X370.91 Y9.114
N9920 X370.711 Y9.06
N9925 X370.512 Y9.019
N9930 X370.313 Y8.992
N9935 X370.113 Y8.979
N9940 X369.914 Y8.977
N9945 X20.086
N9950 X19.887 Y8.979
N9955 X19.687 Y8.992
N9960 X19.488 Y9.019
N9965 X19.289 Y9.06
N9970 X19.09 Y9.114
N9975 X18.928 Y9.169
N9980 X18.891 Y9.183
N9985 X18.692 Y9.269
N9990 X18.498 Y9.368
N9995 X18.493 Y9.371
N10000 X18.294 Y9.493
N10005 X18.187 Y9.568
N10010 X18.095 Y9.637
N10015 X17.941 Y9.767
N10020 X17.896 Y9.808
N10025 X17.738 Y9.966
N10030 X17.696 Y10.012
N10035 X17.569 Y10.165
N10040 X17.497 Y10.26
N10045 X17.425 Y10.364
N10050 X17.304 Y10.563
N10055 X17.298 Y10.573
N10060 X17.201 Y10.762
N10065 X17.116 Y10.961
N10070 X17.099 Y11.005
N10075 X17.046 Y11.16
N10080 X16.99 Y11.36
N10085 X16.949 Y11.559
N10090 X16.92 Y11.758
N10095 X16.904 Y11.957
N10100 X16.902 Y12.003
N10105 X16.901 Y12.031
N10110 G3 X15.702 Y11.995 I-0.6 J-0.018
N10115 X16.068 Y11.46 I0.6 J0.018
N10120 G2 X16.393 Y10.687 I-0.233 J-0.553
N10125 X11.215 Y10.418 I-2.65 J1.048
N10130 G1 X11.206 Y10.437 F1333.33
N10135 G2 X13.627 Y14.583 Z-3.2 I2.537 J1.298
N10140 G1 X13.648 Y14.584
N10145 X13.953 Y14.594 F4000.
N10150 G2 X16.901 Y11.836 I0.095 J-2.853
N10155 G1 X16.902 Y11.808
N10160 X16.905 Y11.758
N10165 X16.921 Y11.559
N10170 X16.951 Y11.36
N10175 X16.994 Y11.16
N10180 X17.05 Y10.961
N10185 X17.099 Y10.82
N10190 X17.121 Y10.762
N10195 X17.208 Y10.563
N10200 X17.298 Y10.388
N10205 X17.312 Y10.364
N10210 X17.435 Y10.165
N10215 X17.497 Y10.075
N10220 X17.58 Y9.966
N10225 X17.696 Y9.827
N10230 X17.752 Y9.767
N10235 X17.896 Y9.623
N10240 X17.957 Y9.568
N10245 X18.095 Y9.452
N10250 X18.206 Y9.368
N10255 X18.294 Y9.308
N10260 X18.493 Y9.186
N10265 X18.523 Y9.169
N10270 X18.692 Y9.084
N10275 X18.891 Y8.999
N10280 X18.967 Y8.97
N10285 X19.09 Y8.929
N10290 X19.289 Y8.875
N10295 X19.488 Y8.835
N10300 X19.687 Y8.808
N10305 X19.887 Y8.794
N10310 X20.086 Y8.792
N10315 X369.914
N10320 X370.113 Y8.794
N10325 X370.313 Y8.808
N10330 X370.512 Y8.835
N10335 X370.711 Y8.875
N10340 X370.91 Y8.929
N10345 X371.033 Y8.97
N10350 X371.109 Y8.999
N10355 X371.308 Y9.084
N10360 X371.477 Y9.169
N10365 X371.507 Y9.186
N10370 X371.706 Y9.308
N10375 X371.794 Y9.368
N10380 X371.905 Y9.452
N10385 X372.043 Y9.568
N10390 X372.104 Y9.623
N10395 X372.248 Y9.767
N10400 X372.304 Y9.827
N10405 X372.42 Y9.966
N10410 X372.503 Y10.075
N10415 X372.565 Y10.165
N10420 X372.688 Y10.364
N10425 X372.702 Y10.388
N10430 X372.792 Y10.563
N10435 X372.879 Y10.762
N10440 X372.901 Y10.82
N10445 X372.95 Y10.961
N10450 X373.006 Y11.16
N10455 X373.049 Y11.36
N10460 X373.079 Y11.559
N10465 X373.095 Y11.758
N10470 X373.098 Y11.808
N10475 X373.099 Y11.836
N10480 G2 X374.298 Y11.796 I0.6 J-0.02
N10485 X373.93 Y11.262 I-0.6 J0.02
N10490 G3 X373.603 Y10.49 I0.232 J-0.554
N10495 X378.78 Y10.204 I2.654 J1.039
N10500 G1 X378.789 Y10.222 F1333.33
N10505 G3 X376.382 Y14.376 Z-3.4 I-2.533 J1.307
N10510 G1 X376.361 Y14.377
N10515 X376.056 Y14.388 F4000.
N10520 G3 X373.098 Y11.64 I-0.105 J-2.853
N10525 G1 X373.097 Y11.613
N10530 X373.095 Y11.559
N10535 X373.077 Y11.36
N10540 X373.046 Y11.16
N10545 X373.003 Y10.961
N10550 X372.945 Y10.762
N10555 X372.901 Y10.635
N10560 X372.873 Y10.563
N10565 X372.785 Y10.364
N10570 X372.702 Y10.203
N10575 X372.68 Y10.165
N10580 X372.556 Y9.966
N10585 X372.503 Y9.89
N10590 X372.409 Y9.767
N10595 X372.304 Y9.642
N10600 X372.235 Y9.568
N10605 X372.104 Y9.438
N10610 X372.027 Y9.368
N10615 X371.905 Y9.268
N10620 X371.774 Y9.169
N10625 X371.706 Y9.123
N10630 X371.507 Y9.001
N10635 X371.45 Y8.97
N10640 X371.308 Y8.899
N10645 X371.109 Y8.814
N10650 X370.992 Y8.771
N10655 X370.91 Y8.744
N10660 X370.711 Y8.69
N10665 X370.512 Y8.65
N10670 X370.313 Y8.623
N10675 X370.113 Y8.609
N10680 X369.914 Y8.607
N10685 X20.086
N10690 X19.887 Y8.609
N10695 X19.687 Y8.623
N10700 X19.488 Y8.65
N10705 X19.289 Y8.69
N10710 X19.09 Y8.744
N10715 X19.008 Y8.771
N10720 X18.891 Y8.814
N10725 X18.692 Y8.899
N10730 X18.55 Y8.97
N10735 X18.493 Y9.001
N10740 X18.294 Y9.123
N10745 X18.226 Y9.169
N10750 X18.095 Y9.268
N10755 X17.973 Y9.368
N10760 X17.896 Y9.438
N10765 X17.765 Y9.568
N10770 X17.696 Y9.642
N10775 X17.591 Y9.767
N10780 X17.497 Y9.89
N10785 X17.444 Y9.966
N10790 X17.32 Y10.165
N10795 X17.298 Y10.203
N10800 X17.215 Y10.364
N10805 X17.127 Y10.563
N10810 X17.099 Y10.635
N10815 X17.055 Y10.762
N10820 X16.997 Y10.961
N10825 X16.954 Y11.16
N10830 X16.923 Y11.36
N10835 X16.905 Y11.559
N10840 X16.903 Y11.613
N10845 X16.902 Y11.64
N10850 G3 X15.702 Y11.596 I-0.6 J-0.022
N10855 X16.072 Y11.064 I0.6 J0.022
N10860 G2 X16.402 Y10.293 I-0.23 J-0.554
N10865 X11.226 Y9.99 I-2.657 J1.03
N10870 G1 X11.216 Y10.008 F1333.33
N10875 G2 X13.61 Y14.17 Z-3.6 I2.529 J1.315
N10880 G1 X13.631 Y14.171
N10885 X13.935 Y14.183 F4000.
N10890 G2 X16.902 Y11.444 I0.114 J-2.853
N10895 G1 X16.903 Y11.418
N10900 X16.906 Y11.36
N10905 X16.925 Y11.16
N10910 X16.956 Y10.961
N10915 X17.001 Y10.762
N10920 X17.06 Y10.563
N10925 X17.099 Y10.45
N10930 X17.133 Y10.364
N10935 X17.222 Y10.165
N10940 X17.298 Y10.018
N10945 X17.328 Y9.966
N10950 X17.454 Y9.767
N10955 X17.497 Y9.705
N10960 X17.603 Y9.568
N10965 X17.696 Y9.457
N10970 X17.779 Y9.368
N10975 X17.896 Y9.254
N10980 X17.989 Y9.169
N10985 X18.095 Y9.083
N10990 X18.247 Y8.97
N10995 X18.294 Y8.938
N11000 X18.493 Y8.816
N11005 X18.577 Y8.771
N11010 X18.692 Y8.714
N11015 X18.891 Y8.629
N11020 X19.051 Y8.572
N11025 X19.09 Y8.56
N11030 X19.289 Y8.505
N11035 X19.488 Y8.465
N11040 X19.687 Y8.438
N11045 X19.887 Y8.424
N11050 X20.086 Y8.422
N11055 X369.914
N11060 X370.113 Y8.424
N11065 X370.313 Y8.438
N11070 X370.512 Y8.465
N11075 X370.711 Y8.505
N11080 X370.91 Y8.56
N11085 X370.949 Y8.572
N11090 X371.109 Y8.629
N11095 X371.308 Y8.714
N11100 X371.423 Y8.771
N11105 X371.507 Y8.816
N11110 X371.706 Y8.938
N11115 X371.753 Y8.97
N11120 X371.905 Y9.083
N11125 X372.011 Y9.169
N11130 X372.104 Y9.254
N11135 X372.221 Y9.368
N11140 X372.304 Y9.457
N11145 X372.397 Y9.568
N11150 X372.503 Y9.705
N11155 X372.546 Y9.767
N11160 X372.672 Y9.966
N11165 X372.702 Y10.018
N11170 X372.778 Y10.165
N11175 X372.867 Y10.364
N11180 X372.901 Y10.45
N11185 X372.94 Y10.563
N11190 X372.999 Y10.762
N11195 X373.044 Y10.961
N11200 X373.075 Y11.16
N11205 X373.094 Y11.36
N11210 X373.097 Y11.418
N11215 X373.098 Y11.444
N11220 G2 X374.297 Y11.396 I0.6 J-0.024
N11225 X373.931 Y10.867 I-0.6 J0.024
N11230 G3 X373.607 Y10.093 I0.233 J-0.553
N11235 X378.774 Y9.81 I2.649 J1.051
N11240 G1 X378.784 Y9.828 F1333.33
N11245 G3 X376.392 Y13.991 Z-3.8 I-2.528 J1.316
N11250 G1 X376.371 Y13.992
N11255 X376.066 Y14.004 F4000.
N11260 G3 X373.098 Y11.267 I-0.115 J-2.853
N11265 G1 X373.096 Y11.223
N11270 X373.093 Y11.16
N11275 X373.073 Y10.961
N11280 X373.041 Y10.762
N11285 X372.995 Y10.563
N11290 X372.936 Y10.364
N11295 X372.901 Y10.266
N11300 X372.861 Y10.165
N11305 X372.771 Y9.966
N11310 X372.702 Y9.833
N11315 X372.664 Y9.767
N11320 X372.536 Y9.568
N11325 X372.503 Y9.52
N11330 X372.386 Y9.368
N11335 X372.304 Y9.272
N11340 X372.207 Y9.169
N11345 X372.104 Y9.069
N11350 X371.994 Y8.97
N11355 X371.905 Y8.898
N11360 X371.732 Y8.771
N11365 X371.706 Y8.754
N11370 X371.507 Y8.632
N11375 X371.396 Y8.572
N11380 X371.308 Y8.529
N11385 X371.109 Y8.444
N11390 X370.91 Y8.375
N11395 X370.904 Y8.373
N11400 X370.711 Y8.32
N11405 X370.512 Y8.28
N11410 X370.313 Y8.253
N11415 X370.113 Y8.239
N11420 X369.914 Y8.237
N11425 X20.086
N11430 X19.887 Y8.239
N11435 X19.687 Y8.253
N11440 X19.488 Y8.28
N11445 X19.289 Y8.32
N11450 X19.096 Y8.373
N11455 X19.09 Y8.375
N11460 X18.891 Y8.444
N11465 X18.692 Y8.529
N11470 X18.604 Y8.572
N11475 X18.493 Y8.632
N11480 X18.294 Y8.754
N11485 X18.268 Y8.771
N11490 X18.095 Y8.898
N11495 X18.006 Y8.97
N11500 X17.896 Y9.069
N11505 X17.793 Y9.169
N11510 X17.696 Y9.272
N11515 X17.614 Y9.368
N11520 X17.497 Y9.52
N11525 X17.464 Y9.568
N11530 X17.336 Y9.767
N11535 X17.298 Y9.833
N11540 X17.229 Y9.966
N11545 X17.139 Y10.165
N11550 X17.099 Y10.266
N11555 X17.064 Y10.364
N11560 X17.005 Y10.563
N11565 X16.959 Y10.762
N11570 X16.927 Y10.961
N11575 X16.907 Y11.16
N11580 X16.904 Y11.223
N11585 X16.902 Y11.267
N11590 G3 X15.703 Y11.218 I-0.6 J-0.024
N11595 X16.049 Y10.699 I0.6 J0.024
N11600 G2 X16.344 Y9.91 I-0.253 J-0.544
N11605 X11.209 Y9.765 I-2.602 J1.162
N11610 G1 X11.199 Y9.783 F1333.33
N11615 G2 X13.636 Y13.92 Z-4. I2.542 J1.289
N11620 G1 X13.657 Y13.921
N11625 X13.962 Y13.93 F4000.
N11630 G2 X16.9 Y11.16 I0.084 J-2.854
N11635 G1 X16.904 Y11.028
N11640 X16.908 Y10.961
N11645 X16.929 Y10.762
N11650 X16.962 Y10.563
N11655 X17.009 Y10.364
N11660 X17.069 Y10.165
N11665 X17.099 Y10.081
N11670 X17.144 Y9.966
N11675 X17.236 Y9.767
N11680 X17.298 Y9.648
N11685 X17.345 Y9.568
N11690 X17.474 Y9.368
N11695 X17.497 Y9.335
N11700 X17.626 Y9.169
N11705 X17.696 Y9.088
N11710 X17.807 Y8.97
N11715 X17.896 Y8.884
N11720 X18.023 Y8.771
N11725 X18.095 Y8.713
N11730 X18.289 Y8.572
N11735 X18.294 Y8.569
N11740 X18.493 Y8.447
N11745 X18.632 Y8.373
N11750 X18.692 Y8.344
N11755 X18.891 Y8.259
N11760 X19.09 Y8.19
N11765 X19.144 Y8.174
N11770 X19.289 Y8.135
N11775 X19.488 Y8.095
N11780 X19.687 Y8.068
N11785 X19.887 Y8.054
N11790 X20.086 Y8.052
N11795 X369.914
N11800 X370.113 Y8.054
N11805 X370.313 Y8.068
N11810 X370.512 Y8.095
N11815 X370.711 Y8.135
N11820 X370.856 Y8.174
N11825 X370.91 Y8.19
N11830 X371.109 Y8.259
N11835 X371.308 Y8.344
N11840 X371.368 Y8.373
N11845 X371.507 Y8.447
N11850 X371.706 Y8.569
N11855 X371.711 Y8.572
N11860 X371.905 Y8.713
N11865 X371.977 Y8.771
N11870 X372.104 Y8.884
N11875 X372.193 Y8.97
N11880 X372.304 Y9.088
N11885 X372.374 Y9.169
N11890 X372.503 Y9.335
N11895 X372.526 Y9.368
N11900 X372.655 Y9.568
N11905 X372.702 Y9.648
N11910 X372.764 Y9.767
N11915 X372.856 Y9.966
N11920 X372.901 Y10.081
N11925 X372.931 Y10.165
N11930 X372.991 Y10.364
N11935 X373.038 Y10.563
N11940 X373.071 Y10.762
N11945 X373.092 Y10.961
N11950 X373.096 Y11.028
N11955 X373.1 Y11.16
N11960 G2 X374.299 Y11.125 I0.6 J-0.018
N11965 X373.926 Y10.587 I-0.6 J0.018
N11970 G3 X373.59 Y9.819 I0.226 J-0.556
N11975 X378.77 Y9.481 I2.666 J1.006
N11980 G1 X378.779 Y9.499 F1333.33
N11985 G3 X376.405 Y13.672 Z-4.2 I-2.523 J1.326
N11990 G1 X376.384 Y13.673
N11995 X376.079 Y13.686 F4000.
N12000 G3 X373.1 Y10.961 I-0.127 J-2.852
N12005 G1 X373.091 Y10.762
N12010 X373.069 Y10.563
N12015 X373.035 Y10.364
N12020 X372.988 Y10.165
N12025 X372.926 Y9.966
N12030 X372.901 Y9.896
N12035 X372.85 Y9.767
N12040 X372.757 Y9.568
N12045 X372.702 Y9.464
N12050 X372.647 Y9.368
N12055 X372.516 Y9.169
N12060 X372.503 Y9.151
N12065 X372.362 Y8.97
N12070 X372.304 Y8.903
N12075 X372.179 Y8.771
N12080 X372.104 Y8.699
N12085 X371.96 Y8.572
N12090 X371.905 Y8.528
N12095 X371.706 Y8.384
N12100 X371.69 Y8.373
N12105 X371.507 Y8.262
N12110 X371.338 Y8.174
N12115 X371.308 Y8.159
N12120 X371.109 Y8.074
N12125 X370.91 Y8.005
N12130 X370.806 Y7.975
N12135 X370.711 Y7.951
N12140 X370.512 Y7.91
N12145 X370.313 Y7.883
N12150 X370.113 Y7.869
N12155 X369.914 Y7.867
N12160 X20.086
N12165 X19.887 Y7.869
N12170 X19.687 Y7.883
N12175 X19.488 Y7.91
N12180 X19.289 Y7.951
N12185 X19.194 Y7.975
N12190 X19.09 Y8.005
N12195 X18.891 Y8.074
N12200 X18.692 Y8.159
N12205 X18.662 Y8.174
N12210 X18.493 Y8.262
N12215 X18.31 Y8.373
N12220 X18.294 Y8.384
N12225 X18.095 Y8.528
N12230 X18.04 Y8.572
N12235 X17.896 Y8.699
N12240 X17.821 Y8.771
N12245 X17.696 Y8.903
N12250 X17.638 Y8.97
N12255 X17.497 Y9.151
N12260 X17.484 Y9.169
N12265 X17.353 Y9.368
N12270 X17.298 Y9.464
N12275 X17.243 Y9.568
N12280 X17.15 Y9.767
N12285 X17.099 Y9.896
N12290 X17.074 Y9.966
N12295 X17.012 Y10.165
N12300 X16.965 Y10.364
N12305 X16.931 Y10.563
N12310 X16.909 Y10.762
N12315 X16.9 Y10.961
N12320 G3 X15.701 Y10.908 I-0.599 J-0.027
N12325 X16.076 Y10.378 I0.599 J0.027
N12330 G2 X16.412 Y9.612 I-0.225 J-0.556
N12335 X11.237 Y9.256 I-2.668 J1.001
N12340 G1 X11.227 Y9.275 F1333.33
N12345 G2 X13.584 Y13.458 Z-4.4 I2.517 J1.338
N12350 G1 X13.604 Y13.459
N12355 X13.909 Y13.474 F4000.
N12360 G2 X16.9 Y10.762 I0.14 J-2.852
N12365 G1 X16.91 Y10.563
N12370 X16.933 Y10.364
N12375 X16.968 Y10.165
N12380 X17.016 Y9.966
N12385 X17.079 Y9.767
N12390 X17.099 Y9.711
N12395 X17.156 Y9.568
N12400 X17.25 Y9.368
N12405 X17.298 Y9.279
N12410 X17.362 Y9.169
N12415 X17.494 Y8.97
N12420 X17.497 Y8.966
N12425 X17.65 Y8.771
N12430 X17.696 Y8.718
N12435 X17.835 Y8.572
N12440 X17.896 Y8.514
N12445 X18.057 Y8.373
N12450 X18.095 Y8.343
N12455 X18.294 Y8.199
N12460 X18.332 Y8.174
N12465 X18.493 Y8.077
N12470 X18.691 Y7.975
N12475 X18.692 Y7.974
N12480 X18.891 Y7.889
N12485 X19.09 Y7.82
N12490 X19.249 Y7.776
N12495 X19.289 Y7.766
N12500 X19.488 Y7.725
N12505 X19.687 Y7.698
N12510 X19.887 Y7.684
N12515 X20.086 Y7.682
N12520 X369.914
N12525 X370.113 Y7.684
N12530 X370.313 Y7.698
N12535 X370.512 Y7.725
N12540 X370.711 Y7.766
N12545 X370.751 Y7.776
N12550 X370.91 Y7.82
N12555 X371.109 Y7.889
N12560 X371.308 Y7.974
N12565 X371.309 Y7.975
N12570 X371.507 Y8.077
N12575 X371.668 Y8.174
N12580 X371.706 Y8.199
N12585 X371.905 Y8.343
N12590 X371.943 Y8.373
N12595 X372.104 Y8.514
N12600 X372.165 Y8.572
N12605 X372.304 Y8.718
N12610 X372.35 Y8.771
N12615 X372.503 Y8.966
N12620 X372.506 Y8.97
N12625 X372.638 Y9.169
N12630 X372.702 Y9.279
N12635 X372.75 Y9.368
N12640 X372.844 Y9.568
N12645 X372.901 Y9.711
N12650 X372.921 Y9.767
N12655 X372.984 Y9.966
N12660 X373.032 Y10.165
N12665 X373.067 Y10.364
N12670 X373.09 Y10.563
N12675 X373.099 Y10.762
N12680 G2 X374.298 Y10.703 I0.599 J-0.029
N12685 X373.922 Y10.176 I-0.599 J0.029
N12690 G3 X373.582 Y9.411 I0.223 J-0.557
N12695 X378.756 Y9.032 I2.673 J0.989
N12700 G1 X378.766 Y9.05 F1333.33
N12705 G3 X376.428 Y13.244 Z-4.6 I-2.511 J1.349
N12710 G1 X376.407 Y13.245
N12715 X376.103 Y13.261 F4000.
N12720 G3 X373.099 Y10.563 I-0.153 J-2.851
N12725 G1 X373.089 Y10.364
N12730 X373.065 Y10.165
N12735 X373.029 Y9.966
N12740 X372.98 Y9.767
N12745 X372.916 Y9.568
N12750 X372.901 Y9.526
N12755 X372.837 Y9.368
N12760 X372.742 Y9.169
N12765 X372.702 Y9.094
N12770 X372.629 Y8.97
N12775 X372.503 Y8.781
N12780 X372.496 Y8.771
N12785 X372.338 Y8.572
N12790 X372.304 Y8.533
N12795 X372.15 Y8.373
N12800 X372.104 Y8.329
N12805 X371.925 Y8.174
N12810 X371.905 Y8.158
N12815 X371.706 Y8.014
N12820 X371.646 Y7.975
N12825 X371.507 Y7.892
N12830 X371.308 Y7.79
N12835 X371.278 Y7.776
N12840 X371.109 Y7.704
N12845 X370.91 Y7.635
N12850 X370.711 Y7.581
N12855 X370.692 Y7.576
N12860 X370.512 Y7.54
N12865 X370.313 Y7.513
N12870 X370.113 Y7.5
N12875 X369.914 Y7.498
N12880 X20.086
N12885 X19.887 Y7.5
N12890 X19.687 Y7.513
N12895 X19.488 Y7.54
N12900 X19.308 Y7.576
N12905 X19.289 Y7.581
N12910 X19.09 Y7.635
N12915 X18.891 Y7.704
N12920 X18.722 Y7.776
N12925 X18.692 Y7.79
N12930 X18.493 Y7.892
N12935 X18.354 Y7.975
N12940 X18.294 Y8.014
N12945 X18.095 Y8.158
N12950 X18.075 Y8.174
N12955 X17.896 Y8.329
N12960 X17.85 Y8.373
N12965 X17.696 Y8.533
N12970 X17.662 Y8.572
N12975 X17.504 Y8.771
N12980 X17.497 Y8.781
N12985 X17.371 Y8.97
N12990 X17.298 Y9.094
N12995 X17.258 Y9.169
N13000 X17.163 Y9.368
N13005 X17.099 Y9.526
N13010 X17.084 Y9.568
N13015 X17.02 Y9.767
N13020 X16.971 Y9.966
N13025 X16.935 Y10.165
N13030 X16.911 Y10.364
N13035 X16.901 Y10.563
N13040 G3 X15.702 Y10.499 I-0.599 J-0.032
N13045 X16.081 Y9.973 I0.599 J0.032
N13050 G2 X16.424 Y9.21 I-0.221 J-0.558
N13055 X11.252 Y8.807 I-2.678 J0.976
N13060 G1 X11.242 Y8.826 F1333.33
N13065 G2 X13.56 Y13.03 Z-4.8 I2.504 J1.36
N13070 G1 X13.581 Y13.031
N13075 X13.886 Y13.049 F4000.
N13080 G2 X16.901 Y10.364 I0.165 J-2.85
N13085 G1 X16.913 Y10.165
N13090 X16.937 Y9.966
N13095 X16.974 Y9.767
N13100 X17.024 Y9.568
N13105 X17.089 Y9.368
N13110 X17.099 Y9.341
N13115 X17.169 Y9.169
N13120 X17.265 Y8.97
N13125 X17.298 Y8.909
N13130 X17.379 Y8.771
N13135 X17.497 Y8.596
N13140 X17.515 Y8.572
N13145 X17.675 Y8.373
N13150 X17.696 Y8.348
N13155 X17.864 Y8.174
N13160 X17.896 Y8.144
N13165 X18.093 Y7.975
N13170 X18.095 Y7.973
N13175 X18.294 Y7.829
N13180 X18.377 Y7.776
N13185 X18.493 Y7.707
N13190 X18.692 Y7.605
N13195 X18.754 Y7.576
N13200 X18.891 Y7.52
N13205 X19.09 Y7.45
N13210 X19.289 Y7.396
N13215 X19.372 Y7.377
N13220 X19.488 Y7.356
N13225 X19.687 Y7.329
N13230 X19.887 Y7.315
N13235 X20.086 Y7.313
N13240 X369.914
N13245 X370.113 Y7.315
N13250 X370.313 Y7.329
N13255 X370.512 Y7.356
N13260 X370.628 Y7.377
N13265 X370.711 Y7.396
N13270 X370.91 Y7.45
N13275 X371.109 Y7.52
N13280 X371.246 Y7.576
N13285 X371.308 Y7.605
N13290 X371.507 Y7.707
N13295 X371.623 Y7.776
N13300 X371.706 Y7.829
N13305 X371.905 Y7.973
N13310 X371.907 Y7.975
N13315 X372.104 Y8.144
N13320 X372.136 Y8.174
N13325 X372.304 Y8.348
N13330 X372.325 Y8.373
N13335 X372.485 Y8.572
N13340 X372.503 Y8.596
N13345 X372.621 Y8.771
N13350 X372.702 Y8.909
N13355 X372.735 Y8.97
N13360 X372.831 Y9.169
N13365 X372.901 Y9.341
N13370 X372.911 Y9.368
N13375 X372.976 Y9.568
N13380 X373.026 Y9.767
N13385 X373.063 Y9.966
N13390 X373.087 Y10.165
N13395 X373.099 Y10.364
N13400 G2 X374.297 Y10.295 I0.599 J-0.035
N13405 X373.917 Y9.771 I-0.599 J0.035
N13410 G3 X373.571 Y9.009 I0.219 J-0.559
N13415 X378.741 Y8.583 I2.682 J0.964
N13420 G1 X378.751 Y8.601 F1333.33
N13425 G3 X376.451 Y12.816 Z-5. I-2.498 J1.371
N13430 G1 X376.43 Y12.817
N13435 X376.126 Y12.836 F4000.
N13440 G3 X373.098 Y10.165 I-0.178 J-2.849
N13445 G1 X373.086 Y9.966
N13450 X373.061 Y9.767
N13455 X373.023 Y9.568
N13460 X372.971 Y9.368
N13465 X372.906 Y9.169
N13470 X372.901 Y9.156
N13475 X372.825 Y8.97
N13480 X372.727 Y8.771
N13485 X372.702 Y8.724
N13490 X372.612 Y8.572
N13495 X372.503 Y8.411
N13500 X372.475 Y8.373
N13505 X372.313 Y8.174
N13510 X372.304 Y8.163
N13515 X372.121 Y7.975
N13520 X372.104 Y7.959
N13525 X371.905 Y7.789
N13530 X371.889 Y7.776
N13535 X371.706 Y7.644
N13540 X371.6 Y7.576
N13545 X371.507 Y7.522
N13550 X371.308 Y7.42
N13555 X371.214 Y7.377
N13560 X371.109 Y7.335
N13565 X370.91 Y7.265
N13570 X370.711 Y7.211
N13575 X370.555 Y7.178
N13580 X370.512 Y7.171
N13585 X370.313 Y7.144
N13590 X370.113 Y7.13
N13595 X369.914 Y7.128
N13600 X20.086
N13605 X19.887 Y7.13
N13610 X19.687 Y7.144
N13615 X19.488 Y7.171
N13620 X19.445 Y7.178
N13625 X19.289 Y7.211
N13630 X19.09 Y7.265
N13635 X18.891 Y7.335
N13640 X18.786 Y7.377
N13645 X18.692 Y7.42
N13650 X18.493 Y7.522
N13655 X18.4 Y7.576
N13660 X18.294 Y7.644
N13665 X18.111 Y7.776
N13670 X18.095 Y7.789
N13675 X17.896 Y7.959
N13680 X17.879 Y7.975
N13685 X17.696 Y8.163
N13690 X17.687 Y8.174
N13695 X17.525 Y8.373
N13700 X17.497 Y8.411
N13705 X17.388 Y8.572
N13710 X17.298 Y8.724
N13715 X17.273 Y8.771
N13720 X17.175 Y8.97
N13725 X17.099 Y9.156
N13730 X17.094 Y9.169
N13735 X17.029 Y9.368
N13740 X16.977 Y9.568
N13745 X16.939 Y9.767
N13750 X16.914 Y9.966
N13755 X16.902 Y10.165
N13760 G3 X15.704 Y10.09 I-0.599 J-0.037
N13765 X16.086 Y9.568 I0.599 J0.037
N13770 G2 X16.435 Y8.808 I-0.217 J-0.56
N13775 X11.267 Y8.359 I-2.686 J0.952
N13780 G1 X11.257 Y8.377 F1333.33
N13785 G2 X13.537 Y12.602 Z-5.2 I2.492 J1.383
N13790 G1 X13.558 Y12.603
N13795 X13.863 Y12.624 F4000.
N13800 G2 X16.902 Y9.966 I0.191 J-2.849
N13805 G1 X16.915 Y9.767
N13810 X16.941 Y9.568
N13815 X16.98 Y9.368
N13820 X17.033 Y9.169
N13825 X17.099 Y8.971
N13830 X17.1 Y8.97
N13835 X17.182 Y8.771
N13840 X17.28 Y8.572
N13845 X17.298 Y8.539
N13850 X17.397 Y8.373
N13855 X17.497 Y8.226
N13860 X17.536 Y8.174
N13865 X17.696 Y7.978
N13870 X17.7 Y7.975
N13875 X17.894 Y7.776
N13880 X17.896 Y7.774
N13885 X18.095 Y7.604
N13890 X18.13 Y7.576
N13895 X18.294 Y7.459
N13900 X18.424 Y7.377
N13905 X18.493 Y7.337
N13910 X18.692 Y7.235
N13915 X18.82 Y7.178
N13920 X18.891 Y7.15
N13925 X19.09 Y7.081
N13930 X19.289 Y7.026
N13935 X19.488 Y6.986
N13940 X19.529 Y6.979
N13945 X19.687 Y6.959
N13950 X19.887 Y6.945
N13955 X20.086 Y6.943
N13960 X369.914
N13965 X370.113 Y6.945
N13970 X370.313 Y6.959
N13975 X370.471 Y6.979
N13980 X370.512 Y6.986
N13985 X370.711 Y7.026
N13990 X370.91 Y7.081
N13995 X371.109 Y7.15
N14000 X371.18 Y7.178
N14005 X371.308 Y7.235
N14010 X371.507 Y7.337
N14015 X371.576 Y7.377
N14020 X371.706 Y7.459
N14025 X371.87 Y7.576
N14030 X371.905 Y7.604
N14035 X372.104 Y7.774
N14040 X372.106 Y7.776
N14045 X372.3 Y7.975
N14050 X372.304 Y7.978
N14055 X372.464 Y8.174
N14060 X372.503 Y8.226
N14065 X372.603 Y8.373
N14070 X372.702 Y8.539
N14075 X372.72 Y8.572
N14080 X372.818 Y8.771
N14085 X372.9 Y8.97
N14090 X372.901 Y8.971
N14095 X372.967 Y9.169
N14100 X373.02 Y9.368
N14105 X373.059 Y9.568
N14110 X373.085 Y9.767
N14115 X373.098 Y9.966
N14120 G2 X374.295 Y9.886 I0.599 J-0.04
N14125 X373.952 Y9.383 I-0.599 J0.04
N14130 G3 X373.661 Y8.593 I0.255 J-0.543
N14135 X378.799 Y8.473 I2.598 J1.172
N14140 G1 X378.808 Y8.492 F1333.33
N14145 G3 X376.347 Y12.614 Z-5.4 I-2.55 J1.273
N14150 G1 X376.326
N14155 X376.021 Y12.621 F4000.
N14160 G3 X373.099 Y9.834 I-0.067 J-2.854
N14165 G1 Y9.804
N14170 X373.097 Y9.767
N14175 X373.083 Y9.568
N14180 X373.056 Y9.368
N14185 X373.016 Y9.169
N14190 X372.963 Y8.97
N14195 X372.901 Y8.787
N14200 X372.895 Y8.771
N14205 X372.812 Y8.572
N14210 X372.712 Y8.373
N14215 X372.702 Y8.354
N14220 X372.593 Y8.174
N14225 X372.503 Y8.041
N14230 X372.453 Y7.975
N14235 X372.304 Y7.793
N14240 X372.288 Y7.776
N14245 X372.104 Y7.59
N14250 X372.09 Y7.576
N14255 X371.905 Y7.419
N14260 X371.852 Y7.377
N14265 X371.706 Y7.275
N14270 X371.552 Y7.178
N14275 X371.507 Y7.153
N14280 X371.308 Y7.05
N14285 X371.145 Y6.979
N14290 X371.109 Y6.965
N14295 X370.91 Y6.896
N14300 X370.711 Y6.841
N14305 X370.512 Y6.801
N14310 X370.368 Y6.78
N14315 X370.313 Y6.774
N14320 X370.113 Y6.76
N14325 X369.914 Y6.758
N14330 X20.086
N14335 X19.887 Y6.76
N14340 X19.687 Y6.774
N14345 X19.632 Y6.78
N14350 X19.488 Y6.801
N14355 X19.289 Y6.841
N14360 X19.09 Y6.896
N14365 X18.891 Y6.965
N14370 X18.855 Y6.979
N14375 X18.692 Y7.05
N14380 X18.493 Y7.153
N14385 X18.448 Y7.178
N14390 X18.294 Y7.275
N14395 X18.148 Y7.377
N14400 X18.095 Y7.419
N14405 X17.91 Y7.576
N14410 X17.896 Y7.59
N14415 X17.712 Y7.776
N14420 X17.696 Y7.793
N14425 X17.547 Y7.975
N14430 X17.497 Y8.041
N14435 X17.407 Y8.174
N14440 X17.298 Y8.354
N14445 X17.288 Y8.373
N14450 X17.188 Y8.572
N14455 X17.105 Y8.771
N14460 X17.099 Y8.787
N14465 X17.037 Y8.97
N14470 X16.984 Y9.169
N14475 X16.944 Y9.368
N14480 X16.917 Y9.568
N14485 X16.903 Y9.767
N14490 X16.901 Y9.804
N14495 Y9.834
N14500 G3 X15.701 Y9.806 I-0.6 J-0.014
N14505 X16.065 Y9.269 I0.6 J0.014
N14510 G2 X16.385 Y8.493 I-0.236 J-0.552
N14515 X11.206 Y8.259 I-2.643 J1.066
N14520 G1 X11.196 Y8.277 F1333.33
N14525 G2 X13.644 Y12.407 Z-5.6 I2.546 J1.282
N14530 G1 X13.665 Y12.408
N14535 X13.97 Y12.416 F4000.
N14540 G2 X16.901 Y9.639 I0.077 J-2.854
N14545 G1 X16.902 Y9.609
N14550 X16.903 Y9.568
N14555 X16.918 Y9.368
N14560 X16.946 Y9.169
N14565 X16.987 Y8.97
N14570 X17.041 Y8.771
N14575 X17.099 Y8.602
N14580 X17.11 Y8.572
N14585 X17.195 Y8.373
N14590 X17.296 Y8.174
N14595 X17.298 Y8.169
N14600 X17.416 Y7.975
N14605 X17.497 Y7.856
N14610 X17.558 Y7.776
N14615 X17.696 Y7.609
N14620 X17.725 Y7.576
N14625 X17.896 Y7.405
N14630 X17.925 Y7.377
N14635 X18.095 Y7.234
N14640 X18.168 Y7.178
N14645 X18.294 Y7.09
N14650 X18.473 Y6.979
N14655 X18.493 Y6.968
N14660 X18.692 Y6.865
N14665 X18.891 Y6.78
N14670 X19.09 Y6.711
N14675 X19.289 Y6.656
N14680 X19.488 Y6.616
N14685 X19.687 Y6.589
N14690 X19.781 Y6.581
N14695 X19.887 Y6.575
N14700 X20.086 Y6.573
N14705 X369.914
N14710 X370.113 Y6.575
N14715 X370.219 Y6.581
N14720 X370.313 Y6.589
N14725 X370.512 Y6.616
N14730 X370.711 Y6.656
N14735 X370.91 Y6.711
N14740 X371.109 Y6.78
N14745 X371.308 Y6.865
N14750 X371.507 Y6.968
N14755 X371.527 Y6.979
N14760 X371.706 Y7.09
N14765 X371.832 Y7.178
N14770 X371.905 Y7.234
N14775 X372.075 Y7.377
N14780 X372.104 Y7.405
N14785 X372.275 Y7.576
N14790 X372.304 Y7.609
N14795 X372.442 Y7.776
N14800 X372.503 Y7.856
N14805 X372.584 Y7.975
N14810 X372.702 Y8.169
N14815 X372.704 Y8.174
N14820 X372.805 Y8.373
N14825 X372.89 Y8.572
N14830 X372.901 Y8.602
N14835 X372.959 Y8.771
N14840 X373.013 Y8.97
N14845 X373.054 Y9.169
N14850 X373.082 Y9.368
N14855 X373.097 Y9.568
N14860 X373.098 Y9.609
N14865 X373.099 Y9.639
N14870 G2 X374.299 Y9.606 I0.6 J-0.016
N14875 X373.934 Y9.07 I-0.6 J0.016
N14880 G3 X373.611 Y8.295 I0.235 J-0.552
N14885 X378.789 Y8.044 I2.647 J1.057
N14890 G1 X378.799 Y8.063 F1333.33
N14895 G3 X376.364 Y12.201 Z-5.8 I-2.541 J1.29
N14900 G1 X376.343
N14905 X376.039 Y12.211 F4000.
N14910 G3 X373.099 Y9.443 I-0.086 J-2.854
N14915 G1 X373.098 Y9.414
N14920 X373.096 Y9.368
N14925 X373.08 Y9.169
N14930 X373.051 Y8.97
N14935 X373.01 Y8.771
N14940 X372.954 Y8.572
N14945 X372.901 Y8.417
N14950 X372.884 Y8.373
N14955 X372.799 Y8.174
N14960 X372.702 Y7.985
N14965 X372.696 Y7.975
N14970 X372.575 Y7.776
N14975 X372.503 Y7.672
N14980 X372.431 Y7.576
N14985 X372.304 Y7.424
N14990 X372.261 Y7.377
N14995 X372.104 Y7.22
N15000 X372.059 Y7.178
N15005 X371.905 Y7.049
N15010 X371.813 Y6.979
N15015 X371.706 Y6.905
N15020 X371.507 Y6.783
N15025 X371.502 Y6.78
N15030 X371.308 Y6.68
N15035 X371.109 Y6.595
N15040 X371.071 Y6.581
N15045 X370.91 Y6.526
N15050 X370.711 Y6.472
N15055 X370.512 Y6.431
N15060 X370.313 Y6.404
N15065 X370.113 Y6.39
N15070 X369.914 Y6.388
N15075 X20.086
N15080 X19.887 Y6.39
N15085 X19.687 Y6.404
N15090 X19.488 Y6.431
N15095 X19.289 Y6.472
N15100 X19.09 Y6.526
N15105 X18.929 Y6.581
N15110 X18.891 Y6.595
N15115 X18.692 Y6.68
N15120 X18.498 Y6.78
N15125 X18.493 Y6.783
N15130 X18.294 Y6.905
N15135 X18.187 Y6.979
N15140 X18.095 Y7.049
N15145 X17.941 Y7.178
N15150 X17.896 Y7.22
N15155 X17.739 Y7.377
N15160 X17.696 Y7.424
N15165 X17.569 Y7.576
N15170 X17.497 Y7.672
N15175 X17.425 Y7.776
N15180 X17.304 Y7.975
N15185 X17.298 Y7.985
N15190 X17.201 Y8.174
N15195 X17.116 Y8.373
N15200 X17.099 Y8.417
N15205 X17.046 Y8.572
N15210 X16.99 Y8.771
N15215 X16.949 Y8.97
N15220 X16.92 Y9.169
N15225 X16.904 Y9.368
N15230 X16.902 Y9.414
N15235 X16.901 Y9.443
N15240 G3 X15.702 Y9.407 I-0.6 J-0.018
N15245 X16.068 Y8.872 I0.6 J0.018
N15250 G2 X16.393 Y8.098 I-0.233 J-0.553
N15255 X11.215 Y7.83 I-2.65 J1.048
N15260 G1 X11.206 Y7.848 F1333.33
N15265 G2 X13.627 Y11.994 Z-6. I2.537 J1.298
N15270 G1 X13.648 Y11.995
N15275 X13.953 Y12.005 F4000.
N15280 G2 X16.901 Y9.247 I0.095 J-2.853
N15285 G1 X16.902 Y9.219
N15290 X16.905 Y9.169
N15295 X16.921 Y8.97
N15300 X16.951 Y8.771
N15305 X16.994 Y8.572
N15310 X17.05 Y8.373
N15315 X17.099 Y8.232
N15320 X17.121 Y8.174
N15325 X17.208 Y7.975
N15330 X17.298 Y7.8
N15335 X17.312 Y7.776
N15340 X17.435 Y7.576
N15345 X17.497 Y7.487
N15350 X17.58 Y7.377
N15355 X17.696 Y7.239
N15360 X17.752 Y7.178
N15365 X17.896 Y7.035
N15370 X17.957 Y6.979
N15375 X18.095 Y6.864
N15380 X18.207 Y6.78
N15385 X18.294 Y6.72
N15390 X18.493 Y6.598
N15395 X18.523 Y6.581
N15400 X18.692 Y6.495
N15405 X18.891 Y6.41
N15410 X18.968 Y6.382
N15415 X19.09 Y6.341
N15420 X19.289 Y6.287
N15425 X19.488 Y6.246
N15430 X19.687 Y6.219
N15435 X19.887 Y6.205
N15440 X20.086 Y6.203
N15445 X369.914
N15450 X370.113 Y6.205
N15455 X370.313 Y6.219
N15460 X370.512 Y6.246
N15465 X370.711 Y6.287
N15470 X370.91 Y6.341
N15475 X371.032 Y6.382
N15480 X371.109 Y6.41
N15485 X371.308 Y6.495
N15490 X371.477 Y6.581
N15495 X371.507 Y6.598
N15500 X371.706 Y6.72
N15505 X371.793 Y6.78
N15510 X371.905 Y6.864
N15515 X372.043 Y6.979
N15520 X372.104 Y7.035
N15525 X372.248 Y7.178
N15530 X372.304 Y7.239
N15535 X372.42 Y7.377
N15540 X372.503 Y7.487
N15545 X372.565 Y7.576
N15550 X372.688 Y7.776
N15555 X372.702 Y7.8
N15560 X372.792 Y7.975
N15565 X372.879 Y8.174
N15570 X372.901 Y8.232
N15575 X372.95 Y8.373
N15580 X373.006 Y8.572
N15585 X373.049 Y8.771
N15590 X373.079 Y8.97
N15595 X373.095 Y9.169
N15600 X373.098 Y9.219
N15605 X373.099 Y9.247
N15610 G2 X374.298 Y9.207 I0.6 J-0.02
N15615 X373.93 Y8.674 I-0.6 J0.02
N15620 G3 X373.603 Y7.901 I0.232 J-0.554
N15625 X378.78 Y7.615 I2.654 J1.039
N15630 G1 X378.789 Y7.634 F1333.33
N15635 G3 X376.382 Y11.788 Z-6.2 I-2.533 J1.307
N15640 G1 X376.361 Y11.789
N15645 X376.056 Y11.8 F4000.
N15650 G3 X373.098 Y9.051 I-0.105 J-2.853
N15655 G1 X373.097 Y9.024
N15660 X373.095 Y8.97
N15665 X373.077 Y8.771
N15670 X373.046 Y8.572
N15675 X373.003 Y8.373
N15680 X372.945 Y8.174
N15685 X372.901 Y8.047
N15690 X372.873 Y7.975
N15695 X372.785 Y7.776
N15700 X372.702 Y7.615
N15705 X372.68 Y7.576
N15710 X372.556 Y7.377
N15715 X372.503 Y7.302
N15720 X372.409 Y7.178
N15725 X372.304 Y7.054
N15730 X372.235 Y6.979
N15735 X372.104 Y6.85
N15740 X372.027 Y6.78
N15745 X371.905 Y6.679
N15750 X371.773 Y6.581
N15755 X371.706 Y6.535
N15760 X371.507 Y6.413
N15765 X371.45 Y6.382
N15770 X371.308 Y6.311
N15775 X371.109 Y6.225
N15780 X370.991 Y6.183
N15785 X370.91 Y6.156
N15790 X370.711 Y6.102
N15795 X370.512 Y6.061
N15800 X370.313 Y6.034
N15805 X370.113 Y6.021
N15810 X369.914 Y6.018
N15815 X20.086
N15820 X19.887 Y6.021
N15825 X19.687 Y6.034
N15830 X19.488 Y6.061
N15835 X19.289 Y6.102
N15840 X19.09 Y6.156
N15845 X19.009 Y6.183
N15850 X18.891 Y6.225
N15855 X18.692 Y6.311
N15860 X18.55 Y6.382
N15865 X18.493 Y6.413
N15870 X18.294 Y6.535
N15875 X18.227 Y6.581
N15880 X18.095 Y6.679
N15885 X17.973 Y6.78
N15890 X17.896 Y6.85
N15895 X17.765 Y6.979
N15900 X17.696 Y7.054
N15905 X17.591 Y7.178
N15910 X17.497 Y7.302
N15915 X17.444 Y7.377
N15920 X17.32 Y7.576
N15925 X17.298 Y7.615
N15930 X17.215 Y7.776
N15935 X17.127 Y7.975
N15940 X17.099 Y8.047
N15945 X17.055 Y8.174
N15950 X16.997 Y8.373
N15955 X16.954 Y8.572
N15960 X16.923 Y8.771
N15965 X16.905 Y8.97
N15970 X16.903 Y9.024
N15975 X16.902 Y9.051
N15980 G3 X15.702 Y9.007 I-0.6 J-0.022
N15985 X16.072 Y8.475 I0.6 J0.022
N15990 G2 X16.402 Y7.704 I-0.23 J-0.554
N15995 X11.226 Y7.401 I-2.657 J1.03
N16000 G1 X11.216 Y7.42 F1333.33
N16005 G2 X13.61 Y11.581 Z-6.4 I2.529 J1.315
N16010 G1 X13.63 Y11.582
N16015 X13.935 Y11.594 F4000.
N16020 G2 X16.902 Y8.856 I0.114 J-2.853
N16025 G1 X16.903 Y8.829
N16030 X16.906 Y8.771
N16035 X16.925 Y8.572
N16040 X16.956 Y8.373
N16045 X17.001 Y8.174
N16050 X17.06 Y7.975
N16055 X17.099 Y7.862
N16060 X17.133 Y7.776
N16065 X17.222 Y7.576
N16070 X17.298 Y7.43
N16075 X17.328 Y7.377
N16080 X17.454 Y7.178
N16085 X17.497 Y7.117
N16090 X17.603 Y6.979
N16095 X17.696 Y6.869
N16100 X17.779 Y6.78
N16105 X17.896 Y6.665
N16110 X17.989 Y6.581
N16115 X18.095 Y6.494
N16120 X18.247 Y6.382
N16125 X18.294 Y6.35
N16130 X18.493 Y6.228
N16135 X18.577 Y6.183
N16140 X18.692 Y6.126
N16145 X18.891 Y6.041
N16150 X19.051 Y5.984
N16155 X19.09 Y5.971
N16160 X19.289 Y5.917
N16165 X19.488 Y5.876
N16170 X19.687 Y5.85
N16175 X19.887 Y5.836
N16180 X20.086 Y5.834
N16185 X369.914
N16190 X370.113 Y5.836
N16195 X370.313 Y5.85
N16200 X370.512 Y5.876
N16205 X370.711 Y5.917
N16210 X370.91 Y5.971
N16215 X370.949 Y5.984
N16220 X371.109 Y6.041
N16225 X371.308 Y6.126
N16230 X371.423 Y6.183
N16235 X371.507 Y6.228
N16240 X371.706 Y6.35
N16245 X371.753 Y6.382
N16250 X371.905 Y6.494
N16255 X372.01 Y6.581
N16260 X372.104 Y6.665
N16265 X372.221 Y6.78
N16270 X372.304 Y6.869
N16275 X372.397 Y6.979
N16280 X372.503 Y7.117
N16285 X372.546 Y7.178
N16290 X372.672 Y7.377
N16295 X372.702 Y7.43
N16300 X372.778 Y7.576
N16305 X372.867 Y7.776
N16310 X372.901 Y7.862
N16315 X372.94 Y7.975
N16320 X372.999 Y8.174
N16325 X373.044 Y8.373
N16330 X373.075 Y8.572
N16335 X373.094 Y8.771
N16340 X373.097 Y8.829
N16345 X373.098 Y8.856
N16350 G2 X374.297 Y8.808 I0.6 J-0.024
N16355 X373.931 Y8.279 I-0.6 J0.024
N16360 G3 X373.607 Y7.505 I0.233 J-0.553
N16365 X378.774 Y7.221 I2.649 J1.051
N16370 G1 X378.784 Y7.24 F1333.33
N16375 G3 X376.392 Y11.403 Z-6.6 I-2.528 J1.316
N16380 G1 X376.371 Y11.404
N16385 X376.066 Y11.416 F4000.
N16390 G3 X373.098 Y8.678 I-0.115 J-2.853
N16395 G1 X373.096 Y8.634
N16400 X373.093 Y8.572
N16405 X373.073 Y8.373
N16410 X373.041 Y8.174
N16415 X372.995 Y7.975
N16420 X372.936 Y7.776
N16425 X372.901 Y7.677
N16430 X372.861 Y7.576
N16435 X372.771 Y7.377
N16440 X372.702 Y7.245
N16445 X372.664 Y7.178
N16450 X372.536 Y6.979
N16455 X372.503 Y6.932
N16460 X372.386 Y6.78
N16465 X372.304 Y6.684
N16470 X372.207 Y6.581
N16475 X372.104 Y6.48
N16480 X371.994 Y6.382
N16485 X371.905 Y6.31
N16490 X371.732 Y6.183
N16495 X371.706 Y6.165
N16500 X371.507 Y6.043
N16505 X371.396 Y5.984
N16510 X371.308 Y5.941
N16515 X371.109 Y5.856
N16520 X370.91 Y5.786
N16525 X370.904 Y5.785
N16530 X370.711 Y5.732
N16535 X370.512 Y5.692
N16540 X370.313 Y5.665
N16545 X370.113 Y5.651
N16550 X369.914 Y5.649
N16555 X20.086
N16560 X19.887 Y5.651
N16565 X19.687 Y5.665
N16570 X19.488 Y5.692
N16575 X19.289 Y5.732
N16580 X19.096 Y5.785
N16585 X19.09 Y5.786
N16590 X18.891 Y5.856
N16595 X18.692 Y5.941
N16600 X18.604 Y5.984
N16605 X18.493 Y6.043
N16610 X18.294 Y6.165
N16615 X18.268 Y6.183
N16620 X18.095 Y6.31
N16625 X18.006 Y6.382
N16630 X17.896 Y6.48
N16635 X17.793 Y6.581
N16640 X17.696 Y6.684
N16645 X17.614 Y6.78
N16650 X17.497 Y6.932
N16655 X17.464 Y6.979
N16660 X17.336 Y7.178
N16665 X17.298 Y7.245
N16670 X17.229 Y7.377
N16675 X17.139 Y7.576
N16680 X17.099 Y7.677
N16685 X17.064 Y7.776
N16690 X17.005 Y7.975
N16695 X16.959 Y8.174
N16700 X16.927 Y8.373
N16705 X16.907 Y8.572
N16710 X16.904 Y8.634
N16715 X16.902 Y8.678
N16720 G3 X15.703 Y8.63 I-0.6 J-0.024
N16725 X16.049 Y8.11 I0.6 J0.024
N16730 G2 X16.344 Y7.322 I-0.253 J-0.544
N16735 X11.209 Y7.176 I-2.602 J1.162
N16740 G1 X11.199 Y7.195 F1333.33
N16745 G2 X13.636 Y11.331 Z-6.8 I2.542 J1.289
N16750 G1 X13.657 Y11.332
N16755 X13.962 Y11.341 F4000.
N16760 G2 X16.9 Y8.572 I0.085 J-2.854
N16765 G1 X16.904 Y8.439
N16770 X16.908 Y8.373
N16775 X16.929 Y8.174
N16780 X16.962 Y7.975
N16785 X17.009 Y7.776
N16790 X17.069 Y7.576
N16795 X17.099 Y7.492
N16800 X17.144 Y7.377
N16805 X17.236 Y7.178
N16810 X17.298 Y7.06
N16815 X17.345 Y6.979
N16820 X17.474 Y6.78
N16825 X17.497 Y6.747
N16830 X17.626 Y6.581
N16835 X17.696 Y6.499
N16840 X17.807 Y6.382
N16845 X17.896 Y6.295
N16850 X18.023 Y6.183
N16855 X18.095 Y6.125
N16860 X18.289 Y5.984
N16865 X18.294 Y5.98
N16870 X18.493 Y5.858
N16875 X18.633 Y5.785
N16880 X18.692 Y5.756
N16885 X18.891 Y5.671
N16890 X19.09 Y5.602
N16895 X19.144 Y5.585
N16900 X19.289 Y5.547
N16905 X19.488 Y5.507
N16910 X19.687 Y5.48
N16915 X19.887 Y5.466
N16920 X20.086 Y5.464
N16925 X369.914
N16930 X370.113 Y5.466
N16935 X370.313 Y5.48
N16940 X370.512 Y5.507
N16945 X370.711 Y5.547
N16950 X370.856 Y5.585
N16955 X370.91 Y5.602
N16960 X371.109 Y5.671
N16965 X371.308 Y5.756
N16970 X371.367 Y5.785
N16975 X371.507 Y5.858
N16980 X371.706 Y5.98
N16985 X371.711 Y5.984
N16990 X371.905 Y6.125
N16995 X371.977 Y6.183
N17000 X372.104 Y6.295
N17005 X372.193 Y6.382
N17010 X372.304 Y6.499
N17015 X372.374 Y6.581
N17020 X372.503 Y6.747
N17025 X372.526 Y6.78
N17030 X372.655 Y6.979
N17035 X372.702 Y7.06
N17040 X372.764 Y7.178
N17045 X372.856 Y7.377
N17050 X372.901 Y7.492
N17055 X372.931 Y7.576
N17060 X372.991 Y7.776
N17065 X373.038 Y7.975
N17070 X373.071 Y8.174
N17075 X373.092 Y8.373
N17080 X373.096 Y8.439
N17085 X373.1 Y8.572
N17090 G2 X374.299 Y8.536 I0.6 J-0.018
N17095 X373.926 Y7.998 I-0.6 J0.018
N17100 G3 X373.59 Y7.231 I0.226 J-0.556
N17105 X378.769 Y6.892 I2.666 J1.006
N17110 G1 X378.779 Y6.911 F1333.33
N17115 G3 X376.405 Y11.083 Z-7. I-2.522 J1.326
N17120 G1 X376.384 Y11.084
N17125 X376.079 Y11.098 F4000.
N17130 G3 X373.1 Y8.373 I-0.127 J-2.852
N17135 G1 X373.091 Y8.174
N17140 X373.069 Y7.975
N17145 X373.035 Y7.776
N17150 X372.988 Y7.576
N17155 X372.926 Y7.377
N17160 X372.901 Y7.307
N17165 X372.85 Y7.178
N17170 X372.757 Y6.979
N17175 X372.702 Y6.875
N17180 X372.647 Y6.78
N17185 X372.516 Y6.581
N17190 X372.503 Y6.562
N17195 X372.362 Y6.382
N17200 X372.304 Y6.314
N17205 X372.179 Y6.183
N17210 X372.104 Y6.111
N17215 X371.96 Y5.984
N17220 X371.905 Y5.94
N17225 X371.706 Y5.795
N17230 X371.69 Y5.785
N17235 X371.507 Y5.674
N17240 X371.338 Y5.585
N17245 X371.308 Y5.571
N17250 X371.109 Y5.486
N17255 X370.91 Y5.417
N17260 X370.805 Y5.386
N17265 X370.711 Y5.362
N17270 X370.512 Y5.322
N17275 X370.313 Y5.295
N17280 X370.113 Y5.281
N17285 X369.914 Y5.279
N17290 X20.086
N17295 X19.887 Y5.281
N17300 X19.687 Y5.295
N17305 X19.488 Y5.322
N17310 X19.289 Y5.362
N17315 X19.195 Y5.386
N17320 X19.09 Y5.417
N17325 X18.891 Y5.486
N17330 X18.692 Y5.571
N17335 X18.662 Y5.585
N17340 X18.493 Y5.674
N17345 X18.31 Y5.785
N17350 X18.294 Y5.795
N17355 X18.095 Y5.94
N17360 X18.04 Y5.984
N17365 X17.896 Y6.111
N17370 X17.821 Y6.183
N17375 X17.696 Y6.314
N17380 X17.638 Y6.382
N17385 X17.497 Y6.562
N17390 X17.484 Y6.581
N17395 X17.353 Y6.78
N17400 X17.298 Y6.875
N17405 X17.243 Y6.979
N17410 X17.15 Y7.178
N17415 X17.099 Y7.307
N17420 X17.074 Y7.377
N17425 X17.012 Y7.576
N17430 X16.965 Y7.776
N17435 X16.931 Y7.975
N17440 X16.909 Y8.174
N17445 X16.9 Y8.373
N17450 G3 X15.701 Y8.319 I-0.599 J-0.027
N17455 X16.076 Y7.79 I0.599 J0.027
N17460 G2 X16.413 Y7.023 I-0.225 J-0.556
N17465 X11.237 Y6.668 I-2.668 J1.001
N17470 G1 X11.228 Y6.686 F1333.33
N17475 G2 X13.583 Y10.869 Z-7.2 I2.517 J1.338
N17480 G1 X13.604 Y10.871
N17485 X13.909 Y10.885 F4000.
N17490 G2 X16.9 Y8.174 I0.14 J-2.852
N17495 G1 X16.91 Y7.975
N17500 X16.933 Y7.776
N17505 X16.968 Y7.576
N17510 X17.016 Y7.377
N17515 X17.079 Y7.178
N17520 X17.099 Y7.123
N17525 X17.157 Y6.979
N17530 X17.25 Y6.78
N17535 X17.298 Y6.69
N17540 X17.362 Y6.581
N17545 X17.494 Y6.382
N17550 X17.497 Y6.377
N17555 X17.65 Y6.183
N17560 X17.696 Y6.13
N17565 X17.835 Y5.984
N17570 X17.896 Y5.926
N17575 X18.058 Y5.785
N17580 X18.095 Y5.755
N17585 X18.294 Y5.611
N17590 X18.332 Y5.585
N17595 X18.493 Y5.489
N17600 X18.692 Y5.386
N17605 X18.891 Y5.301
N17610 X19.09 Y5.232
N17615 X19.249 Y5.187
N17620 X19.289 Y5.177
N17625 X19.488 Y5.137
N17630 X19.687 Y5.11
N17635 X19.887 Y5.096
N17640 X20.086 Y5.094
N17645 X369.914
N17650 X370.113 Y5.096
N17655 X370.313 Y5.11
N17660 X370.512 Y5.137
N17665 X370.711 Y5.177
N17670 X370.751 Y5.187
N17675 X370.91 Y5.232
N17680 X371.109 Y5.301
N17685 X371.308 Y5.386
N17690 X371.507 Y5.489
N17695 X371.668 Y5.585
N17700 X371.706 Y5.611
N17705 X371.905 Y5.755
N17710 X371.942 Y5.785
N17715 X372.104 Y5.926
N17720 X372.165 Y5.984
N17725 X372.304 Y6.13
N17730 X372.35 Y6.183
N17735 X372.503 Y6.377
N17740 X372.506 Y6.382
N17745 X372.638 Y6.581
N17750 X372.702 Y6.69
N17755 X372.75 Y6.78
N17760 X372.844 Y6.979
N17765 X372.901 Y7.123
N17770 X372.921 Y7.178
N17775 X372.984 Y7.377
N17780 X373.032 Y7.576
N17785 X373.067 Y7.776
N17790 X373.09 Y7.975
N17795 X373.099 Y8.174
N17800 G2 X374.298 Y8.115 I0.599 J-0.029
N17805 X373.922 Y7.587 I-0.599 J0.029
N17810 G3 X373.582 Y6.822 I0.223 J-0.557
N17815 X378.755 Y6.443 I2.673 J0.989
N17820 G1 X378.765 Y6.462 F1333.33
N17825 G3 X376.428 Y10.655 Z-7.4 I-2.51 J1.349
N17830 G1 X376.407 Y10.657
N17835 X376.103 Y10.673 F4000.
N17840 G3 X373.099 Y7.975 I-0.153 J-2.851
N17845 G1 X373.089 Y7.776
N17850 X373.065 Y7.576
N17855 X373.029 Y7.377
N17860 X372.98 Y7.178
N17865 X372.916 Y6.979
N17870 X372.901 Y6.938
N17875 X372.837 Y6.78
N17880 X372.742 Y6.581
N17885 X372.702 Y6.506
N17890 X372.629 Y6.382
N17895 X372.503 Y6.193
N17900 X372.496 Y6.183
N17905 X372.338 Y5.984
N17910 X372.304 Y5.945
N17915 X372.15 Y5.785
N17920 X372.104 Y5.741
N17925 X371.925 Y5.585
N17930 X371.905 Y5.57
N17935 X371.706 Y5.426
N17940 X371.645 Y5.386
N17945 X371.507 Y5.304
N17950 X371.308 Y5.201
N17955 X371.278 Y5.187
N17960 X371.109 Y5.116
N17965 X370.91 Y5.047
N17970 X370.711 Y4.993
N17975 X370.692 Y4.988
N17980 X370.512 Y4.952
N17985 X370.313 Y4.925
N17990 X370.113 Y4.911
N17995 X369.914 Y4.909
N18000 X20.086
N18005 X19.887 Y4.911
N18010 X19.687 Y4.925
N18015 X19.488 Y4.952
N18020 X19.308 Y4.988
N18025 X19.289 Y4.993
N18030 X19.09 Y5.047
N18035 X18.891 Y5.116
N18040 X18.722 Y5.187
N18045 X18.692 Y5.201
N18050 X18.493 Y5.304
N18055 X18.355 Y5.386
N18060 X18.294 Y5.426
N18065 X18.095 Y5.57
N18070 X18.075 Y5.585
N18075 X17.896 Y5.741
N18080 X17.85 Y5.785
N18085 X17.696 Y5.945
N18090 X17.662 Y5.984
N18095 X17.504 Y6.183
N18100 X17.497 Y6.193
N18105 X17.371 Y6.382
N18110 X17.298 Y6.506
N18115 X17.258 Y6.581
N18120 X17.163 Y6.78
N18125 X17.099 Y6.938
N18130 X17.084 Y6.979
N18135 X17.02 Y7.178
N18140 X16.971 Y7.377
N18145 X16.935 Y7.576
N18150 X16.911 Y7.776
N18155 X16.901 Y7.975
N18160 G3 X15.703 Y7.911 I-0.599 J-0.032
N18165 X16.081 Y7.385 I0.599 J0.032
N18170 G2 X16.424 Y6.621 I-0.221 J-0.558
N18175 X11.252 Y6.219 I-2.678 J0.976
N18180 G1 X11.242 Y6.237 F1333.33
N18185 G2 X13.56 Y10.441 Z-7.6 I2.504 J1.36
N18190 G1 X13.581 Y10.443
N18195 X13.885 Y10.46 F4000.
N18200 G2 X16.901 Y7.776 I0.165 J-2.85
N18205 G1 X16.913 Y7.576
N18210 X16.937 Y7.377
N18215 X16.974 Y7.178
N18220 X17.024 Y6.979
N18225 X17.089 Y6.78
N18230 X17.099 Y6.753
N18235 X17.169 Y6.581
N18240 X17.265 Y6.382
N18245 X17.298 Y6.321
N18250 X17.38 Y6.183
N18255 X17.497 Y6.008
N18260 X17.515 Y5.984
N18265 X17.675 Y5.785
N18270 X17.696 Y5.76
N18275 X17.864 Y5.585
N18280 X17.896 Y5.556
N18285 X18.093 Y5.386
N18290 X18.095 Y5.385
N18295 X18.294 Y5.241
N18300 X18.377 Y5.187
N18305 X18.493 Y5.119
N18310 X18.692 Y5.016
N18315 X18.754 Y4.988
N18320 X18.891 Y4.931
N18325 X19.09 Y4.862
N18330 X19.289 Y4.808
N18335 X19.373 Y4.789
N18340 X19.488 Y4.767
N18345 X19.687 Y4.74
N18350 X19.887 Y4.726
N18355 X20.086 Y4.724
N18360 X369.914
N18365 X370.113 Y4.726
N18370 X370.313 Y4.74
N18375 X370.512 Y4.767
N18380 X370.627 Y4.789
N18385 X370.711 Y4.808
N18390 X370.91 Y4.862
N18395 X371.109 Y4.931
N18400 X371.246 Y4.988
N18405 X371.308 Y5.016
N18410 X371.507 Y5.119
N18415 X371.623 Y5.187
N18420 X371.706 Y5.241
N18425 X371.905 Y5.385
N18430 X371.907 Y5.386
N18435 X372.104 Y5.556
N18440 X372.136 Y5.585
N18445 X372.304 Y5.76
N18450 X372.325 Y5.785
N18455 X372.485 Y5.984
N18460 X372.503 Y6.008
N18465 X372.62 Y6.183
N18470 X372.702 Y6.321
N18475 X372.735 Y6.382
N18480 X372.831 Y6.581
N18485 X372.901 Y6.753
N18490 X372.911 Y6.78
N18495 X372.976 Y6.979
N18500 X373.026 Y7.178
N18505 X373.063 Y7.377
N18510 X373.087 Y7.576
N18515 X373.099 Y7.776
N18520 G2 X374.297 Y7.706 I0.599 J-0.035
N18525 X373.917 Y7.182 I-0.599 J0.035
N18530 G3 X373.571 Y6.42 I0.219 J-0.559
N18535 X378.741 Y5.994 I2.682 J0.964
N18540 G1 X378.751 Y6.013 F1333.33
N18545 G3 X376.451 Y10.227 Z-7.8 I-2.498 J1.371
N18550 G1 X376.43 Y10.229
N18555 X376.126 Y10.248 F4000.
N18560 G3 X373.098 Y7.576 I-0.178 J-2.849
N18565 G1 X373.086 Y7.377
N18570 X373.061 Y7.178
N18575 X373.023 Y6.979
N18580 X372.971 Y6.78
N18585 X372.906 Y6.581
N18590 X372.901 Y6.568
N18595 X372.825 Y6.382
N18600 X372.727 Y6.183
N18605 X372.702 Y6.136
N18610 X372.612 Y5.984
N18615 X372.503 Y5.823
N18620 X372.475 Y5.785
N18625 X372.313 Y5.585
N18630 X372.304 Y5.575
N18635 X372.121 Y5.386
N18640 X372.104 Y5.371
N18645 X371.905 Y5.2
N18650 X371.889 Y5.187
N18655 X371.706 Y5.056
N18660 X371.6 Y4.988
N18665 X371.507 Y4.934
N18670 X371.308 Y4.832
N18675 X371.213 Y4.789
N18680 X371.109 Y4.746
N18685 X370.91 Y4.677
N18690 X370.711 Y4.623
N18695 X370.554 Y4.59
N18700 X370.512 Y4.582
N18705 X370.313 Y4.555
N18710 X370.113 Y4.542
N18715 X369.914 Y4.539
N18720 X20.086
N18725 X19.887 Y4.542
N18730 X19.687 Y4.555
N18735 X19.488 Y4.582
N18740 X19.446 Y4.59
N18745 X19.289 Y4.623
N18750 X19.09 Y4.677
N18755 X18.891 Y4.746
N18760 X18.787 Y4.789
N18765 X18.692 Y4.832
N18770 X18.493 Y4.934
N18775 X18.4 Y4.988
N18780 X18.294 Y5.056
N18785 X18.111 Y5.187
N18790 X18.095 Y5.2
N18795 X17.896 Y5.371
N18800 X17.879 Y5.386
N18805 X17.696 Y5.575
N18810 X17.687 Y5.585
N18815 X17.525 Y5.785
N18820 X17.497 Y5.823
N18825 X17.389 Y5.984
N18830 X17.298 Y6.136
N18835 X17.273 Y6.183
N18840 X17.175 Y6.382
N18845 X17.099 Y6.568
N18850 X17.094 Y6.581
N18855 X17.029 Y6.78
N18860 X16.977 Y6.979
N18865 X16.939 Y7.178
N18870 X16.914 Y7.377
N18875 X16.902 Y7.576
N18880 G3 X15.704 Y7.502 I-0.599 J-0.037
N18885 X16.047 Y6.996 I0.599 J0.037
N18890 G2 X16.338 Y6.205 I-0.255 J-0.543
N18895 X12.441 Y4.848 I-2.595 J1.178
N18900 X11.274 Y8.806 I1.302 J2.535
N18905 G1 X11.284 Y8.824 F1333.33
N18910 G2 X13.62 Y10.231 Z-7.9 I2.459 J-1.44
N18915 G1 X13.641 Y10.232
N18920 X13.946 Y10.242 F4000.
N18925 G2 X16.901 Y7.491 I0.102 J-2.853
N18930 G1 X16.903 Y7.456
N18935 X16.905 Y7.418
N18940 X16.907 Y7.377
N18945 X16.926 Y7.178
N18950 X16.959 Y6.979
N18955 X17.004 Y6.78
N18960 X17.064 Y6.581
N18965 X17.099 Y6.48
N18970 X17.138 Y6.382
N18975 X17.228 Y6.183
N18980 X17.298 Y6.048
N18985 X17.335 Y5.984
N18990 X17.462 Y5.785
N18995 X17.497 Y5.735
N19000 X17.612 Y5.585
N19005 X17.696 Y5.487
N19010 X17.79 Y5.386
N19015 X17.896 Y5.283
N19020 X18.003 Y5.187
N19025 X18.095 Y5.112
N19030 X18.264 Y4.988
N19035 X18.294 Y4.968
N19040 X18.493 Y4.846
N19045 X18.6 Y4.789
N19050 X18.692 Y4.744
N19055 X18.891 Y4.659
N19060 X19.089 Y4.59
N19065 X19.09 Y4.589
N19070 X19.289 Y4.535
N19075 X19.488 Y4.495
N19080 X19.687 Y4.468
N19085 X19.887 Y4.454
N19090 X20.086 Y4.452
N19095 X369.914
N19100 X370.113 Y4.454
N19105 X370.313 Y4.468
N19110 X370.512 Y4.495
N19115 X370.711 Y4.535
N19120 X370.91 Y4.589
N19125 X370.911 Y4.59
N19130 X371.109 Y4.659
N19135 X371.308 Y4.744
N19140 X371.4 Y4.789
N19145 X371.507 Y4.846
N19150 X371.706 Y4.968
N19155 X371.736 Y4.988
N19160 X371.905 Y5.112
N19165 X371.997 Y5.187
N19170 X372.104 Y5.283
N19175 X372.21 Y5.386
N19180 X372.304 Y5.487
N19185 X372.388 Y5.585
N19190 X372.503 Y5.735
N19195 X372.538 Y5.785
N19200 X372.665 Y5.984
N19205 X372.702 Y6.048
N19210 X372.772 Y6.183
N19215 X372.862 Y6.382
N19220 X372.901 Y6.48
N19225 X372.936 Y6.581
N19230 X372.996 Y6.78
N19235 X373.041 Y6.979
N19240 X373.074 Y7.178
N19245 X373.093 Y7.377
N19250 X373.095 Y7.418
N19255 X373.097 Y7.456
N19260 X373.099 Y7.491
N19265 G2 X374.137 Y7.879 I0.6 J-0.021
N19270 G0 Z5.
N19275 X374.145 Y305.672
N19280 Z0.616
N19285 G1 Z-0.2 F4000.
N19290 G2 X373.099 Y306.041 I-0.446 J0.401
N19295 G1 X373.089 Y306.24
N19300 X373.065 Y306.439
N19305 X373.029 Y306.638
N19310 X372.98 Y306.837
N19315 X372.916 Y307.036
N19320 X372.901 Y307.078
N19325 X372.838 Y307.236
N19330 X372.743 Y307.435
N19335 X372.702 Y307.511
N19340 X372.63 Y307.634
N19345 X372.503 Y307.824
N19350 X372.496 Y307.833
N19355 X372.338 Y308.032
N19360 X372.304 Y308.071
N19365 X372.151 Y308.231
N19370 X372.104 Y308.275
N19375 X371.926 Y308.43
N19380 X371.905 Y308.446
N19385 X371.706 Y308.59
N19390 X371.646 Y308.629
N19395 X371.507 Y308.712
N19400 X371.308 Y308.815
N19405 X371.279 Y308.828
N19410 X371.109 Y308.9
N19415 X370.91 Y308.969
N19420 X370.711 Y309.024
N19425 X370.694 Y309.027
N19430 X370.512 Y309.064
N19435 X370.313 Y309.091
N19440 X370.113 Y309.105
N19445 X369.914 Y309.107
N19450 X20.086
N19455 X19.887 Y309.105
N19460 X19.687 Y309.091
N19465 X19.488 Y309.064
N19470 X19.306 Y309.027
N19475 X19.289 Y309.024
N19480 X19.09 Y308.969
N19485 X18.891 Y308.9
N19490 X18.721 Y308.828
N19495 X18.692 Y308.815
N19500 X18.493 Y308.712
N19505 X18.354 Y308.629
N19510 X18.294 Y308.59
N19515 X18.095 Y308.446
N19520 X18.074 Y308.43
N19525 X17.896 Y308.275
N19530 X17.849 Y308.231
N19535 X17.696 Y308.071
N19540 X17.662 Y308.032
N19545 X17.504 Y307.833
N19550 X17.497 Y307.824
N19555 X17.37 Y307.634
N19560 X17.298 Y307.511
N19565 X17.257 Y307.435
N19570 X17.162 Y307.236
N19575 X17.099 Y307.078
N19580 X17.084 Y307.036
N19585 X17.02 Y306.837
N19590 X16.971 Y306.638
N19595 X16.935 Y306.439
N19600 X16.911 Y306.24
N19605 X16.901 Y306.041
N19610 G2 X15.702 Y306.105 I-0.599 J0.032
N19615 X16.081 Y306.631 I0.599 J-0.032
N19620 G3 X16.424 Y307.394 I-0.221 J0.558
N19625 X11.251 Y307.796 I-2.677 J-0.977
N19630 G1 X11.241 Y307.777 F1333.33
N19635 G3 X13.561 Y303.574 Z-0.4 I2.505 J-1.36
N19640 G1 X13.581 Y303.572
N19645 X13.886 Y303.555 F4000.
N19650 G3 X16.901 Y306.24 I0.165 J2.85
N19655 G1 X16.913 Y306.439
N19660 X16.937 Y306.638
N19665 X16.974 Y306.837
N19670 X17.024 Y307.036
N19675 X17.089 Y307.236
N19680 X17.099 Y307.263
N19685 X17.169 Y307.435
N19690 X17.265 Y307.634
N19695 X17.298 Y307.695
N19700 X17.379 Y307.833
N19705 X17.497 Y308.008
N19710 X17.514 Y308.032
N19715 X17.674 Y308.231
N19720 X17.696 Y308.256
N19725 X17.864 Y308.43
N19730 X17.896 Y308.46
N19735 X18.092 Y308.629
N19740 X18.095 Y308.631
N19745 X18.294 Y308.775
N19750 X18.376 Y308.828
N19755 X18.493 Y308.897
N19760 X18.692 Y309.
N19765 X18.753 Y309.027
N19770 X18.891 Y309.085
N19775 X19.09 Y309.154
N19780 X19.289 Y309.208
N19785 X19.37 Y309.227
N19790 X19.488 Y309.249
N19795 X19.687 Y309.276
N19800 X19.887 Y309.29
N19805 X20.086 Y309.292
N19810 X369.914
N19815 X370.113 Y309.29
N19820 X370.313 Y309.276
N19825 X370.512 Y309.249
N19830 X370.63 Y309.227
N19835 X370.711 Y309.208
N19840 X370.91 Y309.154
N19845 X371.109 Y309.085
N19850 X371.247 Y309.027
N19855 X371.308 Y309.
N19860 X371.507 Y308.897
N19865 X371.624 Y308.828
N19870 X371.706 Y308.775
N19875 X371.905 Y308.631
N19880 X371.908 Y308.629
N19885 X372.104 Y308.46
N19890 X372.136 Y308.43
N19895 X372.304 Y308.256
N19900 X372.326 Y308.231
N19905 X372.486 Y308.032
N19910 X372.503 Y308.008
N19915 X372.621 Y307.833
N19920 X372.702 Y307.695
N19925 X372.735 Y307.634
N19930 X372.831 Y307.435
N19935 X372.901 Y307.263
N19940 X372.911 Y307.236
N19945 X372.976 Y307.036
N19950 X373.026 Y306.837
N19955 X373.063 Y306.638
N19960 X373.087 Y306.439
N19965 X373.099 Y306.24
N19970 G3 X374.297 Y306.309 I0.599 J0.035
N19975 X373.917 Y306.833 I-0.599 J-0.035
N19980 G2 X373.571 Y307.595 I0.219 J0.559
N19985 X378.741 Y308.02 I2.682 J-0.964
N19990 G1 X378.751 Y308.002 F1333.33
N19995 G2 X376.451 Y303.788 Z-0.6 I-2.499 J-1.371
N20000 G1 X376.43 Y303.786
N20005 X376.126 Y303.767 F4000.
N20010 G2 X373.098 Y306.439 I-0.178 J2.849
N20015 G1 X373.086 Y306.638
N20020 X373.061 Y306.837
N20025 X373.023 Y307.036
N20030 X372.972 Y307.236
N20035 X372.906 Y307.435
N20040 X372.901 Y307.448
N20045 X372.825 Y307.634
N20050 X372.728 Y307.833
N20055 X372.702 Y307.88
N20060 X372.612 Y308.032
N20065 X372.503 Y308.193
N20070 X372.475 Y308.231
N20075 X372.313 Y308.43
N20080 X372.304 Y308.441
N20085 X372.121 Y308.629
N20090 X372.104 Y308.645
N20095 X371.905 Y308.816
N20100 X371.889 Y308.828
N20105 X371.706 Y308.96
N20110 X371.601 Y309.027
N20115 X371.507 Y309.082
N20120 X371.308 Y309.185
N20125 X371.215 Y309.227
N20130 X371.109 Y309.27
N20135 X370.91 Y309.339
N20140 X370.711 Y309.393
N20145 X370.558 Y309.426
N20150 X370.512 Y309.434
N20155 X370.313 Y309.461
N20160 X370.113 Y309.475
N20165 X369.914 Y309.477
N20170 X20.086
N20175 X19.887 Y309.475
N20180 X19.687 Y309.461
N20185 X19.488 Y309.434
N20190 X19.442 Y309.426
N20195 X19.289 Y309.393
N20200 X19.09 Y309.339
N20205 X18.891 Y309.27
N20210 X18.785 Y309.227
N20215 X18.692 Y309.185
N20220 X18.493 Y309.082
N20225 X18.399 Y309.027
N20230 X18.294 Y308.96
N20235 X18.111 Y308.828
N20240 X18.095 Y308.816
N20245 X17.896 Y308.645
N20250 X17.879 Y308.629
N20255 X17.696 Y308.441
N20260 X17.687 Y308.43
N20265 X17.525 Y308.231
N20270 X17.497 Y308.193
N20275 X17.388 Y308.032
N20280 X17.298 Y307.88
N20285 X17.272 Y307.833
N20290 X17.175 Y307.634
N20295 X17.099 Y307.448
N20300 X17.094 Y307.435
N20305 X17.028 Y307.236
N20310 X16.977 Y307.036
N20315 X16.939 Y306.837
N20320 X16.914 Y306.638
N20325 X16.902 Y306.439
N20330 G2 X15.704 Y306.514 I-0.599 J0.037
N20335 X16.086 Y307.036 I0.599 J-0.037
N20340 G3 X16.435 Y307.796 I-0.217 J0.56
N20345 X11.267 Y308.244 I-2.686 J-0.952
N20350 G1 X11.256 Y308.226 F1333.33
N20355 G3 X13.538 Y304.002 Z-0.8 I2.492 J-1.382
N20360 G1 X13.559 Y304.
N20365 X13.863 Y303.98 F4000.
N20370 G3 X16.902 Y306.638 I0.19 J2.849
N20375 G1 X16.915 Y306.837
N20380 X16.941 Y307.036
N20385 X16.98 Y307.236
N20390 X17.033 Y307.435
N20395 X17.099 Y307.633
N20400 Y307.634
N20405 X17.181 Y307.833
N20410 X17.28 Y308.032
N20415 X17.298 Y308.065
N20420 X17.397 Y308.231
N20425 X17.497 Y308.378
N20430 X17.536 Y308.43
N20435 X17.696 Y308.626
N20440 X17.699 Y308.629
N20445 X17.894 Y308.828
N20450 X17.896 Y308.83
N20455 X18.095 Y309.001
N20460 X18.129 Y309.027
N20465 X18.294 Y309.145
N20470 X18.423 Y309.227
N20475 X18.493 Y309.267
N20480 X18.692 Y309.369
N20485 X18.819 Y309.426
N20490 X18.891 Y309.455
N20495 X19.09 Y309.524
N20500 X19.289 Y309.578
N20505 X19.488 Y309.619
N20510 X19.526 Y309.625
N20515 X19.687 Y309.646
N20520 X19.887 Y309.659
N20525 X20.086 Y309.662
N20530 X369.914
N20535 X370.113 Y309.659
N20540 X370.313 Y309.646
N20545 X370.474 Y309.625
N20550 X370.512 Y309.619
N20555 X370.711 Y309.578
N20560 X370.91 Y309.524
N20565 X371.109 Y309.455
N20570 X371.181 Y309.426
N20575 X371.308 Y309.369
N20580 X371.507 Y309.267
N20585 X371.577 Y309.227
N20590 X371.706 Y309.145
N20595 X371.871 Y309.027
N20600 X371.905 Y309.001
N20605 X372.104 Y308.83
N20610 X372.106 Y308.828
N20615 X372.301 Y308.629
N20620 X372.304 Y308.626
N20625 X372.464 Y308.43
N20630 X372.503 Y308.378
N20635 X372.603 Y308.231
N20640 X372.702 Y308.065
N20645 X372.72 Y308.032
N20650 X372.819 Y307.833
N20655 X372.901 Y307.634
N20660 Y307.633
N20665 X372.967 Y307.435
N20670 X373.02 Y307.236
N20675 X373.059 Y307.036
N20680 X373.085 Y306.837
N20685 X373.098 Y306.638
N20690 G3 X374.295 Y306.718 I0.599 J0.04
N20695 X373.952 Y307.221 I-0.599 J-0.04
N20700 G2 X373.661 Y308.011 I0.256 J0.543
N20705 X378.799 Y308.13 I2.598 J-1.172
N20710 G1 X378.809 Y308.112 F1333.33
N20715 G2 X376.346 Y303.99 Z-1. I-2.55 J-1.273
N20720 G1 X376.325
N20725 X376.021 Y303.982 F4000.
N20730 G2 X373.099 Y306.77 I-0.067 J2.854
N20735 G1 Y306.8
N20740 X373.097 Y306.837
N20745 X373.083 Y307.036
N20750 X373.056 Y307.236
N20755 X373.017 Y307.435
N20760 X372.963 Y307.634
N20765 X372.901 Y307.818
N20770 X372.895 Y307.833
N20775 X372.812 Y308.032
N20780 X372.712 Y308.231
N20785 X372.702 Y308.25
N20790 X372.594 Y308.43
N20795 X372.503 Y308.563
N20800 X372.454 Y308.629
N20805 X372.304 Y308.811
N20810 X372.288 Y308.828
N20815 X372.104 Y309.015
N20820 X372.091 Y309.027
N20825 X371.905 Y309.186
N20830 X371.852 Y309.227
N20835 X371.706 Y309.33
N20840 X371.553 Y309.426
N20845 X371.507 Y309.452
N20850 X371.308 Y309.554
N20855 X371.146 Y309.625
N20860 X371.109 Y309.639
N20865 X370.91 Y309.709
N20870 X370.711 Y309.763
N20875 X370.512 Y309.804
N20880 X370.372 Y309.824
N20885 X370.313 Y309.831
N20890 X370.113 Y309.844
N20895 X369.914 Y309.846
N20900 X20.086
N20905 X19.887 Y309.844
N20910 X19.687 Y309.831
N20915 X19.628 Y309.824
N20920 X19.488 Y309.804
N20925 X19.289 Y309.763
N20930 X19.09 Y309.709
N20935 X18.891 Y309.639
N20940 X18.854 Y309.625
N20945 X18.692 Y309.554
N20950 X18.493 Y309.452
N20955 X18.447 Y309.426
N20960 X18.294 Y309.33
N20965 X18.148 Y309.227
N20970 X18.095 Y309.186
N20975 X17.909 Y309.027
N20980 X17.896 Y309.015
N20985 X17.712 Y308.828
N20990 X17.696 Y308.811
N20995 X17.546 Y308.629
N21000 X17.497 Y308.563
N21005 X17.406 Y308.43
N21010 X17.298 Y308.25
N21015 X17.288 Y308.231
N21020 X17.188 Y308.032
N21025 X17.105 Y307.833
N21030 X17.099 Y307.818
N21035 X17.037 Y307.634
N21040 X16.983 Y307.435
N21045 X16.944 Y307.236
N21050 X16.917 Y307.036
N21055 X16.903 Y306.837
N21060 X16.901 Y306.8
N21065 Y306.77
N21070 G2 X15.701 Y306.798 I-0.6 J0.014
N21075 X16.065 Y307.335 I0.6 J-0.014
N21080 G3 X16.385 Y308.111 I-0.236 J0.552
N21085 X11.206 Y308.345 I-2.643 J-1.067
N21090 G1 X11.196 Y308.326 F1333.33
N21095 G3 X13.645 Y304.197 Z-1.2 I2.546 J-1.281
N21100 G1 X13.666 Y304.196
N21105 X13.971 Y304.188 F4000.
N21110 G3 X16.901 Y306.965 I0.076 J2.854
N21115 G1 X16.902 Y306.995
N21120 X16.903 Y307.036
N21125 X16.918 Y307.236
N21130 X16.946 Y307.435
N21135 X16.987 Y307.634
N21140 X17.041 Y307.833
N21145 X17.099 Y308.003
N21150 X17.11 Y308.032
N21155 X17.194 Y308.231
N21160 X17.296 Y308.43
N21165 X17.298 Y308.435
N21170 X17.416 Y308.629
N21175 X17.497 Y308.748
N21180 X17.557 Y308.828
N21185 X17.696 Y308.996
N21190 X17.725 Y309.027
N21195 X17.896 Y309.2
N21200 X17.925 Y309.227
N21205 X18.095 Y309.371
N21210 X18.167 Y309.426
N21215 X18.294 Y309.515
N21220 X18.472 Y309.625
N21225 X18.493 Y309.637
N21230 X18.692 Y309.739
N21235 X18.89 Y309.824
N21240 X18.891
N21245 X19.09 Y309.894
N21250 X19.289 Y309.948
N21255 X19.488 Y309.988
N21260 X19.687 Y310.015
N21265 X19.774 Y310.023
N21270 X19.887 Y310.029
N21275 X20.086 Y310.031
N21280 X369.914
N21285 X370.113 Y310.029
N21290 X370.226 Y310.023
N21295 X370.313 Y310.015
N21300 X370.512 Y309.988
N21305 X370.711 Y309.948
N21310 X370.91 Y309.894
N21315 X371.109 Y309.824
N21320 X371.11
N21325 X371.308 Y309.739
N21330 X371.507 Y309.637
N21335 X371.528 Y309.625
N21340 X371.706 Y309.515
N21345 X371.833 Y309.426
N21350 X371.905 Y309.371
N21355 X372.075 Y309.227
N21360 X372.104 Y309.2
N21365 X372.275 Y309.027
N21370 X372.304 Y308.996
N21375 X372.443 Y308.828
N21380 X372.503 Y308.748
N21385 X372.584 Y308.629
N21390 X372.702 Y308.435
N21395 X372.704 Y308.43
N21400 X372.806 Y308.231
N21405 X372.89 Y308.032
