%
(1001)
(T1  D=6. CR=0. - ZMIN=-8. - FLAT END MILL)
N10 G90 G94 G17 G91.1
N15 G21
N20 G53 G0 Z0.
(2D CONTOUR6)
N25 T1 M6
N30 S24000 M3
N35 G54
N40 G0 X233.037 Y1671.27
N45 G43 Z30. H1
N50 G0 Z5.
N55 G1 Z3.1 F50.
N60 G19 G3 Y1671.87 Z2.5 J0.6 K0.
N65 G1 Y1672.47 F4000.
N70 G17 G2 X233.637 Y1673.07 I0.6 J0.
N75 G1 X362.5 Z-2. F1333.33
N80 X27.5 F4000.
N85 G2 X23.9 Y1676.67 I0. J3.6
N90 G1 Y2097.51
N95 G2 X27.5 Y2101.11 I3.6 J0.
N100 G1 X362.5
N105 G3 X363.1 Y2101.71 I0. J0.6
N110 G1 Y2102.31
N115 G19 G3 Y2102.91 Z-1.4 J0. K0.6
N120 G0 Z5.
N125 X357.1 Y1809.733
N130 G1 Z3.1 F50.
N135 G18 G2 X357.7 Z2.5 I0.6 K0.
N140 G1 X358.3 F4000.
N145 G17 G2 X358.9 Y1809.133 I0. J-0.6
N150 G1 Y1680.27 Z-2. F1333.33
N155 Y2093.91 F4000.
N160 G3 X358.3 Y2094.51 I-0.6 J0.
N165 G1 X357.7
N170 G18 G3 X357.1 Z-1.4 I0. K0.6
N175 G0 Z5.
N180 X357.7 Y1809.133
N185 G1 Z3.1 F50.
N190 G2 X358.3 Z2.5 I0.6 K0.
N195 G1 X358.9 F4000.
N200 G17 G2 X359.5 Y1808.533 I0. J-0.6
N205 G1 Y1679.67 Z-2. F1333.33
N210 Y2094.51 F4000.
N215 G0 Z5.
N220 X233.037 Y1671.87
N225 G1 Z3.1 F50.
N230 G19 G3 Y1672.47 Z2.5 J0.6 K0.
N235 G1 Y1673.07 F4000.
N240 G17 G2 X233.637 Y1673.67 I0.6 J0.
N245 G1 X362.5 Z-2. F1333.33
N250 X27.5 F4000.
N255 G2 X24.5 Y1676.67 I0. J3.
N260 G1 Y2097.51
N265 G2 X27.5 Y2100.51 I3. J0.
N270 G1 X362.5
N275 G3 X363.1 Y2101.11 I0. J0.6
N280 G1 Y2101.71
N285 G19 G3 Y2102.31 Z-1.4 J0. K0.6
N290 G0 Z5.
N295 X357.1 Y1809.733
N300 G1 Z1.1 F50.
N305 G18 G2 X357.7 Z0.5 I0.6 K0.
N310 G1 X358.3 F4000.
N315 G17 G2 X358.9 Y1809.133 I0. J-0.6
N320 G1 Y1680.27 Z-4. F1333.33
N325 Y2093.91 F4000.
N330 G3 X358.3 Y2094.51 I-0.6 J0.
N335 G1 X357.7
N340 G18 G3 X357.1 Z-3.4 I0. K0.6
N345 G0 Z5.
N350 X357.7 Y1809.133
N355 G1 Z1.1 F50.
N360 G2 X358.3 Z0.5 I0.6 K0.
N365 G1 X358.9 F4000.
N370 G17 G2 X359.5 Y1808.533 I0. J-0.6
N375 G1 Y1679.67 Z-4. F1333.33
N380 Y2094.51 F4000.
N385 G0 Z5.
N390 X357.1 Y456.244
N395 G1 Z3.1 F50.
N400 G18 G2 X357.7 Z2.5 I0.6 K0.
N405 G1 X358.3 F4000.
N410 G17 G2 X358.9 Y455.644 I0. J-0.6
N415 G1 Y326.781 Z-2. F1333.33
N420 Y1663.07 F4000.
N425 G3 X358.3 Y1663.67 I-0.6 J0.
N430 G1 X357.7
N435 G18 G3 X357.1 Z-1.4 I0. K0.6
N440 G0 Z5.
N445 X357.7 Y455.644
N450 G1 Z3.1 F50.
N455 G2 X358.3 Z2.5 I0.6 K0.
N460 G1 X358.9 F4000.
N465 G17 G2 X359.5 Y455.044 I0. J-0.6
N470 G1 Y326.181 Z-2. F1333.33
N475 Y1663.67 F4000.
N480 G0 Z5.
N485 X233.037 Y317.781
N490 G1 Z3.1 F50.
N495 G19 G3 Y318.381 Z2.5 J0.6 K0.
N500 G1 Y318.981 F4000.
N505 G17 G2 X233.637 Y319.581 I0.6 J0.
N510 G1 X362.5 Z-2. F1333.33
N515 X27.5 F4000.
N520 G2 X23.9 Y323.181 I0. J3.6
N525 G1 Y1666.67
N530 G2 X27.5 Y1670.27 I3.6 J0.
N535 G1 X362.5
N540 G3 X363.1 Y1670.87 I0. J0.6
N545 G1 Y1671.47
N550 G19 G3 Y1672.07 Z-1.4 J0. K0.6
N555 G0 Z5.
N560 X233.037 Y318.381
N565 G1 Z3.1 F50.
N570 G3 Y318.981 Z2.5 J0.6 K0.
N575 G1 Y319.581 F4000.
N580 G17 G2 X233.637 Y320.181 I0.6 J0.
N585 G1 X362.5 Z-2. F1333.33
N590 X27.5 F4000.
N595 G2 X24.5 Y323.181 I0. J3.
N600 G1 Y1666.67
N605 G2 X27.5 Y1669.67 I3. J0.
N610 G1 X362.5
N615 G3 X363.1 Y1670.27 I0. J0.6
N620 G1 Y1670.87
N625 G19 G3 Y1671.47 Z-1.4 J0. K0.6
N630 G0 Z5.
N635 X233.037 Y1671.27
N640 G1 Z1.1 F50.
N645 G3 Y1671.87 Z0.5 J0.6 K0.
N650 G1 Y1672.47 F4000.
N655 G17 G2 X233.637 Y1673.07 I0.6 J0.
N660 G1 X362.5 Z-4. F1333.33
N665 X27.5 F4000.
N670 G2 X23.9 Y1676.67 I0. J3.6
N675 G1 Y2097.51
N680 G2 X27.5 Y2101.11 I3.6 J0.
N685 G1 X362.5
N690 G3 X363.1 Y2101.71 I0. J0.6
N695 G1 Y2102.31
N700 G19 G3 Y2102.91 Z-3.4 J0. K0.6
N705 G0 Z5.
N710 X233.037 Y1671.87
N715 G1 Z1.1 F50.
N720 G3 Y1672.47 Z0.5 J0.6 K0.
N725 G1 Y1673.07 F4000.
N730 G17 G2 X233.637 Y1673.67 I0.6 J0.
N735 G1 X362.5 Z-4. F1333.33
N740 X27.5 F4000.
N745 G2 X24.5 Y1676.67 I0. J3.
N750 G1 Y2097.51
N755 G2 X27.5 Y2100.51 I3. J0.
N760 G1 X362.5
N765 G3 X363.1 Y2101.11 I0. J0.6
N770 G1 Y2101.71
N775 G19 G3 Y2102.31 Z-3.4 J0. K0.6
N780 G0 Z5.
N785 X357.1 Y1809.733
N790 G1 Z-0.9 F50.
N795 G18 G2 X357.7 Z-1.5 I0.6 K0.
N800 G1 X358.3 F4000.
N805 G17 G2 X358.9 Y1809.133 I0. J-0.6
N810 G1 Y1680.27 Z-6. F1333.33
N815 Y1721.95 F4000.
N820 Z-5.
N825 Y1737.95
N830 Z-6. F50.
N835 Y1891.15 F4000.
N840 Z-5.
N845 Y1907.15
N850 Z-6. F50.
N855 Y2018.18 F4000.
N860 Z-5.
N865 Y2034.18
N870 Z-6. F50.
N875 Y2093.91 F4000.
N880 G3 X358.3 Y2094.51 I-0.6 J0.
N885 G1 X357.7
N890 G18 G3 X357.1 Z-5.4 I0. K0.6
N895 G0 Z5.
N900 X357.7 Y1809.133
N905 G1 Z-0.9 F50.
N910 G2 X358.3 Z-1.5 I0.6 K0.
N915 G1 X358.9 F4000.
N920 G17 G2 X359.5 Y1808.533 I0. J-0.6
N925 G1 Y1679.67 Z-6. F1333.33
N930 Y1721.95 F4000.
N935 Z-5.
N940 Y1737.95
N945 Z-6. F50.
N950 Y1891.15 F4000.
N955 Z-5.
N960 Y1907.15
N965 Z-6. F50.
N970 Y2018.18 F4000.
N975 Z-5.
N980 Y2034.18
N985 Z-6. F50.
N990 Y2094.51 F4000.
N995 G0 Z5.
N1000 X357.1 Y456.244
N1005 G1 Z1.1 F50.
N1010 G18 G2 X357.7 Z0.5 I0.6 K0.
N1015 G1 X358.3 F4000.
N1020 G17 G2 X358.9 Y455.644 I0. J-0.6
N1025 G1 Y326.781 Z-4. F1333.33
N1030 Y1663.07 F4000.
N1035 G3 X358.3 Y1663.67 I-0.6 J0.
N1040 G1 X357.7
N1045 G18 G3 X357.1 Z-3.4 I0. K0.6
N1050 G0 Z5.
N1055 X357.7 Y455.644
N1060 G1 Z1.1 F50.
N1065 G2 X358.3 Z0.5 I0.6 K0.
N1070 G1 X358.9 F4000.
N1075 G17 G2 X359.5 Y455.044 I0. J-0.6
N1080 G1 Y326.181 Z-4. F1333.33
N1085 Y1663.67 F4000.
N1090 G0 Z5.
N1095 X357.1 Y140.554
N1100 G1 Z3.1 F50.
N1105 G18 G2 X357.7 Z2.5 I0.6 K0.
N1110 G1 X358.3 F4000.
N1115 G17 G2 X358.9 Y139.954 I0. J-0.6
N1120 G1 Y11.091 Z-2. F1333.33
N1125 Y309.581 F4000.
N1130 G3 X358.3 Y310.181 I-0.6 J0.
N1135 G1 X357.7
N1140 G18 G3 X357.1 Z-1.4 I0. K0.6
N1145 G0 Z5.
N1150 X357.7 Y139.954
N1155 G1 Z3.1 F50.
N1160 G2 X358.3 Z2.5 I0.6 K0.
N1165 G1 X358.9 F4000.
N1170 G17 G2 X359.5 Y139.354 I0. J-0.6
N1175 G1 Y10.491 Z-2. F1333.33
N1180 Y310.181 F4000.
N1185 G0 Z5.
N1190 X233.037 Y2.091
N1195 G1 Z3.1 F50.
N1200 G19 G3 Y2.691 Z2.5 J0.6 K0.
N1205 G1 Y3.291 F4000.
N1210 G17 G2 X233.637 Y3.891 I0.6 J0.
N1215 G1 X362.5 Z-2. F1333.33
N1220 X27.5 F4000.
N1225 G2 X23.9 Y7.491 I0. J3.6
N1230 G1 Y313.181
N1235 G2 X27.5 Y316.781 I3.6 J0.
N1240 G1 X362.5
N1245 G3 X363.1 Y317.381 I0. J0.6
N1250 G1 Y317.981
N1255 G19 G3 Y318.581 Z-1.4 J0. K0.6
N1260 G0 Z5.
N1265 X233.037 Y2.691
N1270 G1 Z3.1 F50.
N1275 G3 Y3.291 Z2.5 J0.6 K0.
N1280 G1 Y3.891 F4000.
N1285 G17 G2 X233.637 Y4.491 I0.6 J0.
N1290 G1 X362.5 Z-2. F1333.33
N1295 X27.5 F4000.
N1300 G2 X24.5 Y7.491 I0. J3.
N1305 G1 Y313.181
N1310 G2 X27.5 Y316.181 I3. J0.
N1315 G1 X362.5
N1320 G3 X363.1 Y316.781 I0. J0.6
N1325 G1 Y317.381
N1330 G19 G3 Y317.981 Z-1.4 J0. K0.6
N1335 G0 Z5.
N1340 X233.037 Y317.781
N1345 G1 Z1.1 F50.
N1350 G3 Y318.381 Z0.5 J0.6 K0.
N1355 G1 Y318.981 F4000.
N1360 G17 G2 X233.637 Y319.581 I0.6 J0.
N1365 G1 X362.5 Z-4. F1333.33
N1370 X27.5 F4000.
N1375 G2 X23.9 Y323.181 I0. J3.6
N1380 G1 Y1666.67
N1385 G2 X27.5 Y1670.27 I3.6 J0.
N1390 G1 X362.5
N1395 G3 X363.1 Y1670.87 I0. J0.6
N1400 G1 Y1671.47
N1405 G19 G3 Y1672.07 Z-3.4 J0. K0.6
N1410 G0 Z5.
N1415 X233.037 Y318.381
N1420 G1 Z1.1 F50.
N1425 G3 Y318.981 Z0.5 J0.6 K0.
N1430 G1 Y319.581 F4000.
N1435 G17 G2 X233.637 Y320.181 I0.6 J0.
N1440 G1 X362.5 Z-4. F1333.33
N1445 X27.5 F4000.
N1450 G2 X24.5 Y323.181 I0. J3.
N1455 G1 Y1666.67
N1460 G2 X27.5 Y1669.67 I3. J0.
N1465 G1 X362.5
N1470 G3 X363.1 Y1670.27 I0. J0.6
N1475 G1 Y1670.87
N1480 G19 G3 Y1671.47 Z-3.4 J0. K0.6
N1485 G0 Z5.
N1490 X233.037 Y1671.27
N1495 G1 Z-0.9 F50.
N1500 G3 Y1671.87 Z-1.5 J0.6 K0.
N1505 G1 Y1672.47 F4000.
N1510 G17 G2 X233.637 Y1673.07 I0.6 J0.
N1515 G1 X362.5 Z-6. F1333.33
N1520 X204.447 F4000.
N1525 Z-5.
N1530 X187.939
N1535 Z-6. F50.
N1540 X27.5 F4000.
N1545 G2 X23.9 Y1676.67 I0. J3.6
N1550 G1 Y1721.44
N1555 Z-5.
N1560 Y1737.44
N1565 Z-6. F50.
N1570 Y1870.32 F4000.
N1575 Z-5.
N1580 Y1886.32
N1585 Z-6. F50.
N1590 Y2038.51 F4000.
N1595 Z-5.
N1600 Y2054.51
N1605 Z-6. F50.
N1610 Y2097.51 F4000.
N1615 G2 X27.5 Y2101.11 I3.6 J0.
N1620 G1 X362.5
N1625 G3 X363.1 Y2101.71 I0. J0.6
N1630 G1 Y2102.31
N1635 G19 G3 Y2102.91 Z-5.4 J0. K0.6
N1640 G0 Z5.
N1645 X233.037 Y1671.87
N1650 G1 Z-0.9 F50.
N1655 G3 Y1672.47 Z-1.5 J0.6 K0.
N1660 G1 Y1673.07 F4000.
N1665 G17 G2 X233.637 Y1673.67 I0.6 J0.
N1670 G1 X362.5 Z-6. F1333.33
N1675 X204.447 F4000.
N1680 Z-5.
N1685 X187.939
N1690 Z-6. F50.
N1695 X27.5 F4000.
N1700 G2 X24.5 Y1676.67 I0. J3.
N1705 G1 Y1721.44
N1710 Z-5.
N1715 Y1737.44
N1720 Z-6. F50.
N1725 Y1870.32 F4000.
N1730 Z-5.
N1735 Y1886.32
N1740 Z-6. F50.
N1745 Y2038.51 F4000.
N1750 Z-5.
N1755 Y2054.51
N1760 Z-6. F50.
N1765 Y2097.51 F4000.
N1770 G2 X27.5 Y2100.51 I3. J0.
N1775 G1 X362.5
N1780 G3 X363.1 Y2101.11 I0. J0.6
N1785 G1 Y2101.71
N1790 G19 G3 Y2102.31 Z-5.4 J0. K0.6
N1795 G0 Z5.
N1800 X357.1 Y1809.733
N1805 G1 Z-2.9 F50.
N1810 G18 G2 X357.7 Z-3.5 I0.6 K0.
N1815 G1 X358.3 F4000.
N1820 G17 G2 X358.9 Y1809.133 I0. J-0.6
N1825 G1 Y1737.95 Z-5.986 F1333.33
N1830 Z-5.
N1835 Y1721.95
N1840 Z-6.545 F50.
N1845 Y1680.27 Z-8. F1333.33
N1850 Y1721.95 F4000.
N1855 Z-5.
N1860 Y1737.95
N1865 Z-8. F50.
N1870 Y1891.15 F4000.
N1875 Z-5.
N1880 Y1907.15
N1885 Z-8. F50.
N1890 Y2018.18 F4000.
N1895 Z-5.
N1900 Y2034.18
N1905 Z-8. F50.
N1910 Y2093.91 F4000.
N1915 G3 X358.3 Y2094.51 I-0.6 J0.
N1920 G1 X357.7
N1925 G18 G3 X357.1 Z-7.4 I0. K0.6
N1930 G0 Z5.
N1935 X357.7 Y1809.133
N1940 G1 Z-2.9 F50.
N1945 G2 X358.3 Z-3.5 I0.6 K0.
N1950 G1 X358.9 F4000.
N1955 G17 G2 X359.5 Y1808.533 I0. J-0.6
N1960 G1 Y1737.95 Z-5.965 F1333.33
N1965 Z-5.
N1970 Y1721.95
N1975 Z-6.524 F50.
N1980 Y1679.67 Z-8. F1333.33
N1985 Y1721.95 F4000.
N1990 Z-5.
N1995 Y1737.95
N2000 Z-8. F50.
N2005 Y1891.15 F4000.
N2010 Z-5.
N2015 Y1907.15
N2020 Z-8. F50.
N2025 Y2018.18 F4000.
N2030 Z-5.
N2035 Y2034.18
N2040 Z-8. F50.
N2045 Y2094.51 F4000.
N2050 G0 Z5.
N2055 X357.1 Y456.244
N2060 G1 Z-0.9 F50.
N2065 G18 G2 X357.7 Z-1.5 I0.6 K0.
N2070 G1 X358.3 F4000.
N2075 G17 G2 X358.9 Y455.644 I0. J-0.6
N2080 G1 Y326.781 Z-6. F1333.33
N2085 Y557.852 F4000.
N2090 Z-5.
N2095 Y573.852
N2100 Z-6. F50.
N2105 Y768.721 F4000.
N2110 Z-5.
N2115 Y784.721
N2120 Z-6. F50.
N2125 Y1064.45 F4000.
N2130 Z-5.
N2135 Y1080.45
N2140 Z-6. F50.
N2145 Y1340.86 F4000.
N2150 Z-5.
N2155 Y1356.86
N2160 Z-6. F50.
N2165 Y1552.75 F4000.
N2170 Z-5.
N2175 Y1568.75
N2180 Z-6. F50.
N2185 Y1663.07 F4000.
N2190 G3 X358.3 Y1663.67 I-0.6 J0.
N2195 G1 X357.7
N2200 G18 G3 X357.1 Z-5.4 I0. K0.6
N2205 G0 Z5.
N2210 X357.7 Y455.644
N2215 G1 Z-0.9 F50.
N2220 G2 X358.3 Z-1.5 I0.6 K0.
N2225 G1 X358.9 F4000.
N2230 G17 G2 X359.5 Y455.044 I0. J-0.6
N2235 G1 Y326.181 Z-6. F1333.33
N2240 Y557.852 F4000.
N2245 Z-5.
N2250 Y573.852
N2255 Z-6. F50.
N2260 Y768.721 F4000.
N2265 Z-5.
N2270 Y784.721
N2275 Z-6. F50.
N2280 Y1064.45 F4000.
N2285 Z-5.
N2290 Y1080.45
N2295 Z-6. F50.
N2300 Y1340.86 F4000.
N2305 Z-5.
N2310 Y1356.86
N2315 Z-6. F50.
N2320 Y1552.75 F4000.
N2325 Z-5.
N2330 Y1568.75
N2335 Z-6. F50.
N2340 Y1663.67 F4000.
N2345 G0 Z5.
N2350 X357.1 Y140.554
N2355 G1 Z1.1 F50.
N2360 G18 G2 X357.7 Z0.5 I0.6 K0.
N2365 G1 X358.3 F4000.
N2370 G17 G2 X358.9 Y139.954 I0. J-0.6
N2375 G1 Y11.091 Z-4. F1333.33
N2380 Y309.581 F4000.
N2385 G3 X358.3 Y310.181 I-0.6 J0.
N2390 G1 X357.7
N2395 G18 G3 X357.1 Z-3.4 I0. K0.6
N2400 G0 Z5.
N2405 X357.7 Y139.954
N2410 G1 Z1.1 F50.
N2415 G2 X358.3 Z0.5 I0.6 K0.
N2420 G1 X358.9 F4000.
N2425 G17 G2 X359.5 Y139.354 I0. J-0.6
N2430 G1 Y10.491 Z-4. F1333.33
N2435 Y310.181 F4000.
N2440 G0 Z5.
N2445 X233.037 Y2.091
N2450 G1 Z1.1 F50.
N2455 G19 G3 Y2.691 Z0.5 J0.6 K0.
N2460 G1 Y3.291 F4000.
N2465 G17 G2 X233.637 Y3.891 I0.6 J0.
N2470 G1 X362.5 Z-4. F1333.33
N2475 X27.5 F4000.
N2480 G2 X23.9 Y7.491 I0. J3.6
N2485 G1 Y313.181
N2490 G2 X27.5 Y316.781 I3.6 J0.
N2495 G1 X362.5
N2500 G3 X363.1 Y317.381 I0. J0.6
N2505 G1 Y317.981
N2510 G19 G3 Y318.581 Z-3.4 J0. K0.6
N2515 G0 Z5.
N2520 X233.037 Y2.691
N2525 G1 Z1.1 F50.
N2530 G3 Y3.291 Z0.5 J0.6 K0.
N2535 G1 Y3.891 F4000.
N2540 G17 G2 X233.637 Y4.491 I0.6 J0.
N2545 G1 X362.5 Z-4. F1333.33
N2550 X27.5 F4000.
N2555 G2 X24.5 Y7.491 I0. J3.
N2560 G1 Y313.181
N2565 G2 X27.5 Y316.181 I3. J0.
N2570 G1 X362.5
N2575 G3 X363.1 Y316.781 I0. J0.6
N2580 G1 Y317.381
N2585 G19 G3 Y317.981 Z-3.4 J0. K0.6
N2590 G0 Z5.
N2595 X233.037 Y317.781
N2600 G1 Z-0.9 F50.
N2605 G3 Y318.381 Z-1.5 J0.6 K0.
N2610 G1 Y318.981 F4000.
N2615 G17 G2 X233.637 Y319.581 I0.6 J0.
N2620 G1 X362.5 Z-6. F1333.33
N2625 X204.955 F4000.
N2630 Z-5.
N2635 X188.447
N2640 Z-6. F50.
N2645 X27.5 F4000.
N2650 G2 X23.9 Y323.181 I0. J3.6
N2655 G1 Y387.633
N2660 Z-5.
N2665 Y403.633
N2670 Z-6. F50.
N2675 Y600.026 F4000.
N2680 Z-5.
N2685 Y616.026
N2690 Z-6. F50.
N2695 Y811.403 F4000.
N2700 Z-5.
N2705 Y827.403
N2710 Z-6. F50.
N2715 Y1086.8 F4000.
N2720 Z-5.
N2725 Y1102.8
N2730 Z-6. F50.
N2735 Y1341.88 F4000.
N2740 Z-5.
N2745 Y1357.88
N2750 Z-6. F50.
N2755 Y1573.58 F4000.
N2760 Z-5.
N2765 Y1589.58
N2770 Z-6. F50.
N2775 Y1666.67 F4000.
N2780 G2 X27.5 Y1670.27 I3.6 J0.
N2785 G1 X187.939
N2790 Z-5.
N2795 X204.447
N2800 Z-6. F50.
N2805 X362.5 F4000.
N2810 G3 X363.1 Y1670.87 I0. J0.6
N2815 G1 Y1671.47
N2820 G19 G3 Y1672.07 Z-5.4 J0. K0.6
N2825 G0 Z5.
N2830 X233.037 Y318.381
N2835 G1 Z-0.9 F50.
N2840 G3 Y318.981 Z-1.5 J0.6 K0.
N2845 G1 Y319.581 F4000.
N2850 G17 G2 X233.637 Y320.181 I0.6 J0.
N2855 G1 X362.5 Z-6. F1333.33
N2860 X204.955 F4000.
N2865 Z-5.
N2870 X188.447
N2875 Z-6. F50.
N2880 X27.5 F4000.
N2885 G2 X24.5 Y323.181 I0. J3.
N2890 G1 Y387.633
N2895 Z-5.
N2900 Y403.633
N2905 Z-6. F50.
N2910 Y600.026 F4000.
N2915 Z-5.
N2920 Y616.026
N2925 Z-6. F50.
N2930 Y811.403 F4000.
N2935 Z-5.
N2940 Y827.403
N2945 Z-6. F50.
N2950 Y1086.8 F4000.
N2955 Z-5.
N2960 Y1102.8
N2965 Z-6. F50.
N2970 Y1341.88 F4000.
N2975 Z-5.
N2980 Y1357.88
N2985 Z-6. F50.
N2990 Y1573.58 F4000.
N2995 Z-5.
N3000 Y1589.58
N3005 Z-6. F50.
N3010 Y1666.67 F4000.
N3015 G2 X27.5 Y1669.67 I3. J0.
N3020 G1 X187.939
N3025 Z-5.
N3030 X204.447
N3035 Z-6. F50.
N3040 X362.5 F4000.
N3045 G3 X363.1 Y1670.27 I0. J0.6
N3050 G1 Y1670.87
N3055 G19 G3 Y1671.47 Z-5.4 J0. K0.6
N3060 G0 Z5.
N3065 X233.037 Y1671.27
N3070 G1 Z-2.9 F50.
N3075 G3 Y1671.87 Z-3.5 J0.6 K0.
N3080 G1 Y1672.47 F4000.
N3085 G17 G2 X233.637 Y1673.07 I0.6 J0.
N3090 G1 X362.5 Z-8. F1333.33
N3095 X204.447 F4000.
N3100 Z-5.
N3105 X187.939
N3110 Z-8. F50.
N3115 X27.5 F4000.
N3120 G2 X23.9 Y1676.67 I0. J3.6
N3125 G1 Y1721.44
N3130 Z-5.
N3135 Y1737.44
N3140 Z-8. F50.
N3145 Y1870.32 F4000.
N3150 Z-5.
N3155 Y1886.32
N3160 Z-8. F50.
N3165 Y2038.51 F4000.
N3170 Z-5.
N3175 Y2054.51
N3180 Z-8. F50.
N3185 Y2097.51 F4000.
N3190 G2 X27.5 Y2101.11 I3.6 J0.
N3195 G1 X362.5
N3200 G3 X363.1 Y2101.71 I0. J0.6
N3205 G1 Y2102.31
N3210 G19 G3 Y2102.91 Z-7.4 J0. K0.6
N3215 G0 Z5.
N3220 X233.037 Y1671.87
N3225 G1 Z-2.9 F50.
N3230 G3 Y1672.47 Z-3.5 J0.6 K0.
N3235 G1 Y1673.07 F4000.
N3240 G17 G2 X233.637 Y1673.67 I0.6 J0.
N3245 G1 X362.5 Z-8. F1333.33
N3250 X204.447 F4000.
N3255 Z-5.
N3260 X187.939
N3265 Z-8. F50.
N3270 X27.5 F4000.
N3275 G2 X24.5 Y1676.67 I0. J3.
N3280 G1 Y1721.44
N3285 Z-5.
N3290 Y1737.44
N3295 Z-8. F50.
N3300 Y1870.32 F4000.
N3305 Z-5.
N3310 Y1886.32
N3315 Z-8. F50.
N3320 Y2038.51 F4000.
N3325 Z-5.
N3330 Y2054.51
N3335 Z-8. F50.
N3340 Y2097.51 F4000.
N3345 G2 X27.5 Y2100.51 I3. J0.
N3350 G1 X362.5
N3355 G3 X363.1 Y2101.11 I0. J0.6
N3360 G1 Y2101.71
N3365 G19 G3 Y2102.31 Z-7.4 J0. K0.6
N3370 G0 Z5.
N3375 X357.1 Y456.244
N3380 G1 Z-2.9 F50.
N3385 G18 G2 X357.7 Z-3.5 I0.6 K0.
N3390 G1 X358.3 F4000.
N3395 G17 G2 X358.9 Y455.644 I0. J-0.6
N3400 G1 Y326.781 Z-8. F1333.33
N3405 Y557.852 F4000.
N3410 Z-5.
N3415 Y573.852
N3420 Z-8. F50.
N3425 Y768.721 F4000.
N3430 Z-5.
N3435 Y784.721
N3440 Z-8. F50.
N3445 Y1064.45 F4000.
N3450 Z-5.
N3455 Y1080.45
N3460 Z-8. F50.
N3465 Y1340.86 F4000.
N3470 Z-5.
N3475 Y1356.86
N3480 Z-8. F50.
N3485 Y1552.75 F4000.
N3490 Z-5.
N3495 Y1568.75
N3500 Z-8. F50.
N3505 Y1663.07 F4000.
N3510 G3 X358.3 Y1663.67 I-0.6 J0.
N3515 G1 X357.7
N3520 G18 G3 X357.1 Z-7.4 I0. K0.6
N3525 G0 Z5.
N3530 X357.7 Y455.644
N3535 G1 Z-2.9 F50.
N3540 G2 X358.3 Z-3.5 I0.6 K0.
N3545 G1 X358.9 F4000.
N3550 G17 G2 X359.5 Y455.044 I0. J-0.6
N3555 G1 Y326.181 Z-8. F1333.33
N3560 Y557.852 F4000.
N3565 Z-5.
N3570 Y573.852
N3575 Z-8. F50.
N3580 Y768.721 F4000.
N3585 Z-5.
N3590 Y784.721
N3595 Z-8. F50.
N3600 Y1064.45 F4000.
N3605 Z-5.
N3610 Y1080.45
N3615 Z-8. F50.
N3620 Y1340.86 F4000.
N3625 Z-5.
N3630 Y1356.86
N3635 Z-8. F50.
N3640 Y1552.75 F4000.
N3645 Z-5.
N3650 Y1568.75
N3655 Z-8. F50.
N3660 Y1663.67 F4000.
N3665 G0 Z5.
N3670 X357.1 Y140.554
N3675 G1 Z-0.9 F50.
N3680 G18 G2 X357.7 Z-1.5 I0.6 K0.
N3685 G1 X358.3 F4000.
N3690 G17 G2 X358.9 Y139.954 I0. J-0.6
N3695 G1 Y11.091 Z-6. F1333.33
N3700 Y49.226 F4000.
N3705 Z-5.
N3710 Y65.226
N3715 Z-6. F50.
N3720 Y153.899 F4000.
N3725 Z-5.
N3730 Y169.899
N3735 Z-6. F50.
N3740 Y240.279 F4000.
N3745 Z-5.
N3750 Y256.279
N3755 Z-6. F50.
N3760 Y309.581 F4000.
N3765 G3 X358.3 Y310.181 I-0.6 J0.
N3770 G1 X357.7
N3775 G18 G3 X357.1 Z-5.4 I0. K0.6
N3780 G0 Z5.
N3785 X357.7 Y139.954
N3790 G1 Z-0.9 F50.
N3795 G2 X358.3 Z-1.5 I0.6 K0.
N3800 G1 X358.9 F4000.
N3805 G17 G2 X359.5 Y139.354 I0. J-0.6
N3810 G1 Y10.491 Z-6. F1333.33
N3815 Y49.226 F4000.
N3820 Z-5.
N3825 Y65.226
N3830 Z-6. F50.
N3835 Y153.899 F4000.
N3840 Z-5.
N3845 Y169.899
N3850 Z-6. F50.
N3855 Y240.279 F4000.
N3860 Z-5.
N3865 Y256.279
N3870 Z-6. F50.
N3875 Y310.181 F4000.
N3880 G0 Z5.
N3885 X233.037 Y2.091
N3890 G1 Z-0.9 F50.
N3895 G19 G3 Y2.691 Z-1.5 J0.6 K0.
N3900 G1 Y3.291 F4000.
N3905 G17 G2 X233.637 Y3.891 I0.6 J0.
N3910 G1 X362.5 Z-6. F1333.33
N3915 X27.5 F4000.
N3920 G2 X23.9 Y7.491 I0. J3.6
N3925 G1 Y48.718
N3930 Z-5.
N3935 Y64.718
N3940 Z-6. F50.
N3945 Y155.423 F4000.
N3950 Z-5.
N3955 Y171.423
N3960 Z-6. F50.
N3965 Y261.111 F4000.
N3970 Z-5.
N3975 Y277.111
N3980 Z-6. F50.
N3985 Y313.181 F4000.
N3990 G2 X27.5 Y316.781 I3.6 J0.
N3995 G1 X188.447
N4000 Z-5.
N4005 X204.955
N4010 Z-6. F50.
N4015 X362.5 F4000.
N4020 G3 X363.1 Y317.381 I0. J0.6
N4025 G1 Y317.981
N4030 G19 G3 Y318.581 Z-5.4 J0. K0.6
N4035 G0 Z5.
N4040 X233.037 Y2.691
N4045 G1 Z-0.9 F50.
N4050 G3 Y3.291 Z-1.5 J0.6 K0.
N4055 G1 Y3.891 F4000.
N4060 G17 G2 X233.637 Y4.491 I0.6 J0.
N4065 G1 X362.5 Z-6. F1333.33
N4070 X27.5 F4000.
N4075 G2 X24.5 Y7.491 I0. J3.
N4080 G1 Y48.718
N4085 Z-5.
N4090 Y64.718
N4095 Z-6. F50.
N4100 Y155.423 F4000.
N4105 Z-5.
N4110 Y171.423
N4115 Z-6. F50.
N4120 Y261.111 F4000.
N4125 Z-5.
N4130 Y277.111
N4135 Z-6. F50.
N4140 Y313.181 F4000.
N4145 G2 X27.5 Y316.181 I3. J0.
N4150 G1 X188.447
N4155 Z-5.
N4160 X204.955
N4165 Z-6. F50.
N4170 X362.5 F4000.
N4175 G3 X363.1 Y316.781 I0. J0.6
N4180 G1 Y317.381
N4185 G19 G3 Y317.981 Z-5.4 J0. K0.6
N4190 G0 Z5.
N4195 X233.037 Y317.781
N4200 G1 Z-2.9 F50.
N4205 G3 Y318.381 Z-3.5 J0.6 K0.
N4210 G1 Y318.981 F4000.
N4215 G17 G2 X233.637 Y319.581 I0.6 J0.
N4220 G1 X362.5 Z-8. F1333.33
N4225 X204.955 F4000.
N4230 Z-5.
N4235 X188.447
N4240 Z-8. F50.
N4245 X27.5 F4000.
N4250 G2 X23.9 Y323.181 I0. J3.6
N4255 G1 Y387.633
N4260 Z-5.
N4265 Y403.633
N4270 Z-8. F50.
N4275 Y600.026 F4000.
N4280 Z-5.
N4285 Y616.026
N4290 Z-8. F50.
N4295 Y811.403 F4000.
N4300 Z-5.
N4305 Y827.403
N4310 Z-8. F50.
N4315 Y1086.8 F4000.
N4320 Z-5.
N4325 Y1102.8
N4330 Z-8. F50.
N4335 Y1341.88 F4000.
N4340 Z-5.
N4345 Y1357.88
N4350 Z-8. F50.
N4355 Y1573.58 F4000.
N4360 Z-5.
N4365 Y1589.58
N4370 Z-8. F50.
N4375 Y1666.67 F4000.
N4380 G2 X27.5 Y1670.27 I3.6 J0.
N4385 G1 X187.939
N4390 Z-5.
N4395 X204.447
N4400 Z-8. F50.
N4405 X362.5 F4000.
N4410 G3 X363.1 Y1670.87 I0. J0.6
N4415 G1 Y1671.47
N4420 G19 G3 Y1672.07 Z-7.4 J0. K0.6
N4425 G0 Z5.
N4430 X233.037 Y318.381
N4435 G1 Z-2.9 F50.
N4440 G3 Y318.981 Z-3.5 J0.6 K0.
N4445 G1 Y319.581 F4000.
N4450 G17 G2 X233.637 Y320.181 I0.6 J0.
N4455 G1 X362.5 Z-8. F1333.33
N4460 X204.955 F4000.
N4465 Z-5.
N4470 X188.447
N4475 Z-8. F50.
N4480 X27.5 F4000.
N4485 G2 X24.5 Y323.181 I0. J3.
N4490 G1 Y387.633
N4495 Z-5.
N4500 Y403.633
N4505 Z-8. F50.
N4510 Y600.026 F4000.
N4515 Z-5.
N4520 Y616.026
N4525 Z-8. F50.
N4530 Y811.403 F4000.
N4535 Z-5.
N4540 Y827.403
N4545 Z-8. F50.
N4550 Y1086.8 F4000.
N4555 Z-5.
N4560 Y1102.8
N4565 Z-8. F50.
N4570 Y1341.88 F4000.
N4575 Z-5.
N4580 Y1357.88
N4585 Z-8. F50.
N4590 Y1573.58 F4000.
N4595 Z-5.
N4600 Y1589.58
N4605 Z-8. F50.
N4610 Y1666.67 F4000.
N4615 G2 X27.5 Y1669.67 I3. J0.
N4620 G1 X187.939
N4625 Z-5.
N4630 X204.447
N4635 Z-8. F50.
N4640 X362.5 F4000.
N4645 G3 X363.1 Y1670.27 I0. J0.6
N4650 G1 Y1670.87
N4655 G19 G3 Y1671.47 Z-7.4 J0. K0.6
N4660 G0 Z5.
N4665 X357.1 Y140.554
N4670 G1 Z-2.9 F50.
N4675 G18 G2 X357.7 Z-3.5 I0.6 K0.
N4680 G1 X358.3 F4000.
N4685 G17 G2 X358.9 Y139.954 I0. J-0.6
N4690 G1 Y65.226 Z-6.11 F1333.33
N4695 Z-5.
N4700 Y49.226
N4705 Z-6.668 F50.
N4710 Y11.091 Z-8. F1333.33
N4715 Y49.226 F4000.
N4720 Z-5.
N4725 Y65.226
N4730 Z-8. F50.
N4735 Y153.899 F4000.
N4740 Z-5.
N4745 Y169.899
N4750 Z-8. F50.
N4755 Y240.279 F4000.
N4760 Z-5.
N4765 Y256.279
N4770 Z-8. F50.
N4775 Y309.581 F4000.
N4780 G3 X358.3 Y310.181 I-0.6 J0.
N4785 G1 X357.7
N4790 G18 G3 X357.1 Z-7.4 I0. K0.6
N4795 G0 Z5.
N4800 X357.7 Y139.954
N4805 G1 Z-2.9 F50.
N4810 G2 X358.3 Z-3.5 I0.6 K0.
N4815 G1 X358.9 F4000.
N4820 G17 G2 X359.5 Y139.354 I0. J-0.6
N4825 G1 Y65.226 Z-6.089 F1333.33
N4830 Z-5.
N4835 Y49.226
N4840 Z-6.647 F50.
N4845 Y10.491 Z-8. F1333.33
N4850 Y49.226 F4000.
N4855 Z-5.
N4860 Y65.226
N4865 Z-8. F50.
N4870 Y153.899 F4000.
N4875 Z-5.
N4880 Y169.899
N4885 Z-8. F50.
N4890 Y240.279 F4000.
N4895 Z-5.
N4900 Y256.279
N4905 Z-8. F50.
N4910 Y310.181 F4000.
N4915 G0 Z5.
N4920 X233.037 Y2.091
N4925 G1 Z-2.9 F50.
N4930 G19 G3 Y2.691 Z-3.5 J0.6 K0.
N4935 G1 Y3.291 F4000.
N4940 G17 G2 X233.637 Y3.891 I0.6 J0.
N4945 G1 X362.5 Z-8. F1333.33
N4950 X27.5 F4000.
N4955 G2 X23.9 Y7.491 I0. J3.6
N4960 G1 Y48.718
N4965 Z-5.
N4970 Y64.718
N4975 Z-8. F50.
N4980 Y155.423 F4000.
N4985 Z-5.
N4990 Y171.423
N4995 Z-8. F50.
N5000 Y261.111 F4000.
N5005 Z-5.
N5010 Y277.111
N5015 Z-8. F50.
N5020 Y313.181 F4000.
N5025 G2 X27.5 Y316.781 I3.6 J0.
N5030 G1 X188.447
N5035 Z-5.
N5040 X204.955
N5045 Z-8. F50.
N5050 X362.5 F4000.
N5055 G3 X363.1 Y317.381 I0. J0.6
N5060 G1 Y317.981
N5065 G19 G3 Y318.581 Z-7.4 J0. K0.6
N5070 G0 Z5.
N5075 X233.037 Y2.691
N5080 G1 Z-2.9 F50.
N5085 G3 Y3.291 Z-3.5 J0.6 K0.
N5090 G1 Y3.891 F4000.
N5095 G17 G2 X233.637 Y4.491 I0.6 J0.
N5100 G1 X362.5 Z-8. F1333.33
N5105 X27.5 F4000.
N5110 G2 X24.5 Y7.491 I0. J3.
N5115 G1 Y48.718
N5120 Z-5.
N5125 Y64.718
N5130 Z-8. F50.
N5135 Y155.423 F4000.
N5140 Z-5.
N5145 Y171.423
N5150 Z-8. F50.
N5155 Y261.111 F4000.
N5160 Z-5.
N5165 Y277.111
N5170 Z-8. F50.
N5175 Y313.181 F4000.
N5180 G2 X27.5 Y316.181 I3. J0.
N5185 G1 X188.447
N5190 Z-5.
N5195 X204.955
N5200 Z-8. F50.
N5205 X362.5 F4000.
N5210 G3 X363.1 Y316.781 I0. J0.6
N5215 G1 Y317.381
N5220 G19 G3 Y317.981 Z-7.4 J0. K0.6
N5225 G0 Z30.
N5230 G17
(CONTOUR2)
N5235 G0 X366.635 Y15.013
N5240 Z30.
N5245 Z0.633
N5250 G1 Z-0.2 F4000.
N5255 G3 X365.599 Y14.62 I-0.437 J-0.411
N5260 G1 X365.598 Y14.591
N5265 X365.596 Y14.545
N5270 X365.58 Y14.346
N5275 X365.551 Y14.147
N5280 X365.51 Y13.948
N5285 X365.454 Y13.749
N5290 X365.401 Y13.594
N5295 X365.384 Y13.55
N5300 X365.299 Y13.351
N5305 X365.202 Y13.161
N5310 X365.196 Y13.152
N5315 X365.075 Y12.952
N5320 X365.003 Y12.848
N5325 X364.931 Y12.753
N5330 X364.804 Y12.601
N5335 X364.762 Y12.554
N5340 X364.605 Y12.397
N5345 X364.559 Y12.355
N5350 X364.406 Y12.226
N5355 X364.313 Y12.156
N5360 X364.207 Y12.082
N5365 X364.008 Y11.96
N5370 X364.003 Y11.957
N5375 X363.808 Y11.857
N5380 X363.609 Y11.772
N5385 X363.572 Y11.758
N5390 X363.41 Y11.703
N5395 X363.211 Y11.648
N5400 X363.012 Y11.608
N5405 X362.813 Y11.581
N5410 X362.614 Y11.567
N5415 X362.415 Y11.565
N5420 X27.585
N5425 X27.386 Y11.567
N5430 X27.187 Y11.581
N5435 X26.988 Y11.608
N5440 X26.789 Y11.648
N5445 X26.59 Y11.703
N5450 X26.428 Y11.758
N5455 X26.391 Y11.772
N5460 X26.192 Y11.857
N5465 X25.997 Y11.957
N5470 X25.992 Y11.96
N5475 X25.793 Y12.082
N5480 X25.687 Y12.156
N5485 X25.594 Y12.226
N5490 X25.441 Y12.355
N5495 X25.395 Y12.397
N5500 X25.238 Y12.554
N5505 X25.196 Y12.601
N5510 X25.069 Y12.753
N5515 X24.997 Y12.848
N5520 X24.925 Y12.952
N5525 X24.804 Y13.152
N5530 X24.798 Y13.161
N5535 X24.701 Y13.351
N5540 X24.616 Y13.55
N5545 X24.599 Y13.594
N5550 X24.546 Y13.749
N5555 X24.49 Y13.948
N5560 X24.449 Y14.147
N5565 X24.42 Y14.346
N5570 X24.404 Y14.545
N5575 X24.402 Y14.591
N5580 X24.401 Y14.62
N5585 G3 X23.202 Y14.584 I-0.6 J-0.018
N5590 X23.568 Y14.049 I0.6 J0.018
N5595 G2 X23.893 Y13.275 I-0.233 J-0.553
N5600 X18.715 Y13.007 I-2.65 J1.048
N5605 G1 X18.706 Y13.025 F1333.33
N5610 G2 X21.127 Y17.171 Z-0.4 I2.537 J1.298
N5615 G1 X21.148 Y17.172
N5620 X21.453 Y17.182 F4000.
N5625 G2 X24.401 Y14.424 I0.095 J-2.853
N5630 G1 X24.402 Y14.396
N5635 X24.405 Y14.346
N5640 X24.421 Y14.147
N5645 X24.451 Y13.948
N5650 X24.494 Y13.749
N5655 X24.55 Y13.55
N5660 X24.599 Y13.409
N5665 X24.621 Y13.351
N5670 X24.708 Y13.152
N5675 X24.798 Y12.976
N5680 X24.812 Y12.952
N5685 X24.935 Y12.753
N5690 X24.997 Y12.663
N5695 X25.08 Y12.554
N5700 X25.196 Y12.416
N5705 X25.252 Y12.355
N5710 X25.395 Y12.212
N5715 X25.457 Y12.156
N5720 X25.594 Y12.041
N5725 X25.706 Y11.957
N5730 X25.793 Y11.897
N5735 X25.992 Y11.775
N5740 X26.023 Y11.758
N5745 X26.192 Y11.672
N5750 X26.391 Y11.587
N5755 X26.467 Y11.559
N5760 X26.59 Y11.518
N5765 X26.789 Y11.463
N5770 X26.988 Y11.423
N5775 X27.187 Y11.396
N5780 X27.386 Y11.382
N5785 X27.585 Y11.38
N5790 X362.415
N5795 X362.614 Y11.382
N5800 X362.813 Y11.396
N5805 X363.012 Y11.423
N5810 X363.211 Y11.463
N5815 X363.41 Y11.518
N5820 X363.533 Y11.559
N5825 X363.609 Y11.587
N5830 X363.808 Y11.672
N5835 X363.977 Y11.758
N5840 X364.008 Y11.775
N5845 X364.207 Y11.897
N5850 X364.294 Y11.957
N5855 X364.406 Y12.041
N5860 X364.543 Y12.156
N5865 X364.605 Y12.212
N5870 X364.748 Y12.355
N5875 X364.804 Y12.416
N5880 X364.92 Y12.554
N5885 X365.003 Y12.663
N5890 X365.065 Y12.753
N5895 X365.188 Y12.952
N5900 X365.202 Y12.976
N5905 X365.292 Y13.152
N5910 X365.379 Y13.351
N5915 X365.401 Y13.409
N5920 X365.45 Y13.55
N5925 X365.506 Y13.749
N5930 X365.549 Y13.948
N5935 X365.579 Y14.147
N5940 X365.595 Y14.346
N5945 X365.598 Y14.396
N5950 X365.599 Y14.424
N5955 G2 X366.798 Y14.384 I0.6 J-0.02
N5960 X366.43 Y13.85 I-0.6 J0.02
N5965 G3 X366.103 Y13.078 I0.232 J-0.554
N5970 X371.28 Y12.792 I2.654 J1.039
N5975 G1 X371.289 Y12.811 F1333.33
N5980 G3 X368.882 Y16.965 Z-0.6 I-2.533 J1.306
N5985 G1 X368.861 Y16.966
N5990 X368.556 Y16.977 F4000.
N5995 G3 X365.598 Y14.228 I-0.105 J-2.853
N6000 G1 X365.597 Y14.201
N6005 X365.595 Y14.147
N6010 X365.577 Y13.948
N6015 X365.546 Y13.749
N6020 X365.503 Y13.55
N6025 X365.445 Y13.351
N6030 X365.401 Y13.224
N6035 X365.373 Y13.152
N6040 X365.285 Y12.952
N6045 X365.202 Y12.792
N6050 X365.18 Y12.753
N6055 X365.056 Y12.554
N6060 X365.003 Y12.479
N6065 X364.909 Y12.355
N6070 X364.804 Y12.231
N6075 X364.735 Y12.156
N6080 X364.605 Y12.027
N6085 X364.527 Y11.957
N6090 X364.406 Y11.856
N6095 X364.274 Y11.758
N6100 X364.207 Y11.712
N6105 X364.008 Y11.59
N6110 X363.951 Y11.559
N6115 X363.808 Y11.487
N6120 X363.609 Y11.402
N6125 X363.492 Y11.36
N6130 X363.41 Y11.333
N6135 X363.211 Y11.278
N6140 X363.012 Y11.238
N6145 X362.813 Y11.211
N6150 X362.614 Y11.197
N6155 X362.415 Y11.195
N6160 X27.585
N6165 X27.386 Y11.197
N6170 X27.187 Y11.211
N6175 X26.988 Y11.238
N6180 X26.789 Y11.278
N6185 X26.59 Y11.333
N6190 X26.508 Y11.36
N6195 X26.391 Y11.402
N6200 X26.192 Y11.487
N6205 X26.049 Y11.559
N6210 X25.992 Y11.59
N6215 X25.793 Y11.712
N6220 X25.726 Y11.758
N6225 X25.594 Y11.856
N6230 X25.473 Y11.957
N6235 X25.395 Y12.027
N6240 X25.265 Y12.156
N6245 X25.196 Y12.231
N6250 X25.091 Y12.355
N6255 X24.997 Y12.479
N6260 X24.944 Y12.554
N6265 X24.82 Y12.753
N6270 X24.798 Y12.792
N6275 X24.715 Y12.952
N6280 X24.627 Y13.152
N6285 X24.599 Y13.224
N6290 X24.555 Y13.351
N6295 X24.497 Y13.55
N6300 X24.454 Y13.749
N6305 X24.423 Y13.948
N6310 X24.405 Y14.147
N6315 X24.403 Y14.201
N6320 X24.402 Y14.228
N6325 G3 X23.202 Y14.184 I-0.6 J-0.022
N6330 X23.572 Y13.652 I0.6 J0.022
N6335 G2 X23.902 Y12.881 I-0.23 J-0.554
N6340 X18.725 Y12.578 I-2.657 J1.03
N6345 G1 X18.716 Y12.597 F1333.33
N6350 G2 X21.11 Y16.758 Z-0.8 I2.529 J1.315
N6355 G1 X21.131 Y16.759
N6360 X21.435 Y16.771 F4000.
N6365 G2 X24.402 Y14.032 I0.114 J-2.853
N6370 G1 X24.403 Y14.006
N6375 X24.406 Y13.948
N6380 X24.425 Y13.749
N6385 X24.456 Y13.55
N6390 X24.501 Y13.351
N6395 X24.56 Y13.152
N6400 X24.599 Y13.039
N6405 X24.633 Y12.952
N6410 X24.722 Y12.753
N6415 X24.798 Y12.607
N6420 X24.828 Y12.554
N6425 X24.954 Y12.355
N6430 X24.997 Y12.294
N6435 X25.103 Y12.156
N6440 X25.196 Y12.046
N6445 X25.279 Y11.957
N6450 X25.395 Y11.842
N6455 X25.489 Y11.758
N6460 X25.594 Y11.671
N6465 X25.747 Y11.559
N6470 X25.793 Y11.527
N6475 X25.992 Y11.405
N6480 X26.076 Y11.36
N6485 X26.192 Y11.302
N6490 X26.391 Y11.217
N6495 X26.551 Y11.16
N6500 X26.59 Y11.148
N6505 X26.789 Y11.094
N6510 X26.988 Y11.053
N6515 X27.187 Y11.026
N6520 X27.386 Y11.012
N6525 X27.585 Y11.01
N6530 X362.415
N6535 X362.614 Y11.012
N6540 X362.813 Y11.026
N6545 X363.012 Y11.053
N6550 X363.211 Y11.094
N6555 X363.41 Y11.148
N6560 X363.449 Y11.16
N6565 X363.609 Y11.217
N6570 X363.808 Y11.302
N6575 X363.924 Y11.36
N6580 X364.008 Y11.405
N6585 X364.207 Y11.527
N6590 X364.253 Y11.559
N6595 X364.406 Y11.671
N6600 X364.511 Y11.758
N6605 X364.605 Y11.842
N6610 X364.721 Y11.957
N6615 X364.804 Y12.046
N6620 X364.897 Y12.156
N6625 X365.003 Y12.294
N6630 X365.046 Y12.355
N6635 X365.172 Y12.554
N6640 X365.202 Y12.607
N6645 X365.278 Y12.753
N6650 X365.367 Y12.952
N6655 X365.401 Y13.039
N6660 X365.44 Y13.152
N6665 X365.499 Y13.351
N6670 X365.544 Y13.55
N6675 X365.575 Y13.749
N6680 X365.594 Y13.948
N6685 X365.597 Y14.006
N6690 X365.598 Y14.032
N6695 G2 X366.797 Y13.985 I0.6 J-0.024
N6700 X366.431 Y13.456 I-0.6 J0.024
N6705 G3 X366.107 Y12.682 I0.233 J-0.553
N6710 X371.274 Y12.398 I2.649 J1.051
N6715 G1 X371.284 Y12.417 F1333.33
N6720 G3 X368.892 Y16.58 Z-1. I-2.528 J1.316
N6725 G1 X368.871
N6730 X368.566 Y16.593 F4000.
N6735 G3 X365.598 Y13.855 I-0.115 J-2.853
N6740 G1 X365.596 Y13.811
N6745 X365.593 Y13.749
N6750 X365.573 Y13.55
N6755 X365.541 Y13.351
N6760 X365.495 Y13.152
N6765 X365.436 Y12.952
N6770 X365.401 Y12.854
N6775 X365.362 Y12.753
N6780 X365.271 Y12.554
N6785 X365.202 Y12.422
N6790 X365.164 Y12.355
N6795 X365.036 Y12.156
N6800 X365.003 Y12.109
N6805 X364.886 Y11.957
N6810 X364.804 Y11.861
N6815 X364.708 Y11.758
N6820 X364.605 Y11.657
N6825 X364.494 Y11.559
N6830 X364.406 Y11.486
N6835 X364.233 Y11.36
N6840 X364.207 Y11.342
N6845 X364.008 Y11.22
N6850 X363.896 Y11.16
N6855 X363.808 Y11.118
N6860 X363.609 Y11.032
N6865 X363.41 Y10.963
N6870 X363.404 Y10.961
N6875 X363.211 Y10.909
N6880 X363.012 Y10.868
N6885 X362.813 Y10.841
N6890 X362.614 Y10.827
N6895 X362.415 Y10.825
N6900 X27.585
N6905 X27.386 Y10.827
N6910 X27.187 Y10.841
N6915 X26.988 Y10.868
N6920 X26.789 Y10.909
N6925 X26.596 Y10.961
N6930 X26.59 Y10.963
N6935 X26.391 Y11.032
N6940 X26.192 Y11.118
N6945 X26.104 Y11.16
N6950 X25.992 Y11.22
N6955 X25.793 Y11.342
N6960 X25.767 Y11.36
N6965 X25.594 Y11.486
N6970 X25.506 Y11.559
N6975 X25.395 Y11.657
N6980 X25.292 Y11.758
N6985 X25.196 Y11.861
N6990 X25.114 Y11.957
N6995 X24.997 Y12.109
N7000 X24.964 Y12.156
N7005 X24.836 Y12.355
N7010 X24.798 Y12.422
N7015 X24.729 Y12.554
N7020 X24.638 Y12.753
N7025 X24.599 Y12.854
N7030 X24.564 Y12.952
N7035 X24.505 Y13.152
N7040 X24.459 Y13.351
N7045 X24.427 Y13.55
N7050 X24.407 Y13.749
N7055 X24.404 Y13.811
N7060 X24.402 Y13.855
N7065 G3 X23.203 Y13.807 I-0.6 J-0.024
N7070 X23.549 Y13.287 I0.6 J0.024
N7075 G2 X23.844 Y12.498 I-0.253 J-0.544
N7080 X18.709 Y12.353 I-2.602 J1.162
N7085 G1 X18.699 Y12.372 F1333.33
N7090 G2 X21.136 Y16.509 Z-1.2 I2.542 J1.289
N7095 G1 X21.157
N7100 X21.462 Y16.518 F4000.
N7105 G2 X24.4 Y13.749 I0.084 J-2.854
N7110 G1 X24.404 Y13.616
N7115 X24.408 Y13.55
N7120 X24.429 Y13.351
N7125 X24.462 Y13.152
N7130 X24.509 Y12.952
N7135 X24.569 Y12.753
N7140 X24.599 Y12.669
N7145 X24.644 Y12.554
N7150 X24.736 Y12.355
N7155 X24.798 Y12.237
N7160 X24.845 Y12.156
N7165 X24.974 Y11.957
N7170 X24.997 Y11.924
N7175 X25.126 Y11.758
N7180 X25.196 Y11.676
N7185 X25.306 Y11.559
N7190 X25.395 Y11.472
N7195 X25.523 Y11.36
N7200 X25.594 Y11.301
N7205 X25.788 Y11.16
N7210 X25.793 Y11.157
N7215 X25.992 Y11.035
N7220 X26.132 Y10.961
N7225 X26.192 Y10.933
N7230 X26.391 Y10.848
N7235 X26.59 Y10.778
N7240 X26.643 Y10.762
N7245 X26.789 Y10.724
N7250 X26.988 Y10.683
N7255 X27.187 Y10.656
N7260 X27.386 Y10.643
N7265 X27.585 Y10.64
N7270 X362.415
N7275 X362.614 Y10.643
N7280 X362.813 Y10.656
N7285 X363.012 Y10.683
N7290 X363.211 Y10.724
N7295 X363.357 Y10.762
N7300 X363.41 Y10.778
N7305 X363.609 Y10.848
N7310 X363.808 Y10.933
N7315 X363.868 Y10.961
N7320 X364.008 Y11.035
N7325 X364.207 Y11.157
N7330 X364.212 Y11.16
N7335 X364.406 Y11.301
N7340 X364.477 Y11.36
N7345 X364.605 Y11.472
N7350 X364.694 Y11.559
N7355 X364.804 Y11.676
N7360 X364.874 Y11.758
N7365 X365.003 Y11.924
N7370 X365.026 Y11.957
N7375 X365.155 Y12.156
N7380 X365.202 Y12.237
N7385 X365.264 Y12.355
N7390 X365.356 Y12.554
N7395 X365.401 Y12.669
N7400 X365.431 Y12.753
N7405 X365.491 Y12.952
N7410 X365.538 Y13.152
N7415 X365.571 Y13.351
N7420 X365.592 Y13.55
N7425 X365.596 Y13.616
N7430 X365.6 Y13.749
N7435 G2 X366.799 Y13.713 I0.6 J-0.018
N7440 X366.426 Y13.175 I-0.6 J0.018
N7445 G3 X366.09 Y12.408 I0.226 J-0.556
N7450 X371.27 Y12.069 I2.666 J1.007
N7455 G1 X371.279 Y12.088 F1333.33
N7460 G3 X368.904 Y16.26 Z-1.4 I-2.523 J1.326
N7465 G1 X368.884 Y16.261
N7470 X368.579 Y16.275 F4000.
N7475 G3 X365.6 Y13.55 I-0.127 J-2.852
N7480 G1 X365.591 Y13.351
N7485 X365.569 Y13.152
N7490 X365.535 Y12.952
N7495 X365.488 Y12.753
N7500 X365.426 Y12.554
N7505 X365.401 Y12.484
N7510 X365.35 Y12.355
N7515 X365.257 Y12.156
N7520 X365.202 Y12.052
N7525 X365.147 Y11.957
N7530 X365.016 Y11.758
N7535 X365.003 Y11.739
N7540 X364.862 Y11.559
N7545 X364.804 Y11.491
N7550 X364.679 Y11.36
N7555 X364.605 Y11.287
N7560 X364.46 Y11.16
N7565 X364.406 Y11.117
N7570 X364.207 Y10.972
N7575 X364.19 Y10.961
N7580 X364.008 Y10.85
N7585 X363.839 Y10.762
N7590 X363.808 Y10.748
N7595 X363.609 Y10.663
N7600 X363.41 Y10.593
N7605 X363.306 Y10.563
N7610 X363.211 Y10.539
N7615 X363.012 Y10.499
N7620 X362.813 Y10.472
N7625 X362.614 Y10.458
N7630 X362.415 Y10.456
N7635 X27.585
N7640 X27.386 Y10.458
N7645 X27.187 Y10.472
N7650 X26.988 Y10.499
N7655 X26.789 Y10.539
N7660 X26.694 Y10.563
N7665 X26.59 Y10.593
N7670 X26.391 Y10.663
N7675 X26.192 Y10.748
N7680 X26.161 Y10.762
N7685 X25.992 Y10.85
N7690 X25.81 Y10.961
N7695 X25.793 Y10.972
N7700 X25.594 Y11.117
N7705 X25.54 Y11.16
N7710 X25.395 Y11.287
N7715 X25.321 Y11.36
N7720 X25.196 Y11.491
N7725 X25.138 Y11.559
N7730 X24.997 Y11.739
N7735 X24.984 Y11.758
N7740 X24.853 Y11.957
N7745 X24.798 Y12.052
N7750 X24.743 Y12.156
N7755 X24.65 Y12.355
N7760 X24.599 Y12.484
N7765 X24.574 Y12.554
N7770 X24.512 Y12.753
N7775 X24.465 Y12.952
N7780 X24.431 Y13.152
N7785 X24.409 Y13.351
N7790 X24.4 Y13.55
N7795 G3 X23.201 Y13.496 I-0.599 J-0.027
N7800 X23.576 Y12.967 I0.599 J0.027
N7805 G2 X23.912 Y12.2 I-0.225 J-0.556
N7810 X18.737 Y11.845 I-2.668 J1.001
N7815 G1 X18.727 Y11.863 F1333.33
N7820 G2 X21.084 Y16.047 Z-1.6 I2.517 J1.338
N7825 G1 X21.105 Y16.048
N7830 X21.409 Y16.063 F4000.
N7835 G2 X24.4 Y13.351 I0.14 J-2.852
N7840 G1 X24.41 Y13.152
N7845 X24.433 Y12.952
N7850 X24.468 Y12.753
N7855 X24.516 Y12.554
N7860 X24.579 Y12.355
N7865 X24.599 Y12.299
N7870 X24.656 Y12.156
N7875 X24.75 Y11.957
N7880 X24.798 Y11.867
N7885 X24.862 Y11.758
N7890 X24.994 Y11.559
N7895 X24.997 Y11.554
N7900 X25.15 Y11.36
N7905 X25.196 Y11.306
N7910 X25.335 Y11.16
N7915 X25.395 Y11.103
N7920 X25.557 Y10.961
N7925 X25.594 Y10.932
N7930 X25.793 Y10.787
N7935 X25.832 Y10.762
N7940 X25.992 Y10.665
N7945 X26.191 Y10.563
N7950 X26.192
N7955 X26.391 Y10.478
N7960 X26.59 Y10.409
N7965 X26.748 Y10.364
N7970 X26.789 Y10.354
N7975 X26.988 Y10.314
N7980 X27.187 Y10.287
N7985 X27.386 Y10.273
N7990 X27.585 Y10.271
N7995 X362.415
N8000 X362.614 Y10.273
N8005 X362.813 Y10.287
N8010 X363.012 Y10.314
N8015 X363.211 Y10.354
N8020 X363.252 Y10.364
N8025 X363.41 Y10.409
N8030 X363.609 Y10.478
N8035 X363.808 Y10.563
N8040 X363.809
N8045 X364.008 Y10.665
N8050 X364.168 Y10.762
N8055 X364.207 Y10.787
N8060 X364.406 Y10.932
N8065 X364.443 Y10.961
N8070 X364.605 Y11.103
N8075 X364.665 Y11.16
N8080 X364.804 Y11.306
N8085 X364.85 Y11.36
N8090 X365.003 Y11.554
N8095 X365.006 Y11.559
N8100 X365.138 Y11.758
N8105 X365.202 Y11.867
N8110 X365.25 Y11.957
N8115 X365.344 Y12.156
N8120 X365.401 Y12.299
N8125 X365.421 Y12.355
N8130 X365.484 Y12.554
N8135 X365.532 Y12.753
N8140 X365.567 Y12.952
N8145 X365.59 Y13.152
N8150 X365.6 Y13.351
N8155 G2 X366.798 Y13.292 I0.599 J-0.029
N8160 X366.422 Y12.764 I-0.599 J0.029
N8165 G3 X366.082 Y11.999 I0.223 J-0.557
N8170 X371.256 Y11.621 I2.673 J0.989
N8175 G1 X371.266 Y11.639 F1333.33
N8180 G3 X368.928 Y15.833 Z-1.8 I-2.511 J1.349
N8185 G1 X368.907 Y15.834
N8190 X368.603 Y15.85 F4000.
N8195 G3 X365.599 Y13.152 I-0.152 J-2.851
N8200 G1 X365.589 Y12.952
N8205 X365.565 Y12.753
N8210 X365.529 Y12.554
N8215 X365.48 Y12.355
N8220 X365.416 Y12.156
N8225 X365.401 Y12.115
N8230 X365.337 Y11.957
N8235 X365.243 Y11.758
N8240 X365.202 Y11.682
N8245 X365.129 Y11.559
N8250 X365.003 Y11.369
N8255 X364.996 Y11.36
N8260 X364.838 Y11.16
N8265 X364.804 Y11.121
N8270 X364.651 Y10.961
N8275 X364.605 Y10.918
N8280 X364.425 Y10.762
N8285 X364.406 Y10.747
N8290 X364.207 Y10.603
N8295 X364.146 Y10.563
N8300 X364.008 Y10.481
N8305 X363.808 Y10.378
N8310 X363.778 Y10.364
N8315 X363.609 Y10.293
N8320 X363.41 Y10.224
N8325 X363.211 Y10.169
N8330 X363.193 Y10.165
N8335 X363.012 Y10.129
N8340 X362.813 Y10.102
N8345 X362.614 Y10.088
N8350 X362.415 Y10.086
N8355 X27.585
N8360 X27.386 Y10.088
N8365 X27.187 Y10.102
N8370 X26.988 Y10.129
N8375 X26.807 Y10.165
N8380 X26.789 Y10.169
N8385 X26.59 Y10.224
N8390 X26.391 Y10.293
N8395 X26.222 Y10.364
N8400 X26.192 Y10.378
N8405 X25.992 Y10.481
N8410 X25.854 Y10.563
N8415 X25.793 Y10.603
N8420 X25.594 Y10.747
N8425 X25.575 Y10.762
N8430 X25.395 Y10.918
N8435 X25.349 Y10.961
N8440 X25.196 Y11.121
N8445 X25.162 Y11.16
N8450 X25.004 Y11.36
N8455 X24.997 Y11.369
N8460 X24.871 Y11.559
N8465 X24.798 Y11.682
N8470 X24.757 Y11.758
N8475 X24.663 Y11.957
N8480 X24.599 Y12.115
N8485 X24.584 Y12.156
N8490 X24.52 Y12.355
N8495 X24.471 Y12.554
N8500 X24.435 Y12.753
N8505 X24.411 Y12.952
N8510 X24.401 Y13.152
N8515 G3 X23.202 Y13.087 I-0.599 J-0.032
N8520 X23.581 Y12.562 I0.599 J0.032
N8525 G2 X23.924 Y11.798 I-0.221 J-0.558
N8530 X18.752 Y11.396 I-2.678 J0.976
N8535 G1 X18.742 Y11.414 F1333.33
N8540 G2 X21.06 Y15.618 Z-2. I2.505 J1.36
N8545 G1 X21.081 Y15.62
N8550 X21.386 Y15.637 F4000.
N8555 G2 X24.401 Y12.952 I0.165 J-2.85
N8560 G1 X24.413 Y12.753
N8565 X24.437 Y12.554
N8570 X24.474 Y12.355
N8575 X24.524 Y12.156
N8580 X24.589 Y11.957
N8585 X24.599 Y11.93
N8590 X24.669 Y11.758
N8595 X24.765 Y11.559
N8600 X24.798 Y11.497
N8605 X24.879 Y11.36
N8610 X24.997 Y11.184
N8615 X25.015 Y11.16
N8620 X25.174 Y10.961
N8625 X25.196 Y10.937
N8630 X25.364 Y10.762
N8635 X25.395 Y10.733
N8640 X25.593 Y10.563
N8645 X25.594 Y10.562
N8650 X25.793 Y10.418
N8655 X25.877 Y10.364
N8660 X25.992 Y10.296
N8665 X26.192 Y10.193
N8670 X26.253 Y10.165
N8675 X26.391 Y10.108
N8680 X26.59 Y10.039
N8685 X26.789 Y9.984
N8690 X26.872 Y9.966
N8695 X26.988 Y9.944
N8700 X27.187 Y9.917
N8705 X27.386 Y9.903
N8710 X27.585 Y9.901
N8715 X362.415
N8720 X362.614 Y9.903
N8725 X362.813 Y9.917
N8730 X363.012 Y9.944
N8735 X363.128 Y9.966
N8740 X363.211 Y9.984
N8745 X363.41 Y10.039
N8750 X363.609 Y10.108
N8755 X363.747 Y10.165
N8760 X363.808 Y10.193
N8765 X364.008 Y10.296
N8770 X364.123 Y10.364
N8775 X364.207 Y10.418
N8780 X364.406 Y10.562
N8785 X364.407 Y10.563
N8790 X364.605 Y10.733
N8795 X364.636 Y10.762
N8800 X364.804 Y10.937
N8805 X364.826 Y10.961
N8810 X364.985 Y11.16
N8815 X365.003 Y11.184
N8820 X365.121 Y11.36
N8825 X365.202 Y11.497
N8830 X365.235 Y11.559
N8835 X365.331 Y11.758
N8840 X365.401 Y11.93
N8845 X365.411 Y11.957
N8850 X365.476 Y12.156
N8855 X365.526 Y12.355
N8860 X365.563 Y12.554
N8865 X365.587 Y12.753
N8870 X365.599 Y12.952
N8875 G2 X366.797 Y12.883 I0.599 J-0.035
N8880 X366.417 Y12.359 I-0.599 J0.035
N8885 G3 X366.071 Y11.597 I0.219 J-0.559
N8890 X371.241 Y11.172 I2.682 J0.964
N8895 G1 X371.251 Y11.19 F1333.33
N8900 G3 X368.951 Y15.404 Z-2.2 I-2.498 J1.371
N8905 G1 X368.93 Y15.406
N8910 X368.626 Y15.425 F4000.
N8915 G3 X365.598 Y12.753 I-0.178 J-2.849
N8920 G1 X365.586 Y12.554
N8925 X365.561 Y12.355
N8930 X365.523 Y12.156
N8935 X365.471 Y11.957
N8940 X365.406 Y11.758
N8945 X365.401 Y11.745
N8950 X365.325 Y11.559
N8955 X365.228 Y11.36
N8960 X365.202 Y11.313
N8965 X365.112 Y11.16
N8970 X365.003 Y11.
N8975 X364.975 Y10.961
N8980 X364.813 Y10.762
N8985 X364.804 Y10.752
N8990 X364.621 Y10.563
N8995 X364.605 Y10.548
N9000 X364.406 Y10.377
N9005 X364.389 Y10.364
N9010 X364.207 Y10.233
N9015 X364.1 Y10.165
N9020 X364.008 Y10.111
N9025 X363.808 Y10.008
N9030 X363.714 Y9.966
N9035 X363.609 Y9.923
N9040 X363.41 Y9.854
N9045 X363.211 Y9.799
N9050 X363.056 Y9.767
N9055 X363.012 Y9.759
N9060 X362.813 Y9.732
N9065 X362.614 Y9.718
N9070 X362.415 Y9.716
N9075 X27.585
N9080 X27.386 Y9.718
N9085 X27.187 Y9.732
N9090 X26.988 Y9.759
N9095 X26.944 Y9.767
N9100 X26.789 Y9.799
N9105 X26.59 Y9.854
N9110 X26.391 Y9.923
N9115 X26.286 Y9.966
N9120 X26.192 Y10.008
N9125 X25.992 Y10.111
N9130 X25.9 Y10.165
N9135 X25.793 Y10.233
N9140 X25.611 Y10.364
N9145 X25.594 Y10.377
N9150 X25.395 Y10.548
N9155 X25.379 Y10.563
N9160 X25.196 Y10.752
N9165 X25.187 Y10.762
N9170 X25.025 Y10.961
N9175 X24.997 Y11.
N9180 X24.888 Y11.16
N9185 X24.798 Y11.313
N9190 X24.772 Y11.36
N9195 X24.675 Y11.559
N9200 X24.599 Y11.745
N9205 X24.594 Y11.758
N9210 X24.529 Y11.957
N9215 X24.477 Y12.156
N9220 X24.439 Y12.355
N9225 X24.414 Y12.554
N9230 X24.402 Y12.753
N9235 G3 X23.204 Y12.679 I-0.599 J-0.037
N9240 X23.586 Y12.156 I0.599 J0.037
N9245 G2 X23.935 Y11.396 I-0.217 J-0.56
N9250 X18.767 Y10.947 I-2.686 J0.952
N9255 G1 X18.756 Y10.966 F1333.33
N9260 G2 X21.037 Y15.19 Z-2.4 I2.492 J1.382
N9265 G1 X21.058 Y15.192
N9270 X21.363 Y15.212 F4000.
N9275 G2 X24.402 Y12.554 I0.191 J-2.849
N9280 G1 X24.415 Y12.355
N9285 X24.441 Y12.156
N9290 X24.48 Y11.957
N9295 X24.533 Y11.758
N9300 X24.599 Y11.56
N9305 Y11.559
N9310 X24.681 Y11.36
N9315 X24.78 Y11.16
N9320 X24.798 Y11.128
N9325 X24.897 Y10.961
N9330 X24.997 Y10.815
N9335 X25.036 Y10.762
N9340 X25.196 Y10.567
N9345 X25.2 Y10.563
N9350 X25.394 Y10.364
N9355 X25.395 Y10.363
N9360 X25.594 Y10.192
N9365 X25.63 Y10.165
N9370 X25.793 Y10.048
N9375 X25.924 Y9.966
N9380 X25.992 Y9.926
N9385 X26.192 Y9.823
N9390 X26.32 Y9.767
N9395 X26.391 Y9.738
N9400 X26.59 Y9.669
N9405 X26.789 Y9.615
N9410 X26.988 Y9.574
N9415 X27.028 Y9.568
N9420 X27.187 Y9.547
N9425 X27.386 Y9.533
N9430 X27.585 Y9.531
N9435 X362.415
N9440 X362.614 Y9.533
N9445 X362.813 Y9.547
N9450 X362.972 Y9.568
N9455 X363.012 Y9.574
N9460 X363.211 Y9.615
N9465 X363.41 Y9.669
N9470 X363.609 Y9.738
N9475 X363.68 Y9.767
N9480 X363.808 Y9.823
N9485 X364.008 Y9.926
N9490 X364.076 Y9.966
N9495 X364.207 Y10.048
N9500 X364.37 Y10.165
N9505 X364.406 Y10.192
N9510 X364.605 Y10.363
N9515 X364.606 Y10.364
N9520 X364.8 Y10.563
N9525 X364.804 Y10.567
N9530 X364.964 Y10.762
N9535 X365.003 Y10.815
N9540 X365.103 Y10.961
N9545 X365.202 Y11.128
N9550 X365.22 Y11.16
N9555 X365.319 Y11.36
N9560 X365.401 Y11.559
N9565 Y11.56
N9570 X365.467 Y11.758
N9575 X365.52 Y11.957
N9580 X365.559 Y12.156
N9585 X365.585 Y12.355
N9590 X365.598 Y12.554
N9595 G2 X366.795 Y12.474 I0.599 J-0.04
N9600 X366.452 Y11.971 I-0.599 J0.04
N9605 G3 X366.161 Y11.182 I0.255 J-0.543
N9610 X371.299 Y11.062 I2.598 J1.172
N9615 G1 X371.309 Y11.08 F1333.33
N9620 G3 X368.847 Y15.202 Z-2.6 I-2.55 J1.273
N9625 G1 X368.826 Y15.203
N9630 X368.521 Y15.21 F4000.
N9635 G3 X365.599 Y12.423 I-0.067 J-2.854
N9640 G1 Y12.392
N9645 X365.597 Y12.355
N9650 X365.583 Y12.156
N9655 X365.556 Y11.957
N9660 X365.516 Y11.758
N9665 X365.463 Y11.559
N9670 X365.401 Y11.375
N9675 X365.395 Y11.36
N9680 X365.312 Y11.16
N9685 X365.212 Y10.961
N9690 X365.202 Y10.943
N9695 X365.093 Y10.762
N9700 X365.003 Y10.63
N9705 X364.953 Y10.563
N9710 X364.804 Y10.382
N9715 X364.788 Y10.364
N9720 X364.605 Y10.178
N9725 X364.59 Y10.165
N9730 X364.406 Y10.007
N9735 X364.352 Y9.966
N9740 X364.207 Y9.863
N9745 X364.052 Y9.767
N9750 X364.008 Y9.741
N9755 X363.808 Y9.639
N9760 X363.645 Y9.568
N9765 X363.609 Y9.553
N9770 X363.41 Y9.484
N9775 X363.211 Y9.43
N9780 X363.012 Y9.389
N9785 X362.869 Y9.368
N9790 X362.813 Y9.362
N9795 X362.614 Y9.348
N9800 X362.415 Y9.346
N9805 X27.585
N9810 X27.386 Y9.348
N9815 X27.187 Y9.362
N9820 X27.131 Y9.368
N9825 X26.988 Y9.389
N9830 X26.789 Y9.43
N9835 X26.59 Y9.484
N9840 X26.391 Y9.553
N9845 X26.355 Y9.568
N9850 X26.192 Y9.639
N9855 X25.992 Y9.741
N9860 X25.948 Y9.767
N9865 X25.793 Y9.863
N9870 X25.648 Y9.966
N9875 X25.594 Y10.007
N9880 X25.41 Y10.165
N9885 X25.395 Y10.178
N9890 X25.212 Y10.364
N9895 X25.196 Y10.382
N9900 X25.047 Y10.563
N9905 X24.997 Y10.63
N9910 X24.907 Y10.762
N9915 X24.798 Y10.943
N9920 X24.788 Y10.961
N9925 X24.688 Y11.16
N9930 X24.605 Y11.36
N9935 X24.599 Y11.375
N9940 X24.537 Y11.559
N9945 X24.484 Y11.758
N9950 X24.444 Y11.957
N9955 X24.417 Y12.156
N9960 X24.403 Y12.355
N9965 X24.401 Y12.392
N9970 Y12.423
N9975 G3 X23.201 Y12.395 I-0.6 J-0.014
N9980 X23.565 Y11.857 I0.6 J0.014
N9985 G2 X23.885 Y11.081 I-0.236 J-0.552
N9990 X18.706 Y10.847 I-2.643 J1.066
N9995 G1 X18.696 Y10.866 F1333.33
N10000 G2 X21.144 Y14.996 Z-2.8 I2.546 J1.282
N10005 G1 X21.165
N10010 X21.47 Y15.004 F4000.
N10015 G2 X24.401 Y12.227 I0.077 J-2.854
N10020 G1 X24.402 Y12.197
N10025 X24.403 Y12.156
N10030 X24.418 Y11.957
N10035 X24.446 Y11.758
N10040 X24.487 Y11.559
N10045 X24.541 Y11.36
N10050 X24.599 Y11.19
N10055 X24.61 Y11.16
N10060 X24.695 Y10.961
N10065 X24.796 Y10.762
N10070 X24.798 Y10.758
N10075 X24.916 Y10.563
N10080 X24.997 Y10.445
N10085 X25.058 Y10.364
N10090 X25.196 Y10.197
N10095 X25.225 Y10.165
N10100 X25.395 Y9.993
N10105 X25.425 Y9.966
N10110 X25.594 Y9.822
N10115 X25.667 Y9.767
N10120 X25.793 Y9.678
N10125 X25.972 Y9.568
N10130 X25.992 Y9.556
N10135 X26.192 Y9.454
N10140 X26.391 Y9.369
N10145 Y9.368
N10150 X26.59 Y9.299
N10155 X26.789 Y9.245
N10160 X26.988 Y9.204
N10165 X27.187 Y9.177
N10170 X27.279 Y9.169
N10175 X27.386 Y9.164
N10180 X27.585 Y9.161
N10185 X362.415
N10190 X362.614 Y9.164
N10195 X362.721 Y9.169
N10200 X362.813 Y9.177
N10205 X363.012 Y9.204
N10210 X363.211 Y9.245
N10215 X363.41 Y9.299
N10220 X363.609 Y9.368
N10225 Y9.369
N10230 X363.808 Y9.454
N10235 X364.008 Y9.556
N10240 X364.028 Y9.568
N10245 X364.207 Y9.678
N10250 X364.333 Y9.767
N10255 X364.406 Y9.822
N10260 X364.575 Y9.966
N10265 X364.605 Y9.993
N10270 X364.775 Y10.165
N10275 X364.804 Y10.197
N10280 X364.942 Y10.364
N10285 X365.003 Y10.445
N10290 X365.084 Y10.563
N10295 X365.202 Y10.758
N10300 X365.204 Y10.762
N10305 X365.305 Y10.961
N10310 X365.39 Y11.16
N10315 X365.401 Y11.19
N10320 X365.459 Y11.36
N10325 X365.513 Y11.559
N10330 X365.554 Y11.758
N10335 X365.582 Y11.957
N10340 X365.597 Y12.156
N10345 X365.598 Y12.197
N10350 X365.599 Y12.227
N10355 G2 X366.799 Y12.195 I0.6 J-0.016
N10360 X366.434 Y11.659 I-0.6 J0.016
N10365 G3 X366.111 Y10.884 I0.235 J-0.552
N10370 X371.29 Y10.633 I2.647 J1.057
N10375 G1 X371.299 Y10.651 F1333.33
N10380 G3 X368.864 Y14.789 Z-3. I-2.541 J1.29
N10385 G1 X368.843 Y14.79
N10390 X368.539 Y14.799 F4000.
N10395 G3 X365.599 Y12.031 I-0.086 J-2.854
N10400 G1 X365.598 Y12.003
N10405 X365.596 Y11.957
N10410 X365.58 Y11.758
N10415 X365.551 Y11.559
N10420 X365.51 Y11.36
N10425 X365.454 Y11.16
N10430 X365.401 Y11.005
N10435 X365.384 Y10.961
N10440 X365.299 Y10.762
N10445 X365.202 Y10.573
N10450 X365.196 Y10.563
N10455 X365.075 Y10.364
N10460 X365.003 Y10.26
N10465 X364.931 Y10.165
N10470 X364.804 Y10.012
N10475 X364.762 Y9.966
N10480 X364.605 Y9.808
N10485 X364.559 Y9.767
N10490 X364.406 Y9.638
N10495 X364.313 Y9.568
N10500 X364.207 Y9.493
N10505 X364.008 Y9.371
N10510 X364.002 Y9.368
N10515 X363.808 Y9.269
N10520 X363.609 Y9.184
N10525 X363.572 Y9.169
N10530 X363.41 Y9.114
N10535 X363.211 Y9.06
N10540 X363.012 Y9.019
N10545 X362.813 Y8.993
N10550 X362.614 Y8.979
N10555 X362.415 Y8.977
N10560 X27.585
N10565 X27.386 Y8.979
N10570 X27.187 Y8.993
N10575 X26.988 Y9.019
N10580 X26.789 Y9.06
N10585 X26.59 Y9.114
N10590 X26.428 Y9.169
N10595 X26.391 Y9.184
N10600 X26.192 Y9.269
N10605 X25.998 Y9.368
N10610 X25.992 Y9.371
N10615 X25.793 Y9.493
N10620 X25.687 Y9.568
N10625 X25.594 Y9.638
N10630 X25.441 Y9.767
N10635 X25.395 Y9.808
N10640 X25.238 Y9.966
N10645 X25.196 Y10.012
N10650 X25.069 Y10.165
N10655 X24.997 Y10.26
N10660 X24.925 Y10.364
N10665 X24.804 Y10.563
N10670 X24.798 Y10.573
N10675 X24.701 Y10.762
N10680 X24.616 Y10.961
N10685 X24.599 Y11.005
N10690 X24.546 Y11.16
N10695 X24.49 Y11.36
N10700 X24.449 Y11.559
N10705 X24.42 Y11.758
N10710 X24.404 Y11.957
N10715 X24.402 Y12.003
N10720 X24.401 Y12.031
N10725 G3 X23.202 Y11.995 I-0.6 J-0.018
N10730 X23.568 Y11.46 I0.6 J0.018
N10735 G2 X23.893 Y10.687 I-0.233 J-0.553
N10740 X18.715 Y10.418 I-2.65 J1.048
N10745 G1 X18.706 Y10.437 F1333.33
N10750 G2 X21.127 Y14.583 Z-3.2 I2.537 J1.298
N10755 G1 X21.148 Y14.584
N10760 X21.453 Y14.594 F4000.
N10765 G2 X24.401 Y11.836 I0.095 J-2.853
N10770 G1 X24.402 Y11.808
N10775 X24.405 Y11.758
N10780 X24.421 Y11.559
N10785 X24.451 Y11.36
N10790 X24.494 Y11.16
N10795 X24.55 Y10.961
N10800 X24.599 Y10.82
N10805 X24.621 Y10.762
N10810 X24.708 Y10.563
N10815 X24.798 Y10.388
N10820 X24.812 Y10.364
N10825 X24.935 Y10.165
N10830 X24.997 Y10.075
N10835 X25.08 Y9.966
N10840 X25.196 Y9.827
N10845 X25.252 Y9.767
N10850 X25.395 Y9.623
N10855 X25.457 Y9.568
N10860 X25.594 Y9.453
N10865 X25.706 Y9.368
N10870 X25.793 Y9.308
N10875 X25.992 Y9.186
N10880 X26.023 Y9.169
N10885 X26.192 Y9.084
N10890 X26.391 Y8.999
N10895 X26.467 Y8.97
N10900 X26.59 Y8.93
N10905 X26.789 Y8.875
N10910 X26.988 Y8.835
N10915 X27.187 Y8.808
N10920 X27.386 Y8.794
N10925 X27.585 Y8.792
N10930 X362.415
N10935 X362.614 Y8.794
N10940 X362.813 Y8.808
N10945 X363.012 Y8.835
N10950 X363.211 Y8.875
N10955 X363.41 Y8.93
N10960 X363.533 Y8.97
N10965 X363.609 Y8.999
N10970 X363.808 Y9.084
N10975 X363.977 Y9.169
N10980 X364.008 Y9.186
N10985 X364.207 Y9.308
N10990 X364.294 Y9.368
N10995 X364.406 Y9.453
N11000 X364.543 Y9.568
N11005 X364.605 Y9.623
N11010 X364.748 Y9.767
N11015 X364.804 Y9.827
N11020 X364.92 Y9.966
N11025 X365.003 Y10.075
N11030 X365.065 Y10.165
N11035 X365.188 Y10.364
N11040 X365.202 Y10.388
N11045 X365.292 Y10.563
N11050 X365.379 Y10.762
N11055 X365.401 Y10.82
N11060 X365.45 Y10.961
N11065 X365.506 Y11.16
N11070 X365.549 Y11.36
N11075 X365.579 Y11.559
N11080 X365.595 Y11.758
N11085 X365.598 Y11.808
N11090 X365.599 Y11.836
N11095 G2 X366.798 Y11.796 I0.6 J-0.02
N11100 X366.43 Y11.262 I-0.6 J0.02
N11105 G3 X366.103 Y10.49 I0.232 J-0.554
N11110 X371.28 Y10.204 I2.654 J1.039
N11115 G1 X371.289 Y10.222 F1333.33
N11120 G3 X368.882 Y14.376 Z-3.4 I-2.533 J1.307
N11125 G1 X368.861 Y14.377
N11130 X368.556 Y14.388 F4000.
N11135 G3 X365.598 Y11.64 I-0.105 J-2.853
N11140 G1 X365.597 Y11.613
N11145 X365.595 Y11.559
N11150 X365.577 Y11.36
N11155 X365.546 Y11.16
N11160 X365.503 Y10.961
N11165 X365.445 Y10.762
N11170 X365.401 Y10.636
N11175 X365.373 Y10.563
N11180 X365.285 Y10.364
N11185 X365.202 Y10.203
N11190 X365.18 Y10.165
N11195 X365.056 Y9.966
N11200 X365.003 Y9.89
N11205 X364.909 Y9.767
N11210 X364.804 Y9.642
N11215 X364.735 Y9.568
N11220 X364.605 Y9.439
N11225 X364.527 Y9.368
N11230 X364.406 Y9.268
N11235 X364.274 Y9.169
N11240 X364.207 Y9.123
N11245 X364.008 Y9.002
N11250 X363.95 Y8.97
N11255 X363.808 Y8.899
N11260 X363.609 Y8.814
N11265 X363.492 Y8.771
N11270 X363.41 Y8.745
N11275 X363.211 Y8.69
N11280 X363.012 Y8.65
N11285 X362.813 Y8.623
N11290 X362.614 Y8.609
N11295 X362.415 Y8.607
N11300 X27.585
N11305 X27.386 Y8.609
N11310 X27.187 Y8.623
N11315 X26.988 Y8.65
N11320 X26.789 Y8.69
N11325 X26.59 Y8.745
N11330 X26.508 Y8.771
N11335 X26.391 Y8.814
N11340 X26.192 Y8.899
N11345 X26.05 Y8.97
N11350 X25.992 Y9.002
N11355 X25.793 Y9.123
N11360 X25.726 Y9.169
N11365 X25.594 Y9.268
N11370 X25.473 Y9.368
N11375 X25.395 Y9.439
N11380 X25.265 Y9.568
N11385 X25.196 Y9.642
N11390 X25.091 Y9.767
N11395 X24.997 Y9.89
N11400 X24.944 Y9.966
N11405 X24.82 Y10.165
N11410 X24.798 Y10.203
N11415 X24.715 Y10.364
N11420 X24.627 Y10.563
N11425 X24.599 Y10.636
N11430 X24.555 Y10.762
N11435 X24.497 Y10.961
N11440 X24.454 Y11.16
N11445 X24.423 Y11.36
N11450 X24.405 Y11.559
N11455 X24.403 Y11.613
N11460 X24.402 Y11.64
N11465 G3 X23.202 Y11.596 I-0.6 J-0.022
N11470 X23.572 Y11.064 I0.6 J0.022
N11475 G2 X23.902 Y10.293 I-0.23 J-0.554
N11480 X18.726 Y9.99 I-2.657 J1.03
N11485 G1 X18.716 Y10.008 F1333.33
N11490 G2 X21.11 Y14.17 Z-3.6 I2.529 J1.315
N11495 G1 X21.131 Y14.171
N11500 X21.435 Y14.183 F4000.
N11505 G2 X24.402 Y11.444 I0.114 J-2.853
N11510 G1 X24.403 Y11.418
N11515 X24.406 Y11.36
N11520 X24.425 Y11.16
N11525 X24.456 Y10.961
N11530 X24.501 Y10.762
N11535 X24.56 Y10.563
N11540 X24.599 Y10.451
N11545 X24.633 Y10.364
N11550 X24.722 Y10.165
N11555 X24.798 Y10.018
N11560 X24.828 Y9.966
N11565 X24.954 Y9.767
N11570 X24.997 Y9.705
N11575 X25.103 Y9.568
N11580 X25.196 Y9.458
N11585 X25.279 Y9.368
N11590 X25.395 Y9.254
N11595 X25.489 Y9.169
N11600 X25.594 Y9.083
N11605 X25.747 Y8.97
N11610 X25.793 Y8.939
N11615 X25.992 Y8.817
N11620 X26.077 Y8.771
N11625 X26.192 Y8.714
N11630 X26.391 Y8.629
N11635 X26.551 Y8.572
N11640 X26.59 Y8.56
N11645 X26.789 Y8.505
N11650 X26.988 Y8.465
N11655 X27.187 Y8.438
N11660 X27.386 Y8.424
N11665 X27.585 Y8.422
N11670 X362.415
N11675 X362.614 Y8.424
N11680 X362.813 Y8.438
N11685 X363.012 Y8.465
N11690 X363.211 Y8.505
N11695 X363.41 Y8.56
N11700 X363.449 Y8.572
N11705 X363.609 Y8.629
N11710 X363.808 Y8.714
N11715 X363.923 Y8.771
N11720 X364.008 Y8.817
N11725 X364.207 Y8.939
N11730 X364.253 Y8.97
N11735 X364.406 Y9.083
N11740 X364.511 Y9.169
N11745 X364.605 Y9.254
N11750 X364.721 Y9.368
N11755 X364.804 Y9.458
N11760 X364.897 Y9.568
N11765 X365.003 Y9.705
N11770 X365.046 Y9.767
N11775 X365.172 Y9.966
N11780 X365.202 Y10.018
N11785 X365.278 Y10.165
N11790 X365.367 Y10.364
N11795 X365.401 Y10.451
N11800 X365.44 Y10.563
N11805 X365.499 Y10.762
N11810 X365.544 Y10.961
N11815 X365.575 Y11.16
N11820 X365.594 Y11.36
N11825 X365.597 Y11.418
N11830 X365.598 Y11.444
N11835 G2 X366.797 Y11.396 I0.6 J-0.024
N11840 X366.431 Y10.867 I-0.6 J0.024
N11845 G3 X366.107 Y10.093 I0.233 J-0.553
N11850 X371.274 Y9.81 I2.649 J1.051
N11855 G1 X371.284 Y9.828 F1333.33
N11860 G3 X368.892 Y13.991 Z-3.8 I-2.528 J1.316
N11865 G1 X368.871 Y13.992
N11870 X368.566 Y14.004 F4000.
N11875 G3 X365.598 Y11.267 I-0.115 J-2.853
N11880 G1 X365.596 Y11.223
N11885 X365.593 Y11.16
N11890 X365.573 Y10.961
N11895 X365.541 Y10.762
N11900 X365.495 Y10.563
N11905 X365.436 Y10.364
N11910 X365.401 Y10.266
N11915 X365.361 Y10.165
N11920 X365.271 Y9.966
N11925 X365.202 Y9.834
N11930 X365.164 Y9.767
N11935 X365.036 Y9.568
N11940 X365.003 Y9.521
N11945 X364.886 Y9.368
N11950 X364.804 Y9.273
N11955 X364.707 Y9.169
N11960 X364.605 Y9.069
N11965 X364.494 Y8.97
N11970 X364.406 Y8.898
N11975 X364.232 Y8.771
N11980 X364.207 Y8.754
N11985 X364.008 Y8.632
N11990 X363.896 Y8.572
N11995 X363.808 Y8.529
N12000 X363.609 Y8.444
N12005 X363.41 Y8.375
N12010 X363.404 Y8.373
N12015 X363.211 Y8.32
N12020 X363.012 Y8.28
N12025 X362.813 Y8.253
N12030 X362.614 Y8.239
N12035 X362.415 Y8.237
N12040 X27.585
N12045 X27.386 Y8.239
N12050 X27.187 Y8.253
N12055 X26.988 Y8.28
N12060 X26.789 Y8.32
N12065 X26.596 Y8.373
N12070 X26.59 Y8.375
N12075 X26.391 Y8.444
N12080 X26.192 Y8.529
N12085 X26.104 Y8.572
N12090 X25.992 Y8.632
N12095 X25.793 Y8.754
N12100 X25.768 Y8.771
N12105 X25.594 Y8.898
N12110 X25.506 Y8.97
N12115 X25.395 Y9.069
N12120 X25.293 Y9.169
N12125 X25.196 Y9.273
N12130 X25.114 Y9.368
N12135 X24.997 Y9.521
N12140 X24.964 Y9.568
N12145 X24.836 Y9.767
N12150 X24.798 Y9.834
N12155 X24.729 Y9.966
N12160 X24.639 Y10.165
N12165 X24.599 Y10.266
N12170 X24.564 Y10.364
N12175 X24.505 Y10.563
N12180 X24.459 Y10.762
N12185 X24.427 Y10.961
N12190 X24.407 Y11.16
N12195 X24.404 Y11.223
N12200 X24.402 Y11.267
N12205 G3 X23.203 Y11.218 I-0.6 J-0.024
N12210 X23.549 Y10.699 I0.6 J0.024
N12215 G2 X23.844 Y9.91 I-0.253 J-0.544
N12220 X18.709 Y9.765 I-2.602 J1.162
N12225 G1 X18.699 Y9.783 F1333.33
N12230 G2 X21.136 Y13.92 Z-4. I2.542 J1.289
N12235 G1 X21.157 Y13.921
N12240 X21.462 Y13.93 F4000.
N12245 G2 X24.4 Y11.16 I0.084 J-2.854
N12250 G1 X24.404 Y11.028
N12255 X24.408 Y10.961
N12260 X24.429 Y10.762
N12265 X24.462 Y10.563
N12270 X24.509 Y10.364
N12275 X24.569 Y10.165
N12280 X24.599 Y10.081
N12285 X24.644 Y9.966
N12290 X24.736 Y9.767
N12295 X24.798 Y9.649
N12300 X24.845 Y9.568
N12305 X24.974 Y9.368
N12310 X24.997 Y9.336
N12315 X25.126 Y9.169
N12320 X25.196 Y9.088
N12325 X25.307 Y8.97
N12330 X25.395 Y8.884
N12335 X25.523 Y8.771
N12340 X25.594 Y8.713
N12345 X25.789 Y8.572
N12350 X25.793 Y8.569
N12355 X25.992 Y8.447
N12360 X26.132 Y8.373
N12365 X26.192 Y8.344
N12370 X26.391 Y8.259
N12375 X26.59 Y8.19
N12380 X26.644 Y8.174
N12385 X26.789 Y8.136
N12390 X26.988 Y8.095
N12395 X27.187 Y8.068
N12400 X27.386 Y8.054
N12405 X27.585 Y8.052
N12410 X362.415
N12415 X362.614 Y8.054
N12420 X362.813 Y8.068
N12425 X363.012 Y8.095
N12430 X363.211 Y8.136
N12435 X363.356 Y8.174
N12440 X363.41 Y8.19
N12445 X363.609 Y8.259
N12450 X363.808 Y8.344
N12455 X363.868 Y8.373
N12460 X364.008 Y8.447
N12465 X364.207 Y8.569
N12470 X364.211 Y8.572
N12475 X364.406 Y8.713
N12480 X364.477 Y8.771
N12485 X364.605 Y8.884
N12490 X364.693 Y8.97
N12495 X364.804 Y9.088
N12500 X364.874 Y9.169
N12505 X365.003 Y9.336
N12510 X365.026 Y9.368
N12515 X365.155 Y9.568
N12520 X365.202 Y9.649
N12525 X365.264 Y9.767
N12530 X365.356 Y9.966
N12535 X365.401 Y10.081
N12540 X365.431 Y10.165
N12545 X365.491 Y10.364
N12550 X365.538 Y10.563
N12555 X365.571 Y10.762
N12560 X365.592 Y10.961
N12565 X365.596 Y11.028
N12570 X365.6 Y11.16
N12575 G2 X366.799 Y11.125 I0.6 J-0.018
N12580 X366.426 Y10.587 I-0.6 J0.018
N12585 G3 X366.09 Y9.819 I0.226 J-0.556
N12590 X371.27 Y9.481 I2.666 J1.006
N12595 G1 X371.279 Y9.499 F1333.33
N12600 G3 X368.905 Y13.672 Z-4.2 I-2.523 J1.326
N12605 G1 X368.884 Y13.673
N12610 X368.579 Y13.686 F4000.
N12615 G3 X365.6 Y10.961 I-0.127 J-2.852
N12620 G1 X365.591 Y10.762
N12625 X365.569 Y10.563
N12630 X365.535 Y10.364
N12635 X365.488 Y10.165
N12640 X365.426 Y9.966
N12645 X365.401 Y9.896
N12650 X365.35 Y9.767
N12655 X365.257 Y9.568
N12660 X365.202 Y9.464
N12665 X365.147 Y9.368
N12670 X365.016 Y9.169
N12675 X365.003 Y9.151
N12680 X364.862 Y8.97
N12685 X364.804 Y8.903
N12690 X364.679 Y8.771
N12695 X364.605 Y8.699
N12700 X364.46 Y8.572
N12705 X364.406 Y8.528
N12710 X364.207 Y8.384
N12715 X364.19 Y8.373
N12720 X364.008 Y8.262
N12725 X363.838 Y8.174
N12730 X363.808 Y8.16
N12735 X363.609 Y8.074
N12740 X363.41 Y8.005
N12745 X363.306 Y7.975
N12750 X363.211 Y7.951
N12755 X363.012 Y7.91
N12760 X362.813 Y7.883
N12765 X362.614 Y7.869
N12770 X362.415 Y7.867
N12775 X27.585
N12780 X27.386 Y7.869
N12785 X27.187 Y7.883
N12790 X26.988 Y7.91
N12795 X26.789 Y7.951
N12800 X26.694 Y7.975
N12805 X26.59 Y8.005
N12810 X26.391 Y8.074
N12815 X26.192 Y8.16
N12820 X26.162 Y8.174
N12825 X25.992 Y8.262
N12830 X25.81 Y8.373
N12835 X25.793 Y8.384
N12840 X25.594 Y8.528
N12845 X25.54 Y8.572
N12850 X25.395 Y8.699
N12855 X25.321 Y8.771
N12860 X25.196 Y8.903
N12865 X25.138 Y8.97
N12870 X24.997 Y9.151
N12875 X24.984 Y9.169
N12880 X24.853 Y9.368
N12885 X24.798 Y9.464
N12890 X24.743 Y9.568
N12895 X24.65 Y9.767
N12900 X24.599 Y9.896
N12905 X24.574 Y9.966
N12910 X24.512 Y10.165
N12915 X24.465 Y10.364
N12920 X24.431 Y10.563
N12925 X24.409 Y10.762
N12930 X24.4 Y10.961
N12935 G3 X23.201 Y10.908 I-0.599 J-0.027
N12940 X23.576 Y10.378 I0.599 J0.027
N12945 G2 X23.912 Y9.612 I-0.225 J-0.556
N12950 X18.737 Y9.256 I-2.668 J1.001
N12955 G1 X18.727 Y9.275 F1333.33
N12960 G2 X21.084 Y13.458 Z-4.4 I2.517 J1.338
N12965 G1 X21.104 Y13.459
N12970 X21.409 Y13.474 F4000.
N12975 G2 X24.4 Y10.762 I0.14 J-2.852
N12980 G1 X24.41 Y10.563
N12985 X24.433 Y10.364
N12990 X24.468 Y10.165
N12995 X24.516 Y9.966
N13000 X24.579 Y9.767
N13005 X24.599 Y9.711
N13010 X24.656 Y9.568
N13015 X24.75 Y9.368
N13020 X24.798 Y9.279
N13025 X24.862 Y9.169
N13030 X24.994 Y8.97
N13035 X24.997 Y8.966
N13040 X25.15 Y8.771
N13045 X25.196 Y8.718
N13050 X25.335 Y8.572
N13055 X25.395 Y8.514
N13060 X25.557 Y8.373
N13065 X25.594 Y8.343
N13070 X25.793 Y8.199
N13075 X25.832 Y8.174
N13080 X25.992 Y8.077
N13085 X26.191 Y7.975
N13090 X26.192
N13095 X26.391 Y7.89
N13100 X26.59 Y7.82
N13105 X26.749 Y7.776
N13110 X26.789 Y7.766
N13115 X26.988 Y7.725
N13120 X27.187 Y7.698
N13125 X27.386 Y7.684
N13130 X27.585 Y7.682
N13135 X362.415
N13140 X362.614 Y7.684
N13145 X362.813 Y7.698
N13150 X363.012 Y7.725
N13155 X363.211 Y7.766
N13160 X363.251 Y7.776
N13165 X363.41 Y7.82
N13170 X363.609 Y7.89
N13175 X363.808 Y7.975
N13180 X363.809
N13185 X364.008 Y8.077
N13190 X364.168 Y8.174
N13195 X364.207 Y8.199
N13200 X364.406 Y8.343
N13205 X364.443 Y8.373
N13210 X364.605 Y8.514
N13215 X364.665 Y8.572
N13220 X364.804 Y8.718
N13225 X364.85 Y8.771
N13230 X365.003 Y8.966
N13235 X365.006 Y8.97
N13240 X365.138 Y9.169
N13245 X365.202 Y9.279
N13250 X365.25 Y9.368
N13255 X365.344 Y9.568
N13260 X365.401 Y9.711
N13265 X365.421 Y9.767
N13270 X365.484 Y9.966
N13275 X365.532 Y10.165
N13280 X365.567 Y10.364
N13285 X365.59 Y10.563
N13290 X365.599 Y10.762
N13295 G2 X366.798 Y10.703 I0.599 J-0.029
N13300 X366.422 Y10.176 I-0.599 J0.029
N13305 G3 X366.082 Y9.411 I0.223 J-0.557
N13310 X371.256 Y9.032 I2.673 J0.989
N13315 G1 X371.266 Y9.05 F1333.33
N13320 G3 X368.928 Y13.244 Z-4.6 I-2.511 J1.349
N13325 G1 X368.907 Y13.245
N13330 X368.603 Y13.261 F4000.
N13335 G3 X365.599 Y10.563 I-0.153 J-2.851
N13340 G1 X365.589 Y10.364
N13345 X365.565 Y10.165
N13350 X365.529 Y9.966
N13355 X365.48 Y9.767
N13360 X365.416 Y9.568
N13365 X365.401 Y9.526
N13370 X365.337 Y9.368
N13375 X365.242 Y9.169
N13380 X365.202 Y9.094
N13385 X365.129 Y8.97
N13390 X365.003 Y8.781
N13395 X364.996 Y8.771
N13400 X364.838 Y8.572
N13405 X364.804 Y8.533
N13410 X364.65 Y8.373
N13415 X364.605 Y8.329
N13420 X364.425 Y8.174
N13425 X364.406 Y8.159
N13430 X364.207 Y8.014
N13435 X364.146 Y7.975
N13440 X364.008 Y7.892
N13445 X363.808 Y7.79
N13450 X363.778 Y7.776
N13455 X363.609 Y7.705
N13460 X363.41 Y7.635
N13465 X363.211 Y7.581
N13470 X363.192 Y7.576
N13475 X363.012 Y7.54
N13480 X362.813 Y7.513
N13485 X362.614 Y7.5
N13490 X362.415 Y7.498
N13495 X27.585
N13500 X27.386 Y7.5
N13505 X27.187 Y7.513
N13510 X26.988 Y7.54
N13515 X26.808 Y7.576
N13520 X26.789 Y7.581
N13525 X26.59 Y7.635
N13530 X26.391 Y7.705
N13535 X26.222 Y7.776
N13540 X26.192 Y7.79
N13545 X25.992 Y7.892
N13550 X25.854 Y7.975
N13555 X25.793 Y8.014
N13560 X25.594 Y8.159
N13565 X25.575 Y8.174
N13570 X25.395 Y8.329
N13575 X25.35 Y8.373
N13580 X25.196 Y8.533
N13585 X25.162 Y8.572
N13590 X25.004 Y8.771
N13595 X24.997 Y8.781
N13600 X24.871 Y8.97
N13605 X24.798 Y9.094
N13610 X24.758 Y9.169
N13615 X24.663 Y9.368
N13620 X24.599 Y9.526
N13625 X24.584 Y9.568
N13630 X24.52 Y9.767
N13635 X24.471 Y9.966
N13640 X24.435 Y10.165
N13645 X24.411 Y10.364
N13650 X24.401 Y10.563
N13655 G3 X23.202 Y10.499 I-0.599 J-0.032
N13660 X23.581 Y9.973 I0.599 J0.032
N13665 G2 X23.924 Y9.21 I-0.221 J-0.558
N13670 X18.752 Y8.807 I-2.678 J0.976
N13675 G1 X18.742 Y8.826 F1333.33
N13680 G2 X21.06 Y13.03 Z-4.8 I2.504 J1.36
N13685 G1 X21.081 Y13.031
N13690 X21.386 Y13.049 F4000.
N13695 G2 X24.401 Y10.364 I0.165 J-2.85
N13700 G1 X24.413 Y10.165
N13705 X24.437 Y9.966
N13710 X24.474 Y9.767
N13715 X24.524 Y9.568
N13720 X24.589 Y9.368
N13725 X24.599 Y9.341
N13730 X24.669 Y9.169
N13735 X24.765 Y8.97
N13740 X24.798 Y8.909
N13745 X24.879 Y8.771
N13750 X24.997 Y8.596
N13755 X25.015 Y8.572
N13760 X25.175 Y8.373
N13765 X25.196 Y8.348
N13770 X25.364 Y8.174
N13775 X25.395 Y8.144
N13780 X25.593 Y7.975
N13785 X25.594 Y7.974
N13790 X25.793 Y7.829
N13795 X25.877 Y7.776
N13800 X25.992 Y7.707
N13805 X26.192 Y7.605
N13810 X26.254 Y7.576
N13815 X26.391 Y7.52
N13820 X26.59 Y7.45
N13825 X26.789 Y7.396
N13830 X26.872 Y7.377
N13835 X26.988 Y7.356
N13840 X27.187 Y7.329
N13845 X27.386 Y7.315
N13850 X27.585 Y7.313
N13855 X362.415
N13860 X362.614 Y7.315
N13865 X362.813 Y7.329
N13870 X363.012 Y7.356
N13875 X363.128 Y7.377
N13880 X363.211 Y7.396
N13885 X363.41 Y7.45
N13890 X363.609 Y7.52
N13895 X363.746 Y7.576
N13900 X363.808 Y7.605
N13905 X364.008 Y7.707
N13910 X364.123 Y7.776
N13915 X364.207 Y7.829
N13920 X364.406 Y7.974
N13925 X364.407 Y7.975
N13930 X364.605 Y8.144
N13935 X364.636 Y8.174
N13940 X364.804 Y8.348
N13945 X364.825 Y8.373
N13950 X364.985 Y8.572
N13955 X365.003 Y8.596
N13960 X365.121 Y8.771
N13965 X365.202 Y8.909
N13970 X365.235 Y8.97
N13975 X365.331 Y9.169
N13980 X365.401 Y9.341
N13985 X365.411 Y9.368
N13990 X365.476 Y9.568
N13995 X365.526 Y9.767
N14000 X365.563 Y9.966
N14005 X365.587 Y10.165
N14010 X365.599 Y10.364
N14015 G2 X366.797 Y10.295 I0.599 J-0.035
N14020 X366.417 Y9.771 I-0.599 J0.035
N14025 G3 X366.071 Y9.009 I0.219 J-0.559
N14030 X371.241 Y8.583 I2.682 J0.964
N14035 G1 X371.251 Y8.601 F1333.33
N14040 G3 X368.951 Y12.816 Z-5. I-2.498 J1.371
N14045 G1 X368.93 Y12.817
N14050 X368.626 Y12.836 F4000.
N14055 G3 X365.598 Y10.165 I-0.178 J-2.849
N14060 G1 X365.586 Y9.966
N14065 X365.561 Y9.767
N14070 X365.523 Y9.568
N14075 X365.471 Y9.368
N14080 X365.406 Y9.169
N14085 X365.401 Y9.156
N14090 X365.325 Y8.97
N14095 X365.227 Y8.771
N14100 X365.202 Y8.724
N14105 X365.112 Y8.572
N14110 X365.003 Y8.411
N14115 X364.975 Y8.373
N14120 X364.813 Y8.174
N14125 X364.804 Y8.163
N14130 X364.621 Y7.975
N14135 X364.605 Y7.96
N14140 X364.406 Y7.789
N14145 X364.389 Y7.776
N14150 X364.207 Y7.644
N14155 X364.1 Y7.576
N14160 X364.008 Y7.523
N14165 X363.808 Y7.42
N14170 X363.714 Y7.377
N14175 X363.609 Y7.335
N14180 X363.41 Y7.266
N14185 X363.211 Y7.211
N14190 X363.055 Y7.178
N14195 X363.012 Y7.171
N14200 X362.813 Y7.144
N14205 X362.614 Y7.13
N14210 X362.415 Y7.128
N14215 X27.585
N14220 X27.386 Y7.13
N14225 X27.187 Y7.144
N14230 X26.988 Y7.171
N14235 X26.945 Y7.178
N14240 X26.789 Y7.211
N14245 X26.59 Y7.266
N14250 X26.391 Y7.335
N14255 X26.286 Y7.377
N14260 X26.192 Y7.42
N14265 X25.992 Y7.523
N14270 X25.9 Y7.576
N14275 X25.793 Y7.644
N14280 X25.611 Y7.776
N14285 X25.594 Y7.789
N14290 X25.395 Y7.96
N14295 X25.379 Y7.975
N14300 X25.196 Y8.163
N14305 X25.187 Y8.174
N14310 X25.025 Y8.373
N14315 X24.997 Y8.411
N14320 X24.888 Y8.572
N14325 X24.798 Y8.724
N14330 X24.773 Y8.771
N14335 X24.675 Y8.97
N14340 X24.599 Y9.156
N14345 X24.594 Y9.169
N14350 X24.529 Y9.368
N14355 X24.477 Y9.568
N14360 X24.439 Y9.767
N14365 X24.414 Y9.966
N14370 X24.402 Y10.165
N14375 G3 X23.204 Y10.09 I-0.599 J-0.037
N14380 X23.586 Y9.568 I0.599 J0.037
N14385 G2 X23.935 Y8.808 I-0.217 J-0.56
N14390 X18.767 Y8.359 I-2.686 J0.952
N14395 G1 X18.757 Y8.377 F1333.33
N14400 G2 X21.037 Y12.602 Z-5.2 I2.492 J1.383
N14405 G1 X21.058 Y12.603
N14410 X21.363 Y12.624 F4000.
N14415 G2 X24.402 Y9.966 I0.191 J-2.849
N14420 G1 X24.415 Y9.767
N14425 X24.441 Y9.568
N14430 X24.48 Y9.368
N14435 X24.533 Y9.169
N14440 X24.599 Y8.972
N14445 X24.6 Y8.97
N14450 X24.682 Y8.771
N14455 X24.78 Y8.572
N14460 X24.798 Y8.539
N14465 X24.897 Y8.373
N14470 X24.997 Y8.226
N14475 X25.036 Y8.174
N14480 X25.196 Y7.979
N14485 X25.2 Y7.975
N14490 X25.394 Y7.776
N14495 X25.395 Y7.775
N14500 X25.594 Y7.604
N14505 X25.63 Y7.576
N14510 X25.793 Y7.46
N14515 X25.924 Y7.377
N14520 X25.992 Y7.338
N14525 X26.192 Y7.235
N14530 X26.32 Y7.178
N14535 X26.391 Y7.15
N14540 X26.59 Y7.081
N14545 X26.789 Y7.026
N14550 X26.988 Y6.986
N14555 X27.029 Y6.979
N14560 X27.187 Y6.959
N14565 X27.386 Y6.945
N14570 X27.585 Y6.943
N14575 X362.415
N14580 X362.614 Y6.945
N14585 X362.813 Y6.959
N14590 X362.971 Y6.979
N14595 X363.012 Y6.986
N14600 X363.211 Y7.026
N14605 X363.41 Y7.081
N14610 X363.609 Y7.15
N14615 X363.68 Y7.178
N14620 X363.808 Y7.235
N14625 X364.008 Y7.338
N14630 X364.076 Y7.377
N14635 X364.207 Y7.46
N14640 X364.37 Y7.576
N14645 X364.406 Y7.604
N14650 X364.605 Y7.775
N14655 X364.606 Y7.776
N14660 X364.8 Y7.975
N14665 X364.804 Y7.979
N14670 X364.964 Y8.174
N14675 X365.003 Y8.226
N14680 X365.103 Y8.373
N14685 X365.202 Y8.539
N14690 X365.22 Y8.572
N14695 X365.318 Y8.771
N14700 X365.4 Y8.97
N14705 X365.401 Y8.972
N14710 X365.467 Y9.169
N14715 X365.52 Y9.368
N14720 X365.559 Y9.568
N14725 X365.585 Y9.767
N14730 X365.598 Y9.966
N14735 G2 X366.795 Y9.886 I0.599 J-0.04
N14740 X366.452 Y9.383 I-0.599 J0.04
N14745 G3 X366.161 Y8.593 I0.255 J-0.543
N14750 X371.299 Y8.473 I2.598 J1.172
N14755 G1 X371.308 Y8.492 F1333.33
N14760 G3 X368.847 Y12.614 Z-5.4 I-2.55 J1.273
N14765 G1 X368.826
N14770 X368.521 Y12.621 F4000.
N14775 G3 X365.599 Y9.834 I-0.067 J-2.854
N14780 G1 Y9.804
N14785 X365.597 Y9.767
N14790 X365.583 Y9.568
N14795 X365.556 Y9.368
N14800 X365.516 Y9.169
N14805 X365.463 Y8.97
N14810 X365.401 Y8.787
N14815 X365.395 Y8.771
N14820 X365.312 Y8.572
N14825 X365.212 Y8.373
N14830 X365.202 Y8.355
N14835 X365.093 Y8.174
N14840 X365.003 Y8.042
N14845 X364.953 Y7.975
N14850 X364.804 Y7.794
N14855 X364.788 Y7.776
N14860 X364.605 Y7.59
N14865 X364.59 Y7.576
N14870 X364.406 Y7.419
N14875 X364.352 Y7.377
N14880 X364.207 Y7.275
N14885 X364.052 Y7.178
N14890 X364.008 Y7.153
N14895 X363.808 Y7.05
N14900 X363.645 Y6.979
N14905 X363.609 Y6.965
N14910 X363.41 Y6.896
N14915 X363.211 Y6.841
N14920 X363.012 Y6.801
N14925 X362.868 Y6.78
N14930 X362.813 Y6.774
N14935 X362.614 Y6.76
N14940 X362.415 Y6.758
N14945 X27.585
N14950 X27.386 Y6.76
N14955 X27.187 Y6.774
N14960 X27.132 Y6.78
N14965 X26.988 Y6.801
N14970 X26.789 Y6.841
N14975 X26.59 Y6.896
N14980 X26.391 Y6.965
N14985 X26.355 Y6.979
N14990 X26.192 Y7.05
N14995 X25.992 Y7.153
N15000 X25.948 Y7.178
N15005 X25.793 Y7.275
N15010 X25.648 Y7.377
N15015 X25.594 Y7.419
N15020 X25.41 Y7.576
N15025 X25.395 Y7.59
N15030 X25.212 Y7.776
N15035 X25.196 Y7.794
N15040 X25.047 Y7.975
N15045 X24.997 Y8.042
N15050 X24.907 Y8.174
N15055 X24.798 Y8.355
N15060 X24.788 Y8.373
N15065 X24.688 Y8.572
N15070 X24.605 Y8.771
N15075 X24.599 Y8.787
N15080 X24.537 Y8.97
N15085 X24.484 Y9.169
N15090 X24.444 Y9.368
N15095 X24.417 Y9.568
N15100 X24.403 Y9.767
N15105 X24.401 Y9.804
N15110 Y9.834
N15115 G3 X23.201 Y9.806 I-0.6 J-0.014
N15120 X23.565 Y9.269 I0.6 J0.014
N15125 G2 X23.885 Y8.493 I-0.236 J-0.552
N15130 X18.706 Y8.259 I-2.643 J1.066
N15135 G1 X18.696 Y8.277 F1333.33
N15140 G2 X21.144 Y12.407 Z-5.6 I2.546 J1.282
N15145 G1 X21.165 Y12.408
N15150 X21.47 Y12.416 F4000.
N15155 G2 X24.401 Y9.639 I0.077 J-2.854
N15160 G1 X24.402 Y9.609
N15165 X24.403 Y9.568
N15170 X24.418 Y9.368
N15175 X24.446 Y9.169
N15180 X24.487 Y8.97
N15185 X24.541 Y8.771
N15190 X24.599 Y8.602
N15195 X24.61 Y8.572
N15200 X24.695 Y8.373
N15205 X24.796 Y8.174
N15210 X24.798 Y8.17
N15215 X24.916 Y7.975
N15220 X24.997 Y7.857
N15225 X25.058 Y7.776
N15230 X25.196 Y7.609
N15235 X25.225 Y7.576
N15240 X25.395 Y7.405
N15245 X25.425 Y7.377
N15250 X25.594 Y7.234
N15255 X25.668 Y7.178
N15260 X25.793 Y7.09
N15265 X25.973 Y6.979
N15270 X25.992 Y6.968
N15275 X26.192 Y6.865
N15280 X26.391 Y6.78
N15285 X26.59 Y6.711
N15290 X26.789 Y6.657
N15295 X26.988 Y6.616
N15300 X27.187 Y6.589
N15305 X27.281 Y6.581
N15310 X27.386 Y6.575
N15315 X27.585 Y6.573
N15320 X362.415
N15325 X362.614 Y6.575
N15330 X362.719 Y6.581
N15335 X362.813 Y6.589
N15340 X363.012 Y6.616
N15345 X363.211 Y6.657
N15350 X363.41 Y6.711
N15355 X363.609 Y6.78
N15360 X363.808 Y6.865
N15365 X364.008 Y6.968
N15370 X364.027 Y6.979
N15375 X364.207 Y7.09
N15380 X364.332 Y7.178
N15385 X364.406 Y7.234
N15390 X364.575 Y7.377
N15395 X364.605 Y7.405
N15400 X364.775 Y7.576
N15405 X364.804 Y7.609
N15410 X364.942 Y7.776
N15415 X365.003 Y7.857
N15420 X365.084 Y7.975
N15425 X365.202 Y8.17
N15430 X365.204 Y8.174
N15435 X365.305 Y8.373
N15440 X365.39 Y8.572
N15445 X365.401 Y8.602
N15450 X365.459 Y8.771
N15455 X365.513 Y8.97
N15460 X365.554 Y9.169
N15465 X365.582 Y9.368
N15470 X365.597 Y9.568
N15475 X365.598 Y9.609
N15480 X365.599 Y9.639
N15485 G2 X366.799 Y9.606 I0.6 J-0.016
N15490 X366.434 Y9.07 I-0.6 J0.016
N15495 G3 X366.111 Y8.295 I0.235 J-0.552
N15500 X371.289 Y8.044 I2.647 J1.057
N15505 G1 X371.299 Y8.063 F1333.33
N15510 G3 X368.864 Y12.201 Z-5.8 I-2.541 J1.29
N15515 G1 X368.843
N15520 X368.539 Y12.211 F4000.
N15525 G3 X365.599 Y9.443 I-0.086 J-2.854
N15530 G1 X365.598 Y9.414
N15535 X365.596 Y9.368
N15540 X365.58 Y9.169
N15545 X365.551 Y8.97
N15550 X365.51 Y8.771
N15555 X365.454 Y8.572
N15560 X365.401 Y8.417
N15565 X365.384 Y8.373
N15570 X365.299 Y8.174
N15575 X365.202 Y7.985
N15580 X365.196 Y7.975
N15585 X365.075 Y7.776
N15590 X365.003 Y7.672
N15595 X364.931 Y7.576
N15600 X364.804 Y7.424
N15605 X364.761 Y7.377
N15610 X364.605 Y7.22
N15615 X364.559 Y7.178
N15620 X364.406 Y7.049
N15625 X364.313 Y6.979
N15630 X364.207 Y6.905
N15635 X364.008 Y6.783
N15640 X364.002 Y6.78
N15645 X363.808 Y6.68
N15650 X363.609 Y6.595
N15655 X363.571 Y6.581
N15660 X363.41 Y6.526
N15665 X363.211 Y6.472
N15670 X363.012 Y6.431
N15675 X362.813 Y6.404
N15680 X362.614 Y6.39
N15685 X362.415 Y6.388
N15690 X27.585
N15695 X27.386 Y6.39
N15700 X27.187 Y6.404
N15705 X26.988 Y6.431
N15710 X26.789 Y6.472
N15715 X26.59 Y6.526
N15720 X26.429 Y6.581
N15725 X26.391 Y6.595
N15730 X26.192 Y6.68
N15735 X25.998 Y6.78
N15740 X25.992 Y6.783
N15745 X25.793 Y6.905
N15750 X25.687 Y6.979
N15755 X25.594 Y7.049
N15760 X25.441 Y7.178
N15765 X25.395 Y7.22
N15770 X25.239 Y7.377
N15775 X25.196 Y7.424
N15780 X25.069 Y7.576
N15785 X24.997 Y7.672
N15790 X24.925 Y7.776
N15795 X24.804 Y7.975
N15800 X24.798 Y7.985
N15805 X24.701 Y8.174
N15810 X24.616 Y8.373
N15815 X24.599 Y8.417
N15820 X24.546 Y8.572
N15825 X24.49 Y8.771
N15830 X24.449 Y8.97
N15835 X24.42 Y9.169
N15840 X24.404 Y9.368
N15845 X24.402 Y9.414
N15850 X24.401 Y9.443
N15855 G3 X23.202 Y9.407 I-0.6 J-0.018
N15860 X23.568 Y8.872 I0.6 J0.018
N15865 G2 X23.893 Y8.098 I-0.233 J-0.553
N15870 X18.715 Y7.83 I-2.65 J1.048
N15875 G1 X18.706 Y7.848 F1333.33
N15880 G2 X21.127 Y11.994 Z-6. I2.537 J1.298
N15885 G1 X21.148 Y11.995
N15890 X21.453 Y12.005 F4000.
N15895 G2 X24.401 Y9.247 I0.095 J-2.853
N15900 G1 X24.402 Y9.219
N15905 X24.405 Y9.169
N15910 X24.421 Y8.97
N15915 X24.451 Y8.771
N15920 X24.494 Y8.572
N15925 X24.55 Y8.373
N15930 X24.599 Y8.232
N15935 X24.621 Y8.174
N15940 X24.708 Y7.975
N15945 X24.798 Y7.8
N15950 X24.812 Y7.776
N15955 X24.935 Y7.576
N15960 X24.997 Y7.487
N15965 X25.08 Y7.377
N15970 X25.196 Y7.239
N15975 X25.252 Y7.178
N15980 X25.395 Y7.035
N15985 X25.457 Y6.979
N15990 X25.594 Y6.864
N15995 X25.707 Y6.78
N16000 X25.793 Y6.72
N16005 X25.992 Y6.598
N16010 X26.023 Y6.581
N16015 X26.192 Y6.496
N16020 X26.391 Y6.41
N16025 X26.468 Y6.382
N16030 X26.59 Y6.341
N16035 X26.789 Y6.287
N16040 X26.988 Y6.246
N16045 X27.187 Y6.219
N16050 X27.386 Y6.205
N16055 X27.585 Y6.203
N16060 X362.415
N16065 X362.614 Y6.205
N16070 X362.813 Y6.219
N16075 X363.012 Y6.246
N16080 X363.211 Y6.287
N16085 X363.41 Y6.341
N16090 X363.532 Y6.382
N16095 X363.609 Y6.41
N16100 X363.808 Y6.496
N16105 X363.977 Y6.581
N16110 X364.008 Y6.598
N16115 X364.207 Y6.72
N16120 X364.293 Y6.78
N16125 X364.406 Y6.864
N16130 X364.543 Y6.979
N16135 X364.605 Y7.035
N16140 X364.748 Y7.178
N16145 X364.804 Y7.239
N16150 X364.92 Y7.377
N16155 X365.003 Y7.487
N16160 X365.065 Y7.576
N16165 X365.188 Y7.776
N16170 X365.202 Y7.8
N16175 X365.292 Y7.975
N16180 X365.379 Y8.174
N16185 X365.401 Y8.232
N16190 X365.45 Y8.373
N16195 X365.506 Y8.572
N16200 X365.549 Y8.771
N16205 X365.579 Y8.97
N16210 X365.595 Y9.169
N16215 X365.598 Y9.219
N16220 X365.599 Y9.247
N16225 G2 X366.798 Y9.207 I0.6 J-0.02
N16230 X366.43 Y8.674 I-0.6 J0.02
N16235 G3 X366.103 Y7.901 I0.232 J-0.554
N16240 X371.28 Y7.615 I2.654 J1.039
N16245 G1 X371.289 Y7.634 F1333.33
N16250 G3 X368.882 Y11.788 Z-6.2 I-2.533 J1.307
N16255 G1 X368.861 Y11.789
N16260 X368.556 Y11.8 F4000.
N16265 G3 X365.598 Y9.051 I-0.105 J-2.853
N16270 G1 X365.597 Y9.024
N16275 X365.595 Y8.97
N16280 X365.577 Y8.771
N16285 X365.546 Y8.572
N16290 X365.503 Y8.373
N16295 X365.445 Y8.174
N16300 X365.401 Y8.047
N16305 X365.373 Y7.975
N16310 X365.285 Y7.776
N16315 X365.202 Y7.615
N16320 X365.18 Y7.576
N16325 X365.056 Y7.377
N16330 X365.003 Y7.302
N16335 X364.909 Y7.178
N16340 X364.804 Y7.054
N16345 X364.735 Y6.979
N16350 X364.605 Y6.85
N16355 X364.527 Y6.78
N16360 X364.406 Y6.679
N16365 X364.273 Y6.581
N16370 X364.207 Y6.535
N16375 X364.008 Y6.413
N16380 X363.95 Y6.382
N16385 X363.808 Y6.311
N16390 X363.609 Y6.226
N16395 X363.491 Y6.183
N16400 X363.41 Y6.156
N16405 X363.211 Y6.102
N16410 X363.012 Y6.061
N16415 X362.813 Y6.034
N16420 X362.614 Y6.021
N16425 X362.415 Y6.018
N16430 X27.585
N16435 X27.386 Y6.021
N16440 X27.187 Y6.034
N16445 X26.988 Y6.061
N16450 X26.789 Y6.102
N16455 X26.59 Y6.156
N16460 X26.509 Y6.183
N16465 X26.391 Y6.226
N16470 X26.192 Y6.311
N16475 X26.05 Y6.382
N16480 X25.992 Y6.413
N16485 X25.793 Y6.535
N16490 X25.727 Y6.581
N16495 X25.594 Y6.679
N16500 X25.473 Y6.78
N16505 X25.395 Y6.85
N16510 X25.265 Y6.979
N16515 X25.196 Y7.054
N16520 X25.091 Y7.178
N16525 X24.997 Y7.302
N16530 X24.944 Y7.377
N16535 X24.82 Y7.576
N16540 X24.798 Y7.615
N16545 X24.715 Y7.776
N16550 X24.627 Y7.975
N16555 X24.599 Y8.047
N16560 X24.555 Y8.174
N16565 X24.497 Y8.373
N16570 X24.454 Y8.572
N16575 X24.423 Y8.771
N16580 X24.405 Y8.97
N16585 X24.403 Y9.024
N16590 X24.402 Y9.051
N16595 G3 X23.202 Y9.007 I-0.6 J-0.022
N16600 X23.572 Y8.475 I0.6 J0.022
N16605 G2 X23.902 Y7.704 I-0.23 J-0.554
N16610 X18.726 Y7.401 I-2.657 J1.03
N16615 G1 X18.716 Y7.42 F1333.33
N16620 G2 X21.11 Y11.581 Z-6.4 I2.529 J1.315
N16625 G1 X21.13 Y11.582
N16630 X21.435 Y11.594 F4000.
N16635 G2 X24.402 Y8.856 I0.114 J-2.853
N16640 G1 X24.403 Y8.829
N16645 X24.406 Y8.771
N16650 X24.425 Y8.572
N16655 X24.456 Y8.373
N16660 X24.501 Y8.174
N16665 X24.56 Y7.975
N16670 X24.599 Y7.862
N16675 X24.633 Y7.776
N16680 X24.722 Y7.576
N16685 X24.798 Y7.43
N16690 X24.828 Y7.377
N16695 X24.954 Y7.178
N16700 X24.997 Y7.117
N16705 X25.103 Y6.979
N16710 X25.196 Y6.869
N16715 X25.279 Y6.78
N16720 X25.395 Y6.665
N16725 X25.489 Y6.581
N16730 X25.594 Y6.495
N16735 X25.747 Y6.382
N16740 X25.793 Y6.35
N16745 X25.992 Y6.228
N16750 X26.077 Y6.183
N16755 X26.192 Y6.126
N16760 X26.391 Y6.041
N16765 X26.551 Y5.984
N16770 X26.59 Y5.971
N16775 X26.789 Y5.917
N16780 X26.988 Y5.877
N16785 X27.187 Y5.85
N16790 X27.386 Y5.836
N16795 X27.585 Y5.834
N16800 X362.415
N16805 X362.614 Y5.836
N16810 X362.813 Y5.85
N16815 X363.012 Y5.877
N16820 X363.211 Y5.917
N16825 X363.41 Y5.971
N16830 X363.449 Y5.984
N16835 X363.609 Y6.041
N16840 X363.808 Y6.126
N16845 X363.923 Y6.183
N16850 X364.008 Y6.228
N16855 X364.207 Y6.35
N16860 X364.253 Y6.382
N16865 X364.406 Y6.495
N16870 X364.511 Y6.581
N16875 X364.605 Y6.665
N16880 X364.721 Y6.78
N16885 X364.804 Y6.869
N16890 X364.897 Y6.979
N16895 X365.003 Y7.117
N16900 X365.046 Y7.178
N16905 X365.172 Y7.377
N16910 X365.202 Y7.43
N16915 X365.278 Y7.576
N16920 X365.367 Y7.776
N16925 X365.401 Y7.862
N16930 X365.44 Y7.975
N16935 X365.499 Y8.174
N16940 X365.544 Y8.373
N16945 X365.575 Y8.572
N16950 X365.594 Y8.771
N16955 X365.597 Y8.829
N16960 X365.598 Y8.856
N16965 G2 X366.797 Y8.808 I0.6 J-0.024
N16970 X366.431 Y8.279 I-0.6 J0.024
N16975 G3 X366.107 Y7.505 I0.233 J-0.553
N16980 X371.274 Y7.221 I2.649 J1.051
N16985 G1 X371.284 Y7.24 F1333.33
N16990 G3 X368.892 Y11.403 Z-6.6 I-2.528 J1.316
N16995 G1 X368.871 Y11.404
N17000 X368.566 Y11.416 F4000.
N17005 G3 X365.598 Y8.678 I-0.115 J-2.853
N17010 G1 X365.596 Y8.634
N17015 X365.593 Y8.572
N17020 X365.573 Y8.373
N17025 X365.541 Y8.174
N17030 X365.495 Y7.975
N17035 X365.436 Y7.776
N17040 X365.401 Y7.677
N17045 X365.361 Y7.576
N17050 X365.271 Y7.377
N17055 X365.202 Y7.245
N17060 X365.164 Y7.178
N17065 X365.036 Y6.979
N17070 X365.003 Y6.932
N17075 X364.886 Y6.78
N17080 X364.804 Y6.684
N17085 X364.707 Y6.581
N17090 X364.605 Y6.481
N17095 X364.494 Y6.382
N17100 X364.406 Y6.31
N17105 X364.232 Y6.183
N17110 X364.207 Y6.165
N17115 X364.008 Y6.043
N17120 X363.896 Y5.984
N17125 X363.808 Y5.941
N17130 X363.609 Y5.856
N17135 X363.41 Y5.787
N17140 X363.404 Y5.785
N17145 X363.211 Y5.732
N17150 X363.012 Y5.692
N17155 X362.813 Y5.665
N17160 X362.614 Y5.651
N17165 X362.415 Y5.649
N17170 X27.585
N17175 X27.386 Y5.651
N17180 X27.187 Y5.665
N17185 X26.988 Y5.692
N17190 X26.789 Y5.732
N17195 X26.596 Y5.785
N17200 X26.59 Y5.787
N17205 X26.391 Y5.856
N17210 X26.192 Y5.941
N17215 X26.104 Y5.984
N17220 X25.992 Y6.043
N17225 X25.793 Y6.165
N17230 X25.768 Y6.183
N17235 X25.594 Y6.31
N17240 X25.506 Y6.382
N17245 X25.395 Y6.481
N17250 X25.293 Y6.581
N17255 X25.196 Y6.684
N17260 X25.114 Y6.78
N17265 X24.997 Y6.932
N17270 X24.964 Y6.979
N17275 X24.836 Y7.178
N17280 X24.798 Y7.245
N17285 X24.729 Y7.377
N17290 X24.639 Y7.576
N17295 X24.599 Y7.677
N17300 X24.564 Y7.776
N17305 X24.505 Y7.975
N17310 X24.459 Y8.174
N17315 X24.427 Y8.373
N17320 X24.407 Y8.572
N17325 X24.404 Y8.634
N17330 X24.402 Y8.678
N17335 G3 X23.203 Y8.63 I-0.6 J-0.024
N17340 X23.549 Y8.11 I0.6 J0.024
N17345 G2 X23.844 Y7.322 I-0.253 J-0.544
N17350 X18.709 Y7.176 I-2.602 J1.162
N17355 G1 X18.699 Y7.195 F1333.33
N17360 G2 X21.136 Y11.331 Z-6.8 I2.542 J1.289
N17365 G1 X21.157 Y11.332
N17370 X21.462 Y11.341 F4000.
N17375 G2 X24.4 Y8.572 I0.085 J-2.854
N17380 G1 X24.404 Y8.439
N17385 X24.408 Y8.373
N17390 X24.429 Y8.174
N17395 X24.462 Y7.975
N17400 X24.509 Y7.776
N17405 X24.569 Y7.576
N17410 X24.599 Y7.493
N17415 X24.644 Y7.377
N17420 X24.736 Y7.178
N17425 X24.798 Y7.06
N17430 X24.845 Y6.979
N17435 X24.974 Y6.78
N17440 X24.997 Y6.747
N17445 X25.126 Y6.581
N17450 X25.196 Y6.5
N17455 X25.307 Y6.382
N17460 X25.395 Y6.296
N17465 X25.523 Y6.183
N17470 X25.594 Y6.125
N17475 X25.789 Y5.984
N17480 X25.793 Y5.981
N17485 X25.992 Y5.859
N17490 X26.133 Y5.785
N17495 X26.192 Y5.756
N17500 X26.391 Y5.671
N17505 X26.59 Y5.602
N17510 X26.644 Y5.585
N17515 X26.789 Y5.547
N17520 X26.988 Y5.507
N17525 X27.187 Y5.48
N17530 X27.386 Y5.466
N17535 X27.585 Y5.464
N17540 X362.415
N17545 X362.614 Y5.466
N17550 X362.813 Y5.48
N17555 X363.012 Y5.507
N17560 X363.211 Y5.547
N17565 X363.356 Y5.585
N17570 X363.41 Y5.602
N17575 X363.609 Y5.671
N17580 X363.808 Y5.756
N17585 X363.867 Y5.785
N17590 X364.008 Y5.859
N17595 X364.207 Y5.981
N17600 X364.211 Y5.984
N17605 X364.406 Y6.125
N17610 X364.477 Y6.183
N17615 X364.605 Y6.296
N17620 X364.693 Y6.382
N17625 X364.804 Y6.5
N17630 X364.874 Y6.581
N17635 X365.003 Y6.747
N17640 X365.026 Y6.78
N17645 X365.155 Y6.979
N17650 X365.202 Y7.06
N17655 X365.264 Y7.178
N17660 X365.356 Y7.377
N17665 X365.401 Y7.493
N17670 X365.431 Y7.576
N17675 X365.491 Y7.776
N17680 X365.538 Y7.975
N17685 X365.571 Y8.174
N17690 X365.592 Y8.373
N17695 X365.596 Y8.439
N17700 X365.6 Y8.572
N17705 G2 X366.799 Y8.536 I0.6 J-0.018
N17710 X366.426 Y7.998 I-0.6 J0.018
N17715 G3 X366.09 Y7.231 I0.226 J-0.556
N17720 X371.269 Y6.892 I2.666 J1.006
N17725 G1 X371.279 Y6.911 F1333.33
N17730 G3 X368.905 Y11.083 Z-7. I-2.522 J1.326
N17735 G1 X368.884 Y11.084
N17740 X368.579 Y11.098 F4000.
N17745 G3 X365.6 Y8.373 I-0.127 J-2.852
N17750 G1 X365.591 Y8.174
N17755 X365.569 Y7.975
N17760 X365.535 Y7.776
N17765 X365.488 Y7.576
N17770 X365.426 Y7.377
N17775 X365.401 Y7.308
N17780 X365.35 Y7.178
N17785 X365.257 Y6.979
N17790 X365.202 Y6.876
N17795 X365.147 Y6.78
N17800 X365.016 Y6.581
N17805 X365.003 Y6.563
N17810 X364.862 Y6.382
N17815 X364.804 Y6.315
N17820 X364.679 Y6.183
N17825 X364.605 Y6.111
N17830 X364.46 Y5.984
N17835 X364.406 Y5.94
N17840 X364.207 Y5.796
N17845 X364.19 Y5.785
N17850 X364.008 Y5.674
N17855 X363.838 Y5.585
N17860 X363.808 Y5.571
N17865 X363.609 Y5.486
N17870 X363.41 Y5.417
N17875 X363.305 Y5.386
N17880 X363.211 Y5.362
N17885 X363.012 Y5.322
N17890 X362.813 Y5.295
N17895 X362.614 Y5.281
N17900 X362.415 Y5.279
N17905 X27.585
N17910 X27.386 Y5.281
N17915 X27.187 Y5.295
N17920 X26.988 Y5.322
N17925 X26.789 Y5.362
N17930 X26.695 Y5.386
N17935 X26.59 Y5.417
N17940 X26.391 Y5.486
N17945 X26.192 Y5.571
N17950 X26.162 Y5.585
N17955 X25.992 Y5.674
N17960 X25.81 Y5.785
N17965 X25.793 Y5.796
N17970 X25.594 Y5.94
N17975 X25.54 Y5.984
N17980 X25.395 Y6.111
N17985 X25.321 Y6.183
N17990 X25.196 Y6.315
N17995 X25.138 Y6.382
N18000 X24.997 Y6.563
N18005 X24.984 Y6.581
N18010 X24.853 Y6.78
N18015 X24.798 Y6.876
N18020 X24.743 Y6.979
N18025 X24.65 Y7.178
N18030 X24.599 Y7.308
N18035 X24.574 Y7.377
N18040 X24.512 Y7.576
N18045 X24.465 Y7.776
N18050 X24.431 Y7.975
N18055 X24.409 Y8.174
N18060 X24.4 Y8.373
N18065 G3 X23.201 Y8.319 I-0.599 J-0.027
N18070 X23.576 Y7.79 I0.599 J0.027
N18075 G2 X23.913 Y7.023 I-0.225 J-0.556
N18080 X18.737 Y6.668 I-2.668 J1.001
N18085 G1 X18.728 Y6.686 F1333.33
N18090 G2 X21.083 Y10.869 Z-7.2 I2.517 J1.338
N18095 G1 X21.104 Y10.871
N18100 X21.409 Y10.885 F4000.
N18105 G2 X24.4 Y8.174 I0.14 J-2.852
N18110 G1 X24.41 Y7.975
N18115 X24.433 Y7.776
N18120 X24.468 Y7.576
N18125 X24.516 Y7.377
N18130 X24.579 Y7.178
N18135 X24.599 Y7.123
N18140 X24.656 Y6.979
N18145 X24.75 Y6.78
N18150 X24.798 Y6.691
N18155 X24.862 Y6.581
N18160 X24.994 Y6.382
N18165 X24.997 Y6.378
N18170 X25.15 Y6.183
N18175 X25.196 Y6.13
N18180 X25.335 Y5.984
N18185 X25.395 Y5.926
N18190 X25.558 Y5.785
N18195 X25.594 Y5.755
N18200 X25.793 Y5.611
N18205 X25.832 Y5.585
N18210 X25.992 Y5.489
N18215 X26.192 Y5.386
N18220 X26.391 Y5.301
N18225 X26.59 Y5.232
N18230 X26.749 Y5.187
N18235 X26.789 Y5.178
N18240 X26.988 Y5.137
N18245 X27.187 Y5.11
N18250 X27.386 Y5.096
N18255 X27.585 Y5.094
N18260 X362.415
N18265 X362.614 Y5.096
N18270 X362.813 Y5.11
N18275 X363.012 Y5.137
N18280 X363.211 Y5.178
N18285 X363.251 Y5.187
N18290 X363.41 Y5.232
N18295 X363.609 Y5.301
N18300 X363.808 Y5.386
N18305 X364.008 Y5.489
N18310 X364.168 Y5.585
N18315 X364.207 Y5.611
N18320 X364.406 Y5.755
N18325 X364.442 Y5.785
N18330 X364.605 Y5.926
N18335 X364.665 Y5.984
N18340 X364.804 Y6.13
N18345 X364.85 Y6.183
N18350 X365.003 Y6.378
N18355 X365.006 Y6.382
N18360 X365.138 Y6.581
N18365 X365.202 Y6.691
N18370 X365.25 Y6.78
N18375 X365.344 Y6.979
N18380 X365.401 Y7.123
N18385 X365.421 Y7.178
N18390 X365.484 Y7.377
N18395 X365.532 Y7.576
N18400 X365.567 Y7.776
N18405 X365.59 Y7.975
N18410 X365.599 Y8.174
N18415 G2 X366.798 Y8.115 I0.599 J-0.029
N18420 X366.422 Y7.587 I-0.599 J0.029
N18425 G3 X366.082 Y6.822 I0.223 J-0.557
N18430 X371.255 Y6.443 I2.673 J0.989
N18435 G1 X371.265 Y6.462 F1333.33
N18440 G3 X368.928 Y10.655 Z-7.4 I-2.51 J1.349
N18445 G1 X368.907 Y10.657
N18450 X368.603 Y10.673 F4000.
N18455 G3 X365.599 Y7.975 I-0.153 J-2.851
N18460 G1 X365.589 Y7.776
N18465 X365.565 Y7.576
N18470 X365.529 Y7.377
N18475 X365.48 Y7.178
N18480 X365.416 Y6.979
N18485 X365.401 Y6.938
N18490 X365.337 Y6.78
N18495 X365.242 Y6.581
N18500 X365.202 Y6.506
N18505 X365.129 Y6.382
N18510 X365.003 Y6.193
N18515 X364.996 Y6.183
N18520 X364.838 Y5.984
N18525 X364.804 Y5.945
N18530 X364.65 Y5.785
N18535 X364.605 Y5.741
N18540 X364.425 Y5.585
N18545 X364.406 Y5.57
N18550 X364.207 Y5.426
N18555 X364.145 Y5.386
N18560 X364.008 Y5.304
N18565 X363.808 Y5.201
N18570 X363.778 Y5.187
N18575 X363.609 Y5.116
N18580 X363.41 Y5.047
N18585 X363.211 Y4.993
N18590 X363.192 Y4.988
N18595 X363.012 Y4.952
N18600 X362.813 Y4.925
N18605 X362.614 Y4.911
N18610 X362.415 Y4.909
N18615 X27.585
N18620 X27.386 Y4.911
N18625 X27.187 Y4.925
N18630 X26.988 Y4.952
N18635 X26.808 Y4.988
N18640 X26.789 Y4.993
N18645 X26.59 Y5.047
N18650 X26.391 Y5.116
N18655 X26.222 Y5.187
N18660 X26.192 Y5.201
N18665 X25.992 Y5.304
N18670 X25.855 Y5.386
N18675 X25.793 Y5.426
N18680 X25.594 Y5.57
N18685 X25.575 Y5.585
N18690 X25.395 Y5.741
N18695 X25.35 Y5.785
N18700 X25.196 Y5.945
N18705 X25.162 Y5.984
N18710 X25.004 Y6.183
N18715 X24.997 Y6.193
N18720 X24.871 Y6.382
N18725 X24.798 Y6.506
N18730 X24.758 Y6.581
N18735 X24.663 Y6.78
N18740 X24.599 Y6.938
N18745 X24.584 Y6.979
N18750 X24.52 Y7.178
N18755 X24.471 Y7.377
N18760 X24.435 Y7.576
N18765 X24.411 Y7.776
N18770 X24.401 Y7.975
N18775 G3 X23.203 Y7.911 I-0.599 J-0.032
N18780 X23.581 Y7.385 I0.599 J0.032
N18785 G2 X23.924 Y6.621 I-0.221 J-0.558
N18790 X18.752 Y6.219 I-2.678 J0.976
N18795 G1 X18.742 Y6.237 F1333.33
N18800 G2 X21.06 Y10.441 Z-7.6 I2.504 J1.36
N18805 G1 X21.081 Y10.443
N18810 X21.385 Y10.46 F4000.
N18815 G2 X24.401 Y7.776 I0.165 J-2.85
N18820 G1 X24.413 Y7.576
N18825 X24.437 Y7.377
N18830 X24.474 Y7.178
N18835 X24.524 Y6.979
N18840 X24.589 Y6.78
N18845 X24.599 Y6.753
N18850 X24.669 Y6.581
N18855 X24.765 Y6.382
N18860 X24.798 Y6.321
N18865 X24.88 Y6.183
N18870 X24.997 Y6.008
N18875 X25.015 Y5.984
N18880 X25.175 Y5.785
N18885 X25.196 Y5.76
N18890 X25.364 Y5.585
N18895 X25.395 Y5.556
N18900 X25.593 Y5.386
N18905 X25.594 Y5.385
N18910 X25.793 Y5.241
N18915 X25.877 Y5.187
N18920 X25.992 Y5.119
N18925 X26.192 Y5.017
N18930 X26.254 Y4.988
N18935 X26.391 Y4.931
N18940 X26.59 Y4.862
N18945 X26.789 Y4.808
N18950 X26.873 Y4.789
N18955 X26.988 Y4.767
N18960 X27.187 Y4.74
N18965 X27.386 Y4.726
N18970 X27.585 Y4.724
N18975 X362.415
N18980 X362.614 Y4.726
N18985 X362.813 Y4.74
N18990 X363.012 Y4.767
N18995 X363.127 Y4.789
N19000 X363.211 Y4.808
N19005 X363.41 Y4.862
N19010 X363.609 Y4.931
N19015 X363.746 Y4.988
N19020 X363.808 Y5.017
N19025 X364.008 Y5.119
N19030 X364.123 Y5.187
N19035 X364.207 Y5.241
N19040 X364.406 Y5.385
N19045 X364.407 Y5.386
N19050 X364.605 Y5.556
N19055 X364.636 Y5.585
N19060 X364.804 Y5.76
N19065 X364.825 Y5.785
N19070 X364.985 Y5.984
N19075 X365.003 Y6.008
N19080 X365.12 Y6.183
N19085 X365.202 Y6.321
N19090 X365.235 Y6.382
N19095 X365.331 Y6.581
N19100 X365.401 Y6.753
N19105 X365.411 Y6.78
N19110 X365.476 Y6.979
N19115 X365.526 Y7.178
N19120 X365.563 Y7.377
N19125 X365.587 Y7.576
N19130 X365.599 Y7.776
N19135 G2 X366.797 Y7.706 I0.599 J-0.035
N19140 X366.417 Y7.182 I-0.599 J0.035
N19145 G3 X366.071 Y6.42 I0.219 J-0.559
N19150 X371.241 Y5.994 I2.682 J0.964
N19155 G1 X371.251 Y6.013 F1333.33
N19160 G3 X368.951 Y10.227 Z-7.8 I-2.498 J1.371
N19165 G1 X368.93 Y10.229
N19170 X368.626 Y10.248 F4000.
N19175 G3 X365.598 Y7.576 I-0.178 J-2.849
N19180 G1 X365.586 Y7.377
N19185 X365.561 Y7.178
N19190 X365.523 Y6.979
N19195 X365.471 Y6.78
N19200 X365.406 Y6.581
N19205 X365.401 Y6.568
N19210 X365.325 Y6.382
N19215 X365.227 Y6.183
N19220 X365.202 Y6.136
N19225 X365.112 Y5.984
N19230 X365.003 Y5.823
N19235 X364.975 Y5.785
N19240 X364.813 Y5.585
N19245 X364.804 Y5.575
N19250 X364.621 Y5.386
N19255 X364.605 Y5.371
N19260 X364.406 Y5.2
N19265 X364.389 Y5.187
N19270 X364.207 Y5.056
N19275 X364.1 Y4.988
N19280 X364.008 Y4.934
N19285 X363.808 Y4.832
N19290 X363.713 Y4.789
N19295 X363.609 Y4.747
N19300 X363.41 Y4.677
N19305 X363.211 Y4.623
N19310 X363.054 Y4.59
N19315 X363.012 Y4.582
N19320 X362.813 Y4.555
N19325 X362.614 Y4.542
N19330 X362.415 Y4.539
N19335 X27.585
N19340 X27.386 Y4.542
N19345 X27.187 Y4.555
N19350 X26.988 Y4.582
N19355 X26.946 Y4.59
N19360 X26.789 Y4.623
N19365 X26.59 Y4.677
N19370 X26.391 Y4.747
N19375 X26.287 Y4.789
N19380 X26.192 Y4.832
N19385 X25.992 Y4.934
N19390 X25.9 Y4.988
N19395 X25.793 Y5.056
N19400 X25.611 Y5.187
N19405 X25.594 Y5.2
N19410 X25.395 Y5.371
N19415 X25.379 Y5.386
N19420 X25.196 Y5.575
N19425 X25.187 Y5.585
N19430 X25.025 Y5.785
N19435 X24.997 Y5.823
N19440 X24.889 Y5.984
N19445 X24.798 Y6.136
N19450 X24.773 Y6.183
N19455 X24.675 Y6.382
N19460 X24.599 Y6.568
N19465 X24.594 Y6.581
N19470 X24.529 Y6.78
N19475 X24.477 Y6.979
N19480 X24.439 Y7.178
N19485 X24.414 Y7.377
N19490 X24.402 Y7.576
N19495 G3 X23.204 Y7.502 I-0.599 J-0.037
N19500 X23.547 Y6.996 I0.599 J0.037
N19505 G2 X23.838 Y6.205 I-0.255 J-0.543
N19510 X19.941 Y4.848 I-2.595 J1.178
N19515 X18.774 Y8.806 I1.302 J2.535
N19520 G1 X18.784 Y8.824 F1333.33
N19525 G2 X21.12 Y10.231 Z-7.9 I2.459 J-1.44
N19530 G1 X21.141 Y10.232
N19535 X21.446 Y10.242 F4000.
N19540 G2 X24.401 Y7.491 I0.102 J-2.853
N19545 G1 X24.403 Y7.456
N19550 X24.405 Y7.418
N19555 X24.407 Y7.377
N19560 X24.426 Y7.178
N19565 X24.459 Y6.979
N19570 X24.504 Y6.78
N19575 X24.564 Y6.581
N19580 X24.599 Y6.48
N19585 X24.638 Y6.382
N19590 X24.728 Y6.183
N19595 X24.798 Y6.048
N19600 X24.835 Y5.984
N19605 X24.962 Y5.785
N19610 X24.997 Y5.735
N19615 X25.112 Y5.585
N19620 X25.196 Y5.487
N19625 X25.29 Y5.386
N19630 X25.395 Y5.283
N19635 X25.503 Y5.187
N19640 X25.594 Y5.113
N19645 X25.764 Y4.988
N19650 X25.793 Y4.968
N19655 X25.992 Y4.846
N19660 X26.1 Y4.789
N19665 X26.192 Y4.744
N19670 X26.391 Y4.659
N19675 X26.589 Y4.59
N19680 X26.59
N19685 X26.789 Y4.535
N19690 X26.988 Y4.495
N19695 X27.187 Y4.468
N19700 X27.386 Y4.454
N19705 X27.585 Y4.452
N19710 X362.415
N19715 X362.614 Y4.454
N19720 X362.813 Y4.468
N19725 X363.012 Y4.495
N19730 X363.211 Y4.535
N19735 X363.41 Y4.59
N19740 X363.411
N19745 X363.609 Y4.659
N19750 X363.808 Y4.744
N19755 X363.9 Y4.789
N19760 X364.008 Y4.846
N19765 X364.207 Y4.968
N19770 X364.236 Y4.988
N19775 X364.406 Y5.113
N19780 X364.497 Y5.187
N19785 X364.605 Y5.283
N19790 X364.71 Y5.386
N19795 X364.804 Y5.487
N19800 X364.888 Y5.585
N19805 X365.003 Y5.735
N19810 X365.038 Y5.785
N19815 X365.165 Y5.984
N19820 X365.202 Y6.048
N19825 X365.272 Y6.183
N19830 X365.362 Y6.382
N19835 X365.401 Y6.48
N19840 X365.436 Y6.581
N19845 X365.496 Y6.78
N19850 X365.541 Y6.979
N19855 X365.574 Y7.178
N19860 X365.593 Y7.377
N19865 X365.595 Y7.418
N19870 X365.597 Y7.456
N19875 X365.599 Y7.491
N19880 G2 X366.637 Y7.879 I0.6 J-0.021
N19885 G0 Z5.
N19890 X366.645 Y305.672
N19895 Z0.616
N19900 G1 Z-0.2 F4000.
N19905 G2 X365.599 Y306.041 I-0.446 J0.401
N19910 G1 X365.589 Y306.24
N19915 X365.565 Y306.439
N19920 X365.529 Y306.638
N19925 X365.48 Y306.837
N19930 X365.416 Y307.036
N19935 X365.401 Y307.078
N19940 X365.338 Y307.235
N19945 X365.243 Y307.434
N19950 X365.202 Y307.51
N19955 X365.13 Y307.634
N19960 X365.003 Y307.823
N19965 X364.996 Y307.833
N19970 X364.838 Y308.032
N19975 X364.804 Y308.071
N19980 X364.651 Y308.231
N19985 X364.605 Y308.275
N19990 X364.426 Y308.43
N19995 X364.406 Y308.446
N20000 X364.207 Y308.59
N20005 X364.147 Y308.629
N20010 X364.008 Y308.712
N20015 X363.808 Y308.815
N20020 X363.779 Y308.828
N20025 X363.609 Y308.9
N20030 X363.41 Y308.969
N20035 X363.211 Y309.023
N20040 X363.195 Y309.027
N20045 X363.012 Y309.064
N20050 X362.813 Y309.091
N20055 X362.614 Y309.105
N20060 X362.415 Y309.107
N20065 X27.585
N20070 X27.386 Y309.105
N20075 X27.187 Y309.091
N20080 X26.988 Y309.064
N20085 X26.805 Y309.027
N20090 X26.789 Y309.023
N20095 X26.59 Y308.969
N20100 X26.391 Y308.9
N20105 X26.221 Y308.828
N20110 X26.192 Y308.815
N20115 X25.992 Y308.712
N20120 X25.853 Y308.629
N20125 X25.793 Y308.59
N20130 X25.594 Y308.446
N20135 X25.574 Y308.43
N20140 X25.395 Y308.275
N20145 X25.349 Y308.231
N20150 X25.196 Y308.071
N20155 X25.162 Y308.032
N20160 X25.004 Y307.833
N20165 X24.997 Y307.823
N20170 X24.87 Y307.634
N20175 X24.798 Y307.51
N20180 X24.757 Y307.434
N20185 X24.662 Y307.235
N20190 X24.599 Y307.078
N20195 X24.584 Y307.036
N20200 X24.52 Y306.837
N20205 X24.471 Y306.638
N20210 X24.435 Y306.439
N20215 X24.411 Y306.24
N20220 X24.401 Y306.041
N20225 G2 X23.202 Y306.105 I-0.599 J0.032
N20230 X23.581 Y306.631 I0.599 J-0.032
N20235 G3 X23.923 Y307.394 I-0.221 J0.558
N20240 X18.751 Y307.795 I-2.677 J-0.977
N20245 G1 X18.741 Y307.777 F1333.33
N20250 G3 X21.061 Y303.573 Z-0.4 I2.505 J-1.36
N20255 G1 X21.082 Y303.572
N20260 X21.386 Y303.554 F4000.
N20265 G3 X24.401 Y306.24 I0.165 J2.85
N20270 G1 X24.413 Y306.439
N20275 X24.437 Y306.638
N20280 X24.474 Y306.837
N20285 X24.524 Y307.036
N20290 X24.589 Y307.235
N20295 X24.599 Y307.263
N20300 X24.669 Y307.434
N20305 X24.765 Y307.634
N20310 X24.798 Y307.695
N20315 X24.879 Y307.833
N20320 X24.997 Y308.008
N20325 X25.014 Y308.032
N20330 X25.174 Y308.231
N20335 X25.196 Y308.256
N20340 X25.364 Y308.43
N20345 X25.395 Y308.46
N20350 X25.592 Y308.629
N20355 X25.594 Y308.631
N20360 X25.793 Y308.775
N20365 X25.876 Y308.828
N20370 X25.992 Y308.897
N20375 X26.192 Y309.
N20380 X26.252 Y309.027
N20385 X26.391 Y309.085
N20390 X26.59 Y309.154
N20395 X26.789 Y309.208
N20400 X26.87 Y309.226
N20405 X26.988 Y309.249
N20410 X27.187 Y309.276
N20415 X27.386 Y309.29
N20420 X27.585 Y309.292
N20425 X362.415
N20430 X362.614 Y309.29
N20435 X362.813 Y309.276
N20440 X363.012 Y309.249
N20445 X363.13 Y309.226
N20450 X363.211 Y309.208
N20455 X363.41 Y309.154
N20460 X363.609 Y309.085
N20465 X363.748 Y309.027
N20470 X363.808 Y309.
N20475 X364.008 Y308.897
N20480 X364.124 Y308.828
N20485 X364.207 Y308.775
N20490 X364.406 Y308.631
N20495 X364.408 Y308.629
N20500 X364.605 Y308.46
N20505 X364.636 Y308.43
N20510 X364.804 Y308.256
N20515 X364.826 Y308.231
N20520 X364.986 Y308.032
N20525 X365.003 Y308.008
N20530 X365.121 Y307.833
N20535 X365.202 Y307.695
N20540 X365.235 Y307.634
N20545 X365.331 Y307.434
N20550 X365.401 Y307.263
N20555 X365.411 Y307.235
N20560 X365.476 Y307.036
N20565 X365.526 Y306.837
N20570 X365.563 Y306.638
N20575 X365.587 Y306.439
N20580 X365.599 Y306.24
N20585 G3 X366.797 Y306.309 I0.599 J0.035
N20590 X366.417 Y306.833 I-0.599 J-0.035
N20595 G2 X366.071 Y307.595 I0.219 J0.559
N20600 X371.241 Y308.02 I2.682 J-0.964
N20605 G1 X371.251 Y308.001 F1333.33
N20610 G2 X368.951 Y303.787 Z-0.6 I-2.499 J-1.371
N20615 G1 X368.93 Y303.786
N20620 X368.626 Y303.767 F4000.
N20625 G2 X365.598 Y306.439 I-0.178 J2.849
N20630 G1 X365.586 Y306.638
N20635 X365.561 Y306.837
N20640 X365.523 Y307.036
N20645 X365.472 Y307.235
N20650 X365.406 Y307.434
N20655 X365.401 Y307.448
N20660 X365.325 Y307.634
N20665 X365.228 Y307.833
N20670 X365.202 Y307.88
N20675 X365.112 Y308.032
N20680 X365.003 Y308.193
N20685 X364.975 Y308.231
N20690 X364.814 Y308.43
N20695 X364.804 Y308.441
N20700 X364.621 Y308.629
N20705 X364.605 Y308.645
N20710 X364.406 Y308.816
N20715 X364.39 Y308.828
N20720 X364.207 Y308.96
N20725 X364.101 Y309.027
N20730 X364.008 Y309.082
N20735 X363.808 Y309.184
N20740 X363.715 Y309.226
N20745 X363.609 Y309.27
N20750 X363.41 Y309.339
N20755 X363.211 Y309.393
N20760 X363.058 Y309.426
N20765 X363.012 Y309.434
N20770 X362.813 Y309.461
N20775 X362.614 Y309.475
N20780 X362.415 Y309.477
N20785 X27.585
N20790 X27.386 Y309.475
N20795 X27.187 Y309.461
N20800 X26.988 Y309.434
N20805 X26.942 Y309.426
N20810 X26.789 Y309.393
N20815 X26.59 Y309.339
N20820 X26.391 Y309.27
N20825 X26.285 Y309.226
N20830 X26.192 Y309.184
N20835 X25.992 Y309.082
N20840 X25.899 Y309.027
N20845 X25.793 Y308.96
N20850 X25.61 Y308.828
N20855 X25.594 Y308.816
N20860 X25.395 Y308.645
N20865 X25.379 Y308.629
N20870 X25.196 Y308.441
N20875 X25.187 Y308.43
N20880 X25.025 Y308.231
N20885 X24.997 Y308.193
N20890 X24.888 Y308.032
N20895 X24.798 Y307.88
N20900 X24.772 Y307.833
N20905 X24.675 Y307.634
N20910 X24.599 Y307.448
N20915 X24.594 Y307.434
N20920 X24.528 Y307.235
N20925 X24.477 Y307.036
N20930 X24.439 Y306.837
N20935 X24.414 Y306.638
N20940 X24.402 Y306.439
N20945 G2 X23.204 Y306.514 I-0.599 J0.037
N20950 X23.586 Y307.036 I0.599 J-0.037
N20955 G3 X23.935 Y307.796 I-0.217 J0.56
N20960 X18.766 Y308.244 I-2.686 J-0.952
N20965 G1 X18.756 Y308.226 F1333.33
N20970 G3 X21.038 Y304.002 Z-0.8 I2.492 J-1.382
N20975 G1 X21.059 Y304.
N20980 X21.363 Y303.98 F4000.
N20985 G3 X24.402 Y306.638 I0.19 J2.849
N20990 G1 X24.415 Y306.837
N20995 X24.441 Y307.036
N21000 X24.48 Y307.235
N21005 X24.533 Y307.434
N21010 X24.599 Y307.633
N21015 Y307.634
N21020 X24.681 Y307.833
N21025 X24.78 Y308.032
N21030 X24.798 Y308.065
N21035 X24.897 Y308.231
N21040 X24.997 Y308.378
N21045 X25.036 Y308.43
N21050 X25.196 Y308.626
N21055 X25.199 Y308.629
N21060 X25.394 Y308.828
N21065 X25.395 Y308.83
N21070 X25.594 Y309.001
N21075 X25.629 Y309.027
N21080 X25.793 Y309.145
N21085 X25.923 Y309.226
N21090 X25.992 Y309.267
N21095 X26.192 Y309.369
N21100 X26.319 Y309.426
N21105 X26.391 Y309.454
N21110 X26.59 Y309.524
N21115 X26.789 Y309.578
N21120 X26.988 Y309.619
N21125 X27.025 Y309.625
N21130 X27.187 Y309.646
N21135 X27.386 Y309.659
N21140 X27.585 Y309.662
N21145 X362.415
N21150 X362.614 Y309.659
N21155 X362.813 Y309.646
N21160 X362.975 Y309.625
N21165 X363.012 Y309.619
N21170 X363.211 Y309.578
N21175 X363.41 Y309.524
N21180 X363.609 Y309.454
N21185 X363.681 Y309.426
N21190 X363.808 Y309.369
N21195 X364.008 Y309.267
N21200 X364.077 Y309.226
N21205 X364.207 Y309.145
N21210 X364.371 Y309.027
N21215 X364.406 Y309.001
N21220 X364.605 Y308.83
N21225 X364.606 Y308.828
N21230 X364.801 Y308.629
N21235 X364.804 Y308.626
N21240 X364.964 Y308.43
N21245 X365.003 Y308.378
N21250 X365.103 Y308.231
N21255 X365.202 Y308.065
N21260 X365.22 Y308.032
N21265 X365.319 Y307.833
N21270 X365.401 Y307.634
N21275 Y307.633
N21280 X365.467 Y307.434
N21285 X365.52 Y307.235
N21290 X365.559 Y307.036
N21295 X365.585 Y306.837
N21300 X365.598 Y306.638
N21305 G3 X366.795 Y306.718 I0.599 J0.04
N21310 X366.452 Y307.221 I-0.599 J-0.04
N21315 G2 X366.161 Y308.01 I0.256 J0.543
