%
(1005)
(T1  D=6. CR=0. - ZMIN=-8. - FLAT END MILL)
N10 G90 G94 G17 G91.1
N15 G21
N20 G53 G0 Z0.
(2D CONTOUR3)
N25 T1 M6
N30 S24000 M3
N35 G54
N40 G0 X233.637 Y1671.87
N45 G43 Z30. H1
N50 G0 Z5.
N55 G1 Z3. F50.
N60 Z2.5
N65 X362.5 Z-2. F1333.33
N70 X27.5 F4000.
N75 G2 X23.9 Y1675.47 I0. J3.6
N80 G1 Y2096.31
N85 G2 X27.5 Y2099.91 I3.6 J0.
N90 G1 X362.5
N95 G0 Z5.
N100 X358.9 Y1807.933
N105 G1 Z3. F50.
N110 Z2.5
N115 Y1679.07 Z-2. F1333.33
N120 Y2092.71 F4000.
N125 Y1679.07 Z-4. F1333.33
N130 Y2092.71 F4000.
N135 Y1756.71 Z-5.625 F1333.33
N140 Z-5.
N145 Y1740.71
N150 Z-5.702 F50.
N155 Y1679.07 Z-6. F1333.33
N160 Y1740.71 F4000.
N165 Z-5.
N170 Y1756.71
N175 Z-6. F50.
N180 Y1888.5 F4000.
N185 Z-5.
N190 Y1904.5
N195 Z-6. F50.
N200 Y2036.28 F4000.
N205 Z-5.
N210 Y2052.28
N215 Z-6. F50.
N220 Y2092.71 F4000.
N225 G0 Z5.
N230 Y454.449
N235 G1 Z3. F50.
N240 Z2.5
N245 Y325.586 Z-2. F1333.33
N250 Y1661.87 F4000.
N255 Y325.586 Z-4. F1333.33
N260 Y1661.87 F4000.
N265 Y698.821 Z-5.441 F1333.33
N270 Z-5.
N275 Y682.821
N280 Z-5.465 F50.
N285 Y381.935 Z-5.916 F1333.33
N290 Z-5.
N295 Y365.935
N300 Z-5.94 F50.
N305 Y325.586 Z-6. F1333.33
N310 Y365.935 F4000.
N315 Z-5.
N320 Y381.935
N325 Z-6. F50.
N330 Y682.821 F4000.
N335 Z-5.
N340 Y698.821
N345 Z-6. F50.
N350 Y1083.57 F4000.
N355 Z-5.
N360 Y1099.57
N365 Z-6. F50.
N370 Y1359.9 F4000.
N375 Z-5.
N380 Y1375.9
N385 Z-6. F50.
N390 Y1591.55 F4000.
N395 Z-5.
N400 Y1607.55
N405 Z-6. F50.
N410 Y1661.87 F4000.
N415 G0 Z5.
N420 X233.637 Y318.386
N425 G1 Z3. F50.
N430 Z2.5
N435 X362.5 Z-2. F1333.33
N440 X27.5 F4000.
N445 G2 X23.9 Y321.986 I0. J3.6
N450 G1 Y1665.47
N455 G2 X27.5 Y1669.07 I3.6 J0.
N460 G1 X362.5
N465 G0 Z5.
N470 X233.637 Y1671.87
N475 G1 Z1. F50.
N480 Z0.5
N485 X362.5 Z-4. F1333.33
N490 X27.5 F4000.
N495 G2 X23.9 Y1675.47 I0. J3.6
N500 G1 Y2096.31
N505 G2 X27.5 Y2099.91 I3.6 J0.
N510 G1 X362.5
N515 G0 Z5.
N520 X358.9 Y141.149
N525 G1 Z3. F50.
N530 Z2.5
N535 Y12.286 Z-2. F1333.33
N540 Y308.386 F4000.
N545 Y12.286 Z-4. F1333.33
N550 Y308.386 F4000.
N555 Y64.363 Z-5.648 F1333.33
N560 Z-5.
N565 Y48.363
N570 Z-5.756 F50.
N575 Y12.286 Z-6. F1333.33
N580 Y48.363 F4000.
N585 Z-5.
N590 Y64.363
N595 Z-6. F50.
N600 Y259.391 F4000.
N605 Z-5.
N610 Y275.391
N615 Z-6. F50.
N620 Y308.386 F4000.
N625 G0 Z5.
N630 X233.637 Y5.086
N635 G1 Z3. F50.
N640 Z2.5
N645 X362.5 Z-2. F1333.33
N650 X27.5 F4000.
N655 G2 X23.9 Y8.686 I0. J3.6
N660 G1 Y311.986
N665 G2 X27.5 Y315.586 I3.6 J0.
N670 G1 X362.5
N675 X27.5 Z-2.68 F1333.33
N680 G3 X23.9 Y311.986 Z-2.692 I0. J-3.6
N685 G1 Y8.686 Z-3.308
N690 G3 X27.5 Y5.086 Z-3.32 I3.6 J0.
N695 G1 X362.5 Z-4.
N700 X27.5 F4000.
N705 G2 X23.9 Y8.686 I0. J3.6
N710 G1 Y311.986
N715 G2 X27.5 Y315.586 I3.6 J0.
N720 G1 X362.5
N725 G0 Z5.
N730 X233.637 Y318.386
N735 G1 Z1. F50.
N740 Z0.5
N745 X362.5 Z-4. F1333.33
N750 X27.5 F4000.
N755 G2 X23.9 Y321.986 I0. J3.6
N760 G1 Y1665.47
N765 G2 X27.5 Y1669.07 I3.6 J0.
N770 G1 X362.5
N775 G0 Z5.
N780 X233.637 Y1671.87
N785 G1 Z-1. F50.
N790 Z-1.5
N795 X362.5 Z-6. F1333.33
N800 X204.454 F4000.
N805 Z-5.
N810 X188.454
N815 Z-6. F50.
N820 X27.5 F4000.
N825 G2 X23.9 Y1675.47 I0. J3.6
N830 G1 Y1740.02
N835 Z-5.
N840 Y1756.02
N845 Z-6. F50.
N850 Y1888.5 F4000.
N855 Z-5.
N860 Y1904.5
N865 Z-6. F50.
N870 Y2036.97 F4000.
N875 Z-5.
N880 Y2052.97
N885 Z-6. F50.
N890 Y2096.31 F4000.
N895 G2 X27.5 Y2099.91 I3.6 J0.
N900 G1 X362.5
N905 G0 Z5.
N910 X358.9 Y1807.933
N915 G1 Z-3. F50.
N920 Z-3.5
N925 Y1756.71 Z-5.289 F1333.33
N930 Z-5.
N935 Y1740.71
N940 Z-5.847 F50.
N945 Y1679.07 Z-8. F1333.33
N950 Y1740.71 F4000.
N955 Z-5.
N960 Y1756.71
N965 Z-8. F50.
N970 Y1888.5 F4000.
N975 Z-5.
N980 Y1904.5
N985 Z-8. F50.
N990 Y2036.28 F4000.
N995 Z-5.
N1000 Y2052.28
N1005 Z-8. F50.
N1010 Y2092.71 F4000.
N1015 G0 Z5.
N1020 X359.5 Y1807.333
N1025 G1 Z-3. F50.
N1030 Z-3.5
N1035 Y1756.71 Z-5.268 F1333.33
N1040 Z-5.
N1045 Y1740.71
N1050 Z-5.827 F50.
N1055 Y1678.47 Z-8. F1333.33
N1060 Y1740.71 F4000.
N1065 Z-5.
N1070 Y1756.71
N1075 Z-8. F50.
N1080 Y1888.5 F4000.
N1085 Z-5.
N1090 Y1904.5
N1095 Z-8. F50.
N1100 Y2036.28 F4000.
N1105 Z-5.
N1110 Y2052.28
N1115 Z-8. F50.
N1120 Y2093.31 F4000.
N1125 G0 Z5.
N1130 X233.637 Y318.386
N1135 G1 Z-1. F50.
N1140 Z-1.5
N1145 X362.5 Z-6. F1333.33
N1150 X204.454 F4000.
N1155 Z-5.
N1160 X188.454
N1165 Z-6. F50.
N1170 X27.5 F4000.
N1175 G2 X23.9 Y321.986 I0. J3.6
N1180 G1 Y344.627
N1185 Z-5.
N1190 Y360.627
N1195 Z-6. F50.
N1200 Y683.508 F4000.
N1205 Z-5.
N1210 Y699.508
N1215 Z-6. F50.
N1220 Y1084.25 F4000.
N1225 Z-5.
N1230 Y1100.25
N1235 Z-6. F50.
N1240 Y1359.9 F4000.
N1245 Z-5.
N1250 Y1375.9
N1255 Z-6. F50.
N1260 Y1592.92 F4000.
N1265 Z-5.
N1270 Y1608.92
N1275 Z-6. F50.
N1280 Y1665.47 F4000.
N1285 G2 X27.5 Y1669.07 I3.6 J0.
N1290 G1 X188.454
N1295 Z-5.
N1300 X204.454
N1305 Z-6. F50.
N1310 X362.5 F4000.
N1315 G0 Z5.
N1320 X233.637 Y1671.87
N1325 G1 Z-3. F50.
N1330 Z-3.5
N1335 X362.5 Z-8. F1333.33
N1340 X204.454 F4000.
N1345 Z-5.
N1350 X188.454
N1355 Z-8. F50.
N1360 X27.5 F4000.
N1365 G2 X23.9 Y1675.47 I0. J3.6
N1370 G1 Y1740.02
N1375 Z-5.
N1380 Y1756.02
N1385 Z-8. F50.
N1390 Y1888.5 F4000.
N1395 Z-5.
N1400 Y1904.5
N1405 Z-8. F50.
N1410 Y2036.97 F4000.
N1415 Z-5.
N1420 Y2052.97
N1425 Z-8. F50.
N1430 Y2096.31 F4000.
N1435 G2 X27.5 Y2099.91 I3.6 J0.
N1440 G1 X362.5
N1445 G0 Z5.
N1450 X233.637 Y1672.47
N1455 G1 Z-3. F50.
N1460 Z-3.5
N1465 X362.5 Z-8. F1333.33
N1470 X204.454 F4000.
N1475 Z-5.
N1480 X188.454
N1485 Z-8. F50.
N1490 X27.5 F4000.
N1495 G2 X24.5 Y1675.47 I0. J3.
N1500 G1 Y1740.02
N1505 Z-5.
N1510 Y1756.02
N1515 Z-8. F50.
N1520 Y1888.5 F4000.
N1525 Z-5.
N1530 Y1904.5
N1535 Z-8. F50.
N1540 Y2036.97 F4000.
N1545 Z-5.
N1550 Y2052.97
N1555 Z-8. F50.
N1560 Y2096.31 F4000.
N1565 G2 X27.5 Y2099.31 I3. J0.
N1570 G1 X362.5
N1575 G0 Z5.
N1580 X358.9 Y454.449
N1585 G1 Z-3. F50.
N1590 Z-3.5
N1595 Y381.935 Z-6.032 F1333.33
N1600 Z-5.
N1605 Y365.935
N1610 Z-6.591 F50.
N1615 Y325.586 Z-8. F1333.33
N1620 Y365.935 F4000.
N1625 Z-5.
N1630 Y381.935
N1635 Z-8. F50.
N1640 Y682.821 F4000.
N1645 Z-5.
N1650 Y698.821
N1655 Z-8. F50.
N1660 Y1083.57 F4000.
N1665 Z-5.
N1670 Y1099.57
N1675 Z-8. F50.
N1680 Y1359.9 F4000.
N1685 Z-5.
N1690 Y1375.9
N1695 Z-8. F50.
N1700 Y1591.55 F4000.
N1705 Z-5.
N1710 Y1607.55
N1715 Z-8. F50.
N1720 Y1661.87 F4000.
N1725 G0 Z5.
N1730 X359.5 Y453.849
N1735 G1 Z-3. F50.
N1740 Z-3.5
N1745 Y381.935 Z-6.011 F1333.33
N1750 Z-5.
N1755 Y365.935
N1760 Z-6.57 F50.
N1765 Y324.986 Z-8. F1333.33
N1770 Y365.935 F4000.
N1775 Z-5.
N1780 Y381.935
N1785 Z-8. F50.
N1790 Y682.821 F4000.
N1795 Z-5.
N1800 Y698.821
N1805 Z-8. F50.
N1810 Y1083.57 F4000.
N1815 Z-5.
N1820 Y1099.57
N1825 Z-8. F50.
N1830 Y1359.9 F4000.
N1835 Z-5.
N1840 Y1375.9
N1845 Z-8. F50.
N1850 Y1591.55 F4000.
N1855 Z-5.
N1860 Y1607.55
N1865 Z-8. F50.
N1870 Y1662.47 F4000.
N1875 G0 Z5.
N1880 X233.637 Y5.086
N1885 G1 Z-1. F50.
N1890 Z-1.5
N1895 X362.5 Z-6. F1333.33
N1900 X27.5 F4000.
N1905 G2 X23.9 Y8.686 I0. J3.6
N1910 G1 Y48.363
N1915 Z-5.
N1920 Y64.363
N1925 Z-6. F50.
N1930 Y154.908 F4000.
N1935 Z-5.
N1940 Y170.908
N1945 Z-6. F50.
N1950 Y260.765 F4000.
N1955 Z-5.
N1960 Y276.765
N1965 Z-6. F50.
N1970 Y311.986 F4000.
N1975 G2 X27.5 Y315.586 I3.6 J0.
N1980 G1 X188.454
N1985 Z-5.
N1990 X204.454
N1995 Z-6. F50.
N2000 X362.5 F4000.
N2005 G0 Z5.
N2010 X233.637 Y318.386
N2015 G1 Z-3. F50.
N2020 Z-3.5
N2025 X362.5 Z-8. F1333.33
N2030 X204.454 F4000.
N2035 Z-5.
N2040 X188.454
N2045 Z-8. F50.
N2050 X27.5 F4000.
N2055 G2 X23.9 Y321.986 I0. J3.6
N2060 G1 Y344.627
N2065 Z-5.
N2070 Y360.627
N2075 Z-8. F50.
N2080 Y683.508 F4000.
N2085 Z-5.
N2090 Y699.508
N2095 Z-8. F50.
N2100 Y1084.25 F4000.
N2105 Z-5.
N2110 Y1100.25
N2115 Z-8. F50.
N2120 Y1359.9 F4000.
N2125 Z-5.
N2130 Y1375.9
N2135 Z-8. F50.
N2140 Y1592.92 F4000.
N2145 Z-5.
N2150 Y1608.92
N2155 Z-8. F50.
N2160 Y1665.47 F4000.
N2165 G2 X27.5 Y1669.07 I3.6 J0.
N2170 G1 X188.454
N2175 Z-5.
N2180 X204.454
N2185 Z-8. F50.
N2190 X362.5 F4000.
N2195 G0 Z5.
N2200 X233.637 Y318.986
N2205 G1 Z-3. F50.
N2210 Z-3.5
N2215 X362.5 Z-8. F1333.33
N2220 X204.454 F4000.
N2225 Z-5.
N2230 X188.454
N2235 Z-8. F50.
N2240 X27.5 F4000.
N2245 G2 X24.5 Y321.986 I0. J3.
N2250 G1 Y344.627
N2255 Z-5.
N2260 Y360.627
N2265 Z-8. F50.
N2270 Y683.508 F4000.
N2275 Z-5.
N2280 Y699.508
N2285 Z-8. F50.
N2290 Y1084.25 F4000.
N2295 Z-5.
N2300 Y1100.25
N2305 Z-8. F50.
N2310 Y1359.9 F4000.
N2315 Z-5.
N2320 Y1375.9
N2325 Z-8. F50.
N2330 Y1592.92 F4000.
N2335 Z-5.
N2340 Y1608.92
N2345 Z-8. F50.
N2350 Y1665.47 F4000.
N2355 G2 X27.5 Y1668.47 I3. J0.
N2360 G1 X188.454
N2365 Z-5.
N2370 X204.454
N2375 Z-8. F50.
N2380 X362.5 F4000.
N2385 G0 Z5.
N2390 X358.9 Y141.149
N2395 G1 Z-3. F50.
N2400 Z-3.5
N2405 Y64.363 Z-6.181 F1333.33
N2410 Z-5.
N2415 Y48.363
N2420 Z-6.74 F50.
N2425 Y12.286 Z-8. F1333.33
N2430 Y48.363 F4000.
N2435 Z-5.
N2440 Y64.363
N2445 Z-8. F50.
N2450 Y259.391 F4000.
N2455 Z-5.
N2460 Y275.391
N2465 Z-8. F50.
N2470 Y308.386 F4000.
N2475 G0 Z5.
N2480 X359.5 Y140.549
N2485 G1 Z-3. F50.
N2490 Z-3.5
N2495 Y64.363 Z-6.16 F1333.33
N2500 Z-5.
N2505 Y48.363
N2510 Z-6.719 F50.
N2515 Y11.686 Z-8. F1333.33
N2520 Y48.363 F4000.
N2525 Z-5.
N2530 Y64.363
N2535 Z-8. F50.
N2540 Y259.391 F4000.
N2545 Z-5.
N2550 Y275.391
N2555 Z-8. F50.
N2560 Y308.986 F4000.
N2565 G0 Z5.
N2570 X233.637 Y5.086
N2575 G1 Z-3. F50.
N2580 Z-3.5
N2585 X362.5 Z-8. F1333.33
N2590 X27.5 F4000.
N2595 G2 X23.9 Y8.686 I0. J3.6
N2600 G1 Y48.363
N2605 Z-5.
N2610 Y64.363
N2615 Z-8. F50.
N2620 Y154.908 F4000.
N2625 Z-5.
N2630 Y170.908
N2635 Z-8. F50.
N2640 Y260.765 F4000.
N2645 Z-5.
N2650 Y276.765
N2655 Z-8. F50.
N2660 Y311.986 F4000.
N2665 G2 X27.5 Y315.586 I3.6 J0.
N2670 G1 X188.454
N2675 Z-5.
N2680 X204.454
N2685 Z-8. F50.
N2690 X362.5 F4000.
N2695 G0 Z5.
N2700 X233.637 Y5.686
N2705 G1 Z-3. F50.
N2710 Z-3.5
N2715 X362.5 Z-8. F1333.33
N2720 X27.5 F4000.
N2725 G2 X24.5 Y8.686 I0. J3.
N2730 G1 Y48.363
N2735 Z-5.
N2740 Y64.363
N2745 Z-8. F50.
N2750 Y154.908 F4000.
N2755 Z-5.
N2760 Y170.908
N2765 Z-8. F50.
N2770 Y260.765 F4000.
N2775 Z-5.
N2780 Y276.765
N2785 Z-8. F50.
N2790 Y311.986 F4000.
N2795 G2 X27.5 Y314.986 I3. J0.
N2800 G1 X188.454
N2805 Z-5.
N2810 X204.454
N2815 Z-8. F50.
N2820 X362.5 F4000.
N2825 G0 Z30.
(CONTOUR5)
N2830 G0 X366.543 Y14.972
N2835 Z30.
N2840 Z0.593
N2845 G1 Z-0.2 F4000.
N2850 G3 X365.495 Y14.61 I-0.449 J-0.398
N2855 G1 X365.494 Y14.59
N2860 X365.492 Y14.565
N2865 X365.487 Y14.502
N2870 X365.462 Y14.306
N2875 X365.424 Y14.11
N2880 X365.373 Y13.915
N2885 X365.306 Y13.719
N2890 X365.302 Y13.707
N2895 X365.224 Y13.523
N2900 X365.125 Y13.327
N2905 X365.106 Y13.293
N2910 X365.006 Y13.131
N2915 X364.91 Y12.993
N2920 X364.866 Y12.935
N2925 X364.714 Y12.755
N2930 X364.699 Y12.739
N2935 X364.518 Y12.56
N2940 X364.5 Y12.543
N2945 X364.322 Y12.397
N2950 X364.257 Y12.348
N2955 X364.126 Y12.259
N2960 X363.947 Y12.152
N2965 X363.931 Y12.143
N2970 X363.735 Y12.045
N2975 X363.539 Y11.965
N2980 X363.513 Y11.956
N2985 X363.343 Y11.9
N2990 X363.147 Y11.85
N2995 X362.951 Y11.814
N3000 X362.755 Y11.79
N3005 X362.56 Y11.78
N3010 X362.364
N3015 X27.636
N3020 X27.44
N3025 X27.245 Y11.79
N3030 X27.049 Y11.814
N3035 X26.853 Y11.85
N3040 X26.657 Y11.9
N3045 X26.487 Y11.956
N3050 X26.461 Y11.965
N3055 X26.265 Y12.045
N3060 X26.069 Y12.143
N3065 X26.053 Y12.152
N3070 X25.874 Y12.259
N3075 X25.744 Y12.348
N3080 X25.678 Y12.397
N3085 X25.5 Y12.543
N3090 X25.482 Y12.56
N3095 X25.301 Y12.739
N3100 X25.286 Y12.755
N3105 X25.134 Y12.935
N3110 X25.09 Y12.993
N3115 X24.994 Y13.131
N3120 X24.894 Y13.293
N3125 X24.875 Y13.327
N3130 X24.776 Y13.523
N3135 X24.698 Y13.707
N3140 X24.694 Y13.719
N3145 X24.627 Y13.915
N3150 X24.576 Y14.11
N3155 X24.538 Y14.306
N3160 X24.513 Y14.502
N3165 X24.508 Y14.565
N3170 X24.506 Y14.59
N3175 X24.505 Y14.61
N3180 G3 X23.307 Y14.538 I-0.599 J-0.036
N3185 X23.667 Y14.024 I0.599 J0.036
N3190 G2 X23.983 Y13.245 I-0.239 J-0.55
N3195 X18.841 Y12.972 I-2.636 J1.083
N3200 G1 X18.831 Y12.991 F1333.33
N3205 G2 X21.186 Y17.174 Z-0.4 I2.516 J1.338
N3210 G1 X21.207 Y17.175
N3215 X21.512 Y17.19 F4000.
N3220 G2 X24.503 Y14.479 I0.14 J-2.852
N3225 G1 X24.504 Y14.473
N3230 X24.505 Y14.45
N3235 X24.506 Y14.438
N3240 X24.507 Y14.423
N3245 X24.508 Y14.405
N3250 X24.51 Y14.383
N3255 X24.517 Y14.306
N3260 X24.544 Y14.11
N3265 X24.585 Y13.915
N3270 X24.64 Y13.719
N3275 X24.698 Y13.551
N3280 X24.709 Y13.523
N3285 X24.795 Y13.327
N3290 X24.894 Y13.137
N3295 X24.897 Y13.131
N3300 X25.02 Y12.935
N3305 X25.09 Y12.837
N3310 X25.165 Y12.739
N3315 X25.286 Y12.599
N3320 X25.338 Y12.543
N3325 X25.482 Y12.404
N3330 X25.545 Y12.348
N3335 X25.678 Y12.24
N3340 X25.8 Y12.152
N3345 X25.874 Y12.103
N3350 X26.069 Y11.986
N3355 X26.127 Y11.956
N3360 X26.265 Y11.889
N3365 X26.461 Y11.809
N3370 X26.605 Y11.76
N3375 X26.657 Y11.744
N3380 X26.853 Y11.694
N3385 X27.049 Y11.657
N3390 X27.245 Y11.634
N3395 X27.44 Y11.624
N3400 X27.636 Y11.623
N3405 X362.364
N3410 X362.56 Y11.624
N3415 X362.755 Y11.634
N3420 X362.951 Y11.657
N3425 X363.147 Y11.694
N3430 X363.343 Y11.744
N3435 X363.395 Y11.76
N3440 X363.539 Y11.809
N3445 X363.735 Y11.889
N3450 X363.873 Y11.956
N3455 X363.931 Y11.986
N3460 X364.126 Y12.103
N3465 X364.2 Y12.152
N3470 X364.322 Y12.24
N3475 X364.455 Y12.348
N3480 X364.518 Y12.404
N3485 X364.662 Y12.543
N3490 X364.714 Y12.599
N3495 X364.835 Y12.739
N3500 X364.91 Y12.837
N3505 X364.98 Y12.935
N3510 X365.103 Y13.131
N3515 X365.106 Y13.137
N3520 X365.205 Y13.327
N3525 X365.291 Y13.523
N3530 X365.302 Y13.551
N3535 X365.36 Y13.719
N3540 X365.415 Y13.915
N3545 X365.456 Y14.11
N3550 X365.483 Y14.306
N3555 X365.49 Y14.383
N3560 X365.492 Y14.405
N3565 X365.493 Y14.423
N3570 X365.494 Y14.438
N3575 X365.495 Y14.45
N3580 X365.496 Y14.473
N3585 X365.497 Y14.479
N3590 G2 X366.695 Y14.42 I0.599 J-0.029
N3595 X366.303 Y13.886 I-0.599 J0.029
N3600 G3 X365.942 Y13.133 I0.208 J-0.563
N3605 X371.099 Y12.59 I2.702 J0.906
N3610 G1 X371.109 Y12.608 F1333.33
N3615 G3 X368.911 Y16.876 Z-0.6 I-2.465 J1.431
N3620 G1 X368.89 Y16.878
N3625 X368.586 Y16.904 F4000.
N3630 G3 X365.496 Y14.306 I-0.246 J-2.844
N3635 G1 X365.479 Y14.11
N3640 X365.449 Y13.915
N3645 X365.405 Y13.719
N3650 X365.348 Y13.523
N3655 X365.302 Y13.394
N3660 X365.275 Y13.327
N3665 X365.186 Y13.131
N3670 X365.106 Y12.981
N3675 X365.079 Y12.935
N3680 X364.953 Y12.739
N3685 X364.91 Y12.68
N3690 X364.802 Y12.543
N3695 X364.714 Y12.443
N3700 X364.623 Y12.348
N3705 X364.518 Y12.247
N3710 X364.408 Y12.152
N3715 X364.322 Y12.084
N3720 X364.141 Y11.956
N3725 X364.126 Y11.946
N3730 X363.931 Y11.83
N3735 X363.793 Y11.76
N3740 X363.735 Y11.733
N3745 X363.539 Y11.653
N3750 X363.343 Y11.588
N3755 X363.257 Y11.564
N3760 X363.147 Y11.538
N3765 X362.951 Y11.501
N3770 X362.755 Y11.478
N3775 X362.56 Y11.468
N3780 X362.364 Y11.467
N3785 X27.636
N3790 X27.44 Y11.468
N3795 X27.245 Y11.478
N3800 X27.049 Y11.501
N3805 X26.853 Y11.538
N3810 X26.743 Y11.564
N3815 X26.657 Y11.588
N3820 X26.461 Y11.653
N3825 X26.265 Y11.733
N3830 X26.207 Y11.76
N3835 X26.069 Y11.83
N3840 X25.874 Y11.946
N3845 X25.859 Y11.956
N3850 X25.678 Y12.084
N3855 X25.592 Y12.152
N3860 X25.482 Y12.247
N3865 X25.377 Y12.348
N3870 X25.286 Y12.443
N3875 X25.198 Y12.543
N3880 X25.09 Y12.68
N3885 X25.047 Y12.739
N3890 X24.921 Y12.935
N3895 X24.894 Y12.981
N3900 X24.814 Y13.131
N3905 X24.725 Y13.327
N3910 X24.698 Y13.394
N3915 X24.652 Y13.523
N3920 X24.595 Y13.719
N3925 X24.551 Y13.915
N3930 X24.521 Y14.11
N3935 X24.504 Y14.306
N3940 G3 X23.309 Y14.203 I-0.598 J-0.052
N3945 X23.665 Y13.705 I0.598 J0.052
N3950 G2 X23.978 Y12.925 I-0.241 J-0.549
N3955 X18.842 Y12.661 I-2.631 J1.096
N3960 G1 X18.832 Y12.68 F1333.33
N3965 G2 X21.183 Y16.866 Z-0.8 I2.515 J1.341
N3970 G1 X21.203 Y16.867
N3975 X21.508 Y16.883 F4000.
N3980 G2 X24.503 Y14.175 I0.144 J-2.851
N3985 G1 X24.505 Y14.145
N3990 X24.507 Y14.11
N3995 X24.526 Y13.915
N4000 X24.559 Y13.719
N4005 X24.605 Y13.523
N4010 X24.666 Y13.327
N4015 X24.698 Y13.238
N4020 X24.742 Y13.131
N4025 X24.834 Y12.935
N4030 X24.894 Y12.824
N4035 X24.945 Y12.739
N4040 X25.076 Y12.543
N4045 X25.09 Y12.524
N4050 X25.232 Y12.348
N4055 X25.286 Y12.286
N4060 X25.417 Y12.152
N4065 X25.482 Y12.091
N4070 X25.641 Y11.956
N4075 X25.678 Y11.928
N4080 X25.874 Y11.79
N4085 X25.921 Y11.76
N4090 X26.069 Y11.674
N4095 X26.265 Y11.577
N4100 X26.294 Y11.564
N4105 X26.461 Y11.496
N4110 X26.657 Y11.432
N4115 X26.853 Y11.381
N4120 X26.916 Y11.368
N4125 X27.049 Y11.345
N4130 X27.245 Y11.322
N4135 X27.44 Y11.311
N4140 X27.636
N4145 X362.364
N4150 X362.56
N4155 X362.755 Y11.322
N4160 X362.951 Y11.345
N4165 X363.084 Y11.368
N4170 X363.147 Y11.381
N4175 X363.343 Y11.432
N4180 X363.539 Y11.496
N4185 X363.706 Y11.564
N4190 X363.735 Y11.577
N4195 X363.931 Y11.674
N4200 X364.079 Y11.76
N4205 X364.126 Y11.79
N4210 X364.322 Y11.928
N4215 X364.358 Y11.956
N4220 X364.518 Y12.091
N4225 X364.583 Y12.152
N4230 X364.714 Y12.286
N4235 X364.768 Y12.348
N4240 X364.91 Y12.524
N4245 X364.924 Y12.543
N4250 X365.055 Y12.739
N4255 X365.106 Y12.824
N4260 X365.166 Y12.935
N4265 X365.258 Y13.131
N4270 X365.302 Y13.238
N4275 X365.334 Y13.327
N4280 X365.395 Y13.523
N4285 X365.441 Y13.719
N4290 X365.474 Y13.915
N4295 X365.493 Y14.11
N4300 X365.495 Y14.145
N4305 X365.497 Y14.175
N4310 G2 X366.695 Y14.115 I0.599 J-0.03
N4315 X366.318 Y13.587 I-0.599 J0.03
N4320 G3 X365.977 Y12.822 I0.222 J-0.557
N4325 X371.143 Y12.429 I2.673 J0.988
N4330 G1 X371.153 Y12.447 F1333.33
N4335 G3 X368.839 Y16.654 Z-1. I-2.503 J1.363
N4340 G1 X368.818 Y16.655
N4345 X368.514 Y16.673 F4000.
N4350 G3 X365.496 Y13.991 I-0.168 J-2.85
N4355 G1 X365.494 Y13.964
N4360 X365.49 Y13.915
N4365 X365.468 Y13.719
N4370 X365.433 Y13.523
N4375 X365.384 Y13.327
N4380 X365.32 Y13.131
N4385 X365.302 Y13.082
N4390 X365.241 Y12.935
N4395 X365.145 Y12.739
N4400 X365.106 Y12.668
N4405 X365.031 Y12.543
N4410 X364.91 Y12.368
N4415 X364.895 Y12.348
N4420 X364.733 Y12.152
N4425 X364.714 Y12.13
N4430 X364.541 Y11.956
N4435 X364.518 Y11.935
N4440 X364.322 Y11.771
N4445 X364.307 Y11.76
N4450 X364.126 Y11.634
N4455 X364.013 Y11.564
N4460 X363.931 Y11.518
N4465 X363.735 Y11.42
N4470 X363.612 Y11.368
N4475 X363.539 Y11.34
N4480 X363.343 Y11.275
N4485 X363.147 Y11.225
N4490 X362.951 Y11.189
N4495 X362.826 Y11.172
N4500 X362.755 Y11.165
N4505 X362.56 Y11.155
N4510 X362.364
N4515 X27.636
N4520 X27.44
N4525 X27.245 Y11.165
N4530 X27.174 Y11.172
N4535 X27.049 Y11.189
N4540 X26.853 Y11.225
N4545 X26.657 Y11.275
N4550 X26.461 Y11.34
N4555 X26.388 Y11.368
N4560 X26.265 Y11.42
N4565 X26.069 Y11.518
N4570 X25.987 Y11.564
N4575 X25.874 Y11.634
N4580 X25.693 Y11.76
N4585 X25.678 Y11.771
N4590 X25.482 Y11.935
N4595 X25.459 Y11.956
N4600 X25.286 Y12.13
N4605 X25.266 Y12.152
N4610 X25.105 Y12.348
N4615 X25.09 Y12.368
N4620 X24.969 Y12.543
N4625 X24.894 Y12.668
N4630 X24.855 Y12.739
N4635 X24.759 Y12.935
N4640 X24.698 Y13.082
N4645 X24.68 Y13.131
N4650 X24.616 Y13.327
N4655 X24.567 Y13.523
N4660 X24.532 Y13.719
N4665 X24.51 Y13.915
N4670 X24.506 Y13.964
N4675 X24.504 Y13.991
N4680 G3 X23.307 Y13.921 I-0.599 J-0.035
N4685 X23.68 Y13.4 I0.599 J0.035
N4690 G2 X24.015 Y12.631 I-0.226 J-0.556
N4695 X18.859 Y12.257 I-2.665 J1.01
N4700 G1 X18.849 Y12.275 F1333.33
N4705 G2 X21.157 Y16.485 Z-1.2 I2.501 J1.366
N4710 G1 X21.178 Y16.486
N4715 X21.483 Y16.505 F4000.
N4720 G2 X24.505 Y13.827 I0.172 J-2.85
N4725 G1 X24.506 Y13.807
N4730 X24.508 Y13.782
N4735 X24.513 Y13.719
N4740 X24.538 Y13.523
N4745 X24.576 Y13.327
N4750 X24.628 Y13.131
N4755 X24.695 Y12.935
N4760 X24.698 Y12.926
N4765 X24.777 Y12.739
N4770 X24.876 Y12.543
N4775 X24.894 Y12.512
N4780 X24.995 Y12.348
N4785 X25.09 Y12.212
N4790 X25.136 Y12.152
N4795 X25.286 Y11.974
N4800 X25.303 Y11.956
N4805 X25.482 Y11.779
N4810 X25.503 Y11.76
N4815 X25.678 Y11.615
N4820 X25.747 Y11.564
N4825 X25.874 Y11.477
N4830 X26.057 Y11.368
N4835 X26.069 Y11.361
N4840 X26.265 Y11.264
N4845 X26.461 Y11.184
N4850 X26.493 Y11.172
N4855 X26.657 Y11.119
N4860 X26.853 Y11.069
N4865 X27.049 Y11.032
N4870 X27.245 Y11.009
N4875 X27.44 Y10.999
N4880 X27.636 Y10.998
N4885 X362.364
N4890 X362.56 Y10.999
N4895 X362.755 Y11.009
N4900 X362.951 Y11.032
N4905 X363.147 Y11.069
N4910 X363.343 Y11.119
N4915 X363.507 Y11.172
N4920 X363.539 Y11.184
N4925 X363.735 Y11.264
N4930 X363.931 Y11.361
N4935 X363.943 Y11.368
N4940 X364.126 Y11.477
N4945 X364.253 Y11.564
N4950 X364.322 Y11.615
N4955 X364.497 Y11.76
N4960 X364.518 Y11.779
N4965 X364.697 Y11.956
N4970 X364.714 Y11.974
N4975 X364.864 Y12.152
N4980 X364.91 Y12.212
N4985 X365.005 Y12.348
N4990 X365.106 Y12.512
N4995 X365.124 Y12.543
N5000 X365.223 Y12.739
N5005 X365.302 Y12.926
N5010 X365.305 Y12.935
N5015 X365.372 Y13.131
N5020 X365.424 Y13.327
N5025 X365.462 Y13.523
N5030 X365.487 Y13.719
N5035 X365.492 Y13.782
N5040 X365.494 Y13.807
N5045 X365.495 Y13.827
N5050 G2 X366.693 Y13.755 I0.599 J-0.036
N5055 X366.322 Y13.236 I-0.599 J0.036
N5060 G3 X365.99 Y12.465 I0.228 J-0.555
N5065 X371.121 Y12.072 I2.659 J1.025
N5070 G1 X371.132 Y12.09 F1333.33
N5075 G3 X368.88 Y16.331 Z-1.4 I-2.482 J1.4
N5080 G1 X368.86 Y16.333
N5085 X368.555 Y16.355 F4000.
N5090 G3 X365.497 Y13.719 I-0.211 J-2.847
N5095 G1 X365.483 Y13.523
N5100 X365.455 Y13.327
N5105 X365.415 Y13.131
N5110 X365.36 Y12.935
N5115 X365.302 Y12.769
N5120 X365.29 Y12.739
N5125 X365.204 Y12.543
N5130 X365.106 Y12.355
N5135 X365.101 Y12.348
N5140 X364.978 Y12.152
N5145 X364.91 Y12.055
N5150 X364.833 Y11.956
N5155 X364.714 Y11.818
N5160 X364.66 Y11.76
N5165 X364.518 Y11.622
N5170 X364.452 Y11.564
N5175 X364.322 Y11.459
N5180 X364.197 Y11.368
N5185 X364.126 Y11.321
N5190 X363.931 Y11.205
N5195 X363.868 Y11.172
N5200 X363.735 Y11.108
N5205 X363.539 Y11.028
N5210 X363.388 Y10.976
N5215 X363.343 Y10.963
N5220 X363.147 Y10.913
N5225 X362.951 Y10.876
N5230 X362.755 Y10.853
N5235 X362.56 Y10.843
N5240 X362.364 Y10.842
N5245 X27.636
N5250 X27.44 Y10.843
N5255 X27.245 Y10.853
N5260 X27.049 Y10.876
N5265 X26.853 Y10.913
N5270 X26.657 Y10.963
N5275 X26.612 Y10.976
N5280 X26.461 Y11.028
N5285 X26.265 Y11.108
N5290 X26.132 Y11.172
N5295 X26.069 Y11.205
N5300 X25.874 Y11.321
N5305 X25.803 Y11.368
N5310 X25.678 Y11.459
N5315 X25.548 Y11.564
N5320 X25.482 Y11.622
N5325 X25.34 Y11.76
N5330 X25.286 Y11.818
N5335 X25.167 Y11.956
N5340 X25.09 Y12.055
N5345 X25.022 Y12.152
N5350 X24.899 Y12.348
N5355 X24.894 Y12.355
N5360 X24.796 Y12.543
N5365 X24.71 Y12.739
N5370 X24.698 Y12.769
N5375 X24.64 Y12.935
N5380 X24.585 Y13.131
N5385 X24.545 Y13.327
N5390 X24.517 Y13.523
N5395 X24.503 Y13.719
N5400 G3 X23.306 Y13.63 I-0.598 J-0.044
N5405 X23.698 Y13.111 I0.598 J0.044
N5410 G2 X24.062 Y12.359 I-0.206 J-0.564
N5415 X18.903 Y11.802 I-2.706 J0.894
N5420 G1 X18.892 Y11.82 F1333.33
N5425 G2 X21.087 Y16.09 Z-1.6 I2.464 J1.433
N5430 G1 X21.108 Y16.092
N5435 X21.412 Y16.118 F4000.
N5440 G2 X24.504 Y13.523 I0.248 J-2.844
N5445 G1 X24.522 Y13.327
N5450 X24.552 Y13.131
N5455 X24.595 Y12.935
N5460 X24.653 Y12.739
N5465 X24.698 Y12.613
N5470 X24.726 Y12.543
N5475 X24.815 Y12.348
N5480 X24.894 Y12.199
N5485 X24.922 Y12.152
N5490 X25.049 Y11.956
N5495 X25.09 Y11.899
N5500 X25.2 Y11.76
N5505 X25.286 Y11.661
N5510 X25.379 Y11.564
N5515 X25.482 Y11.466
N5520 X25.595 Y11.368
N5525 X25.678 Y11.303
N5530 X25.862 Y11.172
N5535 X25.874 Y11.165
N5540 X26.069 Y11.049
N5545 X26.212 Y10.976
N5550 X26.265 Y10.952
N5555 X26.461 Y10.871
N5560 X26.657 Y10.807
N5565 X26.752 Y10.781
N5570 X26.853 Y10.756
N5575 X27.049 Y10.72
N5580 X27.245 Y10.697
N5585 X27.44 Y10.686
N5590 X27.636
N5595 X362.364
N5600 X362.56
N5605 X362.755 Y10.697
N5610 X362.951 Y10.72
N5615 X363.147 Y10.756
N5620 X363.248 Y10.781
N5625 X363.343 Y10.807
N5630 X363.539 Y10.871
N5635 X363.735 Y10.952
N5640 X363.788 Y10.976
N5645 X363.931 Y11.049
N5650 X364.126 Y11.165
N5655 X364.138 Y11.172
N5660 X364.322 Y11.303
N5665 X364.405 Y11.368
N5670 X364.518 Y11.466
N5675 X364.621 Y11.564
N5680 X364.714 Y11.661
N5685 X364.8 Y11.76
N5690 X364.91 Y11.899
N5695 X364.951 Y11.956
N5700 X365.078 Y12.152
N5705 X365.106 Y12.199
N5710 X365.185 Y12.348
N5715 X365.274 Y12.543
N5720 X365.302 Y12.613
N5725 X365.347 Y12.739
N5730 X365.405 Y12.935
N5735 X365.448 Y13.131
N5740 X365.478 Y13.327
N5745 X365.496 Y13.523
N5750 G2 X366.691 Y13.418 I0.598 J-0.052
N5755 X366.335 Y12.921 I-0.598 J0.052
N5760 G3 X366.022 Y12.141 I0.241 J-0.549
N5765 X371.157 Y11.876 I2.631 J1.095
N5770 G1 X371.167 Y11.894 F1333.33
N5775 G3 X368.819 Y16.082 Z-1.8 I-2.514 J1.342
N5780 G1 X368.798 Y16.083
N5785 X368.493 Y16.099 F4000.
N5790 G3 X365.497 Y13.392 I-0.145 J-2.851
N5795 G1 X365.495 Y13.362
N5800 X365.493 Y13.327
N5805 X365.473 Y13.131
N5810 X365.441 Y12.935
N5815 X365.394 Y12.739
N5820 X365.333 Y12.543
N5825 X365.302 Y12.457
N5830 X365.257 Y12.348
N5835 X365.165 Y12.152
N5840 X365.106 Y12.043
N5845 X365.054 Y11.956
N5850 X364.923 Y11.76
N5855 X364.91 Y11.743
N5860 X364.767 Y11.564
N5865 X364.714 Y11.505
N5870 X364.581 Y11.368
N5875 X364.518 Y11.31
N5880 X364.356 Y11.172
N5885 X364.322 Y11.146
N5890 X364.126 Y11.009
N5895 X364.075 Y10.976
N5900 X363.931 Y10.893
N5905 X363.735 Y10.795
N5910 X363.701 Y10.781
N5915 X363.539 Y10.715
N5920 X363.343 Y10.65
N5925 X363.147 Y10.6
N5930 X363.073 Y10.585
N5935 X362.951 Y10.564
N5940 X362.755 Y10.54
N5945 X362.56 Y10.53
N5950 X362.364
N5955 X27.636
N5960 X27.44
N5965 X27.245 Y10.54
N5970 X27.049 Y10.564
N5975 X26.927 Y10.585
N5980 X26.853 Y10.6
N5985 X26.657 Y10.65
N5990 X26.461 Y10.715
N5995 X26.299 Y10.781
N6000 X26.265 Y10.795
N6005 X26.069 Y10.893
N6010 X25.925 Y10.976
N6015 X25.874 Y11.009
N6020 X25.678 Y11.146
N6025 X25.644 Y11.172
N6030 X25.482 Y11.31
N6035 X25.419 Y11.368
N6040 X25.286 Y11.505
N6045 X25.233 Y11.564
N6050 X25.09 Y11.743
N6055 X25.077 Y11.76
N6060 X24.946 Y11.956
N6065 X24.894 Y12.043
N6070 X24.835 Y12.152
N6075 X24.743 Y12.348
N6080 X24.698 Y12.457
N6085 X24.667 Y12.543
N6090 X24.606 Y12.739
N6095 X24.559 Y12.935
N6100 X24.527 Y13.131
N6105 X24.507 Y13.327
N6110 X24.505 Y13.362
N6115 X24.503 Y13.392
N6120 G3 X23.305 Y13.331 I-0.599 J-0.03
N6125 X23.682 Y12.804 I0.599 J0.03
N6130 G2 X24.023 Y12.039 I-0.222 J-0.558
N6135 X18.858 Y11.643 I-2.674 J0.987
N6140 G1 X18.847 Y11.662 F1333.33
N6145 G2 X21.16 Y15.869 Z-2. I2.502 J1.364
N6150 G1 X21.18 Y15.871
N6155 X21.485 Y15.889 F4000.
N6160 G2 X24.505 Y13.209 I0.17 J-2.85
N6165 G1 X24.506 Y13.181
N6170 X24.51 Y13.131
N6175 X24.532 Y12.935
N6180 X24.568 Y12.739
N6185 X24.617 Y12.543
N6190 X24.681 Y12.348
N6195 X24.698 Y12.301
N6200 X24.76 Y12.152
N6205 X24.856 Y11.956
N6210 X24.894 Y11.887
N6215 X24.971 Y11.76
N6220 X25.09 Y11.587
N6225 X25.107 Y11.564
N6230 X25.268 Y11.368
N6235 X25.286 Y11.349
N6240 X25.461 Y11.172
N6245 X25.482 Y11.154
N6250 X25.678 Y10.99
N6255 X25.696 Y10.976
N6260 X25.874 Y10.852
N6265 X25.991 Y10.781
N6270 X26.069 Y10.736
N6275 X26.265 Y10.639
N6280 X26.394 Y10.585
N6285 X26.461 Y10.559
N6290 X26.657 Y10.494
N6295 X26.853 Y10.444
N6300 X27.049 Y10.407
N6305 X27.194 Y10.389
N6310 X27.245 Y10.384
N6315 X27.44 Y10.374
N6320 X27.636 Y10.373
N6325 X362.364
N6330 X362.56 Y10.374
N6335 X362.755 Y10.384
N6340 X362.806 Y10.389
N6345 X362.951 Y10.407
N6350 X363.147 Y10.444
N6355 X363.343 Y10.494
N6360 X363.539 Y10.559
N6365 X363.606 Y10.585
N6370 X363.735 Y10.639
N6375 X363.931 Y10.736
N6380 X364.009 Y10.781
N6385 X364.126 Y10.852
N6390 X364.304 Y10.976
N6395 X364.322 Y10.99
N6400 X364.518 Y11.154
N6405 X364.539 Y11.172
N6410 X364.714 Y11.349
N6415 X364.732 Y11.368
N6420 X364.893 Y11.564
N6425 X364.91 Y11.587
N6430 X365.029 Y11.76
N6435 X365.106 Y11.887
N6440 X365.144 Y11.956
N6445 X365.24 Y12.152
N6450 X365.302 Y12.301
N6455 X365.319 Y12.348
N6460 X365.383 Y12.543
N6465 X365.432 Y12.739
N6470 X365.468 Y12.935
N6475 X365.49 Y13.131
N6480 X365.494 Y13.181
N6485 X365.495 Y13.209
N6490 G2 X366.693 Y13.137 I0.599 J-0.036
N6495 X366.32 Y12.617 I-0.599 J0.036
N6500 G3 X365.984 Y11.848 I0.225 J-0.556
N6505 X371.14 Y11.471 I2.666 J1.008
N6510 G1 X371.15 Y11.489 F1333.33
N6515 G3 X368.844 Y15.7 Z-2.2 I-2.5 J1.368
N6520 G1 X368.823 Y15.702
N6525 X368.519 Y15.72 F4000.
N6530 G3 X365.495 Y13.044 I-0.174 J-2.85
N6535 G1 X365.494 Y13.024
N6540 X365.492 Y13.
N6545 X365.487 Y12.935
N6550 X365.462 Y12.739
N6555 X365.423 Y12.543
N6560 X365.371 Y12.348
N6565 X365.304 Y12.152
N6570 X365.302 Y12.144
N6575 X365.222 Y11.956
N6580 X365.122 Y11.76
N6585 X365.106 Y11.73
N6590 X365.004 Y11.564
N6595 X364.91 Y11.43
N6600 X364.863 Y11.368
N6605 X364.714 Y11.193
N6610 X364.695 Y11.172
N6615 X364.518 Y10.997
N6620 X364.495 Y10.976
N6625 X364.322 Y10.834
N6630 X364.25 Y10.781
N6635 X364.126 Y10.696
N6640 X363.939 Y10.585
N6645 X363.931 Y10.58
N6650 X363.735 Y10.483
N6655 X363.539 Y10.403
N6660 X363.501 Y10.389
N6665 X363.343 Y10.338
N6670 X363.147 Y10.288
N6675 X362.951 Y10.251
N6680 X362.755 Y10.228
N6685 X362.56 Y10.218
N6690 X362.364 Y10.217
N6695 X27.636
N6700 X27.44 Y10.218
N6705 X27.245 Y10.228
N6710 X27.049 Y10.251
N6715 X26.853 Y10.288
N6720 X26.657 Y10.338
N6725 X26.499 Y10.389
N6730 X26.461 Y10.403
N6735 X26.265 Y10.483
N6740 X26.069 Y10.58
N6745 X26.061 Y10.585
N6750 X25.874 Y10.696
N6755 X25.75 Y10.781
N6760 X25.678 Y10.834
N6765 X25.505 Y10.976
N6770 X25.482 Y10.997
N6775 X25.305 Y11.172
N6780 X25.286 Y11.193
N6785 X25.137 Y11.368
N6790 X25.09 Y11.43
N6795 X24.996 Y11.564
N6800 X24.894 Y11.73
N6805 X24.878 Y11.76
N6810 X24.778 Y11.956
N6815 X24.698 Y12.144
N6820 X24.696 Y12.152
N6825 X24.629 Y12.348
N6830 X24.577 Y12.543
N6835 X24.538 Y12.739
N6840 X24.513 Y12.935
N6845 X24.508 Y13.
N6850 X24.506 Y13.024
N6855 X24.505 Y13.044
N6860 G3 X23.307 Y12.971 I-0.599 J-0.037
N6865 X23.679 Y12.453 I0.599 J0.037
N6870 G2 X24.011 Y11.682 I-0.227 J-0.555
N6875 X18.88 Y11.285 I-2.66 J1.023
N6880 G1 X18.87 Y11.303 F1333.33
N6885 G2 X21.118 Y15.545 Z-2.4 I2.481 J1.402
N6890 G1 X21.139 Y15.547
N6895 X21.443 Y15.569 F4000.
N6900 G2 X24.503 Y12.935 I0.213 J-2.847
N6905 G1 X24.517 Y12.739
N6910 X24.545 Y12.543
N6915 X24.586 Y12.348
N6920 X24.641 Y12.152
N6925 X24.698 Y11.988
N6930 X24.711 Y11.956
N6935 X24.797 Y11.76
N6940 X24.894 Y11.574
N6945 X24.9 Y11.564
N6950 X25.023 Y11.368
N6955 X25.09 Y11.274
N6960 X25.169 Y11.172
N6965 X25.286 Y11.036
N6970 X25.342 Y10.976
N6975 X25.482 Y10.841
N6980 X25.55 Y10.781
N6985 X25.678 Y10.678
N6990 X25.806 Y10.585
N6995 X25.874 Y10.54
N7000 X26.069 Y10.424
N7005 X26.136 Y10.389
N7010 X26.265 Y10.327
N7015 X26.461 Y10.246
N7020 X26.619 Y10.193
N7025 X26.657 Y10.182
N7030 X26.853 Y10.131
N7035 X27.049 Y10.095
N7040 X27.245 Y10.072
N7045 X27.44 Y10.061
N7050 X27.636
N7055 X362.364
N7060 X362.56
N7065 X362.755 Y10.072
N7070 X362.951 Y10.095
N7075 X363.147 Y10.131
N7080 X363.343 Y10.182
N7085 X363.381 Y10.193
N7090 X363.539 Y10.246
N7095 X363.735 Y10.327
N7100 X363.864 Y10.389
N7105 X363.931 Y10.424
N7110 X364.126 Y10.54
N7115 X364.194 Y10.585
N7120 X364.322 Y10.678
N7125 X364.45 Y10.781
N7130 X364.518 Y10.841
N7135 X364.658 Y10.976
N7140 X364.714 Y11.036
N7145 X364.831 Y11.172
N7150 X364.91 Y11.274
N7155 X364.977 Y11.368
N7160 X365.1 Y11.564
N7165 X365.106 Y11.574
N7170 X365.203 Y11.76
N7175 X365.289 Y11.956
N7180 X365.302 Y11.988
N7185 X365.359 Y12.152
N7190 X365.414 Y12.348
N7195 X365.455 Y12.543
N7200 X365.483 Y12.739
N7205 X365.497 Y12.935
N7210 G2 X366.694 Y12.846 I0.598 J-0.045
N7215 X366.301 Y12.327 I-0.598 J0.045
N7220 G3 X365.937 Y11.575 I0.205 J-0.564
N7225 X371.096 Y11.014 I2.707 J0.892
N7230 G1 X371.106 Y11.032 F1333.33
N7235 G3 X368.915 Y15.304 Z-2.6 I-2.463 J1.435
N7240 G1 X368.894 Y15.306
N7245 X368.59 Y15.333 F4000.
N7250 G3 X365.495 Y12.739 I-0.251 J-2.844
N7255 G1 X365.478 Y12.543
N7260 X365.448 Y12.348
N7265 X365.404 Y12.152
N7270 X365.346 Y11.956
N7275 X365.302 Y11.832
N7280 X365.273 Y11.76
N7285 X365.184 Y11.564
N7290 X365.106 Y11.418
N7295 X365.077 Y11.368
N7300 X364.949 Y11.172
N7305 X364.91 Y11.118
N7310 X364.798 Y10.976
N7315 X364.714 Y10.88
N7320 X364.619 Y10.781
N7325 X364.518 Y10.685
N7330 X364.402 Y10.585
N7335 X364.322 Y10.521
N7340 X364.135 Y10.389
N7345 X364.126 Y10.384
N7350 X363.931 Y10.268
N7355 X363.784 Y10.193
N7360 X363.735 Y10.17
N7365 X363.539 Y10.09
N7370 X363.343 Y10.025
N7375 X363.24 Y9.997
N7380 X363.147 Y9.975
N7385 X362.951 Y9.939
N7390 X362.755 Y9.915
N7395 X362.56 Y9.905
N7400 X362.364
N7405 X27.636
N7410 X27.44
N7415 X27.245 Y9.915
N7420 X27.049 Y9.939
N7425 X26.853 Y9.975
N7430 X26.76 Y9.997
N7435 X26.657 Y10.025
N7440 X26.461 Y10.09
N7445 X26.265 Y10.17
N7450 X26.216 Y10.193
N7455 X26.069 Y10.268
N7460 X25.874 Y10.384
N7465 X25.865 Y10.389
N7470 X25.678 Y10.521
N7475 X25.598 Y10.585
N7480 X25.482 Y10.685
N7485 X25.381 Y10.781
N7490 X25.286 Y10.88
N7495 X25.202 Y10.976
N7500 X25.09 Y11.118
N7505 X25.051 Y11.172
N7510 X24.923 Y11.368
N7515 X24.894 Y11.418
N7520 X24.816 Y11.564
N7525 X24.727 Y11.76
N7530 X24.698 Y11.832
N7535 X24.654 Y11.956
N7540 X24.596 Y12.152
N7545 X24.552 Y12.348
N7550 X24.522 Y12.543
N7555 X24.505 Y12.739
N7560 G3 X23.309 Y12.634 I-0.598 J-0.053
N7565 X23.666 Y12.137 I0.598 J0.053
N7570 G2 X23.978 Y11.357 I-0.241 J-0.549
N7575 X18.844 Y11.091 I-2.631 J1.095
N7580 G1 X18.834 Y11.109 F1333.33
N7585 G2 X21.18 Y15.298 Z-2.8 I2.513 J1.343
N7590 G1 X21.201 Y15.299
N7595 X21.506 Y15.314 F4000.
N7600 G2 X24.503 Y12.609 I0.146 J-2.851
N7605 G1 X24.505 Y12.579
N7610 X24.507 Y12.543
N7615 X24.527 Y12.348
N7620 X24.56 Y12.152
N7625 X24.607 Y11.956
N7630 X24.667 Y11.76
N7635 X24.698 Y11.676
N7640 X24.744 Y11.564
N7645 X24.836 Y11.368
N7650 X24.894 Y11.262
N7655 X24.947 Y11.172
N7660 X25.079 Y10.976
N7665 X25.09 Y10.962
N7670 X25.235 Y10.781
N7675 X25.286 Y10.724
N7680 X25.422 Y10.585
N7685 X25.482 Y10.529
N7690 X25.647 Y10.389
N7695 X25.678 Y10.365
N7700 X25.874 Y10.227
N7705 X25.928 Y10.193
N7710 X26.069 Y10.111
N7715 X26.265 Y10.014
N7720 X26.304 Y9.997
N7725 X26.461 Y9.934
N7730 X26.657 Y9.869
N7735 X26.853 Y9.819
N7740 X26.938 Y9.801
N7745 X27.049 Y9.782
N7750 X27.245 Y9.759
N7755 X27.44 Y9.749
N7760 X27.636 Y9.748
N7765 X362.364
N7770 X362.56 Y9.749
N7775 X362.755 Y9.759
N7780 X362.951 Y9.782
N7785 X363.062 Y9.801
N7790 X363.147 Y9.819
N7795 X363.343 Y9.869
N7800 X363.539 Y9.934
N7805 X363.696 Y9.997
N7810 X363.735 Y10.014
N7815 X363.931 Y10.111
N7820 X364.072 Y10.193
N7825 X364.126 Y10.227
N7830 X364.322 Y10.365
N7835 X364.353 Y10.389
N7840 X364.518 Y10.529
N7845 X364.578 Y10.585
N7850 X364.714 Y10.724
N7855 X364.765 Y10.781
N7860 X364.91 Y10.962
N7865 X364.921 Y10.976
N7870 X365.053 Y11.172
N7875 X365.106 Y11.262
N7880 X365.164 Y11.368
N7885 X365.256 Y11.564
N7890 X365.302 Y11.676
N7895 X365.333 Y11.76
N7900 X365.393 Y11.956
N7905 X365.44 Y12.152
N7910 X365.473 Y12.348
N7915 X365.493 Y12.543
N7920 X365.495 Y12.579
N7925 X365.497 Y12.609
N7930 G2 X366.695 Y12.548 I0.599 J-0.031
N7935 X366.317 Y12.021 I-0.599 J0.031
N7940 G3 X365.976 Y11.256 I0.221 J-0.558
N7945 X371.142 Y10.858 I2.674 J0.985
N7950 G1 X371.152 Y10.876 F1333.33
N7955 G3 X368.842 Y15.085 Z-3. I-2.502 J1.365
N7960 G1 X368.821 Y15.086
N7965 X368.516 Y15.105 F4000.
N7970 G3 X365.495 Y12.426 I-0.171 J-2.85
N7975 G1 X365.494 Y12.399
N7980 X365.49 Y12.348
N7985 X365.468 Y12.152
N7990 X365.432 Y11.956
N7995 X365.382 Y11.76
N8000 X365.318 Y11.564
N8005 X365.302 Y11.519
N8010 X365.239 Y11.368
N8015 X365.143 Y11.172
N8020 X365.106 Y11.105
N8025 X365.028 Y10.976
N8030 X364.91 Y10.805
N8035 X364.891 Y10.781
N8040 X364.73 Y10.585
N8045 X364.714 Y10.568
N8050 X364.536 Y10.389
N8055 X364.518 Y10.372
N8060 X364.322 Y10.209
N8065 X364.301 Y10.193
N8070 X364.126 Y10.071
N8075 X364.006 Y9.997
N8080 X363.931 Y9.955
N8085 X363.735 Y9.858
N8090 X363.601 Y9.801
N8095 X363.539 Y9.778
N8100 X363.343 Y9.713
N8105 X363.147 Y9.663
N8110 X362.951 Y9.626
N8115 X362.784 Y9.605
N8120 X362.755 Y9.603
N8125 X362.56 Y9.593
N8130 X362.364 Y9.592
N8135 X27.636
N8140 X27.44 Y9.593
N8145 X27.245 Y9.603
N8150 X27.216 Y9.605
N8155 X27.049 Y9.626
N8160 X26.853 Y9.663
N8165 X26.657 Y9.713
N8170 X26.461 Y9.778
N8175 X26.399 Y9.801
N8180 X26.265 Y9.858
N8185 X26.069 Y9.955
N8190 X25.994 Y9.997
N8195 X25.874 Y10.071
N8200 X25.699 Y10.193
N8205 X25.678 Y10.209
N8210 X25.482 Y10.372
N8215 X25.464 Y10.389
N8220 X25.286 Y10.568
N8225 X25.27 Y10.585
N8230 X25.109 Y10.781
N8235 X25.09 Y10.805
N8240 X24.972 Y10.976
N8245 X24.894 Y11.105
N8250 X24.857 Y11.172
N8255 X24.761 Y11.368
N8260 X24.698 Y11.519
N8265 X24.682 Y11.564
N8270 X24.618 Y11.76
N8275 X24.568 Y11.956
N8280 X24.532 Y12.152
N8285 X24.51 Y12.348
N8290 X24.506 Y12.399
N8295 X24.505 Y12.426
N8300 G3 X23.307 Y12.354 I-0.599 J-0.036
N8305 X23.674 Y11.836 I0.599 J0.036
N8310 G2 X24.001 Y11.063 I-0.232 J-0.553
N8315 X18.851 Y10.735 I-2.652 J1.044
N8320 G1 X18.841 Y10.753 F1333.33
N8325 G2 X21.17 Y14.952 Z-3.2 I2.508 J1.354
N8330 G1 X21.191 Y14.953
N8335 X21.495 Y14.97 F4000.
N8340 G2 X24.504 Y12.278 I0.158 J-2.851
N8345 G1 X24.505 Y12.261
N8350 X24.506 Y12.241
N8355 X24.508 Y12.217
N8360 X24.513 Y12.152
N8365 X24.539 Y11.956
N8370 X24.577 Y11.76
N8375 X24.629 Y11.564
N8380 X24.696 Y11.368
N8385 X24.698 Y11.363
N8390 X24.779 Y11.172
N8395 X24.879 Y10.976
N8400 X24.894 Y10.949
N8405 X24.998 Y10.781
N8410 X25.09 Y10.649
N8415 X25.139 Y10.585
N8420 X25.286 Y10.411
N8425 X25.307 Y10.389
N8430 X25.482 Y10.216
N8435 X25.507 Y10.193
N8440 X25.678 Y10.053
N8445 X25.753 Y9.997
N8450 X25.874 Y9.915
N8455 X26.065 Y9.801
N8460 X26.069 Y9.799
N8465 X26.265 Y9.702
N8470 X26.461 Y9.621
N8475 X26.505 Y9.605
N8480 X26.657 Y9.557
N8485 X26.853 Y9.506
N8490 X27.049 Y9.47
N8495 X27.245 Y9.447
N8500 X27.44 Y9.436
N8505 X27.636
N8510 X362.364
N8515 X362.56
N8520 X362.755 Y9.447
N8525 X362.951 Y9.47
N8530 X363.147 Y9.506
N8535 X363.343 Y9.557
N8540 X363.495 Y9.605
N8545 X363.539 Y9.621
N8550 X363.735 Y9.702
N8555 X363.931 Y9.799
N8560 X363.935 Y9.801
N8565 X364.126 Y9.915
N8570 X364.247 Y9.997
N8575 X364.322 Y10.053
N8580 X364.493 Y10.193
N8585 X364.518 Y10.216
N8590 X364.693 Y10.389
N8595 X364.714 Y10.411
N8600 X364.861 Y10.585
N8605 X364.91 Y10.649
N8610 X365.002 Y10.781
N8615 X365.106 Y10.949
N8620 X365.121 Y10.976
N8625 X365.221 Y11.172
N8630 X365.302 Y11.363
N8635 X365.304 Y11.368
N8640 X365.371 Y11.564
N8645 X365.423 Y11.76
N8650 X365.461 Y11.956
N8655 X365.487 Y12.152
N8660 X365.492 Y12.217
N8665 X365.494 Y12.241
N8670 X365.495 Y12.261
N8675 X365.496 Y12.278
N8680 G2 X366.694 Y12.211 I0.599 J-0.033
N8685 X366.318 Y11.687 I-0.599 J0.033
N8690 G3 X365.979 Y10.92 I0.223 J-0.557
N8695 X371.119 Y10.497 I2.669 J0.999
N8700 G1 X371.129 Y10.515 F1333.33
N8705 G3 X368.884 Y14.759 Z-3.4 I-2.48 J1.404
N8710 G1 X368.863 Y14.761
N8715 X368.559 Y14.784 F4000.
N8720 G3 X365.497 Y12.152 I-0.215 J-2.847
N8725 G1 X365.482 Y11.956
N8730 X365.455 Y11.76
N8735 X365.413 Y11.564
N8740 X365.358 Y11.368
N8745 X365.302 Y11.207
N8750 X365.288 Y11.172
N8755 X365.202 Y10.976
N8760 X365.106 Y10.793
N8765 X365.099 Y10.781
N8770 X364.975 Y10.585
N8775 X364.91 Y10.493
N8780 X364.829 Y10.389
N8785 X364.714 Y10.255
N8790 X364.656 Y10.193
N8795 X364.518 Y10.06
N8800 X364.447 Y9.997
N8805 X364.322 Y9.896
N8810 X364.191 Y9.801
N8815 X364.126 Y9.759
N8820 X363.931 Y9.643
N8825 X363.86 Y9.605
N8830 X363.735 Y9.545
N8835 X363.539 Y9.465
N8840 X363.374 Y9.41
N8845 X363.343 Y9.4
N8850 X363.147 Y9.35
N8855 X362.951 Y9.314
N8860 X362.755 Y9.29
N8865 X362.56 Y9.28
N8870 X362.364 Y9.279
N8875 X27.636
N8880 X27.44 Y9.28
N8885 X27.245 Y9.29
N8890 X27.049 Y9.314
N8895 X26.853 Y9.35
N8900 X26.657 Y9.4
N8905 X26.626 Y9.41
N8910 X26.461 Y9.465
N8915 X26.265 Y9.545
N8920 X26.14 Y9.605
N8925 X26.069 Y9.643
N8930 X25.874 Y9.759
N8935 X25.809 Y9.801
N8940 X25.678 Y9.896
N8945 X25.553 Y9.997
N8950 X25.482 Y10.06
N8955 X25.344 Y10.193
N8960 X25.286 Y10.255
N8965 X25.171 Y10.389
N8970 X25.09 Y10.493
N8975 X25.025 Y10.585
N8980 X24.901 Y10.781
N8985 X24.894 Y10.793
N8990 X24.798 Y10.976
N8995 X24.712 Y11.172
N9000 X24.698 Y11.207
N9005 X24.642 Y11.368
N9010 X24.587 Y11.564
N9015 X24.545 Y11.76
N9020 X24.518 Y11.956
N9025 X24.503 Y12.152
N9030 G3 X23.306 Y12.061 I-0.598 J-0.045
N9035 X23.699 Y11.543 I0.598 J0.045
N9040 G2 X24.064 Y10.792 I-0.205 J-0.564
N9045 X18.906 Y10.227 I-2.708 J0.89
N9050 G1 X18.895 Y10.245 F1333.33
N9055 G2 X21.084 Y14.518 Z-3.6 I2.462 J1.436
N9060 G1 X21.104 Y14.52
N9065 X21.408 Y14.547 F4000.
N9070 G2 X24.505 Y11.956 I0.253 J-2.844
N9075 G1 X24.522 Y11.76
N9080 X24.553 Y11.564
N9085 X24.597 Y11.368
N9090 X24.655 Y11.172
N9095 X24.698 Y11.05
N9100 X24.728 Y10.976
N9105 X24.817 Y10.781
N9110 X24.894 Y10.637
N9115 X24.925 Y10.585
N9120 X25.052 Y10.389
N9125 X25.09 Y10.337
N9130 X25.203 Y10.193
N9135 X25.286 Y10.099
N9140 X25.383 Y9.997
N9145 X25.482 Y9.904
N9150 X25.6 Y9.801
N9155 X25.678 Y9.74
N9160 X25.869 Y9.605
N9165 X25.874 Y9.602
N9170 X26.069 Y9.486
N9175 X26.221 Y9.41
N9180 X26.265 Y9.389
N9185 X26.461 Y9.309
N9190 X26.657 Y9.244
N9195 X26.769 Y9.214
N9200 X26.853 Y9.194
N9205 X27.049 Y9.157
N9210 X27.245 Y9.134
N9215 X27.44 Y9.124
N9220 X27.636 Y9.123
N9225 X362.364
N9230 X362.56 Y9.124
N9235 X362.755 Y9.134
N9240 X362.951 Y9.157
N9245 X363.147 Y9.194
N9250 X363.231 Y9.214
N9255 X363.343 Y9.244
N9260 X363.539 Y9.309
N9265 X363.735 Y9.389
N9270 X363.779 Y9.41
N9275 X363.931 Y9.486
N9280 X364.126 Y9.602
N9285 X364.131 Y9.605
N9290 X364.322 Y9.74
N9295 X364.4 Y9.801
N9300 X364.518 Y9.904
N9305 X364.617 Y9.997
N9310 X364.714 Y10.099
N9315 X364.797 Y10.193
N9320 X364.91 Y10.337
N9325 X364.948 Y10.389
N9330 X365.076 Y10.585
N9335 X365.106 Y10.637
N9340 X365.183 Y10.781
N9345 X365.272 Y10.976
N9350 X365.302 Y11.05
N9355 X365.345 Y11.172
N9360 X365.403 Y11.368
N9365 X365.447 Y11.564
N9370 X365.478 Y11.76
N9375 X365.495 Y11.956
N9380 G2 X366.691 Y11.85 I0.598 J-0.053
N9385 X366.334 Y11.353 I-0.598 J0.053
N9390 G3 X366.021 Y10.573 I0.241 J-0.549
N9395 X371.156 Y10.305 I2.631 J1.095
N9400 G1 X371.166 Y10.324 F1333.33
N9405 G3 X368.821 Y14.513 Z-3.8 I-2.513 J1.345
N9410 G1 X368.8 Y14.514
N9415 X368.496 Y14.53 F4000.
N9420 G3 X365.497 Y11.827 I-0.148 J-2.851
N9425 G1 X365.495 Y11.797
N9430 X365.493 Y11.76
N9435 X365.473 Y11.564
N9440 X365.44 Y11.368
N9445 X365.393 Y11.172
N9450 X365.332 Y10.976
N9455 X365.302 Y10.894
N9460 X365.255 Y10.781
N9465 X365.163 Y10.585
N9470 X365.106 Y10.48
N9475 X365.051 Y10.389
N9480 X364.919 Y10.193
N9485 X364.91 Y10.18
N9490 X364.763 Y9.997
N9495 X364.714 Y9.943
N9500 X364.576 Y9.801
N9505 X364.518 Y9.747
N9510 X364.35 Y9.605
N9515 X364.322 Y9.584
N9520 X364.126 Y9.446
N9525 X364.068 Y9.41
N9530 X363.931 Y9.33
N9535 X363.735 Y9.233
N9540 X363.691 Y9.214
N9545 X363.539 Y9.153
N9550 X363.343 Y9.088
N9555 X363.147 Y9.038
N9560 X363.05 Y9.018
N9565 X362.951 Y9.001
N9570 X362.755 Y8.978
N9575 X362.56 Y8.968
N9580 X362.364 Y8.967
N9585 X27.636
N9590 X27.44 Y8.968
N9595 X27.245 Y8.978
N9600 X27.049 Y9.001
N9605 X26.95 Y9.018
N9610 X26.853 Y9.038
N9615 X26.657 Y9.088
N9620 X26.461 Y9.153
N9625 X26.309 Y9.214
N9630 X26.265 Y9.233
N9635 X26.069 Y9.33
N9640 X25.932 Y9.41
N9645 X25.874 Y9.446
N9650 X25.678 Y9.584
N9655 X25.65 Y9.605
N9660 X25.482 Y9.747
N9665 X25.424 Y9.801
N9670 X25.286 Y9.943
N9675 X25.237 Y9.997
N9680 X25.09 Y10.18
N9685 X25.081 Y10.193
N9690 X24.949 Y10.389
N9695 X24.894 Y10.48
N9700 X24.837 Y10.585
N9705 X24.745 Y10.781
N9710 X24.698 Y10.894
N9715 X24.668 Y10.976
N9720 X24.607 Y11.172
N9725 X24.56 Y11.368
N9730 X24.527 Y11.564
N9735 X24.507 Y11.76
N9740 X24.505 Y11.797
N9745 X24.503 Y11.827
N9750 G3 X23.305 Y11.765 I-0.599 J-0.031
N9755 X23.683 Y11.238 I0.599 J0.031
N9760 G2 X24.025 Y10.473 I-0.221 J-0.558
N9765 X18.859 Y10.072 I-2.675 J0.984
N9770 G1 X18.849 Y10.091 F1333.33
N9775 G2 X21.157 Y14.301 Z-4. I2.501 J1.366
N9780 G1 X21.178 Y14.302
N9785 X21.482 Y14.32 F4000.
N9790 G2 X24.505 Y11.643 I0.172 J-2.85
N9795 G1 X24.506 Y11.616
N9800 X24.51 Y11.564
N9805 X24.533 Y11.368
N9810 X24.569 Y11.172
N9815 X24.618 Y10.976
N9820 X24.682 Y10.781
N9825 X24.698 Y10.738
N9830 X24.762 Y10.585
N9835 X24.858 Y10.389
N9840 X24.894 Y10.324
N9845 X24.974 Y10.193
N9850 X25.09 Y10.024
N9855 X25.11 Y9.997
N9860 X25.272 Y9.801
N9865 X25.286 Y9.786
N9870 X25.466 Y9.605
N9875 X25.482 Y9.591
N9880 X25.678 Y9.428
N9885 X25.702 Y9.41
N9890 X25.874 Y9.29
N9895 X25.998 Y9.214
N9900 X26.069 Y9.174
N9905 X26.265 Y9.077
N9910 X26.405 Y9.018
N9915 X26.461 Y8.996
N9920 X26.657 Y8.932
N9925 X26.853 Y8.881
N9930 X27.049 Y8.845
N9935 X27.24 Y8.822
N9940 X27.245
N9945 X27.44 Y8.811
N9950 X27.636
N9955 X362.364
N9960 X362.56
N9965 X362.755 Y8.822
N9970 X362.76
N9975 X362.951 Y8.845
N9980 X363.147 Y8.881
N9985 X363.343 Y8.932
N9990 X363.539 Y8.996
N9995 X363.595 Y9.018
N10000 X363.735 Y9.077
N10005 X363.931 Y9.174
N10010 X364.002 Y9.214
N10015 X364.126 Y9.29
N10020 X364.298 Y9.41
N10025 X364.322 Y9.428
N10030 X364.518 Y9.591
N10035 X364.534 Y9.605
N10040 X364.714 Y9.786
N10045 X364.728 Y9.801
N10050 X364.89 Y9.997
N10055 X364.91 Y10.024
N10060 X365.026 Y10.193
N10065 X365.106 Y10.324
N10070 X365.142 Y10.389
N10075 X365.238 Y10.585
N10080 X365.302 Y10.738
N10085 X365.318 Y10.781
N10090 X365.382 Y10.976
N10095 X365.431 Y11.172
N10100 X365.467 Y11.368
N10105 X365.49 Y11.564
N10110 X365.494 Y11.616
N10115 X365.495 Y11.643
N10120 G2 X366.693 Y11.57 I0.599 J-0.036
N10125 X366.326 Y11.053 I-0.599 J0.036
N10130 G3 X365.999 Y10.28 I0.231 J-0.554
N10135 X371.148 Y9.949 I2.653 J1.042
N10140 G1 X371.158 Y9.967 F1333.33
N10145 G3 X368.832 Y14.167 Z-4.2 I-2.507 J1.355
N10150 G1 X368.811 Y14.168
N10155 X368.506 Y14.185 F4000.
N10160 G3 X365.496 Y11.494 I-0.16 J-2.851
N10165 G1 X365.495 Y11.478
N10170 X365.494 Y11.459
N10175 X365.492 Y11.434
N10180 X365.486 Y11.368
N10185 X365.461 Y11.172
N10190 X365.422 Y10.976
N10195 X365.37 Y10.781
N10200 X365.303 Y10.585
N10205 X365.302 Y10.582
N10210 X365.22 Y10.389
N10215 X365.12 Y10.193
N10220 X365.106 Y10.168
N10225 X365.001 Y9.997
N10230 X364.91 Y9.868
N10235 X364.859 Y9.801
N10240 X364.714 Y9.63
N10245 X364.691 Y9.605
N10250 X364.518 Y9.435
N10255 X364.49 Y9.41
N10260 X364.322 Y9.271
N10265 X364.244 Y9.214
N10270 X364.126 Y9.134
N10275 X363.931 Y9.018
N10280 X363.735 Y8.92
N10285 X363.539 Y8.84
N10290 X363.488 Y8.822
N10295 X363.343 Y8.775
N10300 X363.147 Y8.725
N10305 X362.951 Y8.689
N10310 X362.755 Y8.665
N10315 X362.56 Y8.655
N10320 X362.364 Y8.654
N10325 X27.636
N10330 X27.44 Y8.655
N10335 X27.245 Y8.665
N10340 X27.049 Y8.689
N10345 X26.853 Y8.725
N10350 X26.657 Y8.775
N10355 X26.512 Y8.822
N10360 X26.461 Y8.84
N10365 X26.265 Y8.92
N10370 X26.069 Y9.018
N10375 X25.874 Y9.134
N10380 X25.756 Y9.214
N10385 X25.678 Y9.271
N10390 X25.51 Y9.41
N10395 X25.482 Y9.435
N10400 X25.309 Y9.605
N10405 X25.286 Y9.63
N10410 X25.141 Y9.801
N10415 X25.09 Y9.868
N10420 X24.999 Y9.997
N10425 X24.894 Y10.168
N10430 X24.88 Y10.193
N10435 X24.78 Y10.389
N10440 X24.698 Y10.582
N10445 X24.697 Y10.585
N10450 X24.63 Y10.781
N10455 X24.578 Y10.976
N10460 X24.539 Y11.172
N10465 X24.514 Y11.368
N10470 X24.508 Y11.434
N10475 X24.506 Y11.459
N10480 X24.505 Y11.478
N10485 X24.504 Y11.494
N10490 G3 X23.306 Y11.427 I-0.599 J-0.034
N10495 X23.682 Y10.904 I0.599 J0.034
N10500 G2 X24.022 Y10.137 I-0.223 J-0.557
N10505 X18.883 Y9.709 I-2.67 J0.996
N10510 G1 X18.872 Y9.728 F1333.33
N10515 G2 X21.114 Y13.973 Z-4.4 I2.479 J1.405
N10520 G1 X21.135 Y13.975
N10525 X21.439 Y13.998 F4000.
N10530 G2 X24.503 Y11.368 I0.217 J-2.847
N10535 G1 X24.518 Y11.172
N10540 X24.546 Y10.976
N10545 X24.587 Y10.781
N10550 X24.642 Y10.585
N10555 X24.698 Y10.425
N10560 X24.713 Y10.389
N10565 X24.799 Y10.193
N10570 X24.894 Y10.012
N10575 X24.903 Y9.997
N10580 X25.026 Y9.801
N10585 X25.09 Y9.712
N10590 X25.172 Y9.605
N10595 X25.286 Y9.474
N10600 X25.346 Y9.41
N10605 X25.482 Y9.279
N10610 X25.556 Y9.214
N10615 X25.678 Y9.115
N10620 X25.812 Y9.018
N10625 X25.874 Y8.977
N10630 X26.069 Y8.861
N10635 X26.144 Y8.822
N10640 X26.265 Y8.764
N10645 X26.461 Y8.684
N10650 X26.633 Y8.626
N10655 X26.657 Y8.619
N10660 X26.853 Y8.569
N10665 X27.049 Y8.532
N10670 X27.245 Y8.509
N10675 X27.44 Y8.499
N10680 X27.636 Y8.498
N10685 X362.364
N10690 X362.56 Y8.499
N10695 X362.755 Y8.509
N10700 X362.951 Y8.532
N10705 X363.147 Y8.569
N10710 X363.343 Y8.619
N10715 X363.367 Y8.626
N10720 X363.539 Y8.684
N10725 X363.735 Y8.764
N10730 X363.856 Y8.822
N10735 X363.931 Y8.861
N10740 X364.126 Y8.977
N10745 X364.188 Y9.018
N10750 X364.322 Y9.115
N10755 X364.444 Y9.214
N10760 X364.518 Y9.279
N10765 X364.654 Y9.41
N10770 X364.714 Y9.474
N10775 X364.828 Y9.605
N10780 X364.91 Y9.712
N10785 X364.974 Y9.801
N10790 X365.097 Y9.997
N10795 X365.106 Y10.012
N10800 X365.201 Y10.193
N10805 X365.287 Y10.389
N10810 X365.302 Y10.425
N10815 X365.358 Y10.585
N10820 X365.413 Y10.781
N10825 X365.454 Y10.976
N10830 X365.482 Y11.172
N10835 X365.497 Y11.368
N10840 G2 X366.694 Y11.277 I0.598 J-0.046
N10845 X366.3 Y10.759 I-0.598 J0.046
N10850 G3 X365.935 Y10.008 I0.205 J-0.564
N10855 X371.093 Y9.439 I2.708 J0.888
N10860 G1 X371.104 Y9.457 F1333.33
N10865 G3 X368.918 Y13.732 Z-4.6 I-2.461 J1.438
N10870 G1 X368.897 Y13.734
N10875 X368.594 Y13.761 F4000.
N10880 G3 X365.495 Y11.172 I-0.255 J-2.844
N10885 G1 X365.478 Y10.976
N10890 X365.447 Y10.781
N10895 X365.403 Y10.585
N10900 X365.345 Y10.389
N10905 X365.302 Y10.269
N10910 X365.271 Y10.193
N10915 X365.182 Y9.997
N10920 X365.106 Y9.855
N10925 X365.074 Y9.801
N10930 X364.946 Y9.605
N10935 X364.91 Y9.555
N10940 X364.795 Y9.41
N10945 X364.714 Y9.318
N10950 X364.614 Y9.214
N10955 X364.518 Y9.122
N10960 X364.397 Y9.018
N10965 X364.322 Y8.959
N10970 X364.128 Y8.822
N10975 X364.126 Y8.821
N10980 X363.931 Y8.705
N10985 X363.774 Y8.626
N10990 X363.735 Y8.608
N10995 X363.539 Y8.528
N11000 X363.343 Y8.463
N11005 X363.222 Y8.43
N11010 X363.147 Y8.413
N11015 X362.951 Y8.376
N11020 X362.755 Y8.353
N11025 X362.56 Y8.343
N11030 X362.364 Y8.342
N11035 X27.636
N11040 X27.44 Y8.343
N11045 X27.245 Y8.353
N11050 X27.049 Y8.376
N11055 X26.853 Y8.413
N11060 X26.778 Y8.43
N11065 X26.657 Y8.463
N11070 X26.461 Y8.528
N11075 X26.265 Y8.608
N11080 X26.226 Y8.626
N11085 X26.069 Y8.705
N11090 X25.874 Y8.821
N11095 X25.872 Y8.822
N11100 X25.678 Y8.959
N11105 X25.603 Y9.018
N11110 X25.482 Y9.122
N11115 X25.386 Y9.214
N11120 X25.286 Y9.318
N11125 X25.205 Y9.41
N11130 X25.09 Y9.555
N11135 X25.054 Y9.605
N11140 X24.926 Y9.801
N11145 X24.894 Y9.855
N11150 X24.818 Y9.997
N11155 X24.729 Y10.193
N11160 X24.698 Y10.269
N11165 X24.655 Y10.389
N11170 X24.597 Y10.585
N11175 X24.553 Y10.781
N11180 X24.522 Y10.976
N11185 X24.505 Y11.172
N11190 G3 X23.31 Y11.065 I-0.598 J-0.054
N11195 X23.666 Y10.569 I0.598 J0.054
N11200 G2 X23.979 Y9.79 I-0.241 J-0.549
N11205 X18.845 Y9.52 I-2.632 J1.094
N11210 G1 X18.835 Y9.538 F1333.33
N11215 G2 X21.178 Y13.729 Z-4.8 I2.512 J1.346
N11220 G1 X21.199 Y13.73
N11225 X21.503 Y13.746 F4000.
N11230 G2 X24.503 Y11.044 I0.149 J-2.851
N11235 G1 X24.505 Y11.014
N11240 X24.507 Y10.976
N11245 X24.527 Y10.781
N11250 X24.561 Y10.585
N11255 X24.608 Y10.389
N11260 X24.669 Y10.193
N11265 X24.698 Y10.113
N11270 X24.745 Y9.997
N11275 X24.839 Y9.801
N11280 X24.894 Y9.699
N11285 X24.95 Y9.605
N11290 X25.082 Y9.41
N11295 X25.09 Y9.399
N11300 X25.239 Y9.214
N11305 X25.286 Y9.161
N11310 X25.426 Y9.018
N11315 X25.482 Y8.966
N11320 X25.653 Y8.822
N11325 X25.678 Y8.803
N11330 X25.874 Y8.665
N11335 X25.935 Y8.626
N11340 X26.069 Y8.549
N11345 X26.265 Y8.452
N11350 X26.314 Y8.43
N11355 X26.461 Y8.371
N11360 X26.657 Y8.307
N11365 X26.853 Y8.256
N11370 X26.962 Y8.234
N11375 X27.049 Y8.22
N11380 X27.245 Y8.197
N11385 X27.44 Y8.186
N11390 X27.636
N11395 X362.364
N11400 X362.56
N11405 X362.755 Y8.197
N11410 X362.951 Y8.22
N11415 X363.038 Y8.234
N11420 X363.147 Y8.256
N11425 X363.343 Y8.307
N11430 X363.539 Y8.371
N11435 X363.686 Y8.43
N11440 X363.735 Y8.452
N11445 X363.931 Y8.549
N11450 X364.065 Y8.626
N11455 X364.126 Y8.665
N11460 X364.322 Y8.803
N11465 X364.347 Y8.822
N11470 X364.518 Y8.966
N11475 X364.574 Y9.018
N11480 X364.714 Y9.161
N11485 X364.761 Y9.214
N11490 X364.91 Y9.399
N11495 X364.918 Y9.41
N11500 X365.05 Y9.605
N11505 X365.106 Y9.699
N11510 X365.161 Y9.801
N11515 X365.255 Y9.997
N11520 X365.302 Y10.113
N11525 X365.331 Y10.193
N11530 X365.392 Y10.389
N11535 X365.439 Y10.585
N11540 X365.473 Y10.781
N11545 X365.493 Y10.976
N11550 X365.495 Y11.014
N11555 X365.497 Y11.044
N11560 G2 X366.695 Y10.981 I0.599 J-0.031
N11565 X366.317 Y10.455 I-0.599 J0.031
N11570 G3 X365.974 Y9.69 I0.221 J-0.558
N11575 X371.14 Y9.287 I2.675 J0.983
N11580 G1 X371.15 Y9.305 F1333.33
N11585 G3 X368.844 Y13.516 Z-5. I-2.5 J1.368
N11590 G1 X368.823 Y13.517
N11595 X368.519 Y13.536 F4000.
N11600 G3 X365.495 Y10.86 I-0.174 J-2.85
N11605 G1 X365.494 Y10.833
N11610 X365.49 Y10.781
N11615 X365.467 Y10.585
N11620 X365.431 Y10.389
N11625 X365.381 Y10.193
N11630 X365.317 Y9.997
N11635 X365.302 Y9.957
N11640 X365.237 Y9.801
N11645 X365.141 Y9.605
N11650 X365.106 Y9.543
N11655 X365.025 Y9.41
N11660 X364.91 Y9.243
N11665 X364.888 Y9.214
N11670 X364.726 Y9.018
N11675 X364.714 Y9.005
N11680 X364.532 Y8.822
N11685 X364.518 Y8.81
N11690 X364.322 Y8.646
N11695 X364.296 Y8.626
N11700 X364.126 Y8.509
N11705 X363.998 Y8.43
N11710 X363.931 Y8.393
N11715 X363.735 Y8.295
N11720 X363.59 Y8.234
N11725 X363.539 Y8.215
N11730 X363.343 Y8.15
N11735 X363.147 Y8.1
N11740 X362.951 Y8.064
N11745 X362.755 Y8.04
N11750 X362.733 Y8.038
N11755 X362.56 Y8.03
N11760 X362.364 Y8.029
N11765 X27.636
N11770 X27.44 Y8.03
N11775 X27.267 Y8.038
N11780 X27.245 Y8.04
N11785 X27.049 Y8.064
N11790 X26.853 Y8.1
N11795 X26.657 Y8.15
N11800 X26.461 Y8.215
N11805 X26.41 Y8.234
N11810 X26.265 Y8.295
N11815 X26.069 Y8.393
N11820 X26.002 Y8.43
N11825 X25.874 Y8.509
N11830 X25.704 Y8.626
N11835 X25.678 Y8.646
N11840 X25.482 Y8.81
N11845 X25.468 Y8.822
N11850 X25.286 Y9.005
N11855 X25.274 Y9.018
N11860 X25.112 Y9.214
N11865 X25.09 Y9.243
N11870 X24.975 Y9.41
N11875 X24.894 Y9.543
N11880 X24.859 Y9.605
N11885 X24.763 Y9.801
N11890 X24.698 Y9.957
N11895 X24.683 Y9.997
N11900 X24.619 Y10.193
N11905 X24.569 Y10.389
N11910 X24.533 Y10.585
N11915 X24.51 Y10.781
N11920 X24.506 Y10.833
N11925 X24.505 Y10.86
N11930 G3 X23.307 Y10.787 I-0.599 J-0.037
N11935 X23.675 Y10.27 I0.599 J0.037
N11940 G2 X24.002 Y9.497 I-0.231 J-0.554
N11945 X18.853 Y9.162 I-2.653 J1.04
N11950 G1 X18.843 Y9.181 F1333.33
N11955 G2 X21.167 Y13.382 Z-5.2 I2.506 J1.357
N11960 G1 X21.188 Y13.383
N11965 X21.492 Y13.4 F4000.
N11970 G2 X24.504 Y10.711 I0.162 J-2.85
N11975 G1 X24.505 Y10.695
N11980 X24.507 Y10.676
N11985 X24.508 Y10.652
N11990 X24.514 Y10.585
N11995 X24.539 Y10.389
N12000 X24.578 Y10.193
N12005 X24.631 Y9.997
N12010 X24.698 Y9.801
N12015 Y9.8
N12020 X24.781 Y9.605
N12025 X24.881 Y9.41
N12030 X24.894 Y9.387
N12035 X25.001 Y9.214
N12040 X25.09 Y9.086
N12045 X25.143 Y9.018
N12050 X25.286 Y8.849
N12055 X25.311 Y8.822
N12060 X25.482 Y8.654
N12065 X25.512 Y8.626
N12070 X25.678 Y8.49
N12075 X25.759 Y8.43
N12080 X25.874 Y8.352
N12085 X26.069 Y8.236
N12090 X26.073 Y8.234
N12095 X26.265 Y8.139
N12100 X26.461 Y8.059
N12105 X26.518 Y8.038
N12110 X26.657 Y7.994
N12115 X26.853 Y7.944
N12120 X27.049 Y7.907
N12125 X27.245 Y7.884
N12130 X27.44 Y7.874
N12135 X27.636 Y7.873
N12140 X362.364
N12145 X362.56 Y7.874
N12150 X362.755 Y7.884
N12155 X362.951 Y7.907
N12160 X363.147 Y7.944
N12165 X363.343 Y7.994
N12170 X363.482 Y8.038
N12175 X363.539 Y8.059
N12180 X363.735 Y8.139
N12185 X363.927 Y8.234
N12190 X363.931 Y8.236
N12195 X364.126 Y8.352
N12200 X364.241 Y8.43
N12205 X364.322 Y8.49
N12210 X364.488 Y8.626
N12215 X364.518 Y8.654
N12220 X364.689 Y8.822
N12225 X364.714 Y8.849
N12230 X364.857 Y9.018
N12235 X364.91 Y9.086
N12240 X364.999 Y9.214
N12245 X365.106 Y9.387
N12250 X365.119 Y9.41
N12255 X365.219 Y9.605
N12260 X365.302 Y9.8
N12265 Y9.801
N12270 X365.369 Y9.997
N12275 X365.422 Y10.193
N12280 X365.461 Y10.389
N12285 X365.486 Y10.585
N12290 X365.492 Y10.652
N12295 X365.493 Y10.676
N12300 X365.495 Y10.695
N12305 X365.496 Y10.711
N12310 G2 X366.694 Y10.643 I0.599 J-0.034
N12315 X366.317 Y10.12 I-0.599 J0.034
N12320 G3 X365.977 Y9.354 I0.222 J-0.557
N12325 X371.116 Y8.922 I2.671 J0.994
N12330 G1 X371.127 Y8.94 F1333.33
N12335 G3 X368.888 Y13.187 Z-5.4 I-2.478 J1.407
N12340 G1 X368.867 Y13.189
N12345 X368.563 Y13.212 F4000.
N12350 G3 X365.497 Y10.585 I-0.219 J-2.847
N12355 G1 X365.482 Y10.389
N12360 X365.454 Y10.193
N12365 X365.412 Y9.997
N12370 X365.357 Y9.801
N12375 X365.302 Y9.644
N12380 X365.286 Y9.605
N12385 X365.2 Y9.41
N12390 X365.106 Y9.23
N12395 X365.096 Y9.214
N12400 X364.972 Y9.018
N12405 X364.91 Y8.93
N12410 X364.826 Y8.822
N12415 X364.714 Y8.693
N12420 X364.651 Y8.626
N12425 X364.518 Y8.497
N12430 X364.442 Y8.43
N12435 X364.322 Y8.334
N12440 X364.184 Y8.234
N12445 X364.126 Y8.196
N12450 X363.931 Y8.08
N12455 X363.851 Y8.038
N12460 X363.735 Y7.983
N12465 X363.539 Y7.903
N12470 X363.359 Y7.843
N12475 X363.343 Y7.838
N12480 X363.147 Y7.788
N12485 X362.951 Y7.751
N12490 X362.755 Y7.728
N12495 X362.56 Y7.717
N12500 X362.364
N12505 X27.636
N12510 X27.44
N12515 X27.245 Y7.728
N12520 X27.049 Y7.751
N12525 X26.853 Y7.788
N12530 X26.657 Y7.838
N12535 X26.641 Y7.843
N12540 X26.461 Y7.903
N12545 X26.265 Y7.983
N12550 X26.149 Y8.038
N12555 X26.069 Y8.08
N12560 X25.874 Y8.196
N12565 X25.816 Y8.234
N12570 X25.678 Y8.334
N12575 X25.558 Y8.43
N12580 X25.482 Y8.497
N12585 X25.349 Y8.626
N12590 X25.286 Y8.693
N12595 X25.174 Y8.822
N12600 X25.09 Y8.93
N12605 X25.028 Y9.018
N12610 X24.904 Y9.214
N12615 X24.894 Y9.23
N12620 X24.8 Y9.41
N12625 X24.713 Y9.605
N12630 X24.698 Y9.644
N12635 X24.643 Y9.801
N12640 X24.588 Y9.997
N12645 X24.546 Y10.193
N12650 X24.518 Y10.389
N12655 X24.503 Y10.585
N12660 G3 X23.306 Y10.493 I-0.598 J-0.046
N12665 X23.7 Y9.975 I0.598 J0.046
N12670 G2 X24.066 Y9.224 I-0.204 J-0.564
N12675 X18.908 Y8.652 I-2.709 J0.886
N12680 G1 X18.898 Y8.67 F1333.33
N12685 G2 X21.08 Y12.946 Z-5.6 I2.46 J1.44
N12690 G1 X21.101 Y12.948
N12695 X21.405 Y12.976 F4000.
N12700 G2 X24.505 Y10.389 I0.257 J-2.843
N12705 G1 X24.523 Y10.193
N12710 X24.553 Y9.997
N12715 X24.598 Y9.801
N12720 X24.656 Y9.605
N12725 X24.698 Y9.488
N12730 X24.73 Y9.41
N12735 X24.819 Y9.214
N12740 X24.894 Y9.074
N12745 X24.927 Y9.018
N12750 X25.055 Y8.822
N12755 X25.09 Y8.774
N12760 X25.207 Y8.626
N12765 X25.286 Y8.536
N12770 X25.388 Y8.43
N12775 X25.482 Y8.341
N12780 X25.606 Y8.234
N12785 X25.678 Y8.178
N12790 X25.874 Y8.04
N12795 X25.876 Y8.038
N12800 X26.069 Y7.924
N12805 X26.23 Y7.843
N12810 X26.265 Y7.827
N12815 X26.461 Y7.746
N12820 X26.657 Y7.682
N12825 X26.786 Y7.647
N12830 X26.853 Y7.631
N12835 X27.049 Y7.595
N12840 X27.245 Y7.572
N12845 X27.44 Y7.561
N12850 X27.636
N12855 X362.364
N12860 X362.56
N12865 X362.755 Y7.572
N12870 X362.951 Y7.595
N12875 X363.147 Y7.631
N12880 X363.214 Y7.647
N12885 X363.343 Y7.682
N12890 X363.539 Y7.746
N12895 X363.735 Y7.827
N12900 X363.77 Y7.843
N12905 X363.931 Y7.924
N12910 X364.124 Y8.038
N12915 X364.126 Y8.04
N12920 X364.322 Y8.178
N12925 X364.394 Y8.234
N12930 X364.518 Y8.341
N12935 X364.612 Y8.43
N12940 X364.714 Y8.536
N12945 X364.793 Y8.626
N12950 X364.91 Y8.774
N12955 X364.945 Y8.822
N12960 X365.073 Y9.018
N12965 X365.106 Y9.074
N12970 X365.181 Y9.214
N12975 X365.27 Y9.41
N12980 X365.302 Y9.488
N12985 X365.344 Y9.605
N12990 X365.402 Y9.801
N12995 X365.447 Y9.997
N13000 X365.477 Y10.193
N13005 X365.495 Y10.389
N13010 G2 X366.69 Y10.281 I0.598 J-0.054
N13015 X366.334 Y9.785 I-0.598 J0.054
N13020 G3 X366.021 Y9.006 I0.241 J-0.549
N13025 X371.154 Y8.734 I2.632 J1.094
N13030 G1 X371.164 Y8.753 F1333.33
N13035 G3 X368.823 Y12.945 Z-5.8 I-2.512 J1.347
N13040 G1 X368.803 Y12.946
N13045 X368.498 Y12.962 F4000.
N13050 G3 X365.497 Y10.261 I-0.15 J-2.851
N13055 G1 X365.495 Y10.232
N13060 X365.493 Y10.193
N13065 X365.472 Y9.997
N13070 X365.439 Y9.801
N13075 X365.392 Y9.605
N13080 X365.33 Y9.41
N13085 X365.302 Y9.332
N13090 X365.254 Y9.214
N13095 X365.16 Y9.018
N13100 X365.106 Y8.918
N13105 X365.049 Y8.822
N13110 X364.916 Y8.626
N13115 X364.91 Y8.618
N13120 X364.759 Y8.43
N13125 X364.714 Y8.38
N13130 X364.571 Y8.234
N13135 X364.518 Y8.185
N13140 X364.345 Y8.038
N13145 X364.322 Y8.021
N13150 X364.126 Y7.884
N13155 X364.061 Y7.843
N13160 X363.931 Y7.767
N13165 X363.735 Y7.67
N13170 X363.681 Y7.647
N13175 X363.539 Y7.59
N13180 X363.343 Y7.525
N13185 X363.147 Y7.475
N13190 X363.026 Y7.451
N13195 X362.951 Y7.439
N13200 X362.755 Y7.415
N13205 X362.56 Y7.405
N13210 X362.364 Y7.404
N13215 X27.636
N13220 X27.44 Y7.405
N13225 X27.245 Y7.415
N13230 X27.049 Y7.439
N13235 X26.974 Y7.451
N13240 X26.853 Y7.475
N13245 X26.657 Y7.525
N13250 X26.461 Y7.59
N13255 X26.319 Y7.647
N13260 X26.265 Y7.67
N13265 X26.069 Y7.767
N13270 X25.939 Y7.843
N13275 X25.874 Y7.884
N13280 X25.678 Y8.021
N13285 X25.655 Y8.038
N13290 X25.482 Y8.185
N13295 X25.429 Y8.234
N13300 X25.286 Y8.38
N13305 X25.241 Y8.43
N13310 X25.09 Y8.618
N13315 X25.084 Y8.626
N13320 X24.951 Y8.822
N13325 X24.894 Y8.918
N13330 X24.84 Y9.018
N13335 X24.746 Y9.214
N13340 X24.698 Y9.332
N13345 X24.67 Y9.41
N13350 X24.608 Y9.605
N13355 X24.561 Y9.801
N13360 X24.528 Y9.997
N13365 X24.507 Y10.193
N13370 X24.505 Y10.232
N13375 X24.503 Y10.261
N13380 G3 X23.305 Y10.198 I-0.599 J-0.032
N13385 X23.684 Y9.672 I0.599 J0.032
N13390 G2 X24.026 Y8.907 I-0.221 J-0.558
N13395 X18.861 Y8.501 I-2.676 J0.981
N13400 G1 X18.851 Y8.519 F1333.33
N13405 G2 X21.155 Y12.732 Z-6. I2.5 J1.369
N13410 G1 X21.176 Y12.733
N13415 X21.48 Y12.752 F4000.
N13420 G2 X24.505 Y10.077 I0.175 J-2.85
N13425 G1 X24.507 Y10.051
N13430 X24.511 Y9.997
N13435 X24.533 Y9.801
N13440 X24.57 Y9.605
N13445 X24.62 Y9.41
N13450 X24.684 Y9.214
N13455 X24.698 Y9.175
N13460 X24.764 Y9.018
N13465 X24.861 Y8.822
N13470 X24.894 Y8.762
N13475 X24.976 Y8.626
N13480 X25.09 Y8.461
N13485 X25.114 Y8.43
N13490 X25.276 Y8.234
N13495 X25.286 Y8.224
N13500 X25.471 Y8.038
N13505 X25.482 Y8.028
N13510 X25.678 Y7.865
N13515 X25.707 Y7.843
N13520 X25.874 Y7.727
N13525 X26.006 Y7.647
N13530 X26.069 Y7.611
N13535 X26.265 Y7.514
N13540 X26.416 Y7.451
N13545 X26.461 Y7.434
N13550 X26.657 Y7.369
N13555 X26.853 Y7.319
N13560 X27.049 Y7.282
N13565 X27.245 Y7.259
N13570 X27.297 Y7.255
N13575 X27.44 Y7.249
N13580 X27.636 Y7.248
N13585 X362.364
N13590 X362.56 Y7.249
N13595 X362.703 Y7.255
N13600 X362.755 Y7.259
N13605 X362.951 Y7.282
N13610 X363.147 Y7.319
N13615 X363.343 Y7.369
N13620 X363.539 Y7.434
N13625 X363.584 Y7.451
N13630 X363.735 Y7.514
N13635 X363.931 Y7.611
N13640 X363.994 Y7.647
N13645 X364.126 Y7.727
N13650 X364.293 Y7.843
N13655 X364.322 Y7.865
N13660 X364.518 Y8.028
N13665 X364.529 Y8.038
N13670 X364.714 Y8.224
N13675 X364.724 Y8.234
N13680 X364.886 Y8.43
N13685 X364.91 Y8.461
N13690 X365.024 Y8.626
N13695 X365.106 Y8.762
N13700 X365.139 Y8.822
N13705 X365.236 Y9.018
N13710 X365.302 Y9.175
N13715 X365.316 Y9.214
N13720 X365.38 Y9.41
N13725 X365.43 Y9.605
N13730 X365.467 Y9.801
N13735 X365.489 Y9.997
N13740 X365.493 Y10.051
N13745 X365.495 Y10.077
N13750 G2 X366.693 Y10.004 I0.599 J-0.037
N13755 X366.325 Y9.487 I-0.599 J0.037
N13760 G3 X365.997 Y8.714 I0.231 J-0.554
N13765 X371.146 Y8.376 I2.654 J1.039
N13770 G1 X371.156 Y8.394 F1333.33
N13775 G3 X368.834 Y12.597 Z-6.2 I-2.505 J1.358
N13780 G1 X368.814 Y12.598
N13785 X368.509 Y12.615 F4000.
N13790 G3 X365.496 Y9.928 I-0.163 J-2.85
N13795 G1 X365.495 Y9.912
N13800 X365.493 Y9.893
N13805 X365.492 Y9.869
N13810 X365.486 Y9.801
N13815 X365.46 Y9.605
N13820 X365.421 Y9.41
N13825 X365.369 Y9.214
N13830 X365.302 Y9.019
N13835 X365.301 Y9.018
N13840 X365.218 Y8.822
N13845 X365.118 Y8.626
N13850 X365.106 Y8.605
N13855 X364.998 Y8.43
N13860 X364.91 Y8.305
N13865 X364.856 Y8.234
N13870 X364.714 Y8.068
N13875 X364.687 Y8.038
N13880 X364.518 Y7.872
N13885 X364.485 Y7.843
N13890 X364.322 Y7.709
N13895 X364.238 Y7.647
N13900 X364.126 Y7.571
N13905 X363.931 Y7.455
N13910 X363.923 Y7.451
N13915 X363.735 Y7.358
N13920 X363.539 Y7.278
N13925 X363.476 Y7.255
N13930 X363.343 Y7.213
N13935 X363.147 Y7.163
N13940 X362.951 Y7.126
N13945 X362.755 Y7.103
N13950 X362.56 Y7.092
N13955 X362.364
N13960 X27.636
N13965 X27.44
N13970 X27.245 Y7.103
N13975 X27.049 Y7.126
N13980 X26.853 Y7.163
N13985 X26.657 Y7.213
N13990 X26.524 Y7.255
N13995 X26.461 Y7.278
N14000 X26.265 Y7.358
N14005 X26.077 Y7.451
N14010 X26.069 Y7.455
N14015 X25.874 Y7.571
N14020 X25.762 Y7.647
N14025 X25.678 Y7.709
N14030 X25.515 Y7.843
N14035 X25.482 Y7.872
N14040 X25.313 Y8.038
N14045 X25.286 Y8.068
N14050 X25.144 Y8.234
N14055 X25.09 Y8.305
N14060 X25.002 Y8.43
N14065 X24.894 Y8.605
N14070 X24.882 Y8.626
N14075 X24.782 Y8.822
N14080 X24.699 Y9.018
N14085 X24.698 Y9.019
N14090 X24.631 Y9.214
N14095 X24.579 Y9.41
N14100 X24.54 Y9.605
N14105 X24.514 Y9.801
N14110 X24.508 Y9.869
N14115 X24.507 Y9.893
N14120 X24.505 Y9.912
N14125 X24.504 Y9.928
N14130 G3 X23.306 Y9.86 I-0.599 J-0.034
N14135 X23.684 Y9.337 I0.599 J0.034
N14140 G2 X24.024 Y8.57 I-0.222 J-0.557
N14145 X18.885 Y8.134 I-2.672 J0.991
N14150 G1 X18.875 Y8.153 F1333.33
N14155 G2 X21.11 Y12.401 Z-6.4 I2.477 J1.409
N14160 G1 X21.131 Y12.403
N14165 X21.435 Y12.427 F4000.
N14170 G2 X24.503 Y9.801 I0.221 J-2.846
N14175 G1 X24.518 Y9.605
N14180 X24.546 Y9.41
N14185 X24.588 Y9.214
N14190 X24.644 Y9.018
N14195 X24.698 Y8.863
N14200 X24.714 Y8.822
N14205 X24.801 Y8.626
N14210 X24.894 Y8.449
N14215 X24.905 Y8.43
N14220 X25.029 Y8.234
N14225 X25.09 Y8.149
N14230 X25.176 Y8.038
N14235 X25.286 Y7.911
N14240 X25.351 Y7.843
N14245 X25.482 Y7.716
N14250 X25.561 Y7.647
N14255 X25.678 Y7.553
N14260 X25.819 Y7.451
N14265 X25.874 Y7.415
N14270 X26.069 Y7.299
N14275 X26.153 Y7.255
N14280 X26.265 Y7.202
N14285 X26.461 Y7.121
N14290 X26.648 Y7.059
N14295 X26.657 Y7.057
N14300 X26.853 Y7.006
N14305 X27.049 Y6.97
N14310 X27.245 Y6.947
N14315 X27.44 Y6.936
N14320 X27.636
N14325 X362.364
N14330 X362.56
N14335 X362.755 Y6.947
N14340 X362.951 Y6.97
N14345 X363.147 Y7.006
N14350 X363.343 Y7.057
N14355 X363.352 Y7.059
N14360 X363.539 Y7.121
N14365 X363.735 Y7.202
N14370 X363.847 Y7.255
N14375 X363.931 Y7.299
N14380 X364.126 Y7.415
N14385 X364.181 Y7.451
N14390 X364.322 Y7.553
N14395 X364.439 Y7.647
N14400 X364.518 Y7.716
N14405 X364.649 Y7.843
N14410 X364.714 Y7.911
N14415 X364.824 Y8.038
N14420 X364.91 Y8.149
N14425 X364.971 Y8.234
N14430 X365.095 Y8.43
N14435 X365.106 Y8.449
N14440 X365.199 Y8.626
N14445 X365.286 Y8.822
N14450 X365.302 Y8.863
N14455 X365.356 Y9.018
N14460 X365.412 Y9.214
N14465 X365.454 Y9.41
N14470 X365.482 Y9.605
N14475 X365.497 Y9.801
N14480 G2 X366.693 Y9.708 I0.598 J-0.046
N14485 X366.329 Y9.202 I-0.598 J0.046
N14490 G3 X366.006 Y8.427 I0.234 J-0.552
N14495 X371.159 Y8.128 I2.647 J1.057
N14500 G1 X371.169 Y8.147 F1333.33
N14505 G3 X368.814 Y12.33 Z-6.6 I-2.516 J1.338
N14510 G1 X368.793 Y12.331
N14515 X368.488 Y12.346 F4000.
N14520 G3 X365.497 Y9.635 I-0.14 J-2.852
N14525 G1 X365.496 Y9.629
N14530 X365.495 Y9.605
N14535 X365.477 Y9.41
N14540 X365.446 Y9.214
N14545 X365.402 Y9.018
N14550 X365.343 Y8.822
N14555 X365.302 Y8.707
N14560 X365.269 Y8.626
N14565 X365.18 Y8.43
N14570 X365.106 Y8.293
N14575 X365.072 Y8.234
N14580 X364.943 Y8.038
N14585 X364.91 Y7.993
N14590 X364.791 Y7.843
N14595 X364.714 Y7.755
N14600 X364.61 Y7.647
N14605 X364.518 Y7.56
N14610 X364.392 Y7.451
N14615 X364.322 Y7.396
N14620 X364.126 Y7.259
N14625 X364.121 Y7.255
N14630 X363.931 Y7.142
N14635 X363.765 Y7.059
N14640 X363.735 Y7.045
N14645 X363.539 Y6.965
N14650 X363.343 Y6.9
N14655 X363.205 Y6.863
N14660 X363.147 Y6.85
N14665 X362.951 Y6.814
N14670 X362.755 Y6.79
N14675 X362.56 Y6.78
N14680 X362.364 Y6.779
N14685 X27.636
N14690 X27.44 Y6.78
N14695 X27.245 Y6.79
N14700 X27.049 Y6.814
N14705 X26.853 Y6.85
N14710 X26.795 Y6.863
N14715 X26.657 Y6.9
N14720 X26.461 Y6.965
N14725 X26.265 Y7.045
N14730 X26.235 Y7.059
N14735 X26.069 Y7.142
N14740 X25.879 Y7.255
N14745 X25.874 Y7.259
N14750 X25.678 Y7.396
N14755 X25.608 Y7.451
N14760 X25.482 Y7.56
N14765 X25.39 Y7.647
N14770 X25.286 Y7.755
N14775 X25.209 Y7.843
N14780 X25.09 Y7.993
N14785 X25.057 Y8.038
N14790 X24.928 Y8.234
N14795 X24.894 Y8.293
N14800 X24.82 Y8.43
N14805 X24.731 Y8.626
N14810 X24.698 Y8.707
N14815 X24.657 Y8.822
N14820 X24.598 Y9.018
N14825 X24.554 Y9.214
N14830 X24.523 Y9.41
N14835 X24.505 Y9.605
N14840 X24.504 Y9.629
N14845 X24.503 Y9.635
N14850 G3 X23.305 Y9.576 I-0.599 J-0.029
N14855 X23.674 Y9.051 I0.599 J0.029
N14860 G2 X24.003 Y8.279 I-0.23 J-0.554
N14865 X18.847 Y7.949 I-2.655 J1.036
N14870 G1 X18.837 Y7.967 F1333.33
N14875 G2 X21.175 Y12.16 Z-6.8 I2.511 J1.348
N14880 G1 X21.196 Y12.161
N14885 X21.501 Y12.178 F4000.
N14890 G2 X24.503 Y9.478 I0.152 J-2.851
N14895 G1 X24.505 Y9.449
N14900 X24.508 Y9.41
N14905 X24.528 Y9.214
N14910 X24.562 Y9.018
N14915 X24.609 Y8.822
N14920 X24.671 Y8.626
N14925 X24.698 Y8.55
N14930 X24.747 Y8.43
N14935 X24.841 Y8.234
N14940 X24.894 Y8.137
N14945 X24.953 Y8.038
N14950 X25.085 Y7.843
N14955 X25.09 Y7.836
N14960 X25.243 Y7.647
N14965 X25.286 Y7.599
N14970 X25.431 Y7.451
N14975 X25.482 Y7.403
N14980 X25.658 Y7.255
N14985 X25.678 Y7.24
N14990 X25.874 Y7.102
N14995 X25.942 Y7.059
N15000 X26.069 Y6.986
N15005 X26.265 Y6.889
N15010 X26.324 Y6.863
N15015 X26.461 Y6.809
N15020 X26.657 Y6.744
N15025 X26.853 Y6.694
N15030 X26.986 Y6.667
N15035 X27.049 Y6.657
N15040 X27.245 Y6.634
N15045 X27.44 Y6.624
N15050 X27.636 Y6.623
N15055 X362.364
N15060 X362.56 Y6.624
N15065 X362.755 Y6.634
N15070 X362.951 Y6.657
N15075 X363.014 Y6.667
N15080 X363.147 Y6.694
N15085 X363.343 Y6.744
N15090 X363.539 Y6.809
N15095 X363.676 Y6.863
N15100 X363.735 Y6.889
N15105 X363.931 Y6.986
N15110 X364.058 Y7.059
N15115 X364.126 Y7.102
N15120 X364.322 Y7.24
N15125 X364.342 Y7.255
N15130 X364.518 Y7.403
N15135 X364.569 Y7.451
N15140 X364.714 Y7.599
N15145 X364.757 Y7.647
N15150 X364.91 Y7.836
N15155 X364.915 Y7.843
N15160 X365.047 Y8.038
N15165 X365.106 Y8.137
N15170 X365.159 Y8.234
N15175 X365.253 Y8.43
N15180 X365.302 Y8.55
N15185 X365.329 Y8.626
N15190 X365.391 Y8.822
N15195 X365.438 Y9.018
N15200 X365.472 Y9.214
N15205 X365.492 Y9.41
N15210 X365.495 Y9.449
N15215 X365.496 Y9.478
N15220 G2 X366.695 Y9.415 I0.599 J-0.032
N15225 X366.316 Y8.888 I-0.599 J0.032
N15230 G3 X365.973 Y8.124 I0.22 J-0.558
N15235 X371.138 Y7.716 I2.676 J0.98
N15240 G1 X371.148 Y7.734 F1333.33
N15245 G3 X368.847 Y11.947 Z-7. I-2.499 J1.37
N15250 G1 X368.826 Y11.949
N15255 X368.521 Y11.967 F4000.
N15260 G3 X365.495 Y9.295 I-0.177 J-2.85
N15265 G1 X365.493 Y9.268
N15270 X365.489 Y9.214
N15275 X365.466 Y9.018
N15280 X365.43 Y8.822
N15285 X365.38 Y8.626
N15290 X365.315 Y8.43
N15295 X365.302 Y8.394
N15300 X365.235 Y8.234
N15305 X365.138 Y8.038
N15310 X365.106 Y7.98
N15315 X365.022 Y7.843
N15320 X364.91 Y7.68
N15325 X364.885 Y7.647
N15330 X364.722 Y7.451
N15335 X364.714 Y7.443
N15340 X364.527 Y7.255
N15345 X364.518 Y7.247
N15350 X364.322 Y7.084
N15355 X364.29 Y7.059
N15360 X364.126 Y6.946
N15365 X363.99 Y6.863
N15370 X363.931 Y6.83
N15375 X363.735 Y6.733
N15380 X363.579 Y6.667
N15385 X363.539 Y6.652
N15390 X363.343 Y6.588
N15395 X363.147 Y6.537
N15400 X362.951 Y6.501
N15405 X362.755 Y6.478
N15410 X362.668 Y6.472
N15415 X362.56 Y6.467
N15420 X362.364
N15425 X27.636
N15430 X27.44
N15435 X27.332 Y6.472
N15440 X27.245 Y6.478
N15445 X27.049 Y6.501
N15450 X26.853 Y6.537
N15455 X26.657 Y6.588
N15460 X26.461 Y6.652
N15465 X26.421 Y6.667
N15470 X26.265 Y6.733
N15475 X26.069 Y6.83
N15480 X26.01 Y6.863
N15485 X25.874 Y6.946
N15490 X25.71 Y7.059
N15495 X25.678 Y7.084
N15500 X25.482 Y7.247
N15505 X25.473 Y7.255
N15510 X25.286 Y7.443
N15515 X25.278 Y7.451
N15520 X25.115 Y7.647
N15525 X25.09 Y7.68
N15530 X24.978 Y7.843
N15535 X24.894 Y7.98
N15540 X24.862 Y8.038
N15545 X24.765 Y8.234
N15550 X24.698 Y8.394
N15555 X24.685 Y8.43
N15560 X24.62 Y8.626
N15565 X24.57 Y8.822
N15570 X24.534 Y9.018
N15575 X24.511 Y9.214
N15580 X24.507 Y9.268
N15585 X24.505 Y9.295
N15590 G3 X23.307 Y9.22 I-0.599 J-0.037
N15595 X23.676 Y8.703 I0.599 J0.037
N15600 G2 X24.004 Y7.931 I-0.23 J-0.554
N15605 X18.855 Y7.59 I-2.655 J1.037
N15610 G1 X18.845 Y7.608 F1333.33
N15615 G2 X21.164 Y11.812 Z-7.2 I2.505 J1.36
N15620 G1 X21.185 Y11.813
N15625 X21.489 Y11.831 F4000.
N15630 G2 X24.505 Y9.145 I0.165 J-2.85
N15635 G1 Y9.129
N15640 X24.507 Y9.11
N15645 X24.508 Y9.086
N15650 X24.514 Y9.018
N15655 X24.54 Y8.822
N15660 X24.579 Y8.626
N15665 X24.632 Y8.43
N15670 X24.698 Y8.238
N15675 X24.7 Y8.234
N15680 X24.783 Y8.038
N15685 X24.884 Y7.843
N15690 X24.894 Y7.824
N15695 X25.004 Y7.647
N15700 X25.09 Y7.524
N15705 X25.146 Y7.451
N15710 X25.286 Y7.286
N15715 X25.315 Y7.255
N15720 X25.482 Y7.091
N15725 X25.517 Y7.059
N15730 X25.678 Y6.928
N15735 X25.765 Y6.863
N15740 X25.874 Y6.79
N15745 X26.069 Y6.674
N15750 X26.081 Y6.667
N15755 X26.265 Y6.576
N15760 X26.461 Y6.496
N15765 X26.531 Y6.472
N15770 X26.657 Y6.431
N15775 X26.853 Y6.381
N15780 X27.049 Y6.345
N15785 X27.245 Y6.321
N15790 X27.44 Y6.311
N15795 X27.636
N15800 X362.364
N15805 X362.56
N15810 X362.755 Y6.321
N15815 X362.951 Y6.345
N15820 X363.147 Y6.381
N15825 X363.343 Y6.431
N15830 X363.469 Y6.472
N15835 X363.539 Y6.496
N15840 X363.735 Y6.576
N15845 X363.919 Y6.667
N15850 X363.931 Y6.674
N15855 X364.126 Y6.79
N15860 X364.235 Y6.863
N15865 X364.322 Y6.928
N15870 X364.483 Y7.059
N15875 X364.518 Y7.091
N15880 X364.685 Y7.255
N15885 X364.714 Y7.286
N15890 X364.854 Y7.451
N15895 X364.91 Y7.524
N15900 X364.996 Y7.647
N15905 X365.106 Y7.824
N15910 X365.116 Y7.843
N15915 X365.217 Y8.038
N15920 X365.3 Y8.234
N15925 X365.302 Y8.238
N15930 X365.368 Y8.43
N15935 X365.421 Y8.626
N15940 X365.46 Y8.822
N15945 X365.486 Y9.018
N15950 X365.492 Y9.086
N15955 X365.493 Y9.11
N15960 X365.495 Y9.129
N15965 Y9.145
N15970 G2 X366.693 Y9.076 I0.599 J-0.035
N15975 X366.316 Y8.553 I-0.599 J0.035
N15980 G3 X365.975 Y7.787 I0.221 J-0.558
N15985 X371.113 Y7.347 I2.673 J0.989
N15990 G1 X371.124 Y7.365 F1333.33
N15995 G3 X368.891 Y11.615 Z-7.4 I-2.476 J1.411
N16000 G1 X368.87 Y11.617
N16005 X368.566 Y11.641 F4000.
N16010 G3 X365.497 Y9.018 I-0.223 J-2.846
N16015 G1 X365.482 Y8.822
N16020 X365.453 Y8.626
N16025 X365.411 Y8.43
N16030 X365.355 Y8.234
N16035 X365.302 Y8.082
N16040 X365.285 Y8.038
N16045 X365.198 Y7.843
N16050 X365.106 Y7.668
N16055 X365.094 Y7.647
N16060 X364.969 Y7.451
N16065 X364.91 Y7.368
N16070 X364.822 Y7.255
N16075 X364.714 Y7.13
N16080 X364.647 Y7.059
N16085 X364.518 Y6.935
N16090 X364.437 Y6.863
N16095 X364.322 Y6.771
N16100 X364.178 Y6.667
N16105 X364.126 Y6.634
N16110 X363.931 Y6.517
N16115 X363.843 Y6.472
N16120 X363.735 Y6.42
N16125 X363.539 Y6.34
N16130 X363.345 Y6.276
N16135 X363.343 Y6.275
N16140 X363.147 Y6.225
N16145 X362.951 Y6.188
N16150 X362.755 Y6.165
N16155 X362.56 Y6.155
N16160 X362.364 Y6.154
N16165 X27.636
N16170 X27.44 Y6.155
N16175 X27.245 Y6.165
N16180 X27.049 Y6.188
N16185 X26.853 Y6.225
N16190 X26.657 Y6.275
N16195 X26.655 Y6.276
N16200 X26.461 Y6.34
N16205 X26.265 Y6.42
N16210 X26.157 Y6.472
N16215 X26.069 Y6.517
N16220 X25.874 Y6.634
N16225 X25.822 Y6.667
N16230 X25.678 Y6.771
N16235 X25.563 Y6.863
N16240 X25.482 Y6.935
N16245 X25.353 Y7.059
N16250 X25.286 Y7.13
N16255 X25.178 Y7.255
N16260 X25.09 Y7.368
N16265 X25.031 Y7.451
N16270 X24.906 Y7.647
N16275 X24.894 Y7.668
N16280 X24.802 Y7.843
N16285 X24.715 Y8.038
N16290 X24.698 Y8.082
N16295 X24.645 Y8.234
N16300 X24.589 Y8.43
N16305 X24.547 Y8.626
N16310 X24.518 Y8.822
N16315 X24.503 Y9.018
N16320 G3 X23.307 Y8.924 I-0.598 J-0.047
N16325 X23.671 Y8.418 I0.598 J0.047
N16330 G2 X23.994 Y7.643 I-0.234 J-0.552
N16335 X18.841 Y7.343 I-2.647 J1.057
N16340 G1 X18.831 Y7.362 F1333.33
N16345 G2 X21.185 Y11.546 Z-7.6 I2.516 J1.339
N16350 G1 X21.206 Y11.547
N16355 X21.511 Y11.562 F4000.
N16360 G2 X24.504 Y8.852 I0.141 J-2.851
N16365 G1 Y8.846
N16370 X24.505 Y8.822
N16375 X24.523 Y8.626
N16380 X24.554 Y8.43
N16385 X24.599 Y8.234
N16390 X24.658 Y8.038
N16395 X24.698 Y7.925
N16400 X24.731 Y7.843
N16405 X24.822 Y7.647
N16410 X24.894 Y7.512
N16415 X24.93 Y7.451
N16420 X25.058 Y7.255
N16425 X25.09 Y7.211
N16430 X25.211 Y7.059
N16435 X25.286 Y6.974
N16440 X25.392 Y6.863
N16445 X25.482 Y6.778
N16450 X25.611 Y6.667
N16455 X25.678 Y6.615
N16460 X25.874 Y6.477
N16465 X25.882 Y6.472
N16470 X26.069 Y6.361
N16475 X26.24 Y6.276
N16480 X26.265 Y6.264
N16485 X26.461 Y6.184
N16490 X26.657 Y6.119
N16495 X26.804 Y6.08
N16500 X26.853 Y6.069
N16505 X27.049 Y6.032
N16510 X27.245 Y6.009
N16515 X27.44 Y5.999
N16520 X27.636 Y5.998
N16525 X362.364
N16530 X362.56 Y5.999
N16535 X362.755 Y6.009
N16540 X362.951 Y6.032
N16545 X363.147 Y6.069
N16550 X363.196 Y6.08
N16555 X363.343 Y6.119
N16560 X363.539 Y6.184
N16565 X363.735 Y6.264
N16570 X363.76 Y6.276
N16575 X363.931 Y6.361
N16580 X364.118 Y6.472
N16585 X364.126 Y6.477
N16590 X364.322 Y6.615
N16595 X364.389 Y6.667
N16600 X364.518 Y6.778
N16605 X364.608 Y6.863
N16610 X364.714 Y6.974
N16615 X364.789 Y7.059
N16620 X364.91 Y7.211
N16625 X364.942 Y7.255
N16630 X365.07 Y7.451
N16635 X365.106 Y7.512
N16640 X365.178 Y7.647
N16645 X365.269 Y7.843
N16650 X365.302 Y7.925
N16655 X365.342 Y8.038
N16660 X365.401 Y8.234
N16665 X365.446 Y8.43
N16670 X365.477 Y8.626
N16675 X365.495 Y8.822
N16680 X365.496 Y8.846
N16685 Y8.852
N16690 G2 X366.695 Y8.793 I0.599 J-0.03
N16695 X366.324 Y8.268 I-0.599 J0.03
N16700 G3 X365.992 Y7.497 I0.228 J-0.555
N16705 X371.15 Y7.151 I2.659 J1.025
N16710 G1 X371.16 Y7.169 F1333.33
N16715 G3 X368.83 Y11.367 Z-7.8 I-2.508 J1.353
N16720 G1 X368.809 Y11.368
N16725 X368.504 Y11.385 F4000.
N16730 G3 X365.496 Y8.692 I-0.157 J-2.851
N16735 G1 X365.495 Y8.661
N16740 X365.492 Y8.626
N16745 X365.472 Y8.43
N16750 X365.438 Y8.234
N16755 X365.39 Y8.038
N16760 X365.329 Y7.843
N16765 X365.302 Y7.769
N16770 X365.252 Y7.647
N16775 X365.158 Y7.451
N16780 X365.106 Y7.355
N16785 X365.046 Y7.255
N16790 X364.913 Y7.059
N16795 X364.91 Y7.055
N16800 X364.755 Y6.863
N16805 X364.714 Y6.817
N16810 X364.567 Y6.667
N16815 X364.518 Y6.622
N16820 X364.339 Y6.472
N16825 X364.322 Y6.459
N16830 X364.126 Y6.321
N16835 X364.054 Y6.276
N16840 X363.931 Y6.205
N16845 X363.735 Y6.108
N16850 X363.671 Y6.08
N16855 X363.539 Y6.027
N16860 X363.343 Y5.963
N16865 X363.147 Y5.912
N16870 X363.001 Y5.884
N16875 X362.951 Y5.876
N16880 X362.755 Y5.853
N16885 X362.56 Y5.842
N16890 X362.364
N16895 X27.636
N16900 X27.44
N16905 X27.245 Y5.853
N16910 X27.049 Y5.876
N16915 X26.999 Y5.884
N16920 X26.853 Y5.912
N16925 X26.657 Y5.963
N16930 X26.461 Y6.027
N16935 X26.329 Y6.08
N16940 X26.265 Y6.108
N16945 X26.069 Y6.205
N16950 X25.946 Y6.276
N16955 X25.874 Y6.321
N16960 X25.678 Y6.459
N16965 X25.661 Y6.472
N16970 X25.482 Y6.622
N16975 X25.433 Y6.667
N16980 X25.286 Y6.817
N16985 X25.245 Y6.863
N16990 X25.09 Y7.055
N16995 X25.087 Y7.059
N17000 X24.954 Y7.255
N17005 X24.894 Y7.355
N17010 X24.842 Y7.451
N17015 X24.748 Y7.647
N17020 X24.698 Y7.769
N17025 X24.671 Y7.843
N17030 X24.61 Y8.038
N17035 X24.562 Y8.234
N17040 X24.528 Y8.43
N17045 X24.508 Y8.626
N17050 X24.505 Y8.661
N17055 X24.504 Y8.692
N17060 G3 X23.458 Y9.059 I-0.599 J-0.033
N17065 G1 X23.395 Y8.989 Z-7.793
N17070 X23.334 Y8.921 Z-7.771
N17075 X23.276 Y8.856 Z-7.735
N17080 X23.222 Y8.796 Z-7.685
N17085 X23.175 Y8.743 Z-7.624
N17090 X23.134 Y8.697 Z-7.553
N17095 X23.101 Y8.66 Z-7.472
N17100 X23.077 Y8.634 Z-7.385
N17105 X23.062 Y8.617 Z-7.294
N17110 X23.057 Y8.612 Z-7.2
N17115 G0 Z5.
N17120 X27.013 Y4.667
N17125 Z-7.415
N17130 G1 Z-8. F4000.
N17135 G2 X27.44 Y5.69 I0.426 J0.423
N17140 G1 X27.636 Y5.689
N17145 X362.364
N17150 X362.56 Y5.69
N17155 G2 X362.987 Y4.667 I0.002 J-0.6
N17160 G0 Z5.
N17165 X366.542 Y305.677
N17170 Z0.595
N17175 G1 Z-0.2 F4000.
N17180 G2 X365.496 Y306.045 I-0.447 J0.4
N17185 G1 X365.495 Y306.067
N17190 X365.493 Y306.093
N17195 X365.489 Y306.148
N17200 X365.466 Y306.344
N17205 X365.429 Y306.54
N17210 X365.379 Y306.736
N17215 X365.314 Y306.932
N17220 X365.302 Y306.965
N17225 X365.234 Y307.128
N17230 X365.137 Y307.323
N17235 X365.106 Y307.379
N17240 X365.02 Y307.519
N17245 X364.91 Y307.679
N17250 X364.883 Y307.715
N17255 X364.719 Y307.911
N17260 X364.714 Y307.916
N17265 X364.619 Y308.016
N17270 X364.524 Y308.107
N17275 X364.518 Y308.112
N17280 X364.322 Y308.275
N17285 X364.286 Y308.303
N17290 X364.126 Y308.413
N17295 X363.985 Y308.499
N17300 X363.931 Y308.529
N17305 X363.735 Y308.626
N17310 X363.571 Y308.695
N17315 X363.539 Y308.707
N17320 X363.343 Y308.771
N17325 X363.147 Y308.822
N17330 X362.951 Y308.858
N17335 X362.755 Y308.881
N17340 X362.603 Y308.89
N17345 X362.56 Y308.892
N17350 X362.364
N17355 X27.636
N17360 X27.44
N17365 X27.397 Y308.89
N17370 X27.245 Y308.881
N17375 X27.049 Y308.858
N17380 X26.853 Y308.822
N17385 X26.657 Y308.771
N17390 X26.461 Y308.707
N17395 X26.429 Y308.695
N17400 X26.265 Y308.626
N17405 X26.069 Y308.529
N17410 X26.015 Y308.499
N17415 X25.874 Y308.413
N17420 X25.714 Y308.303
N17425 X25.678 Y308.275
N17430 X25.482 Y308.112
N17435 X25.476 Y308.107
N17440 X25.381 Y308.016
N17445 X25.286 Y307.916
N17450 X25.281 Y307.911
N17455 X25.117 Y307.715
N17460 X25.09 Y307.679
N17465 X24.98 Y307.519
N17470 X24.894 Y307.379
N17475 X24.863 Y307.323
N17480 X24.766 Y307.128
N17485 X24.698 Y306.965
N17490 X24.686 Y306.932
N17495 X24.621 Y306.736
N17500 X24.571 Y306.54
N17505 X24.534 Y306.344
N17510 X24.511 Y306.148
N17515 X24.507 Y306.093
N17520 X24.505 Y306.067
N17525 X24.504 Y306.045
N17530 G2 X23.306 Y306.111 I-0.599 J0.033
N17535 X23.68 Y306.634 I0.599 J-0.033
N17540 G3 X24.016 Y307.402 I-0.225 J0.556
N17545 X18.856 Y307.776 I-2.666 J-1.006
N17550 G1 X18.846 Y307.758 F1333.33
N17555 G3 X21.162 Y303.552 Z-0.4 I2.504 J-1.362
N17560 G1 X21.183 Y303.551
N17565 X21.488 Y303.533 F4000.
N17570 G3 X24.505 Y306.216 I0.167 J2.85
N17575 G1 X24.506 Y306.232
N17580 X24.507 Y306.251
N17585 X24.509 Y306.275
N17590 X24.515 Y306.344
N17595 X24.541 Y306.54
N17600 X24.58 Y306.736
N17605 X24.633 Y306.932
N17610 X24.698 Y307.121
N17615 X24.701 Y307.128
N17620 X24.784 Y307.323
N17625 X24.885 Y307.519
N17630 X24.894 Y307.535
N17635 X25.006 Y307.715
N17640 X25.09 Y307.835
N17645 X25.148 Y307.911
N17650 X25.286 Y308.073
N17655 X25.318 Y308.107
N17660 X25.482 Y308.268
N17665 X25.521 Y308.303
N17670 X25.678 Y308.431
N17675 X25.769 Y308.499
N17680 X25.874 Y308.569
N17685 X26.069 Y308.685
N17690 X26.086 Y308.695
N17695 X26.265 Y308.783
N17700 X26.461 Y308.863
N17705 X26.539 Y308.89
N17710 X26.657 Y308.928
N17715 X26.853 Y308.978
N17720 X27.049 Y309.014
N17725 X27.245 Y309.038
N17730 X27.44 Y309.048
N17735 X27.636
N17740 X362.364
N17745 X362.56
N17750 X362.755 Y309.038
N17755 X362.951 Y309.014
N17760 X363.147 Y308.978
N17765 X363.343 Y308.928
N17770 X363.461 Y308.89
N17775 X363.539 Y308.863
N17780 X363.735 Y308.783
N17785 X363.914 Y308.695
N17790 X363.931 Y308.685
N17795 X364.126 Y308.569
N17800 X364.231 Y308.499
N17805 X364.322 Y308.431
N17810 X364.479 Y308.303
N17815 X364.518 Y308.268
N17820 X364.682 Y308.107
N17825 X364.714 Y308.073
N17830 X364.852 Y307.911
N17835 X364.91 Y307.835
N17840 X364.994 Y307.715
N17845 X365.106 Y307.535
N17850 X365.115 Y307.519
N17855 X365.216 Y307.323
N17860 X365.299 Y307.128
N17865 X365.302 Y307.121
N17870 X365.367 Y306.932
N17875 X365.42 Y306.736
N17880 X365.459 Y306.54
N17885 X365.485 Y306.344
N17890 X365.491 Y306.275
N17895 X365.493 Y306.251
N17900 X365.494 Y306.232
N17905 X365.495 Y306.216
N17910 G3 X366.693 Y306.286 I0.599 J0.035
N17915 X366.315 Y306.809 I-0.599 J-0.035
N17920 G2 X365.973 Y307.574 I0.221 J0.558
N17925 X371.112 Y308.021 I2.674 J-0.985
N17930 G1 X371.122 Y308.003 F1333.33
N17935 G2 X368.894 Y303.75 Z-0.6 I-2.475 J-1.413
N17940 G1 X368.873 Y303.748
N17945 X368.569 Y303.724 F4000.
N17950 G2 X365.497 Y306.344 I-0.226 J2.846
N17955 G1 X365.481 Y306.54
N17960 X365.453 Y306.736
N17965 X365.411 Y306.932
N17970 X365.355 Y307.128
N17975 X365.302 Y307.277
N17980 X365.284 Y307.323
N17985 X365.197 Y307.519
N17990 X365.106 Y307.691
N17995 X365.092 Y307.715
N18000 X364.967 Y307.911
N18005 X364.91 Y307.991
N18010 X364.82 Y308.107
N18015 X364.714 Y308.229
N18020 X364.644 Y308.303
N18025 X364.518 Y308.424
N18030 X364.433 Y308.499
N18035 X364.322 Y308.588
N18040 X364.173 Y308.695
N18045 X364.126 Y308.725
N18050 X363.931 Y308.842
N18055 X363.837 Y308.89
N18060 X363.735 Y308.939
N18065 X363.539 Y309.019
N18070 X363.343 Y309.084
N18075 X363.335 Y309.086
N18080 X363.147 Y309.134
N18085 X362.951 Y309.171
N18090 X362.755 Y309.194
N18095 X362.56 Y309.204
N18100 X362.364 Y309.205
N18105 X27.636
N18110 X27.44 Y309.204
N18115 X27.245 Y309.194
N18120 X27.049 Y309.171
N18125 X26.853 Y309.134
N18130 X26.665 Y309.086
N18135 X26.657 Y309.084
N18140 X26.461 Y309.019
N18145 X26.265 Y308.939
N18150 X26.163 Y308.89
N18155 X26.069 Y308.842
N18160 X25.874 Y308.725
N18165 X25.826 Y308.695
N18170 X25.678 Y308.588
N18175 X25.567 Y308.499
N18180 X25.482 Y308.424
N18185 X25.356 Y308.303
N18190 X25.286 Y308.229
N18195 X25.18 Y308.107
N18200 X25.09 Y307.991
N18205 X25.033 Y307.911
N18210 X24.908 Y307.715
N18215 X24.894 Y307.691
N18220 X24.803 Y307.519
N18225 X24.716 Y307.323
N18230 X24.698 Y307.277
N18235 X24.645 Y307.128
N18240 X24.589 Y306.932
N18245 X24.547 Y306.736
N18250 X24.519 Y306.54
N18255 X24.503 Y306.344
N18260 G2 X23.307 Y306.439 I-0.598 J0.048
N18265 X23.671 Y306.944 I0.598 J-0.048
N18270 G3 X23.994 Y307.719 I-0.234 J0.552
N18275 X18.842 Y308.021 I-2.647 J-1.057
N18280 G1 X18.832 Y308.002 F1333.33
N18285 G3 X21.184 Y303.816 Z-0.8 I2.515 J-1.341
N18290 G1 X21.204 Y303.815
N18295 X21.509 Y303.8 F4000.
N18300 G3 X24.504 Y306.508 I0.143 J2.851
N18305 G1 Y306.514
N18310 X24.505 Y306.54
N18315 X24.524 Y306.736
N18320 X24.555 Y306.932
N18325 X24.6 Y307.128
N18330 X24.659 Y307.323
N18335 X24.698 Y307.434
N18340 X24.733 Y307.519
N18345 X24.823 Y307.715
N18350 X24.894 Y307.847
N18355 X24.932 Y307.911
N18360 X25.06 Y308.107
N18365 X25.09 Y308.148
N18370 X25.213 Y308.303
N18375 X25.286 Y308.385
N18380 X25.395 Y308.499
N18385 X25.482 Y308.581
N18390 X25.615 Y308.695
N18395 X25.678 Y308.744
N18400 X25.874 Y308.882
N18405 X25.887 Y308.89
N18410 X26.069 Y308.998
N18415 X26.246 Y309.086
N18420 X26.265 Y309.095
N18425 X26.461 Y309.175
N18430 X26.657 Y309.24
N18435 X26.817 Y309.282
N18440 X26.853 Y309.29
N18445 X27.049 Y309.327
N18450 X27.245 Y309.35
N18455 X27.44 Y309.36
N18460 X27.636 Y309.361
N18465 X362.364
N18470 X362.56 Y309.36
N18475 X362.755 Y309.35
N18480 X362.951 Y309.327
N18485 X363.147 Y309.29
N18490 X363.183 Y309.282
N18495 X363.343 Y309.24
N18500 X363.539 Y309.175
N18505 X363.735 Y309.095
N18510 X363.754 Y309.086
N18515 X363.931 Y308.998
N18520 X364.113 Y308.89
N18525 X364.126 Y308.882
N18530 X364.322 Y308.744
N18535 X364.385 Y308.695
N18540 X364.518 Y308.581
N18545 X364.605 Y308.499
N18550 X364.714 Y308.385
N18555 X364.787 Y308.303
N18560 X364.91 Y308.148
N18565 X364.94 Y308.107
N18570 X365.068 Y307.911
N18575 X365.106 Y307.847
N18580 X365.177 Y307.715
N18585 X365.267 Y307.519
N18590 X365.302 Y307.434
N18595 X365.341 Y307.323
N18600 X365.4 Y307.128
N18605 X365.445 Y306.932
N18610 X365.476 Y306.736
N18615 X365.495 Y306.54
N18620 X365.496 Y306.514
N18625 Y306.508
N18630 G3 X366.695 Y306.569 I0.599 J0.03
N18635 X366.325 Y307.093 I-0.599 J-0.03
N18640 G2 X365.996 Y307.864 I0.23 J0.554
N18645 X371.151 Y308.201 I2.656 J-1.033
N18650 G1 X371.161 Y308.183 F1333.33
N18655 G2 X368.827 Y303.987 Z-1. I-2.509 J-1.351
N18660 G1 X368.807 Y303.986
N18665 X368.502 Y303.97 F4000.
N18670 G2 X365.496 Y306.665 I-0.155 J2.851
N18675 G1 X365.495 Y306.694
N18680 X365.492 Y306.736
N18685 X365.471 Y306.932
N18690 X365.437 Y307.128
N18695 X365.39 Y307.323
N18700 X365.328 Y307.519
N18705 X365.302 Y307.59
N18710 X365.25 Y307.715
N18715 X365.157 Y307.911
N18720 X365.106 Y308.004
N18725 X365.044 Y308.107
N18730 X364.911 Y308.303
N18735 X364.91 Y308.304
N18740 X364.753 Y308.499
N18745 X364.714 Y308.542
N18750 X364.564 Y308.695
N18755 X364.518 Y308.737
N18760 X364.335 Y308.89
N18765 X364.322 Y308.9
N18770 X364.126 Y309.038
N18775 X364.049 Y309.086
N18780 X363.931 Y309.154
N18785 X363.735 Y309.251
N18790 X363.664 Y309.282
N18795 X363.539 Y309.332
N18800 X363.343 Y309.396
N18805 X363.147 Y309.447
N18810 X362.983 Y309.478
N18815 X362.951 Y309.483
N18820 X362.755 Y309.506
N18825 X362.56 Y309.517
N18830 X362.364
N18835 X27.636
N18840 X27.44
N18845 X27.245 Y309.506
N18850 X27.049 Y309.483
N18855 X27.017 Y309.478
N18860 X26.853 Y309.447
N18865 X26.657 Y309.396
N18870 X26.461 Y309.332
N18875 X26.336 Y309.282
N18880 X26.265 Y309.251
N18885 X26.069 Y309.154
N18890 X25.951 Y309.086
N18895 X25.874 Y309.038
N18900 X25.678 Y308.9
N18905 X25.665 Y308.89
N18910 X25.482 Y308.737
N18915 X25.436 Y308.695
N18920 X25.286 Y308.542
N18925 X25.248 Y308.499
N18930 X25.09 Y308.304
N18935 X25.089 Y308.303
N18940 X24.956 Y308.107
N18945 X24.894 Y308.004
N18950 X24.843 Y307.911
N18955 X24.75 Y307.715
N18960 X24.698 Y307.59
N18965 X24.672 Y307.519
N18970 X24.61 Y307.323
N18975 X24.563 Y307.128
N18980 X24.529 Y306.932
N18985 X24.508 Y306.736
N18990 X24.505 Y306.694
N18995 X24.504 Y306.665
N19000 G2 X23.305 Y306.731 I-0.599 J0.033
N19005 X23.676 Y307.253 I0.599 J-0.033
N19010 G3 X24.007 Y308.024 I-0.229 J0.555
N19015 X18.85 Y308.369 I-2.659 J-1.026
N19020 G1 X18.84 Y308.35 F1333.33
N19025 G3 X21.171 Y304.153 Z-1.2 I2.508 J-1.353
N19030 G1 X21.191 Y304.152
N19035 X21.496 Y304.135 F4000.
N19040 G3 X24.504 Y306.828 I0.157 J2.851
N19045 G1 X24.505 Y306.849
N19050 X24.507 Y306.876
N19055 X24.511 Y306.932
N19060 X24.535 Y307.128
N19065 X24.571 Y307.323
N19070 X24.622 Y307.519
N19075 X24.687 Y307.715
N19080 X24.698 Y307.746
N19085 X24.767 Y307.911
N19090 X24.865 Y308.107
N19095 X24.894 Y308.16
N19100 X24.981 Y308.303
N19105 X25.09 Y308.46
N19110 X25.119 Y308.499
N19115 X25.283 Y308.695
N19120 X25.286 Y308.698
N19125 X25.382 Y308.798
N19130 X25.479 Y308.89
N19135 X25.482 Y308.893
N19140 X25.678 Y309.057
N19145 X25.717 Y309.086
N19150 X25.874 Y309.194
N19155 X26.019 Y309.282
N19160 X26.069 Y309.31
N19165 X26.265 Y309.408
N19170 X26.435 Y309.478
N19175 X26.461 Y309.488
N19180 X26.657 Y309.553
N19185 X26.853 Y309.603
N19190 X27.049 Y309.639
N19195 X27.245 Y309.663
N19200 X27.44 Y309.673
N19205 X27.636
N19210 X362.364
N19215 X362.56
N19220 X362.755 Y309.663
N19225 X362.951 Y309.639
N19230 X363.147 Y309.603
N19235 X363.343 Y309.553
N19240 X363.539 Y309.488
N19245 X363.565 Y309.478
N19250 X363.735 Y309.408
N19255 X363.931 Y309.31
N19260 X363.981 Y309.282
N19265 X364.126 Y309.194
N19270 X364.283 Y309.086
N19275 X364.322 Y309.057
N19280 X364.518 Y308.893
N19285 X364.521 Y308.89
N19290 X364.618 Y308.798
N19295 X364.714 Y308.698
N19300 X364.717 Y308.695
N19305 X364.881 Y308.499
N19310 X364.91 Y308.46
N19315 X365.019 Y308.303
N19320 X365.106 Y308.16
N19325 X365.135 Y308.107
N19330 X365.233 Y307.911
N19335 X365.302 Y307.746
N19340 X365.313 Y307.715
N19345 X365.378 Y307.519
N19350 X365.429 Y307.323
N19355 X365.465 Y307.128
N19360 X365.489 Y306.932
N19365 X365.493 Y306.876
N19370 X365.495 Y306.849
N19375 X365.496 Y306.828
N19380 G3 X366.694 Y306.894 I0.599 J0.033
N19385 X366.32 Y307.418 I-0.599 J-0.033
N19390 G2 X365.983 Y308.185 I0.225 J0.556
N19395 X371.143 Y308.562 I2.667 J-1.004
N19400 G1 X371.153 Y308.544 F1333.33
N19405 G2 X368.839 Y304.337 Z-1.4 I-2.503 J-1.363
N19410 G1 X368.818 Y304.336
N19415 X368.514 Y304.318 F4000.
N19420 G2 X365.495 Y306.999 I-0.169 J2.85
N19425 G1 X365.494 Y307.015
N19430 X365.493 Y307.034
N19435 X365.491 Y307.058
N19440 X365.485 Y307.128
N19445 X365.459 Y307.323
N19450 X365.42 Y307.519
N19455 X365.366 Y307.715
N19460 X365.302 Y307.902
N19465 X365.298 Y307.911
N19470 X365.215 Y308.107
N19475 X365.113 Y308.303
N19480 X365.106 Y308.316
N19485 X364.993 Y308.499
N19490 X364.91 Y308.616
N19495 X364.85 Y308.695
N19500 X364.714 Y308.854
N19505 X364.68 Y308.89
N19510 X364.518 Y309.049
N19515 X364.477 Y309.086
N19520 X364.322 Y309.213
N19525 X364.228 Y309.282
N19530 X364.126 Y309.351
N19535 X363.931 Y309.467
N19540 X363.909 Y309.478
N19545 X363.735 Y309.564
N19550 X363.539 Y309.644
N19555 X363.454 Y309.674
N19560 X363.343 Y309.709
N19565 X363.147 Y309.759
N19570 X362.951 Y309.796
N19575 X362.755 Y309.819
N19580 X362.56 Y309.829
N19585 X362.364 Y309.83
N19590 X27.636
N19595 X27.44 Y309.829
N19600 X27.245 Y309.819
N19605 X27.049 Y309.796
N19610 X26.853 Y309.759
N19615 X26.657 Y309.709
N19620 X26.546 Y309.674
N19625 X26.461 Y309.644
N19630 X26.265 Y309.564
N19635 X26.091 Y309.478
N19640 X26.069 Y309.467
N19645 X25.874 Y309.351
N19650 X25.772 Y309.282
N19655 X25.678 Y309.213
N19660 X25.523 Y309.086
N19665 X25.482 Y309.049
N19670 X25.32 Y308.89
N19675 X25.286 Y308.854
N19680 X25.15 Y308.695
N19685 X25.09 Y308.616
N19690 X25.007 Y308.499
N19695 X24.894 Y308.316
N19700 X24.887 Y308.303
N19705 X24.785 Y308.107
N19710 X24.702 Y307.911
N19715 X24.698 Y307.902
N19720 X24.634 Y307.715
N19725 X24.58 Y307.519
N19730 X24.541 Y307.323
N19735 X24.515 Y307.128
N19740 X24.509 Y307.058
N19745 X24.507 Y307.034
N19750 X24.506 Y307.015
N19755 X24.505 Y306.999
N19760 G2 X23.307 Y307.07 I-0.599 J0.035
N19765 X23.685 Y307.593 I0.599 J-0.035
N19770 G3 X24.028 Y308.358 I-0.22 J0.558
N19775 X18.89 Y308.808 I-2.675 J-0.983
N19780 G1 X18.879 Y308.79 F1333.33
N19785 G3 X21.104 Y304.536 Z-1.6 I2.474 J-1.415
N19790 G1 X21.125 Y304.534
N19795 X21.429 Y304.51 F4000.
N19800 G3 X24.503 Y307.128 I0.228 J2.846
N19805 G1 X24.519 Y307.323
N19810 X24.548 Y307.519
N19815 X24.59 Y307.715
N19820 X24.646 Y307.911
N19825 X24.698 Y308.059
N19830 X24.717 Y308.107
N19835 X24.804 Y308.303
N19840 X24.894 Y308.473
N19845 X24.909 Y308.499
N19850 X25.034 Y308.695
N19855 X25.09 Y308.773
N19860 X25.182 Y308.89
N19865 X25.286 Y309.01
N19870 X25.358 Y309.086
N19875 X25.482 Y309.206
N19880 X25.569 Y309.282
N19885 X25.678 Y309.369
N19890 X25.83 Y309.478
N19895 X25.874 Y309.507
N19900 X26.069 Y309.623
N19905 X26.168 Y309.674
N19910 X26.265 Y309.72
N19915 X26.461 Y309.8
N19920 X26.657 Y309.865
N19925 X26.673 Y309.87
N19930 X26.853 Y309.915
N19935 X27.049 Y309.952
N19940 X27.245 Y309.975
N19945 X27.44 Y309.985
N19950 X27.636 Y309.986
N19955 X362.364
N19960 X362.56 Y309.985
N19965 X362.755 Y309.975
N19970 X362.951 Y309.952
N19975 X363.147 Y309.915
N19980 X363.327 Y309.87
N19985 X363.343 Y309.865
N19990 X363.539 Y309.8
N19995 X363.735 Y309.72
N20000 X363.832 Y309.674
N20005 X363.931 Y309.623
N20010 X364.126 Y309.507
N20015 X364.17 Y309.478
N20020 X364.322 Y309.369
N20025 X364.431 Y309.282
N20030 X364.518 Y309.206
N20035 X364.642 Y309.086
N20040 X364.714 Y309.01
N20045 X364.818 Y308.89
N20050 X364.91 Y308.773
N20055 X364.966 Y308.695
N20060 X365.091 Y308.499
N20065 X365.106 Y308.473
N20070 X365.196 Y308.303
N20075 X365.283 Y308.107
N20080 X365.302 Y308.059
N20085 X365.354 Y307.911
N20090 X365.41 Y307.715
N20095 X365.452 Y307.519
N20100 X365.481 Y307.323
N20105 X365.497 Y307.128
N20110 G3 X366.693 Y307.223 I0.598 J0.048
N20115 X366.336 Y307.725 I-0.598 J-0.048
N20120 G2 X366.025 Y308.505 I0.242 J0.549
N20125 X371.165 Y308.756 I2.63 J-1.099
N20130 G1 X371.174 Y308.737 F1333.33
N20135 G2 X368.807 Y304.56 Z-1.8 I-2.52 J-1.331
N20140 G1 X368.786 Y304.559
N20145 X368.482 Y304.545 F4000.
N20150 G2 X365.497 Y307.265 I-0.132 J2.852
N20155 G1 X365.496 Y307.297
N20160 X365.495 Y307.323
N20165 X365.476 Y307.519
N20170 X365.445 Y307.715
N20175 X365.4 Y307.911
N20180 X365.341 Y308.107
N20185 X365.302 Y308.215
N20190 X365.266 Y308.303
N20195 X365.176 Y308.499
N20200 X365.106 Y308.629
N20205 X365.067 Y308.695
N20210 X364.938 Y308.89
N20215 X364.91 Y308.929
N20220 X364.785 Y309.086
N20225 X364.714 Y309.167
N20230 X364.603 Y309.282
N20235 X364.518 Y309.362
N20240 X364.383 Y309.478
N20245 X364.322 Y309.525
N20250 X364.126 Y309.663
N20255 X364.11 Y309.674
N20260 X363.931 Y309.779
N20265 X363.749 Y309.87
N20270 X363.735 Y309.876
N20275 X363.539 Y309.957
N20280 X363.343 Y310.021
N20285 X363.174 Y310.066
N20290 X363.147 Y310.072
N20295 X362.951 Y310.108
N20300 X362.755 Y310.131
N20305 X362.56 Y310.142
N20310 X362.364
N20315 X27.636
N20320 X27.44
N20325 X27.245 Y310.131
N20330 X27.049 Y310.108
N20335 X26.853 Y310.072
N20340 X26.826 Y310.066
N20345 X26.657 Y310.021
N20350 X26.461 Y309.957
N20355 X26.265 Y309.876
N20360 X26.251 Y309.87
N20365 X26.069 Y309.779
N20370 X25.89 Y309.674
N20375 X25.874 Y309.663
N20380 X25.678 Y309.525
N20385 X25.617 Y309.478
N20390 X25.482 Y309.362
N20395 X25.397 Y309.282
N20400 X25.286 Y309.167
N20405 X25.215 Y309.086
N20410 X25.09 Y308.929
N20415 X25.062 Y308.89
N20420 X24.933 Y308.695
N20425 X24.894 Y308.629
N20430 X24.824 Y308.499
N20435 X24.734 Y308.303
N20440 X24.698 Y308.215
N20445 X24.659 Y308.107
N20450 X24.6 Y307.911
N20455 X24.555 Y307.715
N20460 X24.524 Y307.519
N20465 X24.505 Y307.323
N20470 X24.504 Y307.297
N20475 X24.503 Y307.265
N20480 G2 X23.304 Y307.321 I-0.599 J0.028
N20485 X23.679 Y307.849 I0.599 J-0.028
N20490 G3 X24.017 Y308.617 I-0.224 J0.557
N20495 X18.849 Y308.987 I-2.669 J-1.
N20500 G1 X18.839 Y308.968 F1333.33
N20505 G3 X21.171 Y304.772 Z-2. I2.509 J-1.352
N20510 G1 X21.192 Y304.77
N20515 X21.497 Y304.754 F4000.
N20520 G3 X24.504 Y307.448 I0.156 J2.851
N20525 G1 X24.505 Y307.477
N20530 X24.508 Y307.519
N20535 X24.529 Y307.715
N20540 X24.563 Y307.911
N20545 X24.611 Y308.107
N20550 X24.673 Y308.303
N20555 X24.698 Y308.371
N20560 X24.751 Y308.499
N20565 X24.845 Y308.695
N20570 X24.894 Y308.785
N20575 X24.957 Y308.89
N20580 X25.09 Y309.085
N20585 X25.091 Y309.086
N20590 X25.249 Y309.282
N20595 X25.286 Y309.323
N20600 X25.439 Y309.478
N20605 X25.482 Y309.518
N20610 X25.668 Y309.674
N20615 X25.678 Y309.682
N20620 X25.874 Y309.819
N20625 X25.954 Y309.87
N20630 X26.069 Y309.935
N20635 X26.265 Y310.033
N20640 X26.341 Y310.066
N20645 X26.461 Y310.113
N20650 X26.657 Y310.178
N20655 X26.853 Y310.228
N20660 X27.03 Y310.261
N20665 X27.049 Y310.264
N20670 X27.245 Y310.288
N20675 X27.44 Y310.298
N20680 X27.636
N20685 X362.364
N20690 X362.56
N20695 X362.755 Y310.288
N20700 X362.951 Y310.264
N20705 X362.97 Y310.261
N20710 X363.147 Y310.228
N20715 X363.343 Y310.178
N20720 X363.539 Y310.113
N20725 X363.659 Y310.066
N20730 X363.735 Y310.033
N20735 X363.931 Y309.935
N20740 X364.046 Y309.87
N20745 X364.126 Y309.819
N20750 X364.322 Y309.682
N20755 X364.332 Y309.674
N20760 X364.518 Y309.518
N20765 X364.561 Y309.478
N20770 X364.714 Y309.323
N20775 X364.751 Y309.282
N20780 X364.909 Y309.086
N20785 X364.91 Y309.085
N20790 X365.043 Y308.89
N20795 X365.106 Y308.785
N20800 X365.155 Y308.695
N20805 X365.249 Y308.499
N20810 X365.302 Y308.371
N20815 X365.327 Y308.303
N20820 X365.389 Y308.107
N20825 X365.437 Y307.911
N20830 X365.471 Y307.715
N20835 X365.492 Y307.519
N20840 X365.495 Y307.477
N20845 X365.496 Y307.448
N20850 G3 X366.694 Y307.514 I0.599 J0.033
N20855 X366.324 Y308.036 I-0.599 J-0.033
N20860 G2 X365.992 Y308.807 I0.228 J0.555
N20865 X371.149 Y309.155 I2.659 J-1.025
N20870 G1 X371.159 Y309.136 F1333.33
N20875 G2 X368.831 Y304.938 Z-2.2 I-2.508 J-1.354
N20880 G1 X368.81 Y304.936
N20885 X368.505 Y304.919 F4000.
N20890 G2 X365.496 Y307.611 I-0.159 J2.851
N20895 G1 X365.495 Y307.632
N20900 X365.493 Y307.658
N20905 X365.489 Y307.715
N20910 X365.465 Y307.911
N20915 X365.428 Y308.107
N20920 X365.378 Y308.303
N20925 X365.313 Y308.499
N20930 X365.302 Y308.527
N20935 X365.232 Y308.695
N20940 X365.134 Y308.89
N20945 X365.106 Y308.941
N20950 X365.018 Y309.086
N20955 X364.91 Y309.241
N20960 X364.879 Y309.282
N20965 X364.715 Y309.478
N20970 X364.714 Y309.479
N20975 X364.616 Y309.581
N20980 X364.519 Y309.674
N20985 X364.518
N20990 X364.322 Y309.838
N20995 X364.28 Y309.87
N21000 X364.126 Y309.976
N21005 X363.978 Y310.066
N21010 X363.931 Y310.092
N21015 X363.735 Y310.189
N21020 X363.559 Y310.261
N21025 X363.539 Y310.269
N21030 X363.343 Y310.334
N21035 X363.147 Y310.384
N21040 X362.951 Y310.421
N21045 X362.755 Y310.444
N21050 X362.56 Y310.454
N21055 X362.364 Y310.455
N21060 X27.636
N21065 X27.44 Y310.454
N21070 X27.245 Y310.444
N21075 X27.049 Y310.421
N21080 X26.853 Y310.384
N21085 X26.657 Y310.334
N21090 X26.461 Y310.269
N21095 X26.441 Y310.261
N21100 X26.265 Y310.189
N21105 X26.069 Y310.092
N21110 X26.022 Y310.066
N21115 X25.874 Y309.976
N21120 X25.72 Y309.87
N21125 X25.678 Y309.838
N21130 X25.482 Y309.674
N21135 X25.481
N21140 X25.384 Y309.581
N21145 X25.286 Y309.479
N21150 X25.285 Y309.478
N21155 X25.121 Y309.282
N21160 X25.09 Y309.241
N21165 X24.982 Y309.086
N21170 X24.894 Y308.941
N21175 X24.866 Y308.89
N21180 X24.768 Y308.695
N21185 X24.698 Y308.527
N21190 X24.687 Y308.499
N21195 X24.622 Y308.303
N21200 X24.572 Y308.107
N21205 X24.535 Y307.911
N21210 X24.511 Y307.715
N21215 X24.507 Y307.658
N21220 X24.505 Y307.632
N21225 X24.504 Y307.611
N21230 G2 X23.306 Y307.678 I-0.599 J0.033
N21235 X23.681 Y308.201 I0.599 J-0.033
N21240 G3 X24.018 Y308.969 I-0.224 J0.557
N21245 X18.858 Y309.349 I-2.668 J-1.003
N21250 G1 X18.848 Y309.33 F1333.33
N21255 G3 X21.159 Y305.122 Z-2.4 I2.502 J-1.365
N21260 G1 X21.18 Y305.121
N21265 X21.485 Y305.103 F4000.
N21270 G3 X24.505 Y307.782 I0.17 J2.85
N21275 G1 X24.506 Y307.798
N21280 X24.507 Y307.817
N21285 X24.509 Y307.84
N21290 X24.515 Y307.911
N21295 X24.541 Y308.107
N21300 X24.581 Y308.303
N21305 X24.634 Y308.499
N21310 X24.698 Y308.684
N21315 X24.703 Y308.695
N21320 X24.786 Y308.89
N21325 X24.888 Y309.086
N21330 X24.894 Y309.098
N21335 X25.009 Y309.282
N21340 X25.09 Y309.398
