%
(1005)
(T1  D=6. CR=0. - ZMIN=-8. - FLAT END MILL)
N10 G90 G94 G17 G91.1
N15 G21
N20 G53 G0 Z0.
(2D CONTOUR3)
N25 T1 M6
N30 S24000 M3
N35 G54
N40 G0 X19.4 Y1672.12
N45 G43 Z30. H1
N50 G0 Z5.
N55 G1 Z3. F50.
N60 Z-1.4
N65 G19 G2 Y1671.52 Z-2. J-0.6 K0.
N70 G1 Y1670.92 F4000.
N75 G17 G3 X20. Y1670.32 I0.6 J0.
N80 G1 X370.
N85 G2 X373.6 Y1666.72 I0. J-3.6
N90 G1 Y323.231
N95 G2 X370. Y319.631 I-3.6 J0.
N100 G1 X20.
N105 G2 X16.4 Y323.231 I0. J3.6
N110 G1 Y1666.72
N115 G2 X20. Y1670.32 I3.6 J0.
N120 G3 X20.6 Y1670.92 I0. J0.6
N125 G1 Y1671.52
N130 G19 G3 Y1672.12 Z-1.4 J0. K0.6
N135 G0 Z5.
N140 X370.6 Y1671.32
N145 G1 Z3. F50.
N150 Z-1.4
N155 G3 Y1671.92 Z-2. J0.6 K0.
N160 G1 Y1672.52 F4000.
N165 G17 G3 X370. Y1673.12 I-0.6 J0.
N170 G1 X20.
N175 G2 X16.4 Y1676.72 I0. J3.6
N180 G1 Y2097.56
N185 G2 X20. Y2101.16 I3.6 J0.
N190 G1 X370.
N195 G2 X373.6 Y2097.56 I0. J-3.6
N200 G1 Y1676.72
N205 G2 X370. Y1673.12 I-3.6 J0.
N210 G3 X369.4 Y1672.52 I0. J-0.6
N215 G1 Y1671.92
N220 G19 G2 Y1671.32 Z-1.4 J0. K0.6
N225 G0 Z5.
N230 X370.6
N235 G1 Z1. F50.
N240 Z-3.4
N245 G3 Y1671.92 Z-4. J0.6 K0.
N250 G1 Y1672.52 F4000.
N255 G17 G3 X370. Y1673.12 I-0.6 J0.
N260 G1 X20.
N265 G2 X16.4 Y1676.72 I0. J3.6
N270 G1 Y2097.56
N275 G2 X20. Y2101.16 I3.6 J0.
N280 G1 X370.
N285 G2 X373.6 Y2097.56 I0. J-3.6
N290 G1 Y1676.72
N295 G2 X370. Y1673.12 I-3.6 J0.
N300 G3 X369.4 Y1672.52 I0. J-0.6
N305 G1 Y1671.92
N310 G19 G2 Y1671.32 Z-3.4 J0. K0.6
N315 G0 Z5.
N320 X14.6 Y6.941
N325 G1 Z3. F50.
N330 Z-1.4
N335 G18 G2 X15.2 Z-2. I0.6 K0.
N340 G1 X15.8 F4000.
N345 G17 G3 X16.4 Y7.541 I0. J0.6
N350 G1 Y313.231
N355 G2 X20. Y316.831 I3.6 J0.
N360 G1 X370.
N365 G2 X373.6 Y313.231 I0. J-3.6
N370 G1 Y7.541
N375 G2 X370. Y3.941 I-3.6 J0.
N380 G1 X20.
N385 G2 X16.4 Y7.541 I0. J3.6
N390 G3 X15.8 Y8.141 I-0.6 J0.
N395 G1 X15.2
N400 G18 G3 X14.6 Z-1.4 I0. K0.6
N405 G0 Z5.
N410 Y6.941
N415 G1 Z1. F50.
N420 Z-3.4
N425 G2 X15.2 Z-4. I0.6 K0.
N430 G1 X15.8 F4000.
N435 G17 G3 X16.4 Y7.541 I0. J0.6
N440 G1 Y313.231
N445 G2 X20. Y316.831 I3.6 J0.
N450 G1 X370.
N455 G2 X373.6 Y313.231 I0. J-3.6
N460 G1 Y7.541
N465 G2 X370. Y3.941 I-3.6 J0.
N470 G1 X20.
N475 G2 X16.4 Y7.541 I0. J3.6
N480 G3 X15.8 Y8.141 I-0.6 J0.
N485 G1 X15.2
N490 G18 G3 X14.6 Z-3.4 I0. K0.6
N495 G0 Z5.
N500 X19.4 Y1672.12
N505 G1 Z1. F50.
N510 Z-3.4
N515 G19 G2 Y1671.52 Z-4. J-0.6 K0.
N520 G1 Y1670.92 F4000.
N525 G17 G3 X20. Y1670.32 I0.6 J0.
N530 G1 X370.
N535 G2 X373.6 Y1666.72 I0. J-3.6
N540 G1 Y323.231
N545 G2 X370. Y319.631 I-3.6 J0.
N550 G1 X20.
N555 G2 X16.4 Y323.231 I0. J3.6
N560 G1 Y1666.72
N565 G2 X20. Y1670.32 I3.6 J0.
N570 G3 X20.6 Y1670.92 I0. J0.6
N575 G1 Y1671.52
N580 G19 G3 Y1672.12 Z-3.4 J0. K0.6
N585 G0 Z5.
N590 X370.6 Y1671.32
N595 G1 Z-1. F50.
N600 Z-5.4
N605 G3 Y1671.92 Z-6. J0.6 K0.
N610 G1 Y1672.52 F4000.
N615 G17 G3 X370. Y1673.12 I-0.6 J0.
N620 G1 X199.303
N625 Z-5.
N630 X181.377
N635 Z-6. F50.
N640 X20. F4000.
N645 G2 X16.4 Y1676.72 I0. J3.6
N650 G1 Y1721.71
N655 Z-5.
N660 Y1737.71
N665 Z-6. F50.
N670 Y1890.53 F4000.
N675 Z-5.
N680 Y1906.53
N685 Z-6. F50.
N690 Y2039.17 F4000.
N695 Z-5.
N700 Y2055.17
N705 Z-6. F50.
N710 Y2097.56 F4000.
N715 G2 X20. Y2101.16 I3.6 J0.
N720 G1 X370.
N725 G2 X373.6 Y2097.56 I0. J-3.6
N730 G1 Y2056.81
N735 Z-5.
N740 Y2040.81
N745 Z-6. F50.
N750 Y1908.74 F4000.
N755 Z-5.
N760 Y1892.74
N765 Z-6. F50.
N770 Y1738.92 F4000.
N775 Z-5.
N780 Y1722.92
N785 Z-6. F50.
N790 Y1676.72 F4000.
N795 G2 X370. Y1673.12 I-3.6 J0.
N800 G3 X369.4 Y1672.52 I0. J-0.6
N805 G1 Y1671.92
N810 G19 G2 Y1671.32 Z-5.4 J0. K0.6
N815 G0 Z5.
N820 X19.4 Y1672.12
N825 G1 Z-1. F50.
N830 Z-5.4
N835 G2 Y1671.52 Z-6. J-0.6 K0.
N840 G1 Y1670.92 F4000.
N845 G17 G3 X20. Y1670.32 I0.6 J0.
N850 G1 X181.377
N855 Z-5.
N860 X199.303
N865 Z-6. F50.
N870 X370. F4000.
N875 G2 X373.6 Y1666.72 I0. J-3.6
N880 G1 Y1507.73
N885 Z-5.
N890 Y1491.73
N895 Z-6. F50.
N900 Y1269.94 F4000.
N905 Z-5.
N910 Y1253.94
N915 Z-6. F50.
N920 Y956.432 F4000.
N925 Z-5.
N930 Y940.432
N935 Z-6. F50.
N940 Y658.188 F4000.
N945 Z-5.
N950 Y642.188
N955 Z-6. F50.
N960 Y404.318 F4000.
N965 Z-5.
N970 Y388.318
N975 Z-6. F50.
N980 Y323.231 F4000.
N985 G2 X370. Y319.631 I-3.6 J0.
N990 G1 X197.818
N995 Z-5.
N1000 X181.101
N1005 Z-6. F50.
N1010 X20. F4000.
N1015 G2 X16.4 Y323.231 I0. J3.6
N1020 G1 Y388.627
N1025 Z-5.
N1030 Y404.627
N1035 Z-6. F50.
N1040 Y641.357 F4000.
N1045 Z-5.
N1050 Y657.357
N1055 Z-6. F50.
N1060 Y934.007 F4000.
N1065 Z-5.
N1070 Y950.007
N1075 Z-6. F50.
N1080 Y1257.78 F4000.
N1085 Z-5.
N1090 Y1273.78
N1095 Z-6. F50.
N1100 Y1490.68 F4000.
N1105 Z-5.
N1110 Y1506.68
N1115 Z-6. F50.
N1120 Y1666.72 F4000.
N1125 G2 X20. Y1670.32 I3.6 J0.
N1130 G3 X20.6 Y1670.92 I0. J0.6
N1135 G1 Y1671.52
N1140 G19 G3 Y1672.12 Z-5.4 J0. K0.6
N1145 G0 Z5.
N1150 X364.489 Y1671.32
N1155 G1 Z-3. F50.
N1160 Z-7.4
N1165 G3 Y1671.92 Z-8. J0.6 K0.
N1170 G1 Y1672.52 F4000.
N1175 G17 G3 X363.889 Y1673.12 I-0.6 J0.
N1180 G1 X199.303
N1185 Z-5.
N1190 X181.377
N1195 Z-8. F50.
N1200 X20. F4000.
N1205 G2 X16.4 Y1676.72 I0. J3.6
N1210 G1 Y1721.71
N1215 Z-5.
N1220 Y1737.71
N1225 Z-8. F50.
N1230 Y1890.53 F4000.
N1235 Z-5.
N1240 Y1906.53
N1245 Z-8. F50.
N1250 Y2039.17 F4000.
N1255 Z-5.
N1260 Y2055.17
N1265 Z-8. F50.
N1270 Y2097.56 F4000.
N1275 G2 X20. Y2101.16 I3.6 J0.
N1280 G1 X370.
N1285 G2 X373.6 Y2097.56 I0. J-3.6
N1290 G1 Y2056.81
N1295 Z-5.
N1300 Y2040.81
N1305 Z-8. F50.
N1310 Y1908.74 F4000.
N1315 Z-5.
N1320 Y1892.74
N1325 Z-8. F50.
N1330 Y1738.92 F4000.
N1335 Z-5.
N1340 Y1722.92
N1345 Z-8. F50.
N1350 Y1676.72 F4000.
N1355 G2 X370. Y1673.12 I-3.6 J0.
N1360 G1 X363.889
N1365 G2 X363.439 Y1673.42 I0. J0.488
N1370 G3 X362.989 Y1673.72 I-0.45 J-0.188
N1375 G1 X199.303
N1380 Z-5.
N1385 X181.377
N1390 Z-8. F50.
N1395 X20. F4000.
N1400 G2 X17. Y1676.72 I0. J3.
N1405 G1 Y1721.71
N1410 Z-5.
N1415 Y1737.71
N1420 Z-8. F50.
N1425 Y1890.53 F4000.
N1430 Z-5.
N1435 Y1906.53
N1440 Z-8. F50.
N1445 Y2039.17 F4000.
N1450 Z-5.
N1455 Y2055.17
N1460 Z-8. F50.
N1465 Y2097.56 F4000.
N1470 G2 X20. Y2100.56 I3. J0.
N1475 G1 X370.
N1480 G2 X373. Y2097.56 I0. J-3.
N1485 G1 Y2056.81
N1490 Z-5.
N1495 Y2040.81
N1500 Z-8. F50.
N1505 Y1908.74 F4000.
N1510 Z-5.
N1515 Y1892.74
N1520 Z-8. F50.
N1525 Y1738.92 F4000.
N1530 Z-5.
N1535 Y1722.92
N1540 Z-8. F50.
N1545 Y1676.72 F4000.
N1550 G2 X370. Y1673.72 I-3. J0.
N1555 G1 X362.989
N1560 G3 X362.389 Y1673.12 I0. J-0.6
N1565 G1 Y1672.52
N1570 G19 G2 Y1671.92 Z-7.4 J0. K0.6
N1575 G0 Z5.
N1580 X14.6 Y6.941
N1585 G1 Z-1. F50.
N1590 Z-5.4
N1595 G18 G2 X15.2 Z-6. I0.6 K0.
N1600 G1 X15.8 F4000.
N1605 G17 G3 X16.4 Y7.541 I0. J0.6
N1610 G1 Y46.577
N1615 Z-5.
N1620 Y62.577
N1625 Z-6. F50.
N1630 Y170.836 F4000.
N1635 Z-5.
N1640 Y186.836
N1645 Z-6. F50.
N1650 Y259.581 F4000.
N1655 Z-5.
N1660 Y275.581
N1665 Z-6. F50.
N1670 Y313.231 F4000.
N1675 G2 X20. Y316.831 I3.6 J0.
N1680 G1 X181.101
N1685 Z-5.
N1690 X197.818
N1695 Z-6. F50.
N1700 X370. F4000.
N1705 G2 X373.6 Y313.231 I0. J-3.6
N1710 G1 Y276.036
N1715 Z-5.
N1720 Y260.036
N1725 Z-6. F50.
N1730 Y188.177 F4000.
N1735 Z-5.
N1740 Y172.177
N1745 Z-6. F50.
N1750 Y63.113 F4000.
N1755 Z-5.
N1760 Y47.113
N1765 Z-6. F50.
N1770 Y7.541 F4000.
N1775 G2 X370. Y3.941 I-3.6 J0.
N1780 G1 X20.
N1785 G2 X16.4 Y7.541 I0. J3.6
N1790 G3 X15.8 Y8.141 I-0.6 J0.
N1795 G1 X15.2
N1800 G18 G3 X14.6 Z-5.4 I0. K0.6
N1805 G0 Z5.
N1810 Y6.941
N1815 G1 Z-3. F50.
N1820 Z-7.4
N1825 G2 X15.2 Z-8. I0.6 K0.
N1830 G1 X15.8 F4000.
N1835 G17 G3 X16.4 Y7.541 I0. J0.6
N1840 G1 Y46.577
N1845 Z-5.
N1850 Y62.577
N1855 Z-8. F50.
N1860 Y170.836 F4000.
N1865 Z-5.
N1870 Y186.836
N1875 Z-8. F50.
N1880 Y259.581 F4000.
N1885 Z-5.
N1890 Y275.581
N1895 Z-8. F50.
N1900 Y313.231 F4000.
N1905 G2 X20. Y316.831 I3.6 J0.
N1910 G1 X181.101
N1915 Z-5.
N1920 X197.818
N1925 Z-8. F50.
N1930 X370. F4000.
N1935 G2 X373.6 Y313.231 I0. J-3.6
N1940 G1 Y276.036
N1945 Z-5.
N1950 Y260.036
N1955 Z-8. F50.
N1960 Y188.177 F4000.
N1965 Z-5.
N1970 Y172.177
N1975 Z-8. F50.
N1980 Y63.113 F4000.
N1985 Z-5.
N1990 Y47.113
N1995 Z-8. F50.
N2000 Y7.541 F4000.
N2005 G2 X370. Y3.941 I-3.6 J0.
N2010 G1 X20.
N2015 G2 X16.4 Y7.541 I0. J3.6
N2020 X16.7 Y7.991 I0.488 J0.
N2025 G3 X17. Y8.441 I-0.188 J0.45
N2030 G1 Y46.577
N2035 Z-5.
N2040 Y62.577
N2045 Z-8. F50.
N2050 Y170.836 F4000.
N2055 Z-5.
N2060 Y186.836
N2065 Z-8. F50.
N2070 Y259.581 F4000.
N2075 Z-5.
N2080 Y275.581
N2085 Z-8. F50.
N2090 Y313.231 F4000.
N2095 G2 X20. Y316.231 I3. J0.
N2100 G1 X181.101
N2105 Z-5.
N2110 X197.818
N2115 Z-8. F50.
N2120 X370. F4000.
N2125 G2 X373. Y313.231 I0. J-3.
N2130 G1 Y276.036
N2135 Z-5.
N2140 Y260.036
N2145 Z-8. F50.
N2150 Y188.177 F4000.
N2155 Z-5.
N2160 Y172.177
N2165 Z-8. F50.
N2170 Y63.113 F4000.
N2175 Z-5.
N2180 Y47.113
N2185 Z-8. F50.
N2190 Y7.541 F4000.
N2195 G2 X370. Y4.541 I-3. J0.
N2200 G1 X20.
N2205 G2 X17. Y7.541 I0. J3.
N2210 G1 Y8.441
N2215 G3 X16.4 Y9.041 I-0.6 J0.
N2220 G1 X15.8
N2225 G18 G3 X15.2 Z-7.4 I0. K0.6
N2230 G0 Z5.
N2235 X19.4 Y1672.12
N2240 G1 Z-3. F50.
N2245 Z-7.4
N2250 G19 G2 Y1671.52 Z-8. J-0.6 K0.
N2255 G1 Y1670.92 F4000.
N2260 G17 G3 X20. Y1670.32 I0.6 J0.
N2265 G1 X181.377
N2270 Z-5.
N2275 X199.303
N2280 Z-8. F50.
N2285 X370. F4000.
N2290 G2 X373.6 Y1666.72 I0. J-3.6
N2295 G1 Y1507.73
N2300 Z-5.
N2305 Y1491.73
N2310 Z-8. F50.
N2315 Y1269.94 F4000.
N2320 Z-5.
N2325 Y1253.94
N2330 Z-8. F50.
N2335 Y956.432 F4000.
N2340 Z-5.
N2345 Y940.432
N2350 Z-8. F50.
N2355 Y658.188 F4000.
N2360 Z-5.
N2365 Y642.188
N2370 Z-8. F50.
N2375 Y404.318 F4000.
N2380 Z-5.
N2385 Y388.318
N2390 Z-8. F50.
N2395 Y323.231 F4000.
N2400 G2 X370. Y319.631 I-3.6 J0.
N2405 G1 X197.818
N2410 Z-5.
N2415 X181.101
N2420 Z-8. F50.
N2425 X20. F4000.
N2430 G2 X16.4 Y323.231 I0. J3.6
N2435 G1 Y388.627
N2440 Z-5.
N2445 Y404.627
N2450 Z-8. F50.
N2455 Y641.357 F4000.
N2460 Z-5.
N2465 Y657.357
N2470 Z-8. F50.
N2475 Y934.007 F4000.
N2480 Z-5.
N2485 Y950.007
N2490 Z-8. F50.
N2495 Y1257.78 F4000.
N2500 Z-5.
N2505 Y1273.78
N2510 Z-8. F50.
N2515 Y1490.68 F4000.
N2520 Z-5.
N2525 Y1506.68
N2530 Z-8. F50.
N2535 Y1666.72 F4000.
N2540 G2 X20. Y1670.32 I3.6 J0.
N2545 X20.45 Y1670.02 I0. J-0.487
N2550 G3 X20.9 Y1669.72 I0.45 J0.188
N2555 G1 X181.377
N2560 Z-5.
N2565 X199.303
N2570 Z-8. F50.
N2575 X370. F4000.
N2580 G2 X373. Y1666.72 I0. J-3.
N2585 G1 Y1507.73
N2590 Z-5.
N2595 Y1491.73
N2600 Z-8. F50.
N2605 Y1269.94 F4000.
N2610 Z-5.
N2615 Y1253.94
N2620 Z-8. F50.
N2625 Y956.432 F4000.
N2630 Z-5.
N2635 Y940.432
N2640 Z-8. F50.
N2645 Y658.188 F4000.
N2650 Z-5.
N2655 Y642.188
N2660 Z-8. F50.
N2665 Y404.318 F4000.
N2670 Z-5.
N2675 Y388.318
N2680 Z-8. F50.
N2685 Y323.231 F4000.
N2690 G2 X370. Y320.231 I-3. J0.
N2695 G1 X197.818
N2700 Z-5.
N2705 X181.101
N2710 Z-8. F50.
N2715 X20. F4000.
N2720 G2 X17. Y323.231 I0. J3.
N2725 G1 Y388.627
N2730 Z-5.
N2735 Y404.627
N2740 Z-8. F50.
N2745 Y641.357 F4000.
N2750 Z-5.
N2755 Y657.357
N2760 Z-8. F50.
N2765 Y934.007 F4000.
N2770 Z-5.
N2775 Y950.007
N2780 Z-8. F50.
N2785 Y1257.78 F4000.
N2790 Z-5.
N2795 Y1273.78
N2800 Z-8. F50.
N2805 Y1490.68 F4000.
N2810 Z-5.
N2815 Y1506.68
N2820 Z-8. F50.
N2825 Y1666.72 F4000.
N2830 G2 X20. Y1669.72 I3. J0.
N2835 G1 X20.9
N2840 G3 X21.5 Y1670.32 I0. J0.6
N2845 G1 Y1670.92
N2850 G19 G3 Y1671.52 Z-7.4 J0. K0.6
N2855 G0 Z30.
N2860 G17
(CONTOUR5)
N2865 G0 X374.043 Y14.972
N2870 Z30.
N2875 Z0.593
N2880 G1 Z-0.2 F4000.
N2885 G3 X372.995 Y14.61 I-0.449 J-0.398
N2890 G1 X372.994 Y14.59
N2895 X372.992 Y14.565
N2900 X372.987 Y14.502
N2905 X372.962 Y14.306
N2910 X372.924 Y14.11
N2915 X372.873 Y13.915
N2920 X372.806 Y13.719
N2925 X372.802 Y13.707
N2930 X372.724 Y13.523
N2935 X372.625 Y13.327
N2940 X372.606 Y13.293
N2945 X372.506 Y13.131
N2950 X372.41 Y12.993
N2955 X372.366 Y12.935
N2960 X372.214 Y12.756
N2965 X372.199 Y12.739
N2970 X372.018 Y12.56
N2975 X372. Y12.543
N2980 X371.823 Y12.397
N2985 X371.757 Y12.348
N2990 X371.627 Y12.259
N2995 X371.447 Y12.152
N3000 X371.431 Y12.143
N3005 X371.235 Y12.046
N3010 X371.039 Y11.965
N3015 X371.013 Y11.956
N3020 X370.844 Y11.901
N3025 X370.648 Y11.85
N3030 X370.452 Y11.814
N3035 X370.256 Y11.791
N3040 X370.06 Y11.78
N3045 X369.865
N3050 X20.136
N3055 X19.94
N3060 X19.744 Y11.791
N3065 X19.548 Y11.814
N3070 X19.352 Y11.85
N3075 X19.156 Y11.901
N3080 X18.987 Y11.956
N3085 X18.961 Y11.965
N3090 X18.765 Y12.046
N3095 X18.569 Y12.143
N3100 X18.553 Y12.152
N3105 X18.373 Y12.259
N3110 X18.244 Y12.348
N3115 X18.177 Y12.397
N3120 X18. Y12.543
N3125 X17.982 Y12.56
N3130 X17.801 Y12.739
N3135 X17.786 Y12.756
N3140 X17.634 Y12.935
N3145 X17.59 Y12.993
N3150 X17.494 Y13.131
N3155 X17.394 Y13.293
N3160 X17.375 Y13.327
N3165 X17.276 Y13.523
N3170 X17.198 Y13.707
N3175 X17.194 Y13.719
N3180 X17.127 Y13.915
N3185 X17.076 Y14.11
N3190 X17.038 Y14.306
N3195 X17.013 Y14.502
N3200 X17.008 Y14.565
N3205 X17.006 Y14.59
N3210 X17.005 Y14.61
N3215 G3 X15.807 Y14.538 I-0.599 J-0.036
N3220 X16.167 Y14.024 I0.599 J0.036
N3225 G2 X16.483 Y13.245 I-0.239 J-0.55
N3230 X11.341 Y12.972 I-2.636 J1.083
N3235 G1 X11.331 Y12.991 F1333.33
N3240 G2 X13.686 Y17.174 Z-0.4 I2.516 J1.338
N3245 G1 X13.707 Y17.175
N3250 X14.012 Y17.19 F4000.
N3255 G2 X17.003 Y14.479 I0.14 J-2.852
N3260 G1 X17.004 Y14.473
N3265 X17.005 Y14.45
N3270 X17.006 Y14.438
N3275 X17.007 Y14.423
N3280 X17.008 Y14.405
N3285 X17.01 Y14.383
N3290 X17.017 Y14.306
N3295 X17.044 Y14.11
N3300 X17.085 Y13.915
N3305 X17.14 Y13.719
N3310 X17.198 Y13.551
N3315 X17.209 Y13.523
N3320 X17.295 Y13.327
N3325 X17.394 Y13.137
N3330 X17.397 Y13.131
N3335 X17.52 Y12.935
N3340 X17.59 Y12.837
N3345 X17.665 Y12.739
N3350 X17.786 Y12.599
N3355 X17.838 Y12.543
N3360 X17.982 Y12.404
N3365 X18.045 Y12.348
N3370 X18.177 Y12.24
N3375 X18.3 Y12.152
N3380 X18.373 Y12.103
N3385 X18.569 Y11.987
N3390 X18.627 Y11.956
N3395 X18.765 Y11.889
N3400 X18.961 Y11.809
N3405 X19.105 Y11.76
N3410 X19.156 Y11.744
N3415 X19.352 Y11.694
N3420 X19.548 Y11.658
N3425 X19.744 Y11.634
N3430 X19.94 Y11.624
N3435 X20.136 Y11.623
N3440 X369.865
N3445 X370.06 Y11.624
N3450 X370.256 Y11.634
N3455 X370.452 Y11.658
N3460 X370.648 Y11.694
N3465 X370.844 Y11.744
N3470 X370.895 Y11.76
N3475 X371.039 Y11.809
N3480 X371.235 Y11.889
N3485 X371.373 Y11.956
N3490 X371.431 Y11.987
N3495 X371.627 Y12.103
N3500 X371.7 Y12.152
N3505 X371.823 Y12.24
N3510 X371.955 Y12.348
N3515 X372.018 Y12.404
N3520 X372.162 Y12.543
N3525 X372.214 Y12.599
N3530 X372.335 Y12.739
N3535 X372.41 Y12.837
N3540 X372.48 Y12.935
N3545 X372.603 Y13.131
N3550 X372.606 Y13.137
N3555 X372.705 Y13.327
N3560 X372.791 Y13.523
N3565 X372.802 Y13.551
N3570 X372.86 Y13.719
N3575 X372.915 Y13.915
N3580 X372.956 Y14.11
N3585 X372.983 Y14.306
N3590 X372.99 Y14.383
N3595 X372.992 Y14.405
N3600 X372.993 Y14.423
N3605 X372.994 Y14.438
N3610 X372.995 Y14.45
N3615 X372.996 Y14.473
N3620 X372.997 Y14.479
N3625 G2 X374.195 Y14.42 I0.599 J-0.029
N3630 X373.803 Y13.886 I-0.599 J0.029
N3635 G3 X373.442 Y13.133 I0.208 J-0.563
N3640 X378.599 Y12.59 I2.702 J0.906
N3645 G1 X378.609 Y12.608 F1333.33
N3650 G3 X376.411 Y16.876 Z-0.6 I-2.465 J1.431
N3655 G1 X376.39 Y16.878
N3660 X376.086 Y16.904 F4000.
N3665 G3 X372.996 Y14.306 I-0.246 J-2.844
N3670 G1 X372.979 Y14.11
N3675 X372.949 Y13.915
N3680 X372.905 Y13.719
N3685 X372.848 Y13.523
N3690 X372.802 Y13.395
N3695 X372.775 Y13.327
N3700 X372.686 Y13.131
N3705 X372.606 Y12.981
N3710 X372.579 Y12.935
N3715 X372.453 Y12.739
N3720 X372.41 Y12.681
N3725 X372.302 Y12.543
N3730 X372.214 Y12.443
N3735 X372.123 Y12.348
N3740 X372.018 Y12.248
N3745 X371.908 Y12.152
N3750 X371.823 Y12.084
N3755 X371.641 Y11.956
N3760 X371.627 Y11.946
N3765 X371.431 Y11.83
N3770 X371.293 Y11.76
N3775 X371.235 Y11.733
N3780 X371.039 Y11.653
N3785 X370.844 Y11.588
N3790 X370.757 Y11.564
N3795 X370.648 Y11.538
N3800 X370.452 Y11.501
N3805 X370.256 Y11.478
N3810 X370.06 Y11.468
N3815 X369.865 Y11.467
N3820 X20.136
N3825 X19.94 Y11.468
N3830 X19.744 Y11.478
N3835 X19.548 Y11.501
N3840 X19.352 Y11.538
N3845 X19.243 Y11.564
N3850 X19.156 Y11.588
N3855 X18.961 Y11.653
N3860 X18.765 Y11.733
N3865 X18.707 Y11.76
N3870 X18.569 Y11.83
N3875 X18.373 Y11.946
N3880 X18.359 Y11.956
N3885 X18.177 Y12.084
N3890 X18.092 Y12.152
N3895 X17.982 Y12.248
N3900 X17.877 Y12.348
N3905 X17.786 Y12.443
N3910 X17.698 Y12.543
N3915 X17.59 Y12.681
N3920 X17.547 Y12.739
N3925 X17.421 Y12.935
N3930 X17.394 Y12.981
N3935 X17.314 Y13.131
N3940 X17.225 Y13.327
N3945 X17.198 Y13.395
N3950 X17.152 Y13.523
N3955 X17.095 Y13.719
N3960 X17.051 Y13.915
N3965 X17.021 Y14.11
N3970 X17.004 Y14.306
N3975 G3 X15.809 Y14.203 I-0.598 J-0.052
N3980 X16.165 Y13.705 I0.598 J0.052
N3985 G2 X16.478 Y12.925 I-0.241 J-0.549
N3990 X11.342 Y12.661 I-2.631 J1.096
N3995 G1 X11.332 Y12.68 F1333.33
N4000 G2 X13.683 Y16.866 Z-0.8 I2.515 J1.341
N4005 G1 X13.703 Y16.867
N4010 X14.008 Y16.883 F4000.
N4015 G2 X17.003 Y14.175 I0.144 J-2.851
N4020 G1 X17.005 Y14.145
N4025 X17.007 Y14.11
N4030 X17.026 Y13.915
N4035 X17.059 Y13.719
N4040 X17.105 Y13.523
N4045 X17.166 Y13.327
N4050 X17.198 Y13.238
N4055 X17.242 Y13.131
N4060 X17.334 Y12.935
N4065 X17.394 Y12.824
N4070 X17.445 Y12.739
N4075 X17.576 Y12.543
N4080 X17.59 Y12.524
N4085 X17.732 Y12.348
N4090 X17.786 Y12.287
N4095 X17.917 Y12.152
N4100 X17.982 Y12.091
N4105 X18.141 Y11.956
N4110 X18.177 Y11.928
N4115 X18.373 Y11.79
N4120 X18.421 Y11.76
N4125 X18.569 Y11.674
N4130 X18.765 Y11.577
N4135 X18.794 Y11.564
N4140 X18.961 Y11.497
N4145 X19.156 Y11.432
N4150 X19.352 Y11.382
N4155 X19.416 Y11.368
N4160 X19.548 Y11.345
N4165 X19.744 Y11.322
N4170 X19.94 Y11.311
N4175 X20.136
N4180 X369.865
N4185 X370.06
N4190 X370.256 Y11.322
N4195 X370.452 Y11.345
N4200 X370.584 Y11.368
N4205 X370.648 Y11.382
N4210 X370.844 Y11.432
N4215 X371.039 Y11.497
N4220 X371.206 Y11.564
N4225 X371.235 Y11.577
N4230 X371.431 Y11.674
N4235 X371.579 Y11.76
N4240 X371.627 Y11.79
N4245 X371.823 Y11.928
N4250 X371.858 Y11.956
N4255 X372.018 Y12.091
N4260 X372.083 Y12.152
N4265 X372.214 Y12.287
N4270 X372.268 Y12.348
N4275 X372.41 Y12.524
N4280 X372.424 Y12.543
N4285 X372.555 Y12.739
N4290 X372.606 Y12.824
N4295 X372.666 Y12.935
N4300 X372.758 Y13.131
N4305 X372.802 Y13.238
N4310 X372.834 Y13.327
N4315 X372.895 Y13.523
N4320 X372.941 Y13.719
N4325 X372.974 Y13.915
N4330 X372.993 Y14.11
N4335 X372.995 Y14.145
N4340 X372.997 Y14.175
N4345 G2 X374.195 Y14.115 I0.599 J-0.03
N4350 X373.818 Y13.587 I-0.599 J0.03
N4355 G3 X373.477 Y12.822 I0.222 J-0.557
N4360 X378.643 Y12.429 I2.673 J0.988
N4365 G1 X378.653 Y12.447 F1333.33
N4370 G3 X376.339 Y16.654 Z-1. I-2.503 J1.363
N4375 G1 X376.318 Y16.655
N4380 X376.014 Y16.673 F4000.
N4385 G3 X372.996 Y13.991 I-0.168 J-2.85
N4390 G1 X372.994 Y13.964
N4395 X372.99 Y13.915
N4400 X372.968 Y13.719
N4405 X372.933 Y13.523
N4410 X372.884 Y13.327
N4415 X372.82 Y13.131
N4420 X372.802 Y13.082
N4425 X372.741 Y12.935
N4430 X372.645 Y12.739
N4435 X372.606 Y12.668
N4440 X372.531 Y12.543
N4445 X372.41 Y12.368
N4450 X372.395 Y12.348
N4455 X372.233 Y12.152
N4460 X372.214 Y12.13
N4465 X372.041 Y11.956
N4470 X372.018 Y11.935
N4475 X371.823 Y11.772
N4480 X371.807 Y11.76
N4485 X371.627 Y11.634
N4490 X371.513 Y11.564
N4495 X371.431 Y11.518
N4500 X371.235 Y11.421
N4505 X371.112 Y11.368
N4510 X371.039 Y11.34
N4515 X370.844 Y11.276
N4520 X370.648 Y11.225
N4525 X370.452 Y11.189
N4530 X370.326 Y11.172
N4535 X370.256 Y11.166
N4540 X370.06 Y11.155
N4545 X369.865
N4550 X20.136
N4555 X19.94
N4560 X19.744 Y11.166
N4565 X19.674 Y11.172
N4570 X19.548 Y11.189
N4575 X19.352 Y11.225
N4580 X19.156 Y11.276
N4585 X18.961 Y11.34
N4590 X18.888 Y11.368
N4595 X18.765 Y11.421
N4600 X18.569 Y11.518
N4605 X18.487 Y11.564
N4610 X18.373 Y11.634
N4615 X18.193 Y11.76
N4620 X18.177 Y11.772
N4625 X17.982 Y11.935
N4630 X17.959 Y11.956
N4635 X17.786 Y12.13
N4640 X17.766 Y12.152
N4645 X17.605 Y12.348
N4650 X17.59 Y12.368
N4655 X17.469 Y12.543
N4660 X17.394 Y12.668
N4665 X17.355 Y12.739
N4670 X17.259 Y12.935
N4675 X17.198 Y13.082
N4680 X17.18 Y13.131
N4685 X17.116 Y13.327
N4690 X17.067 Y13.523
N4695 X17.032 Y13.719
N4700 X17.01 Y13.915
N4705 X17.006 Y13.964
N4710 X17.004 Y13.991
N4715 G3 X15.807 Y13.921 I-0.599 J-0.035
N4720 X16.18 Y13.4 I0.599 J0.035
N4725 G2 X16.515 Y12.631 I-0.226 J-0.556
N4730 X11.359 Y12.257 I-2.665 J1.01
N4735 G1 X11.349 Y12.275 F1333.33
N4740 G2 X13.657 Y16.485 Z-1.2 I2.501 J1.366
N4745 G1 X13.678 Y16.486
N4750 X13.983 Y16.505 F4000.
N4755 G2 X17.005 Y13.827 I0.172 J-2.85
N4760 G1 X17.006 Y13.807
N4765 X17.008 Y13.782
N4770 X17.013 Y13.719
N4775 X17.038 Y13.523
N4780 X17.076 Y13.327
N4785 X17.128 Y13.131
N4790 X17.195 Y12.935
N4795 X17.198 Y12.926
N4800 X17.277 Y12.739
N4805 X17.376 Y12.543
N4810 X17.394 Y12.512
N4815 X17.495 Y12.348
N4820 X17.59 Y12.212
N4825 X17.636 Y12.152
N4830 X17.786 Y11.974
N4835 X17.803 Y11.956
N4840 X17.982 Y11.779
N4845 X18.003 Y11.76
N4850 X18.177 Y11.615
N4855 X18.247 Y11.564
N4860 X18.373 Y11.478
N4865 X18.557 Y11.368
N4870 X18.569 Y11.362
N4875 X18.765 Y11.264
N4880 X18.961 Y11.184
N4885 X18.993 Y11.172
N4890 X19.156 Y11.119
N4895 X19.352 Y11.069
N4900 X19.548 Y11.033
N4905 X19.744 Y11.009
N4910 X19.94 Y10.999
N4915 X20.136 Y10.998
N4920 X369.865
N4925 X370.06 Y10.999
N4930 X370.256 Y11.009
N4935 X370.452 Y11.033
N4940 X370.648 Y11.069
N4945 X370.844 Y11.119
N4950 X371.007 Y11.172
N4955 X371.039 Y11.184
N4960 X371.235 Y11.264
N4965 X371.431 Y11.362
N4970 X371.443 Y11.368
N4975 X371.627 Y11.478
N4980 X371.753 Y11.564
N4985 X371.823 Y11.615
N4990 X371.997 Y11.76
N4995 X372.018 Y11.779
N5000 X372.197 Y11.956
N5005 X372.214 Y11.974
N5010 X372.364 Y12.152
N5015 X372.41 Y12.212
N5020 X372.505 Y12.348
N5025 X372.606 Y12.512
N5030 X372.624 Y12.543
N5035 X372.723 Y12.739
N5040 X372.802 Y12.926
N5045 X372.805 Y12.935
N5050 X372.872 Y13.131
N5055 X372.924 Y13.327
N5060 X372.962 Y13.523
N5065 X372.987 Y13.719
N5070 X372.992 Y13.782
N5075 X372.994 Y13.807
N5080 X372.995 Y13.827
N5085 G2 X374.193 Y13.755 I0.599 J-0.036
N5090 X373.822 Y13.236 I-0.599 J0.036
N5095 G3 X373.49 Y12.465 I0.228 J-0.555
N5100 X378.621 Y12.072 I2.659 J1.025
N5105 G1 X378.632 Y12.09 F1333.33
N5110 G3 X376.38 Y16.331 Z-1.4 I-2.482 J1.4
N5115 G1 X376.36 Y16.333
N5120 X376.055 Y16.355 F4000.
N5125 G3 X372.997 Y13.719 I-0.211 J-2.847
N5130 G1 X372.983 Y13.523
N5135 X372.955 Y13.327
N5140 X372.915 Y13.131
N5145 X372.86 Y12.935
N5150 X372.802 Y12.77
N5155 X372.79 Y12.739
N5160 X372.704 Y12.543
N5165 X372.606 Y12.356
N5170 X372.601 Y12.348
N5175 X372.478 Y12.152
N5180 X372.41 Y12.056
N5185 X372.333 Y11.956
N5190 X372.214 Y11.818
N5195 X372.16 Y11.76
N5200 X372.018 Y11.623
N5205 X371.952 Y11.564
N5210 X371.823 Y11.459
N5215 X371.697 Y11.368
N5220 X371.627 Y11.321
N5225 X371.431 Y11.205
N5230 X371.368 Y11.172
N5235 X371.235 Y11.108
N5240 X371.039 Y11.028
N5245 X370.888 Y10.976
N5250 X370.844 Y10.963
N5255 X370.648 Y10.913
N5260 X370.452 Y10.876
N5265 X370.256 Y10.853
N5270 X370.06 Y10.843
N5275 X369.865 Y10.842
N5280 X20.136
N5285 X19.94 Y10.843
N5290 X19.744 Y10.853
N5295 X19.548 Y10.876
N5300 X19.352 Y10.913
N5305 X19.156 Y10.963
N5310 X19.112 Y10.976
N5315 X18.961 Y11.028
N5320 X18.765 Y11.108
N5325 X18.632 Y11.172
N5330 X18.569 Y11.205
N5335 X18.373 Y11.321
N5340 X18.303 Y11.368
N5345 X18.177 Y11.459
N5350 X18.048 Y11.564
N5355 X17.982 Y11.623
N5360 X17.84 Y11.76
N5365 X17.786 Y11.818
N5370 X17.667 Y11.956
N5375 X17.59 Y12.056
N5380 X17.522 Y12.152
N5385 X17.399 Y12.348
N5390 X17.394 Y12.356
N5395 X17.296 Y12.543
N5400 X17.21 Y12.739
N5405 X17.198 Y12.77
N5410 X17.14 Y12.935
N5415 X17.085 Y13.131
N5420 X17.045 Y13.327
N5425 X17.017 Y13.523
N5430 X17.003 Y13.719
N5435 G3 X15.806 Y13.63 I-0.598 J-0.044
N5440 X16.198 Y13.111 I0.598 J0.044
N5445 G2 X16.562 Y12.359 I-0.206 J-0.564
N5450 X11.403 Y11.802 I-2.706 J0.894
N5455 G1 X11.392 Y11.82 F1333.33
N5460 G2 X13.587 Y16.09 Z-1.6 I2.464 J1.433
N5465 G1 X13.608 Y16.092
N5470 X13.912 Y16.118 F4000.
N5475 G2 X17.004 Y13.523 I0.248 J-2.844
N5480 G1 X17.022 Y13.327
N5485 X17.052 Y13.131
N5490 X17.095 Y12.935
N5495 X17.153 Y12.739
N5500 X17.198 Y12.613
N5505 X17.226 Y12.543
N5510 X17.315 Y12.348
N5515 X17.394 Y12.199
N5520 X17.422 Y12.152
N5525 X17.549 Y11.956
N5530 X17.59 Y11.899
N5535 X17.7 Y11.76
N5540 X17.786 Y11.662
N5545 X17.879 Y11.564
N5550 X17.982 Y11.466
N5555 X18.095 Y11.368
N5560 X18.177 Y11.303
N5565 X18.362 Y11.172
N5570 X18.373 Y11.165
N5575 X18.569 Y11.049
N5580 X18.712 Y10.976
N5585 X18.765 Y10.952
N5590 X18.961 Y10.872
N5595 X19.156 Y10.807
N5600 X19.252 Y10.781
N5605 X19.352 Y10.757
N5610 X19.548 Y10.72
N5615 X19.744 Y10.697
N5620 X19.94 Y10.686
N5625 X20.136
N5630 X369.865
N5635 X370.06
N5640 X370.256 Y10.697
N5645 X370.452 Y10.72
N5650 X370.648 Y10.757
N5655 X370.748 Y10.781
N5660 X370.844 Y10.807
N5665 X371.039 Y10.872
N5670 X371.235 Y10.952
N5675 X371.288 Y10.976
N5680 X371.431 Y11.049
N5685 X371.627 Y11.165
N5690 X371.638 Y11.172
N5695 X371.823 Y11.303
N5700 X371.905 Y11.368
N5705 X372.018 Y11.466
N5710 X372.121 Y11.564
N5715 X372.214 Y11.662
N5720 X372.3 Y11.76
N5725 X372.41 Y11.899
N5730 X372.451 Y11.956
N5735 X372.578 Y12.152
N5740 X372.606 Y12.199
N5745 X372.685 Y12.348
N5750 X372.774 Y12.543
N5755 X372.802 Y12.613
N5760 X372.847 Y12.739
N5765 X372.905 Y12.935
N5770 X372.948 Y13.131
N5775 X372.978 Y13.327
N5780 X372.996 Y13.523
N5785 G2 X374.191 Y13.418 I0.598 J-0.052
N5790 X373.835 Y12.921 I-0.598 J0.052
N5795 G3 X373.522 Y12.141 I0.241 J-0.549
N5800 X378.657 Y11.876 I2.631 J1.095
N5805 G1 X378.667 Y11.894 F1333.33
N5810 G3 X376.319 Y16.082 Z-1.8 I-2.514 J1.342
N5815 G1 X376.298 Y16.083
N5820 X375.993 Y16.099 F4000.
N5825 G3 X372.997 Y13.392 I-0.145 J-2.851
N5830 G1 X372.995 Y13.362
N5835 X372.993 Y13.327
N5840 X372.973 Y13.131
N5845 X372.941 Y12.935
N5850 X372.894 Y12.739
N5855 X372.833 Y12.543
N5860 X372.802 Y12.457
N5865 X372.757 Y12.348
N5870 X372.665 Y12.152
N5875 X372.606 Y12.043
N5880 X372.554 Y11.956
N5885 X372.423 Y11.76
N5890 X372.41 Y11.743
N5895 X372.267 Y11.564
N5900 X372.214 Y11.505
N5905 X372.081 Y11.368
N5910 X372.018 Y11.31
N5915 X371.856 Y11.172
N5920 X371.823 Y11.147
N5925 X371.627 Y11.009
N5930 X371.575 Y10.976
N5935 X371.431 Y10.893
N5940 X371.235 Y10.796
N5945 X371.201 Y10.781
N5950 X371.039 Y10.715
N5955 X370.844 Y10.651
N5960 X370.648 Y10.6
N5965 X370.573 Y10.585
N5970 X370.452 Y10.564
N5975 X370.256 Y10.54
N5980 X370.06 Y10.53
N5985 X369.865
N5990 X20.136
N5995 X19.94
N6000 X19.744 Y10.54
N6005 X19.548 Y10.564
N6010 X19.427 Y10.585
N6015 X19.352 Y10.6
N6020 X19.156 Y10.651
N6025 X18.961 Y10.715
N6030 X18.799 Y10.781
N6035 X18.765 Y10.796
N6040 X18.569 Y10.893
N6045 X18.425 Y10.976
N6050 X18.373 Y11.009
N6055 X18.177 Y11.147
N6060 X18.144 Y11.172
N6065 X17.982 Y11.31
N6070 X17.919 Y11.368
N6075 X17.786 Y11.505
N6080 X17.733 Y11.564
N6085 X17.59 Y11.743
N6090 X17.577 Y11.76
N6095 X17.446 Y11.956
N6100 X17.394 Y12.043
N6105 X17.335 Y12.152
N6110 X17.243 Y12.348
N6115 X17.198 Y12.457
N6120 X17.167 Y12.543
N6125 X17.106 Y12.739
N6130 X17.059 Y12.935
N6135 X17.027 Y13.131
N6140 X17.007 Y13.327
N6145 X17.005 Y13.362
N6150 X17.003 Y13.392
N6155 G3 X15.805 Y13.331 I-0.599 J-0.03
N6160 X16.182 Y12.804 I0.599 J0.03
N6165 G2 X16.523 Y12.039 I-0.222 J-0.558
N6170 X11.358 Y11.643 I-2.674 J0.987
N6175 G1 X11.347 Y11.662 F1333.33
N6180 G2 X13.66 Y15.869 Z-2. I2.502 J1.364
N6185 G1 X13.68 Y15.871
N6190 X13.985 Y15.889 F4000.
N6195 G2 X17.005 Y13.209 I0.17 J-2.85
N6200 G1 X17.006 Y13.181
N6205 X17.01 Y13.131
N6210 X17.032 Y12.935
N6215 X17.068 Y12.739
N6220 X17.117 Y12.543
N6225 X17.181 Y12.348
N6230 X17.198 Y12.301
N6235 X17.26 Y12.152
N6240 X17.356 Y11.956
N6245 X17.394 Y11.887
N6250 X17.471 Y11.76
N6255 X17.59 Y11.587
N6260 X17.607 Y11.564
N6265 X17.768 Y11.368
N6270 X17.786 Y11.349
N6275 X17.961 Y11.172
N6280 X17.982 Y11.154
N6285 X18.177 Y10.99
N6290 X18.196 Y10.976
N6295 X18.373 Y10.853
N6300 X18.491 Y10.781
N6305 X18.569 Y10.737
N6310 X18.765 Y10.639
N6315 X18.894 Y10.585
N6320 X18.961 Y10.559
N6325 X19.156 Y10.494
N6330 X19.352 Y10.444
N6335 X19.548 Y10.408
N6340 X19.694 Y10.389
N6345 X19.744 Y10.384
N6350 X19.94 Y10.374
N6355 X20.136 Y10.373
N6360 X369.865
N6365 X370.06 Y10.374
N6370 X370.256 Y10.384
N6375 X370.306 Y10.389
N6380 X370.452 Y10.408
N6385 X370.648 Y10.444
N6390 X370.844 Y10.494
N6395 X371.039 Y10.559
N6400 X371.106 Y10.585
N6405 X371.235 Y10.639
N6410 X371.431 Y10.737
N6415 X371.509 Y10.781
N6420 X371.627 Y10.853
N6425 X371.804 Y10.976
N6430 X371.823 Y10.99
N6435 X372.018 Y11.154
N6440 X372.039 Y11.172
N6445 X372.214 Y11.349
N6450 X372.232 Y11.368
N6455 X372.393 Y11.564
N6460 X372.41 Y11.587
N6465 X372.529 Y11.76
N6470 X372.606 Y11.887
N6475 X372.644 Y11.956
N6480 X372.74 Y12.152
N6485 X372.802 Y12.301
N6490 X372.819 Y12.348
N6495 X372.883 Y12.543
N6500 X372.932 Y12.739
N6505 X372.968 Y12.935
N6510 X372.99 Y13.131
N6515 X372.994 Y13.181
N6520 X372.995 Y13.209
N6525 G2 X374.193 Y13.137 I0.599 J-0.036
N6530 X373.82 Y12.617 I-0.599 J0.036
N6535 G3 X373.484 Y11.848 I0.225 J-0.556
N6540 X378.64 Y11.471 I2.666 J1.008
N6545 G1 X378.65 Y11.489 F1333.33
N6550 G3 X376.344 Y15.7 Z-2.2 I-2.5 J1.368
N6555 G1 X376.323 Y15.702
N6560 X376.019 Y15.72 F4000.
N6565 G3 X372.995 Y13.044 I-0.174 J-2.85
N6570 G1 X372.994 Y13.024
N6575 X372.992 Y13.
N6580 X372.987 Y12.935
N6585 X372.962 Y12.739
N6590 X372.923 Y12.543
N6595 X372.871 Y12.348
N6600 X372.804 Y12.152
N6605 X372.802 Y12.145
N6610 X372.722 Y11.956
N6615 X372.622 Y11.76
N6620 X372.606 Y11.731
N6625 X372.504 Y11.564
N6630 X372.41 Y11.431
N6635 X372.363 Y11.368
N6640 X372.214 Y11.193
N6645 X372.195 Y11.172
N6650 X372.018 Y10.998
N6655 X371.995 Y10.976
N6660 X371.823 Y10.834
N6665 X371.75 Y10.781
N6670 X371.627 Y10.696
N6675 X371.439 Y10.585
N6680 X371.431 Y10.58
N6685 X371.235 Y10.483
N6690 X371.039 Y10.403
N6695 X371.001 Y10.389
N6700 X370.844 Y10.338
N6705 X370.648 Y10.288
N6710 X370.452 Y10.251
N6715 X370.256 Y10.228
N6720 X370.06 Y10.218
N6725 X369.865 Y10.217
N6730 X20.136
N6735 X19.94 Y10.218
N6740 X19.744 Y10.228
N6745 X19.548 Y10.251
N6750 X19.352 Y10.288
N6755 X19.156 Y10.338
N6760 X18.999 Y10.389
N6765 X18.961 Y10.403
N6770 X18.765 Y10.483
N6775 X18.569 Y10.58
N6780 X18.561 Y10.585
N6785 X18.373 Y10.696
N6790 X18.25 Y10.781
N6795 X18.177 Y10.834
N6800 X18.005 Y10.976
N6805 X17.982 Y10.998
N6810 X17.805 Y11.172
N6815 X17.786 Y11.193
N6820 X17.637 Y11.368
N6825 X17.59 Y11.431
N6830 X17.496 Y11.564
N6835 X17.394 Y11.731
N6840 X17.378 Y11.76
N6845 X17.278 Y11.956
N6850 X17.198 Y12.145
N6855 X17.196 Y12.152
N6860 X17.129 Y12.348
N6865 X17.077 Y12.543
N6870 X17.038 Y12.739
N6875 X17.013 Y12.935
N6880 X17.008 Y13.
N6885 X17.006 Y13.024
N6890 X17.005 Y13.044
N6895 G3 X15.807 Y12.971 I-0.599 J-0.037
N6900 X16.179 Y12.453 I0.599 J0.037
N6905 G2 X16.511 Y11.682 I-0.227 J-0.555
N6910 X11.38 Y11.285 I-2.66 J1.023
N6915 G1 X11.37 Y11.303 F1333.33
N6920 G2 X13.618 Y15.545 Z-2.4 I2.481 J1.402
N6925 G1 X13.639 Y15.547
N6930 X13.943 Y15.569 F4000.
N6935 G2 X17.003 Y12.935 I0.213 J-2.847
N6940 G1 X17.017 Y12.739
N6945 X17.045 Y12.543
N6950 X17.086 Y12.348
N6955 X17.141 Y12.152
N6960 X17.198 Y11.988
N6965 X17.211 Y11.956
N6970 X17.297 Y11.76
N6975 X17.394 Y11.574
N6980 X17.4 Y11.564
N6985 X17.523 Y11.368
N6990 X17.59 Y11.274
N6995 X17.669 Y11.172
N7000 X17.786 Y11.037
N7005 X17.842 Y10.976
N7010 X17.982 Y10.841
N7015 X18.05 Y10.781
N7020 X18.177 Y10.678
N7025 X18.306 Y10.585
N7030 X18.373 Y10.54
N7035 X18.569 Y10.424
N7040 X18.636 Y10.389
N7045 X18.765 Y10.327
N7050 X18.961 Y10.247
N7055 X19.119 Y10.193
N7060 X19.156 Y10.182
N7065 X19.352 Y10.132
N7070 X19.548 Y10.095
N7075 X19.744 Y10.072
N7080 X19.94 Y10.061
N7085 X20.136
N7090 X369.865
N7095 X370.06
N7100 X370.256 Y10.072
N7105 X370.452 Y10.095
N7110 X370.648 Y10.132
N7115 X370.844 Y10.182
N7120 X370.881 Y10.193
N7125 X371.039 Y10.247
N7130 X371.235 Y10.327
N7135 X371.364 Y10.389
N7140 X371.431 Y10.424
N7145 X371.627 Y10.54
N7150 X371.694 Y10.585
N7155 X371.823 Y10.678
N7160 X371.95 Y10.781
N7165 X372.018 Y10.841
N7170 X372.158 Y10.976
N7175 X372.214 Y11.037
N7180 X372.331 Y11.172
N7185 X372.41 Y11.274
N7190 X372.477 Y11.368
N7195 X372.6 Y11.564
N7200 X372.606 Y11.574
N7205 X372.703 Y11.76
N7210 X372.789 Y11.956
N7215 X372.802 Y11.988
N7220 X372.859 Y12.152
N7225 X372.914 Y12.348
N7230 X372.955 Y12.543
N7235 X372.983 Y12.739
N7240 X372.997 Y12.935
N7245 G2 X374.194 Y12.846 I0.598 J-0.045
N7250 X373.801 Y12.327 I-0.598 J0.045
N7255 G3 X373.437 Y11.575 I0.205 J-0.564
N7260 X378.596 Y11.014 I2.707 J0.892
N7265 G1 X378.606 Y11.032 F1333.33
N7270 G3 X376.415 Y15.304 Z-2.6 I-2.463 J1.435
N7275 G1 X376.394 Y15.306
N7280 X376.09 Y15.333 F4000.
N7285 G3 X372.995 Y12.739 I-0.251 J-2.844
N7290 G1 X372.978 Y12.543
N7295 X372.948 Y12.348
N7300 X372.904 Y12.152
N7305 X372.846 Y11.956
N7310 X372.802 Y11.832
N7315 X372.773 Y11.76
N7320 X372.684 Y11.564
N7325 X372.606 Y11.418
N7330 X372.577 Y11.368
N7335 X372.449 Y11.172
N7340 X372.41 Y11.118
N7345 X372.298 Y10.976
N7350 X372.214 Y10.88
N7355 X372.119 Y10.781
N7360 X372.018 Y10.685
N7365 X371.902 Y10.585
N7370 X371.823 Y10.522
N7375 X371.635 Y10.389
N7380 X371.627 Y10.384
N7385 X371.431 Y10.268
N7390 X371.284 Y10.193
N7395 X371.235 Y10.171
N7400 X371.039 Y10.09
N7405 X370.844 Y10.026
N7410 X370.74 Y9.997
N7415 X370.648 Y9.975
N7420 X370.452 Y9.939
N7425 X370.256 Y9.915
N7430 X370.06 Y9.905
N7435 X369.865
N7440 X20.136
N7445 X19.94
N7450 X19.744 Y9.915
N7455 X19.548 Y9.939
N7460 X19.352 Y9.975
N7465 X19.26 Y9.997
N7470 X19.156 Y10.026
N7475 X18.961 Y10.09
N7480 X18.765 Y10.171
N7485 X18.716 Y10.193
N7490 X18.569 Y10.268
N7495 X18.373 Y10.384
N7500 X18.365 Y10.389
N7505 X18.177 Y10.522
N7510 X18.098 Y10.585
N7515 X17.982 Y10.685
N7520 X17.881 Y10.781
N7525 X17.786 Y10.88
N7530 X17.702 Y10.976
N7535 X17.59 Y11.118
N7540 X17.551 Y11.172
N7545 X17.423 Y11.368
N7550 X17.394 Y11.418
N7555 X17.316 Y11.564
N7560 X17.227 Y11.76
N7565 X17.198 Y11.832
N7570 X17.154 Y11.956
N7575 X17.096 Y12.152
N7580 X17.052 Y12.348
N7585 X17.022 Y12.543
N7590 X17.005 Y12.739
N7595 G3 X15.809 Y12.634 I-0.598 J-0.053
N7600 X16.166 Y12.137 I0.598 J0.053
N7605 G2 X16.478 Y11.357 I-0.241 J-0.549
N7610 X11.344 Y11.091 I-2.631 J1.095
N7615 G1 X11.334 Y11.109 F1333.33
N7620 G2 X13.68 Y15.298 Z-2.8 I2.513 J1.343
N7625 G1 X13.701 Y15.299
N7630 X14.006 Y15.314 F4000.
N7635 G2 X17.003 Y12.609 I0.146 J-2.851
N7640 G1 X17.005 Y12.579
N7645 X17.007 Y12.543
N7650 X17.027 Y12.348
N7655 X17.06 Y12.152
N7660 X17.107 Y11.956
N7665 X17.167 Y11.76
N7670 X17.198 Y11.676
N7675 X17.244 Y11.564
N7680 X17.336 Y11.368
N7685 X17.394 Y11.262
N7690 X17.447 Y11.172
N7695 X17.579 Y10.976
N7700 X17.59 Y10.962
N7705 X17.735 Y10.781
N7710 X17.786 Y10.724
N7715 X17.922 Y10.585
N7720 X17.982 Y10.529
N7725 X18.147 Y10.389
N7730 X18.177 Y10.365
N7735 X18.373 Y10.228
N7740 X18.428 Y10.193
N7745 X18.569 Y10.112
N7750 X18.765 Y10.014
N7755 X18.804 Y9.997
N7760 X18.961 Y9.934
N7765 X19.156 Y9.869
N7770 X19.352 Y9.819
N7775 X19.438 Y9.801
N7780 X19.548 Y9.782
N7785 X19.744 Y9.759
N7790 X19.94 Y9.749
N7795 X20.136 Y9.748
N7800 X369.865
N7805 X370.06 Y9.749
N7810 X370.256 Y9.759
N7815 X370.452 Y9.782
N7820 X370.562 Y9.801
N7825 X370.648 Y9.819
N7830 X370.844 Y9.869
N7835 X371.039 Y9.934
N7840 X371.196 Y9.997
N7845 X371.235 Y10.014
N7850 X371.431 Y10.112
N7855 X371.572 Y10.193
N7860 X371.627 Y10.228
N7865 X371.823 Y10.365
N7870 X371.853 Y10.389
N7875 X372.018 Y10.529
N7880 X372.078 Y10.585
N7885 X372.214 Y10.724
N7890 X372.265 Y10.781
N7895 X372.41 Y10.962
N7900 X372.421 Y10.976
N7905 X372.553 Y11.172
N7910 X372.606 Y11.262
N7915 X372.664 Y11.368
N7920 X372.756 Y11.564
N7925 X372.802 Y11.676
N7930 X372.833 Y11.76
N7935 X372.893 Y11.956
N7940 X372.94 Y12.152
N7945 X372.973 Y12.348
N7950 X372.993 Y12.543
N7955 X372.995 Y12.579
N7960 X372.997 Y12.609
N7965 G2 X374.195 Y12.548 I0.599 J-0.031
N7970 X373.817 Y12.021 I-0.599 J0.031
N7975 G3 X373.476 Y11.256 I0.221 J-0.558
N7980 X378.642 Y10.858 I2.674 J0.985
N7985 G1 X378.652 Y10.876 F1333.33
N7990 G3 X376.342 Y15.085 Z-3. I-2.502 J1.365
N7995 G1 X376.321 Y15.086
N8000 X376.016 Y15.105 F4000.
N8005 G3 X372.995 Y12.426 I-0.171 J-2.85
N8010 G1 X372.994 Y12.399
N8015 X372.99 Y12.348
N8020 X372.968 Y12.152
N8025 X372.932 Y11.956
N8030 X372.882 Y11.76
N8035 X372.818 Y11.564
N8040 X372.802 Y11.519
N8045 X372.739 Y11.368
N8050 X372.643 Y11.172
N8055 X372.606 Y11.106
N8060 X372.528 Y10.976
N8065 X372.41 Y10.806
N8070 X372.391 Y10.781
N8075 X372.23 Y10.585
N8080 X372.214 Y10.568
N8085 X372.036 Y10.389
N8090 X372.018 Y10.373
N8095 X371.823 Y10.209
N8100 X371.801 Y10.193
N8105 X371.627 Y10.071
N8110 X371.506 Y9.997
N8115 X371.431 Y9.955
N8120 X371.235 Y9.858
N8125 X371.101 Y9.801
N8130 X371.039 Y9.778
N8135 X370.844 Y9.713
N8140 X370.648 Y9.663
N8145 X370.452 Y9.626
N8150 X370.284 Y9.605
N8155 X370.256 Y9.603
N8160 X370.06 Y9.593
N8165 X369.865 Y9.592
N8170 X20.136
N8175 X19.94 Y9.593
N8180 X19.744 Y9.603
N8185 X19.716 Y9.605
N8190 X19.548 Y9.626
N8195 X19.352 Y9.663
N8200 X19.156 Y9.713
N8205 X18.961 Y9.778
N8210 X18.899 Y9.801
N8215 X18.765 Y9.858
N8220 X18.569 Y9.955
N8225 X18.494 Y9.997
N8230 X18.373 Y10.071
N8235 X18.199 Y10.193
N8240 X18.177 Y10.209
N8245 X17.982 Y10.373
N8250 X17.964 Y10.389
N8255 X17.786 Y10.568
N8260 X17.77 Y10.585
N8265 X17.609 Y10.781
N8270 X17.59 Y10.806
N8275 X17.472 Y10.976
N8280 X17.394 Y11.106
N8285 X17.357 Y11.172
N8290 X17.261 Y11.368
N8295 X17.198 Y11.519
N8300 X17.182 Y11.564
N8305 X17.118 Y11.76
N8310 X17.068 Y11.956
N8315 X17.032 Y12.152
N8320 X17.01 Y12.348
N8325 X17.006 Y12.399
N8330 X17.005 Y12.426
N8335 G3 X15.807 Y12.354 I-0.599 J-0.036
N8340 X16.174 Y11.836 I0.599 J0.036
N8345 G2 X16.501 Y11.063 I-0.232 J-0.553
N8350 X11.351 Y10.735 I-2.652 J1.044
N8355 G1 X11.341 Y10.753 F1333.33
N8360 G2 X13.67 Y14.952 Z-3.2 I2.508 J1.354
N8365 G1 X13.691 Y14.953
N8370 X13.995 Y14.97 F4000.
N8375 G2 X17.004 Y12.278 I0.158 J-2.851
N8380 G1 X17.005 Y12.261
N8385 X17.006 Y12.241
N8390 X17.008 Y12.217
N8395 X17.013 Y12.152
N8400 X17.039 Y11.956
N8405 X17.077 Y11.76
N8410 X17.129 Y11.564
N8415 X17.196 Y11.368
N8420 X17.198 Y11.363
N8425 X17.279 Y11.172
N8430 X17.379 Y10.976
N8435 X17.394 Y10.949
N8440 X17.498 Y10.781
N8445 X17.59 Y10.649
N8450 X17.639 Y10.585
N8455 X17.786 Y10.412
N8460 X17.807 Y10.389
N8465 X17.982 Y10.216
N8470 X18.007 Y10.193
N8475 X18.177 Y10.053
N8480 X18.253 Y9.997
N8485 X18.373 Y9.915
N8490 X18.565 Y9.801
N8495 X18.569 Y9.799
N8500 X18.765 Y9.702
N8505 X18.961 Y9.622
N8510 X19.005 Y9.605
N8515 X19.156 Y9.557
N8520 X19.352 Y9.506
N8525 X19.548 Y9.47
N8530 X19.744 Y9.447
N8535 X19.94 Y9.436
N8540 X20.136
N8545 X369.865
N8550 X370.06
N8555 X370.256 Y9.447
N8560 X370.452 Y9.47
N8565 X370.648 Y9.506
N8570 X370.844 Y9.557
N8575 X370.995 Y9.605
N8580 X371.039 Y9.622
N8585 X371.235 Y9.702
N8590 X371.431 Y9.799
N8595 X371.435 Y9.801
N8600 X371.627 Y9.915
N8605 X371.747 Y9.997
N8610 X371.823 Y10.053
N8615 X371.993 Y10.193
N8620 X372.018 Y10.216
N8625 X372.193 Y10.389
N8630 X372.214 Y10.412
N8635 X372.361 Y10.585
N8640 X372.41 Y10.649
N8645 X372.502 Y10.781
N8650 X372.606 Y10.949
N8655 X372.621 Y10.976
N8660 X372.721 Y11.172
N8665 X372.802 Y11.363
N8670 X372.804 Y11.368
N8675 X372.871 Y11.564
N8680 X372.923 Y11.76
N8685 X372.961 Y11.956
N8690 X372.987 Y12.152
N8695 X372.992 Y12.217
N8700 X372.994 Y12.241
N8705 X372.995 Y12.261
N8710 X372.996 Y12.278
N8715 G2 X374.194 Y12.211 I0.599 J-0.033
N8720 X373.818 Y11.687 I-0.599 J0.033
N8725 G3 X373.479 Y10.92 I0.223 J-0.557
N8730 X378.619 Y10.497 I2.669 J0.999
N8735 G1 X378.629 Y10.515 F1333.33
N8740 G3 X376.384 Y14.759 Z-3.4 I-2.48 J1.404
N8745 G1 X376.363 Y14.761
N8750 X376.059 Y14.784 F4000.
N8755 G3 X372.997 Y12.152 I-0.215 J-2.847
N8760 G1 X372.982 Y11.956
N8765 X372.955 Y11.76
N8770 X372.913 Y11.564
N8775 X372.858 Y11.368
N8780 X372.802 Y11.207
N8785 X372.788 Y11.172
N8790 X372.702 Y10.976
N8795 X372.606 Y10.793
N8800 X372.599 Y10.781
N8805 X372.475 Y10.585
N8810 X372.41 Y10.493
N8815 X372.329 Y10.389
N8820 X372.214 Y10.255
N8825 X372.156 Y10.193
N8830 X372.018 Y10.06
N8835 X371.947 Y9.997
N8840 X371.823 Y9.897
N8845 X371.691 Y9.801
N8850 X371.627 Y9.759
N8855 X371.431 Y9.643
N8860 X371.36 Y9.605
N8865 X371.235 Y9.546
N8870 X371.039 Y9.465
N8875 X370.874 Y9.41
N8880 X370.844 Y9.401
N8885 X370.648 Y9.35
N8890 X370.452 Y9.314
N8895 X370.256 Y9.29
N8900 X370.06 Y9.28
N8905 X369.865 Y9.279
N8910 X20.136
N8915 X19.94 Y9.28
N8920 X19.744 Y9.29
N8925 X19.548 Y9.314
N8930 X19.352 Y9.35
N8935 X19.156 Y9.401
N8940 X19.126 Y9.41
N8945 X18.961 Y9.465
N8950 X18.765 Y9.546
N8955 X18.64 Y9.605
N8960 X18.569 Y9.643
N8965 X18.373 Y9.759
N8970 X18.309 Y9.801
N8975 X18.177 Y9.897
N8980 X18.053 Y9.997
N8985 X17.982 Y10.06
N8990 X17.844 Y10.193
N8995 X17.786 Y10.255
N9000 X17.671 Y10.389
N9005 X17.59 Y10.493
N9010 X17.525 Y10.585
N9015 X17.401 Y10.781
N9020 X17.394 Y10.793
N9025 X17.298 Y10.976
N9030 X17.212 Y11.172
N9035 X17.198 Y11.207
N9040 X17.142 Y11.368
N9045 X17.087 Y11.564
N9050 X17.045 Y11.76
N9055 X17.018 Y11.956
N9060 X17.003 Y12.152
N9065 G3 X15.806 Y12.061 I-0.598 J-0.045
N9070 X16.199 Y11.543 I0.598 J0.045
N9075 G2 X16.564 Y10.792 I-0.205 J-0.564
N9080 X11.406 Y10.227 I-2.708 J0.89
N9085 G1 X11.395 Y10.245 F1333.33
N9090 G2 X13.584 Y14.518 Z-3.6 I2.462 J1.436
N9095 G1 X13.604 Y14.52
N9100 X13.908 Y14.547 F4000.
N9105 G2 X17.005 Y11.956 I0.253 J-2.844
N9110 G1 X17.022 Y11.76
N9115 X17.053 Y11.564
N9120 X17.097 Y11.368
N9125 X17.155 Y11.172
N9130 X17.198 Y11.051
N9135 X17.228 Y10.976
N9140 X17.317 Y10.781
N9145 X17.394 Y10.637
N9150 X17.425 Y10.585
N9155 X17.552 Y10.389
N9160 X17.59 Y10.337
N9165 X17.703 Y10.193
N9170 X17.786 Y10.099
N9175 X17.883 Y9.997
N9180 X17.982 Y9.904
N9185 X18.1 Y9.801
N9190 X18.177 Y9.74
N9195 X18.369 Y9.605
N9200 X18.373 Y9.603
N9205 X18.569 Y9.487
N9210 X18.721 Y9.41
N9215 X18.765 Y9.389
N9220 X18.961 Y9.309
N9225 X19.156 Y9.244
N9230 X19.269 Y9.214
N9235 X19.352 Y9.194
N9240 X19.548 Y9.157
N9245 X19.744 Y9.134
N9250 X19.94 Y9.124
N9255 X20.136 Y9.123
N9260 X369.865
N9265 X370.06 Y9.124
N9270 X370.256 Y9.134
N9275 X370.452 Y9.157
N9280 X370.648 Y9.194
N9285 X370.731 Y9.214
N9290 X370.844 Y9.244
N9295 X371.039 Y9.309
N9300 X371.235 Y9.389
N9305 X371.279 Y9.41
N9310 X371.431 Y9.487
N9315 X371.627 Y9.603
N9320 X371.631 Y9.605
N9325 X371.823 Y9.74
N9330 X371.9 Y9.801
N9335 X372.018 Y9.904
N9340 X372.117 Y9.997
N9345 X372.214 Y10.099
N9350 X372.297 Y10.193
N9355 X372.41 Y10.337
N9360 X372.448 Y10.389
N9365 X372.576 Y10.585
N9370 X372.606 Y10.637
N9375 X372.683 Y10.781
N9380 X372.772 Y10.976
N9385 X372.802 Y11.051
N9390 X372.845 Y11.172
N9395 X372.903 Y11.368
N9400 X372.947 Y11.564
N9405 X372.978 Y11.76
N9410 X372.995 Y11.956
N9415 G2 X374.191 Y11.85 I0.598 J-0.053
N9420 X373.834 Y11.353 I-0.598 J0.053
N9425 G3 X373.521 Y10.573 I0.241 J-0.549
N9430 X378.656 Y10.305 I2.631 J1.095
N9435 G1 X378.666 Y10.324 F1333.33
N9440 G3 X376.321 Y14.513 Z-3.8 I-2.513 J1.345
N9445 G1 X376.3 Y14.514
N9450 X375.996 Y14.53 F4000.
N9455 G3 X372.997 Y11.827 I-0.148 J-2.851
N9460 G1 X372.995 Y11.797
N9465 X372.993 Y11.76
N9470 X372.973 Y11.564
N9475 X372.94 Y11.368
N9480 X372.893 Y11.172
N9485 X372.832 Y10.976
N9490 X372.802 Y10.894
N9495 X372.755 Y10.781
N9500 X372.663 Y10.585
N9505 X372.606 Y10.481
N9510 X372.551 Y10.389
N9515 X372.419 Y10.193
N9520 X372.41 Y10.181
N9525 X372.263 Y9.997
N9530 X372.214 Y9.943
N9535 X372.076 Y9.801
N9540 X372.018 Y9.748
N9545 X371.85 Y9.605
N9550 X371.823 Y9.584
N9555 X371.627 Y9.446
N9560 X371.568 Y9.41
N9565 X371.431 Y9.33
N9570 X371.235 Y9.233
N9575 X371.191 Y9.214
N9580 X371.039 Y9.153
N9585 X370.844 Y9.088
N9590 X370.648 Y9.038
N9595 X370.55 Y9.018
N9600 X370.452 Y9.001
N9605 X370.256 Y8.978
N9610 X370.06 Y8.968
N9615 X369.865 Y8.967
N9620 X20.136
N9625 X19.94 Y8.968
N9630 X19.744 Y8.978
N9635 X19.548 Y9.001
N9640 X19.45 Y9.018
N9645 X19.352 Y9.038
N9650 X19.156 Y9.088
N9655 X18.961 Y9.153
N9660 X18.809 Y9.214
N9665 X18.765 Y9.233
N9670 X18.569 Y9.33
N9675 X18.432 Y9.41
N9680 X18.373 Y9.446
N9685 X18.177 Y9.584
N9690 X18.15 Y9.605
N9695 X17.982 Y9.748
N9700 X17.924 Y9.801
N9705 X17.786 Y9.943
N9710 X17.737 Y9.997
N9715 X17.59 Y10.181
N9720 X17.581 Y10.193
N9725 X17.449 Y10.389
N9730 X17.394 Y10.481
N9735 X17.337 Y10.585
N9740 X17.245 Y10.781
N9745 X17.198 Y10.894
N9750 X17.168 Y10.976
N9755 X17.107 Y11.172
N9760 X17.06 Y11.368
N9765 X17.027 Y11.564
N9770 X17.007 Y11.76
N9775 X17.005 Y11.797
N9780 X17.003 Y11.827
N9785 G3 X15.805 Y11.765 I-0.599 J-0.031
N9790 X16.183 Y11.238 I0.599 J0.031
N9795 G2 X16.525 Y10.473 I-0.221 J-0.558
N9800 X11.359 Y10.072 I-2.675 J0.984
N9805 G1 X11.349 Y10.091 F1333.33
N9810 G2 X13.657 Y14.301 Z-4. I2.501 J1.366
N9815 G1 X13.678 Y14.302
N9820 X13.982 Y14.32 F4000.
N9825 G2 X17.005 Y11.643 I0.172 J-2.85
N9830 G1 X17.006 Y11.616
N9835 X17.01 Y11.564
N9840 X17.033 Y11.368
N9845 X17.069 Y11.172
N9850 X17.118 Y10.976
N9855 X17.182 Y10.781
N9860 X17.198 Y10.738
N9865 X17.262 Y10.585
N9870 X17.358 Y10.389
N9875 X17.394 Y10.324
N9880 X17.474 Y10.193
N9885 X17.59 Y10.024
N9890 X17.61 Y9.997
N9895 X17.772 Y9.801
N9900 X17.786 Y9.787
N9905 X17.966 Y9.605
N9910 X17.982 Y9.591
N9915 X18.177 Y9.428
N9920 X18.202 Y9.41
N9925 X18.373 Y9.29
N9930 X18.498 Y9.214
N9935 X18.569 Y9.174
N9940 X18.765 Y9.077
N9945 X18.905 Y9.018
N9950 X18.961 Y8.997
N9955 X19.156 Y8.932
N9960 X19.352 Y8.881
N9965 X19.548 Y8.845
N9970 X19.74 Y8.822
N9975 X19.744
N9980 X19.94 Y8.811
N9985 X20.136
N9990 X369.865
N9995 X370.06
N10000 X370.256 Y8.822
N10005 X370.26
N10010 X370.452 Y8.845
N10015 X370.648 Y8.881
N10020 X370.844 Y8.932
N10025 X371.039 Y8.997
N10030 X371.095 Y9.018
N10035 X371.235 Y9.077
N10040 X371.431 Y9.174
N10045 X371.502 Y9.214
N10050 X371.627 Y9.29
N10055 X371.798 Y9.41
N10060 X371.823 Y9.428
N10065 X372.018 Y9.591
N10070 X372.034 Y9.605
N10075 X372.214 Y9.787
N10080 X372.228 Y9.801
N10085 X372.39 Y9.997
N10090 X372.41 Y10.024
N10095 X372.526 Y10.193
N10100 X372.606 Y10.324
N10105 X372.642 Y10.389
N10110 X372.738 Y10.585
N10115 X372.802 Y10.738
N10120 X372.818 Y10.781
N10125 X372.882 Y10.976
N10130 X372.931 Y11.172
N10135 X372.967 Y11.368
N10140 X372.99 Y11.564
N10145 X372.994 Y11.616
N10150 X372.995 Y11.643
N10155 G2 X374.193 Y11.57 I0.599 J-0.036
N10160 X373.826 Y11.053 I-0.599 J0.036
N10165 G3 X373.499 Y10.28 I0.231 J-0.554
N10170 X378.648 Y9.949 I2.653 J1.042
N10175 G1 X378.658 Y9.967 F1333.33
N10180 G3 X376.332 Y14.167 Z-4.2 I-2.507 J1.355
N10185 G1 X376.311 Y14.168
N10190 X376.006 Y14.185 F4000.
N10195 G3 X372.996 Y11.494 I-0.16 J-2.851
N10200 G1 X372.995 Y11.478
N10205 X372.994 Y11.459
N10210 X372.992 Y11.434
N10215 X372.986 Y11.368
N10220 X372.961 Y11.172
N10225 X372.922 Y10.976
N10230 X372.87 Y10.781
N10235 X372.803 Y10.585
N10240 X372.802 Y10.582
N10245 X372.72 Y10.389
N10250 X372.62 Y10.193
N10255 X372.606 Y10.168
N10260 X372.501 Y9.997
N10265 X372.41 Y9.868
N10270 X372.359 Y9.801
N10275 X372.214 Y9.63
N10280 X372.191 Y9.605
N10285 X372.018 Y9.435
N10290 X371.99 Y9.41
N10295 X371.823 Y9.272
N10300 X371.744 Y9.214
N10305 X371.627 Y9.134
N10310 X371.431 Y9.018
N10315 X371.235 Y8.921
N10320 X371.039 Y8.84
N10325 X370.988 Y8.822
N10330 X370.844 Y8.775
N10335 X370.648 Y8.725
N10340 X370.452 Y8.689
N10345 X370.256 Y8.665
N10350 X370.06 Y8.655
N10355 X369.865 Y8.654
N10360 X20.136
N10365 X19.94 Y8.655
N10370 X19.744 Y8.665
N10375 X19.548 Y8.689
N10380 X19.352 Y8.725
N10385 X19.156 Y8.775
N10390 X19.012 Y8.822
N10395 X18.961 Y8.84
N10400 X18.765 Y8.921
N10405 X18.569 Y9.018
N10410 X18.373 Y9.134
N10415 X18.256 Y9.214
N10420 X18.177 Y9.272
N10425 X18.01 Y9.41
N10430 X17.982 Y9.435
N10435 X17.809 Y9.605
N10440 X17.786 Y9.63
N10445 X17.641 Y9.801
N10450 X17.59 Y9.868
N10455 X17.499 Y9.997
N10460 X17.394 Y10.168
N10465 X17.38 Y10.193
N10470 X17.28 Y10.389
N10475 X17.198 Y10.582
N10480 X17.197 Y10.585
N10485 X17.13 Y10.781
N10490 X17.078 Y10.976
N10495 X17.039 Y11.172
N10500 X17.014 Y11.368
N10505 X17.008 Y11.434
N10510 X17.006 Y11.459
N10515 X17.005 Y11.478
N10520 X17.004 Y11.494
N10525 G3 X15.806 Y11.427 I-0.599 J-0.034
N10530 X16.182 Y10.904 I0.599 J0.034
N10535 G2 X16.522 Y10.137 I-0.223 J-0.557
N10540 X11.383 Y9.709 I-2.67 J0.996
N10545 G1 X11.372 Y9.728 F1333.33
N10550 G2 X13.614 Y13.973 Z-4.4 I2.479 J1.405
N10555 G1 X13.635 Y13.975
N10560 X13.939 Y13.998 F4000.
N10565 G2 X17.003 Y11.368 I0.217 J-2.847
N10570 G1 X17.018 Y11.172
N10575 X17.046 Y10.976
N10580 X17.087 Y10.781
N10585 X17.142 Y10.585
N10590 X17.198 Y10.426
N10595 X17.213 Y10.389
N10600 X17.299 Y10.193
N10605 X17.394 Y10.012
N10610 X17.403 Y9.997
N10615 X17.526 Y9.801
N10620 X17.59 Y9.712
N10625 X17.672 Y9.605
N10630 X17.786 Y9.474
N10635 X17.846 Y9.41
N10640 X17.982 Y9.279
N10645 X18.056 Y9.214
N10650 X18.177 Y9.115
N10655 X18.312 Y9.018
N10660 X18.373 Y8.978
N10665 X18.569 Y8.861
N10670 X18.644 Y8.822
N10675 X18.765 Y8.764
N10680 X18.961 Y8.684
N10685 X19.133 Y8.626
N10690 X19.156 Y8.619
N10695 X19.352 Y8.569
N10700 X19.548 Y8.532
N10705 X19.744 Y8.509
N10710 X19.94 Y8.499
N10715 X20.136 Y8.498
N10720 X369.865
N10725 X370.06 Y8.499
N10730 X370.256 Y8.509
N10735 X370.452 Y8.532
N10740 X370.648 Y8.569
N10745 X370.844 Y8.619
N10750 X370.867 Y8.626
N10755 X371.039 Y8.684
N10760 X371.235 Y8.764
N10765 X371.356 Y8.822
N10770 X371.431 Y8.861
N10775 X371.627 Y8.978
N10780 X371.688 Y9.018
N10785 X371.823 Y9.115
N10790 X371.944 Y9.214
N10795 X372.018 Y9.279
N10800 X372.154 Y9.41
N10805 X372.214 Y9.474
N10810 X372.328 Y9.605
N10815 X372.41 Y9.712
N10820 X372.474 Y9.801
N10825 X372.597 Y9.997
N10830 X372.606 Y10.012
N10835 X372.701 Y10.193
N10840 X372.787 Y10.389
N10845 X372.802 Y10.426
N10850 X372.858 Y10.585
N10855 X372.913 Y10.781
N10860 X372.954 Y10.976
N10865 X372.982 Y11.172
N10870 X372.997 Y11.368
N10875 G2 X374.194 Y11.277 I0.598 J-0.046
N10880 X373.8 Y10.759 I-0.598 J0.046
N10885 G3 X373.435 Y10.008 I0.205 J-0.564
N10890 X378.593 Y9.439 I2.708 J0.888
N10895 G1 X378.604 Y9.457 F1333.33
N10900 G3 X376.418 Y13.732 Z-4.6 I-2.461 J1.438
N10905 G1 X376.397 Y13.734
N10910 X376.094 Y13.761 F4000.
N10915 G3 X372.995 Y11.172 I-0.255 J-2.844
N10920 G1 X372.978 Y10.976
N10925 X372.947 Y10.781
N10930 X372.903 Y10.585
N10935 X372.845 Y10.389
N10940 X372.802 Y10.269
N10945 X372.771 Y10.193
N10950 X372.682 Y9.997
N10955 X372.606 Y9.856
N10960 X372.574 Y9.801
N10965 X372.446 Y9.605
N10970 X372.41 Y9.555
N10975 X372.295 Y9.41
N10980 X372.214 Y9.318
N10985 X372.114 Y9.214
N10990 X372.018 Y9.123
N10995 X371.897 Y9.018
N11000 X371.823 Y8.959
N11005 X371.628 Y8.822
N11010 X371.627 Y8.821
N11015 X371.431 Y8.705
N11020 X371.274 Y8.626
N11025 X371.235 Y8.608
N11030 X371.039 Y8.528
N11035 X370.844 Y8.463
N11040 X370.722 Y8.43
N11045 X370.648 Y8.413
N11050 X370.452 Y8.376
N11055 X370.256 Y8.353
N11060 X370.06 Y8.343
N11065 X369.865 Y8.342
N11070 X20.136
N11075 X19.94 Y8.343
N11080 X19.744 Y8.353
N11085 X19.548 Y8.376
N11090 X19.352 Y8.413
N11095 X19.278 Y8.43
N11100 X19.156 Y8.463
N11105 X18.961 Y8.528
N11110 X18.765 Y8.608
N11115 X18.726 Y8.626
N11120 X18.569 Y8.705
N11125 X18.373 Y8.821
N11130 X18.372 Y8.822
N11135 X18.177 Y8.959
N11140 X18.103 Y9.018
N11145 X17.982 Y9.123
N11150 X17.886 Y9.214
N11155 X17.786 Y9.318
N11160 X17.705 Y9.41
N11165 X17.59 Y9.555
N11170 X17.554 Y9.605
N11175 X17.426 Y9.801
N11180 X17.394 Y9.856
N11185 X17.318 Y9.997
N11190 X17.229 Y10.193
N11195 X17.198 Y10.269
N11200 X17.155 Y10.389
N11205 X17.097 Y10.585
N11210 X17.053 Y10.781
N11215 X17.022 Y10.976
N11220 X17.005 Y11.172
N11225 G3 X15.81 Y11.065 I-0.598 J-0.054
N11230 X16.166 Y10.569 I0.598 J0.054
N11235 G2 X16.479 Y9.79 I-0.241 J-0.549
N11240 X11.345 Y9.52 I-2.632 J1.094
N11245 G1 X11.335 Y9.538 F1333.33
N11250 G2 X13.678 Y13.729 Z-4.8 I2.512 J1.346
N11255 G1 X13.699 Y13.73
N11260 X14.003 Y13.746 F4000.
N11265 G2 X17.003 Y11.044 I0.149 J-2.851
N11270 G1 X17.005 Y11.014
N11275 X17.007 Y10.976
N11280 X17.027 Y10.781
N11285 X17.061 Y10.585
N11290 X17.108 Y10.389
N11295 X17.169 Y10.193
N11300 X17.198 Y10.113
N11305 X17.245 Y9.997
N11310 X17.339 Y9.801
N11315 X17.394 Y9.699
N11320 X17.45 Y9.605
N11325 X17.582 Y9.41
N11330 X17.59 Y9.399
N11335 X17.739 Y9.214
N11340 X17.786 Y9.162
N11345 X17.926 Y9.018
N11350 X17.982 Y8.966
N11355 X18.153 Y8.822
N11360 X18.177 Y8.803
N11365 X18.373 Y8.665
N11370 X18.435 Y8.626
N11375 X18.569 Y8.549
N11380 X18.765 Y8.452
N11385 X18.814 Y8.43
N11390 X18.961 Y8.371
N11395 X19.156 Y8.307
N11400 X19.352 Y8.256
N11405 X19.462 Y8.234
N11410 X19.548 Y8.22
N11415 X19.744 Y8.197
N11420 X19.94 Y8.186
N11425 X20.136
N11430 X369.865
N11435 X370.06
N11440 X370.256 Y8.197
N11445 X370.452 Y8.22
N11450 X370.538 Y8.234
N11455 X370.648 Y8.256
N11460 X370.844 Y8.307
N11465 X371.039 Y8.371
N11470 X371.186 Y8.43
N11475 X371.235 Y8.452
N11480 X371.431 Y8.549
N11485 X371.565 Y8.626
N11490 X371.627 Y8.665
N11495 X371.823 Y8.803
N11500 X371.847 Y8.822
N11505 X372.018 Y8.966
N11510 X372.074 Y9.018
N11515 X372.214 Y9.162
N11520 X372.261 Y9.214
N11525 X372.41 Y9.399
N11530 X372.418 Y9.41
N11535 X372.55 Y9.605
N11540 X372.606 Y9.699
N11545 X372.661 Y9.801
N11550 X372.755 Y9.997
N11555 X372.802 Y10.113
N11560 X372.831 Y10.193
N11565 X372.892 Y10.389
N11570 X372.939 Y10.585
N11575 X372.973 Y10.781
N11580 X372.993 Y10.976
N11585 X372.995 Y11.014
N11590 X372.997 Y11.044
N11595 G2 X374.195 Y10.981 I0.599 J-0.031
N11600 X373.817 Y10.455 I-0.599 J0.031
N11605 G3 X373.474 Y9.69 I0.221 J-0.558
N11610 X378.64 Y9.287 I2.675 J0.983
N11615 G1 X378.65 Y9.305 F1333.33
N11620 G3 X376.344 Y13.516 Z-5. I-2.5 J1.368
N11625 G1 X376.323 Y13.517
N11630 X376.019 Y13.536 F4000.
N11635 G3 X372.995 Y10.86 I-0.174 J-2.85
N11640 G1 X372.994 Y10.833
N11645 X372.99 Y10.781
N11650 X372.967 Y10.585
N11655 X372.931 Y10.389
N11660 X372.881 Y10.193
N11665 X372.817 Y9.997
N11670 X372.802 Y9.957
N11675 X372.737 Y9.801
N11680 X372.641 Y9.605
N11685 X372.606 Y9.543
N11690 X372.525 Y9.41
N11695 X372.41 Y9.243
N11700 X372.388 Y9.214
N11705 X372.226 Y9.018
N11710 X372.214 Y9.005
N11715 X372.032 Y8.822
N11720 X372.018 Y8.81
N11725 X371.823 Y8.647
N11730 X371.796 Y8.626
N11735 X371.627 Y8.509
N11740 X371.498 Y8.43
N11745 X371.431 Y8.393
N11750 X371.235 Y8.296
N11755 X371.09 Y8.234
N11760 X371.039 Y8.215
N11765 X370.844 Y8.15
N11770 X370.648 Y8.1
N11775 X370.452 Y8.064
N11780 X370.256 Y8.04
N11785 X370.233 Y8.038
N11790 X370.06 Y8.03
N11795 X369.865 Y8.029
N11800 X20.136
N11805 X19.94 Y8.03
N11810 X19.767 Y8.038
N11815 X19.744 Y8.04
N11820 X19.548 Y8.064
N11825 X19.352 Y8.1
N11830 X19.156 Y8.15
N11835 X18.961 Y8.215
N11840 X18.91 Y8.234
N11845 X18.765 Y8.296
N11850 X18.569 Y8.393
N11855 X18.502 Y8.43
N11860 X18.373 Y8.509
N11865 X18.204 Y8.626
N11870 X18.177 Y8.647
N11875 X17.982 Y8.81
N11880 X17.968 Y8.822
N11885 X17.786 Y9.005
N11890 X17.774 Y9.018
N11895 X17.612 Y9.214
N11900 X17.59 Y9.243
N11905 X17.475 Y9.41
N11910 X17.394 Y9.543
N11915 X17.359 Y9.605
N11920 X17.263 Y9.801
N11925 X17.198 Y9.957
N11930 X17.183 Y9.997
N11935 X17.119 Y10.193
N11940 X17.069 Y10.389
N11945 X17.033 Y10.585
N11950 X17.01 Y10.781
N11955 X17.006 Y10.833
N11960 X17.005 Y10.86
N11965 G3 X15.807 Y10.787 I-0.599 J-0.037
N11970 X16.175 Y10.27 I0.599 J0.037
N11975 G2 X16.502 Y9.497 I-0.231 J-0.554
N11980 X11.353 Y9.162 I-2.653 J1.04
N11985 G1 X11.343 Y9.181 F1333.33
N11990 G2 X13.667 Y13.382 Z-5.2 I2.506 J1.357
N11995 G1 X13.688 Y13.383
N12000 X13.992 Y13.4 F4000.
N12005 G2 X17.004 Y10.711 I0.162 J-2.85
N12010 G1 X17.005 Y10.695
N12015 X17.007 Y10.676
N12020 X17.008 Y10.652
N12025 X17.014 Y10.585
N12030 X17.039 Y10.389
N12035 X17.078 Y10.193
N12040 X17.131 Y9.997
N12045 X17.198 Y9.801
N12050 X17.281 Y9.605
N12055 X17.381 Y9.41
N12060 X17.394 Y9.387
N12065 X17.501 Y9.214
N12070 X17.59 Y9.087
N12075 X17.643 Y9.018
N12080 X17.786 Y8.849
N12085 X17.811 Y8.822
N12090 X17.982 Y8.654
N12095 X18.012 Y8.626
N12100 X18.177 Y8.49
N12105 X18.259 Y8.43
N12110 X18.373 Y8.353
N12115 X18.569 Y8.236
N12120 X18.573 Y8.234
N12125 X18.765 Y8.139
N12130 X18.961 Y8.059
N12135 X19.018 Y8.038
N12140 X19.156 Y7.994
N12145 X19.352 Y7.944
N12150 X19.548 Y7.907
N12155 X19.744 Y7.884
N12160 X19.94 Y7.874
N12165 X20.136 Y7.873
N12170 X369.865
N12175 X370.06 Y7.874
N12180 X370.256 Y7.884
N12185 X370.452 Y7.907
N12190 X370.648 Y7.944
N12195 X370.844 Y7.994
N12200 X370.982 Y8.038
N12205 X371.039 Y8.059
N12210 X371.235 Y8.139
N12215 X371.427 Y8.234
N12220 X371.431 Y8.236
N12225 X371.627 Y8.353
N12230 X371.741 Y8.43
N12235 X371.823 Y8.49
N12240 X371.988 Y8.626
N12245 X372.018 Y8.654
N12250 X372.189 Y8.822
N12255 X372.214 Y8.849
N12260 X372.357 Y9.018
N12265 X372.41 Y9.087
N12270 X372.499 Y9.214
N12275 X372.606 Y9.387
N12280 X372.619 Y9.41
N12285 X372.719 Y9.605
N12290 X372.802 Y9.801
N12295 X372.869 Y9.997
N12300 X372.922 Y10.193
N12305 X372.961 Y10.389
N12310 X372.986 Y10.585
N12315 X372.992 Y10.652
N12320 X372.993 Y10.676
N12325 X372.995 Y10.695
N12330 X372.996 Y10.711
N12335 G2 X374.194 Y10.643 I0.599 J-0.034
N12340 X373.817 Y10.12 I-0.599 J0.034
N12345 G3 X373.477 Y9.354 I0.222 J-0.557
N12350 X378.616 Y8.922 I2.671 J0.994
N12355 G1 X378.627 Y8.94 F1333.33
N12360 G3 X376.388 Y13.187 Z-5.4 I-2.478 J1.407
N12365 G1 X376.367 Y13.189
N12370 X376.063 Y13.212 F4000.
N12375 G3 X372.997 Y10.585 I-0.219 J-2.847
N12380 G1 X372.982 Y10.389
N12385 X372.954 Y10.193
N12390 X372.912 Y9.997
N12395 X372.857 Y9.801
N12400 X372.802 Y9.644
N12405 X372.786 Y9.605
N12410 X372.7 Y9.41
N12415 X372.606 Y9.231
N12420 X372.596 Y9.214
N12425 X372.472 Y9.018
N12430 X372.41 Y8.93
N12435 X372.326 Y8.822
N12440 X372.214 Y8.693
N12445 X372.151 Y8.626
N12450 X372.018 Y8.497
N12455 X371.942 Y8.43
N12460 X371.823 Y8.334
N12465 X371.684 Y8.234
N12470 X371.627 Y8.196
N12475 X371.431 Y8.08
N12480 X371.351 Y8.038
N12485 X371.235 Y7.983
N12490 X371.039 Y7.903
N12495 X370.859 Y7.843
N12500 X370.844 Y7.838
N12505 X370.648 Y7.788
N12510 X370.452 Y7.751
N12515 X370.256 Y7.728
N12520 X370.06 Y7.718
N12525 X369.865 Y7.717
N12530 X20.136
N12535 X19.94 Y7.718
N12540 X19.744 Y7.728
N12545 X19.548 Y7.751
N12550 X19.352 Y7.788
N12555 X19.156 Y7.838
N12560 X19.141 Y7.843
N12565 X18.961 Y7.903
N12570 X18.765 Y7.983
N12575 X18.649 Y8.038
N12580 X18.569 Y8.08
N12585 X18.373 Y8.196
N12590 X18.316 Y8.234
N12595 X18.177 Y8.334
N12600 X18.058 Y8.43
N12605 X17.982 Y8.497
N12610 X17.849 Y8.626
N12615 X17.786 Y8.693
N12620 X17.674 Y8.822
N12625 X17.59 Y8.93
N12630 X17.528 Y9.018
N12635 X17.404 Y9.214
N12640 X17.394 Y9.231
N12645 X17.3 Y9.41
N12650 X17.213 Y9.605
N12655 X17.198 Y9.644
N12660 X17.143 Y9.801
N12665 X17.088 Y9.997
N12670 X17.046 Y10.193
N12675 X17.018 Y10.389
N12680 X17.003 Y10.585
N12685 G3 X15.806 Y10.493 I-0.598 J-0.046
N12690 X16.2 Y9.975 I0.598 J0.046
N12695 G2 X16.566 Y9.224 I-0.204 J-0.564
N12700 X11.408 Y8.652 I-2.709 J0.886
N12705 G1 X11.398 Y8.67 F1333.33
N12710 G2 X13.58 Y12.946 Z-5.6 I2.46 J1.44
N12715 G1 X13.601 Y12.948
N12720 X13.905 Y12.976 F4000.
N12725 G2 X17.005 Y10.389 I0.257 J-2.843
N12730 G1 X17.023 Y10.193
N12735 X17.053 Y9.997
N12740 X17.098 Y9.801
N12745 X17.156 Y9.605
N12750 X17.198 Y9.488
N12755 X17.23 Y9.41
N12760 X17.319 Y9.214
N12765 X17.394 Y9.074
N12770 X17.427 Y9.018
N12775 X17.555 Y8.822
N12780 X17.59 Y8.774
N12785 X17.707 Y8.626
N12790 X17.786 Y8.537
N12795 X17.888 Y8.43
N12800 X17.982 Y8.341
N12805 X18.106 Y8.234
N12810 X18.177 Y8.178
N12815 X18.373 Y8.04
N12820 X18.376 Y8.038
N12825 X18.569 Y7.924
N12830 X18.73 Y7.843
N12835 X18.765 Y7.827
N12840 X18.961 Y7.746
N12845 X19.156 Y7.682
N12850 X19.286 Y7.647
N12855 X19.352 Y7.631
N12860 X19.548 Y7.595
N12865 X19.744 Y7.572
N12870 X19.94 Y7.561
N12875 X20.136
N12880 X369.865
N12885 X370.06
N12890 X370.256 Y7.572
N12895 X370.452 Y7.595
N12900 X370.648 Y7.631
N12905 X370.714 Y7.647
N12910 X370.844 Y7.682
N12915 X371.039 Y7.746
N12920 X371.235 Y7.827
N12925 X371.27 Y7.843
N12930 X371.431 Y7.924
N12935 X371.624 Y8.038
N12940 X371.627 Y8.04
N12945 X371.823 Y8.178
N12950 X371.894 Y8.234
N12955 X372.018 Y8.341
N12960 X372.112 Y8.43
N12965 X372.214 Y8.537
N12970 X372.293 Y8.626
N12975 X372.41 Y8.774
N12980 X372.445 Y8.822
N12985 X372.573 Y9.018
N12990 X372.606 Y9.074
N12995 X372.681 Y9.214
N13000 X372.77 Y9.41
N13005 X372.802 Y9.488
N13010 X372.844 Y9.605
N13015 X372.902 Y9.801
N13020 X372.947 Y9.997
N13025 X372.977 Y10.193
N13030 X372.995 Y10.389
N13035 G2 X374.19 Y10.281 I0.598 J-0.054
N13040 X373.834 Y9.785 I-0.598 J0.054
N13045 G3 X373.521 Y9.006 I0.241 J-0.549
N13050 X378.654 Y8.734 I2.632 J1.094
N13055 G1 X378.664 Y8.753 F1333.33
N13060 G3 X376.323 Y12.945 Z-5.8 I-2.512 J1.347
N13065 G1 X376.303 Y12.946
N13070 X375.998 Y12.962 F4000.
N13075 G3 X372.997 Y10.261 I-0.15 J-2.851
N13080 G1 X372.995 Y10.232
N13085 X372.993 Y10.193
N13090 X372.972 Y9.997
N13095 X372.939 Y9.801
N13100 X372.892 Y9.605
N13105 X372.83 Y9.41
N13110 X372.802 Y9.332
N13115 X372.754 Y9.214
N13120 X372.66 Y9.018
N13125 X372.606 Y8.918
N13130 X372.549 Y8.822
N13135 X372.416 Y8.626
N13140 X372.41 Y8.618
N13145 X372.259 Y8.43
N13150 X372.214 Y8.38
N13155 X372.071 Y8.234
N13160 X372.018 Y8.185
N13165 X371.845 Y8.038
N13170 X371.823 Y8.022
N13175 X371.627 Y7.884
N13180 X371.561 Y7.843
N13185 X371.431 Y7.768
N13190 X371.235 Y7.67
N13195 X371.181 Y7.647
N13200 X371.039 Y7.59
N13205 X370.844 Y7.525
N13210 X370.648 Y7.475
N13215 X370.526 Y7.451
N13220 X370.452 Y7.439
N13225 X370.256 Y7.415
N13230 X370.06 Y7.405
N13235 X369.865 Y7.404
N13240 X20.136
N13245 X19.94 Y7.405
N13250 X19.744 Y7.415
N13255 X19.548 Y7.439
N13260 X19.474 Y7.451
N13265 X19.352 Y7.475
N13270 X19.156 Y7.525
N13275 X18.961 Y7.59
N13280 X18.819 Y7.647
N13285 X18.765 Y7.67
N13290 X18.569 Y7.768
N13295 X18.439 Y7.843
N13300 X18.373 Y7.884
N13305 X18.177 Y8.022
N13310 X18.155 Y8.038
N13315 X17.982 Y8.185
N13320 X17.929 Y8.234
N13325 X17.786 Y8.38
N13330 X17.741 Y8.43
N13335 X17.59 Y8.618
N13340 X17.584 Y8.626
N13345 X17.451 Y8.822
N13350 X17.394 Y8.918
N13355 X17.34 Y9.018
N13360 X17.246 Y9.214
N13365 X17.198 Y9.332
N13370 X17.17 Y9.41
N13375 X17.108 Y9.605
N13380 X17.061 Y9.801
N13385 X17.028 Y9.997
N13390 X17.007 Y10.193
N13395 X17.005 Y10.232
N13400 X17.003 Y10.261
N13405 G3 X15.805 Y10.198 I-0.599 J-0.032
N13410 X16.184 Y9.672 I0.599 J0.032
N13415 G2 X16.526 Y8.907 I-0.221 J-0.558
N13420 X11.361 Y8.501 I-2.676 J0.981
N13425 G1 X11.351 Y8.519 F1333.33
N13430 G2 X13.655 Y12.732 Z-6. I2.5 J1.369
N13435 G1 X13.676 Y12.733
N13440 X13.98 Y12.752 F4000.
N13445 G2 X17.005 Y10.077 I0.175 J-2.85
N13450 G1 X17.007 Y10.051
N13455 X17.011 Y9.997
N13460 X17.033 Y9.801
N13465 X17.07 Y9.605
N13470 X17.12 Y9.41
N13475 X17.184 Y9.214
N13480 X17.198 Y9.176
N13485 X17.264 Y9.018
N13490 X17.361 Y8.822
N13495 X17.394 Y8.762
N13500 X17.476 Y8.626
N13505 X17.59 Y8.462
N13510 X17.614 Y8.43
N13515 X17.776 Y8.234
N13520 X17.786 Y8.224
N13525 X17.971 Y8.038
N13530 X17.982 Y8.029
N13535 X18.177 Y7.865
N13540 X18.207 Y7.843
N13545 X18.373 Y7.728
N13550 X18.506 Y7.647
N13555 X18.569 Y7.611
N13560 X18.765 Y7.514
N13565 X18.916 Y7.451
N13570 X18.961 Y7.434
N13575 X19.156 Y7.369
N13580 X19.352 Y7.319
N13585 X19.548 Y7.282
N13590 X19.744 Y7.259
N13595 X19.797 Y7.255
N13600 X19.94 Y7.249
N13605 X20.136 Y7.248
N13610 X369.865
N13615 X370.06 Y7.249
N13620 X370.203 Y7.255
N13625 X370.256 Y7.259
N13630 X370.452 Y7.282
N13635 X370.648 Y7.319
N13640 X370.844 Y7.369
N13645 X371.039 Y7.434
N13650 X371.084 Y7.451
N13655 X371.235 Y7.514
N13660 X371.431 Y7.611
N13665 X371.494 Y7.647
N13670 X371.627 Y7.728
N13675 X371.793 Y7.843
N13680 X371.823 Y7.865
N13685 X372.018 Y8.029
N13690 X372.029 Y8.038
N13695 X372.214 Y8.224
N13700 X372.224 Y8.234
N13705 X372.386 Y8.43
N13710 X372.41 Y8.462
N13715 X372.524 Y8.626
N13720 X372.606 Y8.762
N13725 X372.639 Y8.822
N13730 X372.736 Y9.018
N13735 X372.802 Y9.176
N13740 X372.816 Y9.214
N13745 X372.88 Y9.41
N13750 X372.93 Y9.605
N13755 X372.967 Y9.801
N13760 X372.989 Y9.997
N13765 X372.993 Y10.051
N13770 X372.995 Y10.077
N13775 G2 X374.193 Y10.004 I0.599 J-0.037
N13780 X373.825 Y9.487 I-0.599 J0.037
N13785 G3 X373.497 Y8.714 I0.231 J-0.554
N13790 X378.646 Y8.376 I2.654 J1.039
N13795 G1 X378.656 Y8.394 F1333.33
N13800 G3 X376.334 Y12.597 Z-6.2 I-2.505 J1.358
N13805 G1 X376.314 Y12.598
N13810 X376.009 Y12.615 F4000.
N13815 G3 X372.996 Y9.928 I-0.163 J-2.85
N13820 G1 X372.995 Y9.912
N13825 X372.993 Y9.893
N13830 X372.992 Y9.869
N13835 X372.986 Y9.801
N13840 X372.96 Y9.605
N13845 X372.921 Y9.41
N13850 X372.869 Y9.214
N13855 X372.802 Y9.019
N13860 X372.801 Y9.018
N13865 X372.718 Y8.822
N13870 X372.618 Y8.626
N13875 X372.606 Y8.606
N13880 X372.498 Y8.43
N13885 X372.41 Y8.305
N13890 X372.356 Y8.234
N13895 X372.214 Y8.068
N13900 X372.187 Y8.038
N13905 X372.018 Y7.872
N13910 X371.985 Y7.843
N13915 X371.823 Y7.709
N13920 X371.738 Y7.647
N13925 X371.627 Y7.571
N13930 X371.431 Y7.455
N13935 X371.423 Y7.451
N13940 X371.235 Y7.358
N13945 X371.039 Y7.278
N13950 X370.976 Y7.255
N13955 X370.844 Y7.213
N13960 X370.648 Y7.163
N13965 X370.452 Y7.126
N13970 X370.256 Y7.103
N13975 X370.06 Y7.092
N13980 X369.865
N13985 X20.136
N13990 X19.94
N13995 X19.744 Y7.103
N14000 X19.548 Y7.126
N14005 X19.352 Y7.163
N14010 X19.156 Y7.213
N14015 X19.024 Y7.255
N14020 X18.961 Y7.278
N14025 X18.765 Y7.358
N14030 X18.577 Y7.451
N14035 X18.569 Y7.455
N14040 X18.373 Y7.571
N14045 X18.262 Y7.647
N14050 X18.177 Y7.709
N14055 X18.015 Y7.843
N14060 X17.982 Y7.872
N14065 X17.813 Y8.038
N14070 X17.786 Y8.068
N14075 X17.644 Y8.234
N14080 X17.59 Y8.305
N14085 X17.502 Y8.43
N14090 X17.394 Y8.606
N14095 X17.382 Y8.626
N14100 X17.282 Y8.822
N14105 X17.199 Y9.018
N14110 X17.198 Y9.019
N14115 X17.131 Y9.214
N14120 X17.079 Y9.41
N14125 X17.04 Y9.605
N14130 X17.014 Y9.801
N14135 X17.008 Y9.869
N14140 X17.007 Y9.893
N14145 X17.005 Y9.912
N14150 X17.004 Y9.928
N14155 G3 X15.806 Y9.86 I-0.599 J-0.034
N14160 X16.184 Y9.337 I0.599 J0.034
N14165 G2 X16.524 Y8.57 I-0.222 J-0.557
N14170 X11.385 Y8.134 I-2.672 J0.991
N14175 G1 X11.375 Y8.153 F1333.33
N14180 G2 X13.61 Y12.401 Z-6.4 I2.477 J1.409
N14185 G1 X13.631 Y12.403
N14190 X13.935 Y12.427 F4000.
N14195 G2 X17.003 Y9.801 I0.221 J-2.846
N14200 G1 X17.018 Y9.605
N14205 X17.046 Y9.41
N14210 X17.088 Y9.214
N14215 X17.144 Y9.018
N14220 X17.198 Y8.863
N14225 X17.214 Y8.822
N14230 X17.301 Y8.626
N14235 X17.394 Y8.449
N14240 X17.405 Y8.43
N14245 X17.529 Y8.234
N14250 X17.59 Y8.149
N14255 X17.676 Y8.038
N14260 X17.786 Y7.912
N14265 X17.851 Y7.843
N14270 X17.982 Y7.716
N14275 X18.061 Y7.647
N14280 X18.177 Y7.553
N14285 X18.319 Y7.451
N14290 X18.373 Y7.415
N14295 X18.569 Y7.299
N14300 X18.653 Y7.255
N14305 X18.765 Y7.202
N14310 X18.961 Y7.121
N14315 X19.148 Y7.059
N14320 X19.156 Y7.057
N14325 X19.352 Y7.006
N14330 X19.548 Y6.97
N14335 X19.744 Y6.947
N14340 X19.94 Y6.936
N14345 X20.136
N14350 X369.865
N14355 X370.06
N14360 X370.256 Y6.947
N14365 X370.452 Y6.97
N14370 X370.648 Y7.006
N14375 X370.844 Y7.057
N14380 X370.852 Y7.059
N14385 X371.039 Y7.121
N14390 X371.235 Y7.202
N14395 X371.347 Y7.255
N14400 X371.431 Y7.299
N14405 X371.627 Y7.415
N14410 X371.681 Y7.451
N14415 X371.823 Y7.553
N14420 X371.939 Y7.647
N14425 X372.018 Y7.716
N14430 X372.149 Y7.843
N14435 X372.214 Y7.912
N14440 X372.324 Y8.038
N14445 X372.41 Y8.149
N14450 X372.471 Y8.234
N14455 X372.595 Y8.43
N14460 X372.606 Y8.449
N14465 X372.699 Y8.626
N14470 X372.786 Y8.822
N14475 X372.802 Y8.863
N14480 X372.856 Y9.018
N14485 X372.912 Y9.214
N14490 X372.954 Y9.41
N14495 X372.982 Y9.605
N14500 X372.997 Y9.801
N14505 G2 X374.193 Y9.708 I0.598 J-0.046
N14510 X373.829 Y9.202 I-0.598 J0.046
N14515 G3 X373.506 Y8.427 I0.234 J-0.552
N14520 X378.659 Y8.128 I2.647 J1.057
N14525 G1 X378.669 Y8.147 F1333.33
N14530 G3 X376.314 Y12.33 Z-6.6 I-2.516 J1.338
N14535 G1 X376.293 Y12.331
N14540 X375.988 Y12.346 F4000.
N14545 G3 X372.997 Y9.635 I-0.14 J-2.852
N14550 G1 X372.996 Y9.629
N14555 X372.995 Y9.605
N14560 X372.977 Y9.41
N14565 X372.946 Y9.214
N14570 X372.902 Y9.018
N14575 X372.843 Y8.822
N14580 X372.802 Y8.707
N14585 X372.769 Y8.626
N14590 X372.68 Y8.43
N14595 X372.606 Y8.293
N14600 X372.572 Y8.234
N14605 X372.443 Y8.038
N14610 X372.41 Y7.993
N14615 X372.291 Y7.843
N14620 X372.214 Y7.755
N14625 X372.11 Y7.647
N14630 X372.018 Y7.56
N14635 X371.892 Y7.451
N14640 X371.823 Y7.397
N14645 X371.627 Y7.259
N14650 X371.621 Y7.255
N14655 X371.431 Y7.143
N14660 X371.265 Y7.059
N14665 X371.235 Y7.045
N14670 X371.039 Y6.965
N14675 X370.844 Y6.9
N14680 X370.705 Y6.863
N14685 X370.648 Y6.85
N14690 X370.452 Y6.814
N14695 X370.256 Y6.79
N14700 X370.06 Y6.78
N14705 X369.865 Y6.779
N14710 X20.136
N14715 X19.94 Y6.78
N14720 X19.744 Y6.79
N14725 X19.548 Y6.814
N14730 X19.352 Y6.85
N14735 X19.295 Y6.863
N14740 X19.156 Y6.9
N14745 X18.961 Y6.965
N14750 X18.765 Y7.045
N14755 X18.735 Y7.059
N14760 X18.569 Y7.143
N14765 X18.379 Y7.255
N14770 X18.373 Y7.259
N14775 X18.177 Y7.397
N14780 X18.108 Y7.451
N14785 X17.982 Y7.56
N14790 X17.89 Y7.647
N14795 X17.786 Y7.755
N14800 X17.709 Y7.843
N14805 X17.59 Y7.993
N14810 X17.557 Y8.038
N14815 X17.428 Y8.234
N14820 X17.394 Y8.293
N14825 X17.32 Y8.43
N14830 X17.231 Y8.626
N14835 X17.198 Y8.707
N14840 X17.157 Y8.822
N14845 X17.098 Y9.018
N14850 X17.054 Y9.214
N14855 X17.023 Y9.41
N14860 X17.005 Y9.605
N14865 X17.004 Y9.629
N14870 X17.003 Y9.635
N14875 G3 X15.805 Y9.576 I-0.599 J-0.029
N14880 X16.174 Y9.051 I0.599 J0.029
N14885 G2 X16.503 Y8.279 I-0.23 J-0.554
N14890 X11.347 Y7.949 I-2.655 J1.036
N14895 G1 X11.337 Y7.967 F1333.33
N14900 G2 X13.675 Y12.16 Z-6.8 I2.511 J1.348
N14905 G1 X13.696 Y12.161
N14910 X14.001 Y12.178 F4000.
N14915 G2 X17.003 Y9.478 I0.152 J-2.851
N14920 G1 X17.005 Y9.449
N14925 X17.008 Y9.41
N14930 X17.028 Y9.214
N14935 X17.062 Y9.018
N14940 X17.109 Y8.822
N14945 X17.171 Y8.626
N14950 X17.198 Y8.551
N14955 X17.247 Y8.43
N14960 X17.341 Y8.234
N14965 X17.394 Y8.137
N14970 X17.453 Y8.038
N14975 X17.585 Y7.843
N14980 X17.59 Y7.837
N14985 X17.743 Y7.647
N14990 X17.786 Y7.599
N14995 X17.931 Y7.451
N15000 X17.982 Y7.404
N15005 X18.158 Y7.255
N15010 X18.177 Y7.24
N15015 X18.373 Y7.103
N15020 X18.442 Y7.059
N15025 X18.569 Y6.986
N15030 X18.765 Y6.889
N15035 X18.824 Y6.863
N15040 X18.961 Y6.809
N15045 X19.156 Y6.744
N15050 X19.352 Y6.694
N15055 X19.486 Y6.667
N15060 X19.548 Y6.657
N15065 X19.744 Y6.634
N15070 X19.94 Y6.624
N15075 X20.136 Y6.623
N15080 X369.865
N15085 X370.06 Y6.624
N15090 X370.256 Y6.634
N15095 X370.452 Y6.657
N15100 X370.514 Y6.667
N15105 X370.648 Y6.694
N15110 X370.844 Y6.744
N15115 X371.039 Y6.809
N15120 X371.176 Y6.863
N15125 X371.235 Y6.889
N15130 X371.431 Y6.986
N15135 X371.558 Y7.059
N15140 X371.627 Y7.103
N15145 X371.823 Y7.24
N15150 X371.842 Y7.255
N15155 X372.018 Y7.404
N15160 X372.069 Y7.451
N15165 X372.214 Y7.599
N15170 X372.257 Y7.647
N15175 X372.41 Y7.837
N15180 X372.415 Y7.843
N15185 X372.547 Y8.038
N15190 X372.606 Y8.137
N15195 X372.659 Y8.234
N15200 X372.753 Y8.43
N15205 X372.802 Y8.551
N15210 X372.829 Y8.626
N15215 X372.891 Y8.822
N15220 X372.938 Y9.018
N15225 X372.972 Y9.214
N15230 X372.992 Y9.41
N15235 X372.995 Y9.449
N15240 X372.996 Y9.478
N15245 G2 X374.195 Y9.415 I0.599 J-0.032
N15250 X373.816 Y8.888 I-0.599 J0.032
N15255 G3 X373.473 Y8.124 I0.22 J-0.558
N15260 X378.638 Y7.716 I2.676 J0.98
N15265 G1 X378.648 Y7.734 F1333.33
N15270 G3 X376.347 Y11.947 Z-7. I-2.499 J1.37
N15275 G1 X376.326 Y11.949
N15280 X376.021 Y11.967 F4000.
N15285 G3 X372.995 Y9.295 I-0.177 J-2.85
N15290 G1 X372.993 Y9.268
N15295 X372.989 Y9.214
N15300 X372.966 Y9.018
N15305 X372.93 Y8.822
N15310 X372.88 Y8.626
N15315 X372.815 Y8.43
N15320 X372.802 Y8.394
N15325 X372.735 Y8.234
N15330 X372.638 Y8.038
N15335 X372.606 Y7.981
N15340 X372.522 Y7.843
N15345 X372.41 Y7.68
N15350 X372.385 Y7.647
N15355 X372.222 Y7.451
N15360 X372.214 Y7.443
N15365 X372.027 Y7.255
N15370 X372.018 Y7.247
N15375 X371.823 Y7.084
N15380 X371.79 Y7.059
N15385 X371.627 Y6.946
N15390 X371.49 Y6.863
N15395 X371.431 Y6.83
N15400 X371.235 Y6.733
N15405 X371.079 Y6.667
N15410 X371.039 Y6.653
N15415 X370.844 Y6.588
N15420 X370.648 Y6.538
N15425 X370.452 Y6.501
N15430 X370.256 Y6.478
N15435 X370.168 Y6.472
N15440 X370.06 Y6.467
N15445 X369.865
N15450 X20.136
N15455 X19.94
N15460 X19.832 Y6.472
N15465 X19.744 Y6.478
N15470 X19.548 Y6.501
N15475 X19.352 Y6.538
N15480 X19.156 Y6.588
N15485 X18.961 Y6.653
N15490 X18.921 Y6.667
N15495 X18.765 Y6.733
N15500 X18.569 Y6.83
N15505 X18.51 Y6.863
N15510 X18.373 Y6.946
N15515 X18.21 Y7.059
N15520 X18.177 Y7.084
N15525 X17.982 Y7.247
N15530 X17.973 Y7.255
N15535 X17.786 Y7.443
N15540 X17.778 Y7.451
N15545 X17.615 Y7.647
N15550 X17.59 Y7.68
N15555 X17.478 Y7.843
N15560 X17.394 Y7.981
N15565 X17.362 Y8.038
N15570 X17.265 Y8.234
N15575 X17.198 Y8.394
N15580 X17.185 Y8.43
N15585 X17.12 Y8.626
N15590 X17.07 Y8.822
N15595 X17.034 Y9.018
N15600 X17.011 Y9.214
N15605 X17.007 Y9.268
N15610 X17.005 Y9.295
N15615 G3 X15.807 Y9.22 I-0.599 J-0.037
N15620 X16.176 Y8.703 I0.599 J0.037
N15625 G2 X16.504 Y7.931 I-0.23 J-0.554
N15630 X11.355 Y7.59 I-2.655 J1.037
N15635 G1 X11.345 Y7.608 F1333.33
N15640 G2 X13.664 Y11.812 Z-7.2 I2.505 J1.36
N15645 G1 X13.685 Y11.813
N15650 X13.989 Y11.831 F4000.
N15655 G2 X17.005 Y9.145 I0.165 J-2.85
N15660 G1 Y9.129
N15665 X17.007 Y9.11
N15670 X17.008 Y9.086
N15675 X17.014 Y9.018
N15680 X17.04 Y8.822
N15685 X17.079 Y8.626
N15690 X17.132 Y8.43
N15695 X17.198 Y8.238
N15700 X17.2 Y8.234
N15705 X17.283 Y8.038
N15710 X17.384 Y7.843
N15715 X17.394 Y7.824
N15720 X17.504 Y7.647
N15725 X17.59 Y7.524
N15730 X17.646 Y7.451
N15735 X17.786 Y7.287
N15740 X17.815 Y7.255
N15745 X17.982 Y7.091
N15750 X18.017 Y7.059
N15755 X18.177 Y6.928
N15760 X18.265 Y6.863
N15765 X18.373 Y6.79
N15770 X18.569 Y6.674
N15775 X18.581 Y6.667
N15780 X18.765 Y6.577
N15785 X18.961 Y6.496
N15790 X19.031 Y6.472
N15795 X19.156 Y6.432
N15800 X19.352 Y6.381
N15805 X19.548 Y6.345
N15810 X19.744 Y6.322
N15815 X19.94 Y6.311
N15820 X20.136
N15825 X369.865
N15830 X370.06
N15835 X370.256 Y6.322
N15840 X370.452 Y6.345
N15845 X370.648 Y6.381
N15850 X370.844 Y6.432
N15855 X370.969 Y6.472
N15860 X371.039 Y6.496
N15865 X371.235 Y6.577
N15870 X371.419 Y6.667
N15875 X371.431 Y6.674
N15880 X371.627 Y6.79
N15885 X371.735 Y6.863
N15890 X371.823 Y6.928
N15895 X371.983 Y7.059
N15900 X372.018 Y7.091
N15905 X372.185 Y7.255
N15910 X372.214 Y7.287
N15915 X372.354 Y7.451
N15920 X372.41 Y7.524
N15925 X372.496 Y7.647
N15930 X372.606 Y7.824
N15935 X372.616 Y7.843
N15940 X372.717 Y8.038
N15945 X372.8 Y8.234
N15950 X372.802 Y8.238
N15955 X372.868 Y8.43
N15960 X372.921 Y8.626
N15965 X372.96 Y8.822
N15970 X372.986 Y9.018
N15975 X372.992 Y9.086
N15980 X372.993 Y9.11
N15985 X372.995 Y9.129
N15990 Y9.145
N15995 G2 X374.193 Y9.076 I0.599 J-0.035
N16000 X373.816 Y8.553 I-0.599 J0.035
N16005 G3 X373.475 Y7.787 I0.221 J-0.558
N16010 X378.613 Y7.347 I2.673 J0.989
N16015 G1 X378.624 Y7.365 F1333.33
N16020 G3 X376.391 Y11.615 Z-7.4 I-2.476 J1.411
N16025 G1 X376.37 Y11.617
N16030 X376.066 Y11.641 F4000.
N16035 G3 X372.997 Y9.018 I-0.223 J-2.846
N16040 G1 X372.982 Y8.822
N16045 X372.953 Y8.626
N16050 X372.911 Y8.43
N16055 X372.855 Y8.234
N16060 X372.802 Y8.082
N16065 X372.785 Y8.038
N16070 X372.698 Y7.843
N16075 X372.606 Y7.668
N16080 X372.594 Y7.647
N16085 X372.469 Y7.451
N16090 X372.41 Y7.368
N16095 X372.322 Y7.255
N16100 X372.214 Y7.13
N16105 X372.147 Y7.059
N16110 X372.018 Y6.935
N16115 X371.937 Y6.863
N16120 X371.823 Y6.771
N16125 X371.678 Y6.667
N16130 X371.627 Y6.634
N16135 X371.431 Y6.518
N16140 X371.343 Y6.472
N16145 X371.235 Y6.42
N16150 X371.039 Y6.34
N16155 X370.845 Y6.276
N16160 X370.844 Y6.275
N16165 X370.648 Y6.225
N16170 X370.452 Y6.189
N16175 X370.256 Y6.165
N16180 X370.06 Y6.155
N16185 X369.865 Y6.154
N16190 X20.136
N16195 X19.94 Y6.155
N16200 X19.744 Y6.165
N16205 X19.548 Y6.189
N16210 X19.352 Y6.225
N16215 X19.156 Y6.275
N16220 X19.155 Y6.276
N16225 X18.961 Y6.34
N16230 X18.765 Y6.42
N16235 X18.657 Y6.472
N16240 X18.569 Y6.518
N16245 X18.373 Y6.634
N16250 X18.322 Y6.667
N16255 X18.177 Y6.771
N16260 X18.063 Y6.863
N16265 X17.982 Y6.935
N16270 X17.853 Y7.059
N16275 X17.786 Y7.13
N16280 X17.678 Y7.255
N16285 X17.59 Y7.368
N16290 X17.531 Y7.451
N16295 X17.406 Y7.647
N16300 X17.394 Y7.668
N16305 X17.302 Y7.843
N16310 X17.215 Y8.038
N16315 X17.198 Y8.082
N16320 X17.145 Y8.234
N16325 X17.089 Y8.43
N16330 X17.047 Y8.626
N16335 X17.018 Y8.822
N16340 X17.003 Y9.018
N16345 G3 X15.807 Y8.924 I-0.598 J-0.047
N16350 X16.171 Y8.418 I0.598 J0.047
N16355 G2 X16.494 Y7.643 I-0.234 J-0.552
N16360 X11.341 Y7.343 I-2.647 J1.057
N16365 G1 X11.331 Y7.362 F1333.33
N16370 G2 X13.685 Y11.546 Z-7.6 I2.516 J1.339
N16375 G1 X13.706 Y11.547
N16380 X14.011 Y11.562 F4000.
N16385 G2 X17.004 Y8.852 I0.141 J-2.851
N16390 G1 Y8.846
N16395 X17.005 Y8.822
N16400 X17.023 Y8.626
N16405 X17.054 Y8.43
N16410 X17.099 Y8.234
N16415 X17.158 Y8.038
N16420 X17.198 Y7.926
N16425 X17.231 Y7.843
N16430 X17.322 Y7.647
N16435 X17.394 Y7.512
N16440 X17.43 Y7.451
N16445 X17.558 Y7.255
N16450 X17.59 Y7.212
N16455 X17.711 Y7.059
N16460 X17.786 Y6.974
N16465 X17.892 Y6.863
N16470 X17.982 Y6.779
N16475 X18.111 Y6.667
N16480 X18.177 Y6.615
N16485 X18.373 Y6.477
N16490 X18.382 Y6.472
N16495 X18.569 Y6.361
N16500 X18.74 Y6.276
N16505 X18.765 Y6.264
N16510 X18.961 Y6.184
N16515 X19.156 Y6.119
N16520 X19.304 Y6.08
N16525 X19.352 Y6.069
N16530 X19.548 Y6.032
N16535 X19.744 Y6.009
N16540 X19.94 Y5.999
N16545 X20.136 Y5.998
N16550 X369.865
N16555 X370.06 Y5.999
N16560 X370.256 Y6.009
N16565 X370.452 Y6.032
N16570 X370.648 Y6.069
N16575 X370.696 Y6.08
N16580 X370.844 Y6.119
N16585 X371.039 Y6.184
N16590 X371.235 Y6.264
N16595 X371.26 Y6.276
N16600 X371.431 Y6.361
N16605 X371.618 Y6.472
N16610 X371.627 Y6.477
N16615 X371.823 Y6.615
N16620 X371.889 Y6.667
N16625 X372.018 Y6.779
N16630 X372.108 Y6.863
N16635 X372.214 Y6.974
N16640 X372.289 Y7.059
N16645 X372.41 Y7.212
N16650 X372.442 Y7.255
N16655 X372.57 Y7.451
N16660 X372.606 Y7.512
N16665 X372.678 Y7.647
N16670 X372.769 Y7.843
N16675 X372.802 Y7.926
N16680 X372.842 Y8.038
N16685 X372.901 Y8.234
N16690 X372.946 Y8.43
N16695 X372.977 Y8.626
N16700 X372.995 Y8.822
N16705 X372.996 Y8.846
N16710 Y8.852
N16715 G2 X374.195 Y8.793 I0.599 J-0.03
N16720 X373.824 Y8.268 I-0.599 J0.03
N16725 G3 X373.492 Y7.497 I0.228 J-0.555
N16730 X378.65 Y7.151 I2.659 J1.025
N16735 G1 X378.66 Y7.169 F1333.33
N16740 G3 X376.33 Y11.367 Z-7.8 I-2.508 J1.353
N16745 G1 X376.309 Y11.368
N16750 X376.004 Y11.385 F4000.
N16755 G3 X372.996 Y8.692 I-0.157 J-2.851
N16760 G1 X372.995 Y8.661
N16765 X372.992 Y8.626
N16770 X372.972 Y8.43
N16775 X372.938 Y8.234
N16780 X372.89 Y8.038
N16785 X372.829 Y7.843
N16790 X372.802 Y7.769
N16795 X372.752 Y7.647
N16800 X372.658 Y7.451
N16805 X372.606 Y7.355
N16810 X372.546 Y7.255
N16815 X372.413 Y7.059
N16820 X372.41 Y7.055
N16825 X372.255 Y6.863
N16830 X372.214 Y6.818
N16835 X372.067 Y6.667
N16840 X372.018 Y6.622
N16845 X371.839 Y6.472
N16850 X371.823 Y6.459
N16855 X371.627 Y6.321
N16860 X371.554 Y6.276
N16865 X371.431 Y6.205
N16870 X371.235 Y6.108
N16875 X371.171 Y6.08
N16880 X371.039 Y6.028
N16885 X370.844 Y5.963
N16890 X370.648 Y5.913
N16895 X370.501 Y5.884
N16900 X370.452 Y5.876
N16905 X370.256 Y5.853
N16910 X370.06 Y5.842
N16915 X369.865
N16920 X20.136
N16925 X19.94
N16930 X19.744 Y5.853
N16935 X19.548 Y5.876
N16940 X19.499 Y5.884
N16945 X19.352 Y5.913
N16950 X19.156 Y5.963
N16955 X18.961 Y6.028
N16960 X18.829 Y6.08
N16965 X18.765 Y6.108
N16970 X18.569 Y6.205
N16975 X18.446 Y6.276
N16980 X18.373 Y6.321
N16985 X18.177 Y6.459
N16990 X18.161 Y6.472
N16995 X17.982 Y6.622
N17000 X17.933 Y6.667
N17005 X17.786 Y6.818
N17010 X17.745 Y6.863
N17015 X17.59 Y7.055
N17020 X17.587 Y7.059
N17025 X17.454 Y7.255
N17030 X17.394 Y7.355
N17035 X17.342 Y7.451
N17040 X17.248 Y7.647
N17045 X17.198 Y7.769
N17050 X17.171 Y7.843
N17055 X17.11 Y8.038
N17060 X17.062 Y8.234
N17065 X17.028 Y8.43
N17070 X17.008 Y8.626
N17075 X17.005 Y8.661
N17080 X17.004 Y8.692
N17085 G3 X15.958 Y9.059 I-0.599 J-0.033
N17090 G1 X15.895 Y8.989 Z-7.793
N17095 X15.834 Y8.921 Z-7.771
N17100 X15.776 Y8.856 Z-7.735
N17105 X15.722 Y8.796 Z-7.685
N17110 X15.675 Y8.743 Z-7.624
N17115 X15.634 Y8.697 Z-7.553
N17120 X15.601 Y8.66 Z-7.472
N17125 X15.577 Y8.634 Z-7.385
N17130 X15.562 Y8.617 Z-7.294
N17135 X15.557 Y8.612 Z-7.2
N17140 G0 Z5.
N17145 X19.512 Y4.667
N17150 Z-7.415
N17155 G1 Z-8. F4000.
N17160 G2 X19.94 Y5.69 I0.426 J0.423
N17165 G1 X20.136 Y5.689
N17170 X369.865
N17175 X370.06 Y5.69
N17180 G2 X370.488 Y4.667 I0.002 J-0.6
N17185 G0 Z5.
N17190 X374.042 Y305.677
N17195 Z0.595
N17200 G1 Z-0.2 F4000.
N17205 G2 X372.996 Y306.045 I-0.447 J0.4
N17210 G1 X372.995 Y306.067
N17215 X372.993 Y306.093
N17220 X372.989 Y306.148
N17225 X372.966 Y306.344
N17230 X372.929 Y306.54
N17235 X372.879 Y306.736
N17240 X372.814 Y306.932
N17245 X372.802 Y306.965
N17250 X372.734 Y307.128
N17255 X372.637 Y307.323
N17260 X372.606 Y307.378
N17265 X372.52 Y307.519
N17270 X372.41 Y307.679
N17275 X372.383 Y307.715
N17280 X372.219 Y307.911
N17285 X372.214 Y307.916
N17290 X372.119 Y308.016
N17295 X372.024 Y308.107
N17300 X372.018 Y308.112
N17305 X371.823 Y308.275
N17310 X371.786 Y308.303
N17315 X371.627 Y308.413
N17320 X371.485 Y308.499
N17325 X371.431 Y308.529
N17330 X371.235 Y308.626
N17335 X371.071 Y308.695
N17340 X371.039 Y308.706
N17345 X370.844 Y308.771
N17350 X370.648 Y308.821
N17355 X370.452 Y308.858
N17360 X370.256 Y308.881
N17365 X370.103 Y308.89
N17370 X370.06 Y308.892
N17375 X369.865
N17380 X20.136
N17385 X19.94
N17390 X19.897 Y308.89
N17395 X19.744 Y308.881
N17400 X19.548 Y308.858
N17405 X19.352 Y308.821
N17410 X19.156 Y308.771
N17415 X18.961 Y308.706
N17420 X18.929 Y308.695
N17425 X18.765 Y308.626
N17430 X18.569 Y308.529
N17435 X18.515 Y308.499
N17440 X18.373 Y308.413
N17445 X18.214 Y308.303
N17450 X18.177 Y308.275
N17455 X17.982 Y308.112
N17460 X17.976 Y308.107
N17465 X17.881 Y308.016
N17470 X17.786 Y307.916
N17475 X17.781 Y307.911
N17480 X17.617 Y307.715
N17485 X17.59 Y307.679
N17490 X17.48 Y307.519
N17495 X17.394 Y307.378
N17500 X17.363 Y307.323
N17505 X17.266 Y307.128
N17510 X17.198 Y306.965
N17515 X17.186 Y306.932
N17520 X17.121 Y306.736
N17525 X17.071 Y306.54
N17530 X17.034 Y306.344
N17535 X17.011 Y306.148
N17540 X17.007 Y306.093
N17545 X17.005 Y306.067
N17550 X17.004 Y306.045
N17555 G2 X15.806 Y306.111 I-0.599 J0.033
N17560 X16.18 Y306.634 I0.599 J-0.033
N17565 G3 X16.516 Y307.402 I-0.225 J0.556
N17570 X11.356 Y307.776 I-2.666 J-1.006
N17575 G1 X11.346 Y307.758 F1333.33
N17580 G3 X13.662 Y303.552 Z-0.4 I2.504 J-1.362
N17585 G1 X13.683 Y303.551
N17590 X13.988 Y303.533 F4000.
N17595 G3 X17.005 Y306.216 I0.167 J2.85
N17600 G1 X17.006 Y306.232
N17605 X17.007 Y306.251
N17610 X17.009 Y306.275
N17615 X17.015 Y306.344
N17620 X17.041 Y306.54
N17625 X17.08 Y306.736
N17630 X17.133 Y306.932
N17635 X17.198 Y307.121
N17640 X17.201 Y307.128
N17645 X17.284 Y307.323
N17650 X17.385 Y307.519
N17655 X17.394 Y307.535
N17660 X17.506 Y307.715
N17665 X17.59 Y307.835
N17670 X17.648 Y307.911
N17675 X17.786 Y308.072
N17680 X17.818 Y308.107
N17685 X17.982 Y308.268
N17690 X18.021 Y308.303
N17695 X18.177 Y308.431
N17700 X18.269 Y308.499
N17705 X18.373 Y308.569
N17710 X18.569 Y308.685
N17715 X18.586 Y308.695
N17720 X18.765 Y308.782
N17725 X18.961 Y308.863
N17730 X19.039 Y308.89
N17735 X19.156 Y308.927
N17740 X19.352 Y308.978
N17745 X19.548 Y309.014
N17750 X19.744 Y309.037
N17755 X19.94 Y309.048
N17760 X20.136
N17765 X369.865
N17770 X370.06
N17775 X370.256 Y309.037
N17780 X370.452 Y309.014
N17785 X370.648 Y308.978
N17790 X370.844 Y308.927
N17795 X370.961 Y308.89
N17800 X371.039 Y308.863
N17805 X371.235 Y308.782
N17810 X371.414 Y308.695
N17815 X371.431 Y308.685
N17820 X371.627 Y308.569
N17825 X371.731 Y308.499
N17830 X371.823 Y308.431
N17835 X371.979 Y308.303
N17840 X372.018 Y308.268
N17845 X372.182 Y308.107
N17850 X372.214 Y308.072
N17855 X372.352 Y307.911
N17860 X372.41 Y307.835
N17865 X372.494 Y307.715
N17870 X372.606 Y307.535
N17875 X372.615 Y307.519
N17880 X372.716 Y307.323
N17885 X372.799 Y307.128
N17890 X372.802 Y307.121
N17895 X372.867 Y306.932
N17900 X372.92 Y306.736
N17905 X372.959 Y306.54
N17910 X372.985 Y306.344
N17915 X372.991 Y306.275
N17920 X372.993 Y306.251
N17925 X372.994 Y306.232
N17930 X372.995 Y306.216
N17935 G3 X374.193 Y306.286 I0.599 J0.035
N17940 X373.815 Y306.809 I-0.599 J-0.035
N17945 G2 X373.473 Y307.574 I0.221 J0.558
N17950 X378.612 Y308.021 I2.674 J-0.985
N17955 G1 X378.622 Y308.003 F1333.33
N17960 G2 X376.394 Y303.75 Z-0.6 I-2.475 J-1.413
N17965 G1 X376.373 Y303.748
N17970 X376.069 Y303.724 F4000.
N17975 G2 X372.997 Y306.344 I-0.226 J2.846
N17980 G1 X372.981 Y306.54
N17985 X372.953 Y306.736
N17990 X372.911 Y306.932
N17995 X372.855 Y307.128
N18000 X372.802 Y307.277
N18005 X372.784 Y307.323
N18010 X372.697 Y307.519
N18015 X372.606 Y307.691
N18020 X372.592 Y307.715
N18025 X372.467 Y307.911
N18030 X372.41 Y307.991
N18035 X372.32 Y308.107
N18040 X372.214 Y308.229
N18045 X372.144 Y308.303
N18050 X372.018 Y308.424
N18055 X371.933 Y308.499
N18060 X371.823 Y308.587
N18065 X371.673 Y308.695
N18070 X371.627 Y308.725
N18075 X371.431 Y308.841
N18080 X371.337 Y308.89
N18085 X371.235 Y308.939
N18090 X371.039 Y309.019
N18095 X370.844 Y309.084
N18100 X370.835 Y309.086
N18105 X370.648 Y309.134
N18110 X370.452 Y309.17
N18115 X370.256 Y309.194
N18120 X370.06 Y309.204
N18125 X369.865 Y309.205
N18130 X20.136
N18135 X19.94 Y309.204
N18140 X19.744 Y309.194
N18145 X19.548 Y309.17
N18150 X19.352 Y309.134
N18155 X19.165 Y309.086
N18160 X19.156 Y309.084
N18165 X18.961 Y309.019
N18170 X18.765 Y308.939
N18175 X18.663 Y308.89
N18180 X18.569 Y308.841
N18185 X18.373 Y308.725
N18190 X18.326 Y308.695
N18195 X18.177 Y308.587
N18200 X18.067 Y308.499
N18205 X17.982 Y308.424
N18210 X17.856 Y308.303
N18215 X17.786 Y308.229
N18220 X17.68 Y308.107
N18225 X17.59 Y307.991
N18230 X17.533 Y307.911
N18235 X17.408 Y307.715
N18240 X17.394 Y307.691
N18245 X17.303 Y307.519
N18250 X17.216 Y307.323
N18255 X17.198 Y307.277
N18260 X17.145 Y307.128
N18265 X17.089 Y306.932
N18270 X17.047 Y306.736
N18275 X17.019 Y306.54
N18280 X17.003 Y306.344
N18285 G2 X15.807 Y306.439 I-0.598 J0.048
N18290 X16.171 Y306.944 I0.598 J-0.048
N18295 G3 X16.494 Y307.719 I-0.234 J0.552
N18300 X11.342 Y308.021 I-2.647 J-1.057
N18305 G1 X11.332 Y308.002 F1333.33
N18310 G3 X13.684 Y303.816 Z-0.8 I2.515 J-1.341
N18315 G1 X13.704 Y303.815
N18320 X14.009 Y303.8 F4000.
N18325 G3 X17.004 Y306.508 I0.143 J2.851
N18330 G1 Y306.514
N18335 X17.005 Y306.54
N18340 X17.024 Y306.736
N18345 X17.055 Y306.932
N18350 X17.1 Y307.128
N18355 X17.159 Y307.323
N18360 X17.198 Y307.433
N18365 X17.233 Y307.519
N18370 X17.323 Y307.715
N18375 X17.394 Y307.847
N18380 X17.432 Y307.911
N18385 X17.56 Y308.107
N18390 X17.59 Y308.147
N18395 X17.713 Y308.303
N18400 X17.786 Y308.385
N18405 X17.895 Y308.499
N18410 X17.982 Y308.58
N18415 X18.115 Y308.695
N18420 X18.177 Y308.744
N18425 X18.373 Y308.882
N18430 X18.387 Y308.89
N18435 X18.569 Y308.998
N18440 X18.746 Y309.086
N18445 X18.765 Y309.095
N18450 X18.961 Y309.175
N18455 X19.156 Y309.24
N18460 X19.317 Y309.282
N18465 X19.352 Y309.29
N18470 X19.548 Y309.327
N18475 X19.744 Y309.35
N18480 X19.94 Y309.36
N18485 X20.136 Y309.361
N18490 X369.865
N18495 X370.06 Y309.36
N18500 X370.256 Y309.35
N18505 X370.452 Y309.327
N18510 X370.648 Y309.29
N18515 X370.683 Y309.282
N18520 X370.844 Y309.24
N18525 X371.039 Y309.175
N18530 X371.235 Y309.095
N18535 X371.254 Y309.086
N18540 X371.431 Y308.998
N18545 X371.613 Y308.89
N18550 X371.627 Y308.882
N18555 X371.823 Y308.744
N18560 X371.885 Y308.695
N18565 X372.018 Y308.58
N18570 X372.105 Y308.499
N18575 X372.214 Y308.385
N18580 X372.287 Y308.303
N18585 X372.41 Y308.147
N18590 X372.44 Y308.107
N18595 X372.568 Y307.911
N18600 X372.606 Y307.847
N18605 X372.677 Y307.715
N18610 X372.767 Y307.519
N18615 X372.802 Y307.433
N18620 X372.841 Y307.323
N18625 X372.9 Y307.128
N18630 X372.945 Y306.932
N18635 X372.976 Y306.736
N18640 X372.995 Y306.54
N18645 X372.996 Y306.514
N18650 Y306.508
N18655 G3 X374.195 Y306.569 I0.599 J0.03
N18660 X373.825 Y307.093 I-0.599 J-0.03
N18665 G2 X373.496 Y307.864 I0.23 J0.554
N18670 X378.651 Y308.201 I2.656 J-1.033
N18675 G1 X378.661 Y308.183 F1333.33
N18680 G2 X376.327 Y303.987 Z-1. I-2.509 J-1.351
N18685 G1 X376.307 Y303.986
N18690 X376.002 Y303.97 F4000.
N18695 G2 X372.996 Y306.665 I-0.155 J2.851
N18700 G1 X372.995 Y306.694
N18705 X372.992 Y306.736
N18710 X372.971 Y306.932
N18715 X372.937 Y307.128
N18720 X372.89 Y307.323
N18725 X372.828 Y307.519
N18730 X372.802 Y307.59
N18735 X372.75 Y307.715
N18740 X372.657 Y307.911
N18745 X372.606 Y308.004
N18750 X372.544 Y308.107
N18755 X372.411 Y308.303
N18760 X372.41 Y308.304
N18765 X372.253 Y308.499
N18770 X372.214 Y308.541
N18775 X372.064 Y308.695
N18780 X372.018 Y308.737
N18785 X371.835 Y308.89
N18790 X371.823 Y308.9
N18795 X371.627 Y309.038
N18800 X371.549 Y309.086
N18805 X371.431 Y309.154
N18810 X371.235 Y309.251
N18815 X371.164 Y309.282
N18820 X371.039 Y309.331
N18825 X370.844 Y309.396
N18830 X370.648 Y309.446
N18835 X370.483 Y309.478
N18840 X370.452 Y309.483
N18845 X370.256 Y309.506
N18850 X370.06 Y309.517
N18855 X369.865
N18860 X20.136
N18865 X19.94
N18870 X19.744 Y309.506
N18875 X19.548 Y309.483
N18880 X19.517 Y309.478
N18885 X19.352 Y309.446
N18890 X19.156 Y309.396
N18895 X18.961 Y309.331
N18900 X18.836 Y309.282
N18905 X18.765 Y309.251
N18910 X18.569 Y309.154
N18915 X18.451 Y309.086
N18920 X18.373 Y309.038
N18925 X18.177 Y308.9
N18930 X18.165 Y308.89
N18935 X17.982 Y308.737
N18940 X17.936 Y308.695
N18945 X17.786 Y308.541
N18950 X17.748 Y308.499
N18955 X17.59 Y308.304
N18960 X17.589 Y308.303
N18965 X17.456 Y308.107
N18970 X17.394 Y308.004
N18975 X17.343 Y307.911
N18980 X17.25 Y307.715
N18985 X17.198 Y307.59
N18990 X17.172 Y307.519
N18995 X17.11 Y307.323
N19000 X17.063 Y307.128
N19005 X17.029 Y306.932
N19010 X17.008 Y306.736
N19015 X17.005 Y306.694
N19020 X17.004 Y306.665
N19025 G2 X15.805 Y306.731 I-0.599 J0.033
N19030 X16.176 Y307.253 I0.599 J-0.033
N19035 G3 X16.507 Y308.024 I-0.229 J0.555
N19040 X11.35 Y308.369 I-2.659 J-1.026
N19045 G1 X11.34 Y308.35 F1333.33
N19050 G3 X13.671 Y304.153 Z-1.2 I2.508 J-1.353
N19055 G1 X13.691 Y304.152
N19060 X13.996 Y304.135 F4000.
N19065 G3 X17.004 Y306.828 I0.157 J2.851
N19070 G1 X17.005 Y306.849
N19075 X17.007 Y306.876
N19080 X17.011 Y306.932
N19085 X17.035 Y307.128
N19090 X17.071 Y307.323
N19095 X17.122 Y307.519
N19100 X17.187 Y307.715
N19105 X17.198 Y307.746
N19110 X17.267 Y307.911
N19115 X17.365 Y308.107
N19120 X17.394 Y308.16
N19125 X17.481 Y308.303
N19130 X17.59 Y308.46
N19135 X17.619 Y308.499
N19140 X17.783 Y308.695
N19145 X17.786 Y308.698
N19150 X17.882 Y308.798
N19155 X17.979 Y308.89
N19160 X17.982 Y308.893
N19165 X18.177 Y309.056
N19170 X18.217 Y309.086
N19175 X18.373 Y309.194
N19180 X18.519 Y309.282
N19185 X18.569 Y309.31
N19190 X18.765 Y309.407
N19195 X18.935 Y309.478
N19200 X18.961 Y309.488
N19205 X19.156 Y309.552
N19210 X19.352 Y309.603
N19215 X19.548 Y309.639
N19220 X19.744 Y309.662
N19225 X19.94 Y309.673
N19230 X20.136
N19235 X369.865
N19240 X370.06
N19245 X370.256 Y309.662
N19250 X370.452 Y309.639
N19255 X370.648 Y309.603
N19260 X370.844 Y309.552
N19265 X371.039 Y309.488
N19270 X371.065 Y309.478
N19275 X371.235 Y309.407
N19280 X371.431 Y309.31
N19285 X371.481 Y309.282
N19290 X371.627 Y309.194
N19295 X371.783 Y309.086
N19300 X371.823 Y309.056
N19305 X372.018 Y308.893
N19310 X372.021 Y308.89
N19315 X372.118 Y308.798
N19320 X372.214 Y308.698
N19325 X372.217 Y308.695
N19330 X372.381 Y308.499
N19335 X372.41 Y308.46
N19340 X372.519 Y308.303
N19345 X372.606 Y308.16
N19350 X372.635 Y308.107
N19355 X372.733 Y307.911
N19360 X372.802 Y307.746
N19365 X372.813 Y307.715
N19370 X372.878 Y307.519
N19375 X372.929 Y307.323
N19380 X372.965 Y307.128
N19385 X372.989 Y306.932
N19390 X372.993 Y306.876
N19395 X372.995 Y306.849
N19400 X372.996 Y306.828
N19405 G3 X374.194 Y306.894 I0.599 J0.033
N19410 X373.82 Y307.418 I-0.599 J-0.033
N19415 G2 X373.483 Y308.185 I0.225 J0.556
N19420 X378.643 Y308.562 I2.667 J-1.004
N19425 G1 X378.653 Y308.544 F1333.33
N19430 G2 X376.339 Y304.337 Z-1.4 I-2.503 J-1.363
N19435 G1 X376.318 Y304.336
N19440 X376.014 Y304.318 F4000.
N19445 G2 X372.995 Y306.999 I-0.169 J2.85
N19450 G1 X372.994 Y307.015
N19455 X372.993 Y307.034
N19460 X372.991 Y307.058
N19465 X372.985 Y307.128
N19470 X372.959 Y307.323
N19475 X372.92 Y307.519
N19480 X372.866 Y307.715
N19485 X372.802 Y307.902
N19490 X372.798 Y307.911
N19495 X372.715 Y308.107
N19500 X372.613 Y308.303
N19505 X372.606 Y308.316
N19510 X372.493 Y308.499
N19515 X372.41 Y308.616
N19520 X372.35 Y308.695
N19525 X372.214 Y308.854
N19530 X372.18 Y308.89
N19535 X372.018 Y309.049
N19540 X371.977 Y309.086
N19545 X371.823 Y309.213
N19550 X371.728 Y309.282
N19555 X371.627 Y309.35
N19560 X371.431 Y309.466
N19565 X371.409 Y309.478
N19570 X371.235 Y309.564
N19575 X371.039 Y309.644
N19580 X370.954 Y309.674
N19585 X370.844 Y309.709
N19590 X370.648 Y309.759
N19595 X370.452 Y309.795
N19600 X370.256 Y309.819
N19605 X370.06 Y309.829
N19610 X369.865 Y309.83
N19615 X20.136
N19620 X19.94 Y309.829
N19625 X19.744 Y309.819
N19630 X19.548 Y309.795
N19635 X19.352 Y309.759
N19640 X19.156 Y309.709
N19645 X19.046 Y309.674
N19650 X18.961 Y309.644
N19655 X18.765 Y309.564
N19660 X18.591 Y309.478
N19665 X18.569 Y309.466
N19670 X18.373 Y309.35
N19675 X18.272 Y309.282
N19680 X18.177 Y309.213
N19685 X18.023 Y309.086
N19690 X17.982 Y309.049
N19695 X17.82 Y308.89
N19700 X17.786 Y308.854
N19705 X17.65 Y308.695
N19710 X17.59 Y308.616
N19715 X17.507 Y308.499
N19720 X17.394 Y308.316
N19725 X17.387 Y308.303
N19730 X17.285 Y308.107
N19735 X17.202 Y307.911
N19740 X17.198 Y307.902
N19745 X17.134 Y307.715
N19750 X17.08 Y307.519
N19755 X17.041 Y307.323
N19760 X17.015 Y307.128
N19765 X17.009 Y307.058
N19770 X17.007 Y307.034
N19775 X17.006 Y307.015
N19780 X17.005 Y306.999
N19785 G2 X15.807 Y307.07 I-0.599 J0.035
N19790 X16.185 Y307.593 I0.599 J-0.035
N19795 G3 X16.528 Y308.358 I-0.22 J0.558
N19800 X11.39 Y308.808 I-2.675 J-0.983
N19805 G1 X11.379 Y308.79 F1333.33
N19810 G3 X13.604 Y304.536 Z-1.6 I2.474 J-1.415
N19815 G1 X13.625 Y304.534
N19820 X13.929 Y304.51 F4000.
N19825 G3 X17.003 Y307.128 I0.228 J2.846
N19830 G1 X17.019 Y307.323
N19835 X17.048 Y307.519
N19840 X17.09 Y307.715
N19845 X17.146 Y307.911
N19850 X17.198 Y308.058
N19855 X17.217 Y308.107
N19860 X17.304 Y308.303
N19865 X17.394 Y308.472
N19870 X17.409 Y308.499
N19875 X17.534 Y308.695
N19880 X17.59 Y308.772
N19885 X17.682 Y308.89
N19890 X17.786 Y309.01
N19895 X17.858 Y309.086
N19900 X17.982 Y309.205
N19905 X18.069 Y309.282
N19910 X18.177 Y309.369
N19915 X18.33 Y309.478
N19920 X18.373 Y309.507
N19925 X18.569 Y309.623
N19930 X18.668 Y309.674
N19935 X18.765 Y309.72
N19940 X18.961 Y309.8
N19945 X19.156 Y309.865
N19950 X19.173 Y309.87
N19955 X19.352 Y309.915
N19960 X19.548 Y309.952
N19965 X19.744 Y309.975
N19970 X19.94 Y309.985
N19975 X20.136 Y309.986
N19980 X369.865
N19985 X370.06 Y309.985
N19990 X370.256 Y309.975
N19995 X370.452 Y309.952
N20000 X370.648 Y309.915
N20005 X370.827 Y309.87
N20010 X370.844 Y309.865
N20015 X371.039 Y309.8
N20020 X371.235 Y309.72
N20025 X371.332 Y309.674
N20030 X371.431 Y309.623
N20035 X371.627 Y309.507
N20040 X371.67 Y309.478
N20045 X371.823 Y309.369
N20050 X371.931 Y309.282
N20055 X372.018 Y309.205
N20060 X372.142 Y309.086
N20065 X372.214 Y309.01
N20070 X372.318 Y308.89
N20075 X372.41 Y308.772
N20080 X372.466 Y308.695
N20085 X372.591 Y308.499
N20090 X372.606 Y308.472
N20095 X372.696 Y308.303
N20100 X372.783 Y308.107
N20105 X372.802 Y308.058
N20110 X372.854 Y307.911
N20115 X372.91 Y307.715
N20120 X372.952 Y307.519
N20125 X372.981 Y307.323
N20130 X372.997 Y307.128
N20135 G3 X374.193 Y307.223 I0.598 J0.048
N20140 X373.836 Y307.725 I-0.598 J-0.048
N20145 G2 X373.525 Y308.505 I0.242 J0.549
N20150 X378.665 Y308.756 I2.63 J-1.099
N20155 G1 X378.674 Y308.737 F1333.33
N20160 G2 X376.307 Y304.56 Z-1.8 I-2.52 J-1.331
N20165 G1 X376.286 Y304.559
N20170 X375.982 Y304.545 F4000.
N20175 G2 X372.997 Y307.265 I-0.132 J2.852
N20180 G1 X372.996 Y307.297
N20185 X372.995 Y307.323
N20190 X372.976 Y307.519
N20195 X372.945 Y307.715
N20200 X372.9 Y307.911
N20205 X372.841 Y308.107
N20210 X372.802 Y308.215
N20215 X372.766 Y308.303
N20220 X372.676 Y308.499
N20225 X372.606 Y308.629
N20230 X372.567 Y308.695
N20235 X372.438 Y308.89
N20240 X372.41 Y308.929
N20245 X372.285 Y309.086
N20250 X372.214 Y309.166
N20255 X372.103 Y309.282
N20260 X372.018 Y309.362
N20265 X371.883 Y309.478
N20270 X371.823 Y309.525
N20275 X371.627 Y309.663
N20280 X371.61 Y309.674
N20285 X371.431 Y309.779
N20290 X371.249 Y309.87
N20295 X371.235 Y309.876
N20300 X371.039 Y309.956
N20305 X370.844 Y310.021
N20310 X370.674 Y310.066
N20315 X370.648 Y310.071
N20320 X370.452 Y310.108
N20325 X370.256 Y310.131
N20330 X370.06 Y310.142
N20335 X369.865
N20340 X20.136
N20345 X19.94
N20350 X19.744 Y310.131
N20355 X19.548 Y310.108
N20360 X19.352 Y310.071
N20365 X19.326 Y310.066
N20370 X19.156 Y310.021
N20375 X18.961 Y309.956
N20380 X18.765 Y309.876
N20385 X18.751 Y309.87
N20390 X18.569 Y309.779
N20395 X18.39 Y309.674
N20400 X18.373 Y309.663
N20405 X18.177 Y309.525
N20410 X18.117 Y309.478
N20415 X17.982 Y309.362
N20420 X17.897 Y309.282
N20425 X17.786 Y309.166
N20430 X17.715 Y309.086
N20435 X17.59 Y308.929
N20440 X17.562 Y308.89
N20445 X17.433 Y308.695
N20450 X17.394 Y308.629
N20455 X17.324 Y308.499
N20460 X17.234 Y308.303
N20465 X17.198 Y308.215
N20470 X17.159 Y308.107
N20475 X17.1 Y307.911
N20480 X17.055 Y307.715
N20485 X17.024 Y307.519
N20490 X17.005 Y307.323
N20495 X17.004 Y307.297
N20500 X17.003 Y307.265
N20505 G2 X15.804 Y307.321 I-0.599 J0.028
N20510 X16.179 Y307.849 I0.599 J-0.028
N20515 G3 X16.517 Y308.617 I-0.224 J0.557
N20520 X11.349 Y308.987 I-2.669 J-1.
N20525 G1 X11.339 Y308.968 F1333.33
N20530 G3 X13.671 Y304.772 Z-2. I2.509 J-1.352
N20535 G1 X13.692 Y304.77
N20540 X13.997 Y304.754 F4000.
N20545 G3 X17.004 Y307.448 I0.156 J2.851
N20550 G1 X17.005 Y307.477
N20555 X17.008 Y307.519
N20560 X17.029 Y307.715
N20565 X17.063 Y307.911
N20570 X17.111 Y308.107
N20575 X17.173 Y308.303
N20580 X17.198 Y308.371
N20585 X17.251 Y308.499
N20590 X17.345 Y308.695
N20595 X17.394 Y308.785
N20600 X17.457 Y308.89
N20605 X17.59 Y309.085
N20610 X17.591 Y309.086
N20615 X17.749 Y309.282
N20620 X17.786 Y309.323
N20625 X17.939 Y309.478
N20630 X17.982 Y309.518
N20635 X18.168 Y309.674
N20640 X18.177 Y309.681
N20645 X18.373 Y309.819
N20650 X18.454 Y309.87
N20655 X18.569 Y309.935
N20660 X18.765 Y310.032
N20665 X18.841 Y310.066
N20670 X18.961 Y310.113
N20675 X19.156 Y310.177
N20680 X19.352 Y310.228
N20685 X19.53 Y310.261
N20690 X19.548 Y310.264
N20695 X19.744 Y310.288
N20700 X19.94 Y310.298
N20705 X20.136
N20710 X369.865
N20715 X370.06
N20720 X370.256 Y310.288
N20725 X370.452 Y310.264
N20730 X370.47 Y310.261
N20735 X370.648 Y310.228
N20740 X370.844 Y310.177
N20745 X371.039 Y310.113
N20750 X371.159 Y310.066
N20755 X371.235 Y310.032
N20760 X371.431 Y309.935
N20765 X371.546 Y309.87
N20770 X371.627 Y309.819
N20775 X371.823 Y309.681
N20780 X371.832 Y309.674
N20785 X372.018 Y309.518
N20790 X372.061 Y309.478
N20795 X372.214 Y309.323
N20800 X372.251 Y309.282
N20805 X372.409 Y309.086
N20810 X372.41 Y309.085
N20815 X372.543 Y308.89
N20820 X372.606 Y308.785
N20825 X372.655 Y308.695
N20830 X372.749 Y308.499
N20835 X372.802 Y308.371
N20840 X372.827 Y308.303
N20845 X372.889 Y308.107
N20850 X372.937 Y307.911
N20855 X372.971 Y307.715
N20860 X372.992 Y307.519
N20865 X372.995 Y307.477
N20870 X372.996 Y307.448
N20875 G3 X374.194 Y307.514 I0.599 J0.033
N20880 X373.824 Y308.036 I-0.599 J-0.033
N20885 G2 X373.492 Y308.807 I0.228 J0.555
N20890 X378.649 Y309.155 I2.659 J-1.025
N20895 G1 X378.659 Y309.136 F1333.33
N20900 G2 X376.331 Y304.938 Z-2.2 I-2.508 J-1.354
N20905 G1 X376.31 Y304.936
N20910 X376.005 Y304.919 F4000.
N20915 G2 X372.996 Y307.611 I-0.159 J2.851
N20920 G1 X372.995 Y307.632
N20925 X372.993 Y307.658
N20930 X372.989 Y307.715
N20935 X372.965 Y307.911
N20940 X372.928 Y308.107
N20945 X372.878 Y308.303
N20950 X372.813 Y308.499
N20955 X372.802 Y308.527
N20960 X372.732 Y308.695
N20965 X372.634 Y308.89
N20970 X372.606 Y308.941
N20975 X372.518 Y309.086
N20980 X372.41 Y309.241
N20985 X372.379 Y309.282
N20990 X372.215 Y309.478
N20995 X372.214 Y309.479
N21000 X372.117 Y309.581
N21005 X372.019 Y309.674
N21010 X372.018
N21015 X371.823 Y309.838
N21020 X371.78 Y309.87
N21025 X371.627 Y309.975
N21030 X371.478 Y310.066
N21035 X371.431 Y310.091
N21040 X371.235 Y310.189
N21045 X371.059 Y310.261
N21050 X371.039 Y310.269
N21055 X370.844 Y310.334
N21060 X370.648 Y310.384
N21065 X370.452 Y310.421
N21070 X370.256 Y310.444
N21075 X370.06 Y310.454
N21080 X369.865 Y310.455
N21085 X20.136
N21090 X19.94 Y310.454
N21095 X19.744 Y310.444
N21100 X19.548 Y310.421
N21105 X19.352 Y310.384
N21110 X19.156 Y310.334
N21115 X18.961 Y310.269
N21120 X18.941 Y310.261
N21125 X18.765 Y310.189
N21130 X18.569 Y310.091
N21135 X18.522 Y310.066
N21140 X18.373 Y309.975
N21145 X18.22 Y309.87
N21150 X18.177 Y309.838
N21155 X17.982 Y309.674
N21160 X17.981
N21165 X17.883 Y309.581
N21170 X17.786 Y309.479
N21175 X17.785 Y309.478
