%
(1001)
(T5  D=19.05 CR=9.525 - ZMIN=-100.771 - BALL END MILL)
N10 G90 G94 G17 G91.1
N15 G21
N20 G53 G0 Z0.
(PARALLEL2)
N25 M9
N30 T5 M6
N35 S24000 M3
N40 G54
N45 G0 X309.45 Y1020.568
N50 G43 Z10. H5
N55 G1 Z-23.095 F5000.
N60 G19 G2 Y1018.663 Z-25. J-1.905 K0. F1000.
N65 G1 Y630.005 F5000.
N70 G2 Y628.1 Z-23.095 J0. K1.905 F1000.
N75 G1 Z5. F5000.
N80 X294.454 Y482.374
N85 Z-23.095
N90 G3 Y484.279 Z-25. J1.905 K0. F1000.
N95 G1 Y1245.583 F5000.
N100 G3 Y1247.488 Z-23.095 J0. K1.905 F1000.
N105 G1 Z5. F5000.
N110 X279.457 Y1361.964
N115 Z-23.095
N120 G2 Y1360.056 Z-25. J-1.905 K0. F1000.
N125 G1 Y1166.225 Z-24.643 F5000.
N130 Y1121.653 Z-19.352
N135 Y1036.485 Z-13.071
N140 Y927.822 Z-9.643
N145 Y807.412 Z-10.334
N150 Y672.317 Z-14.311
N155 Y584.212 Z-19.184
N160 Y523.31 Z-25.
N165 Y338.553
N170 G2 Y336.648 Z-23.095 J0. K1.905 F1000.
N175 G1 Z5. F5000.
N180 X264.461 Y247.436
N185 Z-23.095
N190 G3 Y249.341 Z-25. J1.905 K0. F1000.
N195 G1 Y391.616 F5000.
N200 Y430.561 Z-20.732
N205 Y498.108 Z-16.103
N210 Y689.003 Z-10.027
N215 Y932.76 Z-4.953
N220 Y1046.746 Z-5.956
N225 Y1144.212 Z-10.703
N230 Y1220.57 Z-17.799
N235 Y1267.93 Z-24.654
N240 Y1424.502 Z-25.
N245 G3 Y1426.411 Z-23.095 J0.004 K1.905 F1000.
N250 G1 Z5. F5000.
N255 X249.465 Y1480.878
N260 Z-23.095
N265 G2 Y1478.97 Z-25. J-1.905 K0. F1000.
N270 G1 Y1332.129 Z-24.81 F5000.
N275 Y1286.271 Z-17.669
N280 Y1217.255 Z-10.833
N285 Y1121.808 Z-6.806
N290 Y989.651 Z-4.791
N295 Y907.564 Z-5.158
N300 Y610.944 Z-12.156
N305 Y355.439 Z-21.1
N310 Y303.151 Z-25.
N315 Y180.434
N320 G2 Y178.529 Z-23.095 J0. K1.905 F1000.
N325 G1 Z5. F5000.
N330 X234.468 Y109.622
N335 Z-23.095
N340 G3 Y111.527 Z-25. J1.905 K0. F1000.
N345 G1 Y257.76 F5000.
N350 Y348.802 Z-21.34
N355 Y607.244 Z-12.284
N360 Y906.801 Z-5.225
N365 Y1044.015 Z-5.113
N370 Y1174.705 Z-8.184
N375 Y1280.431 Z-13.605
N380 Y1336.23 Z-18.624
N385 Y1375.607 Z-24.78
N390 Y1512.908 Z-25.
N395 G3 Y1514.816 Z-23.095 J0.003 K1.905 F1000.
N400 G1 Z5. F5000.
N405 X219.472 Y1548.755
N410 Z-23.095
N415 G2 Y1546.845 Z-25. J-1.905 K0. F1000.
N420 G1 Y1405.877 Z-24.665 F5000.
N425 Y1360.8 Z-19.304
N430 Y1266.822 Z-12.258
N435 Y1149.348 Z-7.134
N440 Y1014.254 Z-4.861
N445 Y882.096 Z-5.702
N450 Y573.728 Z-13.308
N455 Y324.098 Z-22.401
N460 Y256.55 Z-25.
N465 Y66.026
N470 G2 Y65.606 Z-24.903 J0. K0.952
N475 G3 Y65.187 Z-24.806 J-0.419 K-0.855
N480 G1 Y56.324
N485 G17 G2 X216.614 Y53.466 I-2.858 J0.
N490 G1 X207.333
N495 G2 X204.475 Y56.324 I0. J2.858
N500 G19 G2 Y56.743 Z-24.903 J0. K-0.952
N505 G3 Y57.162 Z-25. J0.419 K0.855
N510 G1 Y254.674
N515 Y316.347 Z-22.744
N520 Y563.042 Z-13.657
N525 Y874.346 Z-5.895
N530 Y1012.377 Z-4.858
N535 Y1147.472 Z-6.952
N540 Y1264.945 Z-11.859
N545 Y1364.797 Z-19.077
N550 Y1419.959 Z-24.781
N555 Y1575.611 Z-25.
N560 G3 Y1576.031 Z-24.903 J0.001 K0.952
N565 G2 Y1576.451 Z-24.806 J0.419 K-0.855
N570 G1 Y1592.612
N575 G17 G3 X201.618 Y1595.469 I-2.857 J0.
N580 G1 X192.337
N585 G3 X189.479 Y1592.612 I0. J-2.858
N590 G19 G3 Y1592.193 Z-24.903 J0. K-0.952
N595 G2 Y1591.772 Z-25. J-0.419 K0.855
N600 G1 Y1424.372 Z-24.687
N605 Y1363.104 Z-18.543
N610 Y1260.314 Z-11.383
N615 Y1142.841 Z-6.721
N620 Y1004.81 Z-4.81
N625 Y863.842 Z-6.118
N630 Y555.474 Z-13.898
N635 Y311.717 Z-22.951
N640 Y255.917 Z-25.
N645 Y48.298
N650 G2 Y47.879 Z-24.903 J0. K0.952
N655 G3 Y47.46 Z-24.806 J-0.419 K-0.855
N660 G1 Y38.595
N665 G17 G2 X186.622 Y35.737 I-2.857 J0.
N670 G1 X177.34
N675 G2 X174.483 Y38.595 I0. J2.857
N680 G19 G2 Y39.014 Z-24.903 J0. K-0.953
N685 G3 Y39.434 Z-25. J0.419 K0.855
N690 G1 Y274.85 Z-24.664
N695 Y503.923 Z-15.552
N700 Y803.48 Z-7.382
N705 Y970.88 Z-4.813
N710 Y1111.848 Z-5.892
N715 Y1235.195 Z-9.932
N720 Y1340.921 Z-16.425
N725 Y1428.785 Z-24.765
N730 Y1607.932 Z-25.
N735 G3 Y1608.353 Z-24.903 J0.001 K0.952
N740 G2 Y1608.772 Z-24.806 J0.419 K-0.855
N745 G1 Y1624.933
N750 G17 G3 X171.625 Y1627.791 I-2.857 J0.
N755 G1 X162.344
N760 G3 X159.486 Y1624.933 I0. J-2.858
N765 G19 G3 Y1624.514 Z-24.903 J0. K-0.953
N770 G2 Y1624.093 Z-25. J-0.419 K0.855
N775 G1 Y1430.262 Z-24.587
N780 Y1368.921 Z-18.48
N785 Y1266.132 Z-11.332
N790 Y1145.722 Z-6.584
N795 Y1007.691 Z-4.752
N800 Y860.2 Z-6.191
N805 Y551.832 Z-14.012
N810 Y308.075 Z-23.115
N815 Y255.212 Z-25.
N820 Y30.92
N825 G2 Y30.501 Z-24.903 J0. K0.952
N830 G3 Y30.081 Z-24.806 J-0.419 K-0.855
N835 G1 Y29.635
N840 G17 G2 X156.629 Y26.778 I-2.857 J0.
N845 G1 X147.347
N850 G2 X144.49 Y29.635 I0. J2.858
N855 G19 G2 Y30.054 Z-24.903 J0. K-0.952
N860 G3 Y30.475 Z-25. J0.419 K0.855
N865 G1 Y275.769 Z-24.62
N870 Y504.842 Z-15.521
N875 Y807.337 Z-7.298
N880 Y974.736 Z-4.766
N885 Y1114.846 Z-5.815
N890 Y1238.193 Z-9.807
N895 Y1343.919 Z-16.234
N900 Y1434.675 Z-24.796
N905 Y1640.253 Z-25.
N910 G3 Y1640.673 Z-24.903 J0.001 K0.952
N915 G2 Y1641.093 Z-24.806 J0.419 K-0.855
N920 G1 Y1657.253
N925 G17 G3 X141.632 Y1660.111 I-2.857 J0.
N930 G1 X132.351
N935 G3 X129.494 Y1657.253 I0. J-2.858
N940 G19 G3 Y1656.834 Z-24.903 J0. K-0.952
N945 G2 Y1656.414 Z-25. J-0.419 K0.855
N950 G1 Y1436.151 Z-24.745
N955 Y1374.817 Z-18.616
N960 Y1272.027 Z-11.415
N965 Y1154.554 Z-6.687
N970 Y1019.46 Z-4.73
N975 Y869.01 Z-6.014
N980 Y560.642 Z-13.74
N985 Y313.948 Z-22.85
N990 Y255.211 Z-25.
N995 Y30.475
N1000 G2 Y30.056 Z-24.903 J0. K0.952
N1005 G3 Y29.637 Z-24.806 J-0.419 K-0.855
N1010 G17 G2 X126.636 Y26.779 I-2.857 J0.
N1015 G1 X117.355
N1020 G2 X114.497 Y29.637 I0. J2.858
N1025 G19 G2 Y30.056 Z-24.903 J0. K-0.952
N1030 G3 Y30.475 Z-25. J0.419 K0.855
N1035 G1 Y255.211
N1040 Y313.948 Z-22.85
N1045 Y560.642 Z-13.74
N1050 Y869.009 Z-6.015
N1055 Y1020.512 Z-4.714
N1060 Y1155.606 Z-6.667
N1065 Y1273.079 Z-11.389
N1070 Y1375.869 Z-18.582
N1075 Y1437.02 Z-24.679
N1080 Y1671.966 Z-25.
N1085 G3 Y1672.387 Z-24.903 J0.001 K0.952
N1090 G2 Y1672.806 Z-24.806 J0.419 K-0.855
N1095 G1 Y1679.175
N1100 G17 G3 X111.64 Y1682.032 I-2.857 J0.
N1105 G1 X102.358
N1110 G3 X99.501 Y1679.175 I0. J-2.858
N1115 G19 G3 Y1678.755 Z-24.903 J0. K-0.953
N1120 G2 Y1678.335 Z-25. J-0.419 K0.855
N1125 G1 Y1437.514 Z-24.612
N1130 Y1376.189 Z-18.514
N1135 Y1271.931 Z-11.263
N1140 Y1152.989 Z-6.558
N1145 Y1017.895 Z-4.696
N1150 Y866.072 Z-6.073
N1155 Y557.705 Z-13.83
N1160 Y313.947 Z-22.85
N1165 Y255.211 Z-25.
N1170 Y30.475
N1175 G2 Y30.056 Z-24.903 J0. K0.952
N1180 G3 Y29.637 Z-24.806 J-0.419 K-0.855
N1185 G17 G2 X96.643 Y26.779 I-2.858 J0.
N1190 G1 X87.362
N1195 G2 X84.505 Y29.637 I0. J2.858
N1200 G19 G2 Y30.056 Z-24.903 J0. K-0.952
N1205 G3 Y30.475 Z-25. J0.419 K0.855
N1210 G1 Y255.21
N1215 Y313.947 Z-22.85
N1220 Y557.705 Z-13.83
N1225 Y866.072 Z-6.073
N1230 Y1017.92 Z-4.686
N1235 Y1153.014 Z-6.53
N1240 Y1273.425 Z-11.296
N1245 Y1376.214 Z-18.445
N1250 Y1437.412 Z-24.51
N1255 Y1684.106 Z-25.
N1260 G3 Y1684.527 Z-24.903 J0.002 K0.952
N1265 G2 Y1684.947 Z-24.806 J0.419 K-0.855
N1270 G1 Y1690.717
N1275 G17 G3 X81.647 Y1693.575 I-2.857 J0.
N1280 G1 X72.366
N1285 G3 X69.508 Y1690.717 I0. J-2.857
N1290 G19 G3 Y1690.298 Z-24.903 J0. K-0.952
N1295 G2 Y1689.878 Z-25. J-0.419 K0.855
N1300 G1 Y1440.247 Z-24.765
N1305 Y1379.036 Z-18.642
N1310 Y1276.247 Z-11.41
N1315 Y1158.773 Z-6.663
N1320 Y1023.679 Z-4.685
N1325 Y871.946 Z-5.956
N1330 Y560.641 Z-13.74
N1335 Y313.947 Z-22.85
N1340 Y255.21 Z-25.
N1345 Y30.475
N1350 G2 Y28.57 Z-23.095 J0. K1.905 F1000.
N1355 G1 Z5. F5000.
N1360 X54.512 Y-30.155
N1365 Z-23.095
N1370 G3 Y-28.25 Z-25. J1.905 K0. F1000.
N1375 G1 Y255.21 F5000.
N1380 Y313.947 Z-22.85
N1385 Y560.641 Z-13.74
N1390 Y871.946 Z-5.956
N1395 Y1025.311 Z-4.684
N1400 Y1160.406 Z-6.691
N1405 Y1277.879 Z-11.472
N1410 Y1380.668 Z-18.749
N1415 Y1441.674 Z-24.879
N1420 Y1788.221 Z-25.
N1425 G3 Y1788.64 Z-24.903 J0. K0.952
N1430 G2 Y1789.059 Z-24.806 J0.419 K-0.855
N1435 G1 Y1790.363
N1440 G17 G3 X51.654 Y1793.221 I-2.857 J0.
N1445 G1 X42.373
N1450 G3 X39.515 Y1790.363 I0. J-2.857
N1455 G19 G3 Y1789.944 Z-24.903 J0. K-0.952
N1460 G2 Y1789.525 Z-25. J-0.419 K0.855
N1465 G1 Y1442.979 Z-24.995
N1470 Y1382.019 Z-18.843
N1475 Y1279.229 Z-11.531
N1480 Y1161.756 Z-6.717
N1485 Y1026.662 Z-4.686
N1490 Y874.882 Z-5.903
N1495 Y563.578 Z-13.65
N1500 Y316.884 Z-22.72
N1505 Y255.21 Z-25.
N1510 Y-29.554
N1515 G2 Y-29.974 Z-24.903 J0. K0.952
N1520 G3 Y-30.393 Z-24.806 J-0.419 K-0.855
N1525 G17 G2 X36.658 Y-33.25 I-2.857 J0.
N1530 G1 X27.377
N1535 G2 X24.519 Y-30.393 I0. J2.858
N1540 G19 G2 Y-29.974 Z-24.903 J0. K-0.952
N1545 G3 Y-29.554 Z-25. J0.419 K0.855
N1550 G1 Y255.21
N1555 Y316.884 Z-22.72
N1560 Y563.578 Z-13.65
N1565 Y874.882 Z-5.903
N1570 Y1026.657 Z-4.684
N1575 Y1161.752 Z-6.709
N1580 Y1279.225 Z-11.52
N1585 Y1382.014 Z-18.828
N1590 Y1442.979 Z-24.976
N1595 Y1789.525 Z-25.
N1600 G3 Y1789.944 Z-24.903 J0. K0.952
N1605 G2 Y1790.363 Z-24.806 J0.419 K-0.855
N1610 G17 G3 X21.662 Y1793.221 I-2.858 J0.
N1615 G1 X12.38
N1620 G3 X9.523 Y1790.363 I0. J-2.858
N1625 G19 G3 Y1789.944 Z-24.903 J0. K-0.952
N1630 G2 Y1789.525 Z-25. J-0.419 K0.855
N1635 G1 Y1442.979 Z-24.967
N1640 Y1381.884 Z-18.809
N1645 Y1279.095 Z-11.507
N1650 Y1161.621 Z-6.703
N1655 Y1026.527 Z-4.682
N1660 Y874.882 Z-5.903
N1665 Y563.578 Z-13.65
N1670 Y316.884 Z-22.72
N1675 Y255.21 Z-25.
N1680 Y-29.554
N1685 G2 Y-29.974 Z-24.903 J0. K0.952
N1690 G3 Y-30.393 Z-24.806 J-0.419 K-0.855
N1695 G17 G2 X6.665 Y-33.25 I-2.858 J0.
N1700 G1 X-2.616
N1705 G2 X-5.474 Y-30.393 I0. J2.858
N1710 G19 G2 Y-29.974 Z-24.903 J0. K-0.952
N1715 G3 Y-29.554 Z-25. J0.419 K0.855
N1720 G1 Y2.642
N1725 Y278.705 Z-24.48
N1730 Y507.778 Z-15.424
N1735 Y810.272 Z-7.234
N1740 Y980.608 Z-4.701
N1745 Y1120.191 Z-5.729
N1750 Y1243.538 Z-9.706
N1755 Y1352.201 Z-16.345
N1760 Y1442.979 Z-24.966
N1765 Y1789.525 Z-25.
N1770 G3 Y1789.944 Z-24.903 J0. K0.952
N1775 G2 Y1790.363 Z-24.806 J0.419 K-0.855
N1780 G17 G3 X-8.331 Y1793.221 I-2.858 J0.
N1785 G1 X-17.613
N1790 G3 X-20.47 Y1790.363 I0. J-2.858
N1795 G19 G3 Y1789.944 Z-24.903 J0. K-0.952
N1800 G2 Y1789.525 Z-25. J-0.419 K0.855
N1805 G1 Y1442.979 Z-24.972
N1810 Y1352.202 Z-16.35
N1815 Y1243.539 Z-9.709
N1820 Y1120.192 Z-5.731
N1825 Y980.608 Z-4.702
N1830 Y810.272 Z-7.234
N1835 Y507.778 Z-15.424
N1840 Y278.705 Z-24.48
N1845 Y2.642 Z-25.
N1850 Y-29.554
N1855 G2 Y-29.974 Z-24.903 J0. K0.952
N1860 G3 Y-30.393 Z-24.806 J-0.419 K-0.855
N1865 G17 G2 X-23.328 Y-33.25 I-2.858 J0.
N1870 G1 X-32.609
N1875 G2 X-35.466 Y-30.393 I0. J2.858
N1880 G19 G2 Y-29.974 Z-24.903 J0. K-0.952
N1885 G3 Y-29.554 Z-25. J0.419 K0.855
N1890 G1 Y2.642
N1895 Y278.705 Z-24.48
N1900 Y507.778 Z-15.424
N1905 Y810.272 Z-7.234
N1910 Y980.608 Z-4.703
N1915 Y1120.193 Z-5.736
N1920 Y1243.54 Z-9.717
N1925 Y1352.203 Z-16.362
N1930 Y1442.979 Z-24.988
N1935 Y1789.525 Z-25.
N1940 G3 Y1789.944 Z-24.903 J0. K0.952
N1945 G2 Y1790.363 Z-24.806 J0.419 K-0.855
N1950 G17 G3 X-38.324 Y1793.221 I-2.858 J0.
N1955 G1 X-47.605
N1960 G3 X-50.463 Y1790.363 I0. J-2.857
N1965 G1 Y1790.272
N1970 G19 G3 Y1789.853 Z-24.903 J0. K-0.952
N1975 G2 Y1789.433 Z-25. J-0.419 K0.855
N1980 G1 Y1439.95 Z-24.674
N1985 Y1349.175 Z-16.15
N1990 Y1240.512 Z-9.593
N1995 Y1117.165 Z-5.685
N2000 Y977.672 Z-4.712
N2005 Y804.398 Z-7.362
N2010 Y501.904 Z-15.62
N2015 Y272.831 Z-24.762
N2020 Y-29.462 Z-25.
N2025 G2 Y-31.369 Z-23.095 J-0.002 K1.905 F1000.
N2030 G1 Z5. F5000.
N2035 X-65.459 Y28.568
N2040 Z-23.095
N2045 G3 Y30.475 Z-25. J1.905 K0. F1000.
N2050 G1 Y272.831 Z-24.762 F5000.
N2055 Y498.968 Z-15.718
N2060 Y798.525 Z-7.49
N2065 Y974.735 Z-4.731
N2070 Y1116.087 Z-5.676
N2075 Y1239.434 Z-9.565
N2080 Y1348.097 Z-16.098
N2085 Y1438.869 Z-24.594
N2090 Y1691.436 Z-25.
N2095 G3 Y1691.857 Z-24.903 J0.001 K0.952
N2100 G2 Y1692.276 Z-24.806 J0.419 K-0.855
N2105 G17 G3 X-68.317 Y1695.134 I-2.858 J0.
N2110 G1 X-77.598
N2115 G3 X-80.455 Y1692.276 I0. J-2.857
N2120 G1 Y1686.504
N2125 G19 G3 Y1686.085 Z-24.903 J0. K-0.953
N2130 G2 Y1685.665 Z-25. J-0.419 K0.855
N2135 G1 Y1438.971 Z-24.666
N2140 Y1348.202 Z-16.15
N2145 Y1242.476 Z-9.733
N2150 Y1119.129 Z-5.751
N2155 Y977.672 Z-4.719
N2160 Y807.335 Z-7.298
N2165 Y504.841 Z-15.522
N2170 Y275.768 Z-24.62
N2175 Y30.475 Z-25.
N2180 G2 Y30.054 Z-24.903 J-0.001 K0.952
N2185 G3 Y29.635 Z-24.806 J-0.419 K-0.855
N2190 G17 G2 X-83.313 Y26.778 I-2.857 J0.
N2195 G1 X-92.594
N2200 G2 X-95.452 Y29.635 I0. J2.858
N2205 G19 G2 Y30.054 Z-24.903 J0. K-0.953
N2210 G3 Y30.475 Z-25. J0.419 K0.855
N2215 G1 Y275.768 Z-24.62
N2220 Y504.842 Z-15.522
N2225 Y807.336 Z-7.298
N2230 Y977.672 Z-4.724
N2235 Y1119.236 Z-5.776
N2240 Y1242.583 Z-9.777
N2245 Y1348.309 Z-16.217
N2250 Y1439.073 Z-24.762
N2255 Y1679.893 Z-25.
N2260 G3 Y1680.313 Z-24.903 J0.001 K0.952
N2265 G2 Y1680.732 Z-24.806 J0.419 K-0.855
N2270 G17 G3 X-98.309 Y1683.59 I-2.858 J0.
N2275 G1 X-107.591
N2280 G3 X-110.448 Y1680.732 I0. J-2.858
N2285 G1 Y1674.96
N2290 G19 G3 Y1674.541 Z-24.903 J0. K-0.952
N2295 G2 Y1674.121 Z-25. J-0.419 K0.855
N2300 G1 Y1439.175 Z-24.888
N2305 Y1348.42 Z-16.304
N2310 Y1242.694 Z-9.835
N2315 Y1119.347 Z-5.806
N2320 Y977.672 Z-4.73
N2325 Y807.336 Z-7.298
N2330 Y504.842 Z-15.522
N2335 Y275.769 Z-24.62
N2340 Y30.475 Z-25.
N2345 G2 Y30.054 Z-24.903 J-0.001 K0.952
N2350 G3 Y29.635 Z-24.806 J-0.419 K-0.855
N2355 G17 G2 X-113.306 Y26.777 I-2.857 J0.
N2360 G1 X-122.587
N2365 G2 X-125.445 Y29.635 I0. J2.858
N2370 G19 G2 Y30.054 Z-24.903 J0. K-0.952
N2375 G3 Y30.475 Z-25. J0.419 K0.855
N2380 G1 Y278.706 Z-24.48
N2385 Y507.779 Z-15.424
N2390 Y810.273 Z-7.234
N2395 Y977.673 Z-4.738
N2400 Y1117.759 Z-5.812
N2405 Y1241.106 Z-9.829
N2410 Y1346.832 Z-16.284
N2415 Y1437.578 Z-24.86
N2420 Y1660.777 Z-25.
N2425 G3 Y1661.197 Z-24.903 J0.001 K0.952
N2430 G2 Y1661.616 Z-24.806 J0.419 K-0.855
N2435 G17 G3 X-128.302 Y1664.474 I-2.857 J0.
N2440 G1 X-137.583
N2445 G3 X-140.441 Y1661.616 I0. J-2.857
N2450 G1 Y1645.457
N2455 G19 G3 Y1645.038 Z-24.903 J0. K-0.952
N2460 G2 Y1644.617 Z-25. J-0.419 K0.855
N2465 G1 Y1433.165 Z-24.562
N2470 Y1342.375 Z-16.071
N2475 Y1233.712 Z-9.57
N2480 Y1107.428 Z-5.656
N2485 Y965.925 Z-4.809
N2490 Y783.842 Z-7.82
N2495 Y487.221 Z-16.114
N2500 Y255.211 Z-25.
N2505 Y30.475
N2510 G2 Y30.056 Z-24.903 J0. K0.952
N2515 G3 Y29.637 Z-24.806 J-0.419 K-0.855
N2520 G1 Y29.635
N2525 G17 G2 X-143.298 Y26.778 I-2.857 J0.
N2530 G1 X-152.58
N2535 G2 X-155.437 Y29.635 I0. J2.858
N2540 G19 G2 Y30.055 Z-24.903 J0. K-0.953
N2545 G3 Y30.475 Z-25. J0.419 K0.855
N2550 G1 Y274.849 Z-24.664
N2555 Y503.922 Z-15.552
N2560 Y806.416 Z-7.318
N2565 Y973.816 Z-4.78
N2570 Y1114.784 Z-5.857
N2575 Y1238.131 Z-9.887
N2580 Y1343.857 Z-16.36
N2585 Y1434.625 Z-24.997
N2590 Y1628.456 Z-25.
N2595 G3 Y1628.875 Z-24.903 J0. K0.952
N2600 G2 Y1629.295 Z-24.806 J0.419 K-0.855
N2605 G17 G3 X-158.295 Y1632.152 I-2.857 J0.
N2610 G1 X-167.576
N2615 G3 X-170.434 Y1629.295 I0. J-2.857
N2620 G1 Y1613.135
N2625 G19 G3 Y1612.716 Z-24.903 J0. K-0.952
N2630 G2 Y1612.296 Z-25. J-0.419 K0.855
N2635 G1 Y1430.212 Z-24.828
N2640 Y1342.403 Z-16.471
N2645 Y1236.677 Z-9.958
N2650 Y1113.33 Z-5.9
N2655 Y972.362 Z-4.802
N2660 Y804.962 Z-7.35
N2665 Y502.468 Z-15.601
N2670 Y273.395 Z-24.735
N2675 Y37.041 Z-25.
N2680 G2 Y36.621 Z-24.903 J-0.001 K0.952
N2685 G3 Y36.202 Z-24.806 J-0.419 K-0.855
N2690 G17 G2 X-173.291 Y33.344 I-2.857 J0.
N2695 G1 X-182.573
N2700 G2 X-185.43 Y36.202 I0. J2.857
N2705 G1 Y45.066
N2710 G19 G2 Y45.485 Z-24.903 J0. K-0.952
N2715 G3 Y45.905 Z-25. J0.419 K0.855
N2720 G1 Y271.889 Z-24.808
N2725 Y500.962 Z-15.651
N2730 Y800.519 Z-7.447
N2735 Y967.919 Z-4.838
N2740 Y1108.887 Z-5.899
N2745 Y1232.234 Z-9.917
N2750 Y1337.96 Z-16.392
N2755 Y1425.799 Z-24.722
N2760 Y1596.135 Z-25.
N2765 G3 Y1596.556 Z-24.903 J0.001 K0.952
N2770 G2 Y1596.975 Z-24.806 J0.419 K-0.855
N2775 G17 G3 X-188.288 Y1599.832 I-2.857 J0.
N2780 G1 X-197.569
N2785 G3 X-200.426 Y1596.975 I0. J-2.858
N2790 G1 Y1580.814
N2795 G19 G3 Y1580.395 Z-24.903 J0. K-0.953
N2800 G2 Y1579.974 Z-25. J-0.419 K0.855
N2805 G1 Y1421.385 Z-24.756
N2810 Y1336.546 Z-16.591
N2815 Y1230.82 Z-10.034
N2820 Y1107.473 Z-5.959
N2825 Y965.539 Z-4.854
N2830 Y798.139 Z-7.492
N2835 Y498.582 Z-15.726
N2840 Y269.509 Z-24.923
N2845 Y54.769 Z-25.
N2850 G2 Y54.349 Z-24.903 J0. K0.952
N2855 G3 Y53.93 Z-24.806 J-0.419 K-0.855
N2860 G17 G2 X-203.284 Y51.072 I-2.857 J0.
N2865 G1 X-212.565
N2870 G2 X-215.423 Y53.93 I0. J2.857
N2875 G1 Y62.794
N2880 G19 G2 Y63.213 Z-24.903 J0. K-0.952
N2885 G3 Y63.632 Z-25. J0.419 K0.855
N2890 G1 Y251.595
N2895 Y292.711 Z-23.819
N2900 Y530.594 Z-14.661
N2905 Y836.025 Z-6.634
N2910 Y979.93 Z-4.785
N2915 Y1117.961 Z-6.275
N2920 Y1238.371 Z-10.623
N2925 Y1341.161 Z-17.381
N2930 Y1411.369 Z-24.632
N2935 Y1556.009 Z-25.
N2940 G3 Y1557.918 Z-23.095 J0.005 K1.905 F1000.
N2945 G1 Z5. F5000.
N2950 X-230.419 Y1523.979
N2955 Z-23.095
N2960 G2 Y1522.071 Z-25. J-1.905 K0. F1000.
N2965 G1 Y1384.914 Z-24.776 F5000.
N2970 Y1346.162 Z-18.837
N2975 Y1269.805 Z-12.735
N2980 Y1158.205 Z-7.542
N2985 Y1026.047 Z-4.933
N2990 Y893.89 Z-5.445
N2995 Y588.459 Z-12.845
N3000 Y332.954 Z-22.015
N3005 Y256.597 Z-25.
N3010 Y92.922
N3015 G2 Y91.017 Z-23.095 J0. K1.905 F1000.
N3020 G1 Z5. F5000.
N3025 X-245.415 Y159.924
N3030 Z-23.095
N3035 G3 Y161.829 Z-25. J1.905 K0. F1000.
N3040 G1 Y283.524 F5000.
N3045 Y298.876 Z-24.111
N3050 Y369.36 Z-20.49
N3055 Y636.612 Z-11.427
N3060 Y921.485 Z-4.977
N3065 Y1058.084 Z-5.372
N3070 Y1181.431 Z-8.737
N3075 Y1257.789 Z-13.095
N3080 Y1306.925 Z-18.653
N3085 Y1343.613 Z-24.596
N3090 Y1488.134 Z-25.
N3095 G3 Y1490.044 Z-23.095 J0.005 K1.905 F1000.
N3100 G1 Z5. F5000.
N3105 X-260.412 Y1443.808
N3110 Z-23.095
N3115 G2 Y1441.903 Z-25. J-1.905 K0. F1000.
N3120 G1 Y1289.187 Z-24.974 F5000.
N3125 Y1255.156 Z-19.577
N3130 Y1197.102 Z-13.02
N3135 Y1108.997 Z-7.199
N3140 Y1003.271 Z-4.993
N3145 Y885.797 Z-5.528
N3150 Y583.303 Z-12.991
N3155 Y438.664 Z-18.296
N3160 Y383.883 Z-22.9
N3165 Y364.879 Z-25.
N3170 Y230.736
N3175 G2 Y228.831 Z-23.095 J0. K1.905 F1000.
N3180 G1 Z5. F5000.
N3185 X-275.408 Y297.785
N3190 Z-23.095
N3195 G3 Y299.69 Z-25. J1.905 K0. F1000.
N3200 G1 Y480.769 F5000.
N3205 Y517.738 Z-21.045
N3210 Y599.941 Z-15.187
N3215 Y729.161 Z-10.288
N3220 Y890.687 Z-7.41
N3225 Y975.856 Z-8.172
N3230 Y1081.582 Z-12.805
N3235 Y1143.255 Z-17.701
N3240 Y1201.246 Z-24.663
N3245 Y1377.456 Z-25.
N3250 G3 Y1379.365 Z-23.095 J0.004 K1.905 F1000.
N3255 G1 Z5. F5000.
N3260 X-290.405 Y1282.432
N3265 Z-23.095
N3270 G2 Y1280.525 Z-25. J-1.905 K0. F1000.
N3275 G1 Y1013.744 Z-24.738 F5000.
N3280 Y926.109 Z-20.222
N3285 Y840.941 Z-19.541
N3290 Y752.836 Z-21.875
N3295 Y689.456 Z-25.
N3300 Y444.933
N3305 G2 Y443.028 Z-23.095 J0. K1.905 F1000.
N3310 G1 Z5. F5000.
N3315 X-305.401 Y588.754
N3320 Z-23.095
N3325 G3 Y590.659 Z-25. J1.905 K0. F1000.
N3330 G1 Y1117.952 F5000.
N3335 G3 Y1119.857 Z-23.095 J0. K1.905 F1000.
N3340 G1 Z10. F5000.
N3345 G17
(PARALLEL2 2)
N3350 G0 X293.071 Y875.85
N3355 G1 Z10. F5000.
N3360 Z-21.889
N3365 Z-24.158 F1000.
N3370 G19 G2 Y873.958 Z-26.063 J-1.905 K0.
N3375 G1 Y821.073 Z-26.418 F5000.
N3380 G2 Y819.155 Z-24.513 J-0.013 K1.905 F1000.
N3385 G1 Z-22.302
N3390 Z5. F5000.
N3395 X278.075 Y485.252
N3400 Z-27.004
N3405 Z-28.939 F1000.
N3410 G3 Y487.488 Z-30.815 J1.905 K0.
N3415 G1 Y508.722 Z-27.078 F5000.
N3420 Y558.307 Z-21.428
N3425 Y629.128 Z-16.602
N3430 Y753.773 Z-11.87
N3435 Y895.415 Z-9.785
N3440 Y986.066 Z-11.365
N3445 Y1073.884 Z-15.49
N3450 Y1156.036 Z-22.994
N3455 Y1189.616 Z-28.204
N3460 Y1211.413 Z-32.581
N3465 G3 Y1213.693 Z-30.713 J0.375 K1.868 F1000.
N3470 G1 Z-28.977
N3475 Z5. F5000.
N3480 X263.079 Y1328.173
N3485 Z-35.565
N3490 Z-36.909 F1000.
N3495 G2 Y1325.694 Z-38.725 J-1.905 K0.
N3500 G1 Y1309.992 Z-33.761 F5000.
N3505 Y1291.199 Z-28.981
N3510 Y1246.962 Z-21.391
N3515 Y1166.969 Z-12.833
N3520 Y1069.944 Z-7.375
N3525 Y960.88 Z-5.872
N3530 Y819.238 Z-7.891
N3535 Y520.373 Z-16.006
N3540 Y442.469 Z-20.072
N3545 Y400.535 Z-24.264
N3550 Y365.212 Z-30.131
N3555 Y351.298 Z-33.712
N3560 G2 Y348.918 Z-31.867 J-0.475 K1.845 F1000.
N3565 G1 Z-30.026
N3570 Z5. F5000.
N3575 X248.082 Y251.318
N3580 Z-32.436
N3585 Z-33.819 F1000.
N3590 G3 Y253.771 Z-35.643 J1.905 K0.
N3595 G1 Y264.906 Z-32.295 F5000.
N3600 Y295.622 Z-26.733
N3605 Y339.157 Z-22.84
N3610 Y577.116 Z-14.164
N3615 Y885.896 Z-6.515
N3620 Y1007.708 Z-5.87
N3625 Y1138.019 Z-8.252
N3630 Y1228.67 Z-12.391
N3635 Y1296.658 Z-19.527
N3640 Y1342.537 Z-27.072
N3645 Y1376.174 Z-35.196
N3650 Y1399.197 Z-44.057
N3655 G3 Y1401.786 Z-42.279 J0.684 K1.778 F1000.
N3660 G1 Z-41.336
N3665 Z5. F5000.
N3670 X233.086 Y1455.704
N3675 Z-46.576
N3680 Z-47.17 F1000.
N3685 G2 Y1452.972 Z-48.885 J-1.905 K0.
N3690 G1 Y1435.809 Z-40.603 F5000.
N3695 Y1412.073 Z-33.206
N3700 Y1376.867 Z-25.481
N3705 Y1334.788 Z-19.091
N3710 Y1266.799 Z-13.652
N3715 Y1153.486 Z-8.43
N3720 Y1020.342 Z-5.901
N3725 Y892.3 Z-6.461
N3730 Y586.353 Z-13.904
N3735 Y331.397 Z-23.083
N3740 Y226.581 Z-28.43
N3745 Y195.792 Z-32.754
N3750 Y176.936 Z-38.059
N3755 G2 Y174.515 Z-36.226 J-0.516 K1.834 F1000.
N3760 G1 Z-35.315
N3765 Z5. F5000.
N3770 X218.09 Y111.299
N3775 Z-39.093
N3780 Z-39.687 F1000.
N3785 G3 Y113.807 Z-41.494 J1.905 K0.
N3790 G1 Y128.455 Z-36.603 F5000.
N3795 Y154.931 Z-32.467
N3800 Y293.74 Z-24.772
N3805 Y534.532 Z-15.531
N3810 Y843.312 Z-7.468
N3815 Y982.121 Z-5.782
N3820 Y1120.93 Z-7.367
N3825 Y1239.91 Z-11.751
N3830 Y1341.892 Z-18.543
N3835 Y1404.215 Z-25.08
N3840 Y1432.881 Z-30.556
N3845 Y1459.678 Z-37.569
N3850 Y1476.601 Z-43.594
N3855 Y1489.113 Z-49.658
N3860 Y1494.779 Z-50.
N3865 G3 Y1496.798 Z-48.098 J0.115 K1.902 F1000.
N3870 G1 Z5. F5000.
N3875 X203.094 Y1530.495
N3880 Z-48.095
N3885 G2 Y1528.557 Z-50. J-1.905 K0. F1000.
N3890 G1 Y1517.226 Z-49.805 F5000.
N3895 Y1501.697 Z-43.03
N3900 Y1480.619 Z-36.323
N3905 Y1456.992 Z-30.828
N3910 Y1420.411 Z-25.764
N3915 Y1363.876 Z-19.958
N3920 Y1264.727 Z-12.825
N3925 Y1145.747 Z-7.896
N3930 Y1009.771 Z-5.848
N3935 Y870.962 Z-6.963
N3940 Y559.349 Z-14.772
N3945 Y312.891 Z-23.899
N3950 Y151.419 Z-32.585
N3955 Y89.052 Z-37.701
N3960 Y82.031 Z-40.815
N3965 Y79.687 Z-43.036
N3970 G2 Y79.031 Z-43.297 J-0.655 K0.691
N3975 G1 Y68.815
N3980 X202.954 Y67.932 Z-43.306
N3985 X202.549 Y67.135 Z-43.329
N3990 X201.918 Y66.503 Z-43.366
N3995 X201.123 Y66.097 Z-43.413
N4000 X200.241 Y65.957 Z-43.465
N4005 X190.95 Z-44.009
N4010 X190.069 Y66.097 Z-44.061
N4015 X189.274 Y66.503 Z-44.108
N4020 X188.643 Y67.135 Z-44.145
N4025 X188.237 Y67.932 Z-44.169
N4030 X188.098 Y68.815 Z-44.177
N4035 G3 Y69.518 Z-43.866 J0. K0.952
N4040 G1 Y70.223 Z-43.094
N4045 Y76.974 Z-38.949
N4050 Y99.354 Z-36.44
N4055 Y218.333 Z-28.563
N4060 Y419.465 Z-19.535
N4065 Y702.75 Z-10.764
N4070 Y940.708 Z-6.003
N4075 Y1085.183 Z-6.5
N4080 Y1212.661 Z-10.087
N4085 Y1323.142 Z-16.332
N4090 Y1413.667 Z-24.455
N4095 Y1467.15 Z-31.11
N4100 Y1497.742 Z-36.102
N4105 Y1516.456 Z-41.089
N4110 Y1539.483 Z-49.733
N4115 Y1556.48 Z-50.
N4120 G3 Y1556.914 Z-49.903 J0.015 K0.952
N4125 G2 Y1557.333 Z-49.806 J0.419 K-0.855
N4130 G1 Y1580.787
N4135 G17 G3 X185.24 Y1583.645 I-2.857 J0.
N4140 G1 X175.959
N4145 G3 X173.102 Y1580.787 I0. J-2.857
N4150 G19 G3 Y1580.368 Z-49.903 J0. K-0.952
N4155 G2 Y1579.935 Z-50. J-0.419 K0.855
N4160 G1 Y1557.272 Z-49.672
N4165 Y1542.531 Z-44.167
N4170 Y1531.905 Z-41.237
N4175 Y1498.941 Z-35.234
N4180 Y1428.562 Z-25.71
N4185 Y1366.499 Z-19.508
N4190 Y1264.516 Z-12.396
N4195 Y1145.537 Z-7.666
N4200 Y1009.56 Z-5.784
N4205 Y865.085 Z-7.093
N4210 Y556.305 Z-14.873
N4215 Y312.681 Z-23.908
N4220 Y151.209 Z-32.599
N4225 Y69.609 Z-39.299
N4230 Y62.842 Z-42.527
N4235 Y60.757 Z-44.571
N4240 Y60.129 Z-45.239
N4245 G2 Y59.462 Z-45.511 J-0.667 K0.68
N4250 G1 Y52.767
N4255 X172.962 Y51.884 Z-45.512
N4260 X172.556 Y51.087
N4265 X171.924 Y50.455 Z-45.514
N4270 X171.127 Y50.049 Z-45.515
N4275 X170.244 Y49.909 Z-45.517
N4280 X160.963 Z-45.534
N4285 X160.08 Y50.049 Z-45.535
N4290 X159.283 Y50.455 Z-45.537
N4295 X158.651 Y51.087 Z-45.538
N4300 X158.245 Y51.884 Z-45.539
N4305 X158.105 Y52.767
N4310 G3 Y53.461 Z-45.239 J0. K0.952
N4315 G1 Y54.795 Z-43.82
N4320 Y61.406 Z-40.215
N4325 Y131.485 Z-33.961
N4330 Y275.96 Z-25.612
N4335 Y505.42 Z-16.503
N4340 Y805.702 Z-8.334
N4345 Y972.84 Z-5.788
N4350 Y1112.44 Z-6.821
N4355 Y1237.085 Z-10.861
N4360 Y1344.733 Z-17.469
N4365 Y1435.107 Z-26.115
N4370 Y1490.359 Z-33.384
N4375 Y1534.826 Z-40.786
N4380 Y1561.96 Z-46.508
N4385 Y1571.56 Z-49.674
N4390 Y1599.888 Z-50.
N4395 G3 Y1600.318 Z-49.903 J0.011 K0.952
N4400 G2 Y1600.738 Z-49.806 J0.419 K-0.855
N4405 G1 Y1617.854
N4410 G17 G3 X155.248 Y1620.712 I-2.857 J0.
N4415 G1 X145.967
N4420 G3 X143.109 Y1617.854 I0. J-2.857
N4425 G19 G3 Y1617.435 Z-49.903 J0. K-0.952
N4430 G2 Y1617.004 Z-50. J-0.419 K0.855
N4435 G1 Y1579.277 Z-49.517
N4440 Y1548.675 Z-42.847
N4445 Y1504.472 Z-35.14
N4450 Y1454.074 Z-28.093
N4455 Y1392.154 Z-21.354
N4460 Y1293.004 Z-13.724
N4465 Y1176.858 Z-8.407
N4470 Y1043.714 Z-5.869
N4475 Y896.349 Z-6.539
N4480 Y593.235 Z-13.76
N4485 Y338.279 Z-22.787
N4490 Y168.309 Z-31.492
N4495 Y71.992 Z-38.923
N4500 Y57.811 Z-40.769
N4505 Y51.991 Z-44.754
N4510 Y51.753 Z-45.041
N4515 G2 Y51.02 Z-45.384 J-0.733 K0.609
N4520 G1 Y50.667
N4525 X142.969 Y49.784 Z-45.383
N4530 X142.564 Y48.987 Z-45.38
N4535 X141.931 Y48.355 Z-45.376
N4540 X141.135 Y47.949 Z-45.37
N4545 X140.252 Y47.809 Z-45.363
N4550 X130.971 Z-45.295
N4555 X130.088 Y47.949 Z-45.288
N4560 X129.291 Y48.355 Z-45.282
N4565 X128.659 Y48.987 Z-45.278
N4570 X128.253 Y49.784 Z-45.275
N4575 X128.113 Y50.667 Z-45.274
N4580 G3 Y51.222 Z-45.095 J0. K0.952
N4585 G1 Y57.038 Z-40.914
N4590 Y79.565 Z-38.19
N4595 Y181.547 Z-30.676
N4600 Y362.849 Z-21.758
N4605 Y626.304 Z-12.808
N4610 Y915.254 Z-6.271
N4615 Y1060.763 Z-5.985
N4620 Y1191.073 Z-8.812
N4625 Y1304.387 Z-14.316
N4630 Y1400.704 Z-22.
N4635 Y1459.931 Z-28.58
N4640 Y1513.06 Z-36.162
N4645 Y1551.643 Z-42.98
N4650 Y1584.193 Z-49.997
N4655 Y1631.766 Z-50.
N4660 G3 Y1632.185 Z-49.903 J0. K0.952
N4665 G2 Y1632.604 Z-49.806 J0.419 K-0.855
N4670 G1 Y1645.374
N4675 G17 G3 X125.256 Y1648.231 I-2.858 J0.
N4680 G1 X115.975
N4685 G3 X113.117 Y1645.374 I0. J-2.858
N4690 G19 G3 Y1644.955 Z-49.903 J0. K-0.953
N4695 G2 Y1644.528 Z-50. J-0.419 K0.855
N4700 G1 Y1584.202 Z-49.537
N4705 Y1548.7 Z-42.069
N4710 Y1504.338 Z-34.54
N4715 Y1439.553 Z-25.962
N4720 Y1377.319 Z-19.703
N4725 Y1275.337 Z-12.506
N4730 Y1156.357 Z-7.684
N4735 Y1020.381 Z-5.712
N4740 Y870.856 Z-6.978
N4745 Y559.243 Z-14.783
N4750 Y312.786 Z-23.903
N4755 Y151.314 Z-32.592
N4760 Y63.521 Z-39.796
N4765 Y55.195 Z-41.574
N4770 Y50.778 Z-45.145
N4775 G2 Y50.179 Z-45.356 J-0.599 K0.741
N4780 G1 Y49.726
N4785 X112.977 Y48.843 Z-45.358
N4790 X112.571 Y48.046 Z-45.361
N4795 X111.939 Y47.414 Z-45.366
N4800 X111.143 Y47.008 Z-45.373
N4805 X110.26 Y46.868 Z-45.38
N4810 X100.978 Z-45.458
N4815 X100.095 Y47.008 Z-45.465
N4820 X99.299 Y47.414 Z-45.472
N4825 X98.667 Y48.046 Z-45.477
N4830 X98.261 Y48.843 Z-45.481
N4835 X98.121 Y49.726 Z-45.482
N4840 G3 Y50.415 Z-45.186 J0. K0.952
N4845 G1 Y51.937 Z-43.588
N4850 Y57.233 Z-40.675
N4855 Y77.66 Z-38.371
N4860 Y179.642 Z-30.792
N4865 Y358.111 Z-21.953
N4870 Y618.733 Z-13.023
N4875 Y910.516 Z-6.334
N4880 Y1058.534 Z-5.919
N4885 Y1188.844 Z-8.635
N4890 Y1302.158 Z-14.018
N4895 Y1401.308 Z-21.821
N4900 Y1460.272 Z-28.306
N4905 Y1516.305 Z-36.232
N4910 Y1554.861 Z-43.014
N4915 Y1587.635 Z-49.999
N4920 Y1655.623 Z-50.
N4925 G3 Y1656.042 Z-49.903 J0. K0.952
N4930 G2 Y1656.461 Z-49.806 J0.419 K-0.855
N4935 G1 Y1666.07
N4940 G17 G3 X95.263 Y1668.928 I-2.857 J0.
N4945 G1 X85.982
N4950 G3 X83.125 Y1666.07 I0. J-2.858
N4955 G19 G3 Y1665.651 Z-49.903 J0. K-0.953
N4960 G2 Y1665.228 Z-50. J-0.419 K0.855
N4965 G1 Y1587.275 Z-49.684
N4970 Y1550.589 Z-42.033
N4975 Y1506.268 Z-34.537
N4980 Y1450.131 Z-26.979
N4985 Y1387.949 Z-20.488
N4990 Y1285.967 Z-12.996
N4995 Y1166.987 Z-7.91
N5000 Y1031.011 Z-5.726
N5005 Y882.187 Z-6.779
N5010 Y576.24 Z-14.266
N5015 Y326.95 Z-23.277
N5020 Y159.812 Z-32.034
N5025 Y67.745 Z-39.353
N5030 Y55.196 Z-41.34
N5035 Y50.134 Z-45.215
N5040 Y50.097 Z-45.243
N5045 G2 Y49.518 Z-45.439 J-0.579 K0.756
N5050 G1 Y49.347 Z-45.434
N5055 G17 G2 X80.267 Y46.49 I-2.857 J0.
N5060 G1 X70.986
N5065 G2 X68.129 Y49.347 I0. J2.858
N5070 G19 G3 Y49.92 Z-45.243 J0. K0.952
N5075 G1 Y55.196 Z-41.272
N5080 Y71.994 Z-38.923
N5085 Y165.478 Z-31.671
N5090 Y332.616 Z-23.031
N5095 Y584.739 Z-14.011
N5100 Y890.686 Z-6.635
N5105 Y1040.901 Z-5.765
N5110 Y1174.044 Z-8.103
N5115 Y1290.191 Z-13.201
N5120 Y1389.34 Z-20.564
N5125 Y1448.367 Z-26.705
N5130 Y1506.892 Z-34.543
N5135 Y1551.232 Z-42.042
N5140 Y1588.576 Z-49.837
N5145 Y1673.561 Z-50.
N5150 G3 Y1673.982 Z-49.903 J0.002 K0.952
N5155 G2 Y1674.401 Z-49.806 J0.419 K-0.855
N5160 G1 Y1681.588
N5165 G17 G3 X65.271 Y1684.445 I-2.857 J0.
N5170 G1 X55.99
N5175 G3 X53.132 Y1681.588 I0. J-2.857
N5180 G19 G3 Y1681.169 Z-49.903 J0. K-0.953
N5185 G2 Y1680.75 Z-50. J-0.419 K0.855
N5190 G1 Y1589.673 Z-49.994
N5195 Y1551.629 Z-42.043
N5200 Y1507.278 Z-34.541
N5205 Y1448.332 Z-26.654
N5210 Y1389.298 Z-20.523
N5215 Y1290.148 Z-13.172
N5220 Y1174.002 Z-8.085
N5225 Y1040.858 Z-5.757
N5230 Y890.685 Z-6.635
N5235 Y584.738 Z-14.011
N5240 Y332.615 Z-23.031
N5245 Y165.478 Z-31.671
N5250 Y71.994 Z-38.923
N5255 Y55.196 Z-41.258
N5260 Y49.877 Z-45.244
N5265 Y49.875 Z-45.245
N5270 G2 Y49.304 Z-45.435 J-0.571 K0.762
N5275 G1 Y49.291
N5280 G17 G2 X50.275 Y46.433 I-2.857 J0.
N5285 G1 X40.994
N5290 G2 X38.136 Y49.291 I0. J2.858
N5295 G19 G3 Y49.862 Z-45.245 J0. K0.953
N5300 G1 Y55.196 Z-41.253
N5305 Y71.994 Z-38.923
N5310 Y165.478 Z-31.671
N5315 Y332.615 Z-23.031
N5320 Y584.738 Z-14.011
N5325 Y890.685 Z-6.635
N5330 Y1041.583 Z-5.756
N5335 Y1174.726 Z-8.096
N5340 Y1290.873 Z-13.196
N5345 Y1390.022 Z-20.565
N5350 Y1448.996 Z-26.7
N5355 Y1507.532 Z-34.539
N5360 Y1551.89 Z-42.044
N5365 Y1589.933 Z-49.994
N5370 Y1686.952 Z-50.
N5375 G3 Y1687.371 Z-49.903 J0. K0.952
N5380 G2 Y1687.79 Z-49.806 J0.419 K-0.855
N5385 G1 Y1693.079
N5390 G17 G3 X35.279 Y1695.937 I-2.857 J0.
N5395 G1 X25.998
N5400 G3 X23.14 Y1693.079 I0. J-2.857
N5405 G19 G3 Y1692.66 Z-49.903 J0. K-0.953
N5410 G2 Y1692.241 Z-50. J-0.419 K0.855
N5415 G1 Y1590.089 Z-49.997
N5420 Y1552.046 Z-42.046
N5425 Y1507.685 Z-34.539
N5430 Y1451.979 Z-27.031
N5435 Y1387.334 Z-20.301
N5440 Y1285.352 Z-12.87
N5445 Y1166.373 Z-7.835
N5450 Y1030.396 Z-5.701
N5455 Y879.354 Z-6.827
N5460 Y570.574 Z-14.436
N5465 Y321.284 Z-23.526
N5470 Y156.979 Z-32.218
N5475 Y65.977 Z-39.537
N5480 Y55.196 Z-41.248
N5485 Y49.846 Z-45.246
N5490 Y49.844 Z-45.247
N5495 G2 Y49.274 Z-45.437 J-0.57 K0.763
N5500 G1 Y49.261
N5505 G17 G2 X20.283 Y46.403 I-2.858 J0.
N5510 G1 X11.001
N5515 G2 X8.144 Y49.261 I0. J2.857
N5520 G19 G3 Y49.831 Z-45.247 J0. K0.952
N5525 G1 Y55.196 Z-41.243
N5530 Y71.994 Z-38.923
N5535 Y165.478 Z-31.671
N5540 Y332.615 Z-23.031
N5545 Y584.738 Z-14.011
N5550 Y890.685 Z-6.635
N5555 Y1040.811 Z-5.748
N5560 Y1173.954 Z-8.062
N5565 Y1290.101 Z-13.136
N5570 Y1389.25 Z-20.472
N5575 Y1448.683 Z-26.637
N5580 Y1507.75 Z-34.539
N5585 Y1552.113 Z-42.047
N5590 Y1589.103 Z-49.756
N5595 Y1696.751 Z-50.
N5600 G3 Y1697.173 Z-49.903 J0.002 K0.952
N5605 G2 Y1697.592 Z-49.806 J0.419 K-0.855
N5610 G1 Y1697.949
N5615 G17 G3 X5.286 Y1700.807 I-2.857 J0.
N5620 G1 X-3.995
N5625 G3 X-6.852 Y1697.949 I0. J-2.857
N5630 G19 G3 Y1697.53 Z-49.903 J0. K-0.952
N5635 G2 Y1697.109 Z-50. J-0.419 K0.855
N5640 G1 Y1589.461 Z-49.838
N5645 Y1552.118 Z-42.047
N5650 Y1507.756 Z-34.539
N5655 Y1431.281 Z-24.668
N5660 Y1337.798 Z-16.265
N5665 Y1227.317 Z-9.99
N5670 Y1102.672 Z-6.416
N5675 Y958.674 Z-5.825
N5680 Y757.542 Z-9.427
N5685 Y465.759 Z-17.855
N5690 Y250.463 Z-26.872
N5695 Y117.319 Z-35.009
N5700 Y56.974 Z-40.65
N5705 Y51.139 Z-43.844
N5710 Y49.825 Z-45.253
N5715 G2 Y49.128 Z-45.556 J-0.697 K0.65
N5720 G17 G2 X-9.71 Y46.271 I-2.858 J0.
N5725 G1 X-18.991
N5730 G2 X-21.848 Y49.128 I0. J2.858
N5735 G1 Y49.149 Z-45.549
N5740 G19 G3 Y49.839 Z-45.253 J0. K0.953
N5745 G1 Y49.842 Z-45.25
N5750 Y51.342 Z-43.671
N5755 Y56.981 Z-40.651
N5760 Y117.319 Z-35.009
N5765 Y250.463 Z-26.872
N5770 Y465.759 Z-17.855
N5775 Y757.542 Z-9.427
N5780 Y958.674 Z-5.826
N5785 Y1102.608 Z-6.417
N5790 Y1227.253 Z-9.991
N5795 Y1337.734 Z-16.266
N5800 Y1431.218 Z-24.669
N5805 Y1507.693 Z-34.539
N5810 Y1552.054 Z-42.046
N5815 Y1588.853 Z-49.71
N5820 Y1692.66 Z-50.
N5825 G3 Y1693.082 Z-49.903 J0.003 K0.952
N5830 G2 Y1693.501 Z-49.806 J0.419 K-0.855
N5835 G17 G3 X-24.706 Y1696.359 I-2.858 J0.
N5840 G1 X-33.987
N5845 G3 X-36.845 Y1693.501 I0. J-2.858
N5850 G1 Y1688.278
N5855 G19 G3 Y1687.859 Z-49.903 J0. K-0.953
N5860 G2 Y1687.44 Z-50. J-0.419 K0.855
N5865 G1 Y1589.951 Z-49.995
N5870 Y1551.908 Z-42.044
N5875 Y1507.55 Z-34.539
N5880 Y1431.076 Z-24.67
N5885 Y1337.592 Z-16.268
N5890 Y1227.111 Z-9.993
N5895 Y1102.466 Z-6.419
N5900 Y958.674 Z-5.826
N5905 Y757.542 Z-9.427
N5910 Y465.759 Z-17.855
N5915 Y250.463 Z-26.872
N5920 Y117.319 Z-35.009
N5925 Y56.989 Z-40.652
N5930 Y51.358 Z-43.669
N5935 Y49.858 Z-45.248
N5940 G2 Y49.168 Z-45.544 J-0.691 K0.656
N5945 G17 G2 X-39.702 Y46.31 I-2.857 J0.
N5950 G1 X-48.983
N5955 G2 X-51.841 Y49.168 I0. J2.858
N5960 G1 Y49.183 Z-45.543
N5965 G19 G3 Y49.872 Z-45.248 J0. K0.952
N5970 G1 Y49.875 Z-45.245
N5975 Y51.398 Z-43.646
N5980 Y56.996 Z-40.652
N5985 Y117.319 Z-35.009
N5990 Y250.463 Z-26.872
N5995 Y465.759 Z-17.855
N6000 Y757.542 Z-9.427
N6005 Y958.674 Z-5.827
N6010 Y1102.228 Z-6.423
N6015 Y1226.873 Z-9.997
N6020 Y1337.354 Z-16.271
N6025 Y1430.838 Z-24.672
N6030 Y1507.31 Z-34.541
N6035 Y1551.662 Z-42.044
N6040 Y1589.702 Z-49.995
N6045 Y1681.328 Z-50.
N6050 G3 Y1681.748 Z-49.903 J0. K0.952
N6055 G2 Y1682.167 Z-49.806 J0.419 K-0.855
N6060 G17 G3 X-54.698 Y1685.024 I-2.857 J0.
N6065 G1 X-63.979
N6070 G3 X-66.837 Y1682.167 I0. J-2.857
N6075 G1 Y1675.059
N6080 G19 G3 Y1674.64 Z-49.903 J0. K-0.953
N6085 G2 Y1674.221 Z-50. J-0.419 K0.855
N6090 G1 Y1589.236 Z-49.98
N6095 Y1551.077 Z-42.006
N6100 Y1506.736 Z-34.513
N6105 Y1430.266 Z-24.652
N6110 Y1336.782 Z-16.26
N6115 Y1226.301 Z-9.993
N6120 Y1101.656 Z-6.425
N6125 Y958.674 Z-5.829
N6130 Y760.375 Z-9.361
N6135 Y465.759 Z-17.855
N6140 Y250.463 Z-26.872
N6145 Y117.319 Z-35.009
N6150 Y57.01 Z-40.653
N6155 Y51.42 Z-43.652
N6160 Y49.906 Z-45.243
N6165 G2 Y49.216 Z-45.539 J-0.69 K0.657
N6170 G17 G2 X-69.694 Y46.358 I-2.858 J0.
N6175 G1 X-78.976
N6180 G2 X-81.833 Y49.216 I0. J2.857
N6185 G1 Y49.399
N6190 G19 G3 Y50.088 Z-45.243 J0. K0.952
N6195 G1 Y50.112 Z-45.219
N6200 Y51.648 Z-43.608
N6205 Y57.101 Z-40.661
N6210 Y117.32 Z-35.009
N6215 Y250.463 Z-26.872
N6220 Y465.759 Z-17.855
N6225 Y760.375 Z-9.361
N6230 Y958.674 Z-5.831
N6235 Y1101.803 Z-6.442
N6240 Y1226.448 Z-10.028
N6245 Y1336.929 Z-16.313
N6250 Y1430.413 Z-24.728
N6255 Y1506.88 Z-34.62
N6260 Y1551.204 Z-42.138
N6265 Y1586.667 Z-49.528
N6270 Y1665.986 Z-50.
N6275 G3 Y1666.411 Z-49.903 J0.006 K0.952
N6280 G2 Y1666.83 Z-49.806 J0.419 K-0.855
N6285 G17 G3 X-84.691 Y1669.688 I-2.857 J0.
N6290 G1 X-93.972
N6295 G3 X-96.829 Y1666.83 I0. J-2.857
N6300 G1 Y1657.342
N6305 G19 G3 Y1656.923 Z-49.903 J0. K-0.953
N6310 G2 Y1656.503 Z-50. J-0.419 K0.855
N6315 G1 Y1587.734 Z-49.999
N6320 Y1555.169 Z-43.057
N6325 Y1516.61 Z-36.268
N6330 Y1443.112 Z-26.237
N6335 Y1352.461 Z-17.546
N6340 Y1244.813 Z-10.885
N6345 Y1123.001 Z-6.852
N6350 Y981.302 Z-5.716
N6355 Y814.164 Z-8.149
N6360 Y511.05 Z-16.317
N6365 Y278.757 Z-25.478
N6370 Y131.449 Z-33.964
N6375 Y58.943 Z-40.304
N6380 Y53.989 Z-42.067
N6385 Y50.39 Z-45.187
N6390 G2 Y49.766 Z-45.42 J-0.624 K0.72
N6395 G1 X-96.969 Y48.883
N6400 X-97.375 Y48.087 Z-45.422
N6405 X-98.007 Y47.454 Z-45.425
N6410 X-98.804 Y47.049 Z-45.428
N6415 X-99.687 Y46.909 Z-45.432
N6420 X-108.968 Z-45.471
N6425 X-109.851 Y47.049 Z-45.475
N6430 X-110.648 Y47.454 Z-45.478
N6435 X-111.28 Y48.087 Z-45.481
N6440 X-111.686 Y48.883 Z-45.483
N6445 X-111.825 Y49.766
N6450 Y50.009
N6455 G3 Y50.7 Z-45.187 J0. K0.953
N6460 G1 Y50.742 Z-45.15
N6465 Y52.24 Z-43.574
N6470 Y57.374 Z-40.693
N6475 Y117.32 Z-35.009
N6480 Y250.464 Z-26.872
N6485 Y465.76 Z-17.855
N6490 Y760.375 Z-9.361
N6495 Y958.674 Z-5.838
N6500 Y1101.425 Z-6.483
N6505 Y1226.07 Z-10.1
N6510 Y1336.551 Z-16.421
N6515 Y1430.035 Z-24.883
N6520 Y1506.488 Z-34.854
N6525 Y1550.74 Z-42.437
N6530 Y1584.786 Z-49.642
N6535 Y1645.549 Z-50.
N6540 G3 Y1645.974 Z-49.903 J0.006 K0.952
N6545 G2 Y1646.393 Z-49.806 J0.419 K-0.855
N6550 G17 G3 X-114.683 Y1649.25 I-2.857 J0.
N6555 G1 X-123.964
N6560 G3 X-126.822 Y1646.393 I0. J-2.857
N6565 G1 Y1633.787
N6570 G19 G3 Y1633.368 Z-49.903 J0. K-0.952
N6575 G2 Y1632.943 Z-50. J-0.419 K0.855
N6580 G1 Y1583.185 Z-49.711
N6585 Y1546.388 Z-41.936
N6590 Y1502.05 Z-34.406
N6595 Y1425.574 Z-24.543
N6600 Y1332.091 Z-16.193
N6605 Y1221.61 Z-9.974
N6610 Y1094.132 Z-6.397
N6615 Y950.176 Z-5.898
N6620 Y734.88 Z-9.968
N6625 Y445.93 Z-18.561
N6630 Y236.3 Z-27.602
N6635 Y108.822 Z-35.67
N6640 Y57.556 Z-40.725
N6645 Y52.682 Z-43.521
N6650 Y51.18 Z-45.101
N6655 G2 Y50.49 Z-45.397 J-0.69 K0.656
N6660 G1 X-126.961 Y49.607 Z-45.396
N6665 X-127.367 Y48.81 Z-45.394
N6670 X-127.999 Y48.178 Z-45.392
N6675 X-128.796 Y47.772 Z-45.389
N6680 X-129.679 Y47.632 Z-45.385
N6685 X-138.96 Z-45.347
N6690 X-139.843 Y47.772 Z-45.343
N6695 X-140.64 Y48.178 Z-45.34
N6700 X-141.272 Y48.81 Z-45.337
N6705 X-141.678 Y49.607 Z-45.335
N6710 X-141.818 Y50.49
N6715 Y51.025
N6720 G3 Y51.65 Z-45.101 J0. K0.952
N6725 G1 Y51.706 Z-45.042
N6730 Y55.252 Z-41.954
N6735 Y60.713 Z-40.1
N6740 Y137.15 Z-33.559
N6745 Y287.291 Z-25.074
N6750 Y522.417 Z-15.945
N6755 Y828.364 Z-7.845
N6760 Y987.003 Z-5.734
N6765 Y1128.504 Z-7.083
N6770 Y1250.317 Z-11.365
N6775 Y1355.132 Z-18.091
N6780 Y1442.95 Z-26.718
N6785 Y1513.561 Z-36.566
N6790 Y1552.086 Z-43.478
N6795 Y1580.196 Z-49.659
N6800 Y1618.37 Z-50.
N6805 G3 Y1618.797 Z-49.903 J0.009 K0.952
N6810 G2 Y1619.216 Z-49.806 J0.419 K-0.855
N6815 G17 G3 X-144.675 Y1622.074 I-2.858 J0.
N6820 G1 X-153.956
N6825 G3 X-156.814 Y1619.216 I0. J-2.858
N6830 G1 Y1602.325
N6835 G19 G3 Y1601.905 Z-49.903 J0. K-0.952
N6840 G2 Y1601.482 Z-50. J-0.419 K0.855
N6845 G1 Y1573.153 Z-49.872
N6850 Y1562.677 Z-46.523
N6855 Y1535.543 Z-40.867
N6860 Y1491.09 Z-33.456
N6865 Y1414.617 Z-23.824
N6870 Y1321.133 Z-15.707
N6875 Y1210.652 Z-9.708
N6880 Y1083.174 Z-6.326
N6885 Y938.699 Z-6.01
N6890 Y692.242 Z-11.034
N6895 Y411.79 Z-19.825
N6900 Y213.491 Z-28.83
N6905 Y97.345 Z-36.608
N6910 Y59.646 Z-40.636
N6915 Y53.433 Z-44.668
N6920 Y52.918 Z-45.258
N6925 G2 Y52.2 Z-45.585 J-0.718 K0.626
N6930 G1 X-156.954 Y51.317
N6935 X-157.36 Y50.521 Z-45.584
N6940 X-157.992 Y49.889 Z-45.583
N6945 X-158.788 Y49.483 Z-45.582
N6950 X-159.671 Y49.343 Z-45.581
N6955 X-168.953 Z-45.568
N6960 X-169.836 Y49.483 Z-45.566
N6965 X-170.632 Y49.889 Z-45.565
N6970 X-171.264 Y50.521 Z-45.564
N6975 X-171.67 Y51.317
N6980 X-171.81 Y52.2
N6985 Y58.829
N6990 G3 Y59.528 Z-45.258 J0. K0.952
N6995 G1 Y60.081 Z-44.624
N7000 Y61.099 Z-43.524
N7005 Y67.505 Z-39.745
N7010 Y97.543 Z-36.592
N7015 Y216.523 Z-28.663
N7020 Y414.822 Z-19.71
N7025 Y695.273 Z-10.956
N7030 Y938.898 Z-6.011
N7035 Y1083.373 Z-6.389
N7040 Y1210.85 Z-9.843
N7045 Y1321.331 Z-15.93
N7050 Y1414.815 Z-24.158
N7055 Y1488.458 Z-33.547
N7060 Y1527.245 Z-40.139
N7065 Y1542.013 Z-43.573
N7070 Y1559.12 Z-49.868
N7075 Y1581.782 Z-50.
N7080 G3 Y1582.207 Z-49.903 J0.005 K0.952
N7085 G2 Y1582.626 Z-49.806 J0.419 K-0.855
N7090 G17 G3 X-174.668 Y1585.484 I-2.858 J0.
N7095 G1 X-183.949
N7100 G3 X-186.806 Y1582.626 I0. J-2.858
N7105 G1 Y1559.512
N7110 G19 G3 Y1559.092 Z-49.903 J0. K-0.952
N7115 G2 Y1558.652 Z-50. J-0.419 K0.855
N7120 G1 Y1541.051 Z-49.624
N7125 Y1521.901 Z-42.269
N7130 Y1501.992 Z-36.77
N7135 Y1474.194 Z-32.066
N7140 Y1397.893 Z-22.752
N7145 Y1304.232 Z-14.985
N7150 Y1190.918 Z-9.219
N7155 Y1060.608 Z-6.169
N7160 Y916.133 Z-6.259
N7165 Y630.015 Z-12.705
N7170 Y366.561 Z-21.606
N7175 Y185.259 Z-30.453
N7180 Y80.444 Z-38.108
N7185 Y72.772 Z-40.545
N7190 Y68.71 Z-43.918
N7195 G2 Y68.101 Z-44.138 J-0.608 K0.733
N7200 G1 X-186.946 Y67.218 Z-44.131
N7205 X-187.351 Y66.422 Z-44.11
N7210 X-187.983 Y65.79 Z-44.079
N7215 X-188.778 Y65.384 Z-44.039
N7220 X-189.66 Y65.244 Z-43.995
N7225 X-198.948 Z-43.53
N7230 X-199.83 Y65.384 Z-43.486
N7235 X-200.626 Y65.79 Z-43.446
N7240 X-201.257 Y66.422 Z-43.415
N7245 X-201.663 Y67.218 Z-43.394
N7250 X-201.802 Y68.101 Z-43.387
N7255 Y78.117
N7260 G3 Y78.789 Z-43.11 J0. K0.952
N7265 G1 Y80.508 Z-41.398
N7270 Y87.325 Z-37.863
N7275 Y131.478 Z-33.962
N7280 Y278.786 Z-25.477
N7285 Y511.079 Z-16.31
N7290 Y814.193 Z-8.14
N7295 Y972.832 Z-5.827
N7300 Y1111.641 Z-7.053
N7305 Y1236.287 Z-11.315
N7310 Y1341.102 Z-17.987
N7315 Y1425.733 Z-26.332
N7320 Y1460.522 Z-31.226
N7325 Y1484.121 Z-36.769
N7330 Y1504.645 Z-43.389
N7335 Y1518.989 Z-49.671
N7340 Y1531.15 Z-50.
N7345 G3 Y1533.106 Z-48.096 J0.051 K1.904 F1000.
N7350 G1 Z5. F5000.
N7355 X-216.799 Y1499.879
N7360 Z-48.095
N7365 G2 Y1497.961 Z-50. J-1.905 K0. F1000.
N7370 G1 Y1492.296 Z-49.963 F5000.
N7375 Y1481.814 Z-44.679
N7380 Y1464.168 Z-38.192
N7385 Y1437.838 Z-31.141
N7390 Y1407.534 Z-25.319
N7395 Y1341.695 Z-18.479
N7400 Y1239.713 Z-11.717
N7405 Y1117.901 Z-7.282
N7410 Y979.091 Z-5.782
N7415 Y834.616 Z-7.658
N7420 Y528.669 Z-15.721
N7425 Y290.71 Z-24.913
N7430 Y148.714 Z-32.889
N7435 Y123.035 Z-37.042
N7440 Y108.879 Z-41.861
N7445 G2 Y106.36 Z-40.057 J-0.614 K1.803 F1000.
N7450 G1 Z-39.482
N7455 Z5. F5000.
N7460 X-231.795 Y168.594
N7465 Z-35.59
N7470 Z-36.466 F1000.
N7475 G3 Y171.031 Z-38.295 J1.905 K0.
N7480 G1 Y187.888 Z-33.389 F5000.
N7485 Y217.711 Z-28.969
N7490 Y328.192 Z-23.223
N7495 Y580.315 Z-14.089
N7500 Y889.095 Z-6.522
N7505 Y1019.406 Z-5.89
N7510 Y1152.55 Z-8.379
N7515 Y1265.863 Z-13.535
N7520 Y1339.517 Z-19.363
N7525 Y1380.445 Z-25.59
N7530 Y1417.232 Z-33.738
N7535 Y1440.375 Z-41.119
N7540 Y1456.945 Z-49.26
N7545 G3 Y1459.69 Z-47.55 J0.84 K1.71 F1000.
N7550 G1 Z-47.01
N7555 Z5. F5000.
N7560 X-246.791 Y1407.078
N7565 Z-41.826
N7570 Z-42.756 F1000.
N7575 G2 Y1404.439 Z-44.514 J-1.905 K0.
N7580 G1 Y1389.344 Z-38.208 F5000.
N7585 Y1368.698 Z-32.171
N7590 Y1342.755 Z-26.352
N7595 Y1299.347 Z-19.303
N7600 Y1245.953 Z-13.443
N7605 Y1166.634 Z-9.198
N7610 Y1041.989 Z-6.168
N7615 Y934.792 Z-5.85
N7620 Y685.502 Z-11.094
N7625 Y407.883 Z-19.964
N7630 Y312.983 Z-24.367
N7635 Y274.975 Z-28.912
N7640 Y249.308 Z-34.785
N7645 Y246.449 Z-35.83
N7650 G2 Y243.891 Z-34.041 J-0.654 K1.789 F1000.
N7655 G1 Z-32.704
N7660 Z5. F5000.
N7665 X-261.787 Y339.347
N7670 Z-30.221
N7675 Z-32.04 F1000.
N7680 G3 Y341.775 Z-33.872 J1.905 K0.
N7685 G1 Y347.34 Z-32.286 F5000.
N7690 Y367.544 Z-28.031
N7695 Y399.97 Z-23.314
N7700 Y455.054 Z-18.75
N7705 Y579.699 Z-14.107
N7710 Y882.814 Z-6.595
N7715 Y996.127 Z-5.975
N7720 Y1095.277 Z-8.01
N7725 Y1185.928 Z-13.809
N7730 Y1249.331 Z-20.797
N7735 Y1291.169 Z-27.811
N7740 Y1317.538 Z-34.144
N7745 Y1333.185 Z-39.2
N7750 G3 Y1335.675 Z-37.387 J0.586 K1.813 F1000.
N7755 G1 Z-36.096
N7760 Z5. F5000.
N7765 X-276.783 Y1226.414
N7770 Z-29.589
N7775 Z-31.283 F1000.
N7780 G2 Y1224.115 Z-33.147 J-1.905 K0.
N7785 G1 Y1202.437 Z-28.566 F5000.
N7790 Y1164.557 Z-22.599
N7795 Y1079.572 Z-14.796
N7800 Y974.757 Z-10.179
N7805 Y895.437 Z-9.059
N7810 Y739.631 Z-11.637
N7815 Y620.651 Z-16.172
N7820 Y544.164 Z-21.348
N7825 Y497.301 Z-26.721
N7830 Y473.212 Z-31.101
N7835 G2 Y470.966 Z-29.226 J-0.341 K1.874 F1000.
N7840 G1 Z-27.296
N7845 Z5. F5000.
N7850 X-291.779 Y734.455
N7855 Z-23.159
N7860 Z-25.27 F1000.
N7865 G3 Y736.435 Z-27.174 J1.905 K0.
N7870 G1 Y811.036 Z-24.23 F5000.
N7875 Y901.687 Z-23.879
N7880 Y961.177 Z-26.19
N7885 G3 Y963.156 Z-24.287 J0.074 K1.904 F1000.
N7890 G1 Z-22.072
N7895 Z10. F5000.
N7900 G17
(PARALLEL2 3)
N7905 G0 X293.071 Y875.851
N7910 G1 Z10. F5000.
N7915 Z-23.831
N7920 Z-27.249 F1000.
N7925 G19 G2 Y873.958 Z-29.154 J-1.905 K0.
N7930 G1 Y821.073 Z-29.485 F5000.
N7935 G2 Y819.156 Z-27.58 J-0.012 K1.905 F1000.
N7940 G1 Z-24.256
N7945 Z5. F5000.
N7950 X278.075 Y485.064
N7955 Z-29.147
N7960 Z-31.595 F1000.
N7965 G3 Y487.488 Z-33.428 J1.905 K0.
N7970 G1 Y489.82 Z-32.769 F5000.
N7975 Y519.168 Z-27.446
N7980 Y561.658 Z-22.618
N7985 Y629.78 Z-17.776
N7990 Y757.85 Z-12.911
N7995 Y894.094 Z-10.983
N8000 Y984.015 Z-12.489
N8005 Y1065.762 Z-16.283
N8010 Y1147.508 Z-23.475
N8015 Y1193.379 Z-30.669
N8020 Y1211.413 Z-35.379
N8025 G3 Y1213.8 Z-33.536 J0.481 K1.843 F1000.
N8030 G1 Z-30.878
N8035 Z5. F5000.
N8040 X263.079 Y1328.294
N8045 Z-37.514
N8050 Z-39.589 F1000.
N8055 G2 Y1325.694 Z-41.363 J-1.905 K0.
N8060 G1 Y1312.088 Z-36.032 F5000.
N8065 Y1288.226 Z-29.826
N8070 Y1246.859 Z-22.684
N8075 Y1180.1 Z-15.173
N8080 Y1106.528 Z-10.099
N8085 Y1030.231 Z-7.432
N8090 Y910.336 Z-7.18
N8095 Y624.223 Z-13.797
N8100 Y477.079 Z-18.904
N8105 Y419.857 Z-23.323
N8110 Y384.117 Z-28.28
N8115 Y360.503 Z-33.403
N8120 Y351.298 Z-36.095
N8125 G2 Y348.858 Z-34.267 J-0.535 K1.828 F1000.
N8130 G1 Z-32.168
N8135 Z5. F5000.
N8140 X248.082 Y251.233
N8145 Z-34.353
N8150 Z-36.247 F1000.
N8155 G3 Y253.771 Z-38.044 J1.905 K0.
N8160 G1 Y266.624 Z-33.518 F5000.
N8165 Y296.064 Z-27.873
N8170 Y336.476 Z-24.009
N8175 Y565.366 Z-15.525
N8180 Y876.003 Z-7.688
N8185 Y995.898 Z-6.803
N8190 Y1129.417 Z-8.976
N8195 Y1224.788 Z-13.144
N8200 Y1290.185 Z-19.756
N8205 Y1336.064 Z-27.051
N8210 Y1367.274 Z-34.155
N8215 Y1388.704 Z-41.243
N8220 Y1399.197 Z-46.594
N8225 G3 Y1401.967 Z-44.897 J0.865 K1.697 F1000.
N8230 G1 Z-43.367
N8235 Z5. F5000.
N8240 X233.086 Y1455.878
N8245 Z-48.674
N8250 Z-49.733 F1000.
N8255 G2 Y1452.972 Z-51.353 J-1.905 K0.
N8260 G1 Y1444.206 Z-45.936 F5000.
N8265 Y1429.539 Z-39.812
N8270 Y1406.551 Z-33.022
N8275 Y1370.629 Z-25.497
N8280 Y1323.756 Z-18.962
N8285 Y1236.56 Z-12.92
N8290 Y1119.39 Z-8.461
N8295 Y983.146 Z-6.755
N8300 Y854.665 Z-8.169
N8305 Y544.028 Z-16.208
N8310 Y301.513 Z-25.415
N8315 Y223.514 Z-29.761
N8320 Y194.967 Z-34.243
N8325 Y179.013 Z-39.319
N8330 Y176.936 Z-40.441
N8335 G2 Y174.125 Z-38.766 J-0.906 K1.676 F1000.
N8340 G1 Z-37.211
N8345 Z5. F5000.
N8350 X218.09 Y110.899
N8355 Z-40.984
N8360 Z-42.041 F1000.
N8365 G3 Y113.807 Z-43.661 J1.905 K0.
N8370 G1 Y114.785 Z-43.055 F5000.
N8375 Y128.319 Z-37.902
N8380 Y152.046 Z-33.774
N8385 Y279.605 Z-26.439
N8390 Y513.945 Z-17.199
N8395 Y819.132 Z-8.982
N8400 Y971.726 Z-6.794
N8405 Y1110.695 Z-8.124
N8410 Y1233.315 Z-12.414
N8415 Y1336.86 Z-19.134
N8420 Y1402.25 Z-25.822
N8425 Y1431.264 Z-31.301
N8430 Y1458.327 Z-38.349
N8435 Y1477.106 Z-45.097
N8440 Y1486.481 Z-49.801
N8445 Y1494.779 Z-55.649
N8450 G3 Y1497.781 Z-54.092 J1.098 K1.557 F1000.
N8455 G1 Z-53.539
N8460 Z5. F5000.
N8465 X203.094 Y1531.64
N8470 Z-57.95
N8475 Z-58.067 F1000.
N8480 G2 Y1528.557 Z-59.565 J-1.905 K0.
N8485 G1 Y1520.679 Z-53.373 F5000.
N8490 Y1511.464 Z-48.447
N8495 Y1499.221 Z-43.352
N8500 Y1478.917 Z-36.979
N8505 Y1454.701 Z-31.465
N8510 Y1412.372 Z-25.851
N8515 Y1325.175 Z-17.786
N8520 Y1216.18 Z-11.403
N8525 Y1090.835 Z-7.661
N8530 Y949.141 Z-6.924
N8535 Y742.05 Z-10.786
N8540 Y453.212 Z-19.294
N8545 Y240.671 Z-28.375
N8550 Y109.876 Z-36.589
N8555 Y86.846 Z-39.373
N8560 Y82.016 Z-42.223
N8565 Y79.687 Z-44.912
N8570 G2 Y78.967 Z-45.241 J-0.72 K0.624
N8575 G1 Y68.812
N8580 X202.954 Y67.929 Z-45.248
N8585 X202.549 Y67.133 Z-45.269
N8590 X201.918 Y66.5 Z-45.303
N8595 X201.122 Y66.095 Z-45.344
N8600 X200.24 Y65.955 Z-45.39
N8605 X190.951 Z-45.877
N8610 X190.07 Y66.095 Z-45.923
N8615 X189.274 Y66.5 Z-45.965
N8620 X188.643 Y67.133 Z-45.998
N8625 X188.237 Y67.929 Z-46.019
N8630 X188.098 Y68.812 Z-46.027
N8635 G3 Y69.518 Z-45.714 J0. K0.952
N8640 G1 Y72.265 Z-42.681
N8645 Y79.388 Z-39.332
N8650 Y171.523 Z-32.293
N8655 Y345.916 Z-23.464
N8660 Y604.78 Z-14.423
N8665 Y904.517 Z-7.415
N8670 Y1048.936 Z-7.051
N8675 Y1182.455 Z-9.923
N8680 Y1296.901 Z-15.534
N8685 Y1392.272 Z-23.232
N8690 Y1451.894 Z-30.027
N8695 Y1498.664 Z-37.314
N8700 Y1518.523 Z-42.797
N8705 Y1537.685 Z-50.148
N8710 Y1549.063 Z-56.477
N8715 Y1556.48 Z-63.005
N8720 G3 Y1557.109 Z-63.243 J0.629 K0.715
N8725 G1 Y1580.575
N8730 X187.961 Y1581.458 Z-63.273
N8735 X187.564 Y1582.255 Z-63.358
N8740 X186.947 Y1582.887 Z-63.492
N8745 X186.168 Y1583.292 Z-63.661
N8750 X185.305 Y1583.432 Z-63.847
N8755 X175.894 Z-65.884
N8760 X175.031 Y1583.292 Z-66.071
N8765 X174.253 Y1582.887 Z-66.24
N8770 X173.635 Y1582.255 Z-66.373
N8775 X173.238 Y1581.458 Z-66.459
N8780 X173.102 Y1580.575 Z-66.489
N8785 G2 Y1579.935 Z-66.242 J0. K0.952
N8790 G1 Y1571.386 Z-58.492
N8795 Y1559.421 Z-51.847
N8800 Y1549.664 Z-47.683
N8805 Y1533.726 Z-42.676
N8810 Y1508.124 Z-37.779
N8815 Y1440.187 Z-28.083
N8820 Y1353.236 Z-19.391
N8825 Y1249.69 Z-12.622
N8830 Y1127.07 Z-8.21
N8835 Y988.101 Z-6.773
N8840 Y838.232 Z-8.638
N8845 Y533.045 Z-16.605
N8850 Y295.98 Z-25.669
N8855 Y143.387 Z-34.129
N8860 Y69.815 Z-40.28
N8865 Y63.063 Z-43.711
N8870 Y60.757 Z-46.382
N8875 Y60.252 Z-47.029
N8880 G2 Y59.531 Z-47.359 J-0.721 K0.623
N8885 G1 Y52.71
N8890 X172.962 Y51.827
N8895 X172.556 Y51.03 Z-47.36
N8900 X171.924 Y50.398 Z-47.362
N8905 X171.127 Y49.992 Z-47.364
N8910 X170.244 Y49.852 Z-47.366
N8915 X160.963 Z-47.389
N8920 X160.08 Y49.992 Z-47.391
N8925 X159.283 Y50.398 Z-47.393
N8930 X158.651 Y51.03 Z-47.394
N8935 X158.245 Y51.827 Z-47.395
N8940 X158.105 Y52.71 Z-47.396
N8945 G3 Y53.461 Z-47.029 J0. K0.952
N8950 G1 Y54.907 Z-45.175
N8955 Y61.016 Z-41.373
N8960 Y101.956 Z-37.228
N8965 Y224.576 Z-29.226
N8970 Y428.942 Z-20.183
N8975 Y712.33 Z-11.524
N8980 Y943.945 Z-6.964
N8985 Y1047.324 Z-6.929
N8990 Y1180.844 Z-9.621
N8995 Y1295.289 Z-15.017
N9000 Y1393.385 Z-22.706
N9005 Y1474.714 Z-32.145
N9010 Y1523.408 Z-39.751
N9015 Y1554.969 Z-45.871
N9020 Y1567.723 Z-49.303
N9025 Y1579.899 Z-54.412
N9030 Y1590.037 Z-60.245
N9035 Y1596.927 Z-65.947
N9040 Y1599.888 Z-69.392
N9045 G3 Y1600.61 Z-69.723 J0.722 K0.621
N9050 G1 Y1617.699
N9055 X157.968 Y1618.582 Z-69.751
N9060 X157.57 Y1619.378 Z-69.83
N9065 X156.951 Y1620.011 Z-69.955
N9070 X156.169 Y1620.417 Z-70.111
N9075 X155.304 Y1620.556 Z-70.284
N9080 X145.911 Z-72.166
N9085 X145.045 Y1620.417 Z-72.34
N9090 X144.264 Y1620.011 Z-72.496
N9095 X143.644 Y1619.378 Z-72.62
N9100 X143.246 Y1618.582 Z-72.7
N9105 X143.109 Y1617.699 Z-72.728
N9110 G2 Y1617.004 Z-72.426 J0. K0.952
N9115 G1 Y1610.049 Z-64.997
N9120 Y1601.975 Z-59.443
N9125 Y1591.374 Z-54.195
N9130 Y1582.635 Z-51.409
N9135 Y1554.013 Z-44.929
N9140 Y1511.517 Z-37.279
N9145 Y1458.094 Z-29.605
N9150 Y1392.94 Z-22.433
N9155 Y1294.844 Z-14.841
N9160 Y1180.399 Z-9.519
N9165 Y1046.88 Z-6.888
N9170 Y898.984 Z-7.494
N9175 Y595.16 Z-14.704
N9180 Y339.02 Z-23.757
N9185 Y167.353 Z-32.554
N9190 Y71.982 Z-39.929
N9195 Y58.377 Z-41.633
N9200 Y53.848 Z-44.272
N9205 Y51.753 Z-46.745
N9210 G2 Y51.026 Z-47.082 J-0.727 K0.616
N9215 G1 Y50.588
N9220 X142.969 Y49.705 Z-47.081
N9225 X142.564 Y48.908 Z-47.08
N9230 X141.931 Y48.276 Z-47.078
N9235 X141.135 Y47.87 Z-47.076
N9240 X140.252 Y47.731 Z-47.074
N9245 X130.971 Z-47.048
N9250 X130.088 Y47.87 Z-47.045
N9255 X129.291 Y48.276 Z-47.043
N9260 X128.659 Y48.908 Z-47.041
N9265 X128.253 Y49.705 Z-47.04
N9270 X128.113 Y50.588
N9275 G3 Y51.222 Z-46.798 J0. K0.952
N9280 G1 Y56.174 Z-42.376
N9285 Y62.987 Z-40.859
N9290 Y150.183 Z-33.669
N9295 Y308.226 Z-25.11
N9300 Y550.741 Z-16.047
N9305 Y858.653 Z-8.222
N9310 Y1008.954 Z-6.709
N9315 Y1147.923 Z-8.5
N9320 Y1267.818 Z-13.181
N9325 Y1371.364 Z-20.315
N9330 Y1458.279 Z-29.383
N9335 Y1512.227 Z-37.041
N9340 Y1554.732 Z-44.608
N9345 Y1586.02 Z-51.468
N9350 Y1606.522 Z-57.064
N9355 Y1613.699 Z-60.149
N9360 Y1623.475 Z-66.378
N9365 Y1631.766 Z-75.
N9370 G3 Y1635.044 Z-73.68 J1.373 K1.32 F1000.
N9375 G1 Z5. F5000.
N9380 X113.117 Y1646.676
N9385 Z-73.111
N9390 G2 Y1644.528 Z-75. J-1.905 K0. F1000.
N9395 G1 Y1642.164 Z-74.696 F5000.
N9400 Y1632.828 Z-66.271
N9405 Y1622.057 Z-60.95
N9410 Y1602.917 Z-55.25
N9415 Y1571.795 Z-47.77
N9420 Y1534.965 Z-40.579
N9425 Y1484.092 Z-32.598
N9430 Y1402.345 Z-23.03
N9435 Y1304.25 Z-15.218
N9440 Y1189.804 Z-9.712
N9445 Y1059.01 Z-6.944
N9450 Y911.246 Z-7.325
N9455 Y619.683 Z-13.996
N9460 Y358.094 Z-22.954
N9465 Y180.977 Z-31.712
N9470 Y80.156 Z-39.139
N9475 Y57.044 Z-41.863
N9480 Y52.534 Z-44.697
N9485 Y50.778 Z-46.848
N9490 Y50.742 Z-46.89
N9495 G2 Y50.004 Z-47.24 J-0.738 K0.602
N9500 G1 Y49.688 Z-47.228
N9505 G17 G2 X110.26 Y46.831 I-2.857 J0.
N9510 G1 X100.978
N9515 G2 X98.121 Y49.688 I0. J2.857
N9520 G19 G3 Y50.415 Z-46.89 J0. K0.952
N9525 G1 Y52.491 Z-44.436
N9530 Y57.049 Z-41.777
N9535 Y96.505 Z-37.683
N9540 Y213.675 Z-29.821
N9545 Y409.867 Z-20.899
N9550 Y690.53 Z-12.078
N9555 Y938.494 Z-7.004
N9560 Y1084.526 Z-7.205
N9565 Y1212.595 Z-10.503
N9570 Y1324.316 Z-16.481
N9575 Y1419.687 Z-24.677
N9580 Y1478.846 Z-31.729
N9585 Y1535.208 Z-40.411
N9590 Y1572.07 Z-47.536
N9595 Y1603.226 Z-54.904
N9600 Y1628.79 Z-62.397
N9605 Y1642.176 Z-67.606
N9610 Y1651.086 Z-74.685
N9615 Y1655.623 Z-75.
N9620 G3 Y1656.108 Z-74.905 J0.066 K0.95
N9625 G1 Y1656.111 Z-74.904
N9630 G2 Y1656.53 Z-74.807 J0.419 K-0.855
N9635 G1 Y1666.111
N9640 G17 G3 X95.263 Y1668.969 I-2.857 J0.
N9645 G1 X85.982
N9650 G3 X83.125 Y1666.111 I0. J-2.857
N9655 G19 G3 Y1665.692 Z-74.904 J0. K-0.952
N9660 G2 Y1665.228 Z-75. J-0.419 K0.855
N9665 G1 Y1658.236 Z-74.67
N9670 Y1651.194 Z-70.146
N9675 Y1636.35 Z-64.422
N9680 Y1610.871 Z-56.643
N9685 Y1579.782 Z-49.013
N9690 Y1543.056 Z-41.656
N9695 Y1494.531 Z-33.807
N9700 Y1438.297 Z-26.616
N9705 Y1348.376 Z-18.178
N9710 Y1242.105 Z-11.724
N9715 Y1119.486 Z-7.763
N9720 Y979.367 Z-6.715
N9725 Y807.7 Z-9.29
N9730 Y505.237 Z-17.509
N9735 Y276.347 Z-26.595
N9740 Y131.928 Z-34.932
N9745 Y58.376 Z-41.398
N9750 Y52.451 Z-44.25
N9755 Y50.134 Z-46.919
N9760 Y50.109 Z-46.947
N9765 G2 Y49.39 Z-47.275 J-0.719 K0.625
N9770 G1 Y49.207 Z-47.269
N9775 G17 G2 X80.267 Y46.349 I-2.857 J0.
N9780 G1 X70.986
N9785 G2 X68.129 Y49.207 I0. J2.857
N9790 G19 G3 Y49.92 Z-46.947 J0. K0.952
N9795 G1 Y52.416 Z-44.124
N9800 Y57.03 Z-41.687
N9805 Y96.505 Z-37.683
N9810 Y213.675 Z-29.821
N9815 Y409.866 Z-20.899
N9820 Y690.53 Z-12.078
N9825 Y938.494 Z-7.003
N9830 Y1084.039 Z-7.167
N9835 Y1212.109 Z-10.42
N9840 Y1323.829 Z-16.349
N9845 Y1419.2 Z-24.484
N9850 Y1478.441 Z-31.489
N9855 Y1534.848 Z-40.098
N9860 Y1571.759 Z-47.146
N9865 Y1602.954 Z-54.361
N9870 Y1628.618 Z-61.564
N9875 Y1648.754 Z-68.505
N9880 Y1663.06 Z-74.786
N9885 Y1673.561 Z-75.
N9890 G3 Y1674. Z-74.903 J0.019 K0.952
N9895 G2 Y1674.419 Z-74.806 J0.419 K-0.855
N9900 G1 Y1681.605
N9905 G17 G3 X65.271 Y1684.463 I-2.857 J0.
N9910 G1 X55.99
N9915 G3 X53.132 Y1681.605 I0. J-2.858
N9920 G19 G3 Y1681.186 Z-74.903 J0. K-0.952
N9925 G2 Y1680.75 Z-75. J-0.419 K0.855
N9930 G1 Y1664.4 Z-74.706
N9935 Y1646.626 Z-67.402
N9940 Y1625.127 Z-60.335
N9945 Y1599.384 Z-53.354
N9950 Y1562.906 Z-45.248
N9955 Y1520.383 Z-37.607
N9960 Y1455.892 Z-28.563
N9965 Y1396.194 Z-22.165
N9970 Y1295.373 Z-14.488
N9975 Y1178.203 Z-9.214
N9980 Y1044.684 Z-6.776
N9985 Y894.896 Z-7.563
N9990 Y592.434 Z-14.784
N9995 Y336.294 Z-23.874
N10000 Y167.351 Z-32.555
N10005 Y71.98 Z-39.929
N10010 Y55.755 Z-42.11
N10015 Y51.165 Z-45.28
N10020 Y49.877 Z-46.947
N10025 Y49.876 Z-46.948
N10030 G2 Y49.122 Z-47.318 J-0.754 K0.582
N10035 G1 X52.993 Y48.239
N10040 X52.587 Y47.443 Z-47.317
N10045 X51.954 Y46.811
N10050 X51.158 Y46.405 Z-47.315
N10055 X50.275 Y46.265 Z-47.314
N10060 X40.994 Z-47.301
N10065 X40.111 Y46.405 Z-47.299
N10070 X39.314 Y46.811 Z-47.298
N10075 X38.682 Y47.443 Z-47.297
N10080 X38.276 Y48.239
N10085 X38.136 Y49.122 Z-47.296
N10090 Y49.125
N10095 G3 Y49.862 Z-46.948 J0. K0.952
N10100 G1 Y51.661 Z-44.755
N10105 Y55.831 Z-42.075
N10110 Y91.055 Z-38.152
N10115 Y202.775 Z-30.433
N10120 Y393.517 Z-21.53
N10125 Y668.73 Z-12.649
N10130 Y933.044 Z-7.055
N10135 Y1079.848 Z-7.099
N10140 Y1207.918 Z-10.228
N10145 Y1319.638 Z-16.011
N10150 Y1415.009 Z-23.982
N10155 Y1474.47 Z-30.873
N10160 Y1536.839 Z-40.33
N10165 Y1573.729 Z-47.424
N10170 Y1604.917 Z-54.681
N10175 Y1630.571 Z-61.898
N10180 Y1650.734 Z-68.767
N10185 Y1665.152 Z-74.706
N10190 Y1686.952 Z-75.
N10195 G3 Y1687.384 Z-74.903 J0.013 K0.952
N10200 G2 Y1687.803 Z-74.806 J0.419 K-0.855
N10205 G1 Y1693.097
N10210 G17 G3 X35.279 Y1695.955 I-2.857 J0.
N10215 G1 X25.998
N10220 G3 X23.14 Y1693.097 I0. J-2.858
N10225 G19 G3 Y1692.678 Z-74.903 J0. K-0.952
N10230 G2 Y1692.241 Z-75. J-0.419 K0.855
N10235 G1 Y1664.992 Z-74.494
N10240 Y1646.378 Z-67.095
N10245 Y1620.995 Z-58.995
N10250 Y1590.008 Z-51.005
N10255 Y1553.401 Z-43.319
N10260 Y1510.601 Z-35.997
N10265 Y1454.112 Z-28.297
N10270 Y1391.564 Z-21.696
N10275 Y1290.744 Z-14.179
N10280 Y1173.573 Z-9.054
N10285 Y1040.054 Z-6.746
N10290 Y889.446 Z-7.656
N10295 Y584.259 Z-15.026
N10300 Y330.844 Z-24.108
N10305 Y164.626 Z-32.727
N10310 Y71.98 Z-39.929
N10315 Y55.748 Z-42.103
N10320 Y50.323 Z-46.262
N10325 Y49.846 Z-46.949
N10330 Y49.845 Z-46.95
N10335 G2 Y49.063 Z-47.36 J-0.782 K0.543
N10340 G1 Y49.049 Z-47.359
N10345 G17 G2 X20.283 Y46.191 I-2.858 J0.
N10350 G1 X11.001
N10355 G2 X8.144 Y49.049 I0. J2.857
N10360 G19 G3 Y49.831 Z-46.95 J0. K0.952
N10365 G1 Y50.316 Z-46.253
N10370 Y55.744 Z-42.1
N10375 Y71.98 Z-39.929
N10380 Y164.626 Z-32.727
N10385 Y330.844 Z-24.108
N10390 Y584.259 Z-15.026
N10395 Y889.446 Z-7.656
N10400 Y1039.85 Z-6.744
N10405 Y1173.37 Z-9.045
N10410 Y1290.54 Z-14.162
N10415 Y1391.361 Z-21.671
N10420 Y1453.908 Z-28.264
N10425 Y1510.696 Z-36.002
N10430 Y1553.495 Z-43.325
N10435 Y1590.103 Z-51.012
N10440 Y1621.091 Z-59.004
N10445 Y1646.477 Z-67.104
N10450 Y1665.147 Z-74.516
N10455 Y1696.751 Z-75.
N10460 G3 Y1697.185 Z-74.903 J0.015 K0.952
N10465 G2 Y1697.604 Z-74.806 J0.419 K-0.855
N10470 G1 Y1697.96
N10475 G17 G3 X5.286 Y1700.817 I-2.857 J0.
N10480 G1 X-3.995
N10485 G3 X-6.852 Y1697.96 I0. J-2.858
N10490 G19 G3 Y1697.541 Z-74.903 J0. K-0.952
N10495 G2 Y1697.109 Z-75. J-0.419 K0.855
N10500 G1 Y1665.339 Z-74.6
N10505 Y1646.479 Z-67.104
N10510 Y1621.093 Z-59.004
N10515 Y1590.105 Z-51.012
N10520 Y1553.497 Z-43.325
N10525 Y1511.248 Z-36.087
N10530 Y1434.957 Z-26.074
N10535 Y1342.435 Z-17.604
N10540 Y1233.439 Z-11.248
N10545 Y1108.095 Z-7.501
N10550 Y965.743 Z-6.781
N10555 Y775.001 Z-10.021
N10560 Y477.988 Z-18.43
N10565 Y257.273 Z-27.53
N10570 Y121.028 Z-35.731
N10575 Y57.02 Z-41.673
N10580 Y51.647 Z-44.74
N10585 Y49.825 Z-46.957
N10590 G2 Y49.089 Z-47.305 J-0.736 K0.605
N10595 G17 G2 X-9.71 Y46.232 I-2.858 J0.
N10600 G1 X-18.991
N10605 G2 X-21.848 Y49.089 I0. J2.858
N10610 G1 Y49.103
N10615 G19 G3 Y49.839 Z-46.957 J0. K0.952
N10620 G1 Y49.842 Z-46.954
N10625 Y51.653 Z-44.747
N10630 Y57.022 Z-41.675
N10635 Y121.028 Z-35.731
N10640 Y257.273 Z-27.53
N10645 Y477.988 Z-18.43
N10650 Y775.001 Z-10.021
N10655 Y965.743 Z-6.782
N10660 Y1107.89 Z-7.5
N10665 Y1233.235 Z-11.243
N10670 Y1342.23 Z-17.595
N10675 Y1434.876 Z-26.072
N10680 Y1511.167 Z-36.084
N10685 Y1553.418 Z-43.32
N10690 Y1590.025 Z-51.007
N10695 Y1621.012 Z-58.997
N10700 Y1646.396 Z-67.098
N10705 Y1665.411 Z-74.673
N10710 Y1692.66 Z-75.
N10715 G3 Y1693.091 Z-74.903 J0.011 K0.952
N10720 G2 Y1693.51 Z-74.806 J0.419 K-0.855
N10725 G17 G3 X-24.706 Y1696.367 I-2.858 J0.
N10730 G1 X-33.987
N10735 G3 X-36.845 Y1693.51 I0. J-2.857
N10740 G1 Y1688.294
N10745 G19 G3 Y1687.874 Z-74.903 J0. K-0.952
N10750 G2 Y1687.44 Z-75. J-0.419 K0.855
N10755 G1 Y1665.034 Z-74.634
N10760 Y1645.907 Z-66.988
N10765 Y1620.523 Z-58.898
N10770 Y1589.532 Z-50.925
N10775 Y1552.927 Z-43.253
N10780 Y1510.089 Z-35.938
N10785 Y1433.799 Z-25.971
N10790 Y1341.152 Z-17.529
N10795 Y1232.157 Z-11.205
N10800 Y1106.812 Z-7.487
N10805 Y963.018 Z-6.799
N10810 Y769.551 Z-10.146
N10815 Y475.263 Z-18.525
N10820 Y254.548 Z-27.666
N10825 Y118.303 Z-35.937
N10830 Y57.024 Z-41.677
N10835 Y51.66 Z-44.754
N10840 Y49.858 Z-46.951
N10845 G2 Y49.122 Z-47.3 J-0.737 K0.604
N10850 G1 X-36.984 Y48.239
N10855 X-37.39 Y47.442 Z-47.299
N10860 X-38.023 Y46.81 Z-47.298
N10865 X-38.819 Y46.404 Z-47.296
N10870 X-39.702 Y46.264 Z-47.295
N10875 X-48.983 Z-47.277
N10880 X-49.866 Y46.404 Z-47.275
N10885 X-50.663 Y46.81 Z-47.274
N10890 X-51.295 Y47.442 Z-47.273
N10895 X-51.701 Y48.239 Z-47.272
N10900 X-51.841 Y49.122 Z-47.271
N10905 Y49.16
N10910 G3 Y49.872 Z-46.951 J0. K0.952
N10915 G1 Y49.875 Z-46.949
N10920 Y52.407 Z-44.097
N10925 Y57.026 Z-41.68
N10930 Y118.304 Z-35.937
N10935 Y254.548 Z-27.666
N10940 Y475.263 Z-18.525
N10945 Y769.551 Z-10.146
N10950 Y963.018 Z-6.801
N10955 Y1105.617 Z-7.476
N10960 Y1230.962 Z-11.169
N10965 Y1339.958 Z-17.463
N10970 Y1432.604 Z-25.87
N10975 Y1508.9 Z-35.793
N10980 Y1551.76 Z-43.08
N10985 Y1588.393 Z-50.718
N10990 Y1619.405 Z-58.659
N10995 Y1644.805 Z-66.728
N11000 Y1664.979 Z-74.937
N11005 Y1681.328 Z-75.
N11010 G3 Y1681.751 Z-74.903 J0.004 K0.952
N11015 G2 Y1682.17 Z-74.806 J0.419 K-0.855
N11020 G17 G3 X-54.698 Y1685.028 I-2.857 J0.
N11025 G1 X-63.979
N11030 G3 X-66.837 Y1682.17 I0. J-2.858
N11035 G1 Y1675.075
N11040 G19 G3 Y1674.656 Z-74.903 J0. K-0.952
N11045 G2 Y1674.221 Z-75. J-0.419 K0.855
N11050 G1 Y1663.321 Z-74.822
N11055 Y1649.148 Z-68.622
N11060 Y1629.026 Z-61.671
N11065 Y1603.358 Z-54.451
N11070 Y1572.163 Z-47.223
N11075 Y1535.261 Z-40.162
N11080 Y1472.897 Z-30.749
N11085 Y1388.426 Z-21.48
N11090 Y1287.605 Z-14.052
N11095 Y1170.435 Z-8.991
N11100 Y1036.916 Z-6.745
N11105 Y886.721 Z-7.702
N11110 Y581.534 Z-15.108
N11115 Y330.845 Z-24.108
N11120 Y164.627 Z-32.727
N11125 Y71.981 Z-39.929
N11130 Y55.761 Z-42.116
N11135 Y50.943 Z-45.561
N11140 Y49.906 Z-46.948
N11145 G2 Y49.143 Z-47.33 J-0.763 K0.571
N11150 G1 X-66.977 Y48.26 Z-47.329
N11155 X-67.383 Y47.464 Z-47.328
N11160 X-68.015 Y46.831 Z-47.325
N11165 X-68.811 Y46.426 Z-47.322
N11170 X-69.694 Y46.286 Z-47.319
N11175 X-78.976 Z-47.285
N11180 X-79.859 Y46.426 Z-47.282
N11185 X-80.655 Y46.831 Z-47.279
N11190 X-81.287 Y47.464 Z-47.277
N11195 X-81.693 Y48.26 Z-47.275
N11200 X-81.833 Y49.143
N11205 Y49.374
N11210 G3 Y50.093 Z-46.948 J0. K0.952
N11215 G1 Y50.112 Z-46.922
N11220 Y52.448 Z-44.236
N11225 Y57.042 Z-41.717
N11230 Y91.055 Z-38.152
N11235 Y202.775 Z-30.433
N11240 Y396.242 Z-21.424
N11245 Y671.455 Z-12.577
N11250 Y933.044 Z-7.056
N11255 Y1079.523 Z-7.124
N11260 Y1207.592 Z-10.272
N11265 Y1319.313 Z-16.075
N11270 Y1414.683 Z-24.071
N11275 Y1493.705 Z-33.68
N11280 Y1542.259 Z-41.502
N11285 Y1579.023 Z-48.829
N11290 Y1610.12 Z-56.415
N11295 Y1635.613 Z-64.134
N11300 Y1651.099 Z-70.005
N11305 Y1659.139 Z-74.996
N11310 Y1665.986 Z-75.
N11315 G3 Y1666.406 Z-74.903 J0.001 K0.952
N11320 G2 Y1666.825 Z-74.806 J0.419 K-0.855
N11325 G17 G3 X-84.691 Y1669.682 I-2.857 J0.
N11330 G1 X-93.972
N11335 G3 X-96.829 Y1666.825 I0. J-2.857
N11340 G1 Y1657.45
N11345 G19 G3 Y1657.031 Z-74.903 J0. K-0.952
N11350 G1 Y1657.021 Z-74.908
N11355 G2 Y1656.503 Z-75. J-0.419 K0.855
N11360 G1 Y1651.562 Z-74.49
N11365 Y1642.09 Z-67.357
N11370 Y1629.534 Z-62.591
N11375 Y1603.969 Z-55.07
N11380 Y1572.824 Z-47.679
N11385 Y1535.963 Z-40.528
N11390 Y1473.634 Z-31.02
N11395 Y1389.162 Z-21.671
N11400 Y1288.342 Z-14.179
N11405 Y1171.172 Z-9.066
N11410 Y1037.652 Z-6.77
N11415 Y886.722 Z-7.702
N11420 Y581.534 Z-15.108
N11425 Y330.845 Z-24.108
N11430 Y164.627 Z-32.727
N11435 Y71.981 Z-39.929
N11440 Y55.811 Z-42.246
N11445 Y51.277 Z-45.682
N11450 Y50.39 Z-46.89
N11455 G2 Y49.622 Z-47.279 J-0.768 K0.564
N11460 G1 X-96.969 Y48.739
N11465 X-97.375 Y47.943 Z-47.278
N11470 X-98.007 Y47.311 Z-47.276
N11475 X-98.804 Y46.905 Z-47.274
N11480 X-99.687 Y46.765 Z-47.272
N11485 X-108.968 Z-47.247
N11490 X-109.851 Y46.905 Z-47.245
N11495 X-110.648 Y47.311 Z-47.243
N11500 X-111.28 Y47.943 Z-47.241
N11505 X-111.686 Y48.739 Z-47.24
N11510 X-111.825 Y49.622 Z-47.239
N11515 Y49.979
N11520 G3 Y50.716 Z-46.89 J0. K0.952
N11525 G1 Y50.742 Z-46.854
N11530 Y52.53 Z-44.671
N11535 Y57.045 Z-41.854
N11540 Y107.405 Z-36.786
N11545 Y232.749 Z-28.79
N11550 Y442.565 Z-19.684
N11555 Y731.403 Z-11.053
N11560 Y949.394 Z-6.902
N11565 Y1060.635 Z-6.955
N11570 Y1191.429 Z-9.764
N11575 Y1305.875 Z-15.316
N11580 Y1403.97 Z-23.177
N11585 Y1485.717 Z-32.81
N11590 Y1534.393 Z-40.456
N11595 Y1571.228 Z-47.616
N11600 Y1602.362 Z-55.059
N11605 Y1624.014 Z-61.53
N11610 Y1634.277 Z-66.766
N11615 Y1642.938 Z-74.634
N11620 Y1645.549 Z-75.
N11625 G3 Y1646.1 Z-74.912 J0.132 K0.943
N11630 G2 Y1646.52 Z-74.815 J0.419 K-0.855
N11635 G17 G3 X-114.683 Y1649.377 I-2.857 J0.
N11640 G1 X-123.964
N11645 G3 X-126.822 Y1646.52 I0. J-2.857
N11650 G1 Y1634.979
N11655 G19 G3 Y1634.56 Z-74.912 J0. K-0.952
N11660 G1 Y1634.027 Z-75.173
N11665 G2 Y1632.943 Z-75. J-0.419 K0.855
N11670 G1 Y1623.303 Z-65.604
N11675 Y1613.935 Z-59.843
N11680 Y1602.888 Z-55.85
N11685 Y1577.053 Z-49.314
N11690 Y1540.359 Z-41.829
N11695 Y1494.623 Z-34.304
N11700 Y1415.601 Z-24.49
N11705 Y1320.23 Z-16.361
N11710 Y1208.51 Z-10.449
N11715 Y1080.44 Z-7.205
N11720 Y935.77 Z-7.032
N11725 Y679.631 Z-12.361
N11730 Y401.692 Z-21.212
N11735 Y208.226 Z-30.125
N11740 Y93.78 Z-37.916
N11745 Y58.377 Z-41.523
N11750 Y53.754 Z-43.919
N11755 Y51.18 Z-46.804
N11760 G2 Y50.469 Z-47.122 J-0.711 K0.634
N11765 G1 X-126.961 Y49.586 Z-47.123
N11770 X-127.367 Y48.79
N11775 X-127.999 Y48.157 Z-47.124
N11780 X-128.796 Y47.751 Z-47.125
N11785 X-129.679 Y47.612 Z-47.126
N11790 X-138.96 Z-47.137
N11795 X-139.843 Y47.751 Z-47.138
N11800 X-140.64 Y48.157 Z-47.139
N11805 X-141.272 Y48.79 Z-47.14
N11810 X-141.678 Y49.586
N11815 X-141.818 Y50.469
N11820 Y50.927
N11825 G3 Y51.654 Z-46.804 J0. K0.953
N11830 G1 Y51.706 Z-46.745
N11835 Y53.806 Z-44.271
N11840 Y58.377 Z-41.623
N11845 Y104.68 Z-37.005
N11850 Y230.025 Z-28.934
N11855 Y437.116 Z-19.882
N11860 Y723.229 Z-11.252
N11865 Y946.67 Z-6.934
N11870 Y1090.772 Z-7.382
N11875 Y1218.841 Z-10.938
N11880 Y1327.837 Z-17.02
N11885 Y1420.483 Z-25.2
N11890 Y1496.78 Z-34.931
N11895 Y1542.365 Z-42.615
N11900 Y1573.763 Z-49.149
N11905 Y1589.816 Z-53.361
N11910 Y1604.557 Z-60.396
N11915 Y1611.977 Z-65.703
N11920 Y1618.37 Z-72.7
N11925 G3 Y1619.073 Z-73.009 J0.703 K0.643
N11930 G1 X-141.955 Y1619.956 Z-72.982
N11935 X-142.353 Y1620.752 Z-72.902
N11940 X-142.973 Y1621.384 Z-72.778
N11945 X-143.754 Y1621.79 Z-72.622
N11950 X-144.62 Y1621.93 Z-72.449
N11955 X-154.012 Z-70.57
N11960 X-154.878 Y1621.79 Z-70.397
N11965 X-155.659 Y1621.384 Z-70.241
N11970 X-156.279 Y1620.752 Z-70.117
N11975 X-156.677 Y1619.956 Z-70.037
N11980 X-156.814 Y1619.073 Z-70.01
N11985 Y1602.207
N11990 G2 Y1601.482 Z-69.675 J0. K0.952
N11995 G1 Y1598.512 Z-66.186
N12000 Y1590.907 Z-59.943
N12005 Y1581.617 Z-54.669
N12010 Y1567.578 Z-48.918
N12015 Y1551.452 Z-45.016
N12020 Y1514.414 Z-38.171
N12025 Y1443.741 Z-28.113
N12030 Y1356.545 Z-19.4
N12035 Y1252.999 Z-12.623
N12040 Y1130.379 Z-8.193
N12045 Y991.41 Z-6.744
N12050 Y838.817 Z-8.626
N12055 Y533.629 Z-16.586
N12060 Y296.564 Z-25.642
N12065 Y143.971 Z-34.089
N12070 Y62.051 Z-41.019
N12075 Y55.344 Z-44.258
N12080 Y52.918 Z-47.037
N12085 G2 Y52.201 Z-47.363 J-0.718 K0.626
N12090 G1 X-156.954 Y51.318
N12095 X-157.36 Y50.521 Z-47.364
N12100 X-157.992 Y49.889
N12105 X-158.788 Y49.483 Z-47.365
N12110 X-159.671 Y49.343 Z-47.366
N12115 X-168.953 Z-47.376
N12120 X-169.836 Y49.483 Z-47.377
N12125 X-170.632 Y49.889 Z-47.378
N12130 X-171.264 Y50.521
N12135 X-171.67 Y51.318 Z-47.379
N12140 X-171.81 Y52.201
N12145 Y58.82
N12150 G3 Y59.551 Z-47.037 J0. K0.952
N12155 G1 Y60.081 Z-46.43
N12160 Y62.057 Z-44.064
N12165 Y68.503 Z-40.5
N12170 Y126.066 Z-35.357
N12175 Y265.035 Z-27.145
N12180 Y488.475 Z-18.072
N12185 Y788.213 Z-9.722
N12190 Y965.33 Z-6.835
N12195 Y1107.024 Z-7.783
N12200 Y1232.369 Z-11.771
N12205 Y1338.64 Z-18.212
N12210 Y1428.561 Z-26.685
N12215 Y1499.363 Z-36.262
N12220 Y1533.818 Z-42.525
N12225 Y1551.598 Z-47.931
N12230 Y1561.306 Z-52.074
N12235 Y1573.228 Z-58.731
N12240 Y1581.782 Z-66.537
N12245 G3 Y1582.424 Z-66.786 J0.642 K0.704
N12250 G1 X-171.947 Y1583.307 Z-66.756
N12255 X-172.343 Y1584.104 Z-66.67
N12260 X-172.961 Y1584.736 Z-66.536
N12265 X-173.74 Y1585.142 Z-66.367
N12270 X-174.602 Y1585.282 Z-66.179
N12275 X-184.014 Z-64.134
N12280 X-184.877 Y1585.142 Z-63.947
N12285 X-185.655 Y1584.736 Z-63.778
N12290 X-186.273 Y1584.104 Z-63.643
N12295 X-186.67 Y1583.307 Z-63.557
N12300 X-186.806 Y1582.424 Z-63.528
N12305 Y1559.286
N12310 G2 Y1558.652 Z-63.287 J0. K0.952
N12315 G1 Y1551.298 Z-56.744
N12320 Y1539.951 Z-50.385
N12325 Y1520.942 Z-43.08
N12330 Y1499.607 Z-37.326
N12335 Y1467.343 Z-32.088
N12340 Y1391.046 Z-23.078
N12345 Y1295.675 Z-15.433
N12350 Y1181.23 Z-9.87
N12355 Y1047.71 Z-7.032
N12360 Y903.291 Z-7.431
N12365 Y603.554 Z-14.458
N12370 Y344.69 Z-23.516
N12375 Y173.022 Z-32.2
N12380 Y78.754 Z-39.365
N12385 Y71.773 Z-42.481
N12390 Y68.71 Z-45.758
N12395 G2 Y68.014 Z-46.06 J-0.696 K0.65
N12400 G1 X-186.946 Y67.131 Z-46.053
N12405 X-187.351 Y66.334 Z-46.031
N12410 X-187.982 Y65.702 Z-45.996
N12415 X-188.778 Y65.296 Z-45.953
N12420 X-189.66 Y65.156 Z-45.905
N12425 X-198.949 Z-45.401
N12430 X-199.831 Y65.296 Z-45.354
N12435 X-200.626 Y65.702 Z-45.31
N12440 X-201.257 Y66.334 Z-45.276
N12445 X-201.663 Y67.131 Z-45.254
N12450 X-201.802 Y68.014 Z-45.247
N12455 Y78.132
N12460 G3 Y78.789 Z-44.983 J0. K0.952
N12465 G1 Y83.301 Z-40.68
N12470 Y90.442 Z-38.303
N12475 Y193.987 Z-30.939
N12480 Y379.279 Z-22.092
N12485 Y649.043 Z-13.173
N12490 Y926.981 Z-7.1
N12495 Y1071.4 Z-7.357
N12500 Y1199.47 Z-10.692
N12505 Y1311.19 Z-16.739
N12510 Y1401.111 Z-24.559
N12515 Y1459.534 Z-32.084
N12520 Y1483.54 Z-37.707
N12525 Y1506.847 Z-45.433
N12530 Y1521.943 Z-52.735
N12535 Y1531.15 Z-59.826
N12540 G3 Y1534.217 Z-58.317 J1.162 K1.509 F1000.
N12545 G1 Z-58.284
N12550 Z5. F5000.
N12555 X-216.799 Y1500.97
N12560 Z-53.919
N12565 Z-54.449 F1000.
N12570 G2 Y1497.961 Z-56.002 J-1.905 K0.
N12575 G1 Y1489.686 Z-50.12 F5000.
N12580 Y1480.284 Z-45.383
N12585 Y1462.686 Z-38.922
N12590 Y1436.068 Z-31.843
N12595 Y1406.314 Z-26.172
N12600 Y1339.569 Z-19.308
N12605 Y1238.749 Z-12.669
N12610 Y1118.854 Z-8.305
N12615 Y979.884 Z-6.782
N12620 Y835.466 Z-8.641
N12625 Y527.553 Z-16.758
N12630 Y290.488 Z-25.924
N12635 Y148.88 Z-33.886
N12640 Y124.37 Z-37.958
N12645 Y110.61 Z-42.982
N12650 Y108.879 Z-44.022
N12655 G2 Y105.993 Z-42.389 J-0.981 K1.633 F1000.
N12660 G1 Z-41.362
N12665 Z5. F5000.
N12670 X-231.795 Y168.255
N12675 Z-37.46
N12680 Z-38.961 F1000.
N12685 G3 Y171.031 Z-40.655 J1.905 K0.
N12690 G1 Y174.315 Z-38.965 F5000.
N12695 Y190.504 Z-34.13
N12700 Y218.016 Z-29.973
N12705 Y327.352 Z-24.261
N12710 Y580.767 Z-15.075
N12715 Y888.679 Z-7.53
N12720 Y1016.748 Z-6.875
N12725 Y1150.268 Z-9.306
N12730 Y1264.713 Z-14.466
N12735 Y1338.285 Z-20.249
N12740 Y1377.311 Z-26.125
N12745 Y1413.766 Z-34.043
N12750 Y1434.232 Z-40.321
N12755 Y1448.234 Z-46.285
N12760 Y1456.945 Z-51.729
N12765 G3 Y1459.859 Z-50.114 J1.01 K1.615 F1000.
N12770 G1 Z-49.108
N12775 Z5. F5000.
N12780 X-246.791 Y1407.222
N12785 Z-43.843
N12790 Z-45.365 F1000.
N12795 G2 Y1404.439 Z-47.055 J-1.905 K0.
N12800 G1 Y1394.026 Z-41.643 F5000.
N12805 Y1373.797 Z-34.767
N12810 Y1341.597 Z-27.303
N12815 Y1297.356 Z-20.135
N12820 Y1245.87 Z-14.471
N12825 Y1169.573 Z-10.316
N12830 Y1044.229 Z-7.194
N12835 Y925.512 Z-6.916
N12840 Y644.849 Z-13.194
N12845 Y375.085 Z-22.26
N12850 Y309.688 Z-25.695
N12855 Y273.896 Z-30.422
N12860 Y251.699 Z-36.104
N12865 Y246.449 Z-38.246
N12870 G2 Y243.825 Z-36.482 J-0.72 K1.764 F1000.
N12875 G1 Z-34.608
N12880 Z5. F5000.
N12885 X-261.787 Y339.281
N12890 Z-32.352
N12895 Z-34.43 F1000.
N12900 G3 Y341.775 Z-36.242 J1.905 K0.
N12905 G1 Y345.469 Z-35.041 F5000.
N12910 Y369.166 Z-29.334
N12915 Y407.106 Z-23.759
N12920 Y461.574 Z-19.415
N12925 Y630.517 Z-13.612
N12930 Y913.905 Z-7.114
N12935 Y1039.25 Z-7.476
N12940 Y1115.546 Z-10.093
N12945 Y1191.843 Z-15.556
N12950 Y1248.876 Z-21.95
N12955 Y1292.569 Z-29.405
N12960 Y1319.133 Z-36.263
N12965 Y1333.185 Z-41.836
N12970 G3 Y1335.792 Z-40.065 J0.702 K1.771 F1000.
N12975 G1 Z-38.052
N12980 Z5. F5000.
N12985 X-276.783 Y1226.54
N12990 Z-31.5
N12995 Z-34.111 F1000.
N13000 G2 Y1224.115 Z-35.943 J-1.905 K0.
N13005 G1 Y1208.784 Z-31.59 F5000.
N13010 Y1166.843 Z-24.42
N13015 Y1090.801 Z-16.934
N13020 Y1011.78 Z-12.649
N13025 Y913.684 Z-10.207
N13030 Y777.439 Z-11.802
N13035 Y646.645 Z-16.077
N13040 Y559.449 Z-21.391
N13045 Y505.838 Z-27.301
N13050 Y476.048 Z-32.875
N13055 Y473.212 Z-33.683
N13060 G2 Y470.785 Z-31.851 J-0.522 K1.832 F1000.
N13065 G1 Z-29.454
N13070 Z5. F5000.
N13075 X-291.779 Y734.381
N13080 Z-25.14
N13085 Z-28.284 F1000.
N13090 G3 Y736.435 Z-30.184 J1.905 K0.
N13095 G1 Y756.81 Z-28.591 F5000.
N13100 Y824.932 Z-25.956
N13105 Y903.954 Z-26.112
N13110 Y961.177 Z-29.283
N13115 G3 Y963.187 Z-27.381 J0.105 K1.902 F1000.
N13120 G1 Z-23.993
N13125 Z10. F5000.
N13130 G17
(PARALLEL2 4)
N13135 G0 X292.235 Y855.086
N13140 G1 Z10. F5000.
N13145 Z-28.955
N13150 Z-37.007 F1000.
N13155 G19 G2 Y853.152 Z-38.912 J-1.905 K0.
N13160 G1 Y846.264 Z-38.805 F5000.
N13165 Y841.461 Z-38.965
N13170 G2 Y839.493 Z-37.061 J-0.063 K1.904 F1000.
N13175 G1 Z-29.051
N13180 Z5. F5000.
N13185 X289.235 Y680.096
N13190 Z-30.709
N13195 Z-38.329 F1000.
N13200 G3 Y682.668 Z-40.113 J1.905 K0.
N13205 G1 Y684.521 Z-39.42 F5000.
N13210 Y692.878 Z-36.515
N13215 Y694.326 Z-36.058
N13220 Y698.008 Z-35.283
N13225 Y703.872 Z-34.426
N13230 Y726.62 Z-32.088
N13235 Y750.084 Z-30.116
N13240 Y770.239 Z-28.792
N13245 Y792.351 Z-27.849
N13250 Y816.839 Z-27.18
N13255 Y842.858 Z-26.785
N13260 Y871.172 Z-26.687
N13265 Y901.781 Z-27.086
N13270 Y927.035 Z-28.038
N13275 Y952.753 Z-29.672
N13280 Y978.168 Z-31.699
N13285 Y993.827 Z-33.218
N13290 Y1001.318 Z-34.174
N13295 Y1004.59 Z-34.881
N13300 Y1018.574 Z-39.376
N13305 G3 Y1021.062 Z-37.562 J0.583 K1.814 F1000.
N13310 G1 Z-29.914
N13315 Z5. F5000.
N13320 X286.235 Y1091.095
N13325 Z-31.492
N13330 Z-38.739 F1000.
N13335 G2 Y1088.38 Z-40.463 J-1.905 K0.
N13340 G1 Y1079.557 Z-36.318 F5000.
N13345 Y1077.614 Z-35.635
N13350 Y1073.698 Z-34.705
N13355 Y1068.398 Z-33.78
N13360 Y1046.137 Z-30.542
N13365 Y1030.745 Z-28.568
N13370 Y1022.556 Z-27.724
N13375 Y1004.222 Z-26.341
N13380 Y989.766 Z-25.461
N13385 Y975.246 Z-24.627
N13390 Y948.462 Z-23.351
N13395 Y924.739 Z-22.476
N13400 Y897.191 Z-21.902
N13405 Y869.642 Z-21.715
N13410 Y840.563 Z-21.874
N13415 Y814.544 Z-22.249
N13420 Y789.291 Z-22.834
N13425 Y767.128 Z-23.559
N13430 Y744.461 Z-24.551
N13435 Y723.34 Z-25.674
N13440 Y702.404 Z-26.985
N13445 Y681.724 Z-28.482
N13450 Y666.815 Z-29.825
N13455 Y659.823 Z-30.667
N13460 Y642.177 Z-33.356
N13465 Y628.582 Z-35.674
N13470 Y624.913 Z-36.505
N13475 Y623.467 Z-36.985
N13480 Y622.218 Z-37.603
N13485 Y616.349 Z-40.818
N13490 G2 Y613.529 Z-39.147 J-0.915 K1.671 F1000.
N13495 G1 Z-31.657
N13500 Z5. F5000.
N13505 X283.235 Y563.096
N13510 Z-32.508
N13515 Z-39.877 F1000.
N13520 G3 Y566.085 Z-41.443 J1.905 K0.
N13525 G1 Y570.943 Z-38.081 F5000.
N13530 Y572.702 Z-37.313
N13535 Y575.376 Z-36.538
N13540 Y586.14 Z-34.169
N13545 Y594.658 Z-32.426
N13550 Y600.104 Z-31.387
N13555 Y607.438 Z-30.318
N13560 Y622.558 Z-28.634
N13565 Y642.995 Z-26.582
N13570 Y659.857 Z-25.089
N13575 Y677.447 Z-23.881
N13580 Y698.372 Z-22.761
N13585 Y720.263 Z-21.759
N13590 Y749.229 Z-20.639
N13595 Y782.135 Z-19.673
N13600 Y809.684 Z-19.075
N13605 Y837.232 Z-18.672
N13610 Y867.077 Z-18.453
N13615 Y895.391 Z-18.496
N13620 Y923.705 Z-18.802
N13625 Y945.897 Z-19.339
N13630 Y974.211 Z-20.285
N13635 Y1000.993 Z-21.478
N13640 Y1022.901 Z-22.893
N13645 Y1045.331 Z-24.688
N13650 Y1066.245 Z-26.569
N13655 Y1075.199 Z-27.452
N13660 Y1088.62 Z-28.891
N13665 Y1095.944 Z-29.954
N13670 Y1109.738 Z-32.451
N13675 Y1121.501 Z-34.812
N13680 Y1127.419 Z-36.077
N13685 Y1130.123 Z-36.87
N13690 Y1131.892 Z-37.69
N13695 Y1138.101 Z-41.616
N13700 G3 Y1141.024 Z-40.005 J1.018 K1.61 F1000.
N13705 G1 Z-33.056
N13710 Z5. F5000.
N13715 X280.235 Y1180.746
N13720 Z-34.565
N13725 Z-41.242 F1000.
N13730 G2 Y1177.707 Z-42.772 J-1.905 K0.
N13735 G1 Y1172.417 Z-38.851 F5000.
N13740 Y1170.619 Z-37.965
N13745 Y1167.449 Z-36.911
N13750 Y1159.669 Z-35.019
N13755 Y1148.001 Z-32.231
N13760 Y1142.431 Z-31.076
N13765 Y1134.007 Z-29.701
N13770 Y1123.6 Z-28.341
N13775 Y1108.715 Z-26.507
N13780 Y1087.849 Z-24.154
N13785 Y1071.424 Z-22.623
N13790 Y1053.395 Z-21.356
N13795 Y1041.276 Z-20.595
N13800 Y1012.962 Z-19.02
N13805 Y983.883 Z-17.661
N13810 Y950.212 Z-16.418
N13815 Y924.194 Z-15.853
N13820 Y894.349 Z-15.7
N13825 Y863.739 Z-15.814
N13830 Y827.007 Z-16.21
N13835 Y784.919 Z-16.962
N13840 Y745.126 Z-17.953
N13845 Y714.516 Z-18.966
N13850 Y689.241 Z-20.03
N13855 Y666.022 Z-21.263
N13860 Y641.572 Z-22.773
N13865 Y619.654 Z-24.302
N13870 Y604.271 Z-25.521
N13875 Y590.873 Z-26.913
N13880 Y575.11 Z-28.896
N13885 Y565.005 Z-30.244
N13890 Y555.884 Z-31.56
N13895 Y550.584 Z-32.567
N13900 Y537.271 Z-35.882
N13905 Y531.769 Z-37.377
N13910 Y529.779 Z-38.091
N13915 Y528.411 Z-38.816
N13920 Y524.356 Z-42.034
N13925 G2 Y521.267 Z-40.542 J-1.184 K1.492 F1000.
N13930 G1 Z-33.27
N13935 Z5. F5000.
N13940 X277.235 Y485.004
N13945 Z-34.03
N13950 Z-41.19 F1000.
N13955 G3 Y488.205 Z-42.585 J1.905 K0.
N13960 G1 Y491.641 Z-39.395 F5000.
N13965 Y492.931 Z-38.677
N13970 Y495.556 Z-37.732
N13975 Y508.634 Z-33.856
N13980 Y513.227 Z-32.747
N13985 Y520.672 Z-31.407
N13990 Y536.518 Z-28.919
N13995 Y546.154 Z-27.525
N14000 Y556.858 Z-26.278
N14005 Y574.018 Z-24.683
N14010 Y592.989 Z-23.07
N14015 Y610.407 Z-21.736
N14020 Y630.959 Z-20.484
N14025 Y650.687 Z-19.506
N14030 Y674.945 Z-18.431
N14035 Y703.972 Z-17.293
N14040 Y743.765 Z-16.011
N14045 Y784.323 Z-14.998
N14050 Y826.411 Z-14.243
N14055 Y863.908 Z-13.837
N14060 Y892.987 Z-13.725
N14065 Y922.832 Z-13.832
N14070 Y940.05 Z-14.097
N14075 Y964.155 Z-14.648
N14080 Y995.53 Z-15.598
N14085 Y1021.549 Z-16.62
N14090 Y1045.25 Z-17.923
N14095 Y1066.341 Z-19.331
N14100 Y1085.806 Z-20.768
N14105 Y1106.736 Z-22.465
N14110 Y1116.447 Z-23.325
N14115 Y1130.617 Z-24.794
N14120 Y1146.967 Z-27.001
N14125 Y1158.837 Z-28.737
N14130 Y1169.218 Z-30.305
N14135 Y1177.346 Z-31.684
N14140 Y1183.49 Z-32.993
N14145 Y1200.234 Z-37.651
N14150 Y1202.787 Z-38.44
N14155 Y1205.231 Z-39.462
N14160 Y1206.319 Z-40.116
N14165 Y1210.747 Z-43.912
N14170 Y1227.714 Z-58.461
N14175 X277.232 Y1227.969 Z-58.655
N14180 X277.223 Y1228.243 Z-58.821
N14185 X277.209 Y1228.534 Z-58.955
N14190 X277.188 Y1228.837 Z-59.056
N14195 X277.162 Y1229.15 Z-59.122
N14200 X277.131 Y1229.467 Z-59.154
N14205 X277.095 Y1229.785 Z-59.149
N14210 X277.055 Y1230.101 Z-59.11
N14215 X277.012 Y1230.409 Z-59.035
N14220 X276.965 Y1230.707 Z-58.926
N14225 X276.915 Y1230.99 Z-58.784
N14230 X276.864 Y1231.255 Z-58.611
N14235 X276.811 Y1231.499 Z-58.41
N14240 X276.757 Y1231.717 Z-58.182
N14245 X274.714 Y1239.559 Z-49.036
N14250 X274.66 Y1239.751 Z-48.785
N14255 X274.607 Y1239.913 Z-48.514
N14260 X274.556 Y1240.043 Z-48.225
N14265 X274.506 Y1240.14 Z-47.924
N14270 X274.459 Y1240.202 Z-47.613
N14275 X274.415 Y1240.229 Z-47.297
N14280 X274.376 Y1240.22 Z-46.979
N14285 X274.34 Y1240.176 Z-46.664
N14290 X274.309 Y1240.097 Z-46.355
N14295 X274.283 Y1239.983 Z-46.056
N14300 X274.262 Y1239.837 Z-45.772
N14305 X274.248 Y1239.66 Z-45.505
N14310 X274.239 Y1239.455 Z-45.259
N14315 X274.236 Y1239.224 Z-45.037
N14320 Y1235.541 Z-41.419
N14325 Y1234.506 Z-40.7
N14330 Y1232.756 Z-39.871
N14335 Y1228.808 Z-38.524
N14340 Y1216.666 Z-34.649
N14345 Y1212.045 Z-33.428
N14350 Y1204.961 Z-31.965
N14355 Y1196.588 Z-30.477
N14360 Y1182.542 Z-28.083
N14365 Y1170.692 Z-26.21
N14370 Y1162.515 Z-25.139
N14375 Y1146.86 Z-23.439
N14380 Y1125.963 Z-21.389
N14385 Y1106.543 Z-19.638
N14390 Y1088.605 Z-18.175
N14395 Y1065.845 Z-16.777
N14400 Y1035.235 Z-15.268
N14405 Y1001.564 Z-13.879
N14410 Y967.893 Z-12.806
N14415 Y947.232 Z-12.302
N14420 Y924.274 Z-11.991
N14425 Y891.369 Z-12.061
N14430 Y859.228 Z-12.348
N14435 Y807.192 Z-13.142
N14440 Y755.92 Z-14.24
N14445 Y704.649 Z-15.652
N14450 Y661.795 Z-17.112
N14455 Y631.65 Z-18.423
N14460 Y606.652 Z-19.737
N14465 Y579.186 Z-21.367
N14470 Y561.973 Z-22.552
N14475 Y547.883 Z-23.771
N14480 Y532.076 Z-25.364
N14485 Y517.026 Z-26.984
N14490 Y506.259 Z-28.358
N14495 Y497.321 Z-29.862
N14500 Y487.287 Z-31.662
N14505 Y479.555 Z-33.122
N14510 Y475.617 Z-34.063
N14515 Y472.394 Z-35.069
N14520 Y462.364 Z-38.419
N14525 Y460.195 Z-39.305
N14530 Y458.99 Z-40.037
N14535 Y456.765 Z-42.291
N14540 Y455.957 Z-43.132
N14545 Y441.634 Z-58.037
N14550 X274.233 Y441.4 Z-58.255
N14555 X274.225 Y441.143 Z-58.446
N14560 X274.213 Y440.866 Z-58.608
N14565 X274.195 Y440.573 Z-58.737
N14570 X274.173 Y440.268 Z-58.833
N14575 X274.146 Y439.955 Z-58.894
N14580 X274.116 Y439.637 Z-58.92
N14585 X274.082 Y439.319 Z-58.91
N14590 X274.044 Y439.004 Z-58.865
N14595 X274.004 Y438.696 Z-58.784
N14600 X273.962 Y438.4 Z-58.67
N14605 X273.918 Y438.119 Z-58.522
N14610 X273.872 Y437.856 Z-58.344
N14615 X273.827 Y437.615 Z-58.138
N14620 X271.645 Y426.732 Z-47.681
N14625 X271.599 Y426.517 Z-47.448
N14630 X271.554 Y426.328 Z-47.193
N14635 X271.51 Y426.17 Z-46.918
N14640 X271.467 Y426.044 Z-46.626
N14645 X271.427 Y425.951 Z-46.322
N14650 X271.39 Y425.893 Z-46.009
N14655 X271.355 Y425.87 Z-45.692
N14660 X271.325 Y425.884 Z-45.373
N14665 X271.298 Y425.932 Z-45.057
N14670 X271.276 Y426.016 Z-44.749
N14675 X271.259 Y426.134 Z-44.451
N14680 X271.246 Y426.284 Z-44.168
N14685 X271.238 Y426.464 Z-43.904
N14690 X271.236 Y426.673 Z-43.661
N14695 Y428.819 Z-41.225
N14700 Y429.463 Z-40.591
N14705 Y430.723 Z-39.82
N14710 Y432.215 Z-39.167
N14715 Y440.744 Z-35.98
N14720 Y443.939 Z-34.877
N14725 Y448.513 Z-33.693
N14730 Y458.498 Z-31.63
N14735 Y468.2 Z-29.714
N14740 Y476.849 Z-28.341
N14745 Y487.631 Z-26.976
N14750 Y503.559 Z-25.081
N14755 Y515.618 Z-23.839
N14760 Y530.692 Z-22.607
N14765 Y553.929 Z-20.946
N14770 Y577.334 Z-19.51
N14775 Y604.815 Z-18.185
N14780 Y637.545 Z-16.828
N14785 Y680.357 Z-15.347
N14790 Y736.219 Z-13.786
N14795 Y802.796 Z-12.246
N14800 Y860.954 Z-11.192
N14805 Y892.329 Z-10.836
N14810 Y921.409 Z-10.742
N14815 Y934.418 Z-10.826
N14820 Y961.967 Z-11.229
N14825 Y996.403 Z-11.993
N14830 Y1023.186 Z-12.848
N14835 Y1055.327 Z-14.358
N14840 Y1085.161 Z-16.022
N14845 Y1109.367 Z-17.563
N14850 Y1128.844 Z-18.979
N14855 Y1145.268 Z-20.529
N14860 Y1163.163 Z-22.449
N14865 Y1184.022 Z-24.856
N14870 Y1197.412 Z-26.559
N14875 Y1204.821 Z-27.69
N14880 Y1216.621 Z-29.854
N14885 Y1232.809 Z-33.027
N14890 Y1237.929 Z-34.146
N14895 Y1242.834 Z-35.478
N14900 Y1247.092 Z-36.911
N14905 Y1251.33 Z-38.407
N14910 Y1257.915 Z-40.848
N14915 Y1259.678 Z-41.707
N14920 Y1261.019 Z-42.645
N14925 Y1264.357 Z-46.125
N14930 G3 Y1265.044 Z-46.418 J0.687 K0.659
N14935 G1 Y1287.343
N14940 X271.217 Y1287.594 Z-46.425
N14945 X271.162 Y1287.838 Z-46.446
N14950 X271.072 Y1288.07 Z-46.48
N14955 X270.949 Y1288.285 Z-46.526
N14960 X270.796 Y1288.476 Z-46.583
N14965 X270.617 Y1288.639 Z-46.65
N14970 X270.417 Y1288.771 Z-46.726
N14975 X270.199 Y1288.867 Z-46.807
N14980 X269.97 Y1288.925 Z-46.893
N14985 X269.736 Y1288.945 Z-46.981
N14990 X269.501 Y1288.925 Z-47.069
N14995 X269.272 Y1288.867 Z-47.155
N15000 X269.055 Y1288.771 Z-47.237
N15005 X268.854 Y1288.639 Z-47.312
N15010 X268.675 Y1288.476 Z-47.379
N15015 X268.522 Y1288.285 Z-47.437
N15020 X268.399 Y1288.07 Z-47.483
N15025 X268.309 Y1287.838 Z-47.516
N15030 X268.254 Y1287.594 Z-47.537
N15035 X268.236 Y1287.343 Z-47.544
N15040 G2 Y1286.619 Z-47.21 J0. K0.952
N15045 G1 Y1283.802 Z-43.91
N15050 Y1282.892 Z-43.129
N15055 Y1281.204 Z-42.141
N15060 Y1279.39 Z-41.333
N15065 Y1267.715 Z-36.83
N15070 Y1263.657 Z-35.569
N15075 Y1257.097 Z-34.033
N15080 Y1246.846 Z-31.778
N15085 Y1233.634 Z-29.019
N15090 Y1224.016 Z-27.452
N15095 Y1213.62 Z-25.994
N15100 Y1198.008 Z-23.925
N15105 Y1181.638 Z-21.881
N15110 Y1167.477 Z-20.31
N15115 Y1148.801 Z-18.69
N15120 Y1126.368 Z-16.949
N15125 Y1106.87 Z-15.569
N15130 Y1085.706 Z-14.207
N15135 Y1065.048 Z-13.117
N15140 Y1033.673 Z-11.913
N15145 Y996.176 Z-10.772
N15150 Y970.158 Z-10.198
N15155 Y946.435 Z-9.93
N15160 Y923.478 Z-9.914
N15165 Y885.981 Z-10.401
N15170 Y823.996 Z-11.589
N15175 Y726.045 Z-13.855
N15180 Y644.929 Z-16.014
N15185 Y601.31 Z-17.389
N15190 Y568.317 Z-18.722
N15195 Y539.616 Z-20.17
N15200 Y517.725 Z-21.519
N15205 Y501.297 Z-22.794
N15210 Y484.125 Z-24.259
N15215 Y472.066 Z-25.501
N15220 Y462.56 Z-26.707
N15225 Y446.671 Z-28.9
N15230 Y438.12 Z-30.294
N15235 Y430.481 Z-31.934
N15240 Y419.956 Z-34.324
N15245 Y415.97 Z-35.39
N15250 Y413.412 Z-36.288
N15255 Y404.114 Z-40.115
N15260 Y402.899 Z-40.766
N15265 Y402.013 Z-41.453
N15270 Y399.848 Z-44.185
N15275 G2 Y399.102 Z-44.546 J-0.747 K0.592
N15280 G1 Y374.227
N15285 X268.217 Y373.989 Z-44.549
N15290 X268.162 Y373.756 Z-44.559
N15295 X268.072 Y373.535 Z-44.575
N15300 X267.949 Y373.332 Z-44.597
N15305 X267.797 Y373.15 Z-44.624
N15310 X267.618 Y372.994 Z-44.656
N15315 X267.417 Y372.87 Z-44.692
N15320 X267.199 Y372.778 Z-44.731
N15325 X266.971 Y372.722 Z-44.772
N15330 X266.736 Y372.703 Z-44.814
N15335 X266.501 Y372.722 Z-44.856
N15340 X266.272 Y372.778 Z-44.897
N15345 X266.055 Y372.87 Z-44.936
N15350 X265.854 Y372.994 Z-44.971
N15355 X265.675 Y373.15 Z-45.003
N15360 X265.522 Y373.332 Z-45.031
N15365 X265.399 Y373.535 Z-45.053
N15370 X265.309 Y373.756 Z-45.069
N15375 X265.254 Y373.989 Z-45.079
N15380 X265.236 Y374.227 Z-45.082
N15385 G3 Y374.996 Z-44.692 J0. K0.952
N15390 G1 Y376.794 Z-42.233
N15395 Y377.689 Z-41.421
N15400 Y379.234 Z-40.546
N15405 Y388.099 Z-36.646
N15410 Y390.659 Z-35.756
N15415 Y394.719 Z-34.677
N15420 Y406.516 Z-31.781
N15425 Y413.034 Z-30.433
N15430 Y422.133 Z-28.973
N15435 Y436.213 Z-26.873
N15440 Y447.581 Z-25.504
N15445 Y463.91 Z-23.911
N15450 Y480.689 Z-22.489
N15455 Y499.488 Z-21.26
N15460 Y521.884 Z-20.031
N15465 Y549.744 Z-18.86
N15470 Y601.016 Z-17.234
N15475 Y694.375 Z-14.644
N15480 Y790.031 Z-12.312
N15485 Y877.269 Z-10.48
N15490 Y923.184 Z-9.785
N15495 Y956.854 Z-9.666
N15500 Y992.821 Z-9.888
N15505 Y1017.309 Z-10.288
N15510 Y1038.736 Z-10.895
N15515 Y1074.702 Z-12.344
N15520 Y1106.843 Z-13.915
N15525 Y1125.777 Z-15.094
N15530 Y1143.727 Z-16.486
N15535 Y1158.673 Z-17.731
N15540 Y1173.613 Z-19.056
N15545 Y1188.545 Z-20.461
N15550 Y1202.716 Z-21.927
N15555 Y1215.355 Z-23.584
N15560 Y1230.203 Z-25.702
N15565 Y1247.999 Z-28.388
N15570 Y1256.124 Z-29.785
N15575 Y1264.185 Z-31.492
N15580 Y1280.232 Z-35.31
N15585 Y1285.305 Z-36.628
N15590 Y1289.496 Z-37.974
N15595 Y1292.891 Z-39.341
N15600 Y1301.455 Z-43.065
N15605 Y1303.163 Z-44.039
N15610 Y1304.128 Z-44.809
N15615 Y1306.899 Z-48.251
N15620 G3 Y1307.641 Z-48.606 J0.742 K0.597
N15625 G1 Y1326.047
N15630 X265.218 Y1326.297 Z-48.612
N15635 X265.163 Y1326.54 Z-48.632
N15640 X265.073 Y1326.771 Z-48.664
N15645 X264.95 Y1326.984 Z-48.708
N15650 X264.797 Y1327.174 Z-48.763
N15655 X264.618 Y1327.336 Z-48.827
N15660 X264.417 Y1327.467 Z-48.899
N15665 X264.2 Y1327.563 Z-48.977
N15670 X263.971 Y1327.621 Z-49.059
N15675 X263.736 Y1327.641 Z-49.143
N15680 X263.501 Y1327.621 Z-49.228
N15685 X263.273 Y1327.563 Z-49.31
N15690 X263.055 Y1327.467 Z-49.388
N15695 X262.854 Y1327.336 Z-49.46
N15700 X262.675 Y1327.174 Z-49.524
N15705 X262.523 Y1326.984 Z-49.578
N15710 X262.4 Y1326.771 Z-49.623
N15715 X262.31 Y1326.54 Z-49.655
N15720 X262.255 Y1326.297 Z-49.675
N15725 X262.236 Y1326.047 Z-49.681
N15730 G2 Y1325.279 Z-49.292 J0. K0.953
N15735 G1 Y1322.919 Z-46.073
N15740 Y1321.786 Z-45.055
N15745 Y1320.113 Z-44.032
N15750 Y1316.954 Z-42.555
N15755 Y1309.435 Z-39.175
N15760 Y1305.754 Z-37.858
N15765 Y1298.711 Z-35.953
N15770 Y1290.004 Z-33.691
N15775 Y1281.27 Z-31.538
N15780 Y1275.396 Z-30.347
N15785 Y1262.093 Z-28.071
N15790 Y1245.803 Z-25.454
N15795 Y1233.2 Z-23.544
N15800 Y1220.545 Z-22.024
N15805 Y1199.667 Z-19.797
N15810 Y1180.262 Z-17.894
N15815 Y1163.086 Z-16.326
N15820 Y1145.853 Z-15.044
N15825 Y1124.595 Z-13.739
N15830 Y1092.455 Z-11.998
N15835 Y1069.498 Z-11.016
N15840 Y1044.245 Z-10.363
N15845 Y1009.809 Z-9.845
N15850 Y966.955 Z-9.62
N15855 Y937.11 Z-9.659
N15860 Y919.51 Z-9.797
N15865 Y872.83 Z-10.523
N15870 Y778.705 Z-12.546
N15875 Y682.284 Z-14.941
N15880 Y585.863 Z-17.673
N15885 Y507.808 Z-20.171
N15890 Y483.337 Z-21.207
N15895 Y463.255 Z-22.351
N15900 Y446.601 Z-23.525
N15905 Y432.515 Z-24.798
N15910 Y417.024 Z-26.469
N15915 Y407.007 Z-27.785
N15920 Y395.917 Z-29.588
N15925 Y387.499 Z-31.039
N15930 Y381.562 Z-32.286
N15935 Y368.288 Z-35.75
N15940 Y365.056 Z-36.734
N15945 Y362.54 Z-37.761
N15950 Y356.918 Z-40.438
N15955 Y355.041 Z-41.397
N15960 Y353.82 Z-42.265
N15965 Y353.27 Z-42.922
N15970 Y351.79 Z-45.214
N15975 G2 Y350.99 Z-45.649 J-0.8 K0.517
N15980 G1 Y329.188
N15985 X262.218 Y328.949 Z-45.653
N15990 X262.163 Y328.717 Z-45.663
N15995 X262.073 Y328.496 Z-45.68
N16000 X261.95 Y328.292 Z-45.702
N16005 X261.797 Y328.109 Z-45.731
N16010 X261.618 Y327.954 Z-45.764
N16015 X261.417 Y327.829 Z-45.801
N16020 X261.2 Y327.737 Z-45.841
N16025 X260.971 Y327.682 Z-45.883
N16030 X260.736 Y327.663 Z-45.927
N16035 X260.502 Y327.682 Z-45.97
N16040 X260.273 Y327.737 Z-46.012
N16045 X260.055 Y327.829 Z-46.053
N16050 X259.855 Y327.954 Z-46.09
N16055 X259.676 Y328.109 Z-46.123
N16060 X259.523 Y328.292 Z-46.151
N16065 X259.4 Y328.496 Z-46.174
N16070 X259.31 Y328.717 Z-46.19
N16075 X259.255 Y328.949 Z-46.201
N16080 X259.236 Y329.188 Z-46.204
N16085 G3 Y330.017 Z-45.72 J0. K0.952
N16090 G1 Y331.395 Z-43.283
N16095 Y332.174 Z-42.442
N16100 Y332.737 Z-42.033
N16105 Y335.238 Z-40.634
N16110 Y340.299 Z-37.964
N16115 Y342.825 Z-36.959
N16120 Y346.849 Z-35.746
N16125 Y356.385 Z-33.112
N16130 Y361.651 Z-31.941
N16135 Y377.807 Z-29.063
N16140 Y386.466 Z-27.755
N16145 Y396.279 Z-26.537
N16150 Y407.811 Z-25.263
N16155 Y421.901 Z-24.043
N16160 Y437.453 Z-22.98
N16165 Y457.209 Z-21.956
N16170 Y494.523 Z-20.593
N16175 Y583.291 Z-17.74
N16180 Y675.886 Z-15.096
N16185 Y773.837 Z-12.642
N16190 Y872.745 Z-10.492
N16195 Y919.999 Z-9.753
N16200 Y940.661 Z-9.603
N16205 Y972.801 Z-9.577
N16210 Y1014.124 Z-9.822
N16215 Y1055.447 Z-10.351
N16220 Y1081.466 Z-10.938
N16225 Y1105.954 Z-11.69
N16230 Y1125.085 Z-12.604
N16235 Y1143.3 Z-13.724
N16240 Y1161.378 Z-14.934
N16245 Y1182.355 Z-16.461
N16250 Y1196.919 Z-17.765
N16255 Y1213.7 Z-19.528
N16260 Y1230.095 Z-21.364
N16265 Y1250.942 Z-23.871
N16270 Y1261.329 Z-25.374
N16275 Y1276.112 Z-27.9
N16280 Y1290.872 Z-30.555
N16285 Y1297.494 Z-31.834
N16290 Y1304.061 Z-33.354
N16295 Y1318.518 Z-37.342
N16300 Y1323.542 Z-38.831
N16305 Y1327.051 Z-40.094
N16310 Y1329.767 Z-41.324
N16315 Y1335.145 Z-43.974
N16320 Y1337.653 Z-45.266
N16325 Y1339.229 Z-46.329
N16330 Y1340.138 Z-47.237
N16335 Y1342.284 Z-50.303
N16340 G3 Y1343.064 Z-50.71 J0.78 K0.546
N16345 G1 Y1358.74
N16350 X259.218 Y1358.987 Z-50.716
N16355 X259.163 Y1359.229 Z-50.735
N16360 X259.073 Y1359.459 Z-50.765
N16365 X258.95 Y1359.671 Z-50.807
N16370 X258.797 Y1359.86 Z-50.859
N16375 X258.618 Y1360.021 Z-50.92
N16380 X258.417 Y1360.151 Z-50.988
N16385 X258.2 Y1360.246 Z-51.062
N16390 X257.971 Y1360.304 Z-51.14
N16395 X257.736 Y1360.324 Z-51.219
N16400 X257.502 Y1360.304 Z-51.299
N16405 X257.273 Y1360.246 Z-51.377
N16410 X257.055 Y1360.151 Z-51.45
N16415 X256.855 Y1360.021 Z-51.519
N16420 X256.676 Y1359.86 Z-51.579
N16425 X256.523 Y1359.671 Z-51.631
N16430 X256.4 Y1359.459 Z-51.673
N16435 X256.31 Y1359.229 Z-51.704
N16440 X256.255 Y1358.987 Z-51.722
N16445 X256.236 Y1358.74 Z-51.729
N16450 G2 Y1357.937 Z-51.289 J0. K0.952
N16455 G1 Y1355.933 Z-48.155
N16460 Y1355.062 Z-47.278
N16465 Y1353.372 Z-46.143
N16470 Y1344.505 Z-41.503
N16475 Y1341.755 Z-40.384
N16480 Y1336.054 Z-38.562
N16485 Y1328.876 Z-36.404
N16490 Y1320.954 Z-34.117
N16495 Y1315.859 Z-32.907
N16500 Y1304.097 Z-30.546
N16505 Y1289.363 Z-27.75
N16510 Y1279.768 Z-26.039
N16515 Y1271.607 Z-24.858
N16520 Y1258.226 Z-23.082
N16525 Y1243.345 Z-21.214
N16530 Y1228.452 Z-19.444
N16535 Y1215.778 Z-18.08
N16540 Y1197.099 Z-16.485
N16545 Y1179.152 Z-15.077
N16550 Y1161.171 Z-13.769
N16555 Y1144.452 Z-12.779
N16560 Y1121.494 Z-11.866
N16565 Y1098.537 Z-11.152
N16570 Y1057.979 Z-10.32
N16575 Y1017.421 Z-9.786
N16580 Y975.332 Z-9.527
N16585 Y940.896 Z-9.573
N16590 Y920.235 Z-9.734
N16595 Y872.789 Z-10.49
N16600 Y774.073 Z-12.636
N16605 Y676.122 Z-15.089
N16610 Y582.762 Z-17.745
N16615 Y494.758 Z-20.578
N16620 Y426.229 Z-23.05
N16625 Y407.666 Z-24.019
N16630 Y390.97 Z-25.223
N16635 Y377.395 Z-26.536
N16640 Y366.548 Z-27.872
N16645 Y356.752 Z-29.221
N16650 Y348.785 Z-30.595
N16655 Y338.108 Z-32.629
N16660 Y332.861 Z-33.888
N16665 Y323.101 Z-36.827
N16670 Y320.193 Z-37.862
N16675 Y318.048 Z-38.924
N16680 Y312.25 Z-42.335
N16685 Y311.147 Z-43.236
N16690 Y310.622 Z-44.012
N16695 Y309.523 Z-46.197
N16700 G2 Y308.672 Z-46.721 J-0.851 K0.428
N16705 G1 Y289.229
N16710 X256.218 Y288.99 Z-46.725
N16715 X256.163 Y288.757 Z-46.735
N16720 X256.073 Y288.536 Z-46.752
N16725 X255.95 Y288.332 Z-46.774
N16730 X255.797 Y288.15 Z-46.802
N16735 X255.618 Y287.995 Z-46.836
N16740 X255.417 Y287.87 Z-46.873
N16745 X255.2 Y287.778 Z-46.913
N16750 X254.971 Y287.722 Z-46.955
N16755 X254.737 Y287.703 Z-46.999
N16760 X254.502 Y287.722 Z-47.042
N16765 X254.273 Y287.778 Z-47.084
N16770 X254.056 Y287.87 Z-47.124
N16775 X253.855 Y287.995 Z-47.161
N16780 X253.676 Y288.15 Z-47.195
N16785 X253.523 Y288.332 Z-47.223
N16790 X253.4 Y288.536 Z-47.246
N16795 X253.31 Y288.757 Z-47.262
N16800 X253.255 Y288.99 Z-47.272
N16805 X253.237 Y289.229 Z-47.276
N16810 G3 Y290.098 Z-46.712 J0. K0.952
N16815 G1 Y290.608 Z-45.571
N16820 Y291.402 Z-43.961
N16825 Y291.948 Z-43.367
N16830 Y292.775 Z-42.735
N16835 Y297.729 Z-39.528
N16840 Y299.535 Z-38.547
N16845 Y302.059 Z-37.541
N16850 Y307.469 Z-35.751
N16855 Y312.626 Z-34.162
N16860 Y317.88 Z-32.936
N16865 Y329.717 Z-30.605
N16870 Y337.963 Z-29.302
N16875 Y350.02 Z-27.688
N16880 Y362.748 Z-26.366
N16885 Y376.864 Z-25.256
N16890 Y393.521 Z-24.308
N16895 Y413.931 Z-23.488
N16900 Y496.577 Z-20.51
N16905 Y582.285 Z-17.759
N16910 Y675.645 Z-15.101
N16915 Y773.596 Z-12.646
N16920 Y872.313 Z-10.499
N16925 Y919.758 Z-9.74
N16930 Y941.185 Z-9.571
N16935 Y976.264 Z-9.511
N16940 Y1019.883 Z-9.747
N16945 Y1058.91 Z-10.256
N16950 Y1099.468 Z-11.088
N16955 Y1137.73 Z-12.171
N16960 Y1162.918 Z-13.199
N16965 Y1180.505 Z-14.114
N16970 Y1195.501 Z-15.219
N16975 Y1213.436 Z-16.731
N16980 Y1234.347 Z-18.636
N16985 Y1247.026 Z-19.952
N16990 Y1259.671 Z-21.56
N16995 Y1276.022 Z-23.756
N17000 Y1294.208 Z-26.363
N17005 Y1303.447 Z-27.914
N17010 Y1315.945 Z-30.415
N17015 Y1331.355 Z-33.645
N17020 Y1337.177 Z-35.055
N17025 Y1342.207 Z-36.536
N17030 Y1353.634 Z-40.176
N17035 Y1357.16 Z-41.395
N17040 Y1359.882 Z-42.575
N17045 Y1365.807 Z-45.789
N17050 Y1368.248 Z-47.179
N17055 Y1369.77 Z-48.301
N17060 Y1370.58 Z-49.162
N17065 Y1372.484 Z-52.253
N17070 G3 Y1373.295 Z-52.706 J0.811 K0.5
N17075 G1 Y1386.935
N17080 X253.218 Y1387.182 Z-52.712
N17085 X253.163 Y1387.422 Z-52.73
N17090 X253.073 Y1387.651 Z-52.759
N17095 X252.95 Y1387.862 Z-52.799
N17100 X252.797 Y1388.05 Z-52.848
N17105 X252.618 Y1388.21 Z-52.906
N17110 X252.418 Y1388.339 Z-52.97
N17115 X252.2 Y1388.434 Z-53.04
N17120 X251.971 Y1388.492 Z-53.114
N17125 X251.737 Y1388.511 Z-53.189
N17130 X251.502 Y1388.492 Z-53.265
N17135 X251.273 Y1388.434 Z-53.339
N17140 X251.056 Y1388.339 Z-53.409
N17145 X250.855 Y1388.21 Z-53.473
N17150 X250.676 Y1388.05 Z-53.531
N17155 X250.523 Y1387.862 Z-53.58
N17160 X250.4 Y1387.651 Z-53.62
N17165 X250.31 Y1387.422 Z-53.649
N17170 X250.255 Y1387.182 Z-53.667
N17175 X250.237 Y1386.935 Z-53.672
N17180 G2 Y1386.116 Z-53.206 J0. K0.953
N17185 G1 Y1384.305 Z-50.157
N17190 Y1383.47 Z-49.253
N17195 Y1381.957 Z-48.117
N17200 Y1376.836 Z-45.065
N17205 Y1374.233 Z-43.616
N17210 Y1371.521 Z-42.407
N17215 Y1367.304 Z-40.881
N17220 Y1355.223 Z-36.826
N17225 Y1350.179 Z-35.436
N17230 Y1341.416 Z-33.405
N17235 Y1328.232 Z-30.511
N17240 Y1319.425 Z-28.673
N17245 Y1312.035 Z-27.426
N17250 Y1300.179 Z-25.58
N17255 Y1286.827 Z-23.6
N17260 Y1274.948 Z-21.914
N17265 Y1263.418 Z-20.451
N17270 Y1243.65 Z-18.422
N17275 Y1228.72 Z-16.986
N17280 Y1214.529 Z-15.711
N17285 Y1199.483 Z-14.681
N17290 Y1171.934 Z-13.298
N17295 Y1135.968 Z-12.013
N17300 Y1097.705 Z-10.954
N17305 Y1060.974 Z-10.225
N17310 Y1020.416 Z-9.728
N17315 Y977.562 Z-9.499
N17320 Y945.446 Z-9.542
N17325 Y920.193 Z-9.734
N17330 Y872.748 Z-10.49
N17335 Y772.501 Z-12.673
N17340 Y673.402 Z-15.161
N17345 Y580.424 Z-17.816
N17350 Y492.421 Z-20.647
N17355 Y412.079 Z-23.558
N17360 Y367.883 Z-25.315
N17365 Y352.57 Z-26.176
N17370 Y339.126 Z-27.242
N17375 Y327.739 Z-28.443
N17380 Y317.728 Z-29.804
N17385 Y308.777 Z-31.228
N17390 Y302.829 Z-32.41
N17395 Y295.643 Z-33.952
N17400 Y291.08 Z-35.17
N17405 Y287.875 Z-36.243
N17410 Y281.878 Z-38.395
N17415 Y280.009 Z-39.243
N17420 Y278.258 Z-40.334
N17425 Y273.659 Z-43.593
N17430 Y273.047 Z-44.194
N17435 Y272.506 Z-45.14
N17440 Y271.68 Z-47.182
N17445 G2 Y270.797 Z-47.777 J-0.883 K0.357
N17450 G1 Y253.242
N17455 X250.218 Y253.004 Z-47.78
N17460 X250.163 Y252.771 Z-47.789
N17465 X250.073 Y252.551 Z-47.805
N17470 X249.95 Y252.347 Z-47.826
N17475 X249.797 Y252.166 Z-47.852
N17480 X249.618 Y252.011 Z-47.882
N17485 X249.418 Y251.886 Z-47.916
N17490 X249.2 Y251.795 Z-47.953
N17495 X248.971 Y251.739 Z-47.992
N17500 X248.737 Y251.72 Z-48.032
N17505 X248.502 Y251.739 Z-48.072
N17510 X248.273 Y251.795 Z-48.111
N17515 X248.056 Y251.886 Z-48.148
N17520 X247.855 Y252.011 Z-48.183
N17525 X247.676 Y252.166 Z-48.213
N17530 X247.523 Y252.347 Z-48.239
N17535 X247.4 Y252.551 Z-48.26
N17540 X247.31 Y252.771 Z-48.276
N17545 X247.255 Y253.004 Z-48.285
N17550 X247.237 Y253.242 Z-48.288
N17555 G3 Y254.135 Z-47.666 J0. K0.952
N17560 G1 Y254.75 Z-46.003
N17565 Y255.225 Z-44.936
N17570 Y255.701 Z-44.365
N17575 Y256.232 Z-43.896
N17580 Y260.098 Z-40.919
N17585 Y261.851 Z-39.769
N17590 Y263.697 Z-38.895
N17595 Y268.732 Z-36.958
N17600 Y272.558 Z-35.623
N17605 Y277.125 Z-34.404
N17610 Y285.976 Z-32.45
N17615 Y293.347 Z-31.13
N17620 Y302.749 Z-29.72
N17625 Y313.368 Z-28.469
N17630 Y326.2 Z-27.344
N17635 Y340.265 Z-26.474
N17640 Y375.482 Z-24.997
N17645 Y428.966 Z-22.915
N17650 Y510.848 Z-20.027
N17655 Y598.851 Z-17.264
N17660 Y692.976 Z-14.649
N17665 Y793.223 Z-12.203
N17670 Y879.696 Z-10.376
N17675 Y927.141 Z-9.644
N17680 Y965.403 Z-9.491
N17685 Y1009.787 Z-9.629
N17690 Y1050.345 Z-10.033
N17695 Y1090.903 Z-10.731
N17700 Y1127.635 Z-11.649
N17705 Y1165.897 Z-12.941
N17710 Y1195.711 Z-14.191
N17715 Y1214.077 Z-15.161
N17720 Y1230.75 Z-16.202
N17725 Y1243.454 Z-17.284
N17730 Y1259.866 Z-18.965
N17735 Y1280.738 Z-21.263
N17740 Y1290.413 Z-22.448
N17745 Y1301.536 Z-24.112
N17750 Y1316.352 Z-26.444
N17755 Y1332.622 Z-29.158
N17760 Y1339.969 Z-30.632
N17765 Y1351.662 Z-33.317
N17770 Y1363.693 Z-36.201
N17775 Y1368.382 Z-37.484
N17780 Y1374.759 Z-39.67
N17785 Y1380.408 Z-41.69
N17790 Y1385.304 Z-43.533
N17795 Y1388.2 Z-44.911
N17800 Y1394.675 Z-48.933
N17805 Y1396.335 Z-50.184
N17810 Y1397.122 Z-51.033
N17815 Y1398.896 Z-54.111
N17820 G3 Y1399.721 Z-54.588 J0.825 K0.476
N17825 G1 Y1411.716
N17830 X247.218 Y1411.963 Z-54.594
N17835 X247.164 Y1412.204 Z-54.612
N17840 X247.073 Y1412.433 Z-54.642
N17845 X246.95 Y1412.644 Z-54.682
N17850 X246.798 Y1412.833 Z-54.733
N17855 X246.619 Y1412.994 Z-54.792
N17860 X246.418 Y1413.123 Z-54.858
N17865 X246.201 Y1413.218 Z-54.929
N17870 X245.972 Y1413.276 Z-55.005
N17875 X245.737 Y1413.295 Z-55.082
N17880 X245.502 Y1413.276 Z-55.16
N17885 X245.274 Y1413.218 Z-55.235
N17890 X245.056 Y1413.123 Z-55.307
N17895 X244.855 Y1412.994 Z-55.373
N17900 X244.676 Y1412.833 Z-55.432
N17905 X244.524 Y1412.644 Z-55.482
N17910 X244.401 Y1412.433 Z-55.523
N17915 X244.311 Y1412.204 Z-55.552
N17920 X244.256 Y1411.963 Z-55.57
N17925 X244.237 Y1411.716 Z-55.577
N17930 G2 Y1410.87 Z-55.061 J0. K0.952
N17935 G1 Y1409.496 Z-52.402
N17940 Y1408.642 Z-51.284
N17945 Y1407.362 Z-50.217
N17950 Y1401.248 Z-46.229
N17955 Y1398.695 Z-44.837
N17960 Y1395.21 Z-43.422
N17965 Y1386.793 Z-40.239
N17970 Y1381.849 Z-38.5
N17975 Y1376.813 Z-37.073
N17980 Y1363.724 Z-33.785
N17985 Y1354.249 Z-31.494
N17990 Y1347.638 Z-30.169
N17995 Y1335.827 Z-28.064
N18000 Y1321.042 Z-25.549
N18005 Y1309.195 Z-23.658
N18010 Y1301.763 Z-22.672
N18015 Y1286.873 Z-20.871
N18020 Y1271.972 Z-19.169
N18025 Y1260.787 Z-17.982
N18030 Y1248.076 Z-16.962
N18035 Y1229.37 Z-15.741
N18040 Y1202.694 Z-14.389
N18045 Y1174.453 Z-13.173
N18050 Y1153.823 Z-12.398
N18055 Y1116.326 Z-11.287
N18060 Y1077.298 Z-10.432
N18065 Y1035.21 Z-9.823
N18070 Y990.825 Z-9.524
N18075 Y948.205 Z-9.532
N18080 Y919.891 Z-9.753
N18085 Y871.681 Z-10.529
N18090 Y771.434 Z-12.712
N18095 Y671.952 Z-15.21
N18100 Y579.357 Z-17.851
N18105 Y492.885 Z-20.631
N18110 Y412.541 Z-23.536
N18115 Y356.851 Z-25.758
N18120 Y317.457 Z-27.46
N18125 Y304.434 Z-28.276
N18130 Y293.03 Z-29.295
N18135 Y282.997 Z-30.489
N18140 Y275.006 Z-31.708
N18145 Y268.222 Z-32.914
N18150 Y262.955 Z-34.07
N18155 Y257.919 Z-35.269
N18160 Y253.384 Z-36.606
N18165 Y249.603 Z-38.077
N18170 Y246.272 Z-39.452
N18175 Y244.367 Z-40.421
N18180 Y242.684 Z-41.639
N18185 Y239.043 Z-44.68
N18190 Y238.311 Z-45.591
N18195 Y238.067 Z-46.186
N18200 Y237.41 Z-48.123
N18205 X243.87 Y235.409 Z-48.183
N18210 X243.686 Y234.408 Z-48.213
N18215 X243.127 Y231.407 Z-48.303
N18220 X242.754 Y229.406 Z-48.363
N18225 X242.566 Y228.406 Z-48.393
N18230 X242.188 Y226.407 Z-48.453
N18235 X241.999 Y225.407 Z-48.484
