%
(1001)
(T5  D=19.05 CR=9.525 - ZMIN=-108. - BALL END MILL)
N10 G90 G94 G17 G91.1
N15 G21
N20 G53 G0 Z0.
(DRILL4)
N25 M9
N30 T5 M6
N35 S24000 M3
N40 G54
N45 G0 X0. Y1750.
N50 G43 Z10. H5
N55 G0 Z7.
N60 G98 G81 X0. Y1750. Z-108. R5. F333.33
N65 Y0.
N70 G80
N75 G0 Z10.
(2D CONTOUR1)
N80 G0 X-56.609 Y-33.893
N85 G1 Z10. F333.33
N90 Z-23.095
N95 X-56.605 Y-33.887 Z-23.261
N100 X-56.594 Y-33.869 Z-23.426
N105 X-56.574 Y-33.839 Z-23.588
N110 X-56.547 Y-33.796 Z-23.747
N115 X-56.513 Y-33.743 Z-23.9
N120 X-56.472 Y-33.678 Z-24.048
N125 X-56.423 Y-33.603 Z-24.188
N130 X-56.369 Y-33.518 Z-24.32
N135 X-56.308 Y-33.423 Z-24.442
N140 X-56.242 Y-33.32 Z-24.554
N145 X-56.171 Y-33.209 Z-24.655
N150 X-56.096 Y-33.091 Z-24.745
N155 X-56.016 Y-32.967 Z-24.822
N160 X-55.934 Y-32.837 Z-24.885
N165 X-55.848 Y-32.704 Z-24.935
N170 X-55.761 Y-32.567 Z-24.971
N175 X-55.672 Y-32.428 Z-24.993
N180 X-55.582 Y-32.289 Z-25.
N185 X-54.556 Y-30.684 F1000.
N190 G3 X-55.134 Y-28.053 I-1.605 J1.027
N195 G2 X-59.525 Y-20.029 I5.134 J8.023 F5000.
N200 G1 Y30.475
N205 X-156.72
N210 G2 X-161.567 Y31.8 I0. J9.525
N215 G1 X-221.741 Y67.367
N220 G2 X-226.201 Y73.541 I4.847 J8.2
N225 G1 X-275.38 Y299.514
N230 G2 X-275.548 Y300.565 I9.307 J2.026
N235 G1 X-309.475 Y630.248
N240 G2 X-309.525 Y631.223 I9.475 J0.975
N245 G1 Y1016.63
N250 G2 X-309.517 Y1017.018 I9.525 J0.
N255 G1 X-303.329 Y1168.758
N260 G2 X-303.274 Y1169.466 I9.517 J-0.388
N265 G1 X-282.969 Y1344.696
N270 G2 X-282.784 Y1345.759 I9.462 J-1.096
N275 G1 X-254.572 Y1466.999
N280 G2 X-254.007 Y1468.69 I9.277 J-2.159
N285 G1 X-209.483 Y1569.45
N290 G2 X-207.753 Y1572.079 I8.712 J-3.85
N295 G1 X-116.015 Y1670.939
N300 G2 X-112.454 Y1673.349 I6.982 J-6.479
N305 G1 X-59.525 Y1693.72
N310 Y1780.
N315 G2 X-50. Y1789.525 I9.525 J0.
N320 G1 X50.
N325 G2 X59.525 Y1780. I0. J-9.525
N330 G1 Y1693.72
N335 X112.454 Y1673.349
N340 G2 X116.015 Y1670.939 I-3.421 J-8.889
N345 G1 X207.753 Y1572.079
N350 G2 X209.483 Y1569.45 I-6.982 J-6.479
N355 G1 X254.007 Y1468.69
N360 G2 X254.572 Y1466.999 I-8.712 J-3.85
N365 G1 X282.784 Y1345.759
N370 G2 X282.969 Y1344.696 I-9.277 J-2.159
N375 G1 X303.274 Y1169.466
N380 G2 X303.329 Y1168.758 I-9.462 J-1.096
N385 G1 X309.517 Y1017.018
N390 G2 X309.525 Y1016.63 I-9.517 J-0.388
N395 G1 Y631.223
N400 G2 X309.475 Y630.248 I-9.525 J0.
N405 G1 X275.548 Y300.565
N410 G2 X275.38 Y299.514 I-9.475 J0.975
N415 G1 X226.201 Y73.541
N420 G2 X221.741 Y67.367 I-9.307 J2.026
N425 G1 X161.567 Y31.8
N430 G2 X156.72 Y30.475 I-4.847 J8.2
N435 G1 X59.525
N440 Y-20.029
N445 G2 X50. Y-29.554 I-9.525 J0.
N450 G1 X-50.
N455 G2 X-55.134 Y-28.053 I0. J9.525
N460 G3 X-57.765 Y-28.63 I-1.027 J-1.605 F1000.
N465 G1 X-58.792 Y-30.235
N470 X-58.881 Y-30.375 Z-24.993
N475 X-58.97 Y-30.514 Z-24.971
N480 X-59.057 Y-30.65 Z-24.935
N485 X-59.143 Y-30.784 Z-24.885
N490 X-59.226 Y-30.913 Z-24.822
N495 X-59.305 Y-31.037 Z-24.745
N500 X-59.381 Y-31.156 Z-24.655
N505 X-59.452 Y-31.267 Z-24.554
N510 X-59.518 Y-31.37 Z-24.442
N515 X-59.578 Y-31.464 Z-24.32
N520 X-59.633 Y-31.55 Z-24.188
N525 X-59.681 Y-31.625 Z-24.048
N530 X-59.722 Y-31.689 Z-23.9
N535 X-59.757 Y-31.743 Z-23.747
N540 X-59.783 Y-31.785 Z-23.588
N545 X-59.803 Y-31.815 Z-23.426
N550 X-59.815 Y-31.834 Z-23.261
N555 X-59.818 Y-31.84 Z-23.095
N560 G0 Z5.
N565 X-56.609 Y-33.893
N570 G1 Z-7.591 F333.33
N575 Z-48.095
N580 X-56.605 Y-33.887 Z-48.261
N585 X-56.594 Y-33.869 Z-48.426
N590 X-56.574 Y-33.839 Z-48.588
N595 X-56.547 Y-33.796 Z-48.747
N600 X-56.513 Y-33.743 Z-48.9
N605 X-56.472 Y-33.678 Z-49.048
N610 X-56.423 Y-33.603 Z-49.188
N615 X-56.369 Y-33.518 Z-49.32
N620 X-56.308 Y-33.423 Z-49.442
N625 X-56.242 Y-33.32 Z-49.554
N630 X-56.171 Y-33.209 Z-49.655
N635 X-56.096 Y-33.091 Z-49.745
N640 X-56.016 Y-32.967 Z-49.822
N645 X-55.934 Y-32.837 Z-49.885
N650 X-55.848 Y-32.704 Z-49.935
N655 X-55.761 Y-32.567 Z-49.971
N660 X-55.672 Y-32.428 Z-49.993
N665 X-55.582 Y-32.289 Z-50.
N670 X-54.556 Y-30.684 F1000.
N675 G3 X-55.134 Y-28.053 I-1.605 J1.027
N680 G2 X-59.525 Y-20.029 I5.134 J8.023 F5000.
N685 G1 Y30.475
N690 X-156.72
N695 G2 X-161.567 Y31.8 I0. J9.525
N700 G1 X-221.741 Y67.367
N705 G2 X-226.201 Y73.541 I4.847 J8.2
N710 G1 X-275.38 Y299.514
N715 G2 X-275.548 Y300.565 I9.307 J2.026
N720 G1 X-309.475 Y630.248
N725 G2 X-309.525 Y631.223 I9.475 J0.975
N730 G1 Y1016.63
N735 G2 X-309.517 Y1017.018 I9.525 J0.
N740 G1 X-303.329 Y1168.758
N745 G2 X-303.274 Y1169.466 I9.517 J-0.388
N750 G1 X-282.969 Y1344.696
N755 G2 X-282.784 Y1345.759 I9.462 J-1.096
N760 G1 X-254.572 Y1466.999
N765 G2 X-254.007 Y1468.69 I9.277 J-2.159
N770 G1 X-209.483 Y1569.45
N775 G2 X-207.753 Y1572.079 I8.712 J-3.85
N780 G1 X-116.015 Y1670.939
N785 G2 X-112.454 Y1673.349 I6.982 J-6.479
N790 G1 X-59.525 Y1693.72
N795 Y1780.
N800 G2 X-50. Y1789.525 I9.525 J0.
N805 G1 X50.
N810 G2 X59.525 Y1780. I0. J-9.525
N815 G1 Y1693.72
N820 X112.454 Y1673.349
N825 G2 X116.015 Y1670.939 I-3.421 J-8.889
N830 G1 X207.753 Y1572.079
N835 G2 X209.483 Y1569.45 I-6.982 J-6.479
N840 G1 X254.007 Y1468.69
N845 G2 X254.572 Y1466.999 I-8.712 J-3.85
N850 G1 X282.784 Y1345.759
N855 G2 X282.969 Y1344.696 I-9.277 J-2.159
N860 G1 X303.274 Y1169.466
N865 G2 X303.329 Y1168.758 I-9.462 J-1.096
N870 G1 X309.517 Y1017.018
N875 G2 X309.525 Y1016.63 I-9.517 J-0.388
N880 G1 Y631.223
N885 G2 X309.475 Y630.248 I-9.525 J0.
N890 G1 X275.548 Y300.565
N895 G2 X275.38 Y299.514 I-9.475 J0.975
N900 G1 X226.201 Y73.541
N905 G2 X221.741 Y67.367 I-9.307 J2.026
N910 G1 X161.567 Y31.8
N915 G2 X156.72 Y30.475 I-4.847 J8.2
N920 G1 X59.525
N925 Y-20.029
N930 G2 X50. Y-29.554 I-9.525 J0.
N935 G1 X-50.
N940 G2 X-55.134 Y-28.053 I0. J9.525
N945 G3 X-57.765 Y-28.63 I-1.027 J-1.605 F1000.
N950 G1 X-58.792 Y-30.235
N955 X-58.881 Y-30.375 Z-49.993
N960 X-58.97 Y-30.514 Z-49.971
N965 X-59.057 Y-30.65 Z-49.935
N970 X-59.143 Y-30.784 Z-49.885
N975 X-59.226 Y-30.913 Z-49.822
N980 X-59.305 Y-31.037 Z-49.745
N985 X-59.381 Y-31.156 Z-49.655
N990 X-59.452 Y-31.267 Z-49.554
N995 X-59.518 Y-31.37 Z-49.442
N1000 X-59.578 Y-31.464 Z-49.32
N1005 X-59.633 Y-31.55 Z-49.188
N1010 X-59.681 Y-31.625 Z-49.048
N1015 X-59.722 Y-31.689 Z-48.9
N1020 X-59.757 Y-31.743 Z-48.747
N1025 X-59.783 Y-31.785 Z-48.588
N1030 X-59.803 Y-31.815 Z-48.426
N1035 X-59.815 Y-31.834 Z-48.261
N1040 X-59.818 Y-31.84 Z-48.095
N1045 G0 Z5.
N1050 X-56.609 Y-33.893
N1055 G1 Z-32.591 F333.33
N1060 Z-73.095
N1065 X-56.605 Y-33.887 Z-73.261
N1070 X-56.594 Y-33.869 Z-73.426
N1075 X-56.574 Y-33.839 Z-73.588
N1080 X-56.547 Y-33.796 Z-73.747
N1085 X-56.513 Y-33.743 Z-73.9
N1090 X-56.472 Y-33.678 Z-74.048
N1095 X-56.423 Y-33.603 Z-74.188
N1100 X-56.369 Y-33.518 Z-74.32
N1105 X-56.308 Y-33.423 Z-74.442
N1110 X-56.242 Y-33.32 Z-74.554
N1115 X-56.171 Y-33.209 Z-74.655
N1120 X-56.096 Y-33.091 Z-74.745
N1125 X-56.016 Y-32.967 Z-74.822
N1130 X-55.934 Y-32.837 Z-74.885
N1135 X-55.848 Y-32.704 Z-74.935
N1140 X-55.761 Y-32.567 Z-74.971
N1145 X-55.672 Y-32.428 Z-74.993
N1150 X-55.582 Y-32.289 Z-75.
N1155 X-54.556 Y-30.684 F1000.
N1160 G3 X-55.134 Y-28.053 I-1.605 J1.027
N1165 G2 X-59.525 Y-20.029 I5.134 J8.023 F5000.
N1170 G1 Y30.475
N1175 X-156.72
N1180 G2 X-161.567 Y31.8 I0. J9.525
N1185 G1 X-221.741 Y67.367
N1190 G2 X-226.201 Y73.541 I4.847 J8.2
N1195 G1 X-275.38 Y299.514
N1200 G2 X-275.548 Y300.565 I9.307 J2.026
N1205 G1 X-309.475 Y630.248
N1210 G2 X-309.525 Y631.223 I9.475 J0.975
N1215 G1 Y1016.63
N1220 G2 X-309.517 Y1017.018 I9.525 J0.
N1225 G1 X-303.329 Y1168.758
N1230 G2 X-303.274 Y1169.466 I9.517 J-0.388
N1235 G1 X-282.969 Y1344.696
N1240 G2 X-282.784 Y1345.759 I9.462 J-1.096
N1245 G1 X-254.572 Y1466.999
N1250 G2 X-254.007 Y1468.69 I9.277 J-2.159
N1255 G1 X-209.483 Y1569.45
N1260 G2 X-207.753 Y1572.079 I8.712 J-3.85
N1265 G1 X-116.015 Y1670.939
N1270 G2 X-112.454 Y1673.349 I6.982 J-6.479
N1275 G1 X-59.525 Y1693.72
N1280 Y1780.
N1285 G2 X-50. Y1789.525 I9.525 J0.
N1290 G1 X50.
N1295 G2 X59.525 Y1780. I0. J-9.525
N1300 G1 Y1693.72
N1305 X112.454 Y1673.349
N1310 G2 X116.015 Y1670.939 I-3.421 J-8.889
N1315 G1 X207.753 Y1572.079
N1320 G2 X209.483 Y1569.45 I-6.982 J-6.479
N1325 G1 X254.007 Y1468.69
N1330 G2 X254.572 Y1466.999 I-8.712 J-3.85
N1335 G1 X282.784 Y1345.759
N1340 G2 X282.969 Y1344.696 I-9.277 J-2.159
N1345 G1 X303.274 Y1169.466
N1350 G2 X303.329 Y1168.758 I-9.462 J-1.096
N1355 G1 X309.517 Y1017.018
N1360 G2 X309.525 Y1016.63 I-9.517 J-0.388
N1365 G1 Y631.223
N1370 G2 X309.475 Y630.248 I-9.525 J0.
N1375 G1 X275.548 Y300.565
N1380 G2 X275.38 Y299.514 I-9.475 J0.975
N1385 G1 X226.201 Y73.541
N1390 G2 X221.741 Y67.367 I-9.307 J2.026
N1395 G1 X161.567 Y31.8
N1400 G2 X156.72 Y30.475 I-4.847 J8.2
N1405 G1 X59.525
N1410 Y-20.029
N1415 G2 X50. Y-29.554 I-9.525 J0.
N1420 G1 X-50.
N1425 G2 X-55.134 Y-28.053 I0. J9.525
N1430 G3 X-57.765 Y-28.63 I-1.027 J-1.605 F1000.
N1435 G1 X-58.792 Y-30.235
N1440 X-58.881 Y-30.375 Z-74.993
N1445 X-58.97 Y-30.514 Z-74.971
N1450 X-59.057 Y-30.65 Z-74.935
N1455 X-59.143 Y-30.784 Z-74.885
N1460 X-59.226 Y-30.913 Z-74.822
N1465 X-59.305 Y-31.037 Z-74.745
N1470 X-59.381 Y-31.156 Z-74.655
N1475 X-59.452 Y-31.267 Z-74.554
N1480 X-59.518 Y-31.37 Z-74.442
N1485 X-59.578 Y-31.464 Z-74.32
N1490 X-59.633 Y-31.55 Z-74.188
N1495 X-59.681 Y-31.625 Z-74.048
N1500 X-59.722 Y-31.689 Z-73.9
N1505 X-59.757 Y-31.743 Z-73.747
N1510 X-59.783 Y-31.785 Z-73.588
N1515 X-59.803 Y-31.815 Z-73.426
N1520 X-59.815 Y-31.834 Z-73.261
N1525 X-59.818 Y-31.84 Z-73.095
N1530 G0 Z5.
N1535 X-56.609 Y-33.893
N1540 G1 Z-57.591 F333.33
N1545 Z-98.095
N1550 X-56.605 Y-33.887 Z-98.261
N1555 X-56.594 Y-33.869 Z-98.426
N1560 X-56.574 Y-33.839 Z-98.588
N1565 X-56.547 Y-33.796 Z-98.747
N1570 X-56.513 Y-33.743 Z-98.9
N1575 X-56.472 Y-33.678 Z-99.048
N1580 X-56.423 Y-33.603 Z-99.188
N1585 X-56.369 Y-33.518 Z-99.32
N1590 X-56.308 Y-33.423 Z-99.442
N1595 X-56.242 Y-33.32 Z-99.554
N1600 X-56.171 Y-33.209 Z-99.655
N1605 X-56.096 Y-33.091 Z-99.745
N1610 X-56.016 Y-32.967 Z-99.822
N1615 X-55.934 Y-32.837 Z-99.885
N1620 X-55.848 Y-32.704 Z-99.935
N1625 X-55.761 Y-32.567 Z-99.971
N1630 X-55.672 Y-32.428 Z-99.993
N1635 X-55.582 Y-32.289 Z-100.
N1640 X-54.556 Y-30.684 F1000.
N1645 G3 X-55.134 Y-28.053 I-1.605 J1.027
N1650 G2 X-59.525 Y-20.029 I5.134 J8.023 F5000.
N1655 G1 Y30.475
N1660 X-156.72
N1665 G2 X-158.582 Y30.659 I0. J9.525
N1670 G1 Z-90.
N1675 G2 X-161.567 Y31.8 I1.862 J9.341
N1680 G1 X-218.298 Y65.332
N1685 Z-100. F333.33
N1690 X-221.741 Y67.367 F5000.
N1695 G2 X-226.201 Y73.541 I4.847 J8.2
N1700 G1 X-243.326 Y152.227
N1705 Z-90.
N1710 X-258.01 Y219.698
N1715 Z-100. F333.33
N1720 X-275.38 Y299.514 F5000.
N1725 G2 X-275.548 Y300.565 I9.307 J2.026
N1730 G1 X-309.475 Y630.248
N1735 G2 X-309.525 Y631.223 I9.475 J0.975
N1740 G1 Y1016.63
N1745 G2 X-309.517 Y1017.018 I9.525 J0.
N1750 G1 X-303.329 Y1168.758
N1755 G2 X-303.274 Y1169.466 I9.517 J-0.388
N1760 G1 X-282.969 Y1344.696
N1765 G2 X-282.784 Y1345.759 I9.462 J-1.096
N1770 G1 X-276. Y1374.912
N1775 Z-90.
N1780 X-260.351 Y1442.166
N1785 Z-100. F333.33
N1790 X-254.572 Y1466.999 F5000.
N1795 G2 X-254.007 Y1468.69 I9.277 J-2.159
N1800 G1 X-240.945 Y1498.25
N1805 Z-90.
N1810 X-213.037 Y1561.409
N1815 Z-100. F333.33
N1820 X-209.483 Y1569.45 F5000.
N1825 G2 X-207.753 Y1572.079 I8.712 J-3.85
N1830 G1 X-197.69 Y1582.923
N1835 Z-90.
N1840 X-150.722 Y1633.538
N1845 Z-100. F333.33
N1850 X-116.015 Y1670.939 F5000.
N1855 G2 X-112.454 Y1673.349 I6.982 J-6.479
N1860 G1 X-59.525 Y1693.72
N1865 Y1780.
N1870 G2 X-50. Y1789.525 I9.525 J0.
N1875 G1 X50.
N1880 G2 X59.525 Y1780. I0. J-9.525
N1885 G1 Y1693.72
N1890 X112.454 Y1673.349
N1895 G2 X116.015 Y1670.939 I-3.421 J-8.889
N1900 G1 X141.733 Y1643.225
N1905 Z-90.
N1910 X188.701 Y1592.61
N1915 Z-100. F333.33
N1920 X207.753 Y1572.079 F5000.
N1925 G2 X209.483 Y1569.45 I-6.982 J-6.479
N1930 G1 X219.081 Y1547.729
N1935 Z-90.
N1940 X246.99 Y1484.571
N1945 Z-100. F333.33
N1950 X254.007 Y1468.69 F5000.
N1955 G2 X254.572 Y1466.999 I-8.712 J-3.85
N1960 G1 X260.691 Y1440.705
N1965 Z-90.
N1970 X276.34 Y1373.452
N1975 Z-100. F333.33
N1980 X282.784 Y1345.759 F5000.
N1985 G2 X282.969 Y1344.696 I-9.277 J-2.159
N1990 G1 X303.274 Y1169.466
N1995 G2 X303.329 Y1168.758 I-9.462 J-1.096
N2000 G1 X309.517 Y1017.018
N2005 G2 X309.525 Y1016.63 I-9.517 J-0.388
N2010 G1 Y631.223
N2015 G2 X309.475 Y630.248 I-9.525 J0.
N2020 G1 X275.548 Y300.565
N2025 G2 X275.38 Y299.514 I-9.475 J0.975
N2030 G1 X259.565 Y226.843
N2035 Z-90.
N2040 X244.881 Y159.372
N2045 Z-100. F333.33
N2050 X226.201 Y73.541 F5000.
N2055 G2 X221.741 Y67.367 I-9.307 J2.026
N2060 G1 X219.516 Y66.052
N2065 Z-90.
N2070 X161.567 Y31.8
N2075 G2 X159.992 Y31.055 I-4.847 J8.2
N2080 G1 Z-100. F333.33
N2085 G2 X156.72 Y30.475 I-3.272 J8.945 F5000.
N2090 G1 X59.525
N2095 Y-20.029
N2100 G2 X50. Y-29.554 I-9.525 J0.
N2105 G1 X-50.
N2110 G2 X-55.134 Y-28.053 I0. J9.525
N2115 G3 X-57.765 Y-28.63 I-1.027 J-1.605 F1000.
N2120 G1 X-58.792 Y-30.235
N2125 X-58.881 Y-30.375 Z-99.993
N2130 X-58.97 Y-30.514 Z-99.971
N2135 X-59.057 Y-30.65 Z-99.935
N2140 X-59.143 Y-30.784 Z-99.885
N2145 X-59.226 Y-30.913 Z-99.822
N2150 X-59.305 Y-31.037 Z-99.745
N2155 X-59.381 Y-31.156 Z-99.655
N2160 X-59.452 Y-31.267 Z-99.554
N2165 X-59.518 Y-31.37 Z-99.442
N2170 X-59.578 Y-31.464 Z-99.32
N2175 X-59.633 Y-31.55 Z-99.188
N2180 X-59.681 Y-31.625 Z-99.048
N2185 X-59.722 Y-31.689 Z-98.9
N2190 X-59.757 Y-31.743 Z-98.747
N2195 X-59.783 Y-31.785 Z-98.588
N2200 X-59.803 Y-31.815 Z-98.426
N2205 X-59.815 Y-31.834 Z-98.261
N2210 X-59.818 Y-31.84 Z-98.095
N2215 G0 Z10.
N2220 G53 Z0.
N2225 M30
%
