%
(BALL_END2)
(T5  D=21.5 CR=10.75 - ZMIN=-100. - BALL END MILL)
N10 G90 G94 G17 G91.1
N15 G21
N20 G53 G0 Z0.
(2D CONTOUR1)
N25 T5 M6
N30 S18000 M3
N35 G54
N40 G0 X569.35 Y327.15
N45 G43 Z25. H1
N50 G0 Z21.
N55 G1 Z-17.85 F333.33
N60 G18 G3 X567.2 Z-20. I-2.15 K0. F1000.
N65 G1 X565.05
N70 G17 G3 X562.9 Y325. I0. J-2.15
N75 G1 Y100. F6000.
N80 G2 X550. Y87.1 I-12.9 J0.
N85 G1 X100.
N90 G2 X87.1 Y100. I0. J12.9
N95 G1 Y550.
N100 G2 X100. Y562.9 I12.9 J0.
N105 G1 X550.
N110 G2 X562.9 Y550. I0. J-12.9
N115 G1 Y325.
N120 G2 X561.825 Y323.388 I-1.747 J0.
N125 G3 X560.75 Y321.775 I0.672 J-1.613
N130 G1 Y100.
N135 G2 X550. Y89.25 I-10.75 J0.
N140 G1 X100.
N145 G2 X89.25 Y100. I0. J10.75
N150 G1 Y550.
N155 G2 X100. Y560.75 I10.75 J0.
N160 G1 X550.
N165 G2 X560.75 Y550. I0. J-10.75
N170 G1 Y321.775
N175 G3 X562.9 Y319.625 I2.15 J0. F1000.
N180 G1 X565.05
N185 G18 G2 X567.2 Z-17.85 I0. K2.15
N190 G0 Z10.
N195 X569.35 Y327.15
N200 Z9.362
N205 G1 Z-37.85 F333.33
N210 G3 X567.2 Z-40. I-2.15 K0. F1000.
N215 G1 X565.05
N220 G17 G3 X562.9 Y325. I0. J-2.15
N225 G1 Y100. F6000.
N230 G2 X550. Y87.1 I-12.9 J0.
N235 G1 X100.
N240 G2 X87.1 Y100. I0. J12.9
N245 G1 Y550.
N250 G2 X100. Y562.9 I12.9 J0.
N255 G1 X550.
N260 G2 X562.9 Y550. I0. J-12.9
N265 G1 Y325.
N270 G2 X561.825 Y323.388 I-1.747 J0.
N275 G3 X560.75 Y321.775 I0.672 J-1.613
N280 G1 Y100.
N285 G2 X550. Y89.25 I-10.75 J0.
N290 G1 X100.
N295 G2 X89.25 Y100. I0. J10.75
N300 G1 Y550.
N305 G2 X100. Y560.75 I10.75 J0.
N310 G1 X550.
N315 G2 X560.75 Y550. I0. J-10.75
N320 G1 Y321.775
N325 G3 X562.9 Y319.625 I2.15 J0. F1000.
N330 G1 X565.05
N335 G18 G2 X567.2 Z-37.85 I0. K2.15
N340 G0 Z10.
N345 X569.35 Y327.15
N350 Z5.
N355 G1 Z-10.638 F333.33
N360 Z-57.85
N365 G3 X567.2 Z-60. I-2.15 K0. F1000.
N370 G1 X565.05
N375 G17 G3 X562.9 Y325. I0. J-2.15
N380 G1 Y100. F6000.
N385 G2 X550. Y87.1 I-12.9 J0.
N390 G1 X100.
N395 G2 X87.1 Y100. I0. J12.9
N400 G1 Y550.
N405 G2 X100. Y562.9 I12.9 J0.
N410 G1 X550.
N415 G2 X562.9 Y550. I0. J-12.9
N420 G1 Y325.
N425 G2 X561.825 Y323.388 I-1.747 J0.
N430 G3 X560.75 Y321.775 I0.672 J-1.613
N435 G1 Y100.
N440 G2 X550. Y89.25 I-10.75 J0.
N445 G1 X100.
N450 G2 X89.25 Y100. I0. J10.75
N455 G1 Y550.
N460 G2 X100. Y560.75 I10.75 J0.
N465 G1 X550.
N470 G2 X560.75 Y550. I0. J-10.75
N475 G1 Y321.775
N480 G3 X562.9 Y319.625 I2.15 J0. F1000.
N485 G1 X565.05
N490 G18 G2 X567.2 Z-57.85 I0. K2.15
N495 G0 Z10.
N500 X569.35 Y327.15
N505 Z5.
N510 G1 Z-30.638 F333.33
N515 Z-77.85
N520 G3 X567.2 Z-80. I-2.15 K0. F1000.
N525 G1 X565.05
N530 G17 G3 X562.9 Y325. I0. J-2.15
N535 G1 Y100. F6000.
N540 G2 X550. Y87.1 I-12.9 J0.
N545 G1 X100.
N550 G2 X87.1 Y100. I0. J12.9
N555 G1 Y550.
N560 G2 X100. Y562.9 I12.9 J0.
N565 G1 X550.
N570 G2 X562.9 Y550. I0. J-12.9
N575 G1 Y325.
N580 G2 X561.825 Y323.388 I-1.747 J0.
N585 G3 X560.75 Y321.775 I0.672 J-1.613
N590 G1 Y100.
N595 G2 X550. Y89.25 I-10.75 J0.
N600 G1 X100.
N605 G2 X89.25 Y100. I0. J10.75
N610 G1 Y550.
N615 G2 X100. Y560.75 I10.75 J0.
N620 G1 X550.
N625 G2 X560.75 Y550. I0. J-10.75
N630 G1 Y321.775
N635 G3 X562.9 Y319.625 I2.15 J0. F1000.
N640 G1 X565.05
N645 G18 G2 X567.2 Z-77.85 I0. K2.15
N650 G0 Z10.
N655 X569.35 Y327.15
N660 Z5.
N665 G1 Z-50.638 F333.33
N670 Z-97.85
N675 G3 X567.2 Z-100. I-2.15 K0. F1000.
N680 G1 X565.05
N685 G17 G3 X562.9 Y325. I0. J-2.15
N690 G1 Y234. F6000.
N695 Z-94.625
N700 Y191.
N705 Z-100. F333.33
N710 Y100. F6000.
N715 G2 X550. Y87.1 I-12.9 J0.
N720 G1 X459.
N725 Z-94.625
N730 X416.
N735 Z-100. F333.33
N740 X234. F6000.
N745 Z-94.625
N750 X191.
N755 Z-100. F333.33
N760 X100. F6000.
N765 G2 X87.1 Y100. I0. J12.9
N770 G1 Y191.
N775 Z-94.625
N780 Y234.
N785 Z-100. F333.33
N790 Y416. F6000.
N795 Z-94.625
N800 Y459.
N805 Z-100. F333.33
N810 Y550. F6000.
N815 G2 X100. Y562.9 I12.9 J0.
N820 G1 X191.
N825 Z-94.625
N830 X234.
N835 Z-100. F333.33
N840 X416. F6000.
N845 Z-94.625
N850 X459.
N855 Z-100. F333.33
N860 X550. F6000.
N865 G2 X562.9 Y550. I0. J-12.9
N870 G1 Y459.
N875 Z-94.625
N880 Y416.
N885 Z-100. F333.33
N890 Y325. F6000.
N895 G2 X561.825 Y323.388 I-1.747 J0.
N900 G3 X560.75 Y321.775 I0.672 J-1.613
N905 G1 Y234.
N910 Z-94.625
N915 Y191.
N920 Z-100. F333.33
N925 Y100. F6000.
N930 G2 X550. Y89.25 I-10.75 J0.
N935 G1 X459.
N940 Z-94.625
N945 X416.
N950 Z-100. F333.33
N955 X234. F6000.
N960 Z-94.625
N965 X191.
N970 Z-100. F333.33
N975 X100. F6000.
N980 G2 X89.25 Y100. I0. J10.75
N985 G1 Y191.
N990 Z-94.625
N995 Y234.
N1000 Z-100. F333.33
N1005 Y416. F6000.
N1010 Z-94.625
N1015 Y459.
N1020 Z-100. F333.33
N1025 Y550. F6000.
N1030 G2 X100. Y560.75 I10.75 J0.
N1035 G1 X191.
N1040 Z-94.625
N1045 X234.
N1050 Z-100. F333.33
N1055 X416. F6000.
N1060 Z-94.625
N1065 X459.
N1070 Z-100. F333.33
N1075 X550. F6000.
N1080 G2 X560.75 Y550. I0. J-10.75
N1085 G1 Y459.
N1090 Z-94.625
N1095 Y416.
N1100 Z-100. F333.33
N1105 Y321.775 F6000.
N1110 G3 X562.9 Y319.625 I2.15 J0. F1000.
N1115 G1 X565.05
N1120 G18 G2 X567.2 Z-97.85 I0. K2.15
N1125 G0 Z25.
N1130 G17
N1135 G53 G0 Z0.
N1140 M30
%
