%
(1001)
(MACHINE)
(  MODEL LASER SNAKE V2)
(  DESCRIPTION 3-AXIS ROUTER)
(T3  D=3.175 CR=0. TAPER=30DEG - ZMIN=-0.75 - CHAMFER MILL)
N10 G90 G94 G17 G91.1
N15 G21
(WHEN USING FUSION 360 FOR PERSONAL USE, THE FEEDRATE OF)
(RAPID MOVES IS REDUCED TO MATCH THE FEEDRATE OF CUTTING)
(MOVES, WHICH CAN INCREASE MACHINING TIME. UNRESTRICTED RAPID)
(MOVES ARE AVAILABLE WITH A FUSION 360 SUBSCRIPTION.)
N20 G53 G0 Z0.
(0.75 3)
N25 T3 M6
N30 S18000 M3
N35 G54
N40 G0 X65.25 Y-51.91
N45 G43 Z15. H3
N50 G1 Z5. F500.
N55 Z-0.75 F100.
N60 X71.25 Y-51.967 F500.
N65 X65.228 Y-54.195
N70 X71.206 Y-56.538
N75 X65.207 Y-56.481
N80 Z5.
N85 X65.178 Y-59.452
N90 Z-0.75 F100.
N95 X71.156 Y-61.795 F500.
N100 X65.134 Y-64.023
N105 Z5.
N110 X67.143 Y-63.185
N115 Z-0.75 F100.
N120 X67.17 Y-60.328 F500.
N125 Z5.
N130 X71.074 Y-70.423
N135 Z-0.75 F100.
N140 X65.074 Y-70.366 F500.
N145 X71.112 Y-66.423
N150 X65.112 Y-66.366
N155 Z5.
N160 X74.454 Y-106.808
N165 Z-0.75 F100.
N170 X80.454 Y-106.775 F500.
N175 X74.467 Y-109.094
N180 X80.479 Y-111.347
N185 X74.479 Y-111.38
N190 Z5.
N195 X77.651 Y-116.619
N200 Z-0.75 F100.
N205 X77.638 Y-114.334 F500.
N210 Z5.
N215 X74.516 Y-118.065
N220 Z-0.75 F100.
N225 X74.496 Y-114.351 F500.
N230 X80.495 Y-114.318
N235 X80.516 Y-118.032
N240 Z5.
N245 X80.528 Y-120.289
N250 Z-0.75 F100.
N255 X80.539 Y-122.289 F500.
N260 X80.258 Y-123.148
N265 X79.69 Y-123.723
N270 X79.12 Y-124.011
N275 X78.265 Y-124.302
N280 X76.836 Y-124.31
N285 X75.978 Y-124.029
N290 X75.405 Y-123.746
N295 X74.83 Y-123.178
N300 X74.539 Y-122.322
N305 X74.529 Y-120.322
N310 X80.528 Y-120.289
N315 Z5.
N320 Z15.
N325 G53 G0 Z0.
N330 G53 G0 X0. Y0.
N335 M30
%
