%
(ENGRAVE_FINAL_V1)
(MACHINE)
(  MODEL LASER SNAKE V2)
(  DESCRIPTION 3-AXIS ROUTER)
(T3  D=3.175 CR=0. TAPER=45DEG - ZMIN=-0.75 - CHAMFER MILL)
N10 G90 G94 G17 G91.1
N15 G21
(WHEN USING FUSION 360 FOR PERSONAL USE, THE FEEDRATE OF)
(RAPID MOVES IS REDUCED TO MATCH THE FEEDRATE OF CUTTING)
(MOVES, WHICH CAN INCREASE MACHINING TIME. UNRESTRICTED RAPID)
(MOVES ARE AVAILABLE WITH A FUSION 360 SUBSCRIPTION.)
N20 G53 G0 Z0.
(0.75 2)
N25 T3 M6
N30 S18000 M3
N35 G54
N40 G0 X65.079 Y-9.225
N45 G43 Z15. H3
N50 G1 Z5. F750.
N55 Z-0.75 F200.
N60 X71.077 Y-11.515 F750.
N65 X65.075 Y-13.796
N70 Z5.
N75 X67.076 Y-12.941
N80 Z-0.75 F200.
N85 X67.078 Y-10.083 F750.
N90 Z5.
N95 X71.071 Y-20.144
N100 Z-0.75 F200.
N105 X66.785 Y-20.14 F750.
N110 X65.928 Y-19.854
N115 X65.357 Y-19.282
N120 X65.072 Y-18.425
N125 Y-17.853
N130 X65.359 Y-16.997
N135 X65.93 Y-16.426
N140 X66.788 Y-16.14
N145 X71.074 Y-16.144
N150 Z5.
N155 X65.067 Y-25.053
N160 Z-0.75 F200.
N165 X71.067 Y-25.058 F750.
N170 Z5.
N175 X71.065 Y-27.058
N180 Z-0.75 F200.
N185 X71.068 Y-23.058 F750.
N190 Z5.
N195 X68.779 Y-28.713
N200 Z-0.75 F200.
N205 X69.635 Y-29. F750.
N210 X70.207 Y-29.286
N215 X70.778 Y-29.858
N220 X71.063 Y-30.429
N225 X71.062 Y-31.572
N230 X70.776 Y-32.143
N235 X70.204 Y-32.714
N240 X69.632 Y-33.
N245 X68.775 Y-33.285
N250 X67.346 Y-33.284
N255 X66.49 Y-32.997
N260 X65.918 Y-32.711
N265 X65.347 Y-32.139
N270 X65.062 Y-31.568
N275 X65.063 Y-30.425
N280 X65.349 Y-29.854
N285 X65.921 Y-29.283
N290 X66.493 Y-28.997
N295 X67.35 Y-28.712
N300 X68.779 Y-28.713
N305 Z5.
N310 X60.203 Y-27.297
N315 Z-0.75 F200.
N320 X57.374 Y-30.126 F750.
N325 Z5.
N330 X47.5 Y-42.5
N335 Z-0.75 F200.
N340 X42.5 F750.
N345 Z5.
N350 X45. Y-40.
N355 Z-0.75 F200.
N360 Y-45. F750.
N365 Z5.
N370 X60.096 Y-57.808
N375 Z-0.75 F200.
N380 X57.268 Y-54.98 F750.
N385 Z5.
N390 X65.25 Y-51.91
N395 Z-0.75 F200.
N400 X71.25 Y-51.967 F750.
N405 X65.228 Y-54.195
N410 X71.206 Y-56.538
N415 X65.207 Y-56.481
N420 Z5.
N425 X65.178 Y-59.452
N430 Z-0.75 F200.
N435 X71.156 Y-61.795 F750.
N440 X65.134 Y-64.023
N445 Z5.
N450 X67.143 Y-63.185
N455 Z-0.75 F200.
N460 X67.17 Y-60.328 F750.
N465 Z5.
N470 X71.074 Y-70.423
N475 Z-0.75 F200.
N480 X65.074 Y-70.366 F750.
N485 X71.112 Y-66.423
N490 X65.112 Y-66.366
N495 Z5.
N500 X65.266 Y-91.683
N505 Z-0.75 F200.
N510 X65.246 Y-88.254 F750.
N515 X71.246 Y-88.219
N520 Z5.
N525 X69.85 Y-93.735
N530 Z-0.75 F200.
N535 X70.423 Y-94.017 F750.
N540 X70.997 Y-94.585
N545 X71.286 Y-95.155
N550 X71.293 Y-96.298
N555 X71.011 Y-96.871
N560 X70.443 Y-97.446
N565 X69.873 Y-97.735
N570 X69.017 Y-98.025
N575 X67.589 Y-98.034
N580 X66.73 Y-97.753
N585 X66.157 Y-97.471
N590 X65.582 Y-96.902
N595 X65.293 Y-96.333
N600 X65.287 Y-95.19
N605 X65.569 Y-94.617
N610 X66.137 Y-94.042
N615 X66.707 Y-93.753
N620 X67.562 Y-93.462
N625 X68.991 Y-93.454
N630 X69.85 Y-93.735
N635 Z5.
N640 X71.349 Y-105.912
N645 Z-0.75 F200.
N650 X65.341 Y-104.518 F750.
N655 X71.332 Y-103.055
N660 X65.324 Y-101.661
N665 X71.316 Y-100.198
N670 Z5.
N675 X74.454 Y-106.808
N680 Z-0.75 F200.
N685 X80.454 Y-106.775 F750.
N690 X74.467 Y-109.094
N695 X80.479 Y-111.347
N700 X74.479 Y-111.38
N705 Z5.
N710 X77.651 Y-116.619
N715 Z-0.75 F200.
N720 X77.638 Y-114.334 F750.
N725 Z5.
N730 X74.516 Y-118.065
N735 Z-0.75 F200.
N740 X74.496 Y-114.351 F750.
N745 X80.495 Y-114.318
N750 X80.516 Y-118.032
N755 Z5.
N760 X80.528 Y-120.289
N765 Z-0.75 F200.
N770 X80.539 Y-122.289 F750.
N775 X80.258 Y-123.148
N780 X79.69 Y-123.723
N785 X79.12 Y-124.011
N790 X78.265 Y-124.302
N795 X76.836 Y-124.31
N800 X75.978 Y-124.029
N805 X75.405 Y-123.746
N810 X74.83 Y-123.178
N815 X74.539 Y-122.322
N820 X74.529 Y-120.322
N825 X80.528 Y-120.289
N830 Z5.
N835 X71.232 Y-127.03
N840 Z-0.75 F200.
N845 X65.232 Y-127.065 F750.
N850 Z5.
N855 X65.255 Y-131.065
N860 Z-0.75 F200.
N865 X71.255 Y-131.03 F750.
N870 Z5.
N875 X68.398 Y-131.047
N880 Z-0.75 F200.
N885 X68.375 Y-127.047 F750.
N890 Z5.
N895 X71.272 Y-133.945
N900 Z-0.75 F200.
N905 X65.272 Y-133.979 F750.
N910 Z5.
N915 X60.203 Y-132.703
N920 Z-0.75 F200.
N925 X57.374 Y-129.874 F750.
N930 Z5.
N935 X67.589 Y-139.338
N940 Z-0.75 F200.
N945 X67.597 Y-140.766 F750.
N950 X66.74 Y-140.771
N955 X66.167 Y-140.489
N960 X65.592 Y-139.921
N965 X65.303 Y-139.351
N970 X65.296 Y-138.208
N975 X65.579 Y-137.635
N980 X66.147 Y-137.06
N985 X66.717 Y-136.771
N990 X67.572 Y-136.48
N995 X69.001 Y-136.472
N1000 X69.859 Y-136.753
N1005 X70.433 Y-137.035
N1010 X71.007 Y-137.603
N1015 X71.296 Y-138.173
N1020 X71.303 Y-139.316
N1025 X71.021 Y-139.889
N1030 X70.452 Y-140.464
N1035 X69.883 Y-140.753
N1040 Z5.
N1045 X71.325 Y-143.059
N1050 Z-0.75 F200.
N1055 X65.325 Y-143.094 F750.
N1060 Z5.
N1065 X65.348 Y-147.094
N1070 Z-0.75 F200.
N1075 X71.348 Y-147.059 F750.
N1080 Z5.
N1085 X68.491 Y-147.075
N1090 Z-0.75 F200.
N1095 X68.468 Y-143.075 F750.
N1100 Z5.
N1105 X66.5 Y-117.5
N1110 Z-0.75 F200.
N1115 X62.5 F750.
N1120 Z5.
N1125 X49.188
N1130 Z-0.75 F200.
N1135 X42.5 F750.
N1140 Z5.
N1145 X45. Y-115.
N1150 Z-0.75 F200.
N1155 Y-120. F750.
N1160 Z5.
N1165 X60.203 Y-102.297
N1170 Z-0.75 F200.
N1175 X57.374 Y-105.126 F750.
N1180 Z5.
N1185 X101.75 Y-105.771
N1190 Z-0.75 F200.
N1195 X109.75 F750.
N1200 X101.75 Y-111.105
N1205 X109.75
N1210 Z5.
N1215 X106.702 Y-102.648
N1220 Z-0.75 F200.
N1225 X104.797 F750.
N1230 X103.654 Y-102.267
N1235 X102.893 Y-101.886
N1240 X102.131 Y-101.124
N1245 X101.75 Y-100.362
N1250 Y-98.838
N1255 X102.131 Y-98.076
N1260 X102.893 Y-97.314
N1265 X103.654 Y-96.933
N1270 X104.797 Y-96.552
N1275 X106.702
N1280 X107.845 Y-96.933
N1285 X108.607 Y-97.314
N1290 X109.369 Y-98.076
N1295 X109.75 Y-98.838
N1300 Y-100.362
N1305 X109.369 Y-101.124
N1310 X108.607 Y-101.886
N1315 X107.845 Y-102.267
N1320 X106.702 Y-102.648
N1325 Z5.
N1330 X103.654 Y-93.467
N1335 Z-0.75 F200.
N1340 X102.893 Y-93.086 F750.
N1345 X102.131 Y-92.324
N1350 X101.75 Y-91.562
N1355 Y-90.038
N1360 X102.131 Y-89.276
N1365 X102.893 Y-88.514
N1370 X103.654 Y-88.133
N1375 X104.797 Y-87.752
N1380 X106.702
N1385 X107.845 Y-88.133
N1390 X108.607 Y-88.514
N1395 X109.369 Y-89.276
N1400 X109.75 Y-90.038
N1405 Y-91.562
N1410 X109.369 Y-92.324
N1415 X108.607 Y-93.086
N1420 X107.845 Y-93.467
N1425 Z5.
N1430 X109.75 Y-75.905
N1435 Z-0.75 F200.
N1440 X101.75 F750.
N1445 X109.75 Y-70.571
N1450 X101.75
N1455 Z5.
N1460 X103.654 Y-67.067
N1465 Z-0.75 F200.
N1470 X102.893 Y-66.686 F750.
N1475 X102.131 Y-65.924
N1480 X101.75 Y-65.162
N1485 Y-63.638
N1490 X102.131 Y-62.876
N1495 X102.893 Y-62.114
N1500 X103.654 Y-61.733
N1505 X104.797 Y-61.352
N1510 X106.702
N1515 X107.845 Y-61.733
N1520 X108.607 Y-62.114
N1525 X109.369 Y-62.876
N1530 X109.75 Y-63.638
N1535 Y-65.162
N1540 X109.369 Y-65.924
N1545 X108.607 Y-66.686
N1550 X107.845 Y-67.067
N1555 X106.702 Y-67.448
N1560 X104.797
N1565 X103.654 Y-67.067
N1570 Z5.
N1575 X109.75 Y-58.
N1580 Z-0.75 F200.
N1585 X101.75 F750.
N1590 Z5.
N1595 Y-53.124
N1600 Z-0.75 F200.
N1605 X109.75 F750.
N1610 Z5.
N1615 Y-55.791
N1620 Z-0.75 F200.
N1625 Y-50.457 F750.
N1630 Z5.
N1635 X104.416 Y-46.19
N1640 Z-0.75 F200.
N1645 Y-42.381 F750.
N1650 Z5.
N1655 X101.75 Y-41.238
N1660 Z-0.75 F200.
N1665 X109.75 Y-44.286 F750.
N1670 X101.75 Y-47.333
N1675 Z5.
N1680 Y-36.362
N1685 Z-0.75 F200.
N1690 X109.75 F750.
N1695 Z5.
N1700 Y-39.029
N1705 Z-0.75 F200.
N1710 Y-33.695 F750.
N1715 Z5.
N1720 Y-30.343
N1725 Z-0.75 F200.
N1730 X101.75 F750.
N1735 Z5.
N1740 X104.797 Y-25.352
N1745 Z-0.75 F200.
N1750 Y-27.257 F750.
N1755 X103.654
N1760 X102.893 Y-26.876
N1765 X102.131 Y-26.114
N1770 X101.75 Y-25.352
N1775 Y-23.829
N1780 X102.131 Y-23.067
N1785 X102.893 Y-22.305
N1790 X103.654 Y-21.924
N1795 X104.797 Y-21.543
N1800 X106.702
N1805 X107.845 Y-21.924
N1810 X108.607 Y-22.305
N1815 X109.369 Y-23.067
N1820 X109.75 Y-23.829
N1825 Y-25.352
N1830 X109.369 Y-26.114
N1835 X108.607 Y-26.876
N1840 X107.845 Y-27.257
N1845 Z5.
N1850 X104.416 Y-17.276
N1855 Z-0.75 F200.
N1860 Y-13.467 F750.
N1865 Z5.
N1870 X101.75 Y-12.324
N1875 Z-0.75 F200.
N1880 X109.75 Y-15.371 F750.
N1885 X101.75 Y-18.419
N1890 Z5.
N1895 Y-117.657
N1900 Z-0.75 F200.
N1905 X109.75 F750.
N1910 Z5.
N1915 Y-120.324
N1920 Z-0.75 F200.
N1925 Y-114.99 F750.
N1930 Z5.
N1935 X101.75 Y-122.533
N1940 Z-0.75 F200.
N1945 X109.75 F750.
N1950 Y-125.962
N1955 X109.369 Y-127.105
N1960 X108.988 Y-127.486
N1965 X108.226 Y-127.867
N1970 X107.464
N1975 X106.702 Y-127.486
N1980 X106.321 Y-127.105
N1985 X105.94 Y-125.962
N1990 Y-122.533
N1995 Z5.
N2000 X101.75 Y-127.867
N2005 Z-0.75 F200.
N2010 X105.94 Y-125.2 F750.
N2015 Z5.
N2020 X105.749 Y-131.333
N2025 Z-0.75 F200.
N2030 X106.702 F750.
N2035 X107.845 Y-131.714
N2040 X108.607 Y-132.095
N2045 X109.369 Y-132.857
N2050 X109.75 Y-133.619
N2055 Y-135.143
N2060 X109.369 Y-135.905
N2065 X108.607 Y-136.667
N2070 X107.845 Y-137.048
N2075 X106.702 Y-137.429
N2080 X104.797
N2085 X103.654 Y-137.048
N2090 X102.893 Y-136.667
N2095 X102.131 Y-135.905
N2100 X101.75 Y-135.143
N2105 Y-133.619
N2110 X102.131 Y-132.857
N2115 X102.893 Y-132.095
N2120 X103.654 Y-131.714
N2125 X104.797 Y-131.333
N2130 X105.749
N2135 Z5.
N2140 X101.75 Y-145.124
N2145 Z-0.75 F200.
N2150 Y-140.552 F750.
N2155 X109.75
N2160 Z5.
N2165 Z15.
N2170 G53 G0 Z0.
N2175 G53 G0 X0. Y0.
N2180 M30
%
