%
(ENGRAVE_TRACE_TEST_V1)
(MACHINE)
(  MODEL LASER SNAKE V2)
(  DESCRIPTION 3-AXIS ROUTER)
(T1  D=3.175 CR=0. TAPER=45DEG - ZMIN=-1.2 - CHAMFER MILL)
N10 G90 G94 G17 G91.1
N15 G21
(WHEN USING FUSION 360 FOR PERSONAL USE, THE FEEDRATE OF)
(RAPID MOVES IS REDUCED TO MATCH THE FEEDRATE OF CUTTING)
(MOVES, WHICH CAN INCREASE MACHINING TIME. UNRESTRICTED RAPID)
(MOVES ARE AVAILABLE WITH A FUSION 360 SUBSCRIPTION.)
N20 G53 G0 Z0.
(ENGRAVE2)
N25 T1 M6
N30 S18000 M3
N35 G54
N40 G0 X14.402 Y42.127
N45 G43 Z15. H1
N50 G1 Z5. F500.
N55 Z-0.397 F100.
N60 X14.37 Y42.138 F500.
N65 X14.301 Y42.164 Z-0.401
N70 X14.146 Y42.231 Z-0.415
N75 X14.108 Y42.251 Z-0.417
N80 X13.96 Y42.334 Z-0.428
N85 X13.901 Y42.375 Z-0.432
N90 X13.766 Y42.474 Z-0.446
N95 X13.732 Y42.503 Z-0.448
N100 X13.608 Y42.617 Z-0.458
N105 X13.553 Y42.674 Z-0.462
N110 X13.477 Y42.761 Z-0.472
N115 X13.403 Y42.86 Z-0.475
N120 X13.35 Y42.938 Z-0.48
N125 X13.298 Y43.02 Z-0.482
N130 X13.237 Y43.126 Z-0.489
N135 X13.159 Y43.296 Z-0.492
N140 X13.146 Y43.326 Z-0.494
N145 X13.069 Y43.536 Z-0.498
N150 X13.067 Y43.54
N155 X13.002 Y43.794 Z-0.501
N160 X12.95 Y44.076 Z-0.503
N165 X12.926 Y44.337 Z-0.504
N170 X12.917 Y44.611 Z-0.505
N175 X12.928 Y44.872 Z-0.504
N180 X12.953 Y45.129 Z-0.503
N185 X12.959 Y45.156
N190 X13.011 Y45.414 Z-0.5
N195 X13.072 Y45.644 Z-0.497
N200 X13.09 Y45.693 Z-0.495
N205 X13.158 Y45.868 Z-0.491
N210 X13.175 Y45.905 Z-0.49
N215 X13.256 Y46.073 Z-0.484
N220 X13.293 Y46.136 Z-0.48
N225 X13.36 Y46.24 Z-0.477
N230 X13.422 Y46.328 Z-0.471
N235 X13.489 Y46.415 Z-0.468
N240 X13.54 Y46.474 Z-0.46
N245 X13.633 Y46.569 Z-0.454
N250 X13.754 Y46.676 Z-0.444
N255 X13.792 Y46.708 Z-0.443
N260 X13.886 Y46.774 Z-0.432
N265 X13.968 Y46.828 Z-0.427
N270 X14.13 Y46.917 Z-0.415
N275 X14.161 Y46.932
N280 X14.282 Y46.983 Z-0.403
N285 X14.399 Y47.025 Z-0.397
N290 X14.55 Y47.069 Z-0.389
N295 X14.65 Y47.094 Z-0.387
N300 X14.715 Y47.107 Z-0.382
N305 X14.778 Y47.117 Z-0.38
N310 X14.946 Y47.136 Z-0.376
N315 X14.982 Y47.139 Z-0.375
N320 X15.177 Y47.148
N325 X15.215 Y47.147 Z-0.374
N330 X15.498 Y47.127 Z-0.378
N335 X15.55 Y47.121 Z-0.381
N340 X15.732 Y47.094 Z-0.386
N345 X15.814 Y47.075 Z-0.39
N350 X15.881 Y47.057 Z-0.396
N355 X16.035 Y47.007 Z-0.402
N360 X16.086 Y46.986 Z-0.404
N365 X16.189 Y46.942 Z-0.41
N370 X16.348 Y46.866 Z-0.416
N375 X16.394 Y46.84 Z-0.422
N380 X16.493 Y46.781 Z-0.436
N385 X16.624 Y46.683 Z-0.442
N390 X16.753 Y46.577 Z-0.453
N395 X16.839 Y46.497 Z-0.461
N400 X16.918 Y46.407 Z-0.471
N405 X16.995 Y46.306 Z-0.478
N410 X17.07 Y46.196 Z-0.481
N415 X17.072 Y46.191
N420 X17.218 Y45.931 Z-0.492
N425 X17.229 Y45.903
N430 X17.342 Y45.586 Z-0.498
N435 X17.383 Y45.443 Z-0.503
N440 X17.427 Y45.26
N445 X17.446 Y45.124 Z-0.506
N450 X17.468 Y44.904 Z-0.504
N455 X17.483 Y44.564 Z-0.505
N460 X17.469 Y44.26 Z-0.504
N465 X17.465 Y44.214
N470 X17.446 Y44.041 Z-0.506
N475 X17.415 Y43.854 Z-0.5
N480 X17.399 Y43.779 Z-0.501
N485 X17.371 Y43.669 Z-0.5
N490 X17.33 Y43.524 Z-0.502
N495 X17.319 Y43.493 Z-0.501
N500 X17.253 Y43.317 Z-0.498
N505 X17.181 Y43.152 Z-0.49
N510 X17.164 Y43.117 Z-0.491
N515 X17.041 Y42.918 Z-0.481
N520 X17.006 Y42.868 Z-0.478
N525 X16.922 Y42.755 Z-0.475
N530 X16.86 Y42.683 Z-0.466
N535 X16.778 Y42.597 Z-0.46
N540 X16.683 Y42.511 Z-0.452
N545 X16.617 Y42.456 Z-0.45
N550 X16.559 Y42.414 Z-0.444
N555 X16.44 Y42.334 Z-0.435
N560 X16.313 Y42.258 Z-0.422
N565 X16.247 Y42.225 Z-0.42
N570 X16.004 Y42.13 Z-0.403
N575 X15.749 Y42.054 Z-0.389
N580 X15.72 Y42.05 Z-0.387
N585 X15.455 Y42.013 Z-0.379
N590 X15.205 Y41.998 Z-0.375
N595 X15.17 Y41.999 Z-0.374
N600 X14.964 Y42.01 Z-0.376
N605 X14.925 Y42.014 Z-0.378
N610 X14.797 Y42.03 Z-0.379
N615 X14.734 Y42.04 Z-0.381
N620 X14.659 Y42.054 Z-0.387
N625 X14.533 Y42.088 Z-0.389
N630 X14.402 Y42.127 Z-0.397
N635 Z5.
N640 X34.456 Y43.966
N645 Z-0.503 F100.
N650 X34.432 Y44.228 Z-0.504 F500.
N655 X34.423 Y44.502 Z-0.505
N660 X34.434 Y44.764 Z-0.504
N665 X34.459 Y45.019 Z-0.503
N670 X34.464 Y45.047
N675 X34.517 Y45.305 Z-0.5
N680 X34.578 Y45.535 Z-0.497
N685 X34.595 Y45.583 Z-0.495
N690 X34.663 Y45.758 Z-0.491
N695 X34.68 Y45.796 Z-0.489
N700 X34.761 Y45.964 Z-0.484
N705 X34.798 Y46.027 Z-0.48
N710 X34.865 Y46.13 Z-0.477
N715 X34.927 Y46.218 Z-0.471
N720 X34.994 Y46.306 Z-0.468
N725 X35.045 Y46.364 Z-0.46
N730 X35.138 Y46.459 Z-0.454
N735 X35.259 Y46.567 Z-0.444
N740 X35.298 Y46.598 Z-0.443
N745 X35.391 Y46.665 Z-0.432
N750 X35.474 Y46.719 Z-0.427
N755 X35.636 Y46.808 Z-0.415
N760 X35.666 Y46.823
N765 X35.788 Y46.874 Z-0.403
N770 X35.905 Y46.916 Z-0.398
N775 X36.055 Y46.96 Z-0.389
N780 X36.155 Y46.985 Z-0.387
N785 X36.22 Y46.998 Z-0.382
N790 X36.283 Y47.008 Z-0.38
N795 X36.451 Y47.027 Z-0.376
N800 X36.488 Y47.03 Z-0.375
N805 X36.682 Y47.039
N810 X36.72 Y47.038 Z-0.374
N815 X37.004 Y47.018 Z-0.378
N820 X37.055 Y47.012 Z-0.381
N825 X37.237 Y46.985 Z-0.386
N830 X37.319 Y46.966 Z-0.39
N835 X37.386 Y46.948 Z-0.396
N840 X37.541 Y46.897 Z-0.402
N845 X37.591 Y46.877 Z-0.404
N850 X37.695 Y46.833 Z-0.41
N855 X37.853 Y46.757 Z-0.416
N860 X37.9 Y46.731 Z-0.422
N865 X37.998 Y46.672 Z-0.436
N870 X38.129 Y46.574 Z-0.442
N875 X38.258 Y46.468 Z-0.453
N880 X38.344 Y46.388 Z-0.461
N885 X38.424 Y46.298 Z-0.471
N890 X38.501 Y46.197 Z-0.478
N895 X38.575 Y46.087 Z-0.481
N900 X38.578 Y46.082
N905 X38.724 Y45.822 Z-0.491
N910 X38.734 Y45.794 Z-0.492
N915 X38.848 Y45.476 Z-0.498
N920 X38.889 Y45.333 Z-0.503
N925 X38.932 Y45.151
N930 X38.952 Y45.015 Z-0.506
N935 X38.974 Y44.795 Z-0.504
N940 X38.988 Y44.455 Z-0.505
N945 X38.975 Y44.151 Z-0.504
N950 X38.971 Y44.105
N955 X38.952 Y43.932 Z-0.506
N960 X38.921 Y43.745 Z-0.5
N965 X38.905 Y43.67 Z-0.501
N970 X38.877 Y43.56 Z-0.5
N975 X38.836 Y43.415 Z-0.502
N980 X38.825 Y43.383 Z-0.501
N985 X38.758 Y43.208 Z-0.498
N990 X38.687 Y43.043 Z-0.49
N995 X38.669 Y43.008 Z-0.491
N1000 X38.546 Y42.808 Z-0.481
N1005 X38.511 Y42.758 Z-0.478
N1010 X38.427 Y42.646 Z-0.475
N1015 X38.365 Y42.574 Z-0.466
N1020 X38.283 Y42.487 Z-0.46
N1025 X38.188 Y42.402 Z-0.452
N1030 X38.123 Y42.347 Z-0.45
N1035 X38.064 Y42.305 Z-0.444
N1040 X37.945 Y42.225 Z-0.435
N1045 X37.818 Y42.149 Z-0.422
N1050 X37.753 Y42.116 Z-0.42
N1055 X37.509 Y42.02 Z-0.403
N1060 X37.254 Y41.945 Z-0.389
N1065 X37.226 Y41.941 Z-0.387
N1070 X36.961 Y41.904 Z-0.379
N1075 X36.71 Y41.889 Z-0.375
N1080 X36.675 Y41.89 Z-0.374
N1085 X36.469 Y41.901 Z-0.376
N1090 X36.431 Y41.905 Z-0.377
N1095 X36.302 Y41.921 Z-0.379
N1100 X36.24 Y41.931 Z-0.381
N1105 X36.164 Y41.945 Z-0.387
N1110 X36.038 Y41.978 Z-0.389
N1115 X35.876 Y42.028 Z-0.397
N1120 X35.807 Y42.055 Z-0.401
N1125 X35.652 Y42.122 Z-0.415
N1130 X35.613 Y42.142 Z-0.417
N1135 X35.466 Y42.225 Z-0.428
N1140 X35.406 Y42.265 Z-0.432
N1145 X35.288 Y42.351 Z-0.446
N1150 X35.238 Y42.394 Z-0.448
N1155 X35.113 Y42.507 Z-0.458
N1160 X35.059 Y42.565 Z-0.462
N1165 X34.982 Y42.652 Z-0.472
N1170 X34.909 Y42.751 Z-0.475
N1175 X34.855 Y42.828 Z-0.48
N1180 X34.803 Y42.911 Z-0.482
N1185 X34.742 Y43.017 Z-0.489
N1190 X34.664 Y43.187 Z-0.492
N1195 X34.651 Y43.217 Z-0.494
N1200 X34.574 Y43.427 Z-0.498
N1205 X34.573 Y43.431
N1210 X34.508 Y43.685 Z-0.501
N1215 X34.456 Y43.966 Z-0.503
N1220 Z5.
N1225 X43.943 Y43.791
N1230 Z-0.505 F100.
N1235 X43.94 Y43.663 Z-0.49 F500.
N1240 X43.942 Y43.582 Z-0.484
N1245 X43.947 Y43.508 Z-0.474
N1250 X43.956 Y43.423 Z-0.467
N1255 X43.995 Y43.19 Z-0.445
N1260 X44.003 Y43.151 Z-0.441
N1265 X44.041 Y42.988 Z-0.43
N1270 X44.062 Y42.913 Z-0.428
N1275 X44.098 Y42.817 Z-0.419
N1280 X44.166 Y42.661 Z-0.411
N1285 X44.223 Y42.555 Z-0.407
N1290 X44.27 Y42.479 Z-0.403
N1295 X44.332 Y42.393 Z-0.394
N1300 X44.404 Y42.301 Z-0.38
N1305 X44.434 Y42.269 Z-0.375
N1310 X44.466 Y42.238 Z-0.372
N1315 X44.581 Y42.131 Z-0.365
N1320 X44.662 Y42.072 Z-0.35
N1325 X44.782 Y41.993 Z-0.336
N1330 X44.887 Y41.938 Z-0.327
N1335 X44.99 Y41.896 Z-0.321
N1340 X45.099 Y41.864 Z-0.313
N1345 X45.244 Y41.837 Z-0.305
N1350 X45.487 Y41.811 Z-0.296
N1355 X45.565 Y41.815 Z-0.295
N1360 X45.716 Y41.831 Z-0.301
N1365 X45.803 Y41.845
N1370 X45.939 Y41.874 Z-0.308
N1375 X46.039 Y41.909 Z-0.313
N1380 X46.128 Y41.949 Z-0.319
N1385 X46.233 Y42.006 Z-0.328
N1390 X46.324 Y42.061 Z-0.341
N1395 X46.353 Y42.083 Z-0.344
N1400 X46.506 Y42.209 Z-0.361
N1405 X46.556 Y42.257 Z-0.368
N1410 X46.613 Y42.324 Z-0.38
N1415 X46.664 Y42.393 Z-0.388
N1420 X46.727 Y42.488 Z-0.395
N1425 X46.749 Y42.523 Z-0.397
N1430 X46.818 Y42.644 Z-0.408
N1435 X46.872 Y42.776 Z-0.413
N1440 X46.893 Y42.833 Z-0.417
N1445 X46.937 Y42.988 Z-0.426
N1450 X46.945 Y43.023 Z-0.429
N1455 X46.962 Y43.141 Z-0.431
N1460 X46.972 Y43.219 Z-0.435
N1465 X46.984 Y43.435 Z-0.437
N1470 X46.975 Y43.597 Z-0.435
N1475 X46.962 Y43.713
N1480 X46.935 Y43.853 Z-0.429
N1485 X46.896 Y43.992 Z-0.426
N1490 X46.869 Y44.066 Z-0.421
N1495 X46.848 Y44.118 Z-0.42
N1500 X46.794 Y44.239 Z-0.411
N1505 X46.765 Y44.288 Z-0.407
N1510 X46.725 Y44.352 Z-0.403
N1515 X46.663 Y44.442 Z-0.395
N1520 X46.649 Y44.46
N1525 X46.566 Y44.557 Z-0.383
N1530 X46.516 Y44.605 Z-0.377
N1535 X46.474 Y44.643 Z-0.374
N1540 X46.373 Y44.72 Z-0.362
N1545 X46.26 Y44.793 Z-0.348
N1550 X46.184 Y44.831 Z-0.338
N1555 X46.144 Y44.848 Z-0.335
N1560 X46.017 Y44.896 Z-0.322
N1565 X45.883 Y44.931 Z-0.306
N1570 X45.828 Y44.939 Z-0.3
N1575 X45.74 Y44.95 Z-0.294
N1580 X45.661 Y44.954 Z-0.286
N1585 X45.591 Y44.955 Z-0.281
N1590 X45.533 Y44.954 Z-0.274
N1595 X45.449 Y44.947 Z-0.269
N1600 X45.308 Y44.919 Z-0.256
N1605 X45.17 Y44.879 Z-0.243
N1610 X45.137 Y44.864 Z-0.239
N1615 X44.996 Y44.794 Z-0.224
N1620 X44.888 Y44.729 Z-0.213
N1625 X44.847 Y44.698 Z-0.208
N1630 X44.743 Y44.612 Z-0.198
N1635 X44.72 Y44.591 Z-0.195
N1640 X44.62 Y44.493 Z-0.189
N1645 X44.588 Y44.464 Z-0.192
N1650 X44.535 Y44.42 Z-0.206
N1655 X44.477 Y44.382 Z-0.228
N1660 X44.445 Y44.364 Z-0.243
N1665 X44.376 Y44.328 Z-0.281
N1670 X44.301 Y44.296 Z-0.328
N1675 X44.26 Y44.281 Z-0.355
N1680 X44.204 Y44.261 Z-0.396
N1685 X44.1 Y44.227 Z-0.478
N1690 X43.985 Y44.197 Z-0.572
N1695 X43.973 Y44.122 Z-0.557
N1700 X43.948 Y43.938 Z-0.525
N1705 X43.944 Y43.87 Z-0.515
N1710 X43.943 Y43.791 Z-0.505
N1715 Z5.
N1720 X56.156 Y44.711
N1725 Z-0.504 F100.
N1730 X56.18 Y44.461 Z-0.503 F500.
N1735 X56.187 Y44.426
N1740 X56.239 Y44.166 Z-0.5
N1745 X56.297 Y43.942 Z-0.498
N1750 X56.317 Y43.883 Z-0.495
N1755 X56.386 Y43.703 Z-0.492
N1760 X56.404 Y43.663 Z-0.491
N1765 X56.465 Y43.532 Z-0.489
N1770 X56.487 Y43.491 Z-0.485
N1775 X56.525 Y43.427 Z-0.482
N1780 X56.578 Y43.344 Z-0.48
N1785 X56.658 Y43.229 Z-0.473
N1790 X56.705 Y43.168 Z-0.472
N1795 X56.781 Y43.081 Z-0.462
N1800 X56.849 Y43.01 Z-0.457
N1805 X57.01 Y42.866 Z-0.446
N1810 X57.128 Y42.781 Z-0.432
N1815 X57.19 Y42.74 Z-0.428
N1820 X57.385 Y42.632 Z-0.415
N1825 X57.529 Y42.57 Z-0.401
N1830 X57.63 Y42.533 Z-0.397
N1835 X57.798 Y42.484 Z-0.388
N1840 X57.887 Y42.461 Z-0.387
N1845 X57.962 Y42.446 Z-0.381
N1850 X58.025 Y42.437 Z-0.379
N1855 X58.192 Y42.417 Z-0.376
N1860 X58.228 Y42.414 Z-0.375
N1865 X58.445 Y42.405
N1870 X58.461 Y42.406
N1875 X58.731 Y42.425 Z-0.38
N1880 X58.977 Y42.461 Z-0.389
N1885 X59.03 Y42.475 Z-0.39
N1890 X59.24 Y42.539 Z-0.403
N1895 X59.289 Y42.557 Z-0.405
N1900 X59.495 Y42.641 Z-0.42
N1905 X59.541 Y42.665 Z-0.422
N1910 X59.586 Y42.691 Z-0.426
N1915 X59.668 Y42.741 Z-0.435
N1920 X59.845 Y42.862 Z-0.45
N1925 X59.947 Y42.95 Z-0.454
N1930 X60.033 Y43.03 Z-0.461
N1935 X60.088 Y43.089 Z-0.466
N1940 X60.15 Y43.162 Z-0.475
N1945 X60.269 Y43.324 Z-0.481
N1950 X60.278 Y43.338 Z-0.482
N1955 X60.394 Y43.528 Z-0.49
N1960 X60.409 Y43.558
N1965 X60.436 Y43.617 Z-0.492
N1970 X60.481 Y43.724 Z-0.498
N1975 X60.559 Y43.933 Z-0.502
N1980 X60.61 Y44.114 Z-0.5
N1985 X60.627 Y44.186 Z-0.501
N1990 X60.654 Y44.322
N1995 X60.674 Y44.447 Z-0.506
N2000 X60.697 Y44.667 Z-0.504
N2005 X60.7 Y44.713 Z-0.506
N2010 X60.711 Y44.984 Z-0.505
N2015 X60.71 Y45.023
N2020 X60.693 Y45.358 Z-0.504
N2025 X60.674 Y45.53 Z-0.506
N2030 X60.65 Y45.692 Z-0.503
N2035 X60.611 Y45.849
N2040 X60.555 Y46.039 Z-0.497
N2045 X60.446 Y46.338 Z-0.491
N2050 X60.416 Y46.395 Z-0.488
N2055 X60.298 Y46.602 Z-0.481
N2060 X60.223 Y46.712 Z-0.478
N2065 X60.146 Y46.814 Z-0.471
N2070 X60.122 Y46.842 Z-0.467
N2075 X60.061 Y46.909 Z-0.461
N2080 X59.944 Y47.016 Z-0.45
N2085 X59.821 Y47.113 Z-0.44
N2090 X59.721 Y47.188 Z-0.436
N2095 X59.576 Y47.273 Z-0.416
N2100 X59.528 Y47.296 Z-0.413
N2105 X59.417 Y47.348 Z-0.41
N2110 X59.262 Y47.414 Z-0.402
N2115 X59.109 Y47.463 Z-0.396
N2120 X59.042 Y47.482 Z-0.39
N2125 X58.949 Y47.502 Z-0.386
N2130 X58.726 Y47.534 Z-0.378
N2135 X58.678 Y47.538 Z-0.376
N2140 X58.387 Y47.554 Z-0.374
N2145 X58.174 Y47.543 Z-0.376
N2150 X58.137 Y47.539 Z-0.378
N2155 X58.005 Y47.523 Z-0.38
N2160 X57.943 Y47.513 Z-0.382
N2165 X57.877 Y47.501 Z-0.387
N2170 X57.74 Y47.465 Z-0.391
N2175 X57.627 Y47.432 Z-0.397
N2180 X57.577 Y47.415 Z-0.399
N2185 X57.51 Y47.389 Z-0.403
N2190 X57.389 Y47.339 Z-0.415
N2195 X57.319 Y47.303 Z-0.417
N2200 X57.176 Y47.222 Z-0.427
N2205 X57.114 Y47.181 Z-0.432
N2210 X57.02 Y47.114 Z-0.443
N2215 X56.947 Y47.053 Z-0.446
N2220 X56.861 Y46.975 Z-0.454
N2225 X56.825 Y46.941 Z-0.455
N2230 X56.768 Y46.88 Z-0.46
N2235 X56.716 Y46.822 Z-0.468
N2240 X56.623 Y46.698 Z-0.473
N2245 X56.587 Y46.646 Z-0.477
N2250 X56.521 Y46.542 Z-0.48
N2255 X56.473 Y46.46 Z-0.486
N2260 X56.38 Y46.261 Z-0.492
N2265 X56.298 Y46.041 Z-0.497
N2270 X56.231 Y45.785 Z-0.501
N2275 X56.179 Y45.512 Z-0.503
N2280 X56.154 Y45.246 Z-0.504
N2285 X56.145 Y44.974 Z-0.505
N2290 X56.156 Y44.711 Z-0.504
N2295 Z5.
N2300 X65.477 Y45.67
N2305 Z-0.433 F100.
N2310 X65.508 Y45.514 Z-0.427 F500.
N2315 X65.54 Y45.395 Z-0.423
N2320 X65.558 Y45.346 Z-0.421
N2325 X65.6 Y45.243 Z-0.417
N2330 X65.644 Y45.154 Z-0.414
N2335 X65.711 Y45.043 Z-0.407
N2340 X65.786 Y44.936 Z-0.399
N2345 X65.866 Y44.837 Z-0.384
N2350 X65.958 Y44.751 Z-0.376
N2355 X66.083 Y44.656 Z-0.36
N2360 X66.166 Y44.601 Z-0.35
N2365 X66.255 Y44.555 Z-0.337
N2370 X66.288 Y44.54 Z-0.334
N2375 X66.341 Y44.517 Z-0.327
N2380 X66.414 Y44.49 Z-0.32
N2385 X66.548 Y44.458 Z-0.307
N2390 X66.69 Y44.439 Z-0.296
N2395 X66.878 Y44.434 Z-0.276
N2400 X66.919 Y44.435 Z-0.272
N2405 X66.983 Y44.441 Z-0.269
N2410 X67.126 Y44.469 Z-0.256
N2415 X67.267 Y44.51 Z-0.243
N2420 X67.291 Y44.521 Z-0.24
N2425 X67.432 Y44.59 Z-0.225
N2430 X67.541 Y44.654 Z-0.215
N2435 X67.582 Y44.684 Z-0.21
N2440 X67.687 Y44.77 Z-0.2
N2445 X67.71 Y44.79 Z-0.198
N2450 X67.812 Y44.888 Z-0.191
N2455 X67.842 Y44.916 Z-0.194
N2460 X67.895 Y44.959 Z-0.207
N2465 X67.953 Y44.997 Z-0.228
N2470 X67.984 Y45.015 Z-0.242
N2475 X68.052 Y45.051 Z-0.279
N2480 X68.127 Y45.082 Z-0.324
N2485 X68.167 Y45.097 Z-0.351
N2490 X68.223 Y45.117 Z-0.392
N2495 X68.294 Y45.141 Z-0.447
N2500 X68.37 Y45.163 Z-0.508
N2505 X68.451 Y45.182 Z-0.574
N2510 X68.463 Y45.251 Z-0.56
N2515 X68.484 Y45.404 Z-0.532
N2520 X68.49 Y45.456 Z-0.523
N2525 X68.493 Y45.507 Z-0.516
N2530 X68.497 Y45.66 Z-0.497
N2535 X68.496 Y45.716 Z-0.49
N2540 X68.486 Y45.909 Z-0.469
N2545 X68.481 Y45.944 Z-0.466
N2550 X68.445 Y46.198 Z-0.446
N2555 X68.426 Y46.281 Z-0.44
N2560 X68.398 Y46.381 Z-0.435
N2565 X68.337 Y46.574 Z-0.421
N2570 X68.322 Y46.608 Z-0.418
N2575 X68.252 Y46.754 Z-0.41
N2580 X68.2 Y46.852 Z-0.401
N2585 X68.155 Y46.924 Z-0.399
N2590 X68.04 Y47.073 Z-0.384
N2595 X68.008 Y47.109 Z-0.379
N2600 X67.946 Y47.172 Z-0.376
N2605 X67.814 Y47.282 Z-0.359
N2610 X67.775 Y47.31 Z-0.353
N2615 X67.681 Y47.369 Z-0.348
N2620 X67.514 Y47.452 Z-0.327
N2625 X67.457 Y47.473 Z-0.322
N2630 X67.334 Y47.513 Z-0.317
N2635 X67.21 Y47.542 Z-0.304
N2640 X67.145 Y47.551 Z-0.303
N2645 X66.943 Y47.568 Z-0.297
N2650 X66.883 Y47.567 Z-0.295
N2655 X66.844 Y47.564 Z-0.296
N2660 X66.766 Y47.557 Z-0.3
N2665 X66.612 Y47.534 Z-0.303
N2670 X66.598 Y47.532 Z-0.304
N2675 X66.469 Y47.497 Z-0.307
N2680 X66.434 Y47.486 Z-0.309
N2685 X66.384 Y47.467 Z-0.311
N2690 X66.278 Y47.421 Z-0.322
N2695 X66.193 Y47.372 Z-0.329
N2700 X66.115 Y47.321 Z-0.338
N2705 X66.028 Y47.255 Z-0.351
N2710 X65.917 Y47.159 Z-0.361
N2715 X65.883 Y47.124 Z-0.365
N2720 X65.82 Y47.05 Z-0.378
N2725 X65.712 Y46.898 Z-0.393
N2730 X65.66 Y46.814 Z-0.401
N2735 X65.611 Y46.715 Z-0.405
N2740 X65.598 Y46.687 Z-0.408
N2745 X65.545 Y46.553 Z-0.415
N2750 X65.503 Y46.397 Z-0.423
N2755 X65.476 Y46.246 Z-0.43
N2760 X65.462 Y46.108 Z-0.434
N2765 X65.455 Y45.95 Z-0.435
N2770 X65.463 Y45.81 Z-0.436
N2775 X65.477 Y45.67 Z-0.433
N2780 Z5.
N2785 X41.205 Y41.99
N2790 Z-0.463 F100.
N2795 X41.223 Y42.002 Z-0.481 F500.
N2800 X41.242 Y42.019 Z-0.502
N2805 X41.235 Y42.027 Z-0.494
N2810 X41.215 Y42.036 Z-0.473
N2815 X41.235 Y42.027 Z-0.494
N2820 X41.221 Y42.059 Z-0.46
N2825 X41.235 Y42.027 Z-0.494
N2830 X41.242 Y42.019 Z-0.502
N2835 X41.243
N2840 X41.249 Y42.034 Z-0.486
N2845 X41.243 Y42.019 Z-0.502
N2850 X41.244 Z-0.501
N2855 X41.26 Y42.002 Z-0.484
N2860 X41.272 Y41.994 Z-0.472
N2865 X41.26 Y42.002 Z-0.484
N2870 X41.244 Y42.019 Z-0.501
N2875 X41.254 Y42.025 Z-0.491
N2880 X41.282 Y42.037 Z-0.461
N2885 Z5.
N2890 X43.985 Y44.197
N2895 Z-0.572 F100.
N2900 X43.961 Y44.249 Z-0.55 F500.
N2905 X43.94 Y44.301 Z-0.53
N2910 X43.916 Y44.38 Z-0.504
N2915 X43.897 Y44.458 Z-0.483
N2920 X43.883 Y44.536 Z-0.467
N2925 X43.875 Y44.614 Z-0.457
N2930 X43.874 Y44.676 Z-0.451
N2935 X43.889 Y44.922 Z-0.447
N2940 X43.911 Y45.134 Z-0.437
N2945 X43.914 Y45.16
N2950 X43.943 Y45.355 Z-0.429
N2955 X43.976 Y45.529 Z-0.425
N2960 X43.987 Y45.578 Z-0.422
N2965 X44.036 Y45.755 Z-0.417
N2970 X44.052 Y45.806 Z-0.414
N2975 X44.11 Y45.968 Z-0.41
N2980 X44.137 Y46.03 Z-0.405
N2985 X44.203 Y46.172 Z-0.399
N2990 X44.306 Y46.367 Z-0.382
N2995 X44.369 Y46.465 Z-0.366
N3000 X44.407 Y46.514 Z-0.363
N3005 X44.489 Y46.606 Z-0.355
N3010 X44.514 Y46.632 Z-0.354
N3015 X44.606 Y46.714 Z-0.343
N3020 X44.653 Y46.754 Z-0.339
N3025 X44.754 Y46.824 Z-0.33
N3030 X44.814 Y46.863 Z-0.327
N3035 X44.892 Y46.903 Z-0.317
N3040 X44.942 Y46.927 Z-0.312
N3045 X44.989 Y46.948 Z-0.31
N3050 X45.047 Y46.97 Z-0.304
N3055 X45.176 Y47.014 Z-0.297
N3060 X45.253 Y47.031 Z-0.29
N3065 X45.362 Y47.05 Z-0.287
N3070 X45.514 Y47.063 Z-0.283
N3075 X45.582 Y47.065 Z-0.285
N3080 X45.709 Y47.056 Z-0.287
N3085 X45.754 Y47.051 Z-0.289
N3090 X45.875 Y47.031 Z-0.293
N3095 X45.915 Y47.023 Z-0.296
N3100 X45.954 Y47.013 Z-0.3
N3105 X46.07 Y46.972 Z-0.308
N3110 X46.116 Y46.954 Z-0.312
N3115 X46.229 Y46.899 Z-0.322
N3120 X46.3 Y46.861 Z-0.331
N3125 X46.404 Y46.785 Z-0.344
N3130 X46.522 Y46.684 Z-0.36
N3135 X46.589 Y46.608 Z-0.366
N3140 X46.662 Y46.509 Z-0.376
N3145 X46.688 Y46.473 Z-0.381
N3150 X46.731 Y46.391 Z-0.384
N3155 X46.766 Y46.317
N3160 X46.778 Y46.282 Z-0.381
N3165 X46.786 Y46.263 Z-0.378
N3170 X46.796 Y46.243 Z-0.373
N3175 X46.813 Y46.212 Z-0.359
N3180 X46.828 Y46.195 Z-0.347
N3185 X46.839 Y46.184 Z-0.337
N3190 X46.863 Y46.179 Z-0.315
N3195 X46.839 Y46.184 Z-0.337
N3200 X46.84 Y46.183 Z-0.336
N3205 X46.853 Y46.152 Z-0.304
N3210 X46.972 Y45.87 Z-0.001
N3215 Z5.
N3220 X62.928 Y42.506
N3225 Z-0.463 F100.
N3230 X62.946 Y42.518 Z-0.481 F500.
N3235 X62.964 Y42.535 Z-0.502
N3240 X62.958 Y42.543 Z-0.494
N3245 X62.956 Y42.547 Z-0.49
N3250 X62.944 Y42.575 Z-0.46
N3255 X62.956 Y42.547 Z-0.49
N3260 X62.958 Y42.543 Z-0.494
N3265 X62.937 Y42.551 Z-0.472
N3270 X62.958 Y42.543 Z-0.494
N3275 X62.964 Y42.535 Z-0.502
N3280 X62.966
N3285 X62.972 Y42.551 Z-0.485
N3290 X62.966 Y42.535 Z-0.502
N3295 Z-0.501
N3300 X62.976 Y42.54 Z-0.491
N3305 X63.005 Y42.552 Z-0.46
N3310 X62.976 Y42.54 Z-0.491
N3315 X62.966 Y42.535 Z-0.501
N3320 X62.983 Y42.518 Z-0.484
N3325 X62.994 Y42.51 Z-0.472
N3330 X63.011 Y42.502 Z-0.453
N3335 X63.436 Y42.334 Z-0.001
N3340 Z5.
N3345 X65.457 Y43.51
N3350 Z0. F100.
N3355 X65.575 Y43.226 Z-0.306 F500.
N3360 X65.586 Y43.199 Z-0.333
N3365 X65.57 Y43.203 Z-0.318
N3370 X65.586 Y43.199 Z-0.333
N3375 X65.619 Y43.165 Z-0.362
N3380 X65.638 Y43.138 Z-0.378
N3385 X65.645 Y43.124 Z-0.381
N3390 X65.667 Y43.067 Z-0.387
N3395 X65.701 Y42.993
N3400 X65.738 Y42.923 Z-0.383
N3405 X65.822 Y42.803 Z-0.372
N3410 X65.869 Y42.745 Z-0.364
N3415 X65.909 Y42.702 Z-0.361
N3420 X66.013 Y42.611 Z-0.347
N3425 X66.129 Y42.527 Z-0.334
N3430 X66.204 Y42.486 Z-0.324
N3435 X66.293 Y42.443 Z-0.317
N3440 X66.316 Y42.433 Z-0.314
N3445 X66.465 Y42.377 Z-0.303
N3450 X66.554 Y42.356 Z-0.295
N3455 X66.648 Y42.34 Z-0.291
N3460 X66.675 Y42.337 Z-0.289
N3465 X66.844 Y42.323 Z-0.285
N3470 X66.899 Y42.324 Z-0.283
N3475 X67.024 Y42.332 Z-0.285
N3480 X67.174 Y42.354 Z-0.289
N3485 X67.237 Y42.366 Z-0.293
N3490 X67.345 Y42.399 Z-0.298
N3495 X67.442 Y42.434 Z-0.306
N3500 X67.488 Y42.454 Z-0.308
N3505 X67.546 Y42.481 Z-0.313
N3510 X67.616 Y42.517 Z-0.323
N3515 X67.653 Y42.54 Z-0.325
N3520 X67.767 Y42.618 Z-0.335
N3525 X67.832 Y42.67 Z-0.34
N3530 X67.904 Y42.733 Z-0.351
N3535 X68.024 Y42.865 Z-0.361
N3540 X68.065 Y42.918 Z-0.365
N3545 X68.127 Y43.015 Z-0.381
N3550 X68.23 Y43.212 Z-0.399
N3555 X68.282 Y43.319 Z-0.404
N3560 X68.324 Y43.415 Z-0.412
N3565 X68.368 Y43.534 Z-0.414
N3570 X68.382 Y43.574 Z-0.416
N3575 X68.436 Y43.762 Z-0.423
N3580 X68.459 Y43.851 Z-0.429
N3585 X68.486 Y43.993 Z-0.431
N3590 X68.512 Y44.151 Z-0.438
N3595 X68.52 Y44.218 Z-0.44
N3600 X68.547 Y44.456 Z-0.45
N3605 X68.559 Y44.639 Z-0.451
N3610 X68.562 Y44.701 Z-0.453
N3615 X68.561 Y44.764 Z-0.459
N3620 X68.553 Y44.843 Z-0.469
N3625 X68.539 Y44.922 Z-0.485
N3630 X68.52 Y45.001 Z-0.506
N3635 X68.495 Y45.08 Z-0.533
N3640 X68.474 Y45.131 Z-0.552
N3645 X68.451 Y45.182 Z-0.574
N3650 Z5.
N3655 X77.813 Y46.203
N3660 Z-0.001 F100.
N3665 X78.03 Y46.111 Z-0.233 F500.
N3670 X78.046 Y46.103 Z-0.25
N3675 X78.079 Y46.082 Z-0.286
N3680 X78.107 Y46.069 Z-0.312
N3685 X78.113 Y46.067 Z-0.317
N3690 X78.104 Y46.035 Z-0.29
N3695 X78.093 Y45.962 Z-0.224
N3700 X78.094 Y45.9 Z-0.166
N3705 X78.112 Y45.731 Z0.
N3710 X78.094 Y45.9 Z-0.166
N3715 X78.093 Y45.962 Z-0.224
N3720 X78.104 Y46.035 Z-0.29
N3725 X78.113 Y46.067 Z-0.317
N3730 X78.25 Y46.132 Z-0.332
N3735 X78.336 Y46.168 Z-0.338
N3740 X78.483 Y46.237 Z-0.341
N3745 X78.675 Y46.34 Z-0.335
N3750 X78.777 Y46.401 Z-0.331
N3755 X78.928 Y46.499 Z-0.322
N3760 X79.121 Y46.641 Z-0.313
N3765 X79.249 Y46.74 Z-0.312
N3770 X79.304 Y46.779 Z-0.314
N3775 X79.348 Y46.807 Z-0.322
N3780 X79.417 Y46.847 Z-0.342
N3785 X79.491 Y46.881 Z-0.368
N3790 X79.57 Y46.91 Z-0.403
N3795 X79.654 Y46.934 Z-0.444
N3800 X79.743 Y46.953 Z-0.493
N3805 X79.833 Y46.969 Z-0.549
N3810 X79.899 Y46.979 Z-0.594
N3815 X80.028 Y47.345 Z-0.465
N3820 X80.079 Y47.501 Z-0.414
N3825 X80.103 Y47.583 Z-0.386
N3830 X80.115 Y47.629 Z-0.366
N3835 X80.124 Y47.706 Z-0.326
N3840 X80.13 Y47.714 Z-0.316
N3845 X80.137 Y47.729 Z-0.301
N3850 X80.269 Y48.003 Z0.
N3855 X80.137 Y47.729 Z-0.301
N3860 X80.13 Y47.714 Z-0.316
N3865 X80.124 Y47.706 Z-0.326
N3870 X80.113 Y47.733 Z-0.3
N3875 X80.049 Y47.852 Z-0.176
N3880 X80.113 Y47.733 Z-0.3
N3885 X80.124 Y47.706 Z-0.326
N3890 X80.115 Y47.629 Z-0.366
N3895 X80.103 Y47.583 Z-0.386
N3900 X80.079 Y47.501 Z-0.414
N3905 X80.028 Y47.345 Z-0.465
N3910 X79.899 Y46.979 Z-0.594
N3915 X79.938 Y46.898 Z-0.555
N3920 X79.971 Y46.817 Z-0.522
N3925 X79.998 Y46.736 Z-0.495
N3930 X80.019 Y46.655 Z-0.474
N3935 X80.034 Y46.574 Z-0.459
N3940 X80.043 Y46.494 Z-0.45
N3945 X80.046 Y46.413 Z-0.447
N3950 Y42.923
N3955 X80.041 Y42.765 Z-0.443
N3960 Y42.681 Z-0.438
N3965 Y42.665 Z-0.435
N3970 X80.106 Y42.614 Z-0.361
N3975 X80.224 Y42.514 Z-0.213
N3980 X80.106 Y42.614 Z-0.361
N3985 X80.041 Y42.665 Z-0.435
N3990 X80.028 Y42.642 Z-0.418
N3995 X80. Y42.571 Z-0.362
N4000 X79.998 Y42.569 Z-0.36
N4005 X79.724 Y42.331 Z0.
N4010 X79.998 Y42.569 Z-0.36
N4015 X80. Y42.571 Z-0.362
N4020 X79.998 Y42.551 Z-0.344
N4025 X80. Y42.493 Z-0.288
N4030 X80.031 Y42.201 Z-0.001
N4035 Z5.
N4040 X83.72 Y42.675
N4045 Z-0.463 F100.
N4050 X83.738 Y42.687 Z-0.481 F500.
N4055 X83.757 Y42.704 Z-0.502
N4060 X83.75 Y42.712 Z-0.494
N4065 X83.737 Y42.743 Z-0.461
N4070 X83.75 Y42.712 Z-0.494
N4075 X83.728 Y42.721 Z-0.471
N4080 X83.75 Y42.712 Z-0.494
N4085 X83.757 Y42.704 Z-0.502
N4090 X83.758 Z-0.501
N4095 X83.765 Y42.72 Z-0.485
N4100 X83.758 Y42.704 Z-0.501
N4105 X83.759
N4110 X83.775 Y42.687 Z-0.484
N4115 X83.786 Y42.68 Z-0.472
N4120 X83.775 Y42.687 Z-0.484
N4125 X83.759 Y42.704 Z-0.501
N4130 X83.768 Y42.709 Z-0.491
N4135 X83.798 Y42.722 Z-0.46
N4140 X84.225 Y42.902 Z0.
N4145 Z5.
N4150 X86.002 Y42.756
N4155 Z0. F100.
N4160 X86.413 Y42.748 Z-0.406 F500.
N4165 X86.429 Y42.751 Z-0.422
N4170 X86.475 Y42.771 Z-0.463
N4175 X86.493 Y42.784 Z-0.479
N4180 X86.564 Y42.83 Z-0.531
N4185 X86.616 Y42.866 Z-0.566
N4190 X86.65 Y42.886 Z-0.587
N4195 X86.73 Y42.837 Z-0.537
N4200 X86.809 Y42.794 Z-0.494
N4205 X86.888 Y42.757 Z-0.458
N4210 X86.968 Y42.727 Z-0.428
N4215 X87.047 Y42.704 Z-0.405
N4220 X87.126 Y42.688 Z-0.388
N4225 X87.206 Y42.678 Z-0.378
N4230 X87.285 Y42.674 Z-0.375
N4235 X89.375
N4240 X89.488 Y42.67 Z-0.371
N4245 X89.517 Y42.669 Z-0.368
N4250 X89.572 Y42.662 Z-0.354
N4255 X89.59 Y42.649 Z-0.334
N4260 X89.61 Y42.632 Z-0.308
N4265 X89.827 Y42.409 Z-0.001
N4270 X89.61 Y42.632 Z-0.308
N4275 X89.59 Y42.649 Z-0.334
N4280 X89.572 Y42.662 Z-0.354
N4285 X89.612 Y42.688 Z-0.313
N4290 X89.617 Y42.691 Z-0.307
N4295 X89.898 Y42.822 Z0.
N4300 X89.617 Y42.691 Z-0.307
N4305 X89.612 Y42.688 Z-0.313
N4310 X89.572 Y42.662 Z-0.354
N4315 X89.517 Y42.669 Z-0.368
N4320 X89.488 Y42.67 Z-0.371
N4325 X89.375 Y42.674 Z-0.375
N4330 X87.285
N4335 X87.206 Y42.678 Z-0.378
N4340 X87.126 Y42.688 Z-0.388
N4345 X87.047 Y42.704 Z-0.405
N4350 X86.968 Y42.727 Z-0.428
N4355 X86.888 Y42.757 Z-0.458
N4360 X86.809 Y42.794 Z-0.494
N4365 X86.73 Y42.837 Z-0.537
N4370 X86.65 Y42.886 Z-0.587
N4375 X86.654 Y42.942 Z-0.564
N4380 X86.659 Y42.996 Z-0.544
N4385 X86.676 Y43.066 Z-0.515
N4390 X86.695 Y43.133 Z-0.49
N4395 X86.732 Y43.217 Z-0.458
N4400 X86.773 Y43.296 Z-0.432
N4405 X86.82 Y43.369 Z-0.414
N4410 X86.873 Y43.437 Z-0.403
N4415 X87.001 Y43.59 Z-0.387
N4420 X87.137 Y43.739 Z-0.377
N4425 X87.351 Y43.953 Z-0.37
N4430 X87.578 Y44.17 Z-0.368
N4435 X87.818 Y44.38 Z-0.373
N4440 X88.116 Y44.623 Z-0.368
N4445 X88.432 Y44.877 Z-0.362
N4450 X88.45 Y44.892 Z-0.363
N4455 X88.701 Y45.119 Z-0.371
N4460 X88.745 Y45.161 Z-0.375
N4465 X88.842 Y45.26 Z-0.387
N4470 X88.954 Y45.386 Z-0.394
N4475 X88.994 Y45.439 Z-0.398
N4480 X89.053 Y45.521 Z-0.407
N4485 X89.158 Y45.685 Z-0.416
N4490 X89.182 Y45.726 Z-0.418
N4495 X89.222 Y45.805 Z-0.427
N4500 X89.302 Y46. Z-0.438
N4505 X89.317 Y46.045 Z-0.439
N4510 X89.34 Y46.126 Z-0.446
N4515 X89.362 Y46.259 Z-0.448
N4520 X89.365 Y46.284 Z-0.449
N4525 X89.373 Y46.386
N4530 X89.376 Y46.469 Z-0.451
N4535 X89.367 Y46.59
N4540 X89.357 Y46.661
N4545 X89.335 Y46.762 Z-0.447
N4550 X89.304 Y46.864 Z-0.444
N4555 X89.264 Y46.963 Z-0.439
N4560 X89.217 Y47.055 Z-0.435
N4565 X89.163 Y47.145 Z-0.426
N4570 X89.099 Y47.23 Z-0.42
N4575 X89.015 Y47.323 Z-0.409
N4580 X88.955 Y47.38 Z-0.402
N4585 X88.93 Y47.401 Z-0.397
N4590 X88.862 Y47.453 Z-0.389
N4595 X88.792 Y47.499 Z-0.381
N4600 X88.721 Y47.536 Z-0.368
N4605 X88.6 Y47.594 Z-0.352
N4610 X88.547 Y47.614 Z-0.346
N4615 X88.391 Y47.666 Z-0.333
N4620 X88.278 Y47.691 Z-0.321
N4625 X88.17 Y47.708 Z-0.316
N4630 X88.058 Y47.719 Z-0.31
N4635 X87.932 Y47.726 Z-0.309
N4640 X87.892 Y47.725 Z-0.308
N4645 X87.847 Y47.722 Z-0.309
N4650 X87.736 Y47.712 Z-0.315
N4655 X87.547 Y47.686 Z-0.321
N4660 X87.428 Y47.656 Z-0.323
N4665 X87.367 Y47.638 Z-0.327
N4670 X87.255 Y47.596 Z-0.334
N4675 X87.181 Y47.562 Z-0.342
N4680 X87.073 Y47.501 Z-0.353
N4685 X87.022 Y47.467 Z-0.358
N4690 X86.957 Y47.421 Z-0.368
N4695 X86.883 Y47.357 Z-0.376
N4700 X86.853 Y47.33 Z-0.381
N4705 X86.757 Y47.234 Z-0.392
N4710 X86.681 Y47.146 Z-0.394
N4715 X86.652 Y47.106 Z-0.396
N4720 X86.616 Y47.049 Z-0.402
N4725 X86.543 Y46.906 Z-0.409
N4730 X86.514 Y46.84 Z-0.412
N4735 X86.468 Y46.709 Z-0.411
N4740 X86.447 Y46.649 Z-0.407
N4745 X86.416 Y46.535 Z-0.393
N4750 X86.392 Y46.462 Z-0.374
N4755 X86.385 Y46.433 Z-0.365
N4760 X86.374 Y46.421 Z-0.351
N4765 X86.359 Y46.401 Z-0.328
N4770 X86.122 Y46.169 Z0.
N4775 X86.359 Y46.401 Z-0.328
N4780 X86.374 Y46.421 Z-0.351
N4785 X86.385 Y46.433 Z-0.365
N4790 X86.387 Y46.429 Z-0.361
N4795 X86.418 Y46.38 Z-0.309
N4800 X86.42 Y46.376 Z-0.305
N4805 X86.536 Y46.092 Z-0.001
N4810 Z5.
N4815 X22.436 Y46.135
N4820 Z-0.303 F100.
N4825 X22.452 Y46.175 Z-0.343 F500.
N4830 X22.474 Y46.143 Z-0.309
N4835 X22.535 Y46.072 Z-0.223
N4840 X22.688 Y45.905 Z-0.001
N4845 X22.535 Y46.072 Z-0.223
N4850 X22.474 Y46.143 Z-0.309
N4855 X22.452 Y46.175 Z-0.343
N4860 Y46.183 Z-0.347
N4865 X22.455 Y46.204 Z-0.352
N4870 X22.468 Y46.252 Z-0.36
N4875 X22.485 Y46.305 Z-0.366
N4880 X22.507 Y46.358 Z-0.368
N4885 X22.544 Y46.435 Z-0.366
N4890 X22.585 Y46.505 Z-0.361
N4895 X22.648 Y46.602 Z-0.351
N4900 X22.682 Y46.646 Z-0.344
N4905 X22.793 Y46.776 Z-0.327
N4910 X22.827 Y46.809 Z-0.32
N4915 X22.873 Y46.849 Z-0.316
N4920 X22.986 Y46.935 Z-0.302
N4925 X23.027 Y46.961 Z-0.297
N4930 X23.099 Y47. Z-0.293
N4935 X23.227 Y47.06 Z-0.284
N4940 X23.294 Y47.082 Z-0.281
N4945 X23.393 Y47.109 Z-0.282
N4950 X23.516 Y47.139 Z-0.278
N4955 X23.568 Y47.147 Z-0.279
N4960 X23.784 Y47.164 Z-0.282
N4965 X23.834 Z-0.283
N4970 X23.913 Y47.162 Z-0.288
N4975 X23.995 Y47.157 Z-0.291
N4980 X24.066 Y47.149 Z-0.295
N4985 X24.213 Y47.125 Z-0.306
N4990 X24.262 Y47.112 Z-0.309
N4995 X24.354 Y47.08 Z-0.322
N5000 X24.488 Y47.026 Z-0.34
N5005 X24.594 Y46.967 Z-0.356
N5010 X24.693 Y46.905 Z-0.37
N5015 X24.78 Y46.831 Z-0.386
N5020 X24.866 Y46.745 Z-0.403
N5025 X24.921 Y46.677 Z-0.414
N5030 X24.973 Y46.604 Z-0.423
N5035 X25.018 Y46.527 Z-0.428
N5040 X25.054 Y46.447 Z-0.435
N5045 X25.08 Y46.364 Z-0.44
N5050 X25.103 Y46.279 Z-0.441
N5055 X25.115 Y46.191
N5060 X25.123 Y46.086 Z-0.438
N5065 Y46.039 Z-0.435
N5070 X25.12 Y45.975 Z-0.434
N5075 X25.107 Y45.871 Z-0.431
N5080 X25.078 Y45.748 Z-0.416
N5085 X25.05 Y45.664 Z-0.405
N5090 X25.024 Y45.609 Z-0.394
N5095 X24.985 Y45.532 Z-0.381
N5100 X24.945 Y45.466 Z-0.37
N5105 X24.897 Y45.395 Z-0.36
N5110 X24.858 Y45.345 Z-0.353
N5115 X24.802 Y45.279 Z-0.345
N5120 X24.769 Y45.244 Z-0.341
N5125 X24.662 Y45.134 Z-0.333
N5130 X24.646 Y45.115 Z-0.334
N5135 X24.612 Y45.074 Z-0.338
N5140 X24.591 Y45.05 Z-0.344
N5145 X24.566 Y45.019 Z-0.355
N5150 X24.528 Y44.971 Z-0.375
N5155 X24.493 Y44.919 Z-0.4
N5160 X24.439 Y44.828 Z-0.449
N5165 X24.401 Y44.825 Z-0.434
N5170 X24.248 Y44.811 Z-0.382
N5175 X24.222 Y44.807 Z-0.374
N5180 X24.118 Y44.799 Z-0.349
N5185 X23.906 Y44.785 Z-0.318
N5190 X23.845 Y44.783 Z-0.315
N5195 X23.683 Y44.771 Z-0.314
N5200 X23.527 Y44.766 Z-0.319
N5205 X23.445 Y44.761 Z-0.321
N5210 X23.401 Y44.756 Z-0.319
N5215 X23.351 Y44.748 Z-0.306
N5220 X23.345 Y44.743 Z-0.3
N5225 X23.315 Y44.721 Z-0.267
N5230 X23.345 Y44.743 Z-0.3
N5235 X23.351 Y44.748 Z-0.306
N5240 X23.321 Y44.769 Z-0.273
N5245 X23.351 Y44.748 Z-0.306
N5250 X23.401 Y44.756 Z-0.319
N5255 X23.445 Y44.761 Z-0.321
N5260 X23.527 Y44.766 Z-0.319
N5265 X23.683 Y44.771 Z-0.314
N5270 X23.845 Y44.783 Z-0.315
N5275 X23.906 Y44.785 Z-0.318
N5280 X24.118 Y44.799 Z-0.349
N5285 X24.222 Y44.807 Z-0.374
N5290 X24.248 Y44.811 Z-0.382
N5295 X24.401 Y44.825 Z-0.434
N5300 X24.439 Y44.828 Z-0.449
N5305 X24.472 Y44.783 Z-0.419
N5310 X24.505 Y44.74 Z-0.393
N5315 X24.54 Y44.7 Z-0.371
N5320 X24.58 Y44.655 Z-0.35
N5325 X24.615 Y44.618 Z-0.337
N5330 X24.651 Y44.584 Z-0.326
N5335 X24.682 Y44.556 Z-0.321
N5340 X24.736 Y44.513 Z-0.318
N5345 X24.766 Y44.491 Z-0.319
N5350 X24.843 Y44.439 Z-0.323
N5355 X24.898 Y44.398 Z-0.329
N5360 X24.95 Y44.352 Z-0.34
N5365 X24.998 Y44.306 Z-0.353
N5370 X25.121 Y44.169 Z-0.378
N5375 X25.183 Y44.091 Z-0.394
N5380 X25.224 Y44.029 Z-0.405
N5385 X25.272 Y43.946 Z-0.417
N5390 X25.31 Y43.86 Z-0.428
N5395 X25.342 Y43.774 Z-0.438
N5400 X25.363 Y43.687 Z-0.445
N5405 X25.381 Y43.598 Z-0.45
N5410 X25.39 Y43.507 Z-0.453
N5415 X25.396 Y43.403 Z-0.451
N5420 X25.391 Y43.284 Z-0.449
N5425 X25.377 Y43.16 Z-0.445
N5430 X25.35 Y43.037 Z-0.438
N5435 X25.335 Y42.98 Z-0.433
N5440 X25.315 Y42.913 Z-0.429
N5445 X25.262 Y42.79 Z-0.421
N5450 X25.22 Y42.708 Z-0.413
N5455 X25.2 Y42.671 Z-0.411
N5460 X25.126 Y42.557 Z-0.396
N5465 X25.092 Y42.514 Z-0.391
N5470 X25.038 Y42.449 Z-0.385
N5475 X24.971 Y42.38 Z-0.374
N5480 X24.929 Y42.339 Z-0.37
N5485 X24.873 Y42.289 Z-0.361
N5490 X24.811 Y42.238 Z-0.355
N5495 X24.665 Y42.144 Z-0.339
N5500 X24.54 Y42.075 Z-0.328
N5505 X24.485 Y42.052 Z-0.323
N5510 X24.331 Y41.997 Z-0.312
N5515 X24.195 Y41.959 Z-0.305
N5520 X24.149 Y41.951 Z-0.303
N5525 X23.989 Y41.929 Z-0.298
N5530 X23.811 Y41.92 Z-0.296
N5535 X23.637 Y41.932 Z-0.299
N5540 X23.57 Y41.941
N5545 X23.446 Y41.962 Z-0.302
N5550 X23.345 Y41.991 Z-0.303
N5555 X23.286 Y42.011 Z-0.307
N5560 X23.153 Y42.069 Z-0.316
N5565 X23.126 Y42.082 Z-0.32
N5570 X23.034 Y42.137 Z-0.327
N5575 X22.996 Y42.161 Z-0.332
N5580 X22.873 Y42.248 Z-0.343
N5585 X22.83 Y42.285 Z-0.346
N5590 X22.766 Y42.35 Z-0.357
N5595 X22.671 Y42.456 Z-0.373
N5600 X22.612 Y42.534 Z-0.377
N5605 X22.517 Y42.668 Z-0.389
N5610 X22.453 Y42.775 Z-0.391
N5615 X22.404 Y42.873 Z-0.394
N5620 X22.338 Y43.03 Z-0.389
N5625 X22.32 Y43.086 Z-0.384
N5630 X22.309 Y43.131 Z-0.378
N5635 X22.306 Y43.153 Z-0.373
N5640 X22.307 Y43.159 Z-0.369
N5645 X22.314 Y43.181 Z-0.355
N5650 X22.325 Y43.201 Z-0.338
N5655 X22.351 Y43.241 Z-0.298
N5660 X22.379 Y43.272 Z-0.258
N5665 X22.577 Y43.443 Z0.
N5670 Z5.
N5675 X19.701 Y42.1
N5680 Z-0.463 F100.
N5685 X19.717 Y42.111 Z-0.481 F500.
N5690 X19.737 Y42.128 Z-0.502
N5695 X19.73 Y42.136 Z-0.494
N5700 X19.728 Y42.14 Z-0.49
N5705 X19.716 Y42.169 Z-0.46
N5710 X19.728 Y42.14 Z-0.49
N5715 X19.73 Y42.136 Z-0.494
N5720 X19.71 Y42.145 Z-0.473
N5725 X19.73 Y42.136 Z-0.494
N5730 X19.737 Y42.128 Z-0.502
N5735 X19.738
N5740 X19.744 Y42.144 Z-0.485
N5745 X19.738 Y42.128 Z-0.502
N5750 Z-0.501
N5755 X19.755 Y42.111 Z-0.484
N5760 X19.766 Y42.103 Z-0.472
N5765 X19.755 Y42.111 Z-0.484
N5770 X19.738 Y42.128 Z-0.501
N5775 X19.777 Y42.146 Z-0.461
N5780 Z5.
N5785 X3.716 Y31.234
N5790 Z0. F100.
N5795 X4.012 Y31.528 Z-0.408 F500.
N5800 X4.076 Y31.592 Z-0.492
N5805 X4.113 Y31.629 Z-0.535
N5810 X4.119 Y31.624 Z-0.532
N5815 X4.168 Y31.596 Z-0.505
N5820 X4.217 Y31.57 Z-0.482
N5825 X4.292 Y31.537 Z-0.449
N5830 X4.367 Y31.51 Z-0.422
N5835 X4.442 Y31.489 Z-0.402
N5840 X4.517 Y31.474 Z-0.387
N5845 X4.592 Y31.465 Z-0.378
N5850 X4.667 Y31.462 Z-0.375
N5855 X7.439 Y31.456
N5860 X7.513 Y31.455 Z-0.371
N5865 X7.543 Z-0.366
N5870 X7.557 Z-0.36
N5875 X7.594 Y31.481 Z-0.319
N5880 X7.557 Y31.455 Z-0.36
N5885 X7.573 Y31.444 Z-0.343
N5890 X7.599 Y31.427 Z-0.315
N5895 X7.61 Y31.416 Z-0.3
N5900 X7.809 Y31.187 Z0.
N5905 X7.61 Y31.416 Z-0.3
N5910 X7.599 Y31.427 Z-0.315
N5915 X7.573 Y31.444 Z-0.343
N5920 X7.557 Y31.455 Z-0.36
N5925 X7.543 Z-0.366
N5930 X7.513 Z-0.371
N5935 X7.439 Y31.456 Z-0.375
N5940 X4.667 Y31.462
N5945 X4.592 Y31.465 Z-0.378
N5950 X4.517 Y31.474 Z-0.387
N5955 X4.442 Y31.489 Z-0.402
N5960 X4.367 Y31.51 Z-0.422
N5965 X4.292 Y31.537 Z-0.449
N5970 X4.217 Y31.57 Z-0.482
N5975 X4.168 Y31.596 Z-0.505
N5980 X4.119 Y31.624 Z-0.532
N5985 X4.113 Y31.629 Z-0.535
N5990 X4.111 Y31.636 Z-0.534
N5995 X4.098 Y31.685 Z-0.523
N6000 X4.088 Y31.734 Z-0.515
N6005 X4.078 Y31.802 Z-0.505
N6010 X4.073 Y31.87 Z-0.5
N6015 X4.071 Y31.938 Z-0.498
N6020 X4.075 Y33.616
N6025 X4.078 Y33.706 Z-0.501
N6030 X4.089 Y33.796 Z-0.511
N6035 X4.106 Y33.887 Z-0.528
N6040 X4.13 Y33.977 Z-0.552
N6045 X4.161 Y34.067 Z-0.583
N6050 X4.247 Y34.066 Z-0.52
N6055 X4.324 Z-0.47
N6060 X4.393 Z-0.431
N6065 X4.457 Z-0.4
N6070 X4.515 Z-0.378
N6075 X4.57 Z-0.363
N6080 X4.622 Z-0.354
N6085 X4.673 Y34.065 Z-0.351
N6090 X7.141 Y34.06
N6095 X7.213 Z-0.347
N6100 X7.242 Z-0.342
N6105 X7.256 Z-0.337
N6110 X7.276 Y34.074 Z-0.316
N6115 X7.3 Y34.09 Z-0.29
N6120 X7.276 Y34.074 Z-0.316
N6125 X7.256 Y34.06 Z-0.337
N6130 X7.289 Y34.036 Z-0.3
N6135 X7.256 Y34.06 Z-0.337
N6140 X7.242 Z-0.342
N6145 X7.213 Z-0.347
N6150 X7.141 Z-0.351
N6155 X4.673 Y34.065
N6160 X4.622 Y34.066 Z-0.354
N6165 X4.57 Z-0.363
N6170 X4.515 Z-0.378
N6175 X4.457 Z-0.4
N6180 X4.393 Z-0.431
N6185 X4.324 Z-0.47
N6190 X4.247 Z-0.52
N6195 X4.161 Y34.067 Z-0.583
N6200 X4.13 Y34.157 Z-0.552
N6205 X4.107 Y34.247 Z-0.528
N6210 X4.09 Y34.337 Z-0.511
N6215 X4.08 Y34.427 Z-0.501
N6220 X4.077 Y34.518 Z-0.498
N6225 X4.08 Y35.966
N6230 X4.083 Y36.05 Z-0.501
N6235 X4.092 Y36.133 Z-0.509
N6240 X4.104 Y36.193 Z-0.517
N6245 X4.119 Y36.252 Z-0.528
N6250 X4.113 Y36.258 Z-0.52
N6255 X3.984 Y36.388 Z-0.36
N6260 X4.113 Y36.258 Z-0.52
N6265 X4.119 Y36.252 Z-0.528
N6270 X4.177 Y36.288 Z-0.495
N6275 X4.236 Y36.32 Z-0.467
N6280 X4.31 Y36.353 Z-0.435
N6285 X4.384 Y36.379 Z-0.408
N6290 X4.457 Y36.4 Z-0.387
N6295 X4.531 Y36.414 Z-0.373
N6300 X4.605 Y36.423 Z-0.364
N6305 X4.679 Y36.426 Z-0.361
N6310 X7.36 Y36.42
N6315 X7.436 Y36.419 Z-0.357
N6320 X7.469 Z-0.352
N6325 X7.487 Z-0.345
N6330 X7.526 Y36.392 Z-0.302
N6335 X7.487 Y36.419 Z-0.345
N6340 X7.502 Y36.43 Z-0.329
N6345 X7.528 Y36.448 Z-0.3
N6350 X7.543 Y36.462 Z-0.28
N6355 X7.729 Y36.676 Z0.
N6360 Z5.
N6365 X3.434 Y26.786
N6370 Z-0.327 F100.
N6375 X3.462 Y26.805 Z-0.357 F500.
N6380 X3.477 Y26.817 Z-0.374
N6385 X3.435 Y26.846 Z-0.328
N6390 X3.477 Y26.817 Z-0.374
N6395 X3.498 Z-0.382
N6400 X3.534 Z-0.389
N6405 X3.616 Z-0.393
N6410 X4.908 Y26.814
N6415 X4.993 Y26.811 Z-0.397
N6420 X5.078 Y26.799 Z-0.408
N6425 X5.163 Y26.781 Z-0.426
N6430 X5.248 Y26.755 Z-0.452
N6435 X5.333 Y26.722 Z-0.485
N6440 X5.418 Y26.681 Z-0.525
N6445 X5.503 Y26.633 Z-0.573
N6450 X5.588 Y26.681 Z-0.525
N6455 X5.674 Y26.721 Z-0.485
N6460 X5.759 Y26.754 Z-0.452
N6465 X5.844 Y26.779 Z-0.426
N6470 X5.929 Y26.797 Z-0.408
N6475 X6.014 Y26.808 Z-0.397
N6480 X6.099 Y26.812 Z-0.393
N6485 X7.391 Y26.809
N6490 X7.475 Z-0.389
N6495 X7.512 Z-0.383
N6500 X7.54 Z-0.372
N6505 X7.548 Y26.803 Z-0.364
N6510 X7.582 Y26.78 Z-0.327
N6515 X7.548 Y26.803 Z-0.364
N6520 X7.54 Y26.809 Z-0.372
N6525 X7.577 Y26.834 Z-0.332
N6530 X7.54 Y26.809 Z-0.372
N6535 X7.512 Z-0.383
N6540 X7.475 Z-0.389
N6545 X7.391 Z-0.393
N6550 X6.099 Y26.812
N6555 X6.014 Y26.808 Z-0.397
N6560 X5.929 Y26.797 Z-0.408
N6565 X5.844 Y26.779 Z-0.426
N6570 X5.759 Y26.754 Z-0.452
N6575 X5.674 Y26.721 Z-0.485
N6580 X5.588 Y26.681 Z-0.525
N6585 X5.503 Y26.633 Z-0.573
N6590 Y26.537 Z-0.534
N6595 Y26.456 Z-0.511
N6600 Y26.386 Z-0.499
N6605 Y26.32 Z-0.496
N6610 X5.493 Y22.049
N6615 Y21.95 Z-0.491
N6620 Y21.908 Z-0.483
N6625 Y21.883 Z-0.473
N6630 X5.465 Y21.841 Z-0.428
N6635 X5.449 Y21.824 Z-0.405
N6640 X5.14 Y21.555 Z0.
N6645 X5.449 Y21.824 Z-0.405
N6650 X5.465 Y21.841 Z-0.428
N6655 X5.493 Y21.883 Z-0.473
N6660 X5.496 Y21.878 Z-0.469
N6665 X5.528 Y21.832 Z-0.419
N6670 X5.545 Y21.814 Z-0.394
N6675 X5.845 Y21.551 Z-0.001
N6680 Z5.
N6685 X3.651 Y12.978
N6690 Z0. F100.
N6695 X4.087 Y13.412 Z-0.436 F500.
N6700 X4.163 Y13.373 Z-0.396
N6705 X4.239 Y13.34 Z-0.364
N6710 X4.316 Y13.315 Z-0.339
N6715 X4.392 Y13.297 Z-0.321
N6720 X4.468 Y13.286 Z-0.31
N6725 X4.544 Y13.282 Z-0.307
N6730 X6.621 Y13.277
N6735 X6.927 Y12.97 Z0.
N6740 X6.621 Y13.277 Z-0.307
N6745 X6.928 Y13.583 Z0.
N6750 X6.621 Y13.277 Z-0.307
N6755 X4.544 Y13.282
N6760 X4.468 Y13.286 Z-0.31
N6765 X4.392 Y13.297 Z-0.321
N6770 X4.316 Y13.315 Z-0.339
N6775 X4.239 Y13.34 Z-0.364
N6780 X4.163 Y13.373 Z-0.396
N6785 X4.087 Y13.412 Z-0.436
N6790 X4.07 Y13.482 Z-0.419
N6795 X4.058 Y13.551 Z-0.406
N6800 X4.051 Y13.62 Z-0.399
N6805 X4.049 Y13.69 Z-0.397
N6810 X4.053 Y15.567
N6815 X4.056 Y15.647 Z-0.4
N6820 X4.066 Y15.727 Z-0.41
N6825 X4.082 Y15.807 Z-0.426
N6830 X4.105 Y15.887 Z-0.448
N6835 X4.134 Y15.967 Z-0.477
N6840 X4.206 Y15.966 Z-0.428
N6845 X4.269 Z-0.389
N6850 X4.326 Z-0.359
N6855 X4.377 Z-0.336
N6860 X4.424 Z-0.32
N6865 X4.468 Z-0.308
N6870 X4.51 Z-0.302
N6875 X6.067 Y15.962 Z-0.3
N6880 X6.367 Y16.261 Z0.
N6885 X6.067 Y15.962 Z-0.3
N6890 X6.366 Y15.662 Z0.
N6895 X6.067 Y15.962 Z-0.3
N6900 X4.51 Y15.966 Z-0.302
N6905 X4.468 Z-0.308
N6910 X4.424 Z-0.32
N6915 X4.377 Z-0.336
N6920 X4.326 Z-0.359
N6925 X4.269 Z-0.389
N6930 X4.206 Z-0.428
N6935 X4.134 Y15.967 Z-0.477
N6940 X4.105 Y16.047 Z-0.448
N6945 X4.083 Y16.127 Z-0.426
N6950 X4.067 Y16.207 Z-0.41
N6955 X4.058 Y16.287 Z-0.4
N6960 X4.055 Y16.367 Z-0.397
N6965 X4.059 Y18.081
N6970 X4.063 Y18.169 Z-0.401
N6975 X4.074 Y18.257 Z-0.412
N6980 X4.094 Y18.345 Z-0.432
N6985 X3.664 Y18.777 Z0.
N6990 X4.094 Y18.345 Z-0.432
N6995 X4.171 Y18.386 Z-0.391
N7000 X4.248 Y18.419 Z-0.357
N7005 X4.325 Y18.445 Z-0.331
N7010 X4.402 Y18.463 Z-0.313
N7015 X4.479 Y18.474 Z-0.302
N7020 X4.556 Y18.478 Z-0.298
N7025 X6.602 Y18.473
N7030 X6.899 Y18.175 Z0.
N7035 X6.602 Y18.473 Z-0.298
N7040 X6.9 Y18.77 Z0.
N7045 Z5.
N7050 X3.857 Y9.695
N7055 Z0. F100.
N7060 X4.18 Y10.016 Z-0.322 F500.
N7065 X3.859 Y10.338 Z0.
N7070 X4.18 Y10.016 Z-0.322
N7075 X5.09 Y10.014
N7080 X5.161 Y10.011 Z-0.325
N7085 X5.232 Y10.002 Z-0.334
N7090 X5.302 Y9.986 Z-0.349
N7095 X5.373 Y9.965 Z-0.37
N7100 X5.444 Y9.938 Z-0.397
N7105 X5.515 Y9.905 Z-0.429
N7110 X5.586 Y9.867 Z-0.468
N7115 X5.657 Y9.905 Z-0.429
N7120 X5.728 Y9.938 Z-0.397
N7125 X5.799 Y9.964 Z-0.37
N7130 X5.87 Y9.985 Z-0.349
N7135 X5.941 Y10. Z-0.334
N7140 X6.012 Y10.009 Z-0.325
N7145 X6.083 Y10.012 Z-0.322
N7150 X7.002 Y10.009
N7155 X7.323 Y9.687 Z0.
N7160 X7.002 Y10.009 Z-0.322
N7165 X7.324 Y10.33 Z0.
N7170 X7.002 Y10.009 Z-0.322
N7175 X6.083 Y10.012
N7180 X6.012 Y10.009 Z-0.325
N7185 X5.941 Y10. Z-0.334
N7190 X5.87 Y9.985 Z-0.349
N7195 X5.799 Y9.964 Z-0.37
N7200 X5.728 Y9.938 Z-0.397
N7205 X5.657 Y9.905 Z-0.429
N7210 X5.586 Y9.867 Z-0.468
N7215 Y9.78 Z-0.431
N7220 Y9.709 Z-0.411
N7225 Y9.647 Z-0.4
N7230 X5.585 Y9.591 Z-0.397
N7235 X5.575 Y4.931
N7240 X5.97 Y4.534 Z0.
N7245 X5.575 Y4.931 Z-0.397
N7250 X5.178 Y4.536 Z0.
N7255 Z15.
(WHEN USING FUSION 360 FOR PERSONAL USE, THE FEEDRATE OF)
(RAPID MOVES IS REDUCED TO MATCH THE FEEDRATE OF CUTTING)
(MOVES, WHICH CAN INCREASE MACHINING TIME. UNRESTRICTED RAPID)
(MOVES ARE AVAILABLE WITH A FUSION 360 SUBSCRIPTION.)
(ENGRAVE 0.3)
N7260 G0 X10.807 Y13.1
N7265 G1 Z15. F500.
N7270 Z5.
N7275 Z0. F100.
N7280 X11.23 Y13.391 Z-0.291 F500.
N7285 X11.434 Y13.101 Z-0.001
N7290 X11.23 Y13.391 Z-0.291
N7295 X11.813 Y14.952 Z-0.275
N7300 X11.838 Y15.011 Z-0.278
N7305 X11.869 Y15.068 Z-0.286
N7310 X11.905 Y15.123 Z-0.3
N7315 G2 X12.084 Y15.209 I0.258 J-0.305
N7320 X12.002 Y15.376 I0.309 J0.255
N7325 G1 X11.905 Y15.123
N7330 X12.002 Y15.376
N7335 X12.011 Y15.451 Z-0.282
N7340 X12.027 Y15.523 Z-0.27
N7345 X12.049 Y15.592 Z-0.266
N7350 X12.713 Y17.342 Z-0.259
N7355 X12.905 Y17.884 Z-0.243
N7360 X13.091 Y18.479 Z-0.204
N7365 X13.119 Y18.542 Z-0.208
N7370 X13.155 Y18.603 Z-0.22
N7375 X13.199 Y18.66 Z-0.24
N7380 X13.034 Y18.9 Z0.
N7385 X13.199 Y18.66 Z-0.24
N7390 X13.257 Y18.674 Z-0.226
N7395 X13.316 Y18.682 Z-0.218
N7400 X13.375 Y18.685 Z-0.215
N7405 X13.445 Y18.681 Z-0.219
N7410 X13.515 Y18.669 Z-0.231
N7415 X13.585 Y18.65 Z-0.25
N7420 X13.753 Y18.899 Z-0.001
N7425 X13.585 Y18.65 Z-0.25
N7430 X13.621 Y18.599 Z-0.237
N7435 X13.651 Y18.547 Z-0.229
N7440 X13.685 Y18.469 Z-0.226
N7445 X13.908 Y17.857 Z-0.252
N7450 X14.142 Y17.252 Z-0.265
N7455 X14.791 Y15.601 Z-0.29
N7460 X14.81 Y15.546 Z-0.293
N7465 X14.826 Y15.489 Z-0.3
N7470 X15.019 Y15.016
N7475 G3 X14.737 Y15.212 I-0.347 J-0.199
N7480 G1 X14.672 Y15.187 Z-0.27
N7485 X14.611 Y15.167 Z-0.25
N7490 X14.549 Y15.152 Z-0.235
N7495 X14.488 Y15.143 Z-0.226
N7500 X14.426 Y15.141 Z-0.223
N7505 X12.392
N7510 X12.335 Y15.143 Z-0.226
N7515 X12.278 Y15.151 Z-0.233
N7520 X12.22 Y15.163 Z-0.246
N7525 X12.163 Y15.181 Z-0.264
N7530 X12.13 Y15.193 Z-0.277
N7535 X12.085 Y15.209 Z-0.3
N7540 X12.13 Y15.193 Z-0.277
N7545 X12.163 Y15.181 Z-0.264
N7550 X12.22 Y15.163 Z-0.246
N7555 X12.278 Y15.151 Z-0.233
N7560 X12.335 Y15.143 Z-0.226
N7565 X12.392 Y15.141 Z-0.223
N7570 X14.426
N7575 X14.488 Y15.143 Z-0.226
N7580 X14.549 Y15.152 Z-0.235
N7585 X14.611 Y15.167 Z-0.25
N7590 X14.672 Y15.187 Z-0.27
N7595 X14.737 Y15.212 Z-0.3
N7600 G3 X14.826 Y15.489 I-0.311 J0.252
N7605 G2 X14.737 Y15.212 I-0.399 J-0.025
N7610 X15.019 Y15.016 I-0.065 J-0.395
N7615 G1 X15.044 Y14.96 Z-0.298
N7620 X15.104 Y14.809 Z-0.3
N7625 X15.68 Y13.4
N7630 X15.646
N7635 X15.441 Y13.1 Z0.
N7640 X15.646 Y13.4 Z-0.3
N7645 X15.104 Y14.809
N7650 Z5.
N7655 X15.682 Y13.399
N7660 Z-0.299 F100.
N7665 X16.127 Y13.1 Z0. F500.
N7670 Z5.
N7675 X17.256
N7680 Z0. F100.
N7685 X17.556 Y13.4 Z-0.3 F500.
N7690 X17.694
N7695 X17.758 Y13.38 Z-0.28
N7700 X17.822 Y13.366 Z-0.266
N7705 X17.886 Y13.357 Z-0.257
N7710 X17.949 Y13.354 Z-0.254
N7715 X19.44
N7720 X19.672 Y13.358 Z-0.253
N7725 X19.719 Y13.36 Z-0.252
N7730 X19.895 Y13.373 Z-0.254
N7735 X20.016 Y13.387 Z-0.251
N7740 X20.07 Y13.396 Z-0.252
N7745 X20.309 Y13.448 Z-0.26
N7750 X20.325 Y13.451 Z-0.261
N7755 X20.467 Y13.503 Z-0.27
N7760 X20.6 Y13.56 Z-0.276
N7765 X20.672 Y13.6 Z-0.278
N7770 X20.723 Y13.633 Z-0.283
N7775 X20.767 Y13.663 Z-0.286
N7780 X20.83 Y13.71 Z-0.292
N7785 X20.884 Y13.76 Z-0.293
N7790 X20.922 Y13.798 Z-0.295
N7795 X20.999 Y13.891 Z-0.3
N7800 X21.005 Y13.897
N7805 X21.079 Y14.007
N7810 X21.146 Y14.128
N7815 X21.206 Y14.277
N7820 X21.252 Y14.426
N7825 X21.275 Y14.58
N7830 X21.285 Y14.735
N7835 X21.268 Y14.935
N7840 X21.254 Y15.021
N7845 X21.235 Y15.097
N7850 X21.207 Y15.169
N7855 X21.194 Y15.195
N7860 Y15.194
N7865 X21.216 Y15.119
N7870 X21.245 Y14.969
N7875 X21.25 Y14.925
N7880 X21.262 Y14.77
N7885 X21.263 Y14.715
N7890 X21.255 Y14.584
N7895 X21.251 Y14.548
N7900 X21.232 Y14.419
N7905 X21.217 Y14.358
N7910 X21.178 Y14.234
N7915 X21.164 Y14.198
N7920 X21.113 Y14.077
N7925 X21.084 Y14.021
N7930 X21.023 Y13.924
N7935 X21.002 Y13.894
N7940 X20.999 Y13.891
N7945 X21.002 Y13.894
N7950 X21.023 Y13.924
N7955 X21.084 Y14.021
N7960 X21.113 Y14.077
N7965 X21.164 Y14.198
N7970 X21.178 Y14.234
N7975 X21.217 Y14.358
N7980 X21.232 Y14.419
N7985 X21.251 Y14.548
N7990 X21.255 Y14.584
N7995 X21.263 Y14.715
N8000 X21.262 Y14.77
N8005 X21.25 Y14.925
N8010 X21.245 Y14.969
N8015 X21.216 Y15.119
N8020 X21.194 Y15.194
N8025 Y15.195
N8030 X21.171 Y15.247 Z-0.298
N8035 X21.107 Y15.372 Z-0.288
N8040 X21.085 Y15.411 Z-0.287
N8045 X20.994 Y15.532 Z-0.268
N8050 X20.963 Y15.567 Z-0.265
N8055 X20.896 Y15.634 Z-0.259
N8060 X20.826 Y15.697 Z-0.249
N8065 X20.756 Y15.747 Z-0.24
N8070 X20.671 Y15.802 Z-0.226
N8075 X20.644 Y15.815 Z-0.222
N8080 X20.475 Y15.894 Z-0.208
N8085 X20.436 Y15.91 Z-0.207
N8090 X20.387 Y15.934 Z-0.21
N8095 X20.319 Y15.975 Z-0.222
N8100 X20.288 Y15.996 Z-0.233
N8105 X20.228 Y16.039 Z-0.263
N8110 X20.17 Y16.091 Z-0.3
N8115 X20.086 Y16.109
N8120 X20.06 Y16.114
N8125 X19.951 Y16.131
N8130 X19.839 Z-0.282
N8135 X19.804 Z-0.278
N8140 X19.638 Y16.126 Z-0.263
N8145 X19.564 Y16.127 Z-0.26
N8150 X19.247 Y16.125 Z-0.254
N8155 X17.913 Z-0.256
N8160 X17.873 Z-0.262
N8165 X17.825 Z-0.275
N8170 X17.763 Z-0.3
N8175 G3 X17.556 Y15.84 I0.186 J-0.354
N8180 G1 X17.552 Y15.771 Z-0.297
N8185 Y13.708
N8190 X17.556 Y13.639 Z-0.3
N8195 G3 X17.694 Y13.4 I0.394 J0.069
N8200 G2 X17.556 Y13.639 I0.255 J0.308
N8205 G1 Y13.4
N8210 Y13.639
N8215 X17.552 Y13.708 Z-0.297
N8220 Y15.771
N8225 X17.556 Y15.84 Z-0.3
N8230 Y16.41
N8235 G3 X17.763 Y16.125 I0.394 J0.069
N8240 G2 X17.556 Y16.41 I0.186 J0.354
N8245 G1 X17.552 Y16.479 Z-0.297
N8250 Y18.292
N8255 X17.556 Y18.361 Z-0.3
N8260 Y18.6
N8265 X17.256 Y18.9 Z0.
N8270 X17.556 Y18.6 Z-0.3
N8275 X17.694
N8280 G3 X17.556 Y18.361 I0.255 J-0.308
N8285 G2 X17.694 Y18.6 I0.394 J-0.069
N8290 G1 X17.758 Y18.62 Z-0.28
N8295 X17.822 Y18.635 Z-0.266
N8300 X17.886 Y18.643 Z-0.257
N8305 X17.949 Y18.646 Z-0.254
N8310 X19.158
N8315 X19.401 Y18.643 Z-0.257
N8320 X19.666 Y18.634 Z-0.258
N8325 X19.91 Y18.606 Z-0.262
N8330 X20.169 Y18.55 Z-0.258
N8335 X20.202 Y18.538 Z-0.259
N8340 X20.371 Y18.473 Z-0.269
N8345 X20.509 Y18.394 Z-0.272
N8350 X20.553 Y18.36 Z-0.274
N8355 X20.629 Y18.298 Z-0.281
N8360 X20.686 Y18.238
N8365 X20.735 Y18.182 Z-0.284
N8370 X20.776 Y18.129
N8375 X20.83 Y18.048 Z-0.289
N8380 X20.901 Y17.907 Z-0.292
N8385 X20.955 Y17.765 Z-0.294
N8390 X20.967 Y17.713 Z-0.293
N8395 X20.985 Y17.617 Z-0.294
N8400 X20.995 Y17.538 Z-0.292
N8405 X21.001 Y17.464 Z-0.293
N8410 X20.998 Y17.345 Z-0.285
N8415 X20.997 Y17.328
N8420 X20.979 Y17.193 Z-0.277
N8425 X20.972 Y17.164 Z-0.273
N8430 X20.933 Y17.032 Z-0.259
N8435 X20.906 Y16.965 Z-0.252
N8440 X20.89 Y16.929 Z-0.25
N8445 X20.819 Y16.807 Z-0.232
N8450 X20.806 Y16.789 Z-0.231
N8455 X20.707 Y16.658 Z-0.211
N8460 X20.682 Y16.635 Z-0.207
N8465 X20.576 Y16.543 Z-0.194
N8470 X20.546 Y16.521 Z-0.19
N8475 X20.407 Y16.426 Z-0.178
N8480 X20.385 Y16.412 Z-0.179
N8485 X20.347 Y16.385 Z-0.185
N8490 X20.311 Y16.356 Z-0.195
N8495 X20.276 Y16.322 Z-0.209
N8500 X20.249 Y16.294 Z-0.224
N8505 X20.202 Y16.24 Z-0.258
N8510 X20.157 Y16.178 Z-0.3
N8515 X20.161 Y16.134
N8520 X20.17 Y16.091
N8525 X20.161 Y16.134
N8530 X20.157 Y16.178
N8535 X20.144 Y16.174
N8540 X20.078 Y16.155
N8545 X19.951 Y16.131
N8550 Z5.
N8555 X27.31 Y17.288
N8560 Z0. F100.
N8565 X27.454 Y17.557 Z-0.229 F500.
N8570 X27.493 Y17.636 Z-0.297
N8575 X27.577 Y17.595 Z-0.237
N8580 X27.895 Y17.426 Z0.
N8585 X27.577 Y17.595 Z-0.237
N8590 X27.493 Y17.636 Z-0.297
N8595 X27.447 Y17.734 Z-0.295
N8600 X27.432 Y17.762 Z-0.294
N8605 X27.38 Y17.855 Z-0.293
N8610 X27.337 Y17.918 Z-0.289
N8615 X27.293 Y17.98 Z-0.288
N8620 X27.229 Y18.059 Z-0.283
N8625 X27.189 Y18.104 Z-0.282
N8630 X27.112 Y18.185 Z-0.276
N8635 X26.95 Y18.343 Z-0.273
N8640 X26.861 Y18.409 Z-0.259
N8645 X26.819 Y18.435 Z-0.258
N8650 X26.656 Y18.528
N8655 X26.561 Y18.577 Z-0.254
N8660 X26.505 Y18.603
N8665 X26.408 Y18.643 Z-0.25
N8670 X26.355 Y18.661
N8675 X26.246 Y18.692 Z-0.245
N8680 X26.198 Y18.704 Z-0.246
N8685 X26.088 Y18.724 Z-0.242
N8690 X26.027 Y18.733
N8695 X25.934 Y18.742 Z-0.239
N8700 X25.659 Y18.762
N8705 X25.62 Y18.76 Z-0.238
N8710 X25.29 Y18.737 Z-0.237
N8715 X25.111 Y18.711
N8720 X24.964 Y18.678 Z-0.238
N8725 X24.929 Y18.668
N8730 X24.837 Y18.639 Z-0.24
N8735 X24.757 Y18.61 Z-0.239
N8740 X24.682 Y18.579 Z-0.242
N8745 X24.594 Y18.539
N8750 X24.376 Y18.432 Z-0.252
N8755 X24.292 Y18.379 Z-0.248
N8760 X24.257 Y18.354 Z-0.249
N8765 X24.107 Y18.238 Z-0.261
N8770 X23.987 Y18.136 Z-0.266
N8775 X23.882 Y18.031 Z-0.271
N8780 X23.776 Y17.903 Z-0.273
N8785 X23.68 Y17.76 Z-0.277
N8790 X23.597 Y17.614 Z-0.284
N8795 X23.537 Y17.501 Z-0.293
N8800 X23.457 Y17.307 Z-0.291
N8805 X23.405 Y17.153 Z-0.3
N8810 X23.403 Y17.149
N8815 X23.345 Y16.973
N8820 X23.3 Y16.8
N8825 X23.269 Y16.623
N8830 X23.249 Y16.437
N8835 X23.228 Y16.046
N8840 X23.25 Y15.664
N8845 X23.269 Y15.479
N8850 X23.297 Y15.302
N8855 X23.338 Y15.127
N8860 X23.347 Y15.096
N8865 X23.305 Y15.282
N8870 X23.297 Y15.328
N8875 X23.262 Y15.666
N8880 X23.26 Y15.692
N8885 X23.246 Y16.033
N8890 Y16.069
N8895 X23.261 Y16.362
N8900 X23.263 Y16.387
N8905 X23.295 Y16.677
N8910 X23.302 Y16.717
N8915 X23.364 Y17.003
N8920 X23.369 Y17.027
N8925 X23.405 Y17.153
N8930 X23.369 Y17.027
N8935 X23.364 Y17.003
N8940 X23.302 Y16.717
N8945 X23.295 Y16.677
N8950 X23.263 Y16.387
N8955 X23.261 Y16.362
N8960 X23.246 Y16.069
N8965 Y16.033
N8970 X23.26 Y15.692
N8975 X23.262 Y15.666
N8980 X23.297 Y15.328
N8985 X23.305 Y15.282
N8990 X23.347 Y15.096
N8995 X23.392 Y14.925 Z-0.294
N9000 X23.502 Y14.589 Z-0.288
N9005 X23.523 Y14.544 Z-0.285
N9010 X23.663 Y14.266 Z-0.282
N9015 X23.735 Y14.147 Z-0.281
N9020 X23.754 Y14.118 Z-0.28
N9025 X23.836 Y14.007 Z-0.278
N9030 X23.865 Y13.973 Z-0.277
N9035 X23.913 Y13.92
N9040 X23.985 Y13.848 Z-0.274
N9045 X24.024 Y13.812
N9050 X24.112 Y13.737 Z-0.272
N9055 X24.271 Y13.611 Z-0.275
N9060 X24.339 Y13.569 Z-0.266
N9065 X24.402 Y13.535 Z-0.262
N9070 X24.587 Y13.445 Z-0.261
N9075 X24.666 Y13.41 Z-0.258
N9080 X24.79 Y13.362 Z-0.255
N9085 X24.816 Y13.353 Z-0.254
N9090 X24.943 Y13.315 Z-0.25
N9095 X24.976 Y13.308 Z-0.249
N9100 X25.105 Y13.282 Z-0.245
N9105 X25.132 Y13.278
N9110 X25.285 Y13.259 Z-0.242
N9115 X25.564 Y13.24 Z-0.238
N9120 X25.642 Z-0.241
N9125 X25.945 Y13.266 Z-0.243
N9130 X26.033 Y13.277 Z-0.247
N9135 X26.128 Y13.293 Z-0.248
N9140 X26.212 Y13.311 Z-0.252
N9145 X26.315 Y13.34 Z-0.254
N9150 X26.376 Y13.36 Z-0.259
N9155 X26.49 Y13.406 Z-0.261
N9160 X26.532 Y13.425 Z-0.264
N9165 X26.652 Y13.488 Z-0.266
N9170 X26.689 Y13.509 Z-0.268
N9175 X26.953 Y13.677 Z-0.273
N9180 X26.995 Y13.71 Z-0.279
N9185 X27.256 Y13.99 Z-0.288
N9190 X27.37 Y14.136 Z-0.292
N9195 X27.472 Y14.296 Z-0.296
N9200 X27.551 Y14.458 Z-0.299
N9205 X27.565 Y14.49
N9210 X27.585 Y14.543 Z-0.3
N9215 X27.616 Y14.618
N9220 X27.617 Y14.621
N9225 X28.002 Y14.832 Z-0.001
N9230 X27.617 Y14.621 Z-0.3
N9235 X27.613
N9240 X27.585 Y14.543
N9245 X27.613 Y14.621
N9250 X27.578 Y14.687 Z-0.245
N9255 X27.407 Y14.983 Z0.
N9260 Z5.
N9265 X26.393 Y31.311
N9270 Z-0.3 F100.
N9275 X26.149 Y31.3 F500.
N9280 X25.762 Y31.318
N9285 X25.385 Y31.379
N9290 X25.236 Y31.421
N9295 X25.088 Y31.471
N9300 X24.947 Y31.535
N9305 X24.811 Y31.607
N9310 X24.683 Y31.694
N9315 X24.559 Y31.79
N9320 X24.446 Y31.899
N9325 X24.34 Y32.012
N9330 X24.15 Y32.271
N9335 X23.994 Y32.551
N9340 X23.867 Y32.866
N9345 X23.777 Y33.196
N9350 X23.721 Y33.565
N9355 X23.703 Y33.943
N9360 X23.716 Y34.238
N9365 X23.746 Y34.525
N9370 X23.807 Y34.806
N9375 X23.887 Y35.081
N9380 X23.985 Y35.306
N9385 X24.098 Y35.521
N9390 X24.238 Y35.717
N9395 X24.393 Y35.904
N9400 X24.565 Y36.06
N9405 X24.748 Y36.202
N9410 X24.948 Y36.318
N9415 X25.159 Y36.419
N9420 X25.391 Y36.496
N9425 X25.627 Y36.555
N9430 X25.868 Y36.586
N9435 X26.115 Y36.599
N9440 X26.412 Y36.582
N9445 X26.552 Y36.566
N9450 X26.685 Y36.543
N9455 X26.813 Y36.509
N9460 X26.945 Y36.464
N9465 X27.215 Y36.354
N9470 X27.42 Y36.236
N9475 X27.615 Y36.099
N9480 X27.691 Y36.031
N9485 X27.77 Y35.95
N9490 X27.927 Y35.769
N9495 X28.016 Y35.628
N9500 X28.088 Y35.482
N9505 X28.106 Y35.426
N9510 X28.122 Y35.356
N9515 X28.143 Y35.208
N9520 X28.141 Y35.188
N9525 X28.135 Y35.168
N9530 X28.125 Y35.149
N9535 X28.107 Y35.125
N9540 X28.088 Y35.108
N9545 X28.078 Y35.103
N9550 X28.068 Y35.1
N9555 X28.036 Y35.096
N9560 X28.005 Y35.097
N9565 X27.987 Y35.101
N9570 X27.979 Y35.104
N9575 X27.897 Y35.206
N9580 X27.798 Y35.377
N9585 X27.796 Y35.381
N9590 X27.685 Y35.568
N9595 X27.667 Y35.596
N9600 X27.542 Y35.771
N9605 X27.504 Y35.817
N9610 X27.355 Y35.971
N9615 X27.327 Y35.997
N9620 X27.162 Y36.137
N9625 X27.127 Y36.164
N9630 X27.089 Y36.187
N9635 X26.906 Y36.283
N9640 X26.863 Y36.303
N9645 X26.673 Y36.375
N9650 X26.599 Y36.395
N9655 X26.399 Y36.431
N9660 X26.357 Y36.436
N9665 X26.15 Y36.449
N9670 X26.075 Y36.447
N9675 X25.735 Y36.405
N9680 X25.693 Y36.398
N9685 X25.531 Y36.361
N9690 X25.481 Y36.345
N9695 X25.328 Y36.288
N9700 X25.268 Y36.259
N9705 X25.127 Y36.177
N9710 X25.082 Y36.147
N9715 X24.951 Y36.045
N9720 X24.918 Y36.017
N9725 X24.672 Y35.778
N9730 G3 X24.6 Y35.683 I0.278 J-0.287
N9735 G1 X24.397 Y35.313
N9740 X24.382 Y35.283
N9745 X24.298 Y35.092
N9750 X24.284 Y35.054
N9755 X24.22 Y34.858
N9760 X24.209 Y34.815
N9765 X24.168 Y34.612
N9770 X24.162 Y34.579
N9775 X24.138 Y34.371
N9780 X24.135 Y34.344
N9785 X24.115 Y33.921
N9790 X24.114 Y33.887
N9795 X24.125 Y33.594
N9800 X24.127 Y33.567
N9805 X24.156 Y33.278
N9810 X24.164 Y33.229
N9815 X24.229 Y32.946
N9820 X24.238 Y32.915
N9825 X24.326 Y32.636
N9830 X24.351 Y32.576
N9835 X24.452 Y32.376
N9840 X24.473 Y32.339
N9845 X24.593 Y32.154
N9850 X24.641 Y32.094
N9855 X24.794 Y31.937
N9860 X24.829 Y31.905
N9865 X25.002 Y31.764
N9870 X25.038 Y31.738
N9875 X25.075 Y31.717
N9880 X25.271 Y31.619
N9885 X25.312 Y31.601
N9890 X25.514 Y31.526
N9895 X25.584 Y31.508
N9900 X25.796 Y31.47
N9905 X25.837 Y31.465
N9910 X26.055 Y31.45
N9915 X26.112
N9920 X26.344 Y31.467
N9925 X26.389 Y31.472
N9930 X26.613 Y31.514
N9935 X26.672 Y31.53
N9940 X26.779 Y31.567
N9945 X26.814 Y31.581
N9950 X26.918 Y31.629
N9955 X26.945 Y31.642
N9960 X27.148 Y31.754
N9965 X27.188 Y31.779
N9970 X27.224 Y31.809
N9975 X27.398 Y31.968
N9980 X27.419 Y31.988
N9985 X27.499 Y32.073
N9990 X27.523 Y32.1
N9995 X27.594 Y32.19
N10000 X27.627 Y32.238
N10005 X27.743 Y32.439
N10010 X27.762 Y32.477
N10015 X27.858 Y32.693
N10020 X27.864 Y32.707
N10025 X27.93 Y32.875
N10030 X27.991 Y32.975
N10035 X27.992 Y32.976
N10040 X27.993
N10045 X28.001 Y32.978
N10050 X28.035 Y32.981
N10055 X28.071 Y32.977
N10060 X28.09 Y32.972
N10065 X28.107 Y32.962
N10070 X28.127 Y32.946
N10075 X28.143 Y32.926
N10080 X28.152 Y32.911
N10085 X28.157 Y32.893
N10090 X28.161 Y32.858
N10095 X28.152 Y32.756
N10100 X28.133 Y32.641
N10105 X28.1 Y32.529
N10110 X28.057 Y32.415
N10115 X27.985 Y32.274
N10120 X27.903 Y32.138
N10125 X27.806 Y32.011
N10130 X27.701 Y31.89
N10135 X27.559 Y31.761
N10140 X27.41 Y31.646
N10145 X27.246 Y31.551
N10150 X27.075 Y31.468
N10155 X26.853 Y31.394
N10160 X26.626 Y31.338
N10165 X26.393 Y31.311
N10170 Z5.
N10175 X17.543 Y31.247
N10180 Z0. F100.
N10185 X17.763 Y31.46 Z-0.3 F500.
N10190 X17.788 Y31.443
N10195 X17.846 Y31.417
N10200 X17.917 Y31.405
N10205 X18.035 Y31.4
N10210 X19.824
N10215 X20.216 Y31.409
N10220 X20.591 Y31.443
N10225 X20.862 Y31.494
N10230 X21.106 Y31.574
N10235 X21.255 Y31.656
N10240 X21.391 Y31.751
N10245 X21.506 Y31.871
N10250 X21.611 Y32.006
N10255 X21.693 Y32.165
N10260 X21.755 Y32.327
N10265 X21.787 Y32.499
N10270 X21.8 Y32.662
N10275 X21.765 Y32.857
N10280 X21.712 Y33.076
N10285 X21.684 Y33.162
N10290 X21.652 Y33.238
N10295 X21.617 Y33.301
N10300 X21.579 Y33.354
N10305 X21.532 Y33.403
N10310 X21.478 Y33.448
N10315 X21.313 Y33.555
N10320 X21.113 Y33.655
N10325 X20.914 Y33.741
N10330 X20.859 Y33.771 Z-0.296
N10335 X20.805 Y33.8 Z-0.3
N10340 X20.613 Y33.882
N10345 X20.585 Y33.893
N10350 X20.471 Y33.932
N10355 X20.438 Y33.942
N10360 X20.321 Y33.972
N10365 X20.272 Y33.981
N10370 X20.033 Y34.009
N10375 X19.997 Y34.012
N10380 X19.753 Y34.02
N10385 X19.741
N10390 X18.497
N10395 G3 X18.097 Y33.62 I0. J-0.4
N10400 G1 Y31.897
N10405 G3 X18.497 Y31.497 I0.4 J0.
N10410 G1 X19.781
N10415 X19.8 Y31.498
N10420 X20.031 Y31.509
N10425 X20.053 Y31.51
N10430 X20.275 Y31.533
N10435 X20.323 Y31.541
N10440 X20.526 Y31.586
N10445 X20.582 Y31.603
N10450 X20.673 Y31.638
N10455 X20.721 Y31.66
N10460 X20.805 Y31.706
N10465 X20.858 Y31.74
N10470 X20.932 Y31.797
N10475 X20.982 Y31.844
N10480 X21.046 Y31.913
N10485 X21.083 Y31.96
N10490 X21.137 Y32.041
N10495 X21.16 Y32.08
N10500 X21.207 Y32.17
N10505 X21.226 Y32.212
N10510 X21.302 Y32.413
N10515 X21.312 Y32.441
N10520 X21.376 Y32.657
N10525 G3 X21.39 Y32.811 I-0.383 J0.114
N10530 G1 X21.371 Y33.003
N10535 X21.364 Y33.046
N10540 X21.345 Y33.137
N10545 X21.329 Y33.19
N10550 X21.298 Y33.275
N10555 X21.267 Y33.342
N10560 X21.221 Y33.42
N10565 X21.184 Y33.471
N10570 X21.126 Y33.542
N10575 X21.092 Y33.578
N10580 X20.953 Y33.709
N10585 X20.914 Y33.741
N10590 X20.953 Y33.709
N10595 X21.092 Y33.578
N10600 X21.126 Y33.542
N10605 X21.184 Y33.471
N10610 X21.221 Y33.42
N10615 X21.267 Y33.342
N10620 X21.298 Y33.275
N10625 X21.329 Y33.19
N10630 X21.345 Y33.137
N10635 X21.364 Y33.046
N10640 X21.371 Y33.003
N10645 X21.39 Y32.811
N10650 G2 X21.376 Y32.657 I-0.398 J-0.04
N10655 G1 X21.312 Y32.441
N10660 X21.302 Y32.413
N10665 X21.226 Y32.212
N10670 X21.207 Y32.17
N10675 X21.16 Y32.08
N10680 X21.137 Y32.041
N10685 X21.083 Y31.96
N10690 X21.046 Y31.913
N10695 X20.982 Y31.844
N10700 X20.932 Y31.797
N10705 X20.858 Y31.74
N10710 X20.805 Y31.706
N10715 X20.721 Y31.66
N10720 X20.673 Y31.638
N10725 X20.582 Y31.603
N10730 X20.526 Y31.586
N10735 X20.323 Y31.541
N10740 X20.275 Y31.533
N10745 X20.053 Y31.51
N10750 X20.031 Y31.509
N10755 X19.8 Y31.498
N10760 X19.781 Y31.497
N10765 X18.497
N10770 G2 X18.097 Y31.897 I0. J0.4
N10775 G1 Y33.62
N10780 G2 X18.497 Y34.02 I0.4 J0.
N10785 G1 X19.741
N10790 X19.753
N10795 X19.997 Y34.012
N10800 X20.033 Y34.009
N10805 X20.272 Y33.981
N10810 X20.321 Y33.972
N10815 X20.438 Y33.942
N10820 X20.471 Y33.932
N10825 X20.585 Y33.893
N10830 X20.613 Y33.882
N10835 X20.805 Y33.8
N10840 G2 X20.707 Y34.344 I0.236 J0.323
N10845 G1 X20.749 Y34.385 Z-0.292
N10850 X20.77 Y34.404 Z-0.291
N10855 X20.836 Y34.464 Z-0.298
N10860 X20.844 Y34.471 Z-0.3
N10865 X20.879 Y34.509
N10870 X20.913 Y34.553
N10875 X20.985 Y34.658
N10880 X21.015 Y34.71
N10885 X21.058 Y34.8
N10890 X21.074 Y34.838
N10895 X21.107 Y34.93
N10900 X21.119 Y34.973
N10905 X21.127 Y35.016
N10910 X21.152 Y35.212
N10915 X21.155 Y35.256
N10920 X21.153 Y35.299
N10925 X21.136 Y35.483
N10930 X21.128 Y35.531
N10935 X21.109 Y35.617
N10940 X21.091 Y35.676
N10945 X21.061 Y35.755
N10950 X21.043 Y35.794
N10955 X21.022 Y35.83
N10960 X20.976 Y35.901
N10965 X20.929 Y35.959
N10970 X20.869 Y36.021
N10975 X20.826 Y36.06
N10980 X20.681 Y36.172
N10985 G3 X20.553 Y36.238 I-0.245 J-0.316
N10990 G1 X20.317 Y36.31
N10995 X20.282 Y36.319
N11000 X20.042 Y36.369
N11005 X19.993 Y36.376
N11010 X19.748 Y36.396
N11015 X19.722 Y36.398
N11020 X19.474 Y36.402
N11025 X19.467
N11030 X18.497
N11035 G3 X18.097 Y36.002 I0. J-0.4
N11040 G1 Y34.477
N11045 G3 X18.497 Y34.077 I0.4 J0.
N11050 G1 X19.592
N11055 X19.609
N11060 X19.958 Y34.092
N11065 X20.007 Y34.097
N11070 X20.178 Y34.126
N11075 X20.205 Y34.132
N11080 X20.375 Y34.172
N11085 X20.416 Y34.185
N11090 X20.456 Y34.201
N11095 X20.571 Y34.257
N11100 X20.62 Y34.285
N11105 X20.707 Y34.344
N11110 X20.62 Y34.285
N11115 X20.571 Y34.257
N11120 X20.456 Y34.201
N11125 X20.416 Y34.185
N11130 X20.375 Y34.172
N11135 X20.205 Y34.132
N11140 X20.178 Y34.126
N11145 X20.007 Y34.097
N11150 X19.958 Y34.092
N11155 X19.609 Y34.077
N11160 X19.592
N11165 X18.497
N11170 G2 X18.097 Y34.477 I0. J0.4
N11175 G1 Y36.002
N11180 G2 X18.497 Y36.402 I0.4 J0.
N11185 G1 X19.467
N11190 X19.474
N11195 X19.722 Y36.398
N11200 X19.748 Y36.396
N11205 X19.993 Y36.376
N11210 X20.042 Y36.369
N11215 X20.282 Y36.319
N11220 X20.317 Y36.31
N11225 X20.553 Y36.238
N11230 G2 X20.681 Y36.172 I-0.116 J-0.383
N11235 G1 X20.826 Y36.06
N11240 X20.869 Y36.021
N11245 X20.929 Y35.959
N11250 X20.976 Y35.901
N11255 X21.022 Y35.83
N11260 X21.043 Y35.794
N11265 X21.061 Y35.755
N11270 X21.091 Y35.676
N11275 X21.109 Y35.617
N11280 X21.128 Y35.531
N11285 X21.136 Y35.483
N11290 X21.153 Y35.299
N11295 X21.155 Y35.256
N11300 X21.152 Y35.212
N11305 X21.127 Y35.016
N11310 X21.119 Y34.973
N11315 X21.107 Y34.93
N11320 X21.074 Y34.838
N11325 X21.058 Y34.8
N11330 X21.015 Y34.71
N11335 X20.985 Y34.658
N11340 X20.913 Y34.553
N11345 X20.879 Y34.509
N11350 X20.844 Y34.471
N11355 X21.013 Y34.572
N11360 X21.164 Y34.673
N11365 X21.281 Y34.77
N11370 X21.367 Y34.869
N11375 X21.39 Y34.906
N11380 X21.413 Y34.954
N11385 X21.462 Y35.103
N11390 X21.499 Y35.277
N11395 X21.523 Y35.433
N11400 X21.509 Y35.598
N11405 X21.464 Y35.77
N11410 X21.39 Y35.928
N11415 X21.288 Y36.072
N11420 X21.163 Y36.198
N11425 X21.016 Y36.304
N11430 X20.922 Y36.353
N11435 X20.821 Y36.396
N11440 X20.716 Y36.427
N11445 X20.604 Y36.452
N11450 X20.277 Y36.489
N11455 X19.932 Y36.499
N11460 X18.035
N11465 X17.919 Y36.494
N11470 X17.847 Y36.482
N11475 X17.789 Y36.456
N11480 X17.763 Y36.44
N11485 X17.546 Y36.656 Z0.
N11490 X17.763 Y36.44 Z-0.3
N11495 X17.746 Y36.412
N11500 X17.719 Y36.352
N11505 X17.707 Y36.278
N11510 X17.702 Y36.159
N11515 Y31.741
N11520 X17.707 Y31.624
N11525 X17.72 Y31.549
N11530 X17.746 Y31.487
N11535 X17.763 Y31.46
N11540 Z5.
N11545 X15.729 Y31.445
N11550 Z-0.3 F100.
N11555 X15.716 Y31.533 F500.
N11560 X15.687 Y31.652
N11565 X15.58 Y31.932
N11570 X14.041 Y35.735
N11575 X14.039 Y35.739
N11580 X13.865 Y36.183
N11585 X13.802 Y36.316
N11590 X13.736 Y36.424
N11595 X13.669 Y36.5
N11600 X13.593 Y36.555
N11605 X13.552 Y36.572
N11610 X13.509 Y36.585
N11615 X13.374 Y36.598
N11620 X13.241 Y36.585
N11625 X13.199 Y36.572
N11630 X13.159 Y36.555
N11635 X13.084 Y36.501
N11640 X13.02 Y36.426
N11645 X12.942 Y36.291
N11650 X12.868 Y36.121
N11655 X12.716 Y35.732
N11660 X12.715 Y35.731
N11665 X11.208 Y31.903
N11670 X11.085 Y31.571
N11675 X11.068 Y31.501
N11680 X11.064 Y31.451
N11685 X11.068 Y31.422
N11690 X11.073 Y31.404
N11695 X11.085 Y31.386
N11700 X11.11 Y31.356
N11705 X11.145 Y31.329
N11710 X11.172 Y31.314
N11715 X11.2 Y31.306
N11720 X11.243 Y31.301
N11725 X11.282 Y31.304
N11730 X11.294 Y31.307
N11735 X11.298 Y31.309
N11740 X11.411 Y31.515
N11745 X11.523 Y31.796
N11750 X11.803 Y32.548
N11755 G2 X12.178 Y32.808 I0.375 J-0.14
N11760 G1 X14.577
N11765 G2 X14.95 Y32.551 I0. J-0.4
N11770 G1 X15.229 Y31.818
N11775 X15.358 Y31.517
N11780 X15.409 Y31.409
N11785 X15.455 Y31.337
N11790 X15.47 Y31.322
N11795 X15.483 Y31.313
N11800 X15.509 Y31.305
N11805 X15.545 Y31.301
N11810 X15.59 Y31.307
N11815 X15.62 Y31.315
N11820 X15.647 Y31.33
N11825 X15.683 Y31.359
N11830 X15.708 Y31.388
N11835 X15.721 Y31.409
N11840 X15.727 Y31.43
N11845 X15.729 Y31.445
N11850 Z5.
N11855 X14.503 Y32.992
N11860 Z-0.3 F100.
N11865 G2 X14.255 Y32.906 I-0.248 J0.313 F500.
N11870 G1 X12.492
N11875 G2 X12.116 Y33.441 I0. J0.4
N11880 G1 X12.989 Y35.875
N11885 G2 X13.741 Y35.878 I0.377 J-0.135
N11890 G1 X14.63 Y33.443
N11895 G2 X14.503 Y32.992 I-0.376 J-0.137
N11900 G1 Z15.
(WHEN USING FUSION 360 FOR PERSONAL USE, THE FEEDRATE OF)
(RAPID MOVES IS REDUCED TO MATCH THE FEEDRATE OF CUTTING)
(MOVES, WHICH CAN INCREASE MACHINING TIME. UNRESTRICTED RAPID)
(MOVES ARE AVAILABLE WITH A FUSION 360 SUBSCRIPTION.)
(ENGRAVE 0.6)
N11905 G0 X31.799 Y31.176
N11910 G1 Z15. F500.
N11915 Z5.
N11920 Z0. F100.
N11925 X32.153 Y31.341 Z-0.387 F500.
N11930 X32.165 Y31.345 Z-0.4
N11935 X32.211 Y31.363 Z-0.446
N11940 X32.214 Y31.364 Z-0.449
N11945 X32.219 Y31.339 Z-0.432
N11950 X32.245 Y31.284 Z-0.383
N11955 X32.277 Y31.234 Z-0.331
N11960 X32.29 Y31.216 Z-0.31
N11965 X32.277 Y31.234 Z-0.331
N11970 X32.245 Y31.284 Z-0.383
N11975 X32.219 Y31.339 Z-0.432
N11980 X32.214 Y31.364 Z-0.449
N11985 X32.218 Y31.376 Z-0.451
N11990 X32.236 Y31.425 Z-0.458
N11995 X32.263 Y31.484 Z-0.463
N12000 X32.368 Y31.755 Z-0.466
N12005 X32.658 Y32.513 Z-0.459
N12010 X32.695 Y32.597 Z-0.463
N12015 X32.739 Y32.678 Z-0.474
N12020 X32.79 Y32.756 Z-0.493
N12025 X32.848 Y32.831 Z-0.519
N12030 X32.913 Y32.904 Z-0.553
N12035 X32.996 Y32.875 Z-0.496
N12040 X33.065 Y32.851 Z-0.455
N12045 X33.124 Y32.831 Z-0.425
N12050 X33.178 Y32.812 Z-0.404
N12055 X33.257 Y32.787 Z-0.38
N12060 X33.335 Y32.77 Z-0.362
N12065 X33.414 Y32.76 Z-0.352
N12070 X33.492 Y32.757 Z-0.349
N12075 X35.255
N12080 X35.335 Y32.76 Z-0.352
N12085 X35.416 Y32.771 Z-0.363
N12090 X35.496 Y32.789 Z-0.381
N12095 X35.576 Y32.814 Z-0.406
N12100 X35.634 Y32.835 Z-0.43
N12105 X35.696 Y32.857 Z-0.462
N12110 X35.767 Y32.883 Z-0.506
N12115 X35.854 Y32.914 Z-0.567
N12120 X35.919 Y32.842 Z-0.534
N12125 X35.977 Y32.766 Z-0.509
N12130 X36.028 Y32.688 Z-0.49
N12135 X36.073 Y32.607 Z-0.48
N12140 X36.115 Y32.513 Z-0.476
N12145 X36.409 Y31.764 Z-0.484
N12150 X36.519 Y31.489 Z-0.477
N12155 X36.562 Y31.369 Z-0.461
N12160 X36.583 Y31.36 Z-0.442
N12165 X36.639 Y31.346 Z-0.389
N12170 X36.661 Y31.344 Z-0.367
N12175 X37.032 Y31.346 Z-0.001
N12180 X36.661 Y31.344 Z-0.367
N12185 X36.639 Y31.346 Z-0.389
N12190 X36.583 Y31.36 Z-0.442
N12195 X36.562 Y31.369 Z-0.461
N12200 X36.56 Y31.358 Z-0.454
N12205 X36.561 Y31.355 Z-0.451
N12210 X36.56 Y31.358 Z-0.454
N12215 X36.543 Y31.323 Z-0.421
N12220 X36.51 Y31.271 Z-0.363
N12225 X36.543 Y31.323 Z-0.421
N12230 X36.56 Y31.358 Z-0.454
N12235 X36.562 Y31.369 Z-0.461
N12240 X36.519 Y31.489 Z-0.477
N12245 X36.409 Y31.764 Z-0.484
N12250 X36.115 Y32.513 Z-0.476
N12255 X36.073 Y32.607 Z-0.48
N12260 X36.028 Y32.688 Z-0.49
N12265 X35.977 Y32.766 Z-0.509
N12270 X35.919 Y32.842 Z-0.534
N12275 X35.854 Y32.914 Z-0.567
N12280 X35.855 Y33. Z-0.534
N12285 X35.85 Y33.083 Z-0.508
N12290 X35.84 Y33.165 Z-0.486
N12295 X35.824 Y33.244 Z-0.471
N12300 X35.803 Y33.321 Z-0.461
N12305 X35.778 Y33.396 Z-0.457
N12310 X34.843 Y35.827 Z-0.413
N12315 X34.813 Y35.896 Z-0.416
N12320 X34.778 Y35.963 Z-0.424
N12325 X34.738 Y36.028 Z-0.438
N12330 X34.697 Y36.082 Z-0.452
N12335 X34.651 Y36.134 Z-0.471
N12340 X34.614 Y36.169 Z-0.485
N12345 X34.574 Y36.203 Z-0.501
N12350 X34.522 Y36.237 Z-0.518
N12355 X34.474 Y36.258 Z-0.527
N12360 X34.464 Y36.26 Z-0.528
N12365 X34.374 Y36.268
N12370 X34.277 Y36.259 Z-0.526
N12375 X34.271 Y36.258 Z-0.525
N12380 X34.23 Y36.241 Z-0.516
N12385 X34.183 Y36.21 Z-0.499
N12390 X34.131 Y36.166 Z-0.476
N12395 X34.083 Y36.12 Z-0.457
N12400 X34.025 Y36.049 Z-0.432
N12405 X33.974 Y35.976 Z-0.415
N12410 X33.933 Y35.9 Z-0.405
N12415 X33.894 Y35.809 Z-0.401
N12420 X33.812 Y35.592 Z-0.404
N12425 X32.983 Y33.388 Z-0.441
N12430 X32.958 Y33.313 Z-0.445
N12435 X32.938 Y33.235 Z-0.455
N12440 X32.924 Y33.156 Z-0.47
N12445 X32.915 Y33.074 Z-0.492
N12450 X32.911 Y32.99 Z-0.519
N12455 X32.913 Y32.904 Z-0.553
N12460 Z5.
N12465 X38.642 Y31.146
N12470 Z0. F100.
N12475 X38.937 Y31.432 Z-0.402 F500.
N12480 X38.998 Y31.493 Z-0.482
N12485 X39.033 Y31.529 Z-0.524
N12490 X39.04 Y31.524 Z-0.52
N12495 X39.089 Y31.493 Z-0.492
N12500 X39.138 Y31.465 Z-0.466
N12505 X39.214 Y31.429 Z-0.43
N12510 X39.291 Y31.4 Z-0.401
N12515 X39.367 Y31.377 Z-0.378
N12520 X39.444 Y31.361 Z-0.362
N12525 X39.52 Y31.351 Z-0.352
N12530 X39.597 Y31.348 Z-0.349
N12535 X40.923 Y31.349
N12540 X41.158 Y31.358 Z-0.352
N12545 X41.312 Y31.367 Z-0.358
N12550 X41.436 Y31.381 Z-0.361
N12555 X41.68 Y31.42 Z-0.378
N12560 X41.805 Y31.455 Z-0.389
N12565 X41.867 Y31.474 Z-0.397
N12570 X41.957 Y31.508 Z-0.411
N12575 X42.031 Y31.544 Z-0.421
N12580 X42.147 Y31.606 Z-0.444
N12585 X42.194 Y31.64 Z-0.452
N12590 X42.269 Y31.699 Z-0.467
N12595 X42.367 Y31.795 Z-0.489
N12600 X42.397 Y31.832 Z-0.493
N12605 X42.451 Y31.904 Z-0.504
N12610 X42.525 Y32.024 Z-0.518
N12615 X42.585 Y32.157 Z-0.527
N12620 X42.634 Y32.289 Z-0.528
N12625 X42.668 Y32.428 Z-0.521
N12630 X42.689 Y32.551 Z-0.509
N12635 X42.687 Y32.635 Z-0.496
N12640 X42.677 Y32.729 Z-0.489
N12645 X42.643 Y32.928 Z-0.475
N12650 X42.625 Y33.001 Z-0.47
N12655 X42.603 Y33.07 Z-0.462
N12660 X42.584 Y33.117 Z-0.456
N12665 X42.563 Y33.158 Z-0.449
N12670 X42.523 Y33.22 Z-0.433
N12675 X42.503 Y33.247 Z-0.425
N12680 X42.459 Y33.296 Z-0.408
N12685 X42.373 Y33.385 Z-0.38
N12690 X42.337 Y33.415 Z-0.369
N12695 X42.219 Y33.507 Z-0.34
N12700 X42.197 Y33.522 Z-0.336
N12705 X42.02 Y33.637 Z-0.301
N12710 X41.959 Y33.67 Z-0.296
N12715 X41.935 Y33.682 Z-0.297
N12720 X41.881 Y33.712 Z-0.303
N12725 X41.83 Y33.747 Z-0.315
N12730 X41.78 Y33.786 Z-0.33
N12735 X41.706 Y33.854 Z-0.365
N12740 X41.659 Y33.902 Z-0.395
N12745 X41.603 Y33.969 Z-0.44
N12750 X41.612 Y33.985 Z-0.429
N12755 X41.652 Y34.049 Z-0.389
N12760 X41.694 Y34.108 Z-0.354
N12765 X41.735 Y34.161 Z-0.328
N12770 X41.776 Y34.211 Z-0.31
N12775 X41.82 Y34.257 Z-0.297
N12780 X41.869 Y34.304 Z-0.291
N12785 X41.889 Y34.323 Z-0.292
N12790 X41.935 Y34.364 Z-0.298
N12795 X41.984 Y34.404 Z-0.308
N12800 X42.027 Y34.442 Z-0.318
N12805 X42.121 Y34.532 Z-0.345
N12810 X42.169 Y34.583 Z-0.361
N12815 X42.235 Y34.662 Z-0.387
N12820 X42.3 Y34.751 Z-0.415
N12825 X42.322 Y34.788 Z-0.422
N12830 X42.355 Y34.85 Z-0.438
N12835 X42.372 Y34.898 Z-0.446
N12840 X42.375 Y34.908 Z-0.448
N12845 X42.405 Y35.044 Z-0.461
N12850 X42.421 Y35.15 Z-0.467
N12855 X42.427 Y35.215 Z-0.475
N12860 X42.431 Y35.34 Z-0.491
N12865 X42.418 Y35.465 Z-0.493
N12870 X42.383 Y35.604 Z-0.491
N12875 X42.328 Y35.734 Z-0.486
N12880 X42.301 Y35.782 Z-0.481
N12885 X42.251 Y35.857 Z-0.478
N12890 X42.187 Y35.933 Z-0.469
N12895 X42.149 Y35.974 Z-0.467
N12900 X42.034 Y36.071 Z-0.455
N12905 X41.958 Y36.119 Z-0.447
N12910 X41.862 Y36.175 Z-0.432
N12915 X41.785 Y36.211 Z-0.42
N12920 X41.736 Y36.228 Z-0.414
N12925 X41.685 Y36.243 Z-0.41
N12930 X41.399 Y36.301 Z-0.384
N12935 X41.37 Y36.305 Z-0.383
N12940 X41.098 Y36.336 Z-0.361
N12945 X41.03 Y36.34 Z-0.359
N12950 X40.822 Y36.348 Z-0.351
N12955 X40.566 Y36.35 Z-0.349
N12960 X39.597
N12965 X39.52 Y36.347 Z-0.352
N12970 X39.444 Y36.337 Z-0.362
N12975 X39.367 Y36.321 Z-0.378
N12980 X39.291 Y36.298 Z-0.401
N12985 X39.215 Y36.269 Z-0.43
N12990 X39.138 Y36.233 Z-0.466
N12995 X39.09 Y36.206 Z-0.491
N13000 X39.032 Y36.169 Z-0.524
N13005 X39. Y36.201 Z-0.486
N13010 X38.937 Y36.265 Z-0.402
N13015 X38.645 Y36.555 Z0.
N13020 X38.937 Y36.265 Z-0.402
N13025 X39. Y36.201 Z-0.486
N13030 X39.032 Y36.169 Z-0.524
N13035 X39.028 Y36.154 Z-0.522
N13040 X39.017 Y36.104 Z-0.514
N13045 X39.009 Y36.054 Z-0.507
N13050 X39.001 Y35.978 Z-0.5
N13055 X38.999 Y35.902 Z-0.498
N13060 Y34.376
N13065 X39.002 Y34.291 Z-0.501
N13070 X39.011 Y34.205 Z-0.51
N13075 X39.027 Y34.119 Z-0.525
N13080 X39.048 Y34.033 Z-0.547
N13085 X39.076 Y33.948 Z-0.574
N13090 X39.048 Y33.862 Z-0.547
N13095 X39.027 Y33.776 Z-0.525
N13100 X39.011 Y33.691 Z-0.51
N13105 X39.002 Y33.605 Z-0.501
N13110 X38.999 Y33.519 Z-0.498
N13115 Y31.797
N13120 X39.001 Y31.721 Z-0.5
N13125 X39.009 Y31.645 Z-0.507
N13130 X39.017 Y31.596 Z-0.513
N13135 X39.028 Y31.546 Z-0.522
N13140 X39.033 Y31.529 Z-0.524
N13145 X39.028 Y31.546 Z-0.522
N13150 X39.017 Y31.596 Z-0.513
N13155 X39.009 Y31.645 Z-0.507
N13160 X39.001 Y31.721 Z-0.5
N13165 X38.999 Y31.797 Z-0.498
N13170 Y33.519
N13175 X39.002 Y33.605 Z-0.501
N13180 X39.011 Y33.691 Z-0.51
N13185 X39.027 Y33.776 Z-0.525
N13190 X39.048 Y33.862 Z-0.547
N13195 X39.076 Y33.948 Z-0.574
N13200 X39.164 Z-0.509
N13205 X39.243 Z-0.456
N13210 X39.314 Z-0.414
N13215 X39.378 Z-0.381
N13220 X39.437 Z-0.357
N13225 X39.492 Z-0.341
N13230 X39.545 Z-0.332
N13235 X39.597 Z-0.329
N13240 X40.691
N13245 X40.84 Y33.951 Z-0.332
N13250 X41.059 Y33.952 Z-0.34
N13255 X41.098 Y33.953 Z-0.342
N13260 X41.289 Y33.959 Z-0.368
N13265 X41.321 Y33.96 Z-0.373
N13270 X41.444 Y33.965 Z-0.397
N13275 X41.568 Y33.967 Z-0.428
N13280 X41.603 Y33.969 Z-0.44
N13285 Z5.
N13290 X48.975 Y34.778
N13295 Z-0.001 F100.
N13300 X49.169 Y34.992 Z-0.286 F500.
N13305 X49.194 Y35.024 Z-0.325
N13310 X49.232 Y35.094 Z-0.399
N13315 X49.233 Y35.097 Z-0.402
N13320 X49.239 Y35.087 Z-0.391
N13325 X49.257 Y35.046 Z-0.348
N13330 X49.401 Y34.726 Z0.
N13335 X49.257 Y35.046 Z-0.348
N13340 X49.239 Y35.087 Z-0.391
N13345 X49.233 Y35.097 Z-0.402
N13350 Y35.107 Z-0.408
N13355 X49.241 Y35.106 Z-0.4
N13360 X49.233 Y35.107 Z-0.408
N13365 X49.202 Y35.179 Z-0.428
N13370 X49.184 Y35.23 Z-0.439
N13375 X49.162 Y35.287 Z-0.448
N13380 X49.146 Y35.323 Z-0.452
N13385 X49.077 Y35.45 Z-0.457
N13390 X49.01 Y35.56 Z-0.456
N13395 X48.862 Y35.751 Z-0.445
N13400 X48.805 Y35.815 Z-0.442
N13405 X48.728 Y35.889 Z-0.439
N13410 X48.646 Y35.959 Z-0.428
N13415 X48.553 Y36.032 Z-0.421
N13420 X48.431 Y36.119 Z-0.408
N13425 X48.368 Y36.16 Z-0.404
N13430 X48.148 Y36.263 Z-0.391
N13435 X48.113 Y36.279 Z-0.39
N13440 X47.987 Y36.324 Z-0.387
N13445 X47.866 Y36.363 Z-0.381
N13450 X47.74 Y36.386 Z-0.38
N13455 X47.611 Y36.405 Z-0.376
N13460 X47.354 Y36.423 Z-0.374
N13465 X47.314 Y36.424
N13470 X47.075 Y36.404 Z-0.381
N13475 X46.924 Y36.385
N13480 X46.841 Y36.372 Z-0.384
N13485 X46.711 Y36.341 Z-0.383
N13490 X46.65 Y36.324 Z-0.384
N13495 X46.496 Y36.271 Z-0.389
N13500 X46.419 Y36.24 Z-0.394
N13505 X46.274 Y36.165 Z-0.402
N13510 X46.215 Y36.131 Z-0.407
N13515 X46.077 Y36.038 Z-0.419
N13520 X46.031 Y36.006 Z-0.425
N13525 X45.854 Y35.853 Z-0.439
N13530 X45.774 Y35.778 Z-0.44
N13535 X45.735 Y35.741 Z-0.443
N13540 X45.699 Y35.701 Z-0.447
N13545 X45.57 Y35.514 Z-0.468
N13550 X45.452 Y35.325 Z-0.481
N13555 X45.438 Y35.299
N13560 X45.352 Y35.125 Z-0.487
N13565 X45.327 Y35.067 Z-0.486
N13570 X45.268 Y34.915 Z-0.493
N13575 X45.237 Y34.816 Z-0.491
N13580 X45.196 Y34.657 Z-0.496
N13585 X45.174 Y34.551 Z-0.497
N13590 X45.146 Y34.392 Z-0.504
N13595 X45.135 Y34.295 Z-0.503
N13600 X45.121 Y34.122 Z-0.507
N13605 X45.109 Y33.843 Z-0.506
N13610 X45.122 Y33.487 Z-0.502
N13615 X45.163 Y33.158 Z-0.494
N13620 X45.166 Y33.135 Z-0.493
N13625 X45.242 Y32.825 Z-0.486
N13630 X45.349 Y32.525 Z-0.472
N13635 X45.405 Y32.402 Z-0.462
N13640 X45.483 Y32.256 Z-0.459
N13645 X45.514 Y32.206 Z-0.454
N13650 X45.651 Y32.004 Z-0.445
N13655 X45.703 Y31.94 Z-0.439
N13660 X45.734 Y31.905 Z-0.438
N13665 X45.847 Y31.793 Z-0.435
N13670 X45.9 Y31.745 Z-0.43
N13675 X45.947 Y31.705 Z-0.428
N13680 X46.073 Y31.611 Z-0.422
N13685 X46.129 Y31.574 Z-0.415
N13690 X46.195 Y31.534 Z-0.411
N13695 X46.327 Y31.47 Z-0.407
N13700 X46.426 Y31.429 Z-0.4
N13705 X46.464 Y31.414 Z-0.398
N13710 X46.603 Y31.369 Z-0.392
N13715 X46.684 Y31.347 Z-0.384
N13720 X46.769 Y31.329 Z-0.379
N13725 X46.97 Y31.295 Z-0.378
N13730 X47.249 Y31.277 Z-0.373
N13735 X47.317 Y31.275 Z-0.374
N13740 X47.549 Y31.287 Z-0.379
N13745 X47.585 Y31.29 Z-0.38
N13750 X47.81 Y31.324 Z-0.388
N13755 X47.856 Y31.334 Z-0.387
N13760 X48.009 Y31.379 Z-0.393
N13765 X48.159 Y31.436 Z-0.401
N13770 X48.233 Y31.468 Z-0.408
N13775 X48.392 Y31.55 Z-0.413
N13780 X48.458 Y31.59 Z-0.414
N13785 X48.54 Y31.648 Z-0.423
N13790 X48.674 Y31.76 Z-0.43
N13795 X48.797 Y31.879 Z-0.436
N13800 X48.897 Y31.998 Z-0.439
N13805 X48.948 Y32.067 Z-0.441
N13810 X48.982 Y32.119 Z-0.445
N13815 X49.056 Y32.244 Z-0.446
N13820 X49.068 Y32.266
N13825 X49.121 Y32.374 Z-0.447
N13830 X49.162 Y32.474 Z-0.444
N13835 X49.192 Y32.556 Z-0.439
N13840 X49.225 Y32.671 Z-0.427
N13845 X49.237 Y32.721 Z-0.42
N13850 X49.248 Y32.756 Z-0.411
N13855 X49.251 Y32.769 Z-0.407
N13860 X49.273 Y32.778 Z-0.384
N13865 X49.251 Y32.769 Z-0.407
N13870 X49.25 Y32.775 Z-0.403
N13875 X49.252 Y32.781 Z-0.397
N13880 X49.25 Y32.775 Z-0.403
N13885 X49.233 Y32.809 Z-0.371
N13890 X49.203 Y32.859 Z-0.319
N13895 X49.195 Y32.87 Z-0.306
N13900 X49.193 Y32.873 Z-0.303
N13905 X49.08 Y33.157 Z0.
N13910 Z5.
N13915 X48.495 Y17.188
N13920 Z0. F100.
N13925 X48.638 Y17.457 Z-0.229 F500.
N13930 X48.678 Y17.535 Z-0.297
N13935 X48.762 Y17.494 Z-0.237
N13940 X49.08 Y17.325 Z0.
N13945 X48.762 Y17.494 Z-0.237
N13950 X48.678 Y17.535 Z-0.297
N13955 X48.639 Y17.62 Z-0.296
N13960 X48.564 Y17.754 Z-0.293
N13965 X48.545 Y17.784 Z-0.291
N13970 X48.478 Y17.879 Z-0.288
N13975 X48.437 Y17.931 Z-0.284
N13980 X48.374 Y18.004 Z-0.282
N13985 X48.317 Y18.064 Z-0.277
N13990 X48.135 Y18.242 Z-0.273
N13995 X48.085 Y18.28 Z-0.264
N14000 X48.045 Y18.309 Z-0.259
N14005 X47.841 Y18.427 Z-0.258
N14010 X47.771 Y18.464 Z-0.255
N14015 X47.69 Y18.503 Z-0.254
N14020 X47.625 Y18.53 Z-0.251
N14025 X47.54 Y18.561 Z-0.25
N14030 X47.469 Y18.582 Z-0.246
N14035 X47.382 Y18.603
N14040 X47.303 Y18.618 Z-0.242
N14045 X47.212 Y18.632
N14050 X47.143 Y18.64 Z-0.239
N14055 X46.852 Y18.661
N14060 X46.498 Y18.639 Z-0.238
N14065 X46.333 Y18.617
N14070 X46.175 Y18.585 Z-0.239
N14075 X46.149 Y18.578 Z-0.238
N14080 X46.021 Y18.538 Z-0.24
N14085 X45.971 Y18.52 Z-0.239
N14090 X45.867 Y18.478 Z-0.242
N14095 X45.802 Y18.449
N14100 X45.561 Y18.331 Z-0.252
N14105 X45.476 Y18.278 Z-0.248
N14110 X45.292 Y18.137 Z-0.261
N14115 X45.2 Y18.06 Z-0.264
N14120 X45.099 Y17.964 Z-0.268
N14125 X45.075 Y17.94 Z-0.27
N14130 X44.986 Y17.835 Z-0.272
N14135 X44.882 Y17.688 Z-0.277
N14140 X44.795 Y17.538 Z-0.282
N14145 X44.722 Y17.401 Z-0.293
N14150 X44.662 Y17.258 Z-0.29
N14155 X44.588 Y17.048 Z-0.3
N14160 X44.551 Y16.927 Z-0.303
N14165 X44.544 Y16.903 Z-0.304
N14170 X44.494 Y16.698 Z-0.31
N14175 X44.479 Y16.619 Z-0.308
N14180 X44.472 Y16.577
N14185 X44.444 Y16.335 Z-0.31
N14190 X44.423 Y15.969 Z-0.309
N14195 X44.439 Y15.591 Z-0.306
N14200 X44.46 Y15.38
N14205 X44.48 Y15.227 Z-0.302
N14210 X44.524 Y15.026 Z-0.301
N14215 X44.569 Y14.852 Z-0.295
N14220 X44.683 Y14.5 Z-0.288
N14225 X44.686 Y14.489
N14230 X44.834 Y14.19 Z-0.282
N14235 X44.915 Y14.053 Z-0.281
N14240 X45.001 Y13.931 Z-0.28
N14245 X45.021 Y13.906 Z-0.278
N14250 X45.098 Y13.819 Z-0.277
N14255 X45.144 Y13.772 Z-0.274
N14260 X45.17 Y13.747
N14265 X45.274 Y13.655 Z-0.272
N14270 X45.456 Y13.511 Z-0.274
N14275 X45.524 Y13.469 Z-0.266
N14280 X45.587 Y13.434 Z-0.262
N14285 X45.772 Y13.344 Z-0.261
N14290 X45.83 Y13.318 Z-0.258
N14295 X45.934 Y13.276 Z-0.257
N14300 X45.975 Y13.261 Z-0.255
N14305 X46.096 Y13.223 Z-0.252
N14310 X46.128 Y13.215 Z-0.25
N14315 X46.266 Y13.185 Z-0.247
N14320 X46.446 Y13.16 Z-0.242
N14325 X46.739 Y13.14 Z-0.238
N14330 X46.749 Y13.139
N14335 X46.827 Z-0.241
N14340 X47.103 Y13.163 Z-0.242
N14345 X47.218 Y13.176 Z-0.246
N14350 X47.279 Y13.186 Z-0.247
N14355 X47.397 Y13.21 Z-0.252
N14360 X47.458 Y13.227 Z-0.253
N14365 X47.561 Y13.259 Z-0.259
N14370 X47.641 Y13.291 Z-0.26
N14375 X47.717 Y13.325 Z-0.264
N14380 X47.81 Y13.373 Z-0.265
N14385 X47.837 Y13.387 Z-0.266
N14390 X48.098 Y13.55 Z-0.271
N14395 X48.138 Y13.577 Z-0.273
N14400 X48.177 Y13.607 Z-0.279
N14405 X48.406 Y13.85 Z-0.285
N14410 X48.427 Y13.874 Z-0.286
N14415 X48.53 Y14.002 Z-0.29
N14420 X48.554 Y14.034 Z-0.292
N14425 X48.642 Y14.171 Z-0.295
N14430 X48.73 Y14.343 Z-0.299
N14435 X48.799 Y14.518 Z-0.302
N14440 Y14.519
N14445 X48.763 Y14.587 Z-0.245
N14450 X48.592 Y14.882 Z0.
N14455 X48.763 Y14.587 Z-0.245
N14460 X48.799 Y14.519 Z-0.302
N14465 X49.187 Y14.732 Z-0.001
N14470 Z5.
N14475 X38.348 Y13.
N14480 Z0. F100.
N14485 X38.69 Y13.341 Z-0.342 F500.
N14490 X38.76 Y13.31 Z-0.31
N14495 X38.831 Y13.285 Z-0.286
N14500 X38.901 Y13.267 Z-0.268
N14505 X38.971 Y13.257 Z-0.258
N14510 X39.042 Y13.253 Z-0.254
N14515 X40.541 Y13.254
N14520 X40.839 Y13.261 Z-0.252
N14525 X40.987 Y13.273 Z-0.254
N14530 X41.125 Y13.289 Z-0.251
N14535 X41.206 Y13.304 Z-0.254
N14540 X41.418 Y13.351 Z-0.261
N14545 X41.467 Y13.368 Z-0.263
N14550 X41.559 Y13.403 Z-0.27
N14555 X41.709 Y13.467 Z-0.276
N14560 X41.764 Y13.499 Z-0.278
N14565 X41.815 Y13.532 Z-0.283
N14570 X41.891 Y13.586 Z-0.289
N14575 X41.922 Y13.61 Z-0.292
N14580 X42.014 Y13.697 Z-0.295
N14585 X42.097 Y13.797 Z-0.3
N14590 X42.115 Y13.824
N14595 X42.188 Y13.938 Z-0.301
N14600 X42.234 Y14.03 Z-0.305
N14605 X42.275 Y14.132
N14610 X42.292 Y14.179 Z-0.307
N14615 X42.317 Y14.26 Z-0.306
N14620 X42.335 Y14.327 Z-0.309
N14625 X42.357 Y14.483 Z-0.31
N14630 X42.367 Y14.635 Z-0.311
N14635 X42.365 Y14.67 Z-0.31
N14640 X42.346 Y14.87 Z-0.309
N14645 X42.337 Y14.919
N14650 X42.313 Y15.02 Z-0.305
N14655 X42.298 Y15.067 Z-0.302
N14660 X42.263 Y15.146 Z-0.298
N14665 X42.199 Y15.272 Z-0.288
N14670 X42.177 Y15.31 Z-0.287
N14675 X42.086 Y15.432 Z-0.268
N14680 X42.056 Y15.466 Z-0.265
N14685 X41.989 Y15.534 Z-0.259
N14690 X41.919 Y15.596 Z-0.249
N14695 X41.849 Y15.647 Z-0.24
N14700 X41.764 Y15.701 Z-0.226
N14705 X41.736 Y15.715 Z-0.222
N14710 X41.568 Y15.793 Z-0.208
N14715 X41.528 Y15.81 Z-0.207
N14720 X41.479 Y15.833 Z-0.21
N14725 X41.411 Y15.875 Z-0.222
N14730 X41.38 Y15.895 Z-0.233
N14735 X41.325 Y15.935 Z-0.26
N14740 X41.272 Y15.981 Z-0.293
N14745 X41.22 Y16.033 Z-0.333
N14750 X41.272 Y16.111 Z-0.277
N14755 X41.306 Y16.154 Z-0.249
N14760 X41.341 Y16.193 Z-0.224
N14765 X41.368 Y16.222 Z-0.209
N14770 X41.403 Y16.255 Z-0.195
N14775 X41.439 Y16.285 Z-0.185
N14780 X41.477 Y16.311 Z-0.179
N14785 X41.499 Y16.326 Z-0.178
N14790 X41.638 Y16.42 Z-0.19
N14795 X41.669 Y16.443 Z-0.194
N14800 X41.775 Y16.535 Z-0.207
N14805 X41.799 Y16.557 Z-0.211
N14810 X41.899 Y16.689 Z-0.231
N14815 X41.911 Y16.707 Z-0.232
N14820 X41.982 Y16.829 Z-0.25
N14825 X41.998 Y16.864 Z-0.252
N14830 X42.025 Y16.931 Z-0.259
N14835 X42.064 Y17.064 Z-0.273
N14840 X42.071 Y17.093 Z-0.277
N14845 X42.089 Y17.227 Z-0.285
N14850 X42.091 Y17.244
N14855 X42.093 Y17.363 Z-0.293
N14860 X42.087 Y17.437 Z-0.292
N14865 X42.078 Y17.516 Z-0.294
N14870 X42.059 Y17.612 Z-0.293
N14875 X42.048 Y17.664 Z-0.294
N14880 X41.993 Y17.806 Z-0.292
N14885 X41.923 Y17.947 Z-0.289
N14890 X41.868 Y18.028 Z-0.284
N14895 X41.827 Y18.082
N14900 X41.778 Y18.138 Z-0.281
N14905 X41.721 Y18.197
N14910 X41.645 Y18.259 Z-0.274
N14915 X41.601 Y18.293 Z-0.272
N14920 X41.464 Y18.373 Z-0.269
N14925 X41.295 Y18.438 Z-0.259
N14930 X41.262 Y18.449 Z-0.258
N14935 X41.002 Y18.505 Z-0.262
N14940 X40.759 Y18.533 Z-0.258
N14945 X40.494 Y18.542 Z-0.257
N14950 X40.25 Y18.545 Z-0.254
N14955 X39.042
N14960 X38.971 Y18.542 Z-0.258
N14965 X38.901 Y18.531 Z-0.268
N14970 X38.831 Y18.514 Z-0.286
N14975 X38.76 Y18.489 Z-0.31
N14980 X38.69 Y18.458 Z-0.342
N14985 X38.348 Y18.799 Z0.
N14990 X38.69 Y18.458 Z-0.342
N14995 X38.67 Y18.391 Z-0.322
N15000 X38.656 Y18.325 Z-0.308
N15005 X38.648 Y18.258 Z-0.3
N15010 X38.645 Y18.191 Z-0.297
N15015 Y16.378
N15020 X38.648 Y16.308 Z-0.3
N15025 X38.658 Y16.237 Z-0.31
N15030 X38.673 Y16.166 Z-0.325
N15035 X38.695 Y16.095 Z-0.348
N15040 X38.724 Y16.024 Z-0.376
N15045 X38.78 Z-0.341
N15050 X38.829 Z-0.313
N15055 X38.872 Z-0.293
N15060 X38.911 Z-0.277
N15065 X38.947 Z-0.267
N15070 X38.98 Z-0.259
N15075 X39.011 Z-0.255
N15080 X40.339 Z-0.254
N15085 X40.657 Y16.027 Z-0.26
N15090 X40.73 Y16.026 Z-0.263
N15095 X40.896 Y16.03 Z-0.278
N15100 X40.932 Z-0.282
N15105 X41.156 Y16.033 Z-0.319
N15110 X41.22 Z-0.333
N15115 X41.156 Z-0.319
N15120 X40.932 Y16.03 Z-0.282
N15125 X40.896 Z-0.278
N15130 X40.73 Y16.026 Z-0.263
N15135 X40.657 Y16.027 Z-0.26
N15140 X40.339 Y16.024 Z-0.254
N15145 X39.011 Z-0.255
N15150 X38.98 Z-0.259
N15155 X38.947 Z-0.267
N15160 X38.911 Z-0.277
N15165 X38.872 Z-0.293
N15170 X38.829 Z-0.313
N15175 X38.78 Z-0.341
N15180 X38.724 Z-0.376
N15185 X38.695 Y15.953 Z-0.348
N15190 X38.673 Y15.883 Z-0.325
N15195 X38.658 Y15.812 Z-0.31
N15200 X38.648 Y15.741 Z-0.3
N15205 X38.645 Y15.67 Z-0.297
N15210 Y13.608
N15215 X38.648 Y13.541 Z-0.3
N15220 X38.656 Y13.474 Z-0.308
N15225 X38.67 Y13.408 Z-0.322
N15230 X38.69 Y13.341 Z-0.342
N15235 Z5.
N15240 X31.807 Y13.
N15245 Z0. F100.
N15250 X32.23 Y13.29 Z-0.291 F500.
N15255 X32.434 Y13. Z-0.001
N15260 X32.23 Y13.29 Z-0.291
N15265 X32.813 Y14.851 Z-0.275
N15270 X32.839 Y14.913 Z-0.278
N15275 X32.872 Y14.972 Z-0.287
N15280 X32.91 Y15.029 Z-0.302
N15285 X32.954 Y15.084 Z-0.323
N15290 X33.003 Y15.137 Z-0.35
N15295 X33. Y15.213 Z-0.32
N15300 X33.003 Y15.286 Z-0.297
N15305 X33.012 Y15.357 Z-0.28
N15310 X33.027 Y15.426 Z-0.27
N15315 X33.049 Y15.492 Z-0.266
N15320 X33.713 Y17.241 Z-0.259
N15325 X33.904 Y17.783 Z-0.243
N15330 X34.091 Y18.378 Z-0.204
N15335 X34.119 Y18.442 Z-0.208
N15340 X34.155 Y18.502 Z-0.22
N15345 X34.199 Y18.56 Z-0.24
N15350 X34.034 Y18.799 Z0.
N15355 X34.199 Y18.56 Z-0.24
N15360 X34.257 Y18.573 Z-0.226
N15365 X34.316 Y18.582 Z-0.218
N15370 X34.375 Y18.584 Z-0.215
N15375 X34.445 Y18.58 Z-0.219
N15380 X34.515 Y18.569 Z-0.231
N15385 X34.585 Y18.549 Z-0.25
N15390 X34.753 Y18.799 Z-0.001
N15395 X34.585 Y18.549 Z-0.25
N15400 X34.621 Y18.499 Z-0.237
N15405 X34.651 Y18.447 Z-0.229
N15410 X34.685 Y18.369 Z-0.226
N15415 X34.908 Y17.757 Z-0.252
N15420 X35.142 Y17.152 Z-0.265
N15425 X35.791 Y15.501 Z-0.29
N15430 X35.813 Y15.436 Z-0.293
N15435 X35.83 Y15.368 Z-0.304
N15440 X35.841 Y15.299 Z-0.32
N15445 X35.846 Y15.227 Z-0.342
N15450 Y15.153 Z-0.37
N15455 X35.789 Y15.131 Z-0.331
N15460 X35.744 Y15.114 Z-0.304
N15465 X35.672 Y15.087 Z-0.27
N15470 X35.611 Y15.066 Z-0.25
N15475 X35.549 Y15.052 Z-0.235
N15480 X35.488 Y15.043 Z-0.226
N15485 X35.426 Y15.04 Z-0.223
N15490 X33.392
N15495 X33.335 Y15.042 Z-0.226
N15500 X33.278 Y15.05 Z-0.234
N15505 X33.22 Y15.063 Z-0.246
N15510 X33.163 Y15.081 Z-0.264
N15515 X33.097 Y15.104 Z-0.293
N15520 X33.055 Y15.119 Z-0.316
N15525 X33.003 Y15.137 Z-0.35
N15530 X33.055 Y15.119 Z-0.316
N15535 X33.097 Y15.104 Z-0.293
N15540 X33.163 Y15.081 Z-0.264
N15545 X33.22 Y15.063 Z-0.246
N15550 X33.278 Y15.05 Z-0.234
N15555 X33.335 Y15.042 Z-0.226
N15560 X33.392 Y15.04 Z-0.223
N15565 X35.426
N15570 X35.488 Y15.043 Z-0.226
N15575 X35.549 Y15.052 Z-0.235
N15580 X35.611 Y15.066 Z-0.25
N15585 X35.672 Y15.087 Z-0.27
N15590 X35.744 Y15.114 Z-0.304
N15595 X35.789 Y15.131 Z-0.331
N15600 X35.846 Y15.153 Z-0.37
N15605 X35.896 Y15.1 Z-0.344
N15610 X35.94 Y15.045 Z-0.324
N15615 X35.979 Y14.988 Z-0.31
N15620 X36.012 Y14.929 Z-0.301
N15625 X36.044 Y14.86 Z-0.298
N15630 X36.657 Y13.315 Z-0.316
N15635 X36.441 Y13. Z0.
N15640 X36.657 Y13.315 Z-0.316
N15645 X37.127 Y13. Z0.
N15650 Z15.
(WHEN USING FUSION 360 FOR PERSONAL USE, THE FEEDRATE OF)
(RAPID MOVES IS REDUCED TO MATCH THE FEEDRATE OF CUTTING)
(MOVES, WHICH CAN INCREASE MACHINING TIME. UNRESTRICTED RAPID)
(MOVES ARE AVAILABLE WITH A FUSION 360 SUBSCRIPTION.)
(ENGRAVE 0.9)
N15655 G0 X53.445 Y31.377
N15660 G1 Z15. F500.
N15665 Z5.
N15670 Z0. F100.
N15675 X53.799 Y31.542 Z-0.387 F500.
N15680 X53.811 Y31.546 Z-0.4
N15685 X53.857 Y31.564 Z-0.446
N15690 X53.86 Y31.565 Z-0.449
N15695 X53.865 Y31.54 Z-0.432
N15700 X53.891 Y31.485 Z-0.383
N15705 X53.923 Y31.435 Z-0.331
N15710 X53.936 Y31.417 Z-0.31
N15715 X53.923 Y31.435 Z-0.331
N15720 X53.891 Y31.485 Z-0.383
N15725 X53.865 Y31.54 Z-0.432
N15730 X53.86 Y31.565 Z-0.449
N15735 X53.863 Y31.577 Z-0.451
N15740 X53.882 Y31.626 Z-0.458
N15745 X53.909 Y31.685 Z-0.463
N15750 X54.014 Y31.956 Z-0.466
N15755 X54.304 Y32.714 Z-0.459
N15760 X54.341 Y32.798 Z-0.463
N15765 X54.385 Y32.879 Z-0.474
N15770 X54.436 Y32.957 Z-0.493
N15775 X54.494 Y33.033 Z-0.519
N15780 X54.559 Y33.105 Z-0.553
N15785 X54.557 Y33.191 Z-0.519
N15790 X54.561 Y33.275 Z-0.492
N15795 X54.57 Y33.357 Z-0.47
N15800 X54.584 Y33.436 Z-0.455
N15805 X54.604 Y33.514 Z-0.445
N15810 X54.629 Y33.589 Z-0.441
N15815 X55.458 Y35.793 Z-0.404
N15820 X55.539 Y36.01 Z-0.401
N15825 X55.579 Y36.102 Z-0.405
N15830 X55.62 Y36.177 Z-0.415
N15835 X55.671 Y36.251 Z-0.432
N15840 X55.728 Y36.321 Z-0.457
N15845 X55.777 Y36.367 Z-0.476
N15850 X55.828 Y36.411 Z-0.499
N15855 X55.876 Y36.442 Z-0.516
N15860 X55.917 Y36.459 Z-0.525
N15865 X55.923 Y36.461 Z-0.526
N15870 X56.02 Y36.469 Z-0.528
N15875 X56.11 Y36.461
N15880 X56.119 Y36.459 Z-0.527
N15885 X56.168 Y36.438 Z-0.518
N15890 X56.22 Y36.404 Z-0.501
N15895 X56.259 Y36.37 Z-0.485
N15900 X56.297 Y36.335 Z-0.471
N15905 X56.343 Y36.283 Z-0.452
N15910 X56.384 Y36.229 Z-0.438
N15915 X56.424 Y36.164 Z-0.424
N15920 X56.459 Y36.097 Z-0.416
N15925 X56.489 Y36.028 Z-0.413
N15930 X57.423 Y33.597 Z-0.457
N15935 X57.449 Y33.522 Z-0.461
N15940 X57.47 Y33.445 Z-0.471
N15945 X57.485 Y33.366 Z-0.486
N15950 X57.496 Y33.284 Z-0.508
N15955 X57.5 Y33.201 Z-0.534
N15960 Y33.115 Z-0.567
N15965 X57.565 Y33.043 Z-0.534
N15970 X57.623 Y32.967 Z-0.509
N15975 X57.674 Y32.889 Z-0.49
N15980 X57.718 Y32.809 Z-0.48
N15985 X57.761 Y32.714 Z-0.476
N15990 X58.055 Y31.966 Z-0.484
N15995 X58.165 Y31.69 Z-0.477
N16000 X58.208 Y31.57 Z-0.461
N16005 X58.206 Y31.559 Z-0.454
N16010 X58.189 Y31.524 Z-0.421
N16015 X58.156 Y31.472 Z-0.363
N16020 X58.189 Y31.524 Z-0.421
N16025 X58.206 Y31.559 Z-0.454
N16030 X58.207 Y31.556 Z-0.451
N16035 X58.206 Y31.559 Z-0.454
N16040 X58.208 Y31.57 Z-0.461
N16045 X58.229 Y31.561 Z-0.441
N16050 X58.285 Y31.547 Z-0.389
N16055 X58.307 Y31.545 Z-0.367
N16060 X58.678 Y31.547 Z-0.001
N16065 X58.307 Y31.545 Z-0.367
N16070 X58.285 Y31.547 Z-0.389
N16075 X58.229 Y31.561 Z-0.441
N16080 X58.208 Y31.57 Z-0.461
N16085 X58.165 Y31.69 Z-0.477
N16090 X58.055 Y31.966 Z-0.484
N16095 X57.761 Y32.714 Z-0.476
N16100 X57.718 Y32.809 Z-0.48
N16105 X57.674 Y32.889 Z-0.49
N16110 X57.623 Y32.967 Z-0.509
N16115 X57.565 Y33.043 Z-0.534
N16120 X57.5 Y33.115 Z-0.567
N16125 X57.413 Y33.084 Z-0.506
N16130 X57.341 Y33.058 Z-0.462
N16135 X57.279 Y33.036 Z-0.43
N16140 X57.222 Y33.015 Z-0.406
N16145 X57.142 Y32.99 Z-0.381
N16150 X57.061 Y32.972 Z-0.363
N16155 X56.981 Y32.961 Z-0.352
N16160 X56.9 Y32.958 Z-0.349
N16165 X55.138
N16170 X55.059 Y32.961 Z-0.352
N16175 X54.981 Y32.971 Z-0.362
N16180 X54.902 Y32.989 Z-0.38
N16185 X54.824 Y33.013 Z-0.404
N16190 X54.769 Y33.032 Z-0.425
N16195 X54.71 Y33.052 Z-0.455
N16200 X54.642 Y33.076 Z-0.496
N16205 X54.559 Y33.105 Z-0.553
N16210 Z5.
N16215 X60.288 Y31.347
N16220 Z0. F100.
N16225 X60.583 Y31.633 Z-0.402 F500.
N16230 X60.644 Y31.694 Z-0.482
N16235 X60.679 Y31.73 Z-0.524
N16240 X60.673 Y31.747 Z-0.522
N16245 X60.663 Y31.797 Z-0.513
N16250 X60.654 Y31.846 Z-0.507
N16255 X60.647 Y31.922 Z-0.5
N16260 X60.645 Y31.998 Z-0.498
N16265 Y33.72
N16270 X60.648 Y33.806 Z-0.501
N16275 X60.657 Y33.892 Z-0.51
N16280 X60.672 Y33.977 Z-0.525
N16285 X60.694 Y34.063 Z-0.547
N16290 X60.722 Y34.149 Z-0.574
N16295 X60.81 Z-0.509
N16300 X60.889 Z-0.456
N16305 X60.959 Z-0.414
N16310 X61.023 Z-0.381
N16315 X61.082 Z-0.357
N16320 X61.138 Z-0.341
N16325 X61.191 Z-0.332
N16330 X61.242 Z-0.329
N16335 X62.337
N16340 X62.486 Y34.152 Z-0.332
N16345 X62.705 Y34.153 Z-0.34
N16350 X62.744 Y34.155 Z-0.342
N16355 X62.935 Y34.16 Z-0.368
N16360 X62.967 Y34.161 Z-0.373
N16365 X63.09 Y34.166 Z-0.397
N16370 X63.214 Y34.168 Z-0.428
N16375 X63.249 Y34.17 Z-0.44
N16380 X63.305 Y34.103 Z-0.395
N16385 X63.352 Y34.055 Z-0.365
N16390 X63.426 Y33.987 Z-0.33
N16395 X63.476 Y33.948 Z-0.315
N16400 X63.527 Y33.914 Z-0.303
N16405 X63.581 Y33.884 Z-0.297
N16410 X63.605 Y33.871 Z-0.296
N16415 X63.666 Y33.838 Z-0.301
N16420 X63.843 Y33.723 Z-0.336
N16425 X63.865 Y33.708 Z-0.34
N16430 X63.983 Y33.616 Z-0.369
N16435 X64.019 Y33.586 Z-0.38
N16440 X64.105 Y33.497 Z-0.408
N16445 X64.149 Y33.448 Z-0.425
N16450 X64.168 Y33.421 Z-0.433
N16455 X64.209 Y33.359 Z-0.449
N16460 X64.23 Y33.318 Z-0.456
N16465 X64.249 Y33.271 Z-0.462
N16470 X64.271 Y33.202 Z-0.47
N16475 X64.289 Y33.129 Z-0.475
N16480 X64.323 Y32.93 Z-0.489
N16485 X64.333 Y32.836 Z-0.496
N16490 X64.335 Y32.752 Z-0.509
N16495 X64.313 Y32.629 Z-0.521
N16500 X64.28 Y32.49 Z-0.528
N16505 X64.231 Y32.358 Z-0.527
N16510 X64.171 Y32.225 Z-0.518
N16515 X64.097 Y32.105 Z-0.504
N16520 X64.043 Y32.033 Z-0.493
N16525 X64.013 Y31.996 Z-0.489
N16530 X63.914 Y31.901 Z-0.467
N16535 X63.84 Y31.842 Z-0.452
N16540 X63.793 Y31.807 Z-0.444
N16545 X63.677 Y31.745 Z-0.421
N16550 X63.603 Y31.709 Z-0.411
N16555 X63.513 Y31.676 Z-0.397
N16560 X63.451 Y31.656 Z-0.389
N16565 X63.326 Y31.621 Z-0.378
N16570 X63.082 Y31.582 Z-0.361
N16575 X62.958 Y31.568 Z-0.358
N16580 X62.804 Y31.559 Z-0.352
N16585 X62.569 Y31.55 Z-0.349
N16590 X61.242 Y31.549
N16595 X61.166 Y31.553 Z-0.352
N16600 X61.089 Y31.562 Z-0.362
N16605 X61.013 Y31.579 Z-0.378
N16610 X60.937 Y31.601 Z-0.401
N16615 X60.86 Y31.631 Z-0.43
N16620 X60.784 Y31.667 Z-0.466
N16625 X60.735 Y31.694 Z-0.492
N16630 X60.686 Y31.725 Z-0.52
N16635 X60.679 Y31.73 Z-0.524
N16640 X60.686 Y31.725 Z-0.52
N16645 X60.735 Y31.694 Z-0.492
N16650 X60.784 Y31.667 Z-0.466
N16655 X60.86 Y31.631 Z-0.43
N16660 X60.937 Y31.601 Z-0.401
N16665 X61.013 Y31.579 Z-0.378
N16670 X61.089 Y31.562 Z-0.362
N16675 X61.166 Y31.553 Z-0.352
N16680 X61.242 Y31.549 Z-0.349
N16685 X62.569 Y31.55
N16690 X62.804 Y31.559 Z-0.352
N16695 X62.958 Y31.568 Z-0.358
N16700 X63.082 Y31.582 Z-0.361
N16705 X63.326 Y31.621 Z-0.378
N16710 X63.451 Y31.656 Z-0.389
N16715 X63.513 Y31.676 Z-0.397
N16720 X63.603 Y31.709 Z-0.411
N16725 X63.677 Y31.745 Z-0.421
N16730 X63.793 Y31.807 Z-0.444
N16735 X63.84 Y31.842 Z-0.452
N16740 X63.914 Y31.901 Z-0.467
N16745 X64.013 Y31.996 Z-0.489
N16750 X64.043 Y32.033 Z-0.493
N16755 X64.097 Y32.105 Z-0.504
N16760 X64.171 Y32.225 Z-0.518
N16765 X64.231 Y32.358 Z-0.527
N16770 X64.28 Y32.49 Z-0.528
N16775 X64.313 Y32.629 Z-0.521
N16780 X64.335 Y32.752 Z-0.509
N16785 X64.333 Y32.836 Z-0.496
N16790 X64.323 Y32.93 Z-0.489
N16795 X64.289 Y33.129 Z-0.475
N16800 X64.271 Y33.202 Z-0.47
N16805 X64.249 Y33.271 Z-0.462
N16810 X64.23 Y33.318 Z-0.456
N16815 X64.209 Y33.359 Z-0.449
N16820 X64.168 Y33.421 Z-0.433
N16825 X64.149 Y33.448 Z-0.425
N16830 X64.105 Y33.497 Z-0.408
N16835 X64.019 Y33.586 Z-0.38
N16840 X63.983 Y33.616 Z-0.369
N16845 X63.865 Y33.708 Z-0.34
N16850 X63.843 Y33.723 Z-0.336
N16855 X63.666 Y33.838 Z-0.301
N16860 X63.605 Y33.871 Z-0.296
N16865 X63.581 Y33.884 Z-0.297
N16870 X63.527 Y33.914 Z-0.303
N16875 X63.476 Y33.948 Z-0.315
N16880 X63.426 Y33.987 Z-0.33
N16885 X63.352 Y34.055 Z-0.365
N16890 X63.305 Y34.103 Z-0.395
N16895 X63.249 Y34.17 Z-0.44
N16900 X63.258 Y34.186 Z-0.429
N16905 X63.298 Y34.25 Z-0.389
N16910 X63.34 Y34.309 Z-0.354
N16915 X63.381 Y34.362 Z-0.328
N16920 X63.422 Y34.412 Z-0.31
N16925 X63.466 Y34.458 Z-0.297
N16930 X63.515 Y34.505 Z-0.291
N16935 X63.534 Y34.524 Z-0.292
N16940 X63.581 Y34.565 Z-0.298
N16945 X63.63 Y34.605 Z-0.308
N16950 X63.673 Y34.643 Z-0.318
N16955 X63.767 Y34.733 Z-0.345
N16960 X63.815 Y34.784 Z-0.361
N16965 X63.881 Y34.863 Z-0.387
N16970 X63.946 Y34.952 Z-0.415
N16975 X63.967 Y34.989 Z-0.422
N16980 X64.001 Y35.051 Z-0.438
N16985 X64.017 Y35.099 Z-0.446
N16990 X64.021 Y35.11 Z-0.448
N16995 X64.051 Y35.245 Z-0.461
N17000 X64.067 Y35.351 Z-0.467
N17005 X64.073 Y35.416 Z-0.475
N17010 X64.076 Y35.541 Z-0.491
N17015 X64.063 Y35.666 Z-0.493
N17020 X64.029 Y35.805 Z-0.491
N17025 X63.974 Y35.935 Z-0.486
N17030 X63.946 Y35.983 Z-0.481
N17035 X63.896 Y36.058 Z-0.478
N17040 X63.833 Y36.134 Z-0.469
N17045 X63.794 Y36.175 Z-0.467
N17050 X63.68 Y36.272 Z-0.455
N17055 X63.604 Y36.321 Z-0.447
N17060 X63.508 Y36.376 Z-0.432
N17065 X63.431 Y36.412 Z-0.42
N17070 X63.382 Y36.429 Z-0.414
N17075 X63.331 Y36.444 Z-0.41
N17080 X63.045 Y36.502 Z-0.384
N17085 X63.016 Y36.507 Z-0.383
N17090 X62.744 Y36.537 Z-0.361
N17095 X62.676 Y36.541 Z-0.359
N17100 X62.468 Y36.549 Z-0.351
N17105 X62.212 Y36.551 Z-0.349
N17110 X61.242
N17115 X61.166 Y36.548 Z-0.352
N17120 X61.09 Y36.538 Z-0.362
N17125 X61.013 Y36.522 Z-0.378
N17130 X60.937 Y36.499 Z-0.401
N17135 X60.861 Y36.47 Z-0.43
N17140 X60.784 Y36.434 Z-0.466
N17145 X60.736 Y36.407 Z-0.491
N17150 X60.678 Y36.37 Z-0.524
N17155 X60.646 Y36.402 Z-0.486
N17160 X60.583 Y36.466 Z-0.403
N17165 X60.291 Y36.756 Z-0.001
N17170 X60.583 Y36.466 Z-0.403
N17175 X60.646 Y36.402 Z-0.486
N17180 X60.678 Y36.37 Z-0.524
N17185 X60.674 Y36.355 Z-0.522
N17190 X60.663 Y36.305 Z-0.514
N17195 X60.654 Y36.255 Z-0.507
N17200 X60.647 Y36.179 Z-0.5
N17205 X60.645 Y36.103 Z-0.498
N17210 Y34.577
N17215 X60.648 Y34.492 Z-0.501
N17220 X60.657 Y34.406 Z-0.51
N17225 X60.672 Y34.32 Z-0.525
N17230 X60.694 Y34.235 Z-0.547
N17235 X60.722 Y34.149 Z-0.574
N17240 Z5.
N17245 X70.621 Y34.979
N17250 Z-0.001 F100.
N17255 X70.815 Y35.194 Z-0.286 F500.
N17260 X70.839 Y35.225 Z-0.325
N17265 X70.878 Y35.296 Z-0.399
N17270 X70.879 Y35.299 Z-0.402
N17275 X70.885 Y35.288 Z-0.391
N17280 X70.903 Y35.247 Z-0.348
N17285 X71.047 Y34.927 Z-0.001
N17290 X70.903 Y35.247 Z-0.348
N17295 X70.885 Y35.288 Z-0.391
N17300 X70.879 Y35.299 Z-0.402
N17305 Y35.308 Z-0.408
N17310 X70.887 Z-0.4
N17315 X70.879 Z-0.408
N17320 X70.848 Y35.38 Z-0.428
N17325 X70.83 Y35.431 Z-0.439
N17330 X70.808 Y35.488 Z-0.448
N17335 X70.792 Y35.524 Z-0.452
N17340 X70.723 Y35.652 Z-0.457
N17345 X70.656 Y35.761 Z-0.456
N17350 X70.508 Y35.952 Z-0.445
N17355 X70.451 Y36.016 Z-0.442
N17360 X70.374 Y36.09 Z-0.439
N17365 X70.292 Y36.16 Z-0.428
N17370 X70.199 Y36.234 Z-0.421
N17375 X70.077 Y36.32 Z-0.408
N17380 X70.014 Y36.361 Z-0.404
N17385 X69.794 Y36.464 Z-0.391
N17390 X69.758 Y36.48 Z-0.39
N17395 X69.633 Y36.525 Z-0.387
N17400 X69.512 Y36.564 Z-0.381
N17405 X69.386 Y36.588 Z-0.38
N17410 X69.257 Y36.606 Z-0.376
N17415 X69. Y36.624 Z-0.374
N17420 X68.96 Y36.625 Z-0.375
N17425 X68.721 Y36.605 Z-0.381
N17430 X68.57 Y36.586
N17435 X68.487 Y36.573 Z-0.384
N17440 X68.357 Y36.542 Z-0.383
N17445 X68.296 Y36.525 Z-0.384
N17450 X68.142 Y36.472 Z-0.389
N17455 X68.065 Y36.441 Z-0.394
N17460 X67.92 Y36.366 Z-0.402
N17465 X67.861 Y36.332 Z-0.407
N17470 X67.722 Y36.239 Z-0.419
N17475 X67.677 Y36.207 Z-0.425
N17480 X67.499 Y36.054 Z-0.439
N17485 X67.42 Y35.98 Z-0.44
N17490 X67.381 Y35.942 Z-0.443
N17495 X67.345 Y35.902 Z-0.447
N17500 X67.216 Y35.715 Z-0.468
N17505 X67.097 Y35.526 Z-0.481
N17510 X67.084 Y35.5
N17515 X66.998 Y35.326 Z-0.487
N17520 X66.973 Y35.269 Z-0.486
N17525 X66.914 Y35.116 Z-0.493
N17530 X66.883 Y35.017 Z-0.491
N17535 X66.842 Y34.858 Z-0.496
N17540 X66.82 Y34.752 Z-0.497
N17545 X66.792 Y34.593 Z-0.504
N17550 X66.781 Y34.496 Z-0.503
N17555 X66.767 Y34.323 Z-0.507
N17560 X66.754 Y34.044 Z-0.506
N17565 X66.767 Y33.688 Z-0.502
N17570 X66.809 Y33.359 Z-0.494
N17575 X66.812 Y33.336 Z-0.493
N17580 X66.888 Y33.026 Z-0.486
N17585 X66.994 Y32.726 Z-0.472
N17590 X67.051 Y32.603 Z-0.462
N17595 X67.129 Y32.457 Z-0.459
N17600 X67.159 Y32.407 Z-0.454
N17605 X67.297 Y32.206 Z-0.445
N17610 X67.349 Y32.141 Z-0.439
N17615 X67.38 Y32.106 Z-0.438
N17620 X67.493 Y31.994 Z-0.435
N17625 X67.545 Y31.946 Z-0.431
N17630 X67.593 Y31.906 Z-0.428
N17635 X67.719 Y31.812 Z-0.422
N17640 X67.775 Y31.775 Z-0.415
N17645 X67.841 Y31.735 Z-0.411
N17650 X67.973 Y31.671 Z-0.407
N17655 X68.071 Y31.63 Z-0.4
N17660 X68.11 Y31.615 Z-0.398
N17665 X68.249 Y31.57 Z-0.392
N17670 X68.33 Y31.548 Z-0.384
N17675 X68.415 Y31.53 Z-0.379
N17680 X68.615 Y31.496 Z-0.378
N17685 X68.895 Y31.478 Z-0.373
N17690 X68.963 Y31.476 Z-0.374
N17695 X69.195 Y31.488 Z-0.379
N17700 X69.231 Y31.491 Z-0.38
N17705 X69.455 Y31.525 Z-0.388
N17710 X69.502 Y31.535 Z-0.387
N17715 X69.655 Y31.58 Z-0.393
N17720 X69.805 Y31.637 Z-0.401
N17725 X69.879 Y31.669 Z-0.408
N17730 X70.038 Y31.751 Z-0.413
N17735 X70.104 Y31.791 Z-0.414
N17740 X70.186 Y31.849 Z-0.423
N17745 X70.32 Y31.961 Z-0.43
N17750 X70.442 Y32.08 Z-0.436
N17755 X70.543 Y32.199 Z-0.439
N17760 X70.594 Y32.269 Z-0.441
N17765 X70.628 Y32.32 Z-0.445
N17770 X70.702 Y32.445 Z-0.446
N17775 X70.714 Y32.467
N17780 X70.767 Y32.575 Z-0.447
N17785 X70.808 Y32.675 Z-0.444
N17790 X70.838 Y32.757 Z-0.439
N17795 X70.871 Y32.872 Z-0.427
N17800 X70.882 Y32.922 Z-0.42
N17805 X70.894 Y32.957 Z-0.411
N17810 X70.897 Y32.97 Z-0.407
N17815 X70.918 Y32.979 Z-0.385
N17820 X70.897 Y32.97 Z-0.407
N17825 X70.896 Y32.976 Z-0.403
N17830 X70.898 Y32.981 Z-0.398
N17835 X70.896 Y32.976 Z-0.403
N17840 X70.879 Y33.01 Z-0.371
N17845 X70.848 Y33.06 Z-0.319
N17850 X70.84 Y33.071 Z-0.306
N17855 X70.839 Y33.074 Z-0.303
N17860 X70.726 Y33.358 Z0.
N17865 Z5.
N17870 X70.141 Y17.389
N17875 Z0. F100.
N17880 X70.284 Y17.658 Z-0.229 F500.
N17885 X70.324 Y17.736 Z-0.297
N17890 X70.408 Y17.695 Z-0.237
N17895 X70.726 Y17.526 Z0.
N17900 X70.408 Y17.695 Z-0.237
N17905 X70.324 Y17.736 Z-0.297
N17910 X70.285 Y17.821 Z-0.296
