%
(ENGRAVE_001)
(MACHINE)
(  MODEL LASER SNAKE V2)
(  DESCRIPTION 3-AXIS ROUTER)
(T3  D=3.175 CR=0. TAPER=45DEG - ZMIN=-0.5 - CHAMFER MILL)
N10 G90 G94 G17 G91.1
N15 G21
(WHEN USING FUSION 360 FOR PERSONAL USE, THE FEEDRATE OF)
(RAPID MOVES IS REDUCED TO MATCH THE FEEDRATE OF CUTTING)
(MOVES, WHICH CAN INCREASE MACHINING TIME. UNRESTRICTED RAPID)
(MOVES ARE AVAILABLE WITH A FUSION 360 SUBSCRIPTION.)
N20 G53 G0 Z0.
(ENGRAVE4)
N25 T3 M6
N30 S15000 M3
N35 G54
N40 G0 X10.632 Y-54.822
N45 G43 Z10. H3
N50 G1 Z3. F750.
N55 Z0. F100.
N60 X11.055 Y-54.532 Z-0.291 F750.
N65 X11.258 Y-54.822 Z-0.001
N70 X11.055 Y-54.532 Z-0.291
N75 X11.639 Y-52.971 Z-0.275
N80 X11.666 Y-52.91 Z-0.278
N85 X11.698 Y-52.85 Z-0.287
N90 X11.736 Y-52.793 Z-0.302
N95 X11.78 Y-52.738 Z-0.323
N100 X11.829 Y-52.685 Z-0.35
N105 X11.826 Y-52.61 Z-0.32
N110 X11.829 Y-52.536 Z-0.297
N115 X11.839 Y-52.465 Z-0.28
N120 X11.854 Y-52.397 Z-0.27
N125 X11.876 Y-52.331 Z-0.266
N130 X12.541 Y-50.582 Z-0.259
N135 X12.733 Y-50.04 Z-0.243
N140 X12.92 Y-49.445 Z-0.204
N145 X12.948 Y-49.382 Z-0.208
N150 X12.984 Y-49.321 Z-0.22
N155 X13.028 Y-49.264 Z-0.24
N160 X12.863 Y-49.024 Z0.
N165 X13.028 Y-49.264 Z-0.24
N170 X13.086 Y-49.25 Z-0.226
N175 X13.145 Y-49.242 Z-0.218
N180 X13.204 Y-49.239 Z-0.215
N185 X13.274 Y-49.243 Z-0.219
N190 X13.344 Y-49.255 Z-0.231
N195 X13.414 Y-49.275 Z-0.25
N200 X13.582 Y-49.025 Z-0.001
N205 X13.414 Y-49.275 Z-0.25
N210 X13.45 Y-49.325 Z-0.237
N215 X13.48 Y-49.377 Z-0.229
N220 X13.505 Y-49.431 Z-0.226
N225 X13.736 Y-50.067 Z-0.252
N230 X13.97 Y-50.673 Z-0.265
N235 X14.618 Y-52.324 Z-0.289
N240 X14.64 Y-52.389 Z-0.293
N245 X14.656 Y-52.456 Z-0.303
N250 X14.668 Y-52.526 Z-0.32
N255 X14.673 Y-52.598 Z-0.342
N260 Y-52.672 Z-0.37
N265 X14.616 Y-52.694 Z-0.331
N270 X14.571 Y-52.711 Z-0.304
N275 X14.498 Y-52.738 Z-0.27
N280 X14.437 Y-52.758 Z-0.25
N285 X14.376 Y-52.773 Z-0.235
N290 X14.314 Y-52.782 Z-0.226
N295 X14.253 Y-52.784 Z-0.223
N300 X12.219 Y-52.783
N305 X12.161 Y-52.78 Z-0.226
N310 X12.104 Y-52.773 Z-0.233
N315 X12.047 Y-52.76 Z-0.246
N320 X11.989 Y-52.742 Z-0.264
N325 X11.923 Y-52.719 Z-0.293
N330 X11.882 Y-52.704 Z-0.316
N335 X11.829 Y-52.685 Z-0.35
N340 X11.882 Y-52.704 Z-0.316
N345 X11.923 Y-52.719 Z-0.293
N350 X11.989 Y-52.742 Z-0.264
N355 X12.047 Y-52.76 Z-0.246
N360 X12.104 Y-52.773 Z-0.233
N365 X12.161 Y-52.78 Z-0.226
N370 X12.219 Y-52.783 Z-0.223
N375 X14.253 Y-52.784
N380 X14.314 Y-52.782 Z-0.226
N385 X14.376 Y-52.773 Z-0.235
N390 X14.437 Y-52.758 Z-0.25
N395 X14.498 Y-52.738 Z-0.27
N400 X14.571 Y-52.711 Z-0.304
N405 X14.616 Y-52.694 Z-0.331
N410 X14.673 Y-52.672 Z-0.37
N415 X14.722 Y-52.725 Z-0.344
N420 X14.766 Y-52.78 Z-0.324
N425 X14.805 Y-52.837 Z-0.31
N430 X14.839 Y-52.896 Z-0.301
N435 X14.87 Y-52.965 Z-0.298
N440 X15.482 Y-54.51 Z-0.316
N445 X15.265 Y-54.826 Z0.
N450 X15.482 Y-54.51 Z-0.316
N455 X15.952 Y-54.826 Z0.
N460 Z3.
N465 X29.1 Y-52.662
N470 Z-0.302 F100.
N475 X29.077 Y-52.522 Z-0.304 F750.
N480 X29.061 Y-52.363 Z-0.308
N485 X29.038 Y-52.009 Z-0.309
N490 X29.052 Y-51.721 Z-0.307
N495 X29.074 Y-51.422 Z-0.302
N500 X29.114 Y-51.144 Z-0.299
N505 X29.178 Y-50.881 Z-0.295
N510 X29.22 Y-50.767 Z-0.294
N515 X29.282 Y-50.621 Z-0.288
N520 X29.304 Y-50.576 Z-0.285
N525 X29.399 Y-50.401 Z-0.283
N530 X29.445 Y-50.324 Z-0.28
N535 X29.596 Y-50.093 Z-0.277
N540 X29.71 Y-49.933 Z-0.276
N545 X29.789 Y-49.848 Z-0.262
N550 X29.838 Y-49.806 Z-0.26
N555 X29.883 Y-49.77 Z-0.262
N560 X30.097 Y-49.607 Z-0.263
N565 X30.188 Y-49.543 Z-0.26
N570 X30.309 Y-49.466 Z-0.261
N575 X30.392 Y-49.42 Z-0.259
N580 X30.407 Y-49.412 Z-0.26
N585 X30.504 Y-49.367 Z-0.258
N590 X30.616 Y-49.324 Z-0.252
N595 X30.731 Y-49.287
N600 X30.841 Y-49.26 Z-0.246
N605 X30.977 Y-49.233
N610 X31.067 Y-49.219 Z-0.243
N615 X31.246 Y-49.198 Z-0.244
N620 X31.505 Y-49.174 Z-0.241
N625 X31.534 Y-49.175
N630 X31.861 Y-49.202 Z-0.243
N635 X32.005 Y-49.222 Z-0.244
N640 X32.031 Y-49.227 Z-0.245
N645 X32.191 Y-49.264 Z-0.248
N650 X32.346 Y-49.316 Z-0.25
N655 X32.503 Y-49.382 Z-0.253
N660 X32.739 Y-49.499 Z-0.256
N665 X32.815 Y-49.542 Z-0.262
N670 X33.047 Y-49.717 Z-0.268
N675 X33.084 Y-49.747 Z-0.27
N680 X33.178 Y-49.829 Z-0.273
N685 X33.205 Y-49.854 Z-0.275
N690 X33.311 Y-49.965 Z-0.28
N695 X33.409 Y-50.09 Z-0.283
N700 X33.501 Y-50.229 Z-0.286
N705 X33.667 Y-50.521 Z-0.293
N710 X33.672 Y-50.534
N715 X33.794 Y-50.862 Z-0.3
N720 X33.849 Y-51.042 Z-0.303
N725 X33.895 Y-51.241 Z-0.305
N730 X33.915 Y-51.382 Z-0.309
N735 X33.939 Y-51.596 Z-0.307
N740 X33.955 Y-51.969 Z-0.309
N745 X33.933 Y-52.336
N750 X33.919 Y-52.487 Z-0.306
N755 X33.914 Y-52.522 Z-0.307
N760 X33.88 Y-52.723 Z-0.302
N765 X33.872 Y-52.761 Z-0.3
N770 X33.843 Y-52.873 Z-0.299
N775 X33.793 Y-53.037 Z-0.293
N780 X33.789 Y-53.05
N785 X33.689 Y-53.297 Z-0.292
N790 X33.641 Y-53.4 Z-0.297
N795 X33.56 Y-53.54 Z-0.292
N800 X33.465 Y-53.689 Z-0.294
N805 X33.374 Y-53.821 Z-0.29
N810 X33.283 Y-53.943 Z-0.28
N815 X33.254 Y-53.975 Z-0.276
N820 X33.208 Y-54.02
N825 X33.174 Y-54.05 Z-0.277
N830 X33.049 Y-54.152 Z-0.275
N835 X32.851 Y-54.3 Z-0.263
N840 X32.774 Y-54.353
N845 X32.638 Y-54.427 Z-0.251
N850 X32.457 Y-54.514 Z-0.245
N855 X32.409 Y-54.534 Z-0.244
N860 X32.316 Y-54.567 Z-0.246
N865 X32.179 Y-54.61 Z-0.245
N870 X32.162 Y-54.614
N875 X31.978 Y-54.651 Z-0.244
N880 X31.946 Y-54.656
N885 X31.84 Y-54.669 Z-0.245
N890 X31.495 Y-54.7 Z-0.239
N895 X31.452 Y-54.697
N900 X31.133 Y-54.667 Z-0.245
N905 X31.007 Y-54.65
N910 X30.961 Y-54.642 Z-0.246
N915 X30.775 Y-54.6 Z-0.245
N920 X30.641 Y-54.556 Z-0.247
N925 X30.56 Y-54.525 Z-0.244
N930 X30.482 Y-54.489 Z-0.247
N935 X30.317 Y-54.405 Z-0.25
N940 X30.17 Y-54.319 Z-0.262
N945 X30.115 Y-54.279
N950 X29.902 Y-54.111 Z-0.27
N955 X29.767 Y-53.996 Z-0.269
N960 X29.72 Y-53.944 Z-0.272
N965 X29.676 Y-53.89 Z-0.279
N970 X29.584 Y-53.767 Z-0.286
N975 X29.493 Y-53.633
N980 X29.431 Y-53.534 Z-0.284
N985 X29.317 Y-53.335 Z-0.287
N990 X29.299 Y-53.294 Z-0.286
N995 X29.197 Y-53.037 Z-0.287
N1000 X29.19 Y-53.016 Z-0.289
N1005 X29.133 Y-52.82 Z-0.295
N1010 X29.123 Y-52.781 Z-0.296
N1015 X29.105 Y-52.693 Z-0.301
N1020 X29.1 Y-52.662 Z-0.302
N1025 Z3.
N1030 X93.583 Y-51.795
N1035 Z-0.309 F100.
N1040 X93.595 Y-51.508 Z-0.307 F750.
N1045 X93.615 Y-51.209 Z-0.302
N1050 X93.653 Y-50.93 Z-0.299
N1055 X93.716 Y-50.667 Z-0.295
N1060 X93.757 Y-50.552 Z-0.294
N1065 X93.817 Y-50.406 Z-0.288
N1070 X93.839 Y-50.361 Z-0.285
N1075 X93.933 Y-50.185 Z-0.283
N1080 X93.978 Y-50.108 Z-0.28
N1085 X94.129 Y-49.876 Z-0.277
N1090 X94.241 Y-49.715 Z-0.276
N1095 X94.32 Y-49.63 Z-0.262
N1100 X94.369 Y-49.587 Z-0.26
N1105 X94.413 Y-49.551 Z-0.262
N1110 X94.626 Y-49.387 Z-0.263
N1115 X94.717 Y-49.323 Z-0.26
N1120 X94.837 Y-49.245 Z-0.261
N1125 X94.919 Y-49.197 Z-0.259
N1130 X94.935 Y-49.189 Z-0.26
N1135 X95.032 Y-49.144 Z-0.258
N1140 X95.144 Y-49.1 Z-0.252
N1145 X95.258 Y-49.063
N1150 X95.368 Y-49.035 Z-0.246
N1155 X95.504 Y-49.007
N1160 X95.593 Y-48.992 Z-0.243
N1165 X95.773 Y-48.97 Z-0.244
N1170 X96.031 Y-48.944 Z-0.241
N1175 X96.06 Y-48.946
N1180 X96.387 Y-48.97 Z-0.243
N1185 X96.557 Y-48.994 Z-0.245
N1190 X96.718 Y-49.03 Z-0.248
N1195 X96.874 Y-49.081 Z-0.25
N1200 X97.031 Y-49.146 Z-0.253
N1205 X97.267 Y-49.261 Z-0.256
N1210 X97.343 Y-49.304 Z-0.262
N1215 X97.577 Y-49.477 Z-0.268
N1220 X97.614 Y-49.507 Z-0.27
N1225 X97.708 Y-49.588 Z-0.273
N1230 X97.736 Y-49.614 Z-0.275
N1235 X97.842 Y-49.724 Z-0.28
N1240 X97.941 Y-49.848 Z-0.283
N1245 X98.034 Y-49.986 Z-0.286
N1250 X98.202 Y-50.277 Z-0.293
N1255 X98.207 Y-50.29
N1260 X98.331 Y-50.617 Z-0.3
N1265 X98.388 Y-50.797 Z-0.303
N1270 X98.434 Y-50.996 Z-0.305
N1275 X98.456 Y-51.137 Z-0.309
N1280 X98.481 Y-51.35 Z-0.307
N1285 X98.5 Y-51.724 Z-0.309
N1290 X98.48 Y-52.091
N1295 X98.466 Y-52.242 Z-0.306
N1300 X98.462 Y-52.276 Z-0.307
N1305 X98.43 Y-52.478 Z-0.302
N1310 X98.421 Y-52.516 Z-0.3
N1315 X98.394 Y-52.628 Z-0.299
N1320 X98.345 Y-52.792 Z-0.293
N1325 X98.34 Y-52.806
N1330 X98.242 Y-53.053 Z-0.292
N1335 X98.195 Y-53.156 Z-0.297
N1340 X98.115 Y-53.297 Z-0.292
N1345 X98.021 Y-53.446 Z-0.294
N1350 X97.931 Y-53.579 Z-0.29
N1355 X97.84 Y-53.702 Z-0.28
N1360 X97.812 Y-53.734 Z-0.277
N1365 X97.766 Y-53.779 Z-0.276
N1370 X97.732 Y-53.81 Z-0.277
N1375 X97.608 Y-53.912 Z-0.275
N1380 X97.411 Y-54.062 Z-0.263
N1385 X97.334 Y-54.115
N1390 X97.199 Y-54.19 Z-0.251
N1395 X97.018 Y-54.279 Z-0.245
N1400 X96.97 Y-54.298 Z-0.244
N1405 X96.877 Y-54.332 Z-0.246
N1410 X96.741 Y-54.376 Z-0.245
N1415 X96.724 Y-54.38
N1420 X96.54 Y-54.418 Z-0.244
N1425 X96.508 Y-54.423
N1430 X96.402 Y-54.437 Z-0.245
N1435 X96.057 Y-54.47 Z-0.239
N1440 X96.015 Y-54.468
N1445 X95.695 Y-54.44 Z-0.245
N1450 X95.569 Y-54.424
N1455 X95.523 Y-54.416 Z-0.246
N1460 X95.336 Y-54.375 Z-0.245
N1465 X95.203 Y-54.332 Z-0.247
N1470 X95.095 Y-54.29 Z-0.245
N1475 X95.043 Y-54.266 Z-0.247
N1480 X94.878 Y-54.183 Z-0.25
N1485 X94.73 Y-54.098 Z-0.262
N1490 X94.675 Y-54.059
N1495 X94.461 Y-53.892 Z-0.27
N1500 X94.325 Y-53.778 Z-0.269
N1505 X94.278 Y-53.726 Z-0.272
N1510 X94.233 Y-53.673 Z-0.279
N1515 X94.14 Y-53.55 Z-0.286
N1520 X94.048 Y-53.417
N1525 X93.985 Y-53.318 Z-0.284
N1530 X93.871 Y-53.12 Z-0.287
N1535 X93.853 Y-53.079 Z-0.286
N1540 X93.749 Y-52.822 Z-0.287
N1545 X93.742 Y-52.801 Z-0.289
N1550 X93.683 Y-52.606 Z-0.295
N1555 X93.673 Y-52.567 Z-0.296
N1560 X93.654 Y-52.479 Z-0.301
N1565 X93.625 Y-52.309 Z-0.305
N1570 X93.608 Y-52.149 Z-0.308
N1575 X93.583 Y-51.795 Z-0.309
N1580 Z3.
N1585 X53.668 Y-54.666
N1590 Z0. F100.
N1595 X53.953 Y-54.387 Z-0.283 F750.
N1600 X54.233 Y-54.672 Z0.
N1605 X53.953 Y-54.387 Z-0.283
N1610 X53.998 Y-49.662
N1615 X54.002 Y-49.594 Z-0.286
N1620 X54.012 Y-49.527 Z-0.294
N1625 X54.027 Y-49.46 Z-0.309
N1630 X54.048 Y-49.393 Z-0.33
N1635 X54.075 Y-49.326 Z-0.356
N1640 X54.109 Y-49.259 Z-0.389
N1645 X53.724 Y-48.867 Z0.
N1650 X54.109 Y-49.259 Z-0.389
N1655 X54.178 Y-49.241 Z-0.37
N1660 X54.247 Y-49.229 Z-0.357
N1665 X54.316 Y-49.221 Z-0.349
N1670 X54.385 Y-49.219 Z-0.346
N1675 X54.437 Y-49.221 Z-0.348
N1680 X54.489 Y-49.226 Z-0.352
N1685 X54.746 Y-48.877 Z0.
N1690 X54.489 Y-49.226 Z-0.352
N1695 X54.54 Y-49.277 Z-0.32
N1700 X54.585 Y-49.329 Z-0.293
N1705 X54.624 Y-49.384 Z-0.272
N1710 X54.658 Y-49.44 Z-0.257
N1715 X54.686 Y-49.498 Z-0.248
N1720 X54.709 Y-49.557 Z-0.245
N1725 X55.879 Y-53.141 Z-0.236
N1730 X56.165 Y-54.033 Z-0.229
N1735 X56.187 Y-54.091 Z-0.232
N1740 X56.215 Y-54.148 Z-0.241
N1745 X56.249 Y-54.203 Z-0.256
N1750 X56.288 Y-54.256 Z-0.277
N1755 X56.333 Y-54.307 Z-0.303
N1760 X56.384 Y-54.356 Z-0.336
N1765 X56.14 Y-54.69 Z0.
N1770 X56.384 Y-54.356 Z-0.336
N1775 X56.429 Y-54.36 Z-0.333
N1780 X56.481 Y-54.362 Z-0.332
N1785 X56.713 Y-54.695 Z0.
N1790 X56.481 Y-54.362 Z-0.332
N1795 X56.544 Y-54.313 Z-0.289
N1800 X56.6 Y-54.261 Z-0.253
N1805 X56.649 Y-54.207 Z-0.226
N1810 X56.69 Y-54.15 Z-0.206
N1815 X56.724 Y-54.09 Z-0.194
N1820 X56.75 Y-54.028 Z-0.19
N1825 X57.086 Y-53.069 Z-0.197
N1830 X58.291 Y-49.69 Z-0.202
N1835 X58.317 Y-49.627 Z-0.206
N1840 X58.351 Y-49.567 Z-0.218
N1845 X58.391 Y-49.509 Z-0.237
N1850 X58.439 Y-49.454 Z-0.264
N1855 X58.495 Y-49.401 Z-0.298
N1860 X58.557 Y-49.351 Z-0.34
N1865 X58.627 Y-49.304 Z-0.39
N1870 X58.352 Y-48.911 Z0.
N1875 X58.627 Y-49.304 Z-0.39
N1880 X58.693 Y-49.31 Z-0.396
N1885 X58.759 Y-49.32 Z-0.405
N1890 X58.825 Y-49.335 Z-0.42
N1895 X59.249 Y-48.92 Z0.
N1900 X58.825 Y-49.335 Z-0.42
N1905 X58.866 Y-49.412 Z-0.378
N1910 X58.9 Y-49.489 Z-0.344
N1915 X58.926 Y-49.566 Z-0.317
N1920 X58.944 Y-49.642 Z-0.298
N1925 X58.955 Y-49.719 Z-0.286
N1930 X58.958 Y-49.795 Z-0.283
N1935 X58.914 Y-54.434
N1940 X59.193 Y-54.719 Z0.
N1945 X58.914 Y-54.434 Z-0.283
N1950 X58.628 Y-54.714 Z0.
N1955 Z3.
N1960 X60.432 Y-54.731
N1965 Z0. F100.
N1970 X60.857 Y-54.444 Z-0.291 F750.
N1975 X61.058 Y-54.737 Z-0.001
N1980 X60.857 Y-54.444 Z-0.291
N1985 X61.455 Y-52.889 Z-0.275
N1990 X61.482 Y-52.828 Z-0.278
N1995 X61.515 Y-52.769 Z-0.287
N2000 X61.554 Y-52.712 Z-0.302
N2005 X61.598 Y-52.657 Z-0.323
N2010 X61.648 Y-52.605 Z-0.35
N2015 X61.645 Y-52.529 Z-0.32
N2020 X61.649 Y-52.456 Z-0.297
N2025 X61.659 Y-52.385 Z-0.28
N2030 X61.675 Y-52.317 Z-0.27
N2035 X61.697 Y-52.251 Z-0.266
N2040 X62.378 Y-50.508 Z-0.259
N2045 X62.575 Y-49.968 Z-0.243
N2050 X62.766 Y-49.375 Z-0.204
N2055 X62.796 Y-49.311 Z-0.208
N2060 X62.832 Y-49.251 Z-0.22
N2065 X62.876 Y-49.194 Z-0.24
N2070 X62.714 Y-48.953 Z0.
N2075 X62.876 Y-49.194 Z-0.24
N2080 X62.935 Y-49.181 Z-0.226
N2085 X62.994 Y-49.173 Z-0.218
N2090 X63.052 Y-49.171 Z-0.215
N2095 X63.122 Y-49.176 Z-0.219
N2100 X63.193 Y-49.188 Z-0.231
N2105 X63.263 Y-49.208 Z-0.25
N2110 X63.433 Y-48.96 Z-0.001
N2115 X63.263 Y-49.208 Z-0.25
N2120 X63.298 Y-49.259 Z-0.237
N2125 X63.327 Y-49.311 Z-0.229
N2130 X63.361 Y-49.39 Z-0.226
N2135 X63.578 Y-50.004 Z-0.252
N2140 X63.806 Y-50.611 Z-0.265
N2145 X64.439 Y-52.268 Z-0.289
N2150 X64.461 Y-52.333 Z-0.293
N2155 X64.477 Y-52.401 Z-0.303
N2160 X64.487 Y-52.47 Z-0.32
N2165 X64.492 Y-52.542 Z-0.342
N2170 X64.491 Y-52.616 Z-0.37
N2175 X64.434 Y-52.638 Z-0.331
N2180 X64.389 Y-52.654 Z-0.304
N2185 X64.316 Y-52.681 Z-0.27
N2190 X64.255 Y-52.701 Z-0.25
N2195 X64.193 Y-52.715 Z-0.235
N2200 X64.132 Y-52.723 Z-0.226
N2205 X64.07 Y-52.725 Z-0.223
N2210 X62.036 Y-52.706
N2215 X61.979 Y-52.703 Z-0.226
N2220 X61.922 Y-52.695 Z-0.233
N2225 X61.864 Y-52.681 Z-0.246
N2230 X61.807 Y-52.663 Z-0.264
N2235 X61.741 Y-52.639 Z-0.293
N2240 X61.7 Y-52.624 Z-0.316
N2245 X61.648 Y-52.605 Z-0.35
N2250 X61.7 Y-52.624 Z-0.316
N2255 X61.741 Y-52.639 Z-0.293
N2260 X61.807 Y-52.663 Z-0.264
N2265 X61.864 Y-52.681 Z-0.246
N2270 X61.922 Y-52.695 Z-0.233
N2275 X61.979 Y-52.703 Z-0.226
N2280 X62.036 Y-52.706 Z-0.223
N2285 X64.07 Y-52.725
N2290 X64.132 Y-52.723 Z-0.226
N2295 X64.193 Y-52.715 Z-0.235
N2300 X64.255 Y-52.701 Z-0.25
N2305 X64.316 Y-52.681 Z-0.27
N2310 X64.389 Y-52.654 Z-0.304
N2315 X64.434 Y-52.638 Z-0.331
N2320 X64.491 Y-52.616 Z-0.37
N2325 X64.54 Y-52.67 Z-0.344
N2330 X64.584 Y-52.725 Z-0.324
N2335 X64.622 Y-52.782 Z-0.31
N2340 X64.655 Y-52.842 Z-0.301
N2345 X64.683 Y-52.904 Z-0.298
N2350 X65.284 Y-54.462 Z-0.316
N2355 X65.065 Y-54.775 Z0.
N2360 X65.284 Y-54.462 Z-0.316
N2365 X65.751 Y-54.782 Z0.
N2370 Z3.
N2375 X66.997 Y-54.794
N2380 Z0. F100.
N2385 X67.28 Y-54.516 Z-0.281 F750.
N2390 X67.558 Y-54.799 Z0.
N2395 X67.28 Y-54.516 Z-0.281
N2400 X67.321 Y-50.182
N2405 X67.325 Y-50.112 Z-0.284
N2410 X67.336 Y-50.041 Z-0.294
N2415 X67.353 Y-49.971 Z-0.31
N2420 X67.376 Y-49.901 Z-0.333
N2425 X67.406 Y-49.831 Z-0.362
N2430 X67.443 Y-49.761 Z-0.398
N2435 X67.486 Y-49.691 Z-0.44
N2440 X67.535 Y-49.621 Z-0.489
N2445 X67.479 Y-49.429 Z-0.431
N2450 X67.052 Y-48.995 Z0.
N2455 X67.479 Y-49.429 Z-0.431
N2460 X67.713 Y-49.001 Z0.
N2465 X67.479 Y-49.429 Z-0.431
N2470 X67.535 Y-49.621 Z-0.489
N2475 X67.615 Y-49.653 Z-0.44
N2480 X67.689 Y-49.688 Z-0.397
N2485 X67.758 Y-49.728 Z-0.361
N2490 X67.821 Y-49.771 Z-0.332
N2495 X67.879 Y-49.817 Z-0.309
N2500 X67.931 Y-49.867 Z-0.293
N2505 X67.978 Y-49.92 Z-0.283
N2510 X68.019 Y-49.978 Z-0.279
N2515 X70.556 Y-53.85 Z-0.28
N2520 X70.597 Y-53.907 Z-0.284
N2525 X70.644 Y-53.961 Z-0.293
N2530 X70.696 Y-54.011 Z-0.31
N2535 X70.754 Y-54.057 Z-0.333
N2540 X70.817 Y-54.1 Z-0.362
N2545 X70.886 Y-54.14 Z-0.398
N2550 X70.96 Y-54.175 Z-0.441
N2555 X71.04 Y-54.208 Z-0.49
N2560 X71.097 Y-54.402 Z-0.431
N2565 X71.523 Y-54.837 Z0.
N2570 X71.097 Y-54.402 Z-0.431
N2575 X70.863 Y-54.831 Z0.
N2580 X71.097 Y-54.402 Z-0.431
N2585 X71.04 Y-54.208 Z-0.49
N2590 X71.09 Y-54.137 Z-0.441
N2595 X71.133 Y-54.067 Z-0.398
N2600 X71.169 Y-53.997 Z-0.362
N2605 X71.199 Y-53.927 Z-0.333
N2610 X71.223 Y-53.857 Z-0.31
N2615 X71.24 Y-53.786 Z-0.294
N2620 X71.25 Y-53.716 Z-0.284
N2625 X71.254 Y-53.645 Z-0.281
N2630 X71.296 Y-49.315
N2635 X71.579 Y-49.038 Z0.
N2640 X71.296 Y-49.315 Z-0.281
N2645 X71.018 Y-49.032 Z0.
N2650 Z3.
N2655 X88.525 Y-48.852
N2660 Z0. F100.
N2665 X88.824 Y-49.147 Z-0.297 F750.
N2670 X89.119 Y-48.849 Z0.
N2675 X88.824 Y-49.147 Z-0.297
N2680 X88.852 Y-54.042
N2685 X88.855 Y-54.109 Z-0.3
N2690 X88.864 Y-54.175 Z-0.308
N2695 X88.879 Y-54.242 Z-0.322
N2700 X88.899 Y-54.308 Z-0.342
N2705 X88.559 Y-54.652 Z0.
N2710 X88.899 Y-54.308 Z-0.342
N2715 X88.969 Y-54.339 Z-0.31
N2720 X89.04 Y-54.363 Z-0.286
N2725 X89.11 Y-54.381 Z-0.268
N2730 X89.181 Y-54.391 Z-0.258
N2735 X89.251 Y-54.394 Z-0.254
N2740 X91.852 Y-54.379
N2745 X92.107 Y-54.631 Z0.
N2750 X91.852 Y-54.379 Z-0.254
N2755 X92.104 Y-54.123 Z0.
N2760 Z3.
N2765 X99.78 Y-48.787
N2770 Z0. F100.
N2775 X100.157 Y-49.073 Z-0.289 F750.
N2780 X100.385 Y-48.783 Z0.
N2785 X100.157 Y-49.073 Z-0.289
N2790 X101.077 Y-52.686 Z-0.23
N2795 X101.228 Y-53.288 Z-0.218
N2800 X101.375 Y-53.914 Z-0.196
N2805 X101.395 Y-53.976 Z-0.199
N2810 X101.422 Y-54.035 Z-0.21
N2815 X101.456 Y-54.093 Z-0.227
N2820 X101.497 Y-54.148 Z-0.252
N2825 X101.544 Y-54.202 Z-0.283
N2830 X101.598 Y-54.254 Z-0.322
N2835 X101.352 Y-54.577 Z0.
N2840 X101.598 Y-54.254 Z-0.322
N2845 X101.662 Y-54.256 Z-0.32
N2850 X101.712 Y-54.255 Z-0.321
N2855 X101.761 Y-54.25 Z-0.325
N2860 X102.01 Y-54.573 Z0.
N2865 X101.761 Y-54.25 Z-0.325
N2870 X101.81 Y-54.199 Z-0.292
N2875 X101.853 Y-54.146 Z-0.265
N2880 X101.89 Y-54.092 Z-0.243
N2885 X101.92 Y-54.036 Z-0.228
N2890 X101.946 Y-53.979 Z-0.219
N2895 X101.965 Y-53.92 Z-0.216
N2900 X102.248 Y-52.809 Z-0.234
N2905 X103.014 Y-50.012 Z-0.23
N2910 X103.195 Y-49.314 Z-0.219
N2915 X103.22 Y-49.237 Z-0.223
N2920 X103.25 Y-49.172 Z-0.235
N2925 X103.288 Y-49.109 Z-0.254
N2930 X103.334 Y-49.048 Z-0.282
N2935 X103.119 Y-48.768 Z-0.001
N2940 X103.334 Y-49.048 Z-0.282
N2945 X103.39 Y-49.037 Z-0.271
N2950 X103.446 Y-49.03 Z-0.264
N2955 X103.503 Y-49.027 Z-0.262
N2960 X103.571 Y-49.03 Z-0.265
N2965 X103.639 Y-49.039 Z-0.275
N2970 X103.707 Y-49.055 Z-0.291
N2975 X103.925 Y-48.763 Z-0.001
N2980 X103.707 Y-49.055 Z-0.291
N2985 X103.747 Y-49.112 Z-0.268
N2990 X103.781 Y-49.171 Z-0.252
N2995 X103.809 Y-49.232 Z-0.242
N3000 X103.832 Y-49.3 Z-0.239
N3005 X104.029 Y-50. Z-0.244
N3010 X104.54 Y-51.789 Z-0.25
N3015 X104.685 Y-52.307 Z-0.248
N3020 X104.821 Y-52.821 Z-0.239
N3025 X104.947 Y-53.339 Z-0.219
N3030 X105.075 Y-53.895 Z-0.192
N3035 X105.097 Y-53.956 Z-0.195
N3040 X105.125 Y-54.016 Z-0.206
N3045 X105.16 Y-54.073 Z-0.224
N3050 X105.201 Y-54.128 Z-0.249
N3055 X105.25 Y-54.182 Z-0.282
N3060 X105.306 Y-54.234 Z-0.321
N3065 X105.064 Y-54.556 Z0.
N3070 X105.306 Y-54.234 Z-0.321
N3075 X105.358 Y-54.235 Z-0.319
N3080 X105.429 Y-54.231 Z-0.322
N3085 X105.677 Y-54.552 Z0.
N3090 X105.429 Y-54.231 Z-0.322
N3095 X105.482 Y-54.179 Z-0.285
N3100 X105.528 Y-54.126 Z-0.255
N3105 X105.567 Y-54.07 Z-0.231
N3110 X105.6 Y-54.013 Z-0.214
N3115 X105.626 Y-53.954 Z-0.204
N3120 X105.646 Y-53.893 Z-0.2
N3125 X105.805 Y-53.229 Z-0.219
N3130 X106.867 Y-49.026 Z-0.281
N3135 X106.645 Y-48.747 Z0.
N3140 X106.867 Y-49.026 Z-0.281
N3145 X107.233 Y-48.744 Z0.
N3150 Z3.
N3155 X107.784 Y-39.641
N3160 Z0. F100.
N3165 X108.175 Y-40.027 Z-0.389 F750.
N3170 X108.143 Y-40.095 Z-0.357
N3175 X108.117 Y-40.162 Z-0.33
N3180 X108.096 Y-40.229 Z-0.31
N3185 X108.082 Y-40.297 Z-0.295
N3190 X108.074 Y-40.364 Z-0.286
N3195 X108.071 Y-40.431 Z-0.283
N3200 X108.097 Y-45.156
N3205 X107.817 Y-45.44 Z0.
N3210 X108.097 Y-45.156 Z-0.283
N3215 X108.381 Y-45.437 Z0.
N3220 X108.097 Y-45.156 Z-0.283
N3225 X108.071 Y-40.431
N3230 X108.074 Y-40.364 Z-0.286
N3235 X108.082 Y-40.297 Z-0.295
N3240 X108.096 Y-40.229 Z-0.31
N3245 X108.117 Y-40.162 Z-0.33
N3250 X108.143 Y-40.095 Z-0.357
N3255 X108.175 Y-40.027 Z-0.389
N3260 X108.244 Y-40.008 Z-0.37
N3265 X108.313 Y-39.994 Z-0.357
N3270 X108.382 Y-39.986 Z-0.349
N3275 X108.452 Y-39.983 Z-0.346
N3280 X108.504 Y-39.984 Z-0.348
N3285 X108.556 Y-39.988 Z-0.352
N3290 X108.808 Y-39.635 Z0.
N3295 X108.556 Y-39.988 Z-0.352
N3300 X108.607 Y-40.038 Z-0.32
N3305 X108.653 Y-40.09 Z-0.293
N3310 X108.693 Y-40.144 Z-0.272
N3315 X108.728 Y-40.199 Z-0.257
N3320 X108.757 Y-40.257 Z-0.248
N3325 X108.78 Y-40.316 Z-0.245
N3330 X110.003 Y-43.881 Z-0.236
N3335 X110.302 Y-44.769 Z-0.229
N3340 X110.326 Y-44.827 Z-0.232
N3345 X110.355 Y-44.883 Z-0.241
N3350 X110.389 Y-44.938 Z-0.256
N3355 X110.43 Y-44.99 Z-0.276
N3360 X110.476 Y-45.041 Z-0.303
N3365 X110.527 Y-45.089 Z-0.336
N3370 X110.288 Y-45.427 Z0.
N3375 X110.527 Y-45.089 Z-0.336
N3380 X110.571 Y-45.092 Z-0.333
N3385 X110.623 Y-45.093 Z-0.332
N3390 X110.861 Y-45.423 Z0.
N3395 X110.623 Y-45.093 Z-0.332
N3400 X110.686 Y-45.043 Z-0.289
N3405 X110.741 Y-44.991 Z-0.253
N3410 X110.789 Y-44.936 Z-0.226
N3415 X110.83 Y-44.878 Z-0.206
N3420 X110.862 Y-44.818 Z-0.194
N3425 X110.888 Y-44.755 Z-0.191
N3430 X111.209 Y-43.792 Z-0.197
N3435 X112.363 Y-40.394 Z-0.202
N3440 X112.388 Y-40.331 Z-0.206
N3445 X112.421 Y-40.27 Z-0.218
N3450 X112.461 Y-40.212 Z-0.237
N3455 X112.508 Y-40.156 Z-0.264
N3460 X112.563 Y-40.103 Z-0.298
N3465 X112.624 Y-40.052 Z-0.34
N3470 X112.693 Y-40.004 Z-0.39
N3475 X112.413 Y-39.615 Z0.
N3480 X112.693 Y-40.004 Z-0.39
N3485 X112.76 Y-40.009 Z-0.396
N3490 X112.826 Y-40.018 Z-0.406
N3495 X112.892 Y-40.032 Z-0.42
N3500 X113.309 Y-39.61 Z0.
N3505 X112.892 Y-40.032 Z-0.42
N3510 X112.934 Y-40.108 Z-0.378
N3515 X112.969 Y-40.185 Z-0.344
N3520 X112.996 Y-40.261 Z-0.317
N3525 X113.016 Y-40.337 Z-0.298
N3530 X113.027 Y-40.413 Z-0.287
N3535 X113.032 Y-40.49 Z-0.283
N3540 X113.057 Y-45.129
N3545 X112.777 Y-45.413 Z0.
N3550 X113.057 Y-45.129 Z-0.283
N3555 X113.341 Y-45.41 Z0.
N3560 Z3.
N3565 X115.178 Y-39.6
N3570 Z0. F100.
N3575 X115.521 Y-39.939 Z-0.341 F750.
N3580 X115.591 Y-39.907 Z-0.31
N3585 X115.661 Y-39.883 Z-0.285
N3590 X115.731 Y-39.865 Z-0.268
N3595 X115.802 Y-39.854 Z-0.257
N3600 X115.872 Y-39.85 Z-0.254
N3605 X119.063 Y-39.832
N3610 X119.315 Y-39.577 Z0.
N3615 X119.063 Y-39.832 Z-0.254
N3620 X119.318 Y-40.085 Z0.
N3625 X119.063 Y-39.832 Z-0.254
N3630 X115.872 Y-39.85
N3635 X115.802 Y-39.854 Z-0.257
N3640 X115.731 Y-39.865 Z-0.268
N3645 X115.661 Y-39.883 Z-0.285
N3650 X115.591 Y-39.907 Z-0.31
N3655 X115.521 Y-39.939 Z-0.341
N3660 X115.502 Y-40.006 Z-0.322
N3665 X115.488 Y-40.073 Z-0.308
N3670 X115.48 Y-40.139 Z-0.299
N3675 X115.477 Y-40.206 Z-0.297
N3680 X115.488 Y-42.044
N3685 X115.492 Y-42.114 Z-0.3
N3690 X115.501 Y-42.184 Z-0.309
N3695 X115.517 Y-42.255 Z-0.325
N3700 X115.539 Y-42.325 Z-0.347
N3705 X115.568 Y-42.395 Z-0.375
N3710 X115.624 Z-0.339
N3715 X115.673 Y-42.394 Z-0.312
N3720 X115.716 Z-0.291
N3725 X115.755 Z-0.276
N3730 X115.791 Z-0.265
N3735 X115.824 Z-0.257
N3740 X115.855 Z-0.253
N3745 X118.854 Y-42.377 Z-0.252
N3750 X119.104 Y-42.124 Z0.
N3755 X118.854 Y-42.377 Z-0.252
N3760 X119.107 Y-42.627 Z0.
N3765 X118.854 Y-42.377 Z-0.252
N3770 X115.855 Y-42.394 Z-0.253
N3775 X115.824 Z-0.257
N3780 X115.791 Z-0.265
N3785 X115.755 Z-0.276
N3790 X115.716 Z-0.291
N3795 X115.673 Z-0.312
N3800 X115.624 Y-42.395 Z-0.339
N3805 X115.568 Z-0.375
N3810 X115.54 Y-42.466 Z-0.347
N3815 X115.518 Y-42.536 Z-0.325
N3820 X115.503 Y-42.607 Z-0.309
N3825 X115.494 Y-42.677 Z-0.3
N3830 X115.491 Y-42.748 Z-0.297
N3835 X115.503 Y-44.79
N3840 X115.506 Y-44.857 Z-0.3
N3845 X115.515 Y-44.923 Z-0.308
N3850 X115.529 Y-44.99 Z-0.322
N3855 X115.549 Y-45.056 Z-0.342
N3860 X115.21 Y-45.399 Z0.
N3865 X115.549 Y-45.056 Z-0.342
N3870 X115.62 Y-45.087 Z-0.31
N3875 X115.69 Y-45.111 Z-0.286
N3880 X115.761 Y-45.129 Z-0.268
N3885 X115.831 Y-45.139 Z-0.258
N3890 X115.902 Y-45.142 Z-0.254
N3895 X119.231 Y-45.123
N3900 X119.483 Y-44.868 Z0.
N3905 X119.231 Y-45.123 Z-0.254
N3910 X119.486 Y-45.376 Z0.
N3915 Z3.
N3920 X121.122 Y-39.567
N3925 Z0. F100.
N3930 X121.465 Y-39.907 Z-0.342 F750.
N3935 X121.535 Y-39.875 Z-0.31
N3940 X121.606 Y-39.85 Z-0.286
N3945 X121.676 Y-39.832 Z-0.268
N3950 X121.747 Y-39.821 Z-0.258
N3955 X121.817 Y-39.817 Z-0.254
N3960 X123.085 Y-39.81
N3965 X123.36 Y-39.814 Z-0.252
N3970 X123.636 Y-39.827 Z-0.256
N3975 X123.655 Y-39.829
N3980 X123.911 Y-39.864 Z-0.261
N3985 X123.938 Y-39.869 Z-0.262
N3990 X124.077 Y-39.896 Z-0.268
N3995 X124.209 Y-39.931 Z-0.265
N4000 X124.283 Y-39.958 Z-0.269
N4005 X124.459 Y-40.039 Z-0.281
N4010 X124.543 Y-40.087 Z-0.28
N4015 X124.663 Y-40.163 Z-0.282
N4020 X124.683 Y-40.178 Z-0.283
N4025 X124.789 Y-40.258 Z-0.287
N4030 X124.815 Y-40.283 Z-0.286
N4035 X124.927 Y-40.397 Z-0.288
N4040 X125.013 Y-40.492 Z-0.292
N4045 X125.063 Y-40.554 Z-0.296
N4050 X125.136 Y-40.653 Z-0.298
N4055 X125.21 Y-40.766 Z-0.295
N4060 X125.226 Y-40.798 Z-0.296
N4065 X125.263 Y-40.875 Z-0.3
N4070 X125.381 Y-41.141 Z-0.303
N4075 X125.39 Y-41.168 Z-0.302
N4080 X125.457 Y-41.376 Z-0.299
N4085 X125.473 Y-41.433 Z-0.3
N4090 X125.51 Y-41.59 Z-0.298
N4095 X125.545 Y-41.772 Z-0.303
N4100 X125.548 Y-41.801
N4105 X125.569 Y-42.007 Z-0.305
N4110 X125.574 Y-42.076 Z-0.307
N4115 X125.588 Y-42.412 Z-0.309
N4120 X125.579 Y-42.725 Z-0.308
N4125 X125.56 Y-42.969
N4130 X125.548 Y-43.055 Z-0.305
N4135 X125.516 Y-43.241 Z-0.306
N4140 X125.489 Y-43.368 Z-0.303
N4145 X125.456 Y-43.51 Z-0.304
N4150 X125.4 Y-43.698 Z-0.298
N4155 X125.394 Y-43.713
N4160 X125.305 Y-43.935 Z-0.295
N4165 X125.206 Y-44.131 Z-0.29
N4170 X125.177 Y-44.179 Z-0.289
N4175 X125.117 Y-44.274 Z-0.291
N4180 X125.023 Y-44.402 Z-0.287
N4185 X124.92 Y-44.523 Z-0.284
N4190 X124.887 Y-44.558 Z-0.28
N4195 X124.834 Y-44.609 Z-0.278
N4200 X124.805 Y-44.634 Z-0.279
N4205 X124.684 Y-44.731 Z-0.277
N4210 X124.551 Y-44.814 Z-0.271
N4215 X124.504 Y-44.839 Z-0.27
N4220 X124.408 Y-44.886
N4225 X124.335 Y-44.916 Z-0.266
N4230 X124.257 Y-44.946 Z-0.265
N4235 X124.138 Y-44.984 Z-0.262
N4240 X124.096 Y-44.995 Z-0.263
N4245 X123.883 Y-45.041 Z-0.259
N4250 X123.621 Y-45.08 Z-0.256
N4255 X123.369 Y-45.096 Z-0.254
N4260 X123.127 Y-45.102
N4265 X121.846 Y-45.109
N4270 X121.775 Y-45.106 Z-0.258
N4275 X121.705 Y-45.096 Z-0.268
N4280 X121.634 Y-45.079 Z-0.286
N4285 X121.564 Y-45.054 Z-0.31
N4290 X121.493 Y-45.023 Z-0.342
N4295 X121.154 Y-45.367 Z0.
N4300 X121.493 Y-45.023 Z-0.342
N4305 X121.473 Y-44.957 Z-0.322
N4310 X121.459 Y-44.89 Z-0.308
N4315 X121.45 Y-44.824 Z-0.3
N4320 X121.447 Y-44.757 Z-0.297
N4325 X121.422 Y-40.173
N4330 X121.424 Y-40.107 Z-0.3
N4335 X121.432 Y-40.04 Z-0.308
N4340 X121.446 Y-39.973 Z-0.322
N4345 X121.465 Y-39.907 Z-0.342
N4350 Z3.
N4355 X128.244 Y-48.862
N4360 Z0. F100.
N4365 X128.542 Y-49.157 Z-0.297 F750.
N4370 X128.837 Y-48.858 Z0.
N4375 X128.542 Y-49.157 Z-0.297
N4380 X128.554 Y-51.223
N4385 X128.558 Y-51.294 Z-0.3
N4390 X128.567 Y-51.365 Z-0.31
N4395 X128.584 Y-51.436 Z-0.325
N4400 X128.606 Y-51.506 Z-0.348
N4405 X128.635 Y-51.577 Z-0.376
N4410 X128.607 Y-51.648 Z-0.348
N4415 X128.585 Y-51.719 Z-0.325
N4420 X128.57 Y-51.79 Z-0.31
N4425 X128.561 Y-51.861 Z-0.3
N4430 X128.558 Y-51.931 Z-0.297
N4435 X128.572 Y-54.362
N4440 X128.87 Y-54.657 Z0.
N4445 X128.572 Y-54.362 Z-0.297
N4450 X128.277 Y-54.661 Z0.
N4455 X128.572 Y-54.362 Z-0.297
N4460 X128.558 Y-51.931
N4465 X128.561 Y-51.861 Z-0.3
N4470 X128.57 Y-51.79 Z-0.31
N4475 X128.585 Y-51.719 Z-0.325
N4480 X128.607 Y-51.648 Z-0.348
N4485 X128.635 Y-51.577 Z-0.376
N4490 X128.691 Z-0.341
N4495 X128.74 Y-51.576 Z-0.313
N4500 X128.783 Z-0.293
N4505 X128.822 Z-0.277
N4510 X128.858 Z-0.267
N4515 X128.891 Y-51.575 Z-0.259
N4520 X128.922 Z-0.255
N4525 X132.072 Y-51.557 Z-0.254
N4530 X132.103 Z-0.255
N4535 X132.167 Y-51.556 Z-0.267
N4540 X132.203 Z-0.277
N4545 X132.242 Z-0.293
N4550 X132.285 Z-0.313
N4555 X132.334 Z-0.34
N4560 X132.39 Y-51.555 Z-0.376
N4565 X132.418 Y-51.484 Z-0.347
N4570 X132.439 Y-51.413 Z-0.325
N4575 X132.455 Y-51.342 Z-0.309
N4580 X132.464 Y-51.272 Z-0.3
N4585 X132.467 Y-51.201 Z-0.297
N4590 X132.454 Y-49.134
N4595 X132.749 Y-48.835 Z0.
N4600 X132.454 Y-49.134 Z-0.297
N4605 X132.156 Y-48.839 Z0.
N4610 X132.454 Y-49.134 Z-0.297
N4615 X132.467 Y-51.201
N4620 X132.464 Y-51.272 Z-0.3
N4625 X132.455 Y-51.342 Z-0.309
N4630 X132.439 Y-51.413 Z-0.325
N4635 X132.418 Y-51.484 Z-0.347
N4640 X132.39 Y-51.555 Z-0.376
N4645 X132.419 Y-51.626 Z-0.347
N4650 X132.441 Y-51.696 Z-0.325
N4655 X132.457 Y-51.767 Z-0.309
N4660 X132.467 Y-51.838 Z-0.3
N4665 X132.471 Y-51.909 Z-0.297
N4670 X132.485 Y-54.34
N4675 X132.783 Y-54.635 Z0.
N4680 X132.485 Y-54.34 Z-0.297
N4685 X132.19 Y-54.638 Z0.
N4690 Z3.
N4695 X134.777 Y-48.824
N4700 Z0. F100.
N4705 X135.075 Y-49.119 Z-0.297 F750.
N4710 X135.37 Y-48.82 Z0.
N4715 X135.075 Y-49.119 Z-0.297
N4720 X135.106 Y-54.325
N4725 X134.811 Y-54.623 Z0.
N4730 X135.106 Y-54.325 Z-0.297
N4735 X135.404 Y-54.619 Z0.
N4740 Z3.
N4745 X140.166 Y-51.735
N4750 Z0. F100.
N4755 X140.419 Y-51.985 Z-0.252 F750.
N4760 X140.169 Y-52.239 Z0.
N4765 X140.419 Y-51.985 Z-0.252
N4770 X141.831 Y-51.976 Z-0.253
N4775 X141.899 Y-51.979 Z-0.257
N4780 X141.967 Y-51.988 Z-0.267
N4785 X142.036 Y-52.004 Z-0.283
N4790 X142.104 Y-52.027 Z-0.306
N4795 X142.173 Y-52.056 Z-0.336
N4800 X142.506 Y-51.718 Z0.
N4805 X142.173 Y-52.056 Z-0.336
N4810 X142.194 Y-52.124 Z-0.315
N4815 X142.209 Y-52.191 Z-0.3
N4820 X142.218 Y-52.259 Z-0.292
N4825 X142.222 Y-52.327 Z-0.289
N4830 X142.228 Y-53.444
N4835 X142.226 Y-53.508 Z-0.291
N4840 X142.218 Y-53.572 Z-0.299
N4845 X142.205 Y-53.636 Z-0.313
N4850 X142.518 Y-53.793 Z-0.001
N4855 X142.205 Y-53.636 Z-0.313
N4860 X142.16 Y-53.685 Z-0.3
N4865 X142.111 Y-53.73 Z-0.293
N4870 X142.072 Y-53.76 Z-0.29
N4875 X141.85 Y-53.914 Z-0.284
N4880 X141.655 Y-54.026 Z-0.275
N4885 X141.571 Y-54.069 Z-0.276
N4890 X141.444 Y-54.13 Z-0.273
N4895 X141.281 Y-54.202 Z-0.274
N4900 X141.218 Y-54.225 Z-0.271
N4905 X140.972 Y-54.307 Z-0.268
N4910 X140.947 Y-54.314 Z-0.267
N4915 X140.698 Y-54.377 Z-0.264
N4920 X140.654 Y-54.384 Z-0.262
N4925 X140.399 Y-54.418 Z-0.26
N4930 X140.373 Y-54.42 Z-0.259
N4935 X140.115 Y-54.435 Z-0.257
N4940 X140.068 Y-54.434 Z-0.256
N4945 X139.746 Y-54.413 Z-0.257
N4950 X139.569 Y-54.39 Z-0.26
N4955 X139.45 Y-54.369 Z-0.259
N4960 X139.393 Y-54.357 Z-0.261
N4965 X139.222 Y-54.307 Z-0.263
N4970 X139.104 Y-54.268 Z-0.262
N4975 X139.048 Y-54.247 Z-0.263
N4980 X138.829 Y-54.157 Z-0.262
N4985 X138.776 Y-54.133 Z-0.264
N4990 X138.704 Y-54.096 Z-0.271
N4995 X138.503 Y-53.969 Z-0.27
N5000 X138.382 Y-53.884 Z-0.273
N5005 X138.358 Y-53.866 Z-0.274
N5010 X138.247 Y-53.774 Z-0.278
N5015 X138.216 Y-53.745 Z-0.279
N5020 X138.167 Y-53.695 Z-0.283
N5025 X138.097 Y-53.618 Z-0.284
N5030 X138.065 Y-53.578 Z-0.286
N5035 X137.991 Y-53.479
N5040 X137.968 Y-53.447 Z-0.288
N5045 X137.832 Y-53.235
N5050 X137.785 Y-53.152 Z-0.294
N5055 X137.646 Y-52.808 Z-0.3
N5060 X137.588 Y-52.636 Z-0.303
N5065 X137.538 Y-52.439 Z-0.305
N5070 X137.506 Y-52.244 Z-0.306
N5075 X137.486 Y-52.053 Z-0.307
N5080 X137.467 Y-51.737 Z-0.31
N5085 X137.469 Y-51.665 Z-0.307
N5090 X137.488 Y-51.327 Z-0.305
N5095 X137.507 Y-51.164 Z-0.306
N5100 X137.537 Y-50.973 Z-0.301
N5105 X137.579 Y-50.809
N5110 X137.632 Y-50.63 Z-0.295
N5115 X137.749 Y-50.308 Z-0.287
N5120 X137.765 Y-50.271 Z-0.288
N5125 X137.84 Y-50.13 Z-0.282
N5130 X137.948 Y-49.944 Z-0.281
N5135 X138.05 Y-49.8 Z-0.28
N5140 X138.126 Y-49.707 Z-0.279
N5145 X138.216 Y-49.61 Z-0.273
N5150 X138.232 Y-49.595
N5155 X138.388 Y-49.461 Z-0.264
N5160 X138.585 Y-49.317 Z-0.258
N5165 X138.636 Y-49.285 Z-0.26
N5170 X138.781 Y-49.212 Z-0.25
N5175 X139.003 Y-49.113 Z-0.245
N5180 X139.138 Y-49.066 Z-0.247
N5185 X139.257 Y-49.031 Z-0.245
N5190 X139.307 Y-49.018 Z-0.246
N5195 X139.491 Y-48.978 Z-0.241
N5200 X139.533 Y-48.972 Z-0.24
N5205 X139.663 Y-48.956
N5210 X139.794 Y-48.945 Z-0.237
N5215 X140.066 Y-48.931 Z-0.239
N5220 X140.318 Y-48.943 Z-0.241
N5225 X140.556 Y-48.972 Z-0.243
N5230 X140.583 Y-48.976 Z-0.245
N5235 X140.787 Y-49.026 Z-0.247
N5240 X140.841 Y-49.042 Z-0.249
N5245 X141.033 Y-49.105 Z-0.253
N5250 X141.091 Y-49.128 Z-0.257
N5255 X141.226 Y-49.193 Z-0.259
N5260 X141.285 Y-49.225 Z-0.263
N5265 X141.381 Y-49.282
N5270 X141.461 Y-49.335 Z-0.269
N5275 X141.597 Y-49.451 Z-0.272
N5280 X141.616 Y-49.469 Z-0.273
N5285 X141.756 Y-49.615 Z-0.276
N5290 X141.77 Y-49.636
N5295 X141.894 Y-49.829 Z-0.277
N5300 X141.988 Y-50.004
N5305 X142.028 Y-50.102 Z-0.275
N5310 X141.938 Y-50.284 Z-0.124
N5315 X141.859 Y-50.435 Z-0.001
N5320 X141.938 Y-50.284 Z-0.124
N5325 X142.028 Y-50.102 Z-0.275
N5330 X142.184 Y-50.18 Z-0.158
N5335 X142.383 Y-50.288 Z0.
N5340 Z3.
N5345 X144.255 Y-48.769
N5350 Z0. F100.
N5355 X144.553 Y-49.064 Z-0.297 F750.
N5360 X144.848 Y-48.765 Z0.
N5365 X144.553 Y-49.064 Z-0.297
N5370 X144.565 Y-51.131
N5375 X144.569 Y-51.201 Z-0.3
N5380 X144.579 Y-51.272 Z-0.309
N5385 X144.595 Y-51.343 Z-0.325
N5390 X144.617 Y-51.414 Z-0.347
N5395 X144.646 Y-51.484 Z-0.376
N5400 X144.618 Y-51.555 Z-0.348
N5405 X144.597 Y-51.626 Z-0.326
N5410 X144.582 Y-51.697 Z-0.31
N5415 X144.572 Y-51.768 Z-0.3
N5420 X144.57 Y-51.838 Z-0.297
N5425 X144.584 Y-54.27
N5430 X144.289 Y-54.568 Z0.
N5435 X144.584 Y-54.27 Z-0.297
N5440 X144.882 Y-54.565 Z0.
N5445 X144.584 Y-54.27 Z-0.297
N5450 X144.57 Y-51.838
N5455 X144.572 Y-51.768 Z-0.3
N5460 X144.582 Y-51.697 Z-0.31
N5465 X144.597 Y-51.626 Z-0.326
N5470 X144.618 Y-51.555 Z-0.348
N5475 X144.646 Y-51.484 Z-0.376
N5480 X144.702 Z-0.341
N5485 X144.751 Z-0.313
N5490 X144.794 Y-51.483 Z-0.293
N5495 X144.833 Z-0.278
N5500 X144.869 Z-0.267
N5505 X144.902 Z-0.259
N5510 X144.933 Y-51.482 Z-0.255
N5515 X148.083 Y-51.464 Z-0.254
N5520 X148.114 Z-0.255
N5525 X148.178 Z-0.267
N5530 X148.214 Y-51.463 Z-0.277
N5535 X148.253 Z-0.293
N5540 X148.296 Z-0.313
N5545 X148.345 Z-0.341
N5550 X148.401 Y-51.462 Z-0.376
N5555 X148.429 Y-51.391 Z-0.348
N5560 X148.451 Y-51.32 Z-0.326
N5565 X148.466 Y-51.25 Z-0.31
N5570 X148.475 Y-51.179 Z-0.3
N5575 X148.478 Y-51.108 Z-0.297
N5580 X148.466 Y-49.041
N5585 X148.761 Y-48.743 Z0.
N5590 X148.466 Y-49.041 Z-0.297
N5595 X148.168 Y-48.746 Z0.
N5600 X148.466 Y-49.041 Z-0.297
N5605 X148.478 Y-51.108
N5610 X148.475 Y-51.179 Z-0.3
N5615 X148.466 Y-51.25 Z-0.31
N5620 X148.451 Y-51.32 Z-0.326
N5625 X148.429 Y-51.391 Z-0.348
N5630 X148.401 Y-51.462 Z-0.376
N5635 X148.43 Y-51.533 Z-0.348
N5640 X148.453 Y-51.604 Z-0.326
N5645 X148.469 Y-51.674 Z-0.31
N5650 X148.479 Y-51.745 Z-0.3
N5655 X148.482 Y-51.816 Z-0.297
N5660 X148.497 Y-54.247
N5665 X148.202 Y-54.545 Z0.
N5670 X148.497 Y-54.247 Z-0.297
N5675 X148.795 Y-54.542 Z0.
N5680 Z3.
N5685 X137.391 Y-18.15
N5690 Z0. F100.
N5695 X137.891 Y-17.65 Z-0.5 F750.
N5700 X142.322
N5705 X142.822 Y-18.15 Z0.
N5710 X142.322 Y-17.65 Z-0.5
N5715 Y-17.502
N5720 X142.822 Y-17.003 Z0.
N5725 X142.322 Y-17.502 Z-0.5
N5730 X138.906
N5735 G2 X138.306 Y-16.902 I0. J0.6
N5740 G1 Y-10.916
N5745 X138.806 Y-10.416 Z0.
N5750 X138.306 Y-10.916 Z-0.5
N5755 X137.891
N5760 X137.391 Y-10.416 Z0.
N5765 X137.891 Y-10.916 Z-0.5
N5770 Y-17.65
N5775 Z3.
N5780 X134.532 Y-15.992
N5785 Z-0.5 F100.
N5790 X134.6 Y-15.843 F750.
N5795 X134.656 Y-15.694
N5800 X134.701 Y-15.541
N5805 X134.738 Y-15.382
N5810 X134.795 Y-15.019
N5815 X134.83 Y-14.635
N5820 X134.851 Y-14.261
N5825 X134.83 Y-13.884
N5830 X134.795 Y-13.498
N5835 X134.738 Y-13.133
N5840 X134.701 Y-12.974
N5845 X134.654 Y-12.818
N5850 X134.598 Y-12.667
N5855 X134.529 Y-12.518
N5860 X134.449 Y-12.366
N5865 X134.36 Y-12.217
N5870 X134.145 Y-11.894
N5875 X133.952 Y-11.629
N5880 X133.715 Y-11.439
N5885 X133.428 Y-11.226
N5890 X133.142 Y-11.048
N5895 X133.014 Y-10.983
N5900 X132.881 Y-10.926
N5905 X132.741 Y-10.879
N5910 X132.598 Y-10.842
N5915 X132.261 Y-10.78
N5920 X131.902 Y-10.741
N5925 X131.553 Y-10.715
N5930 X131.159 Y-10.733
N5935 X130.969 Y-10.75
N5940 X130.789 Y-10.776
N5945 X130.612 Y-10.814
N5950 X130.431 Y-10.865
N5955 X130.067 Y-10.986
N5960 X129.844 Y-11.099
N5965 X129.627 Y-11.23
N5970 X129.427 Y-11.39
N5975 X129.233 Y-11.569
N5980 X129.048 Y-11.782
N5985 X128.878 Y-12.004
N5990 X128.734 Y-12.243
N5995 X128.612 Y-12.481
N6000 X128.466 Y-12.921
N6005 X128.405 Y-13.14
N6010 X128.361 Y-13.356
N6015 X128.33 Y-13.578
N6020 X128.311 Y-13.809
N6025 X128.293 Y-14.293
N6030 X128.314 Y-14.669
N6035 X128.349 Y-15.048
N6040 X128.406 Y-15.406
N6045 X128.443 Y-15.562
N6050 X128.488 Y-15.714
N6055 X128.544 Y-15.861
N6060 X128.609 Y-16.001
N6065 X128.784 Y-16.309
N6070 X128.992 Y-16.62
N6075 X129.182 Y-16.879
N6080 X129.42 Y-17.068
N6085 X129.708 Y-17.28
N6090 X129.995 Y-17.457
N6095 X130.123 Y-17.522
N6100 X130.257 Y-17.578
N6105 X130.398 Y-17.625
N6110 X130.541 Y-17.662
N6115 X130.878 Y-17.722
N6120 X131.238 Y-17.761
N6125 X131.582 Y-17.785
N6130 X131.922 Y-17.76
N6135 X132.28 Y-17.721
N6140 X132.615 Y-17.66
N6145 X132.757 Y-17.622
N6150 X132.895 Y-17.575
N6155 X133.028 Y-17.519
N6160 X133.154 Y-17.454
N6165 X133.438 Y-17.277
N6170 X133.723 Y-17.065
N6175 X133.959 Y-16.875
N6180 X134.15 Y-16.612
N6185 X134.364 Y-16.291
N6190 X134.453 Y-16.142
N6195 X134.532 Y-15.992
N6200 Z3.
N6205 X134.124 Y-15.819
N6210 Z-0.5 F100.
N6215 X134.112 Y-15.846 F750.
N6220 X133.992 Y-16.093
N6225 X133.971 Y-16.133
N6230 X133.831 Y-16.374
N6235 X133.819 Y-16.393
N6240 X133.669 Y-16.631
N6245 G2 X133.555 Y-16.764 I-0.507 J0.32
N6250 G1 X133.213 Y-17.06
N6255 X133.166 Y-17.097
N6260 X132.986 Y-17.224
N6265 X132.921 Y-17.264
N6270 X132.729 Y-17.366
N6275 X132.645 Y-17.402
N6280 X132.44 Y-17.474
N6285 X132.37 Y-17.494
N6290 X132.154 Y-17.54
N6295 X132.096 Y-17.55
N6300 X131.646 Y-17.602
N6305 G2 X131.507 I-0.069 J0.596
N6310 G1 X131.055 Y-17.549
N6315 X130.997 Y-17.539
N6320 X130.78 Y-17.492
N6325 X130.71 Y-17.472
N6330 X130.504 Y-17.4
N6335 X130.42 Y-17.363
N6340 X130.227 Y-17.26
N6345 X130.163 Y-17.221
N6350 X129.982 Y-17.093
N6355 X129.935 Y-17.056
N6360 X129.591 Y-16.758
N6365 G2 X129.48 Y-16.63 I0.393 J0.454
N6370 G1 X129.329 Y-16.396
N6375 X129.316 Y-16.376
N6380 X129.176 Y-16.138
N6385 X129.156 Y-16.1
N6390 X129.035 Y-15.857
N6395 X129.008 Y-15.795
N6400 X128.916 Y-15.541
N6405 X128.894 Y-15.467
N6410 X128.835 Y-15.204
N6415 X128.826 Y-15.149
N6420 X128.791 Y-14.878
N6425 X128.787 Y-14.834
N6430 X128.757 Y-14.277
N6435 Y-14.216
N6440 X128.784 Y-13.659
N6445 X128.787 Y-13.616
N6450 X128.82 Y-13.344
N6455 X128.83 Y-13.288
N6460 X128.888 Y-13.024
N6465 X128.907 Y-12.956
N6470 X128.995 Y-12.702
N6475 X129.022 Y-12.636
N6480 X129.141 Y-12.391
N6485 X129.162 Y-12.353
N6490 X129.3 Y-12.114
N6495 X129.311 Y-12.095
N6500 X129.459 Y-11.86
N6505 G2 X129.579 Y-11.721 I0.508 J-0.319
N6510 G1 X129.928 Y-11.426
N6515 X129.977 Y-11.389
N6520 X130.161 Y-11.263
N6525 X130.226 Y-11.224
N6530 X130.421 Y-11.124
N6535 X130.505 Y-11.088
N6540 X130.713 Y-11.019
N6545 X130.783 Y-11.
N6550 X131.002 Y-10.955
N6555 X131.058 Y-10.946
N6560 X131.513 Y-10.898
N6565 G2 X131.639 I0.064 J-0.597
N6570 G1 X132.092 Y-10.945
N6575 X132.149 Y-10.954
N6580 X132.367 Y-10.998
N6585 X132.436 Y-11.016
N6590 X132.643 Y-11.085
N6595 X132.728 Y-11.12
N6600 X132.922 Y-11.219
N6605 X132.989 Y-11.259
N6610 X133.171 Y-11.384
N6615 X133.217 Y-11.419
N6620 X133.565 Y-11.712
N6625 G2 X133.688 Y-11.853 I-0.386 J-0.459
N6630 G1 X133.834 Y-12.087
N6635 X133.845 Y-12.105
N6640 X133.982 Y-12.342
N6645 X134.003 Y-12.382
N6650 X134.12 Y-12.625
N6655 X134.146 Y-12.69
N6660 X134.233 Y-12.943
N6665 X134.252 Y-13.011
N6670 X134.309 Y-13.273
N6675 X134.319 Y-13.328
N6680 X134.352 Y-13.598
N6685 X134.355 Y-13.642
N6690 X134.381 Y-14.195
N6695 Y-14.253
N6700 X134.353 Y-14.815
N6705 X134.349 Y-14.859
N6710 X134.315 Y-15.134
N6715 X134.306 Y-15.188
N6720 X134.248 Y-15.455
N6725 X134.228 Y-15.526
N6730 X134.138 Y-15.782
N6735 X134.124 Y-15.819
N6740 Z3.
N6745 X124.732 Y-18.15
N6750 Z0. F100.
N6755 X124.999 Y-17.651 Z-0.499 F750.
N6760 Z3.
N6765 X119.519 Y-18.15
N6770 Z0. F100.
N6775 X120.019 Y-17.65 Z-0.5 F750.
N6780 Y-10.85
N6785 X119.519 Y-10.351 Z0.
N6790 X120.019 Y-10.85 Z-0.5
N6795 X122.816
N6800 X123.27 Y-10.855
N6805 X123.702 Y-10.881
N6810 X123.897 Y-10.907
N6815 X124.099 Y-10.945
N6820 X124.477 Y-11.034
N6825 X124.672 Y-11.131
N6830 X124.759 Y-11.182
N6835 X124.829 Y-11.234
N6840 X124.893 Y-11.294
N6845 X124.962 Y-11.371
N6850 X125.103 Y-11.554
N6855 X125.218 Y-11.782
N6860 X125.265 Y-11.892
N6865 X125.299 Y-11.997
N6870 X125.323 Y-12.105
N6875 X125.34 Y-12.225
N6880 X125.36 Y-12.489
N6885 X125.331 Y-12.823
N6890 X125.306 Y-12.966
N6895 X125.271 Y-13.09
N6900 X125.223 Y-13.204
N6905 X125.154 Y-13.325
N6910 X124.987 Y-13.569
N6915 X124.726 Y-13.781
N6920 X124.593 Y-13.871
N6925 X124.459 Y-13.942
N6930 X124.313 Y-13.998
N6935 X124.148 Y-14.045
N6940 X123.886 Y-14.099
N6945 X123.773 Y-14.126 Z-0.497
N6950 X123.69 Y-14.141 Z-0.5
N6955 X123.413 Y-14.184
N6960 X123.378 Y-14.189
N6965 X123.016 Y-14.223
N6970 X122.975 Y-14.226
N6975 X122.61 Y-14.236
N6980 X122.59
N6985 X122.227 Y-14.234
N6990 X121.034
N6995 G2 X120.434 Y-13.634 I0. J0.6
N7000 G1 Y-11.604
N7005 G2 X121.034 Y-11.004 I0.6 J0.
N7010 G1 X122.295
N7015 X122.296
N7020 X122.885 Y-11.005
N7025 X122.91 Y-11.006
N7030 X123.499 Y-11.032
N7035 G2 X123.615 Y-11.048 I-0.026 J-0.599
N7040 G1 X123.787 Y-11.09
N7045 X123.858 Y-11.112
N7050 X124.019 Y-11.173
N7055 G2 X124.136 Y-11.233 I-0.213 J-0.561
N7060 G1 X124.28 Y-11.327
N7065 X124.346 Y-11.378
N7070 X124.478 Y-11.494
N7075 G2 X124.586 Y-11.619 I-0.396 J-0.451
N7080 G1 X124.682 Y-11.768
N7085 X124.723 Y-11.843
N7090 X124.795 Y-12.
N7095 G2 X124.838 Y-12.132 I-0.545 J-0.25
N7100 G1 X124.872 Y-12.302
N7105 X124.882 Y-12.376
N7110 X124.895 Y-12.553
N7115 X124.896 Y-12.635
N7120 X124.886 Y-12.793
N7125 X124.879 Y-12.855
N7130 X124.853 Y-13.01
N7135 G2 X124.824 Y-13.118 I-0.592 J0.1
N7140 G1 X124.77 Y-13.264
N7145 X124.74 Y-13.332
N7150 X124.667 Y-13.473
N7155 G2 X124.591 Y-13.585 I-0.533 J0.276
N7160 G1 X124.497 Y-13.696
N7165 X124.447 Y-13.748
N7170 X124.343 Y-13.844
N7175 G2 X124.241 Y-13.921 I-0.407 J0.44
N7180 G1 X124.118 Y-13.993
N7185 X124.057 Y-14.025
N7190 X123.925 Y-14.084
N7195 X123.886 Y-14.099
N7200 X123.925 Y-14.084
N7205 X124.057 Y-14.025
N7210 X124.118 Y-13.993
N7215 X124.241 Y-13.921
N7220 G3 X124.343 Y-13.844 I-0.305 J0.517
N7225 G1 X124.447 Y-13.748
N7230 X124.497 Y-13.696
N7235 X124.591 Y-13.585
N7240 G3 X124.667 Y-13.473 I-0.457 J0.388
N7245 G1 X124.74 Y-13.332
N7250 X124.77 Y-13.264
N7255 X124.824 Y-13.118
N7260 G3 X124.853 Y-13.01 I-0.563 J0.208
N7265 G1 X124.879 Y-12.855
N7270 X124.886 Y-12.793
N7275 X124.896 Y-12.635
N7280 X124.895 Y-12.553
N7285 X124.882 Y-12.376
N7290 X124.872 Y-12.302
N7295 X124.838 Y-12.132
N7300 G3 X124.795 Y-12. I-0.588 J-0.118
N7305 G1 X124.723 Y-11.843
N7310 X124.682 Y-11.768
N7315 X124.586 Y-11.619
N7320 G3 X124.478 Y-11.494 I-0.504 J-0.325
N7325 G1 X124.346 Y-11.378
N7330 X124.28 Y-11.327
N7335 X124.136 Y-11.233
N7340 G3 X124.019 Y-11.173 I-0.33 J-0.501
N7345 G1 X123.858 Y-11.112
N7350 X123.787 Y-11.09
N7355 X123.615 Y-11.048
N7360 G3 X123.499 Y-11.032 I-0.142 J-0.583
N7365 G1 X122.91 Y-11.006
N7370 X122.885 Y-11.005
N7375 X122.296 Y-11.004
N7380 X122.295
N7385 X121.034
N7390 G3 X120.434 Y-11.604 I0. J-0.6
N7395 G1 Y-13.634
N7400 G3 X121.034 Y-14.234 I0.6 J0.
N7405 G1 X122.227
N7410 X122.59 Y-14.236
N7415 X122.61
N7420 X122.975 Y-14.226
N7425 X123.016 Y-14.223
N7430 X123.378 Y-14.189
N7435 X123.413 Y-14.184
N7440 X123.69 Y-14.141
N7445 G3 X123.531 Y-15.228 I0.16 J-0.578
N7450 G1 X123.75 Y-15.366
N7455 X123.939 Y-15.499
N7460 X124.115 Y-15.647
N7465 X124.273 Y-15.798
N7470 X124.49 Y-16.068
N7475 X124.711 Y-16.366
N7480 X124.919 Y-16.677
N7485 X125.125 Y-17.007
N7490 Y-17.008
N7495 X125.528 Y-17.65
N7500 X126.43 Y-18.15 Z0.
N7505 X125.528 Y-17.65 Z-0.5
N7510 X124.999
N7515 X124.01 Y-16.175
N7520 X124.009 Y-16.173
N7525 X123.601 Y-15.571
N7530 X123.585 Y-15.549
N7535 X123.368 Y-15.258
N7540 X123.356 Y-15.243
N7545 X123.129 Y-14.959
N7550 X123.074 Y-14.9
N7555 X122.966 Y-14.796
N7560 X122.928 Y-14.763
N7565 X122.813 Y-14.67
N7570 X122.74 Y-14.62
N7575 X122.613 Y-14.546
N7580 X122.563 Y-14.519
N7585 X122.428 Y-14.457
N7590 G3 X122.306 Y-14.415 I-0.253 J-0.544
N7595 G1 X122.105 Y-14.37
N7600 X122.065 Y-14.362
N7605 X121.863 Y-14.332
N7610 X121.807 Y-14.326
N7615 X121.602 Y-14.314
N7620 X121.573 Y-14.313
N7625 X121.368 Y-14.311
N7630 X121.362
N7635 X121.034
N7640 G3 X120.434 Y-14.911 I0. J-0.6
N7645 G1 Y-17.65
N7650 X120.019
N7655 X120.434
N7660 X120.934 Y-18.15 Z0.
N7665 Z3.
N7670 X111.579 Y-11.503
N7675 Z0. F100.
N7680 X112.079 Y-11.004 Z-0.5 F750.
N7685 Y-10.85
N7690 X111.579 Y-10.351 Z0.
N7695 X112.079 Y-10.85 Z-0.5
N7700 X117.236
N7705 X117.736 Y-10.351 Z0.
N7710 X117.236 Y-10.85 Z-0.5
N7715 Y-11.004
N7720 X117.736 Y-11.503 Z0.
N7725 X117.236 Y-11.004 Z-0.5
N7730 X115.468
N7735 G3 X114.868 Y-11.604 I0. J-0.6
N7740 G1 Y-17.65
N7745 X115.368 Y-18.15 Z0.
N7750 X114.868 Y-17.65 Z-0.5
N7755 X114.453
N7760 X113.953 Y-18.15 Z0.
N7765 X114.453 Y-17.65 Z-0.5
N7770 Y-11.604
N7775 G3 X113.853 Y-11.004 I-0.6 J0.
N7780 G1 X112.079
N7785 Z3.
N7790 X103.562 Y-18.15
N7795 Z0. F100.
N7800 X104.062 Y-17.65 Z-0.5 F750.
N7805 X104.363
N7810 X104.863 Y-18.15 Z0.
N7815 X104.363 Y-17.65 Z-0.5
N7820 Y-13.033
N7825 G2 X105.473 Y-12.718 I0.6 J0.
N7830 G1 X108.522 Y-17.65
N7835 X108.244 Y-18.15 Z0.
N7840 X108.522 Y-17.65 Z-0.5
N7845 X109.209
N7850 X109.709 Y-18.15 Z0.
N7855 X109.209 Y-17.65 Z-0.5
N7860 Y-10.85
N7865 X109.709 Y-10.351 Z0.
N7870 X109.209 Y-10.85 Z-0.5
N7875 X108.908
N7880 X108.408 Y-10.351 Z0.
N7885 X108.908 Y-10.85 Z-0.5
N7890 Y-15.593
N7895 G2 X107.796 Y-15.906 I-0.6 J0.
N7900 G1 X104.698 Y-10.85
N7905 X104.978 Y-10.351 Z0.
N7910 X104.698 Y-10.85 Z-0.5
N7915 X104.062
N7920 X103.562 Y-10.351 Z0.
N7925 X104.062 Y-10.85 Z-0.5
N7930 Y-17.65
N7935 Z3.
N7940 X100.731 Y-15.992
N7945 Z-0.5 F100.
N7950 X100.652 Y-16.142 F750.
N7955 X100.563 Y-16.291
N7960 X100.349 Y-16.612
N7965 X100.159 Y-16.876
N7970 X99.923 Y-17.065
N7975 X99.638 Y-17.277
N7980 X99.354 Y-17.454
N7985 X99.228 Y-17.519
N7990 X99.094 Y-17.575
N7995 X98.956 Y-17.622
N8000 X98.814 Y-17.66
N8005 X98.48 Y-17.721
N8010 X98.122 Y-17.76
N8015 X97.781 Y-17.785
N8020 X97.438 Y-17.761
N8025 X97.077 Y-17.722
N8030 X96.74 Y-17.662
N8035 X96.597 Y-17.625
N8040 X96.456 Y-17.578
N8045 X96.321 Y-17.522
N8050 X96.194 Y-17.457
N8055 X95.907 Y-17.28
N8060 X95.619 Y-17.068
N8065 X95.381 Y-16.879
N8070 X95.192 Y-16.62
N8075 X94.983 Y-16.309
N8080 X94.808 Y-16.
N8085 X94.744 Y-15.861
N8090 X94.688 Y-15.715
N8095 X94.642 Y-15.562
N8100 X94.605 Y-15.406
N8105 X94.548 Y-15.048
N8110 X94.514 Y-14.669
N8115 X94.492 Y-14.293
N8120 X94.51 Y-13.809
N8125 X94.529 Y-13.578
N8130 X94.559 Y-13.356
N8135 X94.605 Y-13.14
N8140 X94.665 Y-12.921
N8145 X94.811 Y-12.481
N8150 X94.934 Y-12.243
N8155 X95.077 Y-12.004
N8160 X95.247 Y-11.782
N8165 X95.432 Y-11.569
N8170 X95.626 Y-11.39
N8175 X95.826 Y-11.231
N8180 X96.043 Y-11.099
N8185 X96.267 Y-10.986
N8190 X96.631 Y-10.865
N8195 X96.811 Y-10.814
N8200 X96.988 Y-10.776
N8205 X97.169 Y-10.75
N8210 X97.358 Y-10.733
N8215 X97.751 Y-10.715
N8220 X98.102 Y-10.741
N8225 X98.461 Y-10.78
N8230 X98.797 Y-10.841
N8235 X98.94 Y-10.879
N8240 X99.08 Y-10.926
N8245 X99.214 Y-10.983
N8250 X99.341 Y-11.048
N8255 X99.627 Y-11.226
N8260 X99.914 Y-11.439
N8265 X100.151 Y-11.629
N8270 X100.344 Y-11.894
N8275 X100.559 Y-12.217
N8280 X100.649 Y-12.367
N8285 X100.73 Y-12.519
N8290 X100.798 Y-12.667
N8295 X100.854 Y-12.817
N8300 X100.899 Y-12.973
N8305 X100.937 Y-13.133
N8310 X100.994 Y-13.498
N8315 X101.029 Y-13.884
N8320 X101.05 Y-14.261
N8325 X101.029 Y-14.635
N8330 X100.994 Y-15.019
N8335 X100.938 Y-15.382
N8340 X100.901 Y-15.539
N8345 X100.855 Y-15.694
N8350 X100.799 Y-15.843
N8355 X100.731 Y-15.992
N8360 Z3.
N8365 X100.323 Y-15.819
N8370 Z-0.5 F100.
N8375 X100.311 Y-15.846 F750.
N8380 X100.191 Y-16.093
N8385 X100.17 Y-16.133
N8390 X100.03 Y-16.374
N8395 X100.019 Y-16.393
N8400 X99.869 Y-16.631
N8405 G2 X99.754 Y-16.764 I-0.507 J0.32
N8410 G1 X99.412 Y-17.06
N8415 X99.365 Y-17.097
N8420 X99.185 Y-17.224
N8425 X99.121 Y-17.264
N8430 X98.929 Y-17.366
N8435 X98.845 Y-17.402
N8440 X98.64 Y-17.474
N8445 X98.569 Y-17.494
N8450 X98.353 Y-17.54
N8455 X98.295 Y-17.55
N8460 X97.845 Y-17.602
N8465 G2 X97.706 I-0.069 J0.596
N8470 G1 X97.254 Y-17.549
N8475 X97.196 Y-17.539
N8480 X96.979 Y-17.492
N8485 X96.908 Y-17.472
N8490 X96.702 Y-17.4
N8495 X96.618 Y-17.363
N8500 X96.426 Y-17.26
N8505 X96.363 Y-17.221
N8510 X96.181 Y-17.093
N8515 X96.134 Y-17.056
N8520 X95.79 Y-16.759
N8525 G2 X95.678 Y-16.629 I0.393 J0.454
N8530 G1 X95.528 Y-16.395
N8535 X95.516 Y-16.377
N8540 X95.376 Y-16.139
N8545 X95.354 Y-16.1
N8550 X95.233 Y-15.856
N8555 X95.206 Y-15.793
N8560 X95.115 Y-15.54
N8565 X95.094 Y-15.469
N8570 X95.035 Y-15.205
N8575 X95.025 Y-15.15
N8580 X94.99 Y-14.878
N8585 X94.986 Y-14.833
N8590 X94.956 Y-14.277
N8595 Y-14.216
N8600 X94.983 Y-13.659
N8605 X94.987 Y-13.615
N8610 X95.02 Y-13.343
N8615 X95.029 Y-13.289
N8620 X95.087 Y-13.025
N8625 X95.106 Y-12.955
N8630 X95.195 Y-12.7
N8635 X95.221 Y-12.637
N8640 X95.34 Y-12.392
N8645 X95.361 Y-12.352
N8650 X95.499 Y-12.114
N8655 X95.511 Y-12.095
N8660 X95.659 Y-11.86
N8665 G2 X95.779 Y-11.722 I0.508 J-0.32
N8670 G1 X96.127 Y-11.426
N8675 X96.176 Y-11.389
N8680 X96.359 Y-11.263
N8685 X96.424 Y-11.224
N8690 X96.619 Y-11.124
N8695 X96.704 Y-11.088
N8700 X96.912 Y-11.019
N8705 X96.981 Y-11.
N8710 X97.2 Y-10.955
N8715 X97.257 Y-10.946
N8720 X97.713 Y-10.898
N8725 G2 X97.839 I0.064 J-0.597
N8730 G1 X98.291 Y-10.945
N8735 X98.348 Y-10.954
N8740 X98.566 Y-10.998
N8745 X98.635 Y-11.016
N8750 X98.842 Y-11.085
N8755 X98.927 Y-11.12
N8760 X99.121 Y-11.219
N8765 X99.186 Y-11.258
N8770 X99.369 Y-11.383
N8775 X99.418 Y-11.42
N8780 X99.765 Y-11.713
N8785 G2 X99.886 Y-11.853 I-0.387 J-0.459
N8790 G1 X100.033 Y-12.086
N8795 X100.044 Y-12.105
N8800 X100.181 Y-12.343
N8805 X100.202 Y-12.382
N8810 X100.319 Y-12.626
N8815 X100.345 Y-12.689
N8820 X100.433 Y-12.942
N8825 X100.452 Y-13.012
N8830 X100.509 Y-13.275
N8835 X100.518 Y-13.328
N8840 X100.55 Y-13.598
N8845 X100.554 Y-13.642
N8850 X100.58 Y-14.195
N8855 Y-14.252
N8860 X100.553 Y-14.815
N8865 X100.549 Y-14.859
N8870 X100.515 Y-15.134
N8875 X100.506 Y-15.188
N8880 X100.447 Y-15.455
N8885 X100.427 Y-15.525
N8890 X100.338 Y-15.782
N8895 X100.323 Y-15.819
N8900 Z3.
N8905 X90.744 Y-12.717
N8910 Z-0.001 F100.
N8915 X90.89 Y-12.459 Z-0.218 F750.
N8920 X91.01 Y-12.227 Z-0.416
N8925 X91.057 Y-12.129 Z-0.5
N8930 X91.477 Y-12.029
N8935 X91.566 Y-12.071 Z-0.439
N8940 X91.78 Y-12.181 Z-0.281
N8945 X92.145 Y-12.383 Z-0.001
N8950 X91.78 Y-12.181 Z-0.281
N8955 X91.566 Y-12.071 Z-0.439
N8960 X91.477 Y-12.029 Z-0.5
N8965 X91.439 Y-11.95
N8970 X91.356 Y-11.815
N8975 X91.258 Y-11.679
N8980 X91.043 Y-11.421
N8985 X90.844 Y-11.274
N8990 X90.602 Y-11.109
N8995 X90.364 Y-10.971
N9000 X90.26 Y-10.921
N9005 X90.16 Y-10.881
N9010 X89.913 Y-10.812
N9015 X89.646 Y-10.766
N9020 X89.35 Y-10.735
N9025 X89.076 Y-10.716
N9030 X88.749 Y-10.742
N9035 X88.404 Y-10.783
N9040 X88.084 Y-10.846
N9045 X87.95 Y-10.884
N9050 X87.818 Y-10.931
N9055 X87.692 Y-10.987
N9060 X87.573 Y-11.051
N9065 X87.303 Y-11.228
N9070 X87.031 Y-11.439
N9075 X86.808 Y-11.627
N9080 X86.618 Y-11.9
N9085 X86.406 Y-12.231
N9090 X86.318 Y-12.386
N9095 X86.24 Y-12.541
N9100 X86.173 Y-12.694
N9105 X86.118 Y-12.848
N9110 X86.073 Y-13.009
N9115 X86.037 Y-13.172
N9120 X85.982 Y-13.544
N9125 X85.949 Y-13.936
N9130 X85.93 Y-14.319
N9135 X85.951 Y-14.687
N9140 X85.985 Y-15.062
N9145 X86.04 Y-15.418
N9150 X86.076 Y-15.572
N9155 X86.121 Y-15.724
N9160 X86.175 Y-15.87
N9165 X86.238 Y-16.009
N9170 X86.409 Y-16.316
N9175 X86.613 Y-16.626
N9180 X86.8 Y-16.889
N9185 X87.017 Y-17.073
N9190 X87.279 Y-17.278
N9195 X87.539 Y-17.451
N9200 X87.654 Y-17.514
N9205 X87.775 Y-17.569
N9210 X87.9 Y-17.615
N9215 X88.028 Y-17.652
N9220 X88.336 Y-17.715
N9225 X88.668 Y-17.757
N9230 X88.98 Y-17.785
N9235 X89.48 Y-17.75
N9240 X89.711 Y-17.718
N9245 X89.923 Y-17.669
N9250 X90.124 Y-17.597
N9255 X90.329 Y-17.501
N9260 X90.731 Y-17.271
N9265 X91.069 Y-16.93
N9270 X91.22 Y-16.752
N9275 X91.345 Y-16.569
N9280 X91.452 Y-16.369
N9285 X91.527 Y-16.191
N9290 X91.589 Y-16.162 Z-0.454
N9295 X92.169 Y-15.87 Z0.
N9300 X91.589 Y-16.162 Z-0.454
N9305 X91.527 Y-16.191 Z-0.5
N9310 X91.127 Y-16.064
N9315 X90.992 Y-15.793 Z-0.282
N9320 X90.8 Y-15.436 Z-0.001
N9325 X90.992 Y-15.793 Z-0.282
N9330 X91.127 Y-16.064 Z-0.5
N9335 X91.12 Y-16.082
N9340 X91.047 Y-16.248
N9345 X91.019 Y-16.304
N9350 X90.929 Y-16.461
N9355 X90.898 Y-16.51
N9360 X90.792 Y-16.659
N9365 X90.763 Y-16.697
N9370 X90.526 Y-16.981
N9375 G2 X90.409 Y-17.089 I-0.461 J0.384
N9380 G1 X90.159 Y-17.263
N9385 X90.115 Y-17.291
N9390 X89.985 Y-17.366
N9395 X89.929 Y-17.395
N9400 X89.794 Y-17.455
N9405 X89.721 Y-17.481
N9410 X89.579 Y-17.523
N9415 X89.518 Y-17.538
N9420 X89.371 Y-17.565
N9425 X89.321 Y-17.572
N9430 X89.018 Y-17.603
N9435 G2 X88.887 Y-17.602 I-0.06 J0.597
N9440 G1 X88.481 Y-17.553
N9445 X88.421 Y-17.543
N9450 X88.227 Y-17.5
N9455 X88.154 Y-17.479
N9460 X87.97 Y-17.413
N9465 X87.884 Y-17.374
N9470 X87.713 Y-17.279
N9475 X87.647 Y-17.238
N9480 X87.487 Y-17.12
N9485 X87.439 Y-17.081
N9490 X87.136 Y-16.807
N9495 G2 X87.014 Y-16.653 I0.403 J0.445
N9500 G1 X86.875 Y-16.403
N9505 X86.865 Y-16.384
N9510 X86.737 Y-16.131
N9515 X86.718 Y-16.09
N9520 X86.61 Y-15.831
N9525 X86.587 Y-15.769
N9530 X86.509 Y-15.502
N9535 X86.494 Y-15.438
N9540 X86.445 Y-15.162
N9545 X86.438 Y-15.113
N9550 X86.412 Y-14.832
N9555 X86.409 Y-14.792
N9560 X86.393 Y-14.218
N9565 X86.394 Y-14.181
N9570 X86.413 Y-13.628
N9575 X86.415 Y-13.587
N9580 X86.444 Y-13.316
N9585 X86.451 Y-13.266
N9590 X86.501 Y-13.002
N9595 X86.518 Y-12.935
N9600 X86.598 Y-12.68
N9605 X86.622 Y-12.616
N9610 X86.731 Y-12.37
N9615 X86.75 Y-12.329
N9620 X86.879 Y-12.088
N9625 X86.89 Y-12.069
N9630 X87.029 Y-11.831
N9635 G2 X87.151 Y-11.683 I0.518 J-0.302
N9640 G1 X87.461 Y-11.41
N9645 X87.509 Y-11.372
N9650 X87.672 Y-11.255
N9655 X87.737 Y-11.214
N9660 X87.912 Y-11.121
N9665 X87.997 Y-11.083
N9670 X88.184 Y-11.018
N9675 X88.256 Y-10.998
N9680 X88.453 Y-10.955
N9685 X88.511 Y-10.946
N9690 X88.922 Y-10.898
N9695 G2 X89.041 Y-10.897 I0.068 J-0.596
N9700 G1 X89.336 Y-10.922
N9705 X89.382 Y-10.927
N9710 X89.526 Y-10.95
N9715 X89.581 Y-10.962
N9720 X89.721 Y-10.998
N9725 X89.789 Y-11.021
N9730 X89.923 Y-11.073
N9735 X89.978 Y-11.098
N9740 X90.108 Y-11.165
N9745 X90.15 Y-11.189
N9750 X90.401 Y-11.345
N9755 G2 X90.511 Y-11.433 I-0.317 J-0.51
N9760 G1 X90.718 Y-11.643
N9765 X90.751 Y-11.678
N9770 X90.844 Y-11.789
N9775 X90.881 Y-11.837
N9780 X90.962 Y-11.956
N9785 X90.998 Y-12.017
N9790 X91.057 Y-12.129
N9795 Z3.
N9800 X78.165 Y-18.15
N9805 Z0. F100.
N9810 X78.443 Y-17.651 Z-0.499 F750.
N9815 Z3.
N9820 X73.484 Y-18.15
N9825 Z0. F100.
N9830 X73.983 Y-17.65 Z-0.5 F750.
N9835 X74.284
N9840 X74.784 Y-18.15 Z0.
N9845 X74.284 Y-17.65 Z-0.5
N9850 Y-13.033
N9855 G2 X75.394 Y-12.718 I0.6 J0.
N9860 G1 X78.444 Y-17.65
N9865 X79.13
N9870 X79.63 Y-18.15 Z0.
N9875 X79.13 Y-17.65 Z-0.5
N9880 Y-10.85
N9885 X79.63 Y-10.351 Z0.
N9890 X79.13 Y-10.85 Z-0.5
N9895 X78.829
N9900 X78.33 Y-10.351 Z0.
N9905 X78.829 Y-10.85 Z-0.5
N9910 Y-15.593
N9915 G2 X77.718 Y-15.906 I-0.6 J0.
N9920 G1 X74.619 Y-10.85
N9925 X74.899 Y-10.351 Z0.
N9930 X74.619 Y-10.85 Z-0.5
N9935 X73.983
N9940 X73.484 Y-10.351 Z0.
N9945 X73.983 Y-10.85 Z-0.5
N9950 Y-17.65
N9955 Z3.
N9960 X70.652 Y-15.991
N9965 Z-0.5 F100.
N9970 X70.72 Y-15.843 F750.
N9975 X70.775 Y-15.695
N9980 X70.821 Y-15.54
N9985 X70.858 Y-15.382
N9990 X70.915 Y-15.019
N9995 X70.949 Y-14.636
N10000 X70.971 Y-14.261
N10005 X70.949 Y-13.884
N10010 X70.915 Y-13.497
N10015 X70.858 Y-13.132
N10020 X70.821 Y-12.973
N10025 X70.774 Y-12.817
N10030 X70.718 Y-12.667
N10035 X70.65 Y-12.518
N10040 X70.57 Y-12.367
N10045 X70.48 Y-12.217
N10050 X70.264 Y-11.894
N10055 X70.072 Y-11.629
N10060 X69.835 Y-11.439
N10065 X69.547 Y-11.226
N10070 X69.262 Y-11.048
N10075 X69.135 Y-10.983
N10080 X69.001 Y-10.927
N10085 X68.861 Y-10.879
N10090 X68.718 Y-10.841
N10095 X68.382 Y-10.78
N10100 X68.023 Y-10.741
N10105 X67.672 Y-10.715
N10110 X67.279 Y-10.733
N10115 X67.089 Y-10.75
N10120 X66.909 Y-10.776
N10125 X66.732 Y-10.814
N10130 X66.551 Y-10.865
N10135 X66.187 Y-10.986
N10140 X65.964 Y-11.099
N10145 X65.747 Y-11.231
N10150 X65.547 Y-11.39
N10155 X65.353 Y-11.569
N10160 X65.168 Y-11.782
N10165 X64.998 Y-12.004
N10170 X64.855 Y-12.243
N10175 X64.732 Y-12.481
N10180 X64.586 Y-12.921
N10185 X64.526 Y-13.14
N10190 X64.48 Y-13.356
N10195 X64.45 Y-13.578
N10200 X64.431 Y-13.809
N10205 X64.412 Y-14.293
N10210 X64.434 Y-14.669
N10215 X64.469 Y-15.048
N10220 X64.526 Y-15.406
N10225 X64.563 Y-15.562
N10230 X64.609 Y-15.715
N10235 X64.664 Y-15.861
N10240 X64.729 Y-16.
N10245 X64.904 Y-16.309
N10250 X65.113 Y-16.62
N10255 X65.302 Y-16.879
N10260 X65.54 Y-17.068
N10265 X65.828 Y-17.28
N10270 X66.114 Y-17.457
N10275 X66.242 Y-17.522
N10280 X66.377 Y-17.578
N10285 X66.518 Y-17.625
N10290 X66.661 Y-17.662
N10295 X66.998 Y-17.722
N10300 X67.358 Y-17.761
N10305 X67.702 Y-17.785
N10310 X68.043 Y-17.76
N10315 X68.4 Y-17.721
N10320 X68.735 Y-17.66
N10325 X68.877 Y-17.622
N10330 X69.015 Y-17.575
N10335 X69.148 Y-17.519
N10340 X69.275 Y-17.454
N10345 X69.558 Y-17.277
N10350 X69.844 Y-17.065
N10355 X70.08 Y-16.876
N10360 X70.27 Y-16.612
N10365 X70.484 Y-16.291
N10370 X70.573 Y-16.142
N10375 X70.652 Y-15.991
N10380 Z3.
N10385 X70.244 Y-15.818
N10390 Z-0.5 F100.
N10395 X70.232 Y-15.846 F750.
N10400 X70.112 Y-16.093
N10405 X70.091 Y-16.133
N10410 X69.951 Y-16.374
N10415 X69.94 Y-16.392
N10420 X69.79 Y-16.63
N10425 G2 X69.675 Y-16.764 I-0.508 J0.32
N10430 G1 X69.333 Y-17.06
N10435 X69.286 Y-17.097
N10440 X69.105 Y-17.224
N10445 X69.042 Y-17.264
N10450 X68.85 Y-17.365
N10455 X68.766 Y-17.402
N10460 X68.561 Y-17.474
N10465 X68.49 Y-17.494
N10470 X68.274 Y-17.54
N10475 X68.216 Y-17.55
N10480 X67.766 Y-17.602
N10485 G2 X67.627 I-0.069 J0.596
N10490 G1 X67.175 Y-17.549
N10495 X67.117 Y-17.539
N10500 X66.9 Y-17.492
N10505 X66.829 Y-17.472
N10510 X66.623 Y-17.4
N10515 X66.539 Y-17.363
N10520 X66.347 Y-17.26
N10525 X66.283 Y-17.221
N10530 X66.102 Y-17.093
N10535 X66.055 Y-17.056
N10540 X65.711 Y-16.759
N10545 G2 X65.599 Y-16.629 I0.393 J0.454
N10550 G1 X65.449 Y-16.395
N10555 X65.437 Y-16.377
N10560 X65.296 Y-16.139
N10565 X65.275 Y-16.1
N10570 X65.154 Y-15.856
N10575 X65.127 Y-15.793
N10580 X65.036 Y-15.54
N10585 X65.015 Y-15.468
N10590 X64.956 Y-15.205
N10595 X64.946 Y-15.15
N10600 X64.911 Y-14.878
N10605 X64.907 Y-14.833
N10610 X64.877 Y-14.277
N10615 Y-14.216
N10620 X64.904 Y-13.659
N10625 X64.907 Y-13.615
N10630 X64.941 Y-13.343
N10635 X64.95 Y-13.289
N10640 X65.007 Y-13.025
N10645 X65.027 Y-12.955
N10650 X65.116 Y-12.7
N10655 X65.142 Y-12.637
N10660 X65.261 Y-12.392
N10665 X65.282 Y-12.352
N10670 X65.42 Y-12.114
N10675 X65.431 Y-12.095
N10680 X65.58 Y-11.86
N10685 G2 X65.699 Y-11.722 I0.508 J-0.32
N10690 G1 X66.048 Y-11.426
N10695 X66.096 Y-11.389
N10700 X66.28 Y-11.263
N10705 X66.345 Y-11.224
N10710 X66.54 Y-11.124
N10715 X66.625 Y-11.088
N10720 X66.833 Y-11.019
N10725 X66.903 Y-11.
N10730 X67.121 Y-10.955
N10735 X67.178 Y-10.946
N10740 X67.633 Y-10.898
N10745 G2 X67.759 I0.064 J-0.597
N10750 G1 X68.212 Y-10.945
N10755 X68.269 Y-10.954
N10760 X68.486 Y-10.998
N10765 X68.556 Y-11.016
N10770 X68.763 Y-11.085
N10775 X68.847 Y-11.12
N10780 X69.041 Y-11.219
N10785 X69.107 Y-11.258
N10790 X69.29 Y-11.383
N10795 X69.338 Y-11.42
N10800 X69.686 Y-11.713
N10805 G2 X69.807 Y-11.853 I-0.387 J-0.459
N10810 G1 X69.954 Y-12.086
N10815 X69.965 Y-12.105
N10820 X70.102 Y-12.343
N10825 X70.123 Y-12.382
N10830 X70.24 Y-12.626
N10835 X70.266 Y-12.689
N10840 X70.353 Y-12.942
N10845 X70.373 Y-13.012
N10850 X70.43 Y-13.275
N10855 X70.439 Y-13.328
N10860 X70.471 Y-13.598
N10865 X70.475 Y-13.642
N10870 X70.501 Y-14.195
N10875 Y-14.253
N10880 X70.473 Y-14.815
N10885 X70.47 Y-14.859
N10890 X70.436 Y-15.134
N10895 X70.426 Y-15.188
N10900 X70.368 Y-15.455
N10905 X70.348 Y-15.526
N10910 X70.258 Y-15.782
N10915 X70.244 Y-15.818
N10920 Z3.
N10925 X60.551 Y-18.15
N10930 Z0. F100.
N10935 X61.05 Y-17.65 Z-0.5 F750.
N10940 X61.465
N10945 X61.965 Y-18.15 Z0.
N10950 X61.465 Y-17.65 Z-0.5
N10955 Y-10.85
N10960 X61.965 Y-10.351 Z0.
N10965 X61.465 Y-10.85 Z-0.5
N10970 X61.05
N10975 X60.551 Y-10.351 Z0.
N10980 X61.05 Y-10.85 Z-0.5
N10985 Y-17.65
N10990 Z3.
N10995 X52.665 Y-11.503
N11000 Z0. F100.
N11005 X53.165 Y-11.004 Z-0.5 F750.
N11010 X54.939
N11015 G2 X55.539 Y-11.604 I0. J-0.6
N11020 G1 Y-17.65
N11025 X55.039 Y-18.15 Z0.
N11030 X55.539 Y-17.65 Z-0.5
N11035 X55.954
N11040 X56.454 Y-18.15 Z0.
N11045 X55.954 Y-17.65 Z-0.5
N11050 Y-11.604
N11055 G2 X56.554 Y-11.004 I0.6 J0.
N11060 G1 X58.322
N11065 X58.822 Y-11.503 Z0.
N11070 X58.322 Y-11.004 Z-0.5
N11075 Y-10.85
N11080 X58.822 Y-10.351 Z0.
N11085 X58.322 Y-10.85 Z-0.5
N11090 X53.165
N11095 Y-11.004
N11100 Y-10.85
N11105 X52.665 Y-10.351 Z0.
N11110 Z3.
N11115 X50.887 Y-18.15
N11120 Z0. F100.
N11125 X51.23 Y-17.651 Z-0.499 F750.
N11130 Z3.
N11135 X44.695 Y-18.15
N11140 Z0. F100.
N11145 X45.426 Y-17.65 Z-0.5 F750.
N11150 X48.075 Y-10.85
N11155 X47.733 Y-10.351 Z0.
N11160 X48.075 Y-10.85 Z-0.5
N11165 X48.966
N11170 X49.304 Y-10.351 Z0.
N11175 X48.966 Y-10.85 Z-0.5
N11180 X51.689 Y-17.65
N11185 X52.428 Y-18.15 Z0.
N11190 X51.689 Y-17.65 Z-0.5
N11195 X51.231
N11200 X50.68 Y-16.218
N11205 G3 X50.12 Y-15.833 I-0.56 J-0.215
N11210 G1 X46.922
N11215 G3 X46.358 Y-16.228 I0. J-0.6
N11220 G1 X45.842 Y-17.65
N11225 X45.426
N11230 X45.842
N11235 X46.191 Y-18.15 Z-0.001
N11240 Z3.
N11245 X47.196 Y-15.642
N11250 Z-0.5 F100.
N11255 G2 X46.855 Y-14.88 I0.223 J0.557 F750.
N11260 G1 X47.935 Y-11.911
N11265 G2 X49.062 Y-11.908 I0.564 J-0.205
N11270 G1 X50.164 Y-14.876
N11275 G2 X49.602 Y-15.685 I-0.562 J-0.209
N11280 G1 X47.419
N11285 G2 X47.196 Y-15.642 I0. J0.6
N11290 G1 Z3.
N11295 X38.357 Y-11.503
N11300 Z0. F100.
N11305 X38.856 Y-11.004 Z-0.5 F750.
N11310 Y-10.85
N11315 X38.357 Y-10.351 Z0.
N11320 X38.856 Y-10.85 Z-0.5
N11325 X44.014
N11330 X44.514 Y-10.351 Z0.
N11335 X44.014 Y-10.85 Z-0.5
N11340 Y-11.004
N11345 X44.514 Y-11.503 Z0.
N11350 X44.014 Y-11.004 Z-0.5
N11355 X42.246
N11360 G3 X41.646 Y-11.604 I0. J-0.6
N11365 G1 Y-17.65
N11370 X42.145 Y-18.15 Z0.
N11375 X41.646 Y-17.65 Z-0.5
N11380 X41.23
N11385 X40.731 Y-18.15 Z0.
N11390 X41.23 Y-17.65 Z-0.5
N11395 Y-11.604
N11400 G3 X40.63 Y-11.004 I-0.6 J0.
N11405 G1 X38.856
N11410 Z3.
N11415 X35.241 Y-18.15
N11420 Z0. F100.
N11425 X35.741 Y-17.65 Z-0.5 F750.
N11430 X36.156
N11435 X36.655 Y-18.15 Z0.
N11440 X36.156 Y-17.65 Z-0.5
N11445 Y-10.85
N11450 X36.655 Y-10.351 Z0.
N11455 X36.156 Y-10.85 Z-0.5
N11460 X35.741
N11465 X35.241 Y-10.351 Z0.
N11470 X35.741 Y-10.85 Z-0.5
N11475 Y-17.65
N11480 Z3.
N11485 X32.566 Y-16.858
N11490 Z-0.499 F100.
N11495 X33.065 Y-17.099 Z0. F750.
N11500 Z3.
N11505 X29.784 Y-15.209
N11510 Z0. F100.
N11515 X30.284 Y-14.709 Z-0.5 F750.
N11520 Y-14.561
N11525 X29.784 Y-14.061 Z0.
N11530 X30.284 Y-14.561 Z-0.5
N11535 X32.565
N11540 X33.065 Y-14.061 Z0.
N11545 X32.565 Y-14.561 Z-0.5
N11550 Y-16.858
N11555 X32.467 Y-16.935
N11560 X32.32 Y-17.04
N11565 X32.172 Y-17.133
N11570 X32.014 Y-17.217
N11575 X31.845 Y-17.297
N11580 X31.483 Y-17.451
N11585 X31.044 Y-17.595
N11590 X30.831 Y-17.655
N11595 X30.623 Y-17.702
N11600 X30.412 Y-17.735
N11605 X30.193 Y-17.758
N11610 X29.743 Y-17.786
N11615 X29.226 Y-17.754
N11620 X28.983 Y-17.725
N11625 X28.753 Y-17.682
N11630 X28.53 Y-17.618
N11635 X28.303 Y-17.535
N11640 X27.85 Y-17.335
N11645 X27.483 Y-17.079
N11650 X27.318 Y-16.946
N11655 X27.175 Y-16.808
N11660 X27.048 Y-16.655
N11665 X26.927 Y-16.481
N11670 X26.694 Y-16.09
N11675 X26.517 Y-15.636
N11680 X26.442 Y-15.41
N11685 X26.384 Y-15.187
N11690 X26.343 Y-14.96
N11695 X26.316 Y-14.721
N11700 X26.285 Y-14.223
N11705 X26.317 Y-13.699
N11710 X26.347 Y-13.451
N11715 X26.391 Y-13.215
N11720 X26.455 Y-12.986
N11725 X26.538 Y-12.754
N11730 X26.737 Y-12.289
N11735 X26.998 Y-11.899
N11740 X27.134 Y-11.723
N11745 X27.277 Y-11.57
N11750 X27.435 Y-11.432
N11755 X27.615 Y-11.3
N11760 X28.012 Y-11.051
N11765 X28.404 Y-10.898
N11770 X28.6 Y-10.835
N11775 X28.793 Y-10.787
N11780 X28.992 Y-10.755
N11785 X29.203 Y-10.735
N11790 X29.655 Y-10.715
N11795 X30.224 Y-10.743
N11800 X30.483 Y-10.773
N11805 X30.723 Y-10.821
N11810 X30.951 Y-10.894
N11815 X31.185 Y-10.994
N11820 X31.432 Y-11.12
N11825 X31.626 Y-11.227
N11830 X31.932 Y-11.518
N11835 X32.065 Y-11.668
N11840 X32.172 Y-11.818
N11845 X32.26 Y-11.982
N11850 X32.269 Y-12.004
N11855 X32.48 Y-12.118 Z-0.348
N11860 X32.931 Y-12.388 Z-0.001
N11865 X32.48 Y-12.118 Z-0.348
N11870 X32.269 Y-12.004 Z-0.5
N11875 X31.822 Y-12.087
N11880 X31.698 Y-12.331 Z-0.283
N11885 X31.678 Y-12.37 Z-0.249
N11890 X31.52 Y-12.652 Z0.
N11895 X31.678 Y-12.37 Z-0.249
N11900 X31.698 Y-12.331 Z-0.283
N11905 X31.822 Y-12.087 Z-0.5
N11910 X31.806 Y-12.059
N11915 X31.733 Y-11.938
N11920 X31.694 Y-11.88
N11925 X31.608 Y-11.768
N11930 X31.57 Y-11.724
N11935 X31.473 Y-11.62
N11940 X31.439 Y-11.587
N11945 X31.226 Y-11.392
N11950 G3 X31.113 Y-11.311 I-0.404 J-0.443
N11955 G1 X30.841 Y-11.16
N11960 X30.8 Y-11.139
N11965 X30.661 Y-11.075
N11970 X30.608 Y-11.054
N11975 X30.464 Y-11.004
N11980 X30.4 Y-10.986
N11985 X30.252 Y-10.952
N11990 X30.202 Y-10.943
N11995 X30.05 Y-10.922
N12000 X30.008 Y-10.917
N12005 X29.698 Y-10.896
N12010 X29.6 Y-10.897
N12015 X29.129 Y-10.941
N12020 X29.074 Y-10.949
N12025 X28.847 Y-10.992
N12030 X28.78 Y-11.008
N12035 X28.563 Y-11.075
N12040 X28.48 Y-11.108
N12045 X28.276 Y-11.206
N12050 X28.211 Y-11.242
N12055 X28.017 Y-11.367
N12060 X27.968 Y-11.402
N12065 X27.599 Y-11.696
N12070 G3 X27.473 Y-11.833 I0.374 J-0.469
N12075 G1 X27.323 Y-12.058
N12080 X27.311 Y-12.077
N12085 X27.171 Y-12.305
N12090 X27.149 Y-12.346
N12095 X27.029 Y-12.58
N12100 X27. Y-12.645
N12105 X26.909 Y-12.89
N12110 X26.887 Y-12.963
N12115 X26.828 Y-13.218
N12120 X26.818 Y-13.275
N12125 X26.783 Y-13.538
N12130 X26.779 Y-13.584
N12135 X26.749 Y-14.125
N12140 Y-14.187
N12145 X26.777 Y-14.762
N12150 X26.781 Y-14.807
N12155 X26.815 Y-15.088
N12160 X26.825 Y-15.142
N12165 X26.884 Y-15.415
N12170 X26.904 Y-15.485
N12175 X26.996 Y-15.748
N12180 X27.022 Y-15.812
N12185 X27.144 Y-16.065
N12190 X27.166 Y-16.105
N12195 X27.309 Y-16.351
N12200 X27.32 Y-16.37
N12205 X27.473 Y-16.614
N12210 G3 X27.591 Y-16.75 I0.508 J0.32
N12215 G1 X27.95 Y-17.057
N12220 X27.998 Y-17.094
N12225 X28.187 Y-17.225
N12230 X28.252 Y-17.264
N12235 X28.453 Y-17.368
N12240 X28.538 Y-17.404
N12245 X28.752 Y-17.477
N12250 X28.822 Y-17.496
N12255 X29.048 Y-17.542
N12260 X29.105 Y-17.551
N12265 X29.575 Y-17.603
N12270 G3 X29.678 Y-17.605 I0.065 J0.596
N12275 G1 X29.939 Y-17.588
N12280 X29.982 Y-17.584
N12285 X30.239 Y-17.549
N12290 X30.308 Y-17.535
N12295 X30.559 Y-17.47
N12300 X30.599 Y-17.459
N12305 X30.847 Y-17.376
N12310 X30.895 Y-17.358
N12315 X31.126 Y-17.259
N12320 X31.154 Y-17.246
N12325 X31.378 Y-17.135
N12330 X31.425 Y-17.109
N12335 X31.639 Y-16.979
N12340 X31.667 Y-16.961
N12345 X31.874 Y-16.818
N12350 G3 X32.133 Y-16.324 I-0.341 J0.494
N12355 G1 Y-15.309
N12360 G3 X31.533 Y-14.709 I-0.6 J0.
N12365 G1 X30.284
N12370 Z3.
N12375 X22.882 Y-18.15
N12380 Z0. F100.
N12385 X23.225 Y-17.651 Z-0.499 F750.
N12390 Z3.
N12395 X16.689 Y-18.15
N12400 Z0. F100.
N12405 X17.421 Y-17.65 Z-0.5 F750.
N12410 X20.069 Y-10.85
N12415 X19.727 Y-10.351 Z0.
N12420 X20.069 Y-10.85 Z-0.5
N12425 X20.961
N12430 X21.299 Y-10.351 Z0.
N12435 X20.961 Y-10.85 Z-0.5
N12440 X23.684 Y-17.65
N12445 X24.422 Y-18.15 Z0.
N12450 X23.684 Y-17.65 Z-0.5
N12455 X23.225
N12460 X22.675 Y-16.218
N12465 G3 X22.115 Y-15.833 I-0.56 J-0.215
N12470 G1 X18.917
N12475 G3 X18.353 Y-16.228 I0. J-0.6
N12480 G1 X17.836 Y-17.65
N12485 X17.421
N12490 X17.836
N12495 X18.186 Y-18.15 Z-0.001
N12500 Z3.
N12505 X19.19 Y-15.642
N12510 Z-0.5 F100.
N12515 G2 X18.85 Y-14.88 I0.223 J0.557 F750.
N12520 G1 X19.93 Y-11.911
N12525 G2 X21.056 Y-11.908 I0.564 J-0.205
N12530 G1 X22.159 Y-14.876
N12535 G2 X21.596 Y-15.685 I-0.562 J-0.209
N12540 G1 X19.413
N12545 G2 X19.19 Y-15.642 I0. J0.6
N12550 G1 Z3.
N12555 X17.222 Y-49.027
N12560 Z0. F100.
N12565 X17.519 Y-49.324 Z-0.297 F750.
N12570 X17.816 Y-49.028 Z0.
N12575 X17.519 Y-49.324 Z-0.297
N12580 X17.517 Y-52.395
N12585 X17.525 Y-52.755 Z-0.296
N12590 X17.548 Y-53.041 Z-0.294
N12595 X17.556 Y-53.105 Z-0.297
N12600 X17.584 Y-53.264
N12605 X17.604 Y-53.356 Z-0.295
N12610 X17.622 Y-53.428
N12615 X17.683 Y-53.653 Z-0.291
N12620 X17.716 Y-53.745 Z-0.297
N12625 X17.823 Y-53.942 Z-0.296
N12630 X17.828 Y-53.951 Z-0.297
N12635 X17.889 Y-54.041 Z-0.298
N12640 X17.949 Y-54.12 Z-0.295
N12645 X17.991 Y-54.163 Z-0.294
N12650 X18.019 Y-54.189
N12655 X18.135 Y-54.287 Z-0.288
N12660 X18.175 Y-54.316 Z-0.286
N12665 X18.294 Y-54.398 Z-0.284
N12670 X18.339 Y-54.423 Z-0.278
N12675 X18.409 Y-54.456 Z-0.273
N12680 X18.617 Y-54.542 Z-0.269
N12685 X18.653 Y-54.554 Z-0.268
N12690 X18.714 Y-54.574
N12695 X18.867 Y-54.617 Z-0.263
N12700 X18.924 Y-54.628 Z-0.261
N12705 X19.003 Y-54.64 Z-0.262
N12710 X19.178 Y-54.66 Z-0.258
N12715 X19.438 Y-54.672 Z-0.257
N12720 X19.491 Z-0.259
N12725 X19.831 Y-54.655 Z-0.26
N12730 X20.01 Y-54.633 Z-0.262
N12735 X20.171 Y-54.598 Z-0.264
N12740 X20.218 Y-54.585
N12745 X20.277 Y-54.565 Z-0.267
N12750 X20.419 Y-54.51 Z-0.268
N12755 X20.601 Y-54.42 Z-0.275
N12760 X20.697 Y-54.366 Z-0.285
N12765 X20.919 Y-54.205 Z-0.278
N12770 X20.974 Y-54.152 Z-0.282
N12775 X21.037 Y-54.07 Z-0.294
N12780 X21.091 Y-53.985 Z-0.302
N12785 X21.146 Y-53.891 Z-0.305
N12790 X21.235 Y-53.719
N12795 X21.252 Y-53.684 Z-0.307
N12800 X21.317 Y-53.489 Z-0.296
N12805 X21.346 Y-53.386 Z-0.295
N12810 X21.377 Y-53.257 Z-0.293
N12815 X21.383 Y-53.228 Z-0.294
N12820 X21.41 Y-53.062 Z-0.293
N12825 X21.413 Y-53.03
N12830 X21.431 Y-52.805
N12835 X21.435 Y-52.742 Z-0.295
N12840 X21.442 Y-52.392 Z-0.297
N12845 X21.444 Y-49.327
N12850 X21.741 Y-49.031 Z0.
N12855 X21.444 Y-49.327 Z-0.297
N12860 X21.147 Y-49.03 Z0.
N12865 Z3.
N12870 X23.183 Y-49.539
N12875 Z0. F100.
N12880 X23.437 Y-49.286 Z-0.254 F750.
N12885 X23.183 Y-49.032 Z0.
N12890 X23.437 Y-49.286 Z-0.254
N12895 X25.059 Y-49.287
N12900 X25.126 Y-49.29 Z-0.257
N12905 X25.192 Y-49.3 Z-0.266
N12910 X25.258 Y-49.315 Z-0.282
N12915 X25.324 Y-49.337 Z-0.303
N12920 X25.39 Y-49.365 Z-0.331
N12925 X25.456 Y-49.399 Z-0.365
N12930 X25.523 Y-49.365 Z-0.331
N12935 X25.589 Y-49.337 Z-0.303
N12940 X25.655 Y-49.315 Z-0.282
N12945 X25.721 Y-49.3 Z-0.266
N12950 X25.787 Y-49.291 Z-0.257
N12955 X25.853 Y-49.288 Z-0.254
N12960 X27.484 Y-49.289
N12965 X27.738 Y-49.035 Z0.
N12970 X27.484 Y-49.289 Z-0.254
N12975 X27.738 Y-49.543 Z0.
N12980 X27.484 Y-49.289 Z-0.254
N12985 X25.853 Y-49.288
N12990 X25.787 Y-49.291 Z-0.257
N12995 X25.721 Y-49.3 Z-0.266
N13000 X25.655 Y-49.315 Z-0.282
N13005 X25.589 Y-49.337 Z-0.303
N13010 X25.523 Y-49.365 Z-0.331
N13015 X25.456 Y-49.399 Z-0.365
N13020 Y-49.44 Z-0.345
N13025 Y-49.477 Z-0.33
N13030 Y-49.54 Z-0.31
N13035 Y-49.593 Z-0.3
N13040 Y-49.641 Z-0.297
N13045 X25.453 Y-54.536
N13050 X25.749 Y-54.833 Z0.
N13055 X25.453 Y-54.536 Z-0.297
N13060 X25.156 Y-54.833 Z0.
N13065 Z10.
(WHEN USING FUSION 360 FOR PERSONAL USE, THE FEEDRATE OF)
(RAPID MOVES IS REDUCED TO MATCH THE FEEDRATE OF CUTTING)
(MOVES, WHICH CAN INCREASE MACHINING TIME. UNRESTRICTED RAPID)
(MOVES ARE AVAILABLE WITH A FUSION 360 SUBSCRIPTION.)
(TRACE6)
N13070 G0 X30.55 Y-62.201
N13075 G1 Z10. F750.
N13080 Z3.
N13085 Z-0.5 F100.
N13090 X27.722 Y-59.373 F750.
N13095 X27.608 Y-59.284
N13100 X27.476 Y-59.224
N13105 X27.333 Y-59.198
N13110 X27.189 Y-59.207
N13115 X27.051 Y-59.25
N13120 X26.927 Y-59.325
N13125 X26.825 Y-59.427
N13130 X26.75 Y-59.551
N13135 X26.707 Y-59.689
N13140 X26.698 Y-59.833
N13145 X26.724 Y-59.976
N13150 X26.784 Y-60.108
N13155 X26.873 Y-60.222
N13160 X29.701 Y-63.05
N13165 X29.815 Y-63.139
N13170 X29.947 Y-63.199
N13175 X30.089 Y-63.224
N13180 X30.234 Y-63.216
N13185 X30.372 Y-63.173
N13190 X30.496 Y-63.098
N13195 X30.598 Y-62.996
N13200 X30.673 Y-62.872
N13205 X30.716 Y-62.734
N13210 X30.725 Y-62.589
N13215 X30.698 Y-62.447
N13220 X30.639 Y-62.315
N13225 X30.55 Y-62.201
N13230 Z3.
N13235 X27.297 Y-59.797
N13240 Z-0.5 F100.
N13245 X30.126 Y-62.626 F750.
N13250 Z3.
N13255 X40. Y-75.
N13260 Z-0.5 F100.
N13265 X45. F750.
N13270 Z3.
N13275 X42.5 Y-72.5
N13280 Z-0.5 F100.
N13285 Y-77.5 F750.
N13290 Z3.
N13295 X54.61 Y-63.204
N13300 Z-0.5 F100.
N13305 X54.734 Y-63.279 F750.
N13310 X54.872 Y-63.322
N13315 X55.016 Y-63.331
N13320 X55.159 Y-63.305
N13325 X55.29 Y-63.246
N13330 X55.404 Y-63.156
N13335 X58.233 Y-60.328
N13340 X58.322 Y-60.214
N13345 X58.381 Y-60.082
N13350 X58.407 Y-59.94
N13355 X58.399 Y-59.796
N13360 X58.355 Y-59.658
N13365 X58.281 Y-59.534
N13370 X58.178 Y-59.431
N13375 X58.055 Y-59.357
N13380 X57.917 Y-59.314
N13385 X57.772 Y-59.305
N13390 X57.63 Y-59.331
N13395 X57.498 Y-59.39
N13400 X57.384 Y-59.479
N13405 X54.556 Y-62.308
N13410 X54.466 Y-62.422
N13415 X54.407 Y-62.554
N13420 X54.381 Y-62.696
N13425 X54.39 Y-62.84
N13430 X54.433 Y-62.978
N13435 X54.508 Y-63.102
N13440 X54.61 Y-63.204
N13445 Z3.
N13450 X57.808 Y-59.904
N13455 Z-0.5 F100.
N13460 X54.98 Y-62.732 F750.
N13465 Z3.
N13470 X101.698 Y-59.833
N13475 Z-0.5 F100.
N13480 X101.724 Y-59.976 F750.
N13485 X101.784 Y-60.108
N13490 X101.873 Y-60.222
N13495 X104.701 Y-63.05
N13500 X104.815 Y-63.139
N13505 X104.947 Y-63.199
N13510 X105.089 Y-63.224
N13515 X105.234 Y-63.216
N13520 X105.372 Y-63.173
N13525 X105.496 Y-63.098
N13530 X105.598 Y-62.996
N13535 X105.673 Y-62.872
N13540 X105.716 Y-62.734
N13545 X105.725 Y-62.589
N13550 X105.698 Y-62.447
N13555 X105.639 Y-62.315
N13560 X105.55 Y-62.201
N13565 X102.721 Y-59.373
N13570 X102.608 Y-59.284
N13575 X102.476 Y-59.224
N13580 X102.333 Y-59.198
N13585 X102.189 Y-59.207
N13590 X102.051 Y-59.25
N13595 X101.927 Y-59.325
N13600 X101.825 Y-59.427
N13605 X101.75 Y-59.551
N13610 X101.707 Y-59.689
N13615 X101.698 Y-59.833
N13620 Z3.
N13625 X102.297 Y-59.797
N13630 Z-0.5 F100.
N13635 X105.126 Y-62.626 F750.
N13640 Z3.
N13645 X116.969 Y-57.779
N13650 Z-0.5 F100.
N13655 X117.051 Y-57.898 F750.
N13660 X117.159 Y-57.994
N13665 X117.287 Y-58.061
N13670 X117.428 Y-58.096
N13675 X117.572
N13680 X117.713 Y-58.061
N13685 X117.841 Y-57.994
N13690 X117.949 Y-57.898
N13695 X118.031 Y-57.779
N13700 X118.083 Y-57.644
N13705 X118.1 Y-57.5
N13710 Y-53.5
N13715 X118.083 Y-53.356
N13720 X118.031 Y-53.221
N13725 X117.949 Y-53.102
N13730 X117.841 Y-53.006
N13735 X117.713 Y-52.939
N13740 X117.572 Y-52.904
N13745 X117.428
N13750 X117.287 Y-52.939
N13755 X117.159 Y-53.006
N13760 X117.051 Y-53.102
N13765 X116.969 Y-53.221
N13770 X116.917 Y-53.356
N13775 X116.9 Y-53.5
N13780 Y-57.5
N13785 X116.917 Y-57.644
N13790 X116.969 Y-57.779
N13795 Z3.
N13800 X117.5 Y-53.5
N13805 Z-0.5 F100.
N13810 Y-57.5 F750.
N13815 Z3.
N13820 X129.302 Y-62.447
N13825 Z-0.5 F100.
N13830 X129.275 Y-62.589 F750.
N13835 X129.284 Y-62.734
N13840 X129.327 Y-62.872
N13845 X129.402 Y-62.996
N13850 X129.504 Y-63.098
N13855 X129.628 Y-63.173
N13860 X129.766 Y-63.216
N13865 X129.911 Y-63.224
N13870 X130.053 Y-63.199
N13875 X130.185 Y-63.139
N13880 X130.299 Y-63.05
N13885 X133.127 Y-60.222
N13890 X133.216 Y-60.108
N13895 X133.276 Y-59.976
N13900 X133.302 Y-59.833
N13905 X133.293 Y-59.689
N13910 X133.25 Y-59.551
N13915 X133.175 Y-59.427
N13920 X133.073 Y-59.325
N13925 X132.949 Y-59.25
N13930 X132.811 Y-59.207
N13935 X132.667 Y-59.198
N13940 X132.524 Y-59.224
N13945 X132.392 Y-59.284
N13950 X132.279 Y-59.373
N13955 X129.45 Y-62.201
N13960 X129.361 Y-62.315
N13965 X129.302 Y-62.447
N13970 Z3.
N13975 X132.703 Y-59.797
N13980 Z-0.5 F100.
N13985 X129.874 Y-62.626 F750.
N13990 Z3.
N13995 X117.5 Y-70.813
N14000 Z-0.5 F100.
N14005 Y-77.5 F750.
N14010 Z3.
N14015 X115. Y-75.
N14020 Z-0.5 F100.
N14025 X120. F750.
N14030 Z3.
N14035 Z10.
N14040 G53 G0 Z0.
N14045 G53 G0 X0. Y0.
N14050 M30
%
