%
(ENGRAVE_TRACE_130123)
(MACHINE)
(  MODEL LASER SNAKE V2)
(  DESCRIPTION 3-AXIS ROUTER)
(T3  D=3.175 CR=0. TAPER=45DEG - ZMIN=-1. - CHAMFER MILL)
N10 G90 G94 G17 G91.1
N15 G21
(WHEN USING FUSION 360 FOR PERSONAL USE, THE FEEDRATE OF)
(RAPID MOVES IS REDUCED TO MATCH THE FEEDRATE OF CUTTING)
(MOVES, WHICH CAN INCREASE MACHINING TIME. UNRESTRICTED RAPID)
(MOVES ARE AVAILABLE WITH A FUSION 360 SUBSCRIPTION.)
N20 G53 G0 Z0.
(1.0)
N25 T3 M6
N30 S18000 M3
N35 G54
N40 G0 X20.129 Y-1.906
N45 G43 Z15. H3
N50 G1 Z5. F750.
N55 Z-1. F200.
N60 X26.132 Y-4.186 F750.
N65 X20.134 Y-6.477
N70 Z5.
N75 X22.133 Y-5.618
N80 Z-1. F200.
N85 X22.13 Y-2.761 F750.
N90 Z5.
N95 X26.14 Y-12.814
N100 Z-1. F200.
N105 X21.854 Y-12.819 F750.
N110 X20.997 Y-12.534
N115 X20.425 Y-11.963
N120 X20.138 Y-11.106
N125 Y-10.535
N130 X20.423 Y-9.677
N135 X20.993 Y-9.105
N140 X21.85 Y-8.819
N145 X26.136 Y-8.814
N150 Z5.
N155 X20.145 Y-17.735
N160 Z-1. F200.
N165 X26.145 Y-17.729 F750.
N170 Z5.
N175 X26.147 Y-19.729
N180 Z-1. F200.
N185 X26.143 Y-15.729 F750.
N190 Z5.
N195 X23.863 Y-21.388
N200 Z-1. F200.
N205 X24.72 Y-21.673 F750.
N210 X25.292 Y-21.958
N215 X25.864 Y-22.529
N220 X26.15 Y-23.1
N225 X26.151 Y-24.243
N230 X25.866 Y-24.815
N235 X25.295 Y-25.387
N240 X24.724 Y-25.673
N245 X23.867 Y-25.959
N250 X22.439 Y-25.961
N255 X21.581 Y-25.676
N260 X21.01 Y-25.391
N265 X20.438 Y-24.82
N270 X20.151 Y-24.249
N275 X20.15 Y-23.106
N280 X20.435 Y-22.534
N285 X21.006 Y-21.962
N290 X21.577 Y-21.676
N295 X22.434 Y-21.389
N300 X23.863 Y-21.388
N305 Z5.
N310 X22.732 Y-33.446
N315 Z-1. F200.
N320 X22.727 Y-28.303 F750.
N325 Z5.
N330 X25.02 Y-36.473
N335 Z-1. F200.
N340 X25.307 Y-37.044 F750.
N345 X26.165 Y-37.9
N350 X20.165 Y-37.906
N355 Z5.
N360 X20.455 Y-42.077
N365 Z-1. F200.
N370 X20.169 Y-41.792 F750.
N375 X20.454 Y-41.506
N380 X20.74 Y-41.791
N385 Z5.
N390 X21.314 Y-44.933
N395 Z-1. F200.
N400 X22.743 Y-44.646 F750.
N405 X23.6 Y-44.645
N410 X25.029 Y-44.93
N415 X25.886 Y-45.5
N420 X26.173 Y-46.357
N425 X26.174 Y-46.929
N430 X25.889 Y-47.786
N435 X25.032 Y-48.358
N440 X23.604 Y-48.645
N445 X22.747 Y-48.646
N450 X21.318 Y-48.362
N455 X20.46 Y-47.791
N460 X20.174 Y-46.935
N465 X20.173 Y-46.363
N470 X20.458 Y-45.506
N475 X21.314 Y-44.933
N480 Z5.
N485 Z15.
(WHEN USING FUSION 360 FOR PERSONAL USE, THE FEEDRATE OF)
(RAPID MOVES IS REDUCED TO MATCH THE FEEDRATE OF CUTTING)
(MOVES, WHICH CAN INCREASE MACHINING TIME. UNRESTRICTED RAPID)
(MOVES ARE AVAILABLE WITH A FUSION 360 SUBSCRIPTION.)
(0.5)
N490 G0 X10.129 Y-1.277
N495 G1 Z15. F750.
N500 Z5.
N505 Z-0.5 F200.
N510 X16.131 Y-3.557 F750.
N515 X10.133 Y-5.849
N520 Z5.
N525 X12.132 Y-4.99
N530 Z-0.5 F200.
N535 X12.13 Y-2.133 F750.
N540 Z5.
N545 X16.139 Y-12.186
N550 Z-0.5 F200.
N555 X11.854 Y-12.19 F750.
N560 X10.996 Y-11.905
N565 X10.424 Y-11.334
N570 X10.138 Y-10.477
N575 X10.137 Y-9.906
N580 X10.422 Y-9.049
N585 X10.993 Y-8.477
N590 X11.85 Y-8.19
N595 X16.135 Y-8.186
N600 Z5.
N605 X10.144 Y-17.106
N610 Z-0.5 F200.
N615 X16.144 Y-17.1 F750.
N620 Z5.
N625 X16.146 Y-19.1
N630 Z-0.5 F200.
N635 X16.142 Y-15.1 F750.
N640 Z5.
N645 X13.862 Y-20.759
N650 Z-0.5 F200.
N655 X14.719 Y-21.044 F750.
N660 X15.291 Y-21.33
N665 X15.863 Y-21.9
N670 X16.149 Y-22.472
N675 X16.151 Y-23.614
N680 X15.866 Y-24.186
N685 X15.295 Y-24.758
N690 X14.724 Y-25.044
N695 X13.867 Y-25.331
N700 X12.438 Y-25.332
N705 X11.581 Y-25.047
N710 X11.009 Y-24.762
N715 X10.437 Y-24.191
N720 X10.151 Y-23.62
N725 X10.149 Y-22.477
N730 X10.435 Y-21.906
N735 X11.005 Y-21.334
N740 X11.577 Y-21.047
N745 X12.434 Y-20.761
N750 X13.862 Y-20.759
N755 Z5.
N760 X12.731 Y-32.818
N765 Z-0.5 F200.
N770 X12.726 Y-27.675 F750.
N775 Z5.
N780 X12.734 Y-35.846
N785 Z-0.5 F200.
N790 X13.591 Y-35.845 F750.
N795 X15.02 Y-36.13
N800 X15.878 Y-36.7
N805 X16.164 Y-37.557
N810 X16.165 Y-38.129
N815 X15.88 Y-38.986
N820 X15.024 Y-39.558
N825 X13.595 Y-39.845
N830 X12.738 Y-39.846
N835 X11.309 Y-39.562
N840 X10.451 Y-38.991
N845 X10.165 Y-38.134
N850 X10.164 Y-37.563
N855 X10.449 Y-36.706
N860 X11.306 Y-36.133
N865 X12.734 Y-35.846
N870 Z5.
N875 X10.455 Y-42.706
N880 Z-0.5 F200.
N885 X10.169 Y-42.42 F750.
N890 X10.455 Y-42.134
N895 X10.741 Y-42.42
N900 Z5.
N905 X16.175 Y-48.7
N910 Z-0.5 F200.
N915 X16.173 Y-45.843 F750.
N920 X13.601 Y-45.56
N925 X13.887 Y-45.845
N930 X14.173 Y-46.702
N935 X14.174 Y-47.559
N940 X13.889 Y-48.417
N945 X13.318 Y-48.989
N950 X12.462 Y-49.275
N955 X11.89 Y-49.276
N960 X11.033 Y-48.991
N965 X10.461 Y-48.42
N970 X10.174 Y-47.563
N975 X10.173 Y-46.706
N980 X10.458 Y-45.848
N985 X10.744 Y-45.563
N990 X11.315 Y-45.276
N995 Z5.
N1000 Z15.
(WHEN USING FUSION 360 FOR PERSONAL USE, THE FEEDRATE OF)
(RAPID MOVES IS REDUCED TO MATCH THE FEEDRATE OF CUTTING)
(MOVES, WHICH CAN INCREASE MACHINING TIME. UNRESTRICTED RAPID)
(MOVES ARE AVAILABLE WITH A FUSION 360 SUBSCRIPTION.)
(0.75)
N1005 G0 X1.071 Y-1.115
N1010 G1 Z15. F750.
N1015 Z5.
N1020 Z-0.75 F200.
N1025 X7.069 Y-3.406 F750.
N1030 X1.067 Y-5.687
N1035 Z5.
N1040 X3.068 Y-4.831
N1045 Z-0.75 F200.
N1050 X3.07 Y-1.974 F750.
N1055 Z5.
N1060 X7.062 Y-12.034
N1065 Z-0.75 F200.
N1070 X2.777 Y-12.031 F750.
N1075 X1.92 Y-11.745
N1080 X1.349 Y-11.173
N1085 X1.064 Y-10.315
N1090 Y-9.744
N1095 X1.351 Y-8.887
N1100 X1.922 Y-8.316
N1105 X2.78 Y-8.031
N1110 X7.065 Y-8.034
N1115 Z5.
N1120 X1.059 Y-16.944
N1125 Z-0.75 F200.
N1130 X7.059 Y-16.948 F750.
N1135 Z5.
N1140 X7.057 Y-18.948
N1145 Z-0.75 F200.
N1150 X7.06 Y-14.948 F750.
N1155 Z5.
N1160 X4.77 Y-20.604
N1165 Z-0.75 F200.
N1170 X5.627 Y-20.89 F750.
N1175 X6.199 Y-21.176
N1180 X6.77 Y-21.748
N1185 X7.055 Y-22.32
N1190 X7.054 Y-23.463
N1195 X6.768 Y-24.034
N1200 X6.196 Y-24.605
N1205 X5.624 Y-24.89
N1210 X4.767 Y-25.175
N1215 X3.338 Y-25.174
N1220 X2.481 Y-24.888
N1225 X1.91 Y-24.602
N1230 X1.339 Y-24.03
N1235 X1.054 Y-23.458
N1240 X1.055 Y-22.315
N1245 X1.341 Y-21.744
N1250 X1.913 Y-21.173
N1255 X2.484 Y-20.888
N1260 X3.342 Y-20.603
N1265 X4.77 Y-20.604
N1270 Z5.
N1275 X3.618 Y-32.66
N1280 Z-0.75 F200.
N1285 X3.622 Y-27.517 F750.
N1290 Z5.
N1295 X1.33 Y-36.258
N1300 Z-0.75 F200.
N1305 X1.045 Y-35.972 F750.
N1310 X1.331 Y-35.687
N1315 X1.616 Y-35.973
N1320 Z5.
N1325 X7.042 Y-38.834
N1330 Z-0.75 F200.
N1335 X7.039 Y-42.834 F750.
N1340 X1.042 Y-39.972
N1345 Z5.
N1350 X7.035 Y-48.548
N1355 Z-0.75 F200.
N1360 X7.037 Y-45.691 F750.
N1365 X4.466 Y-45.404
N1370 X4.752 Y-45.689
N1375 X5.037 Y-46.547
N1380 X5.036 Y-47.404
N1385 X4.75 Y-48.261
N1390 X4.178 Y-48.832
N1395 X3.32 Y-49.117
N1400 X2.749
N1405 X1.892 Y-48.83
N1410 X1.321 Y-48.258
N1415 X1.036 Y-47.401
N1420 X1.037 Y-46.544
N1425 X1.323 Y-45.687
N1430 X1.609 Y-45.402
N1435 X2.181 Y-45.116
N1440 Z5.
N1445 Z15.
N1450 G53 G0 Z0.
N1455 G53 G0 X0. Y0.
N1460 M30
%
