%
(FACE)
(MACHINE)
(  MODEL LASER SNAKE V2)
(  DESCRIPTION 3-AXIS ROUTER)
(T5  D=25. CR=0. - ZMIN=-0.5 - FLAT END MILL)
N10 G90 G94 G17 G91.1
N15 G21
(WHEN USING FUSION 360 FOR PERSONAL USE, THE FEEDRATE OF)
(RAPID MOVES IS REDUCED TO MATCH THE FEEDRATE OF CUTTING)
(MOVES, WHICH CAN INCREASE MACHINING TIME. UNRESTRICTED RAPID)
(MOVES ARE AVAILABLE WITH A FUSION 360 SUBSCRIPTION.)
N20 G53 G0 Z0.
(FACE1)
N25 T5 M6
N30 S18000 M3
N35 G54
N40 G0 X150.005 Y-172.71
N45 G43 Z15. H5
N50 G1 Z5. F1000.
N55 Z2. F333.33
N60 G18 G3 X147.505 Z-0.5 I-2.5 K0. F1000.
N65 G1 X-27.505
N70 X-27.51
N75 G17 G2 Y-158.069 I0. J7.32
N80 G1 X147.51
N85 G3 Y-143.429 I0. J7.32
N90 G1 X-27.51
N95 G2 Y-128.788 I0. J7.32
N100 G1 X147.51
N105 G3 Y-114.148 I0. J7.32
N110 G1 X-27.51
N115 G2 Y-99.508 I0. J7.32
N120 G1 X147.51
N125 G3 Y-84.867 I0. J7.32
N130 G1 X-27.51
N135 G2 Y-70.227 I0. J7.32
N140 G1 X147.51
N145 G3 Y-55.587 I0. J7.32
N150 G1 X-27.51
N155 G2 Y-40.946 I0. J7.32
N160 G1 X147.51
N165 G3 Y-26.306 I0. J7.32
N170 G1 X-27.51
N175 G2 Y-11.665 I0. J7.32
N180 G1 X147.51
N185 G3 Y2.975 I0. J7.32
N190 G1 X-27.51
N195 G18 G3 X-30.01 Z2. I0. K2.5
N200 G1 Z15.
N205 G17
N210 G53 G0 Z0.
N215 G53 G0 X0. Y0.
N220 M30
%
