%
(HOLES_002)
(MACHINE)
(  MODEL LASER SNAKE V2)
(  DESCRIPTION 3-AXIS ROUTER)
(T2  D=1.5 CR=0. - ZMIN=-3.2 - FLAT END MILL)
N10 G90 G94 G17 G91.1
N15 G21
(WHEN USING FUSION 360 FOR PERSONAL USE, THE FEEDRATE OF)
(RAPID MOVES IS REDUCED TO MATCH THE FEEDRATE OF CUTTING)
(MOVES, WHICH CAN INCREASE MACHINING TIME. UNRESTRICTED RAPID)
(MOVES ARE AVAILABLE WITH A FUSION 360 SUBSCRIPTION.)
N20 G53 G0 Z0.
(2D CONTOUR1)
N25 T2 M6
N30 S15000 M3
N35 G54
N40 G0 X52.3 Y-74.85
N45 G43 Z9. H2
N50 G1 Z3. F400.
N55 Z2. F150.
N60 Z-0.85
N65 G18 G2 X52.45 Z-1. I0.15 K0.
N70 G1 X52.6
N75 G17 G2 X52.75 Y-75. I0. J-0.15
N80 X32.25 I-10.25 J0. F400.
N85 X52.75 I10.25 J0.
N90 X52.6 Y-75.15 I-0.15 J0. F150.
N95 G1 X52.45
N100 G18 G3 X52.3 Z-0.85 I0. K0.15
N105 G1 Z3. F400.
N110 Y-74.85
N115 Z1. F150.
N120 Z-1.85
N125 G2 X52.45 Z-2. I0.15 K0.
N130 G1 X52.6
N135 G17 G2 X52.75 Y-75. I0. J-0.15
N140 X32.25 I-10.25 J0. F400.
N145 X52.75 I10.25 J0.
N150 X52.6 Y-75.15 I-0.15 J0. F150.
N155 G1 X52.45
N160 G18 G3 X52.3 Z-1.85 I0. K0.15
N165 G1 Z3. F400.
N170 Y-74.85
N175 Z0. F150.
N180 Z-2.45
N185 G2 X52.45 Z-2.6 I0.15 K0.
N190 G1 X52.6
N195 G17 G2 X52.75 Y-75. I0. J-0.15
N200 X32.25 I-10.25 J0. F400.
N205 X52.75 I10.25 J0.
N210 X52.6 Y-75.15 I-0.15 J0. F150.
N215 G1 X52.45
N220 G18 G3 X52.3 Z-2.45 I0. K0.15
N225 G1 Z3. F400.
N230 Y-74.85
N235 Z-0.6 F150.
N240 Z-3.05
N245 G2 X52.45 Z-3.2 I0.15 K0.
N250 G1 X52.6
N255 G17 G2 X52.75 Y-75. I0. J-0.15
N260 X32.25 I-10.25 J0. F400.
N265 X52.75 I10.25 J0.
N270 X52.6 Y-75.15 I-0.15 J0. F150.
N275 G1 X52.45
N280 G18 G3 X52.3 Z-3.05 I0. K0.15
N285 G1 Z3. F400.
N290 X127.3 Y-74.85
N295 Z2. F150.
N300 Z-0.85
N305 G2 X127.45 Z-1. I0.15 K0.
N310 G1 X127.6
N315 G17 G2 X127.75 Y-75. I0. J-0.15
N320 X107.25 I-10.25 J0. F400.
N325 X127.75 I10.25 J0.
N330 X127.6 Y-75.15 I-0.15 J0. F150.
N335 G1 X127.45
N340 G18 G3 X127.3 Z-0.85 I0. K0.15
N345 G1 Z3. F400.
N350 Y-74.85
N355 Z1. F150.
N360 Z-1.85
N365 G2 X127.45 Z-2. I0.15 K0.
N370 G1 X127.6
N375 G17 G2 X127.75 Y-75. I0. J-0.15
N380 X107.25 I-10.25 J0. F400.
N385 X127.75 I10.25 J0.
N390 X127.6 Y-75.15 I-0.15 J0. F150.
N395 G1 X127.45
N400 G18 G3 X127.3 Z-1.85 I0. K0.15
N405 G1 Z3. F400.
N410 Y-74.85
N415 Z0. F150.
N420 Z-2.45
N425 G2 X127.45 Z-2.6 I0.15 K0.
N430 G1 X127.6
N435 G17 G2 X127.75 Y-75. I0. J-0.15
N440 X107.25 I-10.25 J0. F400.
N445 X127.75 I10.25 J0.
N450 X127.6 Y-75.15 I-0.15 J0. F150.
N455 G1 X127.45
N460 G18 G3 X127.3 Z-2.45 I0. K0.15
N465 G1 Z3. F400.
N470 Y-74.85
N475 Z-0.6 F150.
N480 Z-3.05
N485 G2 X127.45 Z-3.2 I0.15 K0.
N490 G1 X127.6
N495 G17 G2 X127.75 Y-75. I0. J-0.15
N500 X107.25 I-10.25 J0. F400.
N505 X127.75 I10.25 J0.
N510 X127.6 Y-75.15 I-0.15 J0. F150.
N515 G1 X127.45
N520 G18 G3 X127.3 Z-3.05 I0. K0.15
N525 G1 Z9. F400.
N530 G17
N535 G53 G0 Z0.
N540 G53 G0 X0. Y0.
N545 M30
%
