%
(HOLE CUTOUT)
(MACHINE)
(  MODEL LASER SNAKE V2)
(  DESCRIPTION 3-AXIS ROUTER)
(T4  D=3.175 CR=0. - ZMIN=-3.5 - FLAT END MILL)
N10 G90 G94 G17 G91.1
N15 G21
(WHEN USING FUSION 360 FOR PERSONAL USE, THE FEEDRATE OF)
(RAPID MOVES IS REDUCED TO MATCH THE FEEDRATE OF CUTTING)
(MOVES, WHICH CAN INCREASE MACHINING TIME. UNRESTRICTED RAPID)
(MOVES ARE AVAILABLE WITH A FUSION 360 SUBSCRIPTION.)
N20 G53 G0 Z0.
(2D CONTOUR1)
N25 T4 M6
N30 S15000 M3
N35 G54
N40 M8
N45 G0 X50.96 Y-74.683
N50 G43 Z15. H4
N55 G1 Z5. F500.
N60 Z3. F150.
N65 Z-1.683
N70 G18 G2 X51.278 Z-2. I0.318 K0. F500.
N75 G1 X51.595
N80 G17 G2 X51.912 Y-75. I0. J-0.317
N85 X33.088 I-9.412 J0.
N90 X51.912 I9.412 J0.
N95 X51.595 Y-75.317 I-0.317 J0.
N100 G1 X51.278
N105 G18 G3 X50.96 Z-1.683 I0. K0.317
N110 G1 Z5.
N115 Y-74.683
N120 Z1. F150.
N125 Z-3.183
N130 G2 X51.278 Z-3.5 I0.318 K0. F500.
N135 G1 X51.595
N140 G17 G2 X51.912 Y-75. I0. J-0.317
N145 X33.088 I-9.412 J0.
N150 X51.912 I9.412 J0.
N155 X51.595 Y-75.317 I-0.317 J0.
N160 G1 X51.278
N165 G18 G3 X50.96 Z-3.183 I0. K0.318
N170 G1 Z5.
N175 X125.96 Y-74.683
N180 Z3. F150.
N185 Z-1.683
N190 G2 X126.277 Z-2. I0.317 K0. F500.
N195 G1 X126.595
N200 G17 G2 X126.912 Y-75. I0. J-0.317
N205 X108.088 I-9.412 J0.
N210 X126.912 I9.412 J0.
N215 X126.595 Y-75.317 I-0.317 J0.
N220 G1 X126.277
N225 G18 G3 X125.96 Z-1.683 I0. K0.317
N230 G1 Z5.
N235 Y-74.683
N240 Z1. F150.
N245 Z-3.183
N250 G2 X126.277 Z-3.5 I0.317 K0. F500.
N255 G1 X126.595
N260 G17 G2 X126.912 Y-75. I0. J-0.317
N265 X108.088 I-9.412 J0.
N270 X126.912 I9.412 J0.
N275 X126.595 Y-75.317 I-0.317 J0.
N280 G1 X126.277
N285 G18 G3 X125.96 Z-3.183 I0. K0.318
N290 G1 Z15.
N295 G17
N300 M9
N305 G53 G0 Z0.
N310 G53 G0 X0. Y0.
N315 M30
%
