%
(TEST-45DEG)
(MACHINE)
(  MODEL LASER SNAKE V2)
(  DESCRIPTION 3-AXIS ROUTER)
(T3  D=3.175 CR=0. TAPER=45DEG - ZMIN=-0.718 - CHAMFER MILL)
N10 G90 G94 G17 G91.1
N15 G21
(WHEN USING FUSION 360 FOR PERSONAL USE, THE FEEDRATE OF)
(RAPID MOVES IS REDUCED TO MATCH THE FEEDRATE OF CUTTING)
(MOVES, WHICH CAN INCREASE MACHINING TIME. UNRESTRICTED RAPID)
(MOVES ARE AVAILABLE WITH A FUSION 360 SUBSCRIPTION.)
N20 G53 G0 Z0.
(ENGRAVE2)
N25 T3 M6
N30 S18000 M3
N35 G54
N40 G0 X-19.193 Y23.586
N45 G43 Z15. H3
N50 G1 Z5. F500.
N55 Z-0.504 F100.
N60 X-19.176 Y23.245 Z-0.505 F500.
N65 X-19.188 Y22.941
N70 X-19.192 Y22.896 Z-0.504
N75 X-19.21 Y22.722 Z-0.506
N80 X-19.24 Y22.535 Z-0.5
N85 X-19.256 Y22.46 Z-0.501
N90 X-19.283 Y22.35 Z-0.5
N95 X-19.323 Y22.204 Z-0.502
N100 X-19.334 Y22.173 Z-0.501
N105 X-19.399 Y21.997 Z-0.498
N110 X-19.47 Y21.831 Z-0.49
N115 X-19.487 Y21.797 Z-0.491
N120 X-19.609 Y21.596 Z-0.481
N125 X-19.644 Y21.546 Z-0.478
N130 X-19.727 Y21.433 Z-0.475
N135 X-19.789 Y21.361 Z-0.466
N140 X-19.87 Y21.274 Z-0.46
N145 X-19.964 Y21.188 Z-0.452
N150 X-20.029 Y21.132 Z-0.45
N155 X-20.088 Y21.09 Z-0.444
N160 X-20.206 Y21.01 Z-0.435
N165 X-20.333 Y20.933 Z-0.422
N170 X-20.398 Y20.899 Z-0.42
N175 X-20.641 Y20.802 Z-0.403
N180 X-20.896 Y20.726 Z-0.389
N185 X-20.924 Y20.721 Z-0.387
N190 X-21.189 Y20.683 Z-0.379
N195 X-21.44 Y20.666 Z-0.375
N200 X-21.475 Y20.667 Z-0.374
N205 X-21.681 Y20.677 Z-0.376
N210 X-21.719 Y20.68 Z-0.377
N215 X-21.848 Y20.696 Z-0.379
N220 X-21.91 Y20.705 Z-0.381
N225 X-21.986 Y20.719 Z-0.387
N230 X-22.112 Y20.752 Z-0.389
N235 X-22.275 Y20.801 Z-0.397
N240 X-22.344 Y20.827 Z-0.401
N245 X-22.499 Y20.893 Z-0.415
N250 X-22.538 Y20.913 Z-0.417
N255 X-22.686 Y20.995 Z-0.428
N260 X-22.746 Y21.035 Z-0.432
N265 X-22.881 Y21.133 Z-0.446
N270 X-22.915 Y21.162 Z-0.448
N275 X-23.04 Y21.275 Z-0.458
N280 X-23.095 Y21.333 Z-0.462
N285 X-23.172 Y21.419 Z-0.472
N290 X-23.246 Y21.518 Z-0.475
N295 X-23.3 Y21.595 Z-0.48
N300 X-23.352 Y21.676 Z-0.482
N305 X-23.414 Y21.782 Z-0.489
N310 X-23.493 Y21.952 Z-0.492
N315 X-23.506 Y21.982 Z-0.494
N320 X-23.586 Y22.196 Z-0.498
N325 X-23.652 Y22.45 Z-0.501
N330 X-23.706 Y22.73 Z-0.503
N335 X-23.732 Y22.992 Z-0.504
N340 X-23.742 Y23.266 Z-0.505
N345 X-23.733 Y23.528 Z-0.504
N350 X-23.709 Y23.784 Z-0.503
N355 X-23.704 Y23.811
N360 X-23.653 Y24.069 Z-0.5
N365 X-23.593 Y24.3 Z-0.497
N370 X-23.576 Y24.348 Z-0.495
N375 X-23.509 Y24.524 Z-0.491
N380 X-23.492 Y24.562 Z-0.489
N385 X-23.412 Y24.73 Z-0.484
N390 X-23.375 Y24.793 Z-0.48
N395 X-23.309 Y24.897 Z-0.477
N400 X-23.247 Y24.985 Z-0.471
N405 X-23.181 Y25.073 Z-0.468
N410 X-23.13 Y25.132 Z-0.46
N415 X-23.038 Y25.228 Z-0.454
N420 X-22.918 Y25.336 Z-0.444
N425 X-22.88 Y25.367 Z-0.443
N430 X-22.786 Y25.435 Z-0.432
N435 X-22.704 Y25.489 Z-0.427
N440 X-22.543 Y25.579 Z-0.415
N445 X-22.512 Y25.594
N450 X-22.391 Y25.646 Z-0.403
N455 X-22.274 Y25.688 Z-0.397
N460 X-22.124 Y25.733 Z-0.389
N465 X-22.024 Y25.759 Z-0.387
N470 X-21.959 Y25.772 Z-0.382
N475 X-21.896 Y25.782 Z-0.38
N480 X-21.728 Y25.803 Z-0.376
N485 X-21.692 Y25.806 Z-0.375
N490 X-21.497 Y25.816
N495 X-21.46 Y25.815 Z-0.374
N500 X-21.175 Y25.797 Z-0.378
N505 X-21.124 Y25.791 Z-0.381
N510 X-20.942 Y25.765 Z-0.386
N515 X-20.861 Y25.747 Z-0.39
N520 X-20.793 Y25.729 Z-0.396
N525 X-20.638 Y25.68 Z-0.402
N530 X-20.587 Y25.66 Z-0.404
N535 X-20.484 Y25.616 Z-0.41
N540 X-20.325 Y25.541 Z-0.416
N545 X-20.278 Y25.515 Z-0.422
N550 X-20.179 Y25.457 Z-0.436
N555 X-20.048 Y25.359 Z-0.442
N560 X-19.918 Y25.255 Z-0.453
N565 X-19.832 Y25.175 Z-0.461
N570 X-19.752 Y25.085 Z-0.471
N575 X-19.674 Y24.984 Z-0.478
N580 X-19.599 Y24.874 Z-0.481
N585 X-19.596 Y24.87
N590 X-19.449 Y24.611 Z-0.491
N595 X-19.438 Y24.583 Z-0.492
N600 X-19.323 Y24.266 Z-0.498
N605 X-19.281 Y24.123 Z-0.503
N610 X-19.237 Y23.941
N615 X-19.216 Y23.805 Z-0.506
N620 X-19.193 Y23.586 Z-0.504
N625 Z5.
N630 X-28.407 Y20.497
N635 Z0. F100.
N640 X-28.112 Y20.793 Z-0.408 F500.
N645 X-28.049 Y20.857 Z-0.492
N650 X-28.006 Y20.9 Z-0.542
N655 X-28.005
N660 X-27.956 Y20.873 Z-0.517
N665 X-27.907 Y20.848 Z-0.494
N670 X-27.832 Y20.817 Z-0.463
N675 X-27.757 Y20.792 Z-0.437
N680 X-27.682 Y20.772 Z-0.417
N685 X-27.607 Y20.758 Z-0.402
N690 X-27.532 Y20.75 Z-0.394
N695 X-27.457 Y20.748 Z-0.391
N700 X-25.047 Y20.762
N705 X-24.969 Z-0.386
N710 X-24.934 Y20.761 Z-0.379
N715 X-24.905 Y20.76 Z-0.367
N720 X-24.874 Y20.741 Z-0.334
N725 X-24.869 Y20.737 Z-0.329
N730 X-24.874 Y20.741 Z-0.334
N735 X-24.905 Y20.76 Z-0.367
N740 X-24.886 Y20.773 Z-0.346
N745 X-24.905 Y20.76 Z-0.367
N750 X-24.934 Y20.761 Z-0.379
N755 X-24.969 Y20.762 Z-0.386
N760 X-25.047 Z-0.391
N765 X-27.457 Y20.748
N770 X-27.532 Y20.75 Z-0.394
N775 X-27.607 Y20.758 Z-0.402
N780 X-27.682 Y20.772 Z-0.417
N785 X-27.757 Y20.792 Z-0.437
N790 X-27.832 Y20.817 Z-0.463
N795 X-27.907 Y20.848 Z-0.494
N800 X-27.956 Y20.873 Z-0.517
N805 X-28.005 Y20.9 Z-0.542
N810 X-28.006
N815 X-28.007 Y20.902
N820 X-28.033 Y20.999 Z-0.521
N825 X-28.046 Y21.078 Z-0.508
N830 X-28.054 Y21.157 Z-0.5
N835 X-28.057 Y21.235 Z-0.498
N840 X-28.082 Y25.514
N845 X-28.083 Y25.61 Z-0.493
N850 Y25.651 Z-0.486
N855 Y25.672 Z-0.477
N860 X-28.098 Y25.693 Z-0.456
N865 X-28.122 Y25.729 Z-0.417
N870 X-28.098 Y25.693 Z-0.456
N875 X-28.083 Y25.672 Z-0.477
N880 X-28.053 Y25.716 Z-0.43
N885 X-28.033 Y25.737 Z-0.401
N890 X-27.731 Y26.008 Z-0.001
N895 Z5.
N900 X-17.453 Y25.786
N905 Z-0.407 F100.
N910 X-17.421 Y25.771 Z-0.44 F500.
N915 X-17.417 Y25.767 Z-0.444
N920 X-17.399 Y25.798 Z-0.415
N925 X-17.344 Y25.872 Z-0.336
N930 X-17.291 Y25.96 Z-0.238
N935 X-17.26 Y26.02 Z-0.173
N940 X-17.195 Y26.181 Z0.
N945 X-17.26 Y26.02 Z-0.173
N950 X-17.291 Y25.96 Z-0.238
N955 X-17.344 Y25.872 Z-0.336
N960 X-17.399 Y25.798 Z-0.415
N965 X-17.417 Y25.767 Z-0.444
N970 X-17.383 Y25.635 Z-0.462
N975 X-17.377 Y25.6 Z-0.465
N980 X-17.322 Y25.376 Z-0.468
N985 X-16.491 Y21.943 Z-0.429
N990 X-16.463 Y21.846 Z-0.433
N995 X-16.43 Y21.762 Z-0.444
N1000 X-16.389 Y21.679 Z-0.463
N1005 X-16.341 Y21.599 Z-0.49
N1010 X-16.286 Y21.521 Z-0.524
N1015 X-16.224 Y21.444 Z-0.566
N1020 X-16.162 Y21.378 Z-0.608
N1025 X-16.095 Y21.315 Z-0.657
N1030 X-16.022 Y21.252 Z-0.711
N1035 X-16.025 Y21.116 Z-0.673
N1040 X-16.023 Y20.968 Z-0.626
N1045 Y20.936 Z-0.611
N1050 X-16.071 Y20.863 Z-0.534
N1055 X-16.104 Y20.818 Z-0.48
N1060 X-16.071 Y20.863 Z-0.534
N1065 X-16.023 Y20.936 Z-0.611
N1070 X-16.013 Y20.918 Z-0.593
N1075 X-15.978 Y20.849 Z-0.52
N1080 X-15.966 Y20.832 Z-0.5
N1085 X-15.978 Y20.849 Z-0.52
N1090 X-16.013 Y20.918 Z-0.593
N1095 X-16.023 Y20.936 Z-0.611
N1100 Y20.968 Z-0.626
N1105 X-16.025 Y21.116 Z-0.673
N1110 X-16.022 Y21.252 Z-0.711
N1115 X-15.945 Y21.31 Z-0.652
N1120 X-15.873 Y21.369 Z-0.6
N1125 X-15.808 Y21.431 Z-0.553
N1130 X-15.745 Y21.498 Z-0.51
N1135 X-15.688 Y21.566 Z-0.473
N1140 X-15.638 Y21.637 Z-0.443
N1145 X-15.595 Y21.709 Z-0.419
N1150 X-15.558 Y21.783 Z-0.402
N1155 X-15.527 Y21.858 Z-0.392
N1160 X-15.503 Y21.936 Z-0.389
N1165 X-14.712 Y24.928 Z-0.396
N1170 X-14.688 Y25.005 Z-0.399
N1175 X-14.657 Y25.081 Z-0.409
N1180 X-14.621 Y25.155 Z-0.426
N1185 X-14.585 Y25.216 Z-0.445
N1190 X-14.544 Y25.276 Z-0.469
N1195 X-14.498 Y25.335 Z-0.497
N1200 X-14.448 Y25.393 Z-0.531
N1205 X-14.387 Y25.452 Z-0.57
N1210 X-14.321 Y25.509 Z-0.614
N1215 X-14.25 Y25.564 Z-0.664
N1220 X-14.248 Y25.566 Z-0.666
N1225 X-14.279 Y25.616 Z-0.613
N1230 X-14.29 Y25.636 Z-0.591
N1235 X-14.305 Y25.653 Z-0.57
N1240 X-14.29 Y25.636 Z-0.591
N1245 X-14.279 Y25.616 Z-0.613
N1250 X-14.248 Y25.566 Z-0.666
N1255 X-14.245
N1260 X-14.238 Y25.58 Z-0.652
N1265 X-14.21 Y25.624 Z-0.607
N1270 X-14.178 Y25.688 Z-0.539
N1275 X-14.165 Y25.707 Z-0.517
N1280 X-13.836 Y26.111 Z0.
N1285 X-14.165 Y25.707 Z-0.517
N1290 X-14.178 Y25.688 Z-0.539
N1295 X-14.21 Y25.624 Z-0.607
N1300 X-14.238 Y25.58 Z-0.652
N1305 X-14.245 Y25.566 Z-0.666
N1310 X-14.24 Y25.563 Z-0.663
N1315 X-14.171 Y25.511 Z-0.613
N1320 X-14.106 Y25.457 Z-0.569
N1325 X-14.046 Y25.401 Z-0.529
N1330 X-13.992 Y25.343 Z-0.494
N1335 X-13.943 Y25.283 Z-0.463
N1340 X-13.899 Y25.222 Z-0.438
N1345 X-13.86 Y25.16 Z-0.417
N1350 X-13.822 Y25.085 Z-0.4
N1355 X-13.79 Y25.009 Z-0.39
N1360 X-13.764 Y24.93 Z-0.386
N1365 X-12.941 Y21.952 Z-0.388
N1370 X-12.916 Y21.875 Z-0.391
N1375 X-12.884 Y21.799 Z-0.402
N1380 X-12.846 Y21.725 Z-0.419
N1385 X-12.802 Y21.653 Z-0.442
N1390 X-12.751 Y21.583 Z-0.473
N1395 X-12.694 Y21.515 Z-0.51
N1400 X-12.63 Y21.448 Z-0.554
N1405 X-12.564 Y21.388 Z-0.6
N1410 X-12.492 Y21.33 Z-0.653
N1415 X-12.414 Y21.273 Z-0.711
N1420 X-12.413 Y21.214 Z-0.695
N1425 X-12.41 Y20.981 Z-0.624
N1430 X-12.409 Y20.959 Z-0.614
N1435 X-12.405 Y20.952 Z-0.607
N1440 X-12.382 Y20.916 Z-0.57
N1445 X-12.346 Y20.849 Z-0.499
N1450 X-12.325 Y20.82 Z-0.463
N1455 X-12.021 Y20.464 Z-0.001
N1460 X-12.325 Y20.82 Z-0.463
N1465 X-12.346 Y20.849 Z-0.499
N1470 X-12.382 Y20.916 Z-0.57
N1475 X-12.405 Y20.952 Z-0.607
N1480 X-12.409 Y20.959 Z-0.614
N1485 X-12.425 Y20.933 Z-0.587
N1490 X-12.455 Y20.872 Z-0.523
N1495 X-12.467 Y20.854 Z-0.502
N1500 X-12.455 Y20.872 Z-0.523
N1505 X-12.425 Y20.933 Z-0.587
N1510 X-12.409 Y20.959 Z-0.614
N1515 X-12.41 Y20.981 Z-0.624
N1520 X-12.413 Y21.214 Z-0.695
N1525 X-12.414 Y21.273 Z-0.711
N1530 X-12.342 Y21.336 Z-0.657
N1535 X-12.276 Y21.401 Z-0.609
N1540 X-12.215 Y21.467 Z-0.566
N1545 X-12.153 Y21.544 Z-0.524
N1550 X-12.099 Y21.623 Z-0.49
N1555 X-12.052 Y21.704 Z-0.463
N1560 X-12.013 Y21.787 Z-0.444
N1565 X-11.981 Y21.872 Z-0.433
N1570 X-11.953 Y21.969 Z-0.429
N1575 X-11.163 Y25.411 Z-0.468
N1580 X-11.113 Y25.637 Z-0.467
N1585 X-11.089 Y25.762 Z-0.456
N1590 X-11.079 Y25.798 Z-0.45
N1595 X-11.063 Y25.81 Z-0.435
N1600 X-11.031 Y25.825 Z-0.402
N1605 X-10.659 Y25.984 Z-0.001
N1610 X-11.031 Y25.825 Z-0.402
N1615 X-11.063 Y25.81 Z-0.435
N1620 X-11.079 Y25.798 Z-0.45
N1625 X-11.094 Y25.827 Z-0.423
N1630 X-11.131 Y25.893 Z-0.353
N1635 X-11.14 Y25.905 Z-0.338
N1640 X-11.373 Y26.155 Z0.
N1645 Z5.
N1650 X-9.017 Y34.983
N1655 Z-0.26 F100.
N1660 X-8.95 Y34.955 Z-0.331 F500.
N1665 X-8.888 Y34.925 Z-0.398
N1670 X-8.844 Y34.888 Z-0.449
N1675 X-8.792 Y34.849 Z-0.502
N1680 X-8.73 Y34.794 Z-0.566
N1685 X-8.705 Y34.771 Z-0.591
N1690 X-8.748 Y34.678 Z-0.547
N1695 X-8.783 Y34.585 Z-0.512
N1700 X-8.81 Y34.492 Z-0.485
N1705 X-8.829 Y34.399 Z-0.465
N1710 X-8.84 Y34.306 Z-0.453
N1715 X-8.844 Y34.213 Z-0.449
N1720 X-8.821 Y30.154
N1725 Y30.062 Z-0.445
N1730 Y30.023 Z-0.438
N1735 Y29.995 Z-0.427
N1740 X-8.827 Y29.986 Z-0.418
N1745 X-8.85 Y29.951 Z-0.381
N1750 X-8.827 Y29.986 Z-0.418
N1755 X-8.821 Y29.995 Z-0.427
N1760 X-8.791 Y29.951 Z-0.38
N1765 X-8.821 Y29.995 Z-0.427
N1770 Y30.023 Z-0.438
N1775 Y30.062 Z-0.445
N1780 Y30.154 Z-0.449
N1785 X-8.844 Y34.213
N1790 X-8.84 Y34.306 Z-0.453
N1795 X-8.829 Y34.399 Z-0.465
N1800 X-8.81 Y34.492 Z-0.485
N1805 X-8.783 Y34.585 Z-0.512
N1810 X-8.748 Y34.678 Z-0.547
N1815 X-8.705 Y34.771 Z-0.591
N1820 X-8.636 Y34.794 Z-0.571
N1825 X-8.551 Y34.815 Z-0.551
N1830 X-8.467 Y34.829 Z-0.537
N1835 X-8.382 Y34.838 Z-0.529
N1840 X-8.274 Y34.841 Z-0.526
N1845 X-8.195 Y34.836 Z-0.528
N1850 X-8.117 Y34.826 Z-0.536
N1855 X-8.115 Y34.828 Z-0.533
N1860 X-7.96 Y35.009 Z-0.325
N1865 X-7.935 Y35.046 Z-0.283
N1870 X-7.927 Y35.063 Z-0.265
N1875 X-7.835 Y35.314 Z-0.001
N1880 X-7.927 Y35.063 Z-0.265
N1885 X-7.935 Y35.046 Z-0.283
N1890 X-7.96 Y35.009 Z-0.325
N1895 X-8.115 Y34.828 Z-0.533
N1900 X-8.117 Y34.826 Z-0.536
N1905 X-8.047 Y34.756 Z-0.494
N1910 X-7.992 Y34.688 Z-0.461
N1915 X-7.944 Y34.618 Z-0.433
N1920 X-7.902 Y34.546 Z-0.413
N1925 X-7.87 Y34.48 Z-0.4
N1930 X-7.844 Y34.413 Z-0.392
N1935 X-7.821 Y34.338 Z-0.389
N1940 X-7.024 Y31.324 Z-0.409
N1945 X-6.999 Y31.244 Z-0.413
N1950 X-6.968 Y31.165 Z-0.424
N1955 X-6.93 Y31.089 Z-0.442
N1960 X-6.885 Y31.014 Z-0.466
N1965 X-6.834 Y30.941 Z-0.498
N1970 X-6.776 Y30.869 Z-0.536
N1975 X-6.711 Y30.799 Z-0.581
N1980 X-6.64 Y30.731 Z-0.633
N1985 X-6.528 Y30.639 Z-0.718
N1990 X-6.527 Y30.322 Z-0.636
N1995 X-6.523 Y30.191 Z-0.595
N2000 Y30.163 Z-0.583
N2005 X-6.507 Y30.136 Z-0.556
N2010 X-6.474 Y30.07 Z-0.487
N2015 X-6.462 Y30.055 Z-0.468
N2020 X-6.154 Y29.697 Z-0.001
N2025 X-6.462 Y30.055 Z-0.468
N2030 X-6.474 Y30.07 Z-0.487
N2035 X-6.507 Y30.136 Z-0.556
N2040 X-6.523 Y30.163 Z-0.583
N2045 X-6.557 Y30.107 Z-0.523
N2050 X-6.587 Y30.034 Z-0.447
N2055 X-6.588 Y30.029 Z-0.442
N2060 X-6.587 Y30.034 Z-0.447
N2065 X-6.557 Y30.107 Z-0.523
N2070 X-6.523 Y30.163 Z-0.583
N2075 Y30.191 Z-0.595
N2080 X-6.527 Y30.322 Z-0.636
N2085 X-6.528 Y30.639 Z-0.718
N2090 X-6.496 Y30.664 Z-0.693
N2095 X-6.419 Y30.732 Z-0.634
N2100 X-6.348 Y30.801 Z-0.582
N2105 X-6.284 Y30.871 Z-0.537
N2110 X-6.226 Y30.943 Z-0.498
N2115 X-6.176 Y31.017 Z-0.466
N2120 X-6.132 Y31.093 Z-0.442
N2125 X-6.094 Y31.17 Z-0.424
N2130 X-6.064 Y31.249 Z-0.413
N2135 X-6.04 Y31.329 Z-0.409
N2140 X-5.275 Y34.358 Z-0.389
N2145 X-5.254 Y34.427 Z-0.392
N2150 X-5.229 Y34.495 Z-0.4
N2155 X-5.198 Y34.561 Z-0.413
N2160 X-5.157 Y34.633 Z-0.433
N2165 X-5.109 Y34.704 Z-0.461
N2170 X-5.055 Y34.773 Z-0.494
N2175 X-4.986 Y34.843 Z-0.536
N2180 X-4.988 Y34.846 Z-0.533
N2185 X-5.144 Y35.024 Z-0.325
N2190 X-5.17 Y35.061 Z-0.284
N2195 X-5.178 Y35.077 Z-0.266
N2200 X-5.273 Y35.328 Z-0.001
N2205 X-5.178 Y35.077 Z-0.266
N2210 X-5.17 Y35.061 Z-0.284
N2215 X-5.144 Y35.024 Z-0.325
N2220 X-4.988 Y34.846 Z-0.533
N2225 X-4.986 Y34.843 Z-0.536
N2230 X-4.908 Y34.854 Z-0.528
N2235 X-4.829 Y34.86 Z-0.526
N2240 X-4.72 Y34.858 Z-0.529
N2245 X-4.636 Y34.85 Z-0.537
N2250 X-4.551 Y34.837 Z-0.551
N2255 X-4.467 Y34.817 Z-0.571
N2260 X-4.397 Y34.795 Z-0.591
N2265 X-4.372 Y34.818 Z-0.566
N2270 X-4.312 Y34.874 Z-0.502
N2275 X-4.26 Y34.913 Z-0.449
N2280 X-4.216 Y34.951 Z-0.398
N2285 X-4.155 Y34.982 Z-0.332
N2290 X-4.087 Y35.01 Z-0.259
N2295 X-4.155 Y34.982 Z-0.332
N2300 X-4.216 Y34.951 Z-0.398
N2305 X-4.26 Y34.913 Z-0.449
N2310 X-4.312 Y34.874 Z-0.502
N2315 X-4.372 Y34.818 Z-0.566
N2320 X-4.397 Y34.795 Z-0.591
N2325 X-4.353 Y34.702 Z-0.548
N2330 X-4.317 Y34.609 Z-0.512
N2335 X-4.289 Y34.517 Z-0.485
N2340 X-4.269 Y34.424 Z-0.465
N2345 X-4.257 Y34.331 Z-0.453
N2350 X-4.252 Y34.238 Z-0.449
N2355 X-4.23 Y30.179
N2360 X-4.229 Y30.089 Z-0.445
N2365 Y30.048 Z-0.438
N2370 Y30.02 Z-0.427
N2375 X-4.252 Y29.982 Z-0.387
N2380 X-4.257 Y29.976 Z-0.38
N2385 X-4.267 Y29.965 Z-0.366
N2390 X-4.547 Y29.723 Z0.
N2395 X-4.267 Y29.965 Z-0.366
N2400 X-4.257 Y29.976 Z-0.38
N2405 X-4.252 Y29.982 Z-0.387
N2410 X-4.229 Y30.02 Z-0.427
N2415 X-4.2 Y29.979 Z-0.382
N2420 X-4.185 Y29.964 Z-0.361
N2425 X-3.906 Y29.727 Z0.
N2430 Z5.
N2435 X-2.208 Y29.847
N2440 Z0. F100.
N2445 X-1.913 Y30.143 Z-0.408 F500.
N2450 X-1.85 Y30.207 Z-0.492
N2455 X-1.813 Y30.244 Z-0.535
N2460 X-1.807 Y30.24 Z-0.532
N2465 X-1.758 Y30.211 Z-0.505
N2470 X-1.708 Y30.186 Z-0.482
N2475 X-1.633 Y30.154 Z-0.449
N2480 X-1.558 Y30.127 Z-0.422
N2485 X-1.483 Y30.107 Z-0.402
N2490 X-1.408 Y30.093 Z-0.387
N2495 X-1.333 Y30.084 Z-0.378
N2500 X-1.258 Y30.082 Z-0.375
N2505 X1.514 Y30.097
N2510 X1.588 Z-0.371
N2515 X1.618 Z-0.366
N2520 X1.632 Z-0.36
N2525 X1.648 Y30.086 Z-0.343
N2530 X1.674 Y30.07 Z-0.316
N2535 X1.685 Y30.059 Z-0.3
N2540 X1.886 Y29.831 Z-0.001
N2545 X1.685 Y30.059 Z-0.3
N2550 X1.674 Y30.07 Z-0.316
N2555 X1.648 Y30.086 Z-0.343
N2560 X1.632 Y30.097 Z-0.36
N2565 X1.669 Y30.124 Z-0.319
N2570 X1.683 Y30.138 Z-0.3
N2575 X1.883 Y30.367 Z0.
N2580 X1.683 Y30.138 Z-0.3
N2585 X1.669 Y30.124 Z-0.319
N2590 X1.632 Y30.097 Z-0.36
N2595 X1.618 Z-0.366
N2600 X1.588 Z-0.371
N2605 X1.514 Z-0.375
N2610 X-1.258 Y30.082
N2615 X-1.333 Y30.084 Z-0.378
N2620 X-1.408 Y30.093 Z-0.387
N2625 X-1.483 Y30.107 Z-0.402
N2630 X-1.558 Y30.127 Z-0.422
N2635 X-1.633 Y30.154 Z-0.449
N2640 X-1.708 Y30.186 Z-0.482
N2645 X-1.758 Y30.211 Z-0.505
N2650 X-1.807 Y30.24 Z-0.532
N2655 X-1.813 Y30.244 Z-0.535
N2660 X-1.828 Y30.3 Z-0.523
N2665 X-1.839 Y30.349 Z-0.515
N2670 X-1.849 Y30.417 Z-0.505
N2675 X-1.855 Y30.485 Z-0.5
N2680 X-1.858 Y30.553 Z-0.498
N2685 X-1.867 Y32.231
N2690 X-1.864 Y32.321 Z-0.501
N2695 X-1.854 Y32.411 Z-0.511
N2700 X-1.838 Y32.502 Z-0.528
N2705 X-1.815 Y32.592 Z-0.552
N2710 X-1.784 Y32.682 Z-0.583
N2715 X-1.698 Y32.683 Z-0.52
N2720 X-1.621 Z-0.47
N2725 X-1.552 Y32.684 Z-0.431
N2730 X-1.489 Z-0.4
N2735 X-1.43 Z-0.378
N2740 X-1.376 Y32.685 Z-0.363
N2745 X-1.323 Z-0.354
N2750 X-1.272 Z-0.351
N2755 X1.196 Y32.699
N2760 X1.268 Z-0.347
N2765 X1.297 Z-0.342
N2770 X1.31 Y32.7 Z-0.337
N2775 X1.331 Y32.714 Z-0.316
N2780 X1.355 Y32.73 Z-0.29
N2785 X1.369 Y32.744 Z-0.271
N2790 X1.547 Y32.952 Z0.
N2795 X1.369 Y32.744 Z-0.271
N2800 X1.355 Y32.73 Z-0.29
N2805 X1.331 Y32.714 Z-0.316
N2810 X1.31 Y32.7 Z-0.337
N2815 X1.344 Y32.676 Z-0.3
N2820 X1.363 Y32.658 Z-0.275
N2825 X1.551 Y32.453 Z-0.001
N2830 X1.363 Y32.658 Z-0.275
N2835 X1.344 Y32.676 Z-0.3
N2840 X1.31 Y32.7 Z-0.337
N2845 X1.297 Y32.699 Z-0.342
N2850 X1.268 Z-0.347
N2855 X1.196 Z-0.351
N2860 X-1.272 Y32.685
N2865 X-1.323 Z-0.354
N2870 X-1.376 Z-0.363
N2875 X-1.43 Y32.684 Z-0.378
N2880 X-1.489 Z-0.4
N2885 X-1.552 Z-0.431
N2890 X-1.621 Y32.683 Z-0.47
N2895 X-1.698 Z-0.52
N2900 X-1.784 Y32.682 Z-0.583
N2905 X-1.816 Y32.772 Z-0.552
N2910 X-1.84 Y32.862 Z-0.528
N2915 X-1.857 Y32.952 Z-0.511
N2920 X-1.868 Y33.042 Z-0.501
N2925 X-1.872 Y33.133 Z-0.498
N2930 X-1.88 Y34.581
N2935 X-1.877 Y34.665 Z-0.501
N2940 X-1.869 Y34.748 Z-0.509
N2945 X-1.857 Y34.808 Z-0.517
N2950 X-1.843 Y34.867 Z-0.528
N2955 X-1.85 Y34.873 Z-0.52
N2960 X-1.979 Y35.002 Z-0.36
N2965 X-1.85 Y34.873 Z-0.52
N2970 X-1.843 Y34.867 Z-0.528
N2975 X-1.785 Y34.904 Z-0.495
N2980 X-1.727 Y34.936 Z-0.467
N2985 X-1.653 Y34.969 Z-0.435
N2990 X-1.58 Y34.996 Z-0.408
N2995 X-1.506 Y35.017 Z-0.387
N3000 X-1.432 Y35.033 Z-0.373
N3005 X-1.359 Y35.042 Z-0.364
N3010 X-1.285 Y35.045 Z-0.361
N3015 X1.396 Y35.06
N3020 X1.473 Z-0.357
N3025 X1.505 Y35.061 Z-0.352
N3030 X1.524 Z-0.345
N3035 X1.562 Y35.034 Z-0.302
N3040 X1.524 Y35.061 Z-0.345
N3045 X1.564 Y35.089 Z-0.301
N3050 Z5.
N3055 X3.269 Y35.286
N3060 Z0. F100.
N3065 X3.569 Y34.989 Z-0.413 F500.
N3070 X3.632 Y34.927 Z-0.496
N3075 X3.666 Y34.893 Z-0.534
N3080 X3.641 Y34.787 Z-0.514
N3085 X3.632 Y34.72 Z-0.505
N3090 X3.627 Y34.654 Z-0.499
N3095 X3.647 Y30.583 Z-0.498
N3100 X3.652 Y30.487 Z-0.501
N3105 X3.665 Y30.398 Z-0.51
N3110 X3.684 Y30.308 Z-0.526
N3115 X3.697 Y30.271 Z-0.532
N3120 X3.67 Y30.242 Z-0.5
N3125 X3.604 Y30.181 Z-0.424
N3130 X3.541 Y30.128 Z-0.351
N3135 X3.604 Y30.181 Z-0.424
N3140 X3.67 Y30.242 Z-0.5
N3145 X3.697 Y30.271 Z-0.532
N3150 X3.724 Y30.255 Z-0.518
N3155 X3.816 Y30.207 Z-0.473
N3160 X3.902 Y30.172 Z-0.437
N3165 X3.989 Y30.146 Z-0.41
N3170 X4.075 Y30.127 Z-0.39
N3175 X4.161 Y30.115 Z-0.379
N3180 X4.247 Y30.112 Z-0.375
N3185 X5.153 Y30.117
N3190 X5.359 Y30.119 Z-0.376
N3195 X5.647 Y30.133 Z-0.379
N3200 X5.698 Y30.136 Z-0.381
N3205 X5.876 Y30.162 Z-0.385
N3210 X6.013 Y30.189 Z-0.396
N3215 X6.111 Y30.215 Z-0.399
N3220 X6.178 Y30.235 Z-0.404
N3225 X6.258 Y30.263 Z-0.413
N3230 X6.349 Y30.301 Z-0.416
N3235 X6.394 Y30.321 Z-0.419
N3240 X6.478 Y30.365 Z-0.43
N3245 X6.594 Y30.439 Z-0.438
N3250 X6.633 Y30.465 Z-0.441
N3255 X6.671 Y30.493 Z-0.447
N3260 X6.718 Y30.539 Z-0.453
N3265 X6.836 Y30.657 Z-0.474
N3270 X6.902 Y30.734 Z-0.481
N3275 X7.024 Y30.889 Z-0.492
N3280 X7.078 Y30.968 Z-0.493
N3285 X7.185 Y31.146 Z-0.498
N3290 X7.198 Y31.169 Z-0.497
N3295 X7.234 Y31.244
N3300 X7.317 Y31.447 Z-0.499
N3305 X7.321 Y31.458 Z-0.498
N3310 X7.347 Y31.541
N3315 X7.403 Y31.767 Z-0.5
N3320 X7.445 Y32.065 Z-0.501
N3325 X7.458 Y32.191 Z-0.506
N3330 X7.474 Y32.6 Z-0.505
N3335 X7.461 Y32.915 Z-0.501
N3340 X7.457 Y32.984 Z-0.499
N3345 X7.439 Y33.183 Z-0.497
N3350 X7.408 Y33.387 Z-0.495
N3355 X7.387 Y33.496 Z-0.498
N3360 X7.361 Y33.599 Z-0.497
N3365 X7.322 Y33.722
N3370 X7.291 Y33.806 Z-0.493
N3375 X7.236 Y33.927 Z-0.488
N3380 X7.121 Y34.147 Z-0.465
N3385 X7.08 Y34.214 Z-0.459
N3390 X6.935 Y34.411 Z-0.453
N3395 X6.918 Y34.433 Z-0.452
N3400 X6.821 Y34.549 Z-0.451
N3405 X6.763 Y34.613 Z-0.454
N3410 X6.706 Y34.662 Z-0.449
N3415 X6.654 Y34.703 Z-0.447
N3420 X6.563 Y34.766 Z-0.442
N3425 X6.525 Y34.791 Z-0.441
N3430 X6.416 Y34.848 Z-0.434
N3435 X6.378 Y34.866 Z-0.432
N3440 X6.222 Y34.929 Z-0.423
N3445 X6.112 Y34.963 Z-0.41
N3450 X6.059 Y34.976 Z-0.407
N3455 X5.826 Y35.02 Z-0.398
N3460 X5.563 Y35.052 Z-0.386
N3465 X5.309 Y35.064 Z-0.378
N3470 X5.022 Y35.068 Z-0.373
N3475 X4.22 Y35.063
N3480 X4.145 Y35.06 Z-0.376
N3485 X4.07 Y35.051 Z-0.385
N3490 X3.995 Y35.035 Z-0.4
N3495 X3.921 Y35.014 Z-0.42
N3500 X3.846 Y34.987 Z-0.447
N3505 X3.771 Y34.954 Z-0.48
N3510 X3.722 Y34.928 Z-0.503
N3515 X3.674 Y34.899 Z-0.53
N3520 X3.666 Y34.893 Z-0.534
N3525 Z5.
N3530 X11.105 Y20.389
N3535 Z0. F100.
N3540 X11.41 Y20.65 Z-0.396 F500.
N3545 X11.422 Y20.663 Z-0.413
N3550 X11.447 Y20.7 Z-0.454
N3555 X11.461 Y20.722 Z-0.476
N3560 X11.488 Y20.683 Z-0.434
N3565 X11.504 Y20.666 Z-0.41
N3570 X11.816 Y20.393 Z-0.001
N3575 X11.504 Y20.666 Z-0.41
N3580 X11.488 Y20.683 Z-0.434
N3585 X11.461 Y20.722 Z-0.476
N3590 X11.462 Y20.75 Z-0.486
N3595 Y20.79 Z-0.493
N3600 Y20.886 Z-0.498
N3605 X11.45 Y22.854
N3610 X11.454 Y22.952 Z-0.502
N3615 X11.465 Y23.049 Z-0.513
N3620 X11.484 Y23.147 Z-0.533
N3625 X11.511 Y23.244 Z-0.561
N3630 X11.546 Y23.342 Z-0.597
N3635 X11.51 Y23.439 Z-0.561
N3640 X11.482 Y23.536 Z-0.533
N3645 X11.461 Y23.634 Z-0.513
N3650 X11.449 Y23.731 Z-0.502
N3655 X11.444 Y23.828 Z-0.498
N3660 X11.435 Y25.504
N3665 X11.434 Y25.601 Z-0.493
N3670 X11.433 Y25.644 Z-0.485
N3675 Y25.661 Z-0.478
N3680 X11.464 Y25.706 Z-0.43
N3685 X11.433 Y25.661 Z-0.478
N3690 X11.427 Y25.67 Z-0.47
N3695 X11.387 Y25.726 Z-0.409
N3700 X11.427 Y25.67 Z-0.47
N3705 X11.433 Y25.661 Z-0.478
N3710 Y25.644 Z-0.485
N3715 X11.434 Y25.601 Z-0.493
N3720 X11.435 Y25.504 Z-0.498
N3725 X11.444 Y23.828
N3730 X11.449 Y23.731 Z-0.502
N3735 X11.461 Y23.634 Z-0.513
N3740 X11.482 Y23.536 Z-0.533
N3745 X11.51 Y23.439 Z-0.561
N3750 X11.546 Y23.342 Z-0.597
N3755 X11.629 Z-0.54
N3760 X11.704 Y23.343 Z-0.495
N3765 X11.771 Z-0.459
N3770 X11.832 Y23.344 Z-0.431
N3775 X11.889 Z-0.411
N3780 X11.943 Z-0.397
N3785 X11.994 Y23.345 Z-0.39
N3790 X12.045 Z-0.387
N3795 X14.675 Y23.36 Z-0.39
N3800 X14.726 Z-0.397
N3805 X14.78 Y23.361 Z-0.411
N3810 X14.837 Z-0.431
N3815 X14.898 Z-0.459
N3820 X14.965 Y23.362 Z-0.495
N3825 X15.04 Z-0.54
N3830 X15.123 Y23.363 Z-0.597
N3835 X15.159 Y23.265 Z-0.561
N3840 X15.187 Y23.168 Z-0.533
N3845 X15.208 Y23.071 Z-0.513
N3850 X15.22 Y22.974 Z-0.502
N3855 X15.225 Y22.876 Z-0.498
N3860 X15.236 Y20.907
N3865 Y20.81 Z-0.493
N3870 Y20.767 Z-0.485
N3875 Y20.743 Z-0.475
N3880 X15.222 Y20.722 Z-0.454
N3885 X15.197 Y20.685 Z-0.414
N3890 X15.184 Y20.672 Z-0.396
N3895 X14.88 Y20.411 Z-0.001
N3900 X15.184 Y20.672 Z-0.396
N3905 X15.197 Y20.685 Z-0.414
N3910 X15.222 Y20.722 Z-0.454
N3915 X15.236 Y20.743 Z-0.475
N3920 X15.262 Y20.704 Z-0.433
N3925 X15.236 Y20.743 Z-0.475
N3930 Y20.767 Z-0.485
N3935 Y20.81 Z-0.493
N3940 Y20.907 Z-0.498
N3945 X15.225 Y22.876
N3950 X15.22 Y22.974 Z-0.502
N3955 X15.208 Y23.071 Z-0.513
N3960 X15.187 Y23.168 Z-0.533
N3965 X15.159 Y23.265 Z-0.561
N3970 X15.123 Y23.363 Z-0.597
N3975 X15.158 Y23.46 Z-0.561
N3980 X15.185 Y23.558 Z-0.533
N3985 X15.204 Y23.655 Z-0.513
N3990 X15.216 Y23.753 Z-0.502
N3995 X15.219 Y23.85 Z-0.498
N4000 X15.209 Y25.525
N4005 Y25.622 Z-0.493
N4010 X15.208 Y25.663 Z-0.486
N4015 Y25.684 Z-0.477
N4020 X15.238 Y25.728 Z-0.43
N4025 X15.258 Y25.748 Z-0.402
N4030 X15.561 Y26.02 Z-0.001
N4035 X15.258 Y25.748 Z-0.402
N4040 X15.238 Y25.728 Z-0.43
N4045 X15.208 Y25.684 Z-0.477
N4050 X15.194 Y25.705 Z-0.456
N4055 X15.17 Y25.74 Z-0.418
N4060 X15.156 Y25.754 Z-0.398
N4065 X14.849 Y26.015 Z0.
N4070 Z5.
N4075 X17.378 Y26.03
N4080 Z0. F100.
N4085 X17.687 Y25.765 Z-0.402 F500.
N4090 X17.7 Y25.751 Z-0.421
N4095 X17.725 Y25.715 Z-0.46
N4100 X17.736 Y25.699 Z-0.477
N4105 X17.765 Y25.742 Z-0.43
N4110 X17.785 Y25.763 Z-0.402
N4115 X18.088 Y26.035 Z0.
N4120 X17.785 Y25.763 Z-0.402
N4125 X17.765 Y25.742 Z-0.43
N4130 X17.736 Y25.699 Z-0.477
N4135 Y25.676 Z-0.486
N4140 Y25.636 Z-0.493
N4145 Y25.54 Z-0.498
N4150 X17.763 Y20.922
N4155 X17.764 Y20.825 Z-0.493
N4160 X17.765 Y20.785 Z-0.485
N4165 Y20.757 Z-0.474
N4170 X17.793 Y20.716 Z-0.43
N4175 X17.765 Y20.757 Z-0.474
N4180 X17.74 Y20.717 Z-0.433
N4185 X17.735 Y20.711 Z-0.425
N4190 X17.725 Y20.7 Z-0.411
N4195 X17.413 Y20.427 Z-0.001
N4200 Z5.
N4205 X22.508 Y22.8
N4210 Z-0.001 F100.
N4215 X22.727 Y22.91 Z-0.243 F500.
N4220 X22.738 Y22.917 Z-0.255
N4225 X22.739 Y22.918 Z-0.257
N4230 X22.78 Y22.949 Z-0.3
N4235 X22.8 Y22.961 Z-0.319
N4240 X22.797 Y22.963 Z-0.316
N4245 X22.8 Y22.961 Z-0.319
N4250 X22.837 Y22.965 Z-0.333
N4255 X22.877 Y22.963 Z-0.341
N4260 X22.954 Y22.961 Z-0.347
N4265 X23.979 Y22.965 Z-0.349
N4270 X24.048 Y22.963 Z-0.351
N4275 X24.116 Y22.956 Z-0.359
N4280 X24.185 Y22.943 Z-0.372
N4285 X24.254 Y22.925 Z-0.391
N4290 X24.337 Y22.894 Z-0.419
N4295 X24.42 Y22.855 Z-0.454
N4300 X24.484 Y22.815 Z-0.484
N4305 X24.5 Y22.83 Z-0.467
N4310 X24.58 Y22.925 Z-0.357
N4315 X24.597 Y22.937 Z-0.337
N4320 X24.881 Y23.123 Z-0.001
N4325 X24.597 Y22.937 Z-0.337
N4330 X24.58 Y22.925 Z-0.357
N4335 X24.5 Y22.83 Z-0.467
N4340 X24.484 Y22.815 Z-0.484
N4345 X24.492 Y22.79 Z-0.479
N4350 X24.512 Y22.707 Z-0.463
N4355 X24.521 Y22.645 Z-0.454
N4360 X24.527 Y22.582 Z-0.449
N4365 X24.529 Y22.52 Z-0.447
N4370 X24.533 Y21.537 Z-0.446
N4375 X24.525 Y21.454 Z-0.448
N4380 X24.513 Y21.401 Z-0.449
N4385 X24.5 Y21.379 Z-0.444
N4390 X24.469 Y21.337 Z-0.43
N4395 X24.435 Y21.297 Z-0.419
N4400 X24.385 Y21.249 Z-0.405
N4405 X24.333 Y21.205 Z-0.395
N4410 X24.272 Y21.164 Z-0.386
N4415 X24.199 Y21.124 Z-0.384
N4420 X24.114 Y21.082 Z-0.385
N4425 X23.888 Y20.974 Z-0.382
N4430 X23.792 Y20.934 Z-0.378
N4435 X23.655 Y20.883 Z-0.379
N4440 X23.414 Y20.8 Z-0.373
N4445 X23.365 Y20.787 Z-0.371
N4450 X23.147 Y20.737 Z-0.368
N4455 X22.953 Y20.702 Z-0.366
N4460 X22.911 Y20.698 Z-0.365
N4465 X22.691 Y20.678 Z-0.363
N4470 X22.454 Y20.67 Z-0.362
N4475 X22.43 Y20.671 Z-0.363
N4480 X22.187 Y20.687 Z-0.369
N4485 X22.008 Y20.705
N4490 X21.916 Y20.719 Z-0.373
N4495 X21.771 Y20.75 Z-0.372
N4500 X21.652 Y20.782 Z-0.378
N4505 X21.596 Y20.799 Z-0.379
N4510 X21.525 Y20.824 Z-0.382
N4515 X21.399 Y20.874 Z-0.394
N4520 X21.358 Y20.893 Z-0.396
N4525 X21.299 Y20.923 Z-0.4
N4530 X21.191 Y20.983 Z-0.411
N4535 X21.092 Y21.044 Z-0.418
N4540 X21. Y21.107 Z-0.43
N4545 X20.791 Y21.273 Z-0.438
N4550 X20.788 Y21.276
N4555 X20.725 Y21.334 Z-0.441
N4560 X20.663 Y21.402 Z-0.453
N4565 X20.531 Y21.584 Z-0.472
N4570 X20.406 Y21.772 Z-0.482
N4575 X20.395 Y21.794
N4580 X20.29 Y22. Z-0.486
N4585 X20.273 Y22.04 Z-0.487
N4590 X20.216 Y22.18 Z-0.492
N4595 X20.189 Y22.263 Z-0.49
N4600 X20.178 Y22.303 Z-0.491
N4605 X20.143 Y22.436 Z-0.496
N4610 X20.116 Y22.559 Z-0.497
N4615 X20.09 Y22.698 Z-0.504
N4620 X20.077 Y22.812 Z-0.503
N4625 X20.064 Y22.965 Z-0.507
N4630 X20.048 Y23.242 Z-0.506
N4635 X20.049 Y23.297 Z-0.504
N4640 X20.059 Y23.551 Z-0.503
N4645 X20.081 Y23.785 Z-0.501
N4650 X20.089 Y23.827 Z-0.5
N4655 X20.14 Y24.078 Z-0.496
N4660 X20.199 Y24.303 Z-0.491
N4665 X20.216 Y24.351 Z-0.489
N4670 X20.286 Y24.528 Z-0.483
N4675 X20.304 Y24.567 Z-0.481
N4680 X20.388 Y24.737 Z-0.474
N4685 X20.426 Y24.799 Z-0.469
N4690 X20.496 Y24.906 Z-0.464
N4695 X20.558 Y24.991 Z-0.456
N4700 X20.632 Y25.084 Z-0.452
N4705 X20.68 Y25.137 Z-0.443
N4710 X20.735 Y25.193 Z-0.437
N4715 X20.79 Y25.246 Z-0.434
N4720 X20.9 Y25.34 Z-0.423
N4725 X20.966 Y25.394 Z-0.419
N4730 X21.04 Y25.445 Z-0.41
N4735 X21.101 Y25.484 Z-0.404
N4740 X21.162 Y25.52 Z-0.401
N4745 X21.29 Y25.589 Z-0.391
N4750 X21.374 Y25.63 Z-0.388
N4755 X21.451 Y25.661 Z-0.38
N4760 X21.517 Y25.686 Z-0.375
N4765 X21.64 Y25.726 Z-0.372
N4770 X21.735 Y25.753 Z-0.367
N4775 X21.919 Y25.798 Z-0.363
N4780 X21.978 Y25.807 Z-0.361
N4785 X22.205 Y25.833 Z-0.359
N4790 X22.43 Y25.844
N4795 X22.502 Y25.845 Z-0.362
N4800 X22.634 Y25.84 Z-0.363
N4805 X22.802 Y25.826 Z-0.367
N4810 X22.864 Y25.818 Z-0.369
N4815 X22.965 Y25.802 Z-0.377
N4820 X23.071 Y25.777 Z-0.38
N4825 X23.235 Y25.732 Z-0.39
N4830 X23.279 Y25.718 Z-0.392
N4835 X23.398 Y25.67 Z-0.408
N4840 X23.557 Y25.596 Z-0.42
N4845 X23.635 Y25.552 Z-0.428
N4850 X23.695 Y25.514 Z-0.437
N4855 X23.779 Y25.454 Z-0.445
N4860 X23.825 Y25.419 Z-0.452
N4865 X23.879 Y25.374 Z-0.457
N4870 X23.945 Y25.315 Z-0.467
N4875 X24.023 Y25.23 Z-0.477
N4880 X24.098 Y25.144 Z-0.483
N4885 X24.173 Y25.044
N4890 X24.228 Y24.961 Z-0.482
N4895 X24.263 Y24.9 Z-0.477
N4900 X24.291 Y24.848 Z-0.471
N4905 X24.32 Y24.785 Z-0.456
N4910 X24.317 Y24.774 Z-0.445
N4915 X24.32 Y24.785 Z-0.456
N4920 X24.326 Y24.78 Z-0.45
N4925 X24.377 Y24.76 Z-0.4
N4930 X24.747 Y24.601 Z-0.001
N4935 Z5.
N4940 X26.756 Y25.814
N4945 Z-0.41 F100.
N4950 X26.779 Y25.781 Z-0.447 F500.
N4955 X26.801 Y25.75 Z-0.478
N4960 X26.832 Y25.795 Z-0.43
N4965 X26.801 Y25.75 Z-0.478
N4970 Y25.733 Z-0.485
N4975 X26.802 Y25.69 Z-0.493
N4980 X26.803 Y25.593 Z-0.498
N4985 X26.812 Y23.917
N4990 X26.817 Y23.82 Z-0.502
N4995 X26.829 Y23.723 Z-0.513
N5000 X26.85 Y23.626 Z-0.533
N5005 X26.878 Y23.528 Z-0.561
N5010 X26.914 Y23.431 Z-0.597
N5015 X26.879 Y23.334 Z-0.561
N5020 X26.852 Y23.236 Z-0.533
N5025 X26.833 Y23.138 Z-0.513
N5030 X26.821 Y23.041 Z-0.502
N5035 X26.818 Y22.944 Z-0.498
N5040 X26.829 Y20.975
N5045 X26.83 Y20.877 Z-0.493
N5050 X26.829 Y20.834 Z-0.485
N5055 Y20.811 Z-0.475
N5060 X26.815 Y20.79 Z-0.454
N5065 X26.79 Y20.752 Z-0.413
N5070 X26.815 Y20.79 Z-0.454
N5075 X26.829 Y20.811 Z-0.475
N5080 X26.855 Y20.773 Z-0.434
N5085 X26.873 Y20.755 Z-0.41
N5090 X27.185 Y20.482 Z-0.001
N5095 X26.873 Y20.755 Z-0.41
N5100 X26.855 Y20.773 Z-0.434
N5105 X26.829 Y20.811 Z-0.475
N5110 Y20.834 Z-0.485
N5115 X26.83 Y20.877 Z-0.493
N5120 X26.829 Y20.975 Z-0.498
N5125 X26.818 Y22.944
N5130 X26.821 Y23.041 Z-0.502
N5135 X26.833 Y23.138 Z-0.513
N5140 X26.852 Y23.236 Z-0.533
N5145 X26.879 Y23.334 Z-0.561
N5150 X26.914 Y23.431 Z-0.597
N5155 X26.997 Y23.432 Z-0.54
N5160 X27.072 Z-0.495
N5165 X27.139 Z-0.459
N5170 X27.2 Y23.433 Z-0.431
N5175 X27.257 Z-0.411
N5180 X27.311 Z-0.397
N5185 X27.362 Y23.434 Z-0.39
N5190 X27.413 Z-0.387
N5195 X30.043 Y23.449 Z-0.39
N5200 X30.094 Y23.45 Z-0.398
N5205 X30.148 Z-0.411
N5210 X30.205 Z-0.431
N5215 X30.266 Y23.451 Z-0.459
N5220 X30.333 Z-0.495
N5225 X30.408 Z-0.54
N5230 X30.491 Y23.452 Z-0.597
N5235 X30.526 Y23.549 Z-0.561
N5240 X30.553 Y23.647 Z-0.533
N5245 X30.572 Y23.744 Z-0.513
N5250 X30.584 Y23.842 Z-0.502
N5255 X30.587 Y23.939 Z-0.498
N5260 X30.577 Y25.614
N5265 Y25.711 Z-0.493
N5270 X30.576 Y25.75 Z-0.486
N5275 Y25.773 Z-0.477
N5280 X30.561 Y25.794 Z-0.455
N5285 X30.537 Y25.83 Z-0.417
N5290 X30.561 Y25.794 Z-0.455
N5295 X30.576 Y25.773 Z-0.477
N5300 X30.606 Y25.817 Z-0.43
N5305 X30.576 Y25.773 Z-0.477
N5310 Y25.75 Z-0.486
N5315 X30.577 Y25.711 Z-0.493
N5320 Y25.614 Z-0.498
N5325 X30.587 Y23.939
N5330 X30.584 Y23.842 Z-0.502
N5335 X30.572 Y23.744 Z-0.513
N5340 X30.553 Y23.647 Z-0.533
N5345 X30.526 Y23.549 Z-0.561
N5350 X30.491 Y23.452 Z-0.597
N5355 X30.527 Y23.355 Z-0.561
N5360 X30.555 Y23.257 Z-0.533
N5365 X30.576 Y23.16 Z-0.513
N5370 X30.588 Y23.063 Z-0.502
N5375 X30.593 Y22.965 Z-0.498
N5380 X30.604 Y20.996
N5385 Y20.899 Z-0.493
N5390 Y20.856 Z-0.485
N5395 Y20.832 Z-0.475
N5400 X30.63 Y20.795 Z-0.434
N5405 X30.604 Y20.832 Z-0.475
N5410 X30.59 Y20.811 Z-0.454
N5415 X30.565 Y20.774 Z-0.414
N5420 Z15.
N5425 G53 G0 Z0.
N5430 G53 G0 X0. Y0.
N5435 M30
%
