%
(TEST_TRACE)
(MACHINE)
(  MODEL LASER SNAKE V2)
(  DESCRIPTION 3-AXIS ROUTER)
(T3  D=3.175 CR=0. TAPER=45DEG - ZMIN=-1. - CHAMFER MILL)
N10 G90 G94 G17 G91.1
N15 G21
(WHEN USING FUSION 360 FOR PERSONAL USE, THE FEEDRATE OF)
(RAPID MOVES IS REDUCED TO MATCH THE FEEDRATE OF CUTTING)
(MOVES, WHICH CAN INCREASE MACHINING TIME. UNRESTRICTED RAPID)
(MOVES ARE AVAILABLE WITH A FUSION 360 SUBSCRIPTION.)
N20 G53 G0 Z0.
(TRACE5)
N25 T3 M6
N30 S18000 M3
N35 G54
N40 G0 X-102.367 Y20.141
N45 G43 Z15. H3
N50 G1 Z5. F500.
N55 Z-1. F100.
N60 X-102.654 Y20.015 F500.
N65 X-103.413 Y21.926
N70 X-106.192 Y21.928
N75 X-106.953 Y20.019
N80 X-107.241 Y20.145
N85 X-104.909 Y26.076
N90 X-104.685
N95 X-102.367 Y20.141
N100 Z5.
N105 X-103.534 Y22.241
N110 Z-1. F100.
N115 X-104.796 Y25.474 F500.
N120 X-106.07 Y22.243
N125 X-103.534 Y22.241
N130 Z5.
N135 X-100.26 Y21.781
N140 Z-1. F100.
N145 X-100.257 Y26.01 F500.
N150 X-99.93
N155 X-99.934 Y21.832
N160 X-99.671 Y21.068
N165 X-99.164 Y20.576
N170 X-98.381 Y20.323
N175 X-97.866
N180 X-97.079 Y20.574
N185 X-96.572 Y21.066
N190 X-96.311 Y21.83
N195 X-96.308 Y26.007
N200 X-95.982
N205 X-95.985 Y21.778
N210 X-96.288 Y20.9
N215 X-96.907 Y20.299
N220 X-97.817 Y20.008
N225 X-98.431
N230 X-99.336 Y20.3
N235 X-99.962 Y20.903
N240 X-100.26 Y21.781
N245 Z5.
N250 X-91.892 Y21.484
N255 Z-1. F100.
N260 X-91.888 Y25.748 F500.
N265 X-93.798 Y25.749
N270 Y26.064
N275 X-89.648 Y26.061
N280 Y25.746
N285 X-91.562 Y25.747
N290 X-91.566 Y20.062
N295 X-91.893 Y20.063
N300 X-91.892 Y21.484
N305 Z5.
N310 X-87.45 Y24.592
N315 Z-1. F100.
N320 X-87.162 Y25.174 F500.
N325 X-86.555 Y25.76
N330 X-85.933 Y26.058
N335 X-84.724 Y26.057
N340 X-84.098 Y25.758
N345 X-83.496 Y25.171
N350 X-83.205 Y24.588
N355 X-82.907 Y23.731
N360 X-82.908 Y22.318
N365 X-83.208 Y21.461
N370 X-83.5 Y20.879
N375 X-84.102 Y20.293
N380 X-84.729 Y19.998
N385 X-85.937 Y19.999
N390 X-86.559 Y20.295
N395 X-87.165 Y20.881
N400 X-87.452 Y21.464
N405 X-87.75 Y22.322
N410 X-87.749 Y23.734
N415 X-87.45 Y24.592
N420 Z5.
N425 X-83.235 Y22.367
N430 Z-1. F100.
N435 X-83.234 Y23.686 F500.
N440 X-83.501 Y24.47
N445 X-83.768 Y24.982
N450 X-84.299 Y25.498
N455 X-84.803 Y25.742
N460 X-85.85 Y25.743
N465 X-86.358 Y25.499
N470 X-86.886 Y24.984
N475 X-87.158 Y24.472
N480 X-87.423 Y23.689
N485 X-87.424 Y22.37
N490 X-87.16 Y21.587
N495 X-86.889 Y21.075
N500 X-86.362 Y20.559
N505 X-85.854 Y20.314
N510 X-84.807 Y20.313
N515 X-84.303 Y20.557
N520 X-83.771 Y21.072
N525 X-83.503 Y21.58
N530 X-83.235 Y22.367
N535 Z5.
N540 X-90.203 Y15.203
N545 Z-1. F100.
N550 X-87.374 Y12.374 F500.
N555 Z5.
N560 X-75. Y2.5
N565 Z-1. F100.
N570 Y-2.5 F500.
N575 Z5.
N580 X-77.5 Y0.
N585 Z-1. F100.
N590 X-72.5 F500.
N595 Z5.
N600 X-59.797 Y15.203
N605 Z-1. F100.
N610 X-62.626 Y12.374 F500.
N615 Z5.
N620 X-61.713 Y20.209
N625 Z-1. F100.
N630 X-63.628 Y25.22 F500.
N635 X-63.675 Y20.228
N640 X-64.002 Y20.231
N645 X-63.945 Y26.172
N650 X-63.646 Y26.169
N655 X-61.574 Y20.743
N660 X-59.402 Y26.128
N665 X-59.103 Y26.125
N670 X-59.16 Y20.185
N675 X-59.486 Y20.188
N680 X-59.439 Y25.18
N685 X-61.445 Y20.207
N690 X-61.713 Y20.209
N695 Z5.
N700 X-57.062 Y20.236
N705 Z-1. F100.
N710 X-54.679 Y26.146 F500.
N715 X-54.454 Y26.144
N720 X-52.188 Y20.189
N725 X-52.477 Y20.066
N730 X-53.218 Y21.983
N735 X-55.998 Y22.009
N740 X-56.776 Y20.107
N745 X-57.062 Y20.236
N750 Z5.
N755 X-50.084 Y20.098
N760 Z-1. F100.
N765 X-50.027 Y26.039 F500.
N770 X-49.736 Y26.036
N775 X-46.129 Y20.678
N780 X-46.078 Y26.001
N785 X-45.752 Y25.998
N790 X-45.808 Y20.057
N795 X-46.096 Y20.06
N800 X-49.706 Y25.418
N805 X-49.757 Y20.095
N810 X-50.084 Y20.098
N815 Z5.
N820 X-53.337 Y22.299
N825 Z-1. F100.
N830 X-54.57 Y25.543 F500.
N835 X-55.873 Y22.323
N840 X-53.337 Y22.299
N845 Z5.
N850 X-28.137 Y21.93
N855 Z-1. F100.
N860 X-28.128 Y20.509 F500.
N865 X-25.085 Y20.527
N870 X-25.083 Y20.212
N875 X-28.453 Y20.192
N880 X-28.488 Y26.192
N885 X-28.162 Y26.194
N890 X-28.137 Y21.93
N895 Z5.
N900 X-22.831 Y21.106
N905 Z-1. F100.
N910 X-23.122 Y21.687 F500.
N915 X-23.426 Y22.542
N920 X-23.435 Y23.955
N925 X-23.14 Y24.814
N930 X-22.856 Y25.398
N935 X-22.253 Y25.988
N940 X-21.633 Y26.291
N945 X-20.424 Y26.298
N950 X-19.797 Y26.002
N955 X-19.191 Y25.42
N960 X-18.896 Y24.839
N965 X-18.592 Y23.983
N970 X-18.584 Y22.57
N975 X-18.878 Y21.711
N980 X-19.166 Y21.127
N985 X-19.765 Y20.537
N990 X-20.389 Y20.239
N995 X-21.598 Y20.232
N1000 X-22.222 Y20.523
N1005 X-22.831 Y21.106
N1010 Z5.
N1015 X-18.911 Y22.617
N1020 Z-1. F100.
N1025 X-18.919 Y23.936 F500.
N1030 X-19.191 Y24.718
N1035 X-19.462 Y25.228
N1040 X-19.996 Y25.741
N1045 X-20.501 Y25.982
N1050 X-21.549 Y25.976
N1055 X-22.055 Y25.729
N1060 X-22.58 Y25.21
N1065 X-22.848 Y24.697
N1070 X-23.108 Y23.912
N1075 X-23.1 Y22.593
N1080 X-22.832 Y21.811
N1085 X-22.557 Y21.301
N1090 X-22.027 Y20.788
N1095 X-21.517 Y20.547
N1100 X-20.47 Y20.553
N1105 X-19.967 Y20.8
N1110 X-19.439 Y21.319
N1115 X-19.174 Y21.829
N1120 X-18.911 Y22.617
N1125 Z5.
N1130 X-15.992 Y23.274
N1135 Z-1. F100.
N1140 X-16.734 Y26.221 F500.
N1145 X-16.412 Y26.297
N1150 X-15.11 Y21.112
N1155 X-13.872 Y26.277
N1160 X-13.581 Y26.278
N1165 X-12.287 Y21.128
N1170 X-11.042 Y26.329
N1175 X-10.722 Y26.256
N1180 X-12.137 Y20.346
N1185 X-12.428 Y20.344
N1190 X-13.722 Y25.494
N1195 X-14.96 Y20.329
N1200 X-15.251 Y20.328
N1205 X-15.992 Y23.274
N1210 Z5.
N1215 X-9.873 Y29.459
N1220 Z-1. F100.
N1225 X-9.906 Y35.4 F500.
N1230 X-9.607 Y35.401
N1235 X-7.453 Y30.007
N1240 X-5.363 Y35.424
N1245 X-5.064 Y35.426
N1250 X-5.031 Y29.485
N1255 X-5.358 Y29.483
N1260 X-5.385 Y34.475
N1265 X-7.317 Y29.473
N1270 X-7.584 Y29.471
N1275 X-9.574 Y34.452
N1280 X-9.547 Y29.46
N1285 X-9.873 Y29.459
N1290 Z5.
N1295 X-2.067 Y29.442
N1300 Z-1. F100.
N1305 X-2.101 Y35.501 F500.
N1310 X1.832 Y35.523
N1315 X1.834 Y35.208
N1320 X-1.772 Y35.188
N1325 X-1.759 Y32.767
N1330 X0.438 Y32.779
N1335 X0.44 Y32.464
N1340 X-1.757 Y32.452
N1345 X-1.742 Y29.759
N1350 X1.864 Y29.779
N1355 X1.866 Y29.464
N1360 X-2.067 Y29.442
N1365 Z5.
N1370 X4.329 Y29.478
N1375 Z-1. F100.
N1380 X4.296 Y35.537 F500.
N1385 X6.457 Y35.549
N1390 X7.364 Y35.258
N1395 X7.989 Y34.672
N1400 X8.28 Y34.091
N1405 X8.584 Y33.235
N1410 X8.592 Y31.823
N1415 X8.297 Y30.963
N1420 X8.013 Y30.379
N1425 X7.394 Y29.786
N1430 X6.49 Y29.49
N1435 X4.329 Y29.478
N1440 Z5.
N1445 X8.265 Y31.87
N1450 Z-1. F100.
N1455 X8.257 Y33.188 F500.
N1460 X7.99 Y33.97
N1465 X7.715 Y34.481
N1470 X7.197 Y34.986
N1475 X6.413 Y35.233
N1480 X4.624 Y35.224
N1485 X4.654 Y29.795
N1490 X6.443 Y29.804
N1495 X7.225 Y30.061
N1500 X7.737 Y30.571
N1505 X8.006 Y31.085
N1510 X8.265 Y31.87
N1515 Z5.
N1520 X9.837 Y26.174
N1525 Z-1. F100.
N1530 X10.163 Y26.176 F500.
N1535 X10.179 Y23.499
N1540 X14.084 Y23.522
N1545 X14.069 Y26.199
N1550 X14.396 Y26.201
N1555 X14.43 Y20.26
N1560 X14.103 Y20.258
N1565 X14.086 Y23.207
N1570 X10.181 Y23.184
N1575 X10.198 Y20.236
N1580 X9.871 Y20.234
N1585 X9.837 Y26.174
N1590 Z5.
N1595 X17.393 Y20.277
N1600 Z-1. F100.
N1605 X17.359 Y26.218 F500.
N1610 X17.686 Y26.22
N1615 X17.72 Y20.279
N1620 X17.393 Y20.277
N1625 Z5.
N1630 X20.691 Y21.701
N1635 Z-1. F100.
N1640 X20.387 Y22.557 F500.
N1645 X20.379 Y23.969
N1650 X20.673 Y24.829
N1655 X20.957 Y25.413
N1660 X21.56 Y26.002
N1665 X22.18 Y26.305
N1670 X23.389 Y26.312
N1675 X24.017 Y26.02
N1680 X24.622 Y25.437
N1685 X24.957 Y24.786
N1690 X24.67 Y24.631
N1695 X24.348 Y25.243
N1700 X23.817 Y25.756
N1705 X23.312 Y25.997
N1710 X22.265 Y25.991
N1715 X21.758 Y25.744
N1720 X21.234 Y25.225
N1725 X20.965 Y24.711
N1730 X20.706 Y23.926
N1735 X20.713 Y22.608
N1740 X20.982 Y21.826
N1745 X21.256 Y21.315
N1750 X21.787 Y20.803
N1755 X22.296 Y20.562
N1760 X23.344 Y20.568
N1765 X23.846 Y20.815
N1770 X24.371 Y21.333
N1775 X24.624 Y21.823
N1780 X24.62 Y22.445
N1785 X23.274 Y22.437
N1790 X23.272 Y22.752
N1795 X24.945 Y22.762
N1800 X24.951 Y21.748
N1805 X24.647 Y21.141
N1810 X24.048 Y20.552
N1815 X23.424 Y20.253
N1820 X22.215 Y20.246
N1825 X21.592 Y20.538
N1830 X20.982 Y21.12
N1835 X20.691 Y21.701
N1840 Z5.
N1845 X27.634 Y21.822
N1850 Z-1. F100.
N1855 X27.608 Y26.278 F500.
N1860 X27.935 Y26.279
N1865 X27.951 Y23.602
N1870 X31.856 Y23.625
N1875 X31.841 Y26.302
N1880 X32.167 Y26.304
N1885 X32.202 Y20.363
N1890 X31.875 Y20.361
N1895 X31.858 Y23.31
N1900 X27.953 Y23.287
N1905 X27.97 Y20.339
N1910 X27.643 Y20.337
N1915 X27.634 Y21.822
N1920 Z5.
N1925 X15.203 Y15.203
N1930 Z-1. F100.
N1935 X12.374 Y12.374 F500.
N1940 Z5.
N1945 X0. Y4.188
N1950 Z-1. F100.
N1955 Y-2.5 F500.
N1960 Z5.
N1965 X-2.5 Y0.
N1970 Z-1. F100.
N1975 X2.5 F500.
N1980 Z5.
N1985 X0. Y21.5
N1990 Z-1. F100.
N1995 Y17.5 F500.
N2000 Z5.
N2005 X-15.203 Y15.203
N2010 Z-1. F100.
N2015 X-12.374 Y12.374 F500.
N2020 Z5.
N2025 X-14.658 Y56.66
N2030 Z-1. F100.
N2035 X-16.331 F500.
N2040 X-17.202 Y57.064
N2045 X-18.042 Y57.851
N2050 X-18.44 Y58.633
N2055 X-18.85 Y59.771
N2060 Y61.639
N2065 X-18.44 Y62.777
N2070 X-18.042 Y63.559
N2075 X-17.202 Y64.34
N2080 X-16.331 Y64.75
N2085 X-14.658
N2090 X-13.782 Y64.34
N2095 X-12.948 Y63.559
N2100 X-12.544 Y62.777
N2105 X-12.135 Y61.639
N2110 Y59.771
N2115 X-12.544 Y58.633
N2120 X-12.948 Y57.851
N2125 X-13.782 Y57.064
N2130 X-14.658 Y56.66
N2135 Z5.
N2140 X-12.833 Y59.871
N2145 Z-1. F100.
N2150 Y61.539 F500.
N2155 X-13.179 Y62.52
N2160 X-13.525 Y63.155
N2165 X-14.196 Y63.79
N2170 X-14.826 Y64.089
N2175 X-16.158
N2180 X-16.793 Y63.79
N2185 X-17.459 Y63.155
N2190 X-17.811 Y62.52
N2195 X-18.152 Y61.539
N2200 Y59.871
N2205 X-17.811 Y58.89
N2210 X-17.459 Y58.255
N2215 X-16.793 Y57.62
N2220 X-16.158 Y57.321
N2225 X-14.826
N2230 X-14.196 Y57.62
N2235 X-13.525 Y58.255
N2240 X-13.179 Y58.89
N2245 X-12.833 Y59.871
N2250 Z5.
N2255 X-8.827 Y59.912
N2260 Z-1. F100.
N2265 Y64.671 F500.
N2270 X-8.24
N2275 X-3.566 Y58.072
N2280 Y64.671
N2285 X-2.868
N2290 Y56.739
N2295 X-3.455
N2300 X-8.13 Y63.339
N2305 Y56.739
N2310 X-8.827
N2315 Y59.912
N2320 Z5.
N2325 X2.318 Y56.739
N2330 Z-1. F100.
N2335 Y64.089 F500.
N2340 X-0.227
N2345 Y64.75
N2350 X5.565
N2355 Y64.089
N2360 X3.015
N2365 Y56.739
N2370 X2.318
N2375 Z5.
N2380 X8.206 Y64.75
N2385 Z-1. F100.
N2390 X11.994 F500.
N2395 X13.248 Y64.356
N2400 X13.735 Y63.916
N2405 X14.171 Y63.082
N2410 Y62.216
N2415 X13.735 Y61.387
N2420 X13.248 Y60.941
N2425 X11.994 Y60.548
N2430 X11.836
N2435 X14.271 Y56.949
N2440 X13.662 Y56.613
N2445 X11.007 Y60.548
N2450 X8.904
N2455 Y56.739
N2460 X8.206
N2465 Y64.75
N2470 Z5.
N2475 X13.473 Y62.375
N2480 Z-1. F100.
N2485 Y62.922 F500.
N2490 X13.158 Y63.511
N2495 X12.886 Y63.779
N2500 X11.889 Y64.089
N2505 X8.904
N2510 Y61.209
N2515 X11.889
N2520 X12.886 Y61.524
N2525 X13.158 Y61.782
N2530 X13.473 Y62.375
N2535 Z5.
N2540 X17.095 Y61.639
N2545 Z-1. F100.
N2550 X17.505 Y62.777 F500.
N2555 X17.903 Y63.559
N2560 X18.743 Y64.34
N2565 X19.613 Y64.75
N2570 X21.287
N2575 X22.163 Y64.34
N2580 X22.997 Y63.559
N2585 X23.401 Y62.777
N2590 X23.81 Y61.639
N2595 Y59.771
N2600 X23.401 Y58.633
N2605 X22.997 Y57.851
N2610 X22.163 Y57.064
N2615 X21.287 Y56.66
N2620 X19.613
N2625 X18.743 Y57.064
N2630 X17.903 Y57.851
N2635 X17.505 Y58.633
N2640 X17.095 Y59.771
N2645 Y61.639
N2650 Z5.
N2655 X23.112 Y59.871
N2660 Z-1. F100.
N2665 Y61.539 F500.
N2670 X22.766 Y62.52
N2675 X22.42 Y63.155
N2680 X21.749 Y63.79
N2685 X21.119 Y64.089
N2690 X19.787
N2695 X19.152 Y63.79
N2700 X18.486 Y63.155
N2705 X18.134 Y62.52
N2710 X17.793 Y61.539
N2715 Y59.871
N2720 X18.134 Y58.89
N2725 X18.486 Y58.255
N2730 X19.152 Y57.62
N2735 X19.787 Y57.321
N2740 X21.119
N2745 X21.749 Y57.62
N2750 X22.42 Y58.255
N2755 X22.766 Y58.89
N2760 X23.112 Y59.871
N2765 Z5.
N2770 X27.118 Y59.331
N2775 Z-1. F100.
N2780 Y64.671 F500.
N2785 X27.815
N2790 Y57.321
N2795 X31.871
N2800 Y56.66
N2805 X27.118
N2810 Y59.331
N2815 Z5.
N2820 X-23.212 Y58.827
N2825 Z-1. F100.
N2830 X-23.72 Y57.851 F500.
N2835 X-24.554 Y57.064
N2840 X-25.431 Y56.66
N2845 X-27.104
N2850 X-27.975 Y57.064
N2855 X-28.814 Y57.851
N2860 X-29.213 Y58.633
N2865 X-29.622 Y59.771
N2870 Y61.639
N2875 X-29.213 Y62.777
N2880 X-28.814 Y63.559
N2885 X-27.975 Y64.34
N2890 X-27.104 Y64.75
N2895 X-25.431
N2900 X-24.554 Y64.34
N2905 X-23.72 Y63.559
N2910 X-23.212 Y62.583
N2915 X-23.82 Y62.268
N2920 X-24.297 Y63.155
N2925 X-24.969 Y63.79
N2930 X-25.598 Y64.089
N2935 X-26.931
N2940 X-27.566 Y63.79
N2945 X-28.232 Y63.155
N2950 X-28.583 Y62.52
N2955 X-28.924 Y61.539
N2960 Y59.871
N2965 X-28.583 Y58.89
N2970 X-28.232 Y58.255
N2975 X-27.566 Y57.62
N2980 X-26.931 Y57.321
N2985 X-25.598
N2990 X-24.969 Y57.62
N2995 X-24.297 Y58.255
N3000 X-23.82 Y59.142
N3005 X-23.212 Y58.827
N3010 Z5.
N3015 X-42.196 Y58.326
N3020 Z-1. F100.
N3025 Y56.739 F500.
N3030 X-42.783
N3035 X-47.458 Y63.339
N3040 Y56.739
N3045 X-48.156
N3050 Y64.671
N3055 X-47.568
N3060 X-42.894 Y58.072
N3065 Y64.671
N3070 X-42.196
N3075 Y58.326
N3080 Z5.
N3085 X-51.463 Y59.771
N3090 Z-1. F100.
N3095 X-51.873 Y58.633 F500.
N3100 X-52.276 Y57.851
N3105 X-53.111 Y57.064
N3110 X-53.987 Y56.66
N3115 X-55.66
N3120 X-56.531 Y57.064
N3125 X-57.37 Y57.851
N3130 X-57.769 Y58.633
N3135 X-58.178 Y59.771
N3140 Y61.639
N3145 X-57.769 Y62.777
N3150 X-57.37 Y63.559
N3155 X-56.531 Y64.34
N3160 X-55.66 Y64.75
N3165 X-53.987
N3170 X-53.111 Y64.34
N3175 X-52.276 Y63.559
N3180 X-51.873 Y62.777
N3185 X-51.463 Y61.639
N3190 Y59.771
N3195 Z5.
N3200 X-52.161 Y59.871
N3205 Z-1. F100.
N3210 Y61.539 F500.
N3215 X-52.507 Y62.52
N3220 X-52.853 Y63.155
N3225 X-53.525 Y63.79
N3230 X-54.154 Y64.089
N3235 X-55.487
N3240 X-56.122 Y63.79
N3245 X-56.788 Y63.155
N3250 X-57.139 Y62.52
N3255 X-57.48 Y61.539
N3260 Y59.871
N3265 X-57.139 Y58.89
N3270 X-56.788 Y58.255
N3275 X-56.122 Y57.62
N3280 X-55.487 Y57.321
N3285 X-54.154
N3290 X-53.525 Y57.62
N3295 X-52.853 Y58.255
N3300 X-52.507 Y58.89
N3305 X-52.161 Y59.871
N3310 Z5.
N3315 X-61.48 Y59.912
N3320 Z-1. F100.
N3325 Y56.739 F500.
N3330 X-62.178
N3335 Y64.671
N3340 X-61.48
N3345 Y59.912
N3350 Z5.
N3355 X-67.369 Y56.739
N3360 Z-1. F100.
N3365 X-68.067 F500.
N3370 Y64.089
N3375 X-70.611
N3380 Y64.75
N3385 X-64.819
N3390 Y64.089
N3395 X-67.369
N3400 Y56.739
N3405 Z5.
N3410 X-73.653 Y60.82
N3415 Z-1. F100.
N3420 X-72.067 Y56.891 F500.
N3425 X-72.691 Y56.624
N3430 X-73.719 Y59.137
N3435 X-77.244
N3440 X-78.272 Y56.624
N3445 X-78.897 Y56.891
N3450 X-75.718 Y64.75
N3455 X-75.24
N3460 X-73.653 Y60.82
N3465 Z5.
N3470 X-73.981 Y59.798
N3475 Z-1. F100.
N3480 X-75.476 Y63.501 F500.
N3485 X-76.977 Y59.798
N3490 X-73.981
N3495 Z5.
N3500 X-80.347 Y64.089
N3505 Z-1. F100.
N3510 X-82.897 F500.
N3515 Y56.739
N3520 X-83.594
N3525 Y64.089
N3530 X-86.139
N3535 Y64.75
N3540 X-80.347
N3545 Y64.089
N3550 Z5.
N3555 X-88.775 Y64.671
N3560 Z-1. F100.
N3565 Y56.739 F500.
N3570 X-89.473
N3575 Y64.671
N3580 X-88.775
N3585 Z5.
N3590 X-92.78 Y58.68
N3595 Z-1. F100.
N3600 X-93.215 Y57.851 F500.
N3605 X-94.049 Y57.064
N3610 X-94.926 Y56.66
N3615 X-96.599
N3620 X-97.47 Y57.064
N3625 X-98.309 Y57.851
N3630 X-98.708 Y58.633
N3635 X-99.117 Y59.771
N3640 Y61.639
N3645 X-98.708 Y62.777
N3650 X-98.309 Y63.559
N3655 X-97.47 Y64.34
N3660 X-96.599 Y64.75
N3665 X-94.926
N3670 X-94.049 Y64.34
N3675 X-93.215 Y63.559
N3680 X-92.707 Y62.583
N3685 X-93.315 Y62.268
N3690 X-93.793 Y63.155
N3695 X-94.464 Y63.79
N3700 X-95.093 Y64.089
N3705 X-96.426
N3710 X-97.061 Y63.79
N3715 X-97.727 Y63.155
N3720 X-98.078 Y62.52
N3725 X-98.419 Y61.539
N3730 Y59.871
N3735 X-98.078 Y58.89
N3740 X-97.727 Y58.255
N3745 X-97.061 Y57.62
N3750 X-96.426 Y57.321
N3755 X-95.093
N3760 X-94.464 Y57.62
N3765 X-93.793 Y58.255
N3770 X-93.478 Y58.838
N3775 Y59.488
N3780 X-95.272
N3785 Y60.149
N3790 X-92.78
N3795 Y58.68
N3800 Z5.
N3805 X-101.239 Y56.891
N3810 Z-1. F100.
N3815 X-101.863 Y56.624 F500.
N3820 X-102.891 Y59.137
N3825 X-106.417
N3830 X-107.445 Y56.624
N3835 X-108.069 Y56.891
N3840 X-104.89 Y64.75
N3845 X-104.413
N3850 X-101.239 Y56.891
N3855 Z5.
N3860 X-103.154 Y59.798
N3865 Z-1. F100.
N3870 X-104.649 Y63.501 F500.
N3875 X-106.149 Y59.798
N3880 X-103.154
N3885 Z5.
N3890 Z15.
N3895 G53 G0 Z0.
N3900 G53 G0 X0. Y0.
N3905 M30
%
