%
(TEST_PATH_ENGRAVE)
(MACHINE)
(  MODEL LASER SNAKE V2)
(  DESCRIPTION 3-AXIS ROUTER)
(T1  D=3. CR=0. TAPER=7.5DEG - ZMIN=-5.455 - CHAMFER MILL)
N10 G90 G94 G17 G91.1
N15 G21
(WHEN USING FUSION 360 FOR PERSONAL USE, THE FEEDRATE OF)
(RAPID MOVES IS REDUCED TO MATCH THE FEEDRATE OF CUTTING)
(MOVES, WHICH CAN INCREASE MACHINING TIME. UNRESTRICTED RAPID)
(MOVES ARE AVAILABLE WITH A FUSION 360 SUBSCRIPTION.)
N20 G53 G0 Z0.
(ENGRAVE1)
N25 T1 M6
N30 S20000 M3
N35 G54
N40 G0 X-20.372 Y25.564
N45 G43 Z15. H1
N50 G1 Z5. F500.
N55 Z-3.141 F100.
N60 X-20.325 Y25.541 Z-3.161 F500.
N65 X-20.278 Y25.515 Z-3.202
N70 X-20.179 Y25.457 Z-3.313
N75 X-20.079 Y25.383 Z-3.342
N80 X-20.048 Y25.359 Z-3.356
N85 X-19.918 Y25.255 Z-3.44
N90 X-19.832 Y25.175 Z-3.505
N95 X-19.776 Y25.114 Z-3.548
N100 X-19.752 Y25.085 Z-3.579
N105 X-19.674 Y24.984 Z-3.629
N110 X-19.634 Y24.927 Z-3.634
N115 X-19.596 Y24.87 Z-3.654
N120 X-19.48 Y24.668 Z-3.706
N125 X-19.449 Y24.611 Z-3.733
N130 X-19.438 Y24.583 Z-3.735
N135 X-19.329 Y24.286 Z-3.783
N140 X-19.323 Y24.266 Z-3.786
N145 X-19.281 Y24.123 Z-3.822
N150 X-19.237 Y23.941 Z-3.82
N155 X-19.232 Y23.914 Z-3.822
N160 X-19.216 Y23.805 Z-3.841
N165 X-19.196 Y23.63 Z-3.83
N170 X-19.193 Y23.586 Z-3.825
N175 X-19.177 Y23.297 Z-3.833
N180 X-19.176 Y23.245 Z-3.838
N185 X-19.185 Y22.988 Z-3.842
N190 X-19.188 Y22.941 Z-3.832
N195 X-19.192 Y22.896 Z-3.829
N200 X-19.21 Y22.722 Z-3.844
N205 X-19.229 Y22.597 Z-3.806
N210 X-19.237 Y22.55 Z-3.799
N215 X-19.24 Y22.535 Z-3.8
N220 X-19.256 Y22.46 Z-3.808
N225 X-19.278 Y22.368 Z-3.796
N230 X-19.283 Y22.35 Z-3.797
N235 X-19.323 Y22.204 Z-3.814
N240 X-19.334 Y22.173 Z-3.806
N245 X-19.399 Y21.997 Z-3.783
N250 X-19.444 Y21.89 Z-3.735
N255 X-19.47 Y21.831 Z-3.722
N260 X-19.487 Y21.797 Z-3.726
N265 X-19.6 Y21.61 Z-3.665
N270 X-19.609 Y21.596 Z-3.655
N275 X-19.644 Y21.546 Z-3.632
N280 X-19.727 Y21.433 Z-3.606
N285 X-19.789 Y21.361 Z-3.537
N290 X-19.843 Y21.301 Z-3.499
N295 X-19.87 Y21.274 Z-3.492
N300 X-19.928 Y21.22 Z-3.452
N305 X-19.964 Y21.188 Z-3.435
N310 X-20.029 Y21.132 Z-3.419
N315 X-20.056 Y21.113 Z-3.395
N320 X-20.088 Y21.09 Z-3.372
N325 X-20.206 Y21.01 Z-3.307
N330 X-20.288 Y20.959 Z-3.233
N335 X-20.333 Y20.933 Z-3.202
N340 X-20.379 Y20.909 Z-3.191
N345 X-20.398 Y20.899
N350 X-20.585 Y20.823 Z-3.08
N355 X-20.641 Y20.802 Z-3.06
N360 X-20.842 Y20.741 Z-2.965
N365 X-20.896 Y20.726 Z-2.952
N370 X-20.924 Y20.721 Z-2.941
N375 X-21.162 Y20.685 Z-2.882
N380 X-21.189 Y20.683 Z-2.875
N385 X-21.427 Y20.667 Z-2.845
N390 X-21.44 Y20.666 Z-2.846
N395 X-21.475 Y20.667 Z-2.842
N400 X-21.644 Y20.675 Z-2.848
N405 X-21.681 Y20.677 Z-2.855
N410 X-21.719 Y20.68 Z-2.867
N415 X-21.848 Y20.696 Z-2.876
N420 X-21.91 Y20.705 Z-2.895
N425 X-21.986 Y20.719 Z-2.938
N430 X-22.074 Y20.741 Z-2.948
N435 X-22.112 Y20.752 Z-2.958
N440 X-22.243 Y20.79 Z-3.013
N445 X-22.275 Y20.801 Z-3.017
N450 X-22.344 Y20.827 Z-3.046
N455 X-22.489 Y20.888 Z-3.153
N460 X-22.499 Y20.893 Z-3.155
N465 X-22.538 Y20.913 Z-3.169
N470 X-22.686 Y20.995 Z-3.252
N475 X-22.746 Y21.035 Z-3.283
N480 X-22.865 Y21.12 Z-3.386
N485 X-22.881 Y21.133 Z-3.389
N490 X-22.915 Y21.162 Z-3.403
N495 X-23.027 Y21.262 Z-3.474
N500 X-23.04 Y21.275 Z-3.477
N505 X-23.095 Y21.333 Z-3.509
N510 X-23.172 Y21.419 Z-3.588
N515 X-23.219 Y21.481 Z-3.596
N520 X-23.246 Y21.518 Z-3.608
N525 X-23.3 Y21.595 Z-3.647
N530 X-23.352 Y21.676 Z-3.658
N535 X-23.391 Y21.741 Z-3.684
N540 X-23.414 Y21.782 Z-3.712
N545 X-23.476 Y21.913 Z-3.727
N550 X-23.493 Y21.952 Z-3.737
N555 X-23.506 Y21.982 Z-3.749
N560 X-23.564 Y22.132 Z-3.763
N565 X-23.586 Y22.196 Z-3.783
N570 X-23.644 Y22.415 Z-3.798
N575 X-23.652 Y22.45 Z-3.804
N580 X-23.697 Y22.674 Z-3.817
N585 X-23.704 Y22.709 Z-3.823
N590 X-23.706 Y22.73 Z-3.822
N595 X-23.732 Y22.992 Z-3.831
N600 X-23.742 Y23.266 Z-3.836
N605 X-23.733 Y23.528 Z-3.832
N610 X-23.711 Y23.761 Z-3.822
N615 X-23.709 Y23.784 Z-3.824
N620 X-23.704 Y23.811 Z-3.82
N625 X-23.653 Y24.069 Z-3.798
N630 X-23.593 Y24.3 Z-3.777
N635 X-23.576 Y24.348 Z-3.761
N640 X-23.514 Y24.511 Z-3.736
N645 X-23.509 Y24.524 Z-3.73
N650 X-23.492 Y24.562 Z-3.718
N655 X-23.423 Y24.71 Z-3.691
N660 X-23.412 Y24.73 Z-3.676
N665 X-23.375 Y24.793 Z-3.645
N670 X-23.309 Y24.897 Z-3.622
N675 X-23.274 Y24.949 Z-3.591
N680 X-23.247 Y24.985 Z-3.576
N685 X-23.181 Y25.073 Z-3.554
N690 X-23.13 Y25.132 Z-3.495
N695 X-23.073 Y25.193 Z-3.456
N700 X-23.038 Y25.228 Z-3.446
N705 X-22.952 Y25.306 Z-3.387
N710 X-22.918 Y25.336 Z-3.371
N715 X-22.88 Y25.367 Z-3.362
N720 X-22.786 Y25.435 Z-3.279
N725 X-22.724 Y25.477 Z-3.244
N730 X-22.704 Y25.489 Z-3.24
N735 X-22.581 Y25.558 Z-3.17
N740 X-22.543 Y25.579 Z-3.155
N745 X-22.512 Y25.594 Z-3.149
N750 X-22.391 Y25.646 Z-3.058
N755 X-22.325 Y25.671 Z-3.028
N760 X-22.274 Y25.688 Z-3.019
N765 X-22.162 Y25.723 Z-2.968
N770 X-22.124 Y25.733 Z-2.956
N775 X-22.024 Y25.759 Z-2.943
N780 X-21.959 Y25.772 Z-2.904
N785 X-21.896 Y25.782 Z-2.883
N790 X-21.765 Y25.799 Z-2.872
N795 X-21.728 Y25.803 Z-2.859
N800 X-21.692 Y25.806 Z-2.852
N805 X-21.497 Y25.816 Z-2.845
N810 X-21.46 Y25.815 Z-2.842
N815 X-21.224 Y25.801 Z-2.856
N820 X-21.175 Y25.797 Z-2.869
N825 X-21.124 Y25.791 Z-2.892
N830 X-20.945 Y25.766 Z-2.933
N835 X-20.942 Y25.765
N840 X-20.861 Y25.747 Z-2.96
N845 X-20.793 Y25.729 Z-3.006
N850 X-20.638 Y25.68 Z-3.056
N855 X-20.587 Y25.66 Z-3.068
N860 X-20.484 Y25.616 Z-3.117
N865 X-20.372 Y25.564 Z-3.141
N870 Z5.
N875 X-28.083 Y25.672
N880 Z-3.626 F100.
N885 Y25.651 Z-3.689 F500.
N890 Y25.61 Z-3.743
N895 X-28.082 Y25.514 Z-3.78
N900 X-28.057 Y21.235
N905 X-28.054 Y21.157 Z-3.799
N910 X-28.046 Y21.078 Z-3.858
N915 X-28.033 Y20.999 Z-3.957
N920 X-28.007 Y20.902 Z-4.118
N925 X-28.006 Y20.9 Z-4.12
N930 X-28.005 Z-4.118
N935 X-27.956 Y20.873 Z-3.926
N940 X-27.907 Y20.848 Z-3.753
N945 X-27.832 Y20.817 Z-3.514
N950 X-27.757 Y20.792 Z-3.318
N955 X-27.682 Y20.772 Z-3.165
N960 X-27.607 Y20.758 Z-3.057
N965 X-27.532 Y20.75 Z-2.991
N970 X-27.457 Y20.748 Z-2.97
N975 X-25.047 Y20.762 Z-2.969
N980 X-24.969 Z-2.933
N985 X-24.942 Z-2.896
N990 X-24.934 Y20.761 Z-2.88
N995 X-24.905 Y20.76 Z-2.788
N1000 Z5.
N1005 X-17.417 Y25.767
N1010 Z-3.372 F100.
N1015 X-17.383 Y25.635 Z-3.512 F500.
N1020 X-17.377 Y25.6 Z-3.531
N1025 X-17.322 Y25.376 Z-3.551
N1030 X-16.491 Y21.943 Z-3.261
N1035 X-16.488 Y21.932 Z-3.26
N1040 X-16.463 Y21.846 Z-3.289
N1045 X-16.43 Y21.762 Z-3.376
N1050 X-16.389 Y21.679 Z-3.52
N1055 X-16.341 Y21.599 Z-3.722
N1060 X-16.286 Y21.521 Z-3.981
N1065 X-16.224 Y21.444 Z-4.299
N1070 X-16.162 Y21.378 Z-4.621
N1075 X-16.095 Y21.315 Z-4.989
N1080 X-16.022 Y21.252 Z-5.401
N1085 X-16.023 Y21.198 Z-5.292
N1090 X-16.025 Y21.116 Z-5.114
N1095 X-16.024 Y20.988 Z-4.81
N1100 X-16.023 Y20.968 Z-4.752
N1105 Y20.936 Z-4.641
N1110 Y20.968 Z-4.752
N1115 X-16.024 Y20.988 Z-4.81
N1120 X-16.025 Y21.116 Z-5.114
N1125 X-16.023 Y21.198 Z-5.292
N1130 X-16.022 Y21.252 Z-5.401
N1135 X-15.945 Y21.31 Z-4.956
N1140 X-15.873 Y21.369 Z-4.556
N1145 X-15.808 Y21.431 Z-4.201
N1150 X-15.745 Y21.498 Z-3.871
N1155 X-15.688 Y21.566 Z-3.591
N1160 X-15.638 Y21.637 Z-3.361
N1165 X-15.595 Y21.709 Z-3.183
N1170 X-15.558 Y21.783 Z-3.056
N1175 X-15.527 Y21.858 Z-2.98
N1180 X-15.503 Y21.936 Z-2.954
N1185 X-14.712 Y24.928 Z-3.005
N1190 X-14.688 Y25.005 Z-3.031
N1195 X-14.657 Y25.081 Z-3.107
N1200 X-14.621 Y25.155 Z-3.234
N1205 X-14.585 Y25.216 Z-3.378
N1210 X-14.544 Y25.276 Z-3.559
N1215 X-14.498 Y25.335 Z-3.776
N1220 X-14.448 Y25.393 Z-4.03
N1225 X-14.387 Y25.452 Z-4.326
N1230 X-14.321 Y25.509 Z-4.664
N1235 X-14.25 Y25.564 Z-5.044
N1240 X-14.248 Y25.566 Z-5.056
N1245 X-14.245
N1250 X-14.171 Y25.511 Z-4.656
N1255 X-14.106 Y25.457 Z-4.319
N1260 X-14.046 Y25.401 Z-4.02
N1265 X-13.992 Y25.343 Z-3.749
N1270 X-13.943 Y25.283 Z-3.517
N1275 X-13.899 Y25.222 Z-3.325
N1280 X-13.86 Y25.16 Z-3.171
N1285 X-13.822 Y25.085 Z-3.039
N1290 X-13.79 Y25.009 Z-2.96
N1295 X-13.764 Y24.93 Z-2.933
N1300 X-12.941 Y21.952 Z-2.947
N1305 X-12.916 Y21.875 Z-2.973
N1310 X-12.884 Y21.799 Z-3.05
N1315 X-12.846 Y21.725 Z-3.179
N1320 X-12.802 Y21.653 Z-3.359
N1325 X-12.751 Y21.583 Z-3.59
N1330 X-12.694 Y21.515 Z-3.872
N1335 X-12.63 Y21.448 Z-4.206
N1340 X-12.564 Y21.388 Z-4.559
N1345 X-12.492 Y21.33 Z-4.958
N1350 X-12.414 Y21.273 Z-5.401
N1355 X-12.413 Y21.214 Z-5.282
N1360 X-12.41 Y20.981 Z-4.74
N1365 X-12.409 Y20.959 Z-4.663
N1370 X-12.41 Y20.981 Z-4.74
N1375 X-12.413 Y21.214 Z-5.282
N1380 X-12.414 Y21.273 Z-5.401
N1385 X-12.342 Y21.336 Z-4.99
N1390 X-12.276 Y21.401 Z-4.623
N1395 X-12.215 Y21.467 Z-4.301
N1400 X-12.153 Y21.544 Z-3.983
N1405 X-12.099 Y21.623 Z-3.723
N1410 X-12.052 Y21.704 Z-3.521
N1415 X-12.013 Y21.787 Z-3.376
N1420 X-11.981 Y21.872 Z-3.289
N1425 X-11.956 Y21.958 Z-3.261
N1430 X-11.163 Y25.41 Z-3.552
N1435 X-11.12 Y25.609 Z-3.55
N1440 X-11.113 Y25.637 Z-3.544
N1445 X-11.089 Y25.762 Z-3.467
N1450 X-11.079 Y25.798 Z-3.42
N1455 Z5.
N1460 X-15.203 Y15.203
N1465 Z-4.937 F100.
N1470 Z5. F500.
N1475 Z-4.937 F100.
N1480 X-12.374 Y12.374 F500.
N1485 Z5.
N1490 Z-4.937 F100.
N1495 Z5. F500.
N1500 Z-4.937 F100.
N1505 Z5. F500.
N1510 X0. Y17.5
N1515 Z-4.937 F100.
N1520 Y21.5 F500.
N1525 Z5.
N1530 X1.31 Y32.7
N1535 Z-2.561 F100.
N1540 X1.297 Y32.699 Z-2.6 F500.
N1545 X1.268 Z-2.637
N1550 X1.196 Z-2.664
N1555 X-1.285 Y32.685 Z-2.665
N1560 X-1.31 Z-2.676
N1565 X-1.323 Z-2.686
N1570 X-1.349 Z-2.714
N1575 X-1.376 Z-2.754
N1580 X-1.403 Y32.684 Z-2.805
N1585 X-1.43 Z-2.87
N1590 X-1.459 Z-2.947
N1595 X-1.489 Z-3.04
N1600 X-1.52 Z-3.147
N1605 X-1.552 Z-3.27
N1610 X-1.621 Y32.683 Z-3.571
N1615 X-1.698 Z-3.952
N1620 X-1.784 Y32.682 Z-4.425
N1625 X-1.816 Y32.772 Z-4.193
N1630 X-1.84 Y32.862 Z-4.012
N1635 X-1.857 Y32.952 Z-3.883
N1640 X-1.868 Y33.042 Z-3.805
N1645 X-1.872 Y33.133 Z-3.78
N1650 X-1.88 Y34.581
N1655 X-1.877 Y34.665 Z-3.802
N1660 X-1.869 Y34.748 Z-3.868
N1665 X-1.857 Y34.808 Z-3.927
N1670 X-1.843 Y34.867 Z-4.008
N1675 X-1.785 Y34.904 Z-3.763
N1680 X-1.727 Y34.936 Z-3.547
N1685 X-1.653 Y34.969 Z-3.301
N1690 X-1.58 Y34.996 Z-3.099
N1695 X-1.506 Y35.017 Z-2.942
N1700 X-1.432 Y35.033 Z-2.83
N1705 X-1.359 Y35.042 Z-2.762
N1710 X-1.285 Y35.045 Z-2.74
N1715 X1.396 Y35.06
N1720 X1.473 Z-2.713
N1725 X1.505 Y35.061 Z-2.671
N1730 X1.524 Z-2.618
N1735 X1.505 Z-2.671
N1740 X1.473 Y35.06 Z-2.713
N1745 X1.396 Z-2.74
N1750 X-1.285 Y35.045
N1755 X-1.359 Y35.042 Z-2.762
N1760 X-1.432 Y35.033 Z-2.83
N1765 X-1.506 Y35.017 Z-2.942
N1770 X-1.58 Y34.996 Z-3.099
N1775 X-1.653 Y34.969 Z-3.301
N1780 X-1.727 Y34.936 Z-3.547
N1785 X-1.785 Y34.904 Z-3.763
N1790 X-1.843 Y34.867 Z-4.008
N1795 X-1.857 Y34.808 Z-3.927
N1800 X-1.869 Y34.748 Z-3.868
N1805 X-1.877 Y34.665 Z-3.802
N1810 X-1.88 Y34.581 Z-3.78
N1815 X-1.872 Y33.133
N1820 X-1.868 Y33.042 Z-3.805
N1825 X-1.857 Y32.952 Z-3.883
N1830 X-1.84 Y32.862 Z-4.012
N1835 X-1.816 Y32.772 Z-4.193
N1840 X-1.784 Y32.682 Z-4.425
N1845 X-1.815 Y32.592 Z-4.193
N1850 X-1.838 Y32.502 Z-4.012
N1855 X-1.854 Y32.411 Z-3.883
N1860 X-1.864 Y32.321 Z-3.805
N1865 X-1.867 Y32.231 Z-3.78
N1870 X-1.858 Y30.553
N1875 X-1.855 Y30.485 Z-3.794
N1880 X-1.849 Y30.417 Z-3.838
N1885 X-1.839 Y30.349 Z-3.912
N1890 X-1.828 Y30.3 Z-3.975
N1895 X-1.816 Y30.251 Z-4.054
N1900 X-1.813 Y30.244 Z-4.064
N1905 X-1.807 Y30.24 Z-4.04
N1910 X-1.758 Y30.211 Z-3.839
N1915 X-1.708 Y30.186 Z-3.658
N1920 X-1.633 Y30.154 Z-3.411
N1925 X-1.558 Y30.127 Z-3.208
N1930 X-1.483 Y30.107 Z-3.05
N1935 X-1.408 Y30.093 Z-2.938
N1940 X-1.333 Y30.084 Z-2.87
N1945 X-1.258 Y30.082 Z-2.848
N1950 X1.514 Y30.097 Z-2.847
N1955 X1.588 Z-2.817
N1960 X1.618 Z-2.778
N1965 X1.632 Z-2.736
N1970 Z5.
N1975 X3.65 Y30.515
N1980 Z-3.8 F100.
N1985 X3.647 Y30.583 Z-3.78 F500.
N1990 X3.625 Y34.587
N1995 X3.627 Y34.654 Z-3.794
N2000 X3.632 Y34.72 Z-3.836
N2005 X3.641 Y34.787 Z-3.906
N2010 X3.666 Y34.893 Z-4.056
N2015 X3.674 Y34.899 Z-4.023
N2020 X3.722 Y34.928 Z-3.824
N2025 X3.771 Y34.954 Z-3.644
N2030 X3.846 Y34.987 Z-3.396
N2035 X3.921 Y35.014 Z-3.193
N2040 X3.995 Y35.035 Z-3.035
N2045 X4.07 Y35.051 Z-2.923
N2050 X4.145 Y35.06 Z-2.855
N2055 X4.22 Y35.063 Z-2.832
N2060 X5.022 Y35.068 Z-2.833
N2065 X5.283 Y35.065 Z-2.862
N2070 X5.309 Y35.064 Z-2.87
N2075 X5.518 Y35.055 Z-2.914
N2080 X5.563 Y35.052 Z-2.93
N2085 X5.787 Y35.026 Z-3.018
N2090 X5.797 Y35.025 Z-3.019
N2095 X5.826 Y35.02 Z-3.025
N2100 X6.014 Y34.985 Z-3.087
N2105 X6.059 Y34.976 Z-3.093
N2110 X6.112 Y34.963 Z-3.112
N2115 X6.166 Y34.947 Z-3.153
N2120 X6.222 Y34.929 Z-3.21
N2125 X6.378 Y34.866 Z-3.284
N2130 X6.416 Y34.848 Z-3.297
N2135 X6.525 Y34.791 Z-3.351
N2140 X6.563 Y34.766 Z-3.358
N2145 X6.654 Y34.703 Z-3.393
N2150 X6.706 Y34.662 Z-3.409
N2155 X6.763 Y34.613 Z-3.445
N2160 X6.785 Y34.59 Z-3.433
N2165 X6.821 Y34.549 Z-3.424
N2170 X6.891 Y34.466
N2175 X6.918 Y34.433 Z-3.431
N2180 X6.935 Y34.411 Z-3.439
N2185 X7.051 Y34.256 Z-3.467
N2190 X7.08 Y34.214 Z-3.483
N2195 X7.121 Y34.147 Z-3.534
N2200 X7.236 Y33.927 Z-3.705
N2205 X7.291 Y33.806 Z-3.747
N2210 X7.322 Y33.722 Z-3.773
N2215 X7.347 Y33.647 Z-3.772
N2220 X7.361 Y33.599 Z-3.777
N2225 X7.387 Y33.496 Z-3.783
N2230 X7.399 Y33.437 Z-3.768
N2235 X7.408 Y33.387 Z-3.764
N2240 X7.435 Y33.217 Z-3.777
N2245 X7.439 Y33.183 Z-3.775
N2250 X7.454 Y33.016 Z-3.782
N2255 X7.457 Y32.984 Z-3.787
N2260 X7.461 Y32.915 Z-3.803
N2265 X7.474 Y32.6 Z-3.838
N2270 X7.458 Y32.191 Z-3.844
N2275 X7.451 Y32.116 Z-3.815
N2280 X7.445 Y32.065 Z-3.804
N2285 X7.412 Y31.822 Z-3.791
N2290 X7.403 Y31.767 Z-3.801
N2295 X7.364 Y31.607 Z-3.797
N2300 X7.347 Y31.541 Z-3.781
N2305 X7.337 Y31.507 Z-3.777
N2310 X7.317 Y31.447 Z-3.789
N2315 X7.255 Y31.293 Z-3.785
N2320 X7.234 Y31.244 Z-3.772
N2325 X7.218 Y31.21 Z-3.768
N2330 X7.198 Y31.169 Z-3.774
N2335 X7.185 Y31.146 Z-3.782
N2340 X7.108 Y31.015 Z-3.765
N2345 X7.078 Y30.968 Z-3.746
N2350 X7.048 Y30.923 Z-3.737
N2355 X7.024 Y30.889
N2360 X6.931 Y30.768 Z-3.679
N2365 X6.886 Y30.715 Z-3.638
N2370 X6.836 Y30.657 Z-3.604
N2375 X6.718 Y30.539 Z-3.444
N2380 X6.671 Y30.493 Z-3.396
N2385 X6.633 Y30.465 Z-3.353
N2390 X6.594 Y30.439 Z-3.326
N2395 X6.478 Y30.365 Z-3.267
N2400 X6.438 Y30.344 Z-3.222
N2405 X6.394 Y30.321 Z-3.182
N2410 X6.349 Y30.301 Z-3.16
N2415 X6.258 Y30.263 Z-3.133
N2420 X6.178 Y30.235 Z-3.068
N2425 X6.111 Y30.215 Z-3.032
N2430 X6.013 Y30.189 Z-3.007
N2435 X5.936 Y30.173 Z-2.954
N2440 X5.876 Y30.162 Z-2.928
N2445 X5.698 Y30.136 Z-2.892
N2450 X5.647 Y30.133 Z-2.876
N2455 X5.392 Y30.12 Z-2.854
N2460 X5.359 Y30.119 Z-2.857
N2465 X5.153 Y30.117 Z-2.847
N2470 X4.247 Y30.112
N2475 X4.161 Y30.115 Z-2.877
N2480 X4.075 Y30.127 Z-2.966
N2485 X3.989 Y30.146 Z-3.114
N2490 X3.902 Y30.172 Z-3.322
N2495 X3.816 Y30.207 Z-3.589
N2500 X3.77 Y30.23 Z-3.753
N2505 X3.697 Y30.271 Z-4.04
N2510 X3.684 Y30.308 Z-3.994
N2515 X3.665 Y30.398 Z-3.875
N2520 X3.652 Y30.487 Z-3.809
N2525 X3.65 Y30.515 Z-3.8
N2530 Z5.
N2535 X-8.821 Y29.995
N2540 Z-3.245 F100.
N2545 Y30.023 Z-3.327 F500.
N2550 Y30.062 Z-3.378
N2555 Y30.154 Z-3.413
N2560 X-8.844 Y34.213
N2565 X-8.84 Y34.306 Z-3.443
N2570 X-8.829 Y34.399 Z-3.532
N2575 X-8.81 Y34.492 Z-3.681
N2580 X-8.783 Y34.585 Z-3.89
N2585 X-8.748 Y34.678 Z-4.159
N2590 X-8.705 Y34.771 Z-4.487
N2595 X-8.636 Y34.794 Z-4.34
N2600 X-8.551 Y34.815 Z-4.188
N2605 X-8.467 Y34.829 Z-4.08
N2610 X-8.382 Y34.838 Z-4.015
N2615 X-8.294 Y34.842 Z-3.993
N2620 X-8.274 Y34.841 Z-3.992
N2625 X-8.195 Y34.836 Z-4.011
N2630 X-8.117 Y34.826 Z-4.068
N2635 X-8.047 Y34.756 Z-3.755
N2640 X-7.992 Y34.688 Z-3.499
N2645 X-7.944 Y34.618 Z-3.292
N2650 X-7.902 Y34.546 Z-3.136
N2655 X-7.87 Y34.48 Z-3.036
N2660 X-7.844 Y34.413 Z-2.976
N2665 X-7.822 Y34.344 Z-2.956
N2670 X-7.024 Y31.324 Z-3.107
N2675 X-6.999 Y31.244 Z-3.138
N2680 X-6.968 Y31.165 Z-3.22
N2685 X-6.93 Y31.089 Z-3.354
N2690 X-6.885 Y31.014 Z-3.541
N2695 X-6.834 Y30.941 Z-3.78
N2700 X-6.776 Y30.869 Z-4.072
N2705 X-6.711 Y30.799 Z-4.415
N2710 X-6.64 Y30.731 Z-4.811
N2715 X-6.562 Y30.665 Z-5.258
N2720 X-6.528 Y30.639 Z-5.455
N2725 X-6.526 Y30.402 Z-4.997
N2730 X-6.527 Y30.322 Z-4.831
N2735 X-6.525 Y30.217 Z-4.589
N2740 X-6.523 Y30.191 Z-4.518
N2745 Y30.163 Z-4.425
N2750 Y30.191 Z-4.518
N2755 X-6.525 Y30.217 Z-4.589
N2760 X-6.527 Y30.322 Z-4.831
N2765 X-6.526 Y30.402 Z-4.997
N2770 X-6.528 Y30.639 Z-5.455
N2775 X-6.419 Y30.732 Z-4.818
N2780 X-6.348 Y30.801 Z-4.42
N2785 X-6.284 Y30.871 Z-4.075
N2790 X-6.226 Y30.943 Z-3.783
N2795 X-6.176 Y31.017 Z-3.543
N2800 X-6.132 Y31.093 Z-3.356
N2805 X-6.094 Y31.17 Z-3.22
N2810 X-6.064 Y31.249 Z-3.138
N2815 X-6.04 Y31.329 Z-3.107
N2820 X-5.277 Y34.352 Z-2.956
N2825 X-5.254 Y34.427 Z-2.976
N2830 X-5.229 Y34.495 Z-3.036
N2835 X-5.198 Y34.561 Z-3.137
N2840 X-5.157 Y34.633 Z-3.292
N2845 X-5.109 Y34.704 Z-3.499
N2850 X-5.055 Y34.773 Z-3.755
N2855 X-4.986 Y34.843 Z-4.068
N2860 X-4.908 Y34.854 Z-4.011
N2865 X-4.829 Y34.86 Z-3.992
N2870 X-4.809 Y34.861 Z-3.994
N2875 X-4.72 Y34.858 Z-4.015
N2880 X-4.636 Y34.85 Z-4.08
N2885 X-4.551 Y34.837 Z-4.189
N2890 X-4.467 Y34.817 Z-4.34
N2895 X-4.397 Y34.795 Z-4.487
N2900 X-4.353 Y34.702 Z-4.159
N2905 X-4.317 Y34.609 Z-3.89
N2910 X-4.289 Y34.517 Z-3.681
N2915 X-4.269 Y34.424 Z-3.532
N2920 X-4.257 Y34.331 Z-3.443
N2925 X-4.252 Y34.238 Z-3.413
N2930 X-4.23 Y30.179
N2935 X-4.229 Y30.089 Z-3.378
N2940 Y30.048 Z-3.324
N2945 Y30.02 Z-3.241
N2950 Z5.
N2955 X11.433 Y25.661
N2960 Z-3.634 F100.
N2965 Y25.644 Z-3.683 F500.
N2970 X11.434 Y25.639 Z-3.694
N2975 Y25.601 Z-3.743
N2980 X11.435 Y25.504 Z-3.779
N2985 X11.444 Y23.828
N2990 X11.449 Y23.731 Z-3.81
N2995 X11.461 Y23.634 Z-3.9
N3000 X11.482 Y23.536 Z-4.051
N3005 X11.51 Y23.439 Z-4.262
N3010 X11.546 Y23.342 Z-4.533
N3015 X11.511 Y23.244 Z-4.262
N3020 X11.484 Y23.147 Z-4.051
N3025 X11.465 Y23.049 Z-3.9
N3030 X11.454 Y22.952 Z-3.81
N3035 X11.45 Y22.854 Z-3.78
N3040 X11.462 Y20.886
N3045 Y20.788 Z-3.742
N3050 Y20.75 Z-3.692
N3055 X11.461 Y20.745 Z-3.681
N3060 Y20.722 Z-3.612
N3065 Y20.745 Z-3.681
N3070 X11.462 Y20.75 Z-3.692
N3075 Y20.788 Z-3.742
N3080 Y20.886 Z-3.78
N3085 X11.45 Y22.854
N3090 X11.454 Y22.952 Z-3.81
N3095 X11.465 Y23.049 Z-3.9
N3100 X11.484 Y23.147 Z-4.051
N3105 X11.511 Y23.244 Z-4.262
N3110 X11.546 Y23.342 Z-4.533
N3115 X11.629 Z-4.102
N3120 X11.668 Y23.343 Z-3.919
N3125 X11.738 Z-3.612
N3130 X11.771 Z-3.484
N3135 X11.802 Z-3.373
N3140 X11.832 Y23.344 Z-3.276
N3145 X11.861 Z-3.193
N3150 X11.889 Z-3.123
N3155 X11.916 Z-3.066
N3160 X11.943 Z-3.019
N3165 X11.969 Z-2.984
N3170 X11.994 Y23.345 Z-2.959
N3175 X12.007 Z-2.95
N3180 X12.032 Z-2.94
N3185 X14.624 Y23.36 Z-2.939
N3190 X14.637 Z-2.94
N3195 X14.662 Z-2.95
N3200 X14.7 Z-2.984
N3205 X14.726 Z-3.019
N3210 X14.753 Y23.361 Z-3.066
N3215 X14.78 Z-3.123
N3220 X14.808 Z-3.193
N3225 X14.837 Z-3.276
N3230 X14.867 Z-3.373
N3235 X14.898 Z-3.484
N3240 X14.965 Y23.362 Z-3.756
N3245 X15.04 Z-4.102
N3250 X15.123 Y23.363 Z-4.533
N3255 X15.158 Y23.46 Z-4.262
N3260 X15.185 Y23.558 Z-4.051
N3265 X15.204 Y23.655 Z-3.9
N3270 X15.216 Y23.753 Z-3.81
N3275 X15.219 Y23.85 Z-3.779
N3280 X15.209 Y25.525
N3285 Y25.622 Z-3.743
N3290 X15.208 Y25.663 Z-3.689
N3295 Y25.684 Z-3.626
N3300 Y25.663 Z-3.689
N3305 X15.209 Y25.622 Z-3.743
N3310 Y25.525 Z-3.779
N3315 X15.219 Y23.85
N3320 X15.216 Y23.753 Z-3.81
N3325 X15.204 Y23.655 Z-3.9
N3330 X15.185 Y23.558 Z-4.051
N3335 X15.158 Y23.46 Z-4.262
N3340 X15.123 Y23.363 Z-4.533
N3345 X15.159 Y23.265 Z-4.262
N3350 X15.187 Y23.168 Z-4.051
N3355 X15.208 Y23.071 Z-3.9
N3360 X15.22 Y22.974 Z-3.81
N3365 X15.225 Y22.876 Z-3.78
N3370 X15.236 Y20.908
N3375 X15.237 Y20.811 Z-3.743
N3380 Y20.772 Z-3.692
N3385 X15.236 Y20.743 Z-3.612
N3390 Z5.
N3395 X17.736 Y25.699
N3400 Z-3.622 F100.
N3405 Y25.676 Z-3.69 F500.
N3410 Y25.636 Z-3.742
N3415 Y25.54 Z-3.779
N3420 X17.763 Y20.923 Z-3.78
N3425 X17.764 Y20.827 Z-3.742
N3430 Y20.787 Z-3.69
N3435 X17.765 Y20.757 Z-3.602
N3440 Z5.
N3445 X22.8 Y22.961
N3450 Z-2.422 F100.
N3455 X22.804 Z-2.435 F500.
N3460 X22.837 Y22.965 Z-2.529
N3465 X22.862 Z-2.572
N3470 X22.877 Y22.963 Z-2.593
N3475 X22.924 Y22.962 Z-2.625
N3480 X22.954 Y22.961 Z-2.637
N3485 X23.06 Y22.96 Z-2.648
N3490 X23.979 Y22.965
N3495 X24.048 Y22.963 Z-2.668
N3500 X24.116 Y22.956 Z-2.729
N3505 X24.185 Y22.943 Z-2.829
N3510 X24.254 Y22.925 Z-2.969
N3515 X24.337 Y22.894 Z-3.18
N3520 X24.42 Y22.855 Z-3.45
N3525 X24.484 Y22.815 Z-3.678
N3530 X24.492 Y22.79 Z-3.641
N3535 X24.512 Y22.707 Z-3.52
N3540 X24.521 Y22.645 Z-3.452
N3545 X24.527 Y22.582 Z-3.411
N3550 X24.529 Y22.52 Z-3.398
N3555 X24.534 Y21.599 Z-3.397
N3560 X24.533 Y21.537 Z-3.389
N3565 X24.528 Y21.471 Z-3.404
N3570 X24.525 Y21.454 Z-3.403
N3575 X24.514 Y21.405 Z-3.411
N3580 X24.513 Y21.401 Z-3.409
N3585 X24.5 Y21.379 Z-3.37
N3590 X24.469 Y21.337 Z-3.268
N3595 X24.435 Y21.297 Z-3.185
N3600 X24.385 Y21.249 Z-3.073
N3605 X24.333 Y21.205 Z-2.998
N3610 X24.272 Y21.164 Z-2.935
N3615 X24.208 Y21.129 Z-2.914
N3620 X24.199 Y21.124
N3625 X24.114 Y21.082 Z-2.921
N3630 X23.888 Y20.974 Z-2.901
N3635 X23.837 Y20.952 Z-2.881
N3640 X23.792 Y20.934 Z-2.873
N3645 X23.655 Y20.883 Z-2.877
N3650 X23.422 Y20.803 Z-2.841
N3655 X23.414 Y20.8 Z-2.837
N3660 X23.365 Y20.787 Z-2.821
N3665 X23.191 Y20.746 Z-2.804
N3670 X23.147 Y20.737 Z-2.794
N3675 X22.953 Y20.702 Z-2.778
N3680 X22.911 Y20.698 Z-2.769
N3685 X22.691 Y20.678 Z-2.757
N3690 X22.454 Y20.67 Z-2.753
N3695 X22.43 Y20.671 Z-2.755
N3700 X22.187 Y20.687 Z-2.803
N3705 X22.046 Y20.7 Z-2.796
N3710 X22.008 Y20.705 Z-2.803
N3715 X21.916 Y20.719 Z-2.832
N3720 X21.812 Y20.74 Z-2.821
N3725 X21.771 Y20.75 Z-2.828
N3730 X21.652 Y20.782 Z-2.871
N3735 X21.596 Y20.799 Z-2.875
N3740 X21.525 Y20.824 Z-2.904
N3745 X21.399 Y20.874 Z-2.996
N3750 X21.358 Y20.893 Z-3.005
N3755 X21.299 Y20.923 Z-3.035
N3760 X21.191 Y20.983 Z-3.121
N3765 X21.138 Y21.014 Z-3.145
N3770 X21.092 Y21.044 Z-3.178
N3775 X21. Y21.107 Z-3.267
N3780 X20.823 Y21.246 Z-3.329
N3785 X20.788 Y21.276 Z-3.328
N3790 X20.725 Y21.334 Z-3.354
N3795 X20.663 Y21.402 Z-3.438
N3800 X20.531 Y21.584 Z-3.582
N3805 X20.406 Y21.772 Z-3.658
N3810 X20.395 Y21.794 Z-3.66
N3815 X20.304 Y21.969 Z-3.692
N3820 X20.29 Y22. Z-3.689
N3825 X20.273 Y22.04 Z-3.696
N3830 X20.216 Y22.18 Z-3.738
N3835 X20.198 Y22.235 Z-3.727
N3840 X20.189 Y22.263 Z-3.725
N3845 X20.178 Y22.303 Z-3.73
N3850 X20.143 Y22.436 Z-3.767
N3855 X20.127 Y22.506
N3860 X20.116 Y22.559 Z-3.776
N3865 X20.09 Y22.698 Z-3.825
N3870 X20.08 Y22.78 Z-3.819
N3875 X20.077 Y22.812 Z-3.822
N3880 X20.064 Y22.965 Z-3.853
N3885 X20.048 Y23.242 Z-3.842
N3890 X20.049 Y23.297 Z-3.831
N3895 X20.057 Y23.519 Z-3.825
N3900 X20.059 Y23.551 Z-3.82
N3905 X20.081 Y23.785 Z-3.807
N3910 X20.089 Y23.827 Z-3.797
N3915 X20.132 Y24.047 Z-3.772
N3920 X20.14 Y24.078 Z-3.765
N3925 X20.199 Y24.303 Z-3.733
N3930 X20.216 Y24.351 Z-3.714
N3935 X20.281 Y24.517 Z-3.677
N3940 X20.286 Y24.528 Z-3.671
N3945 X20.304 Y24.567 Z-3.655
N3950 X20.377 Y24.718 Z-3.615
N3955 X20.388 Y24.737 Z-3.599
N3960 X20.426 Y24.799 Z-3.56
N3965 X20.496 Y24.906 Z-3.524
N3970 X20.532 Y24.955 Z-3.487
N3975 X20.558 Y24.991 Z-3.467
N3980 X20.632 Y25.084 Z-3.43
N3985 X20.68 Y25.137 Z-3.368
N3990 X20.735 Y25.193 Z-3.321
N3995 X20.79 Y25.246 Z-3.296
N4000 X20.865 Y25.312 Z-3.233
N4005 X20.9 Y25.34 Z-3.212
N4010 X20.966 Y25.394 Z-3.185
N4015 X21.04 Y25.445 Z-3.111
N4020 X21.101 Y25.484 Z-3.07
N4025 X21.162 Y25.52 Z-3.05
N4030 X21.253 Y25.57 Z-2.988
N4035 X21.29 Y25.589 Z-2.97
N4040 X21.374 Y25.63 Z-2.946
N4045 X21.451 Y25.661 Z-2.884
N4050 X21.517 Y25.686 Z-2.851
N4055 X21.64 Y25.726 Z-2.826
N4060 X21.699 Y25.743 Z-2.798
N4065 X21.735 Y25.753 Z-2.787
N4070 X21.919 Y25.798 Z-2.759
N4075 X21.978 Y25.807 Z-2.74
N4080 X22.175 Y25.83 Z-2.726
N4085 X22.205 Y25.833 Z-2.729
N4090 X22.394 Y25.843 Z-2.723
N4095 X22.43 Y25.844 Z-2.729
N4100 X22.502 Y25.845 Z-2.75
N4105 X22.6 Y25.841
N4110 X22.634 Y25.84 Z-2.754
N4115 X22.739 Y25.833 Z-2.784
N4120 X22.802 Y25.826 Z-2.787
N4125 X22.864 Y25.818 Z-2.806
N4130 X22.965 Y25.802 Z-2.864
N4135 X23.03 Y25.787 Z-2.875
N4140 X23.071 Y25.777 Z-2.889
N4145 X23.185 Y25.747 Z-2.948
N4150 X23.235 Y25.732 Z-2.961
N4155 X23.279 Y25.718 Z-2.981
N4160 X23.322 Y25.701 Z-3.017
N4165 X23.398 Y25.67 Z-3.095
N4170 X23.557 Y25.596 Z-3.193
N4175 X23.635 Y25.552 Z-3.251
N4180 X23.695 Y25.514 Z-3.32
N4185 X23.742 Y25.481 Z-3.351
N4190 X23.779 Y25.454 Z-3.383
N4195 X23.825 Y25.419 Z-3.432
N4200 X23.879 Y25.374 Z-3.473
N4205 X23.945 Y25.315 Z-3.55
N4210 X24.023 Y25.23 Z-3.625
N4215 X24.098 Y25.144 Z-3.671
N4220 X24.173 Y25.044 Z-3.666
N4225 X24.228 Y24.961 Z-3.66
N4230 X24.263 Y24.9 Z-3.624
N4235 X24.291 Y24.848 Z-3.576
N4240 X24.314 Y24.798 Z-3.496
N4245 X24.32 Y24.785 Z-3.463
N4250 Z5.
N4255 X26.801 Y25.75
N4260 Z-3.634 F100.
N4265 Y25.733 Z-3.683 F500.
N4270 X26.802 Y25.69 Z-3.743
N4275 X26.803 Y25.593 Z-3.78
N4280 X26.812 Y23.917
N4285 X26.817 Y23.82 Z-3.81
N4290 X26.829 Y23.723 Z-3.9
N4295 X26.85 Y23.626 Z-4.051
N4300 X26.878 Y23.528 Z-4.262
N4305 X26.914 Y23.431 Z-4.533
N4310 X26.879 Y23.334 Z-4.262
N4315 X26.852 Y23.236 Z-4.051
N4320 X26.833 Y23.138 Z-3.9
N4325 X26.821 Y23.041 Z-3.81
N4330 X26.818 Y22.944 Z-3.779
N4335 X26.829 Y20.975
N4340 X26.83 Y20.877 Z-3.741
N4345 X26.829 Y20.834 Z-3.681
N4350 Y20.811 Z-3.611
N4355 Y20.834 Z-3.681
N4360 X26.83 Y20.877 Z-3.741
N4365 X26.829 Y20.975 Z-3.779
N4370 X26.818 Y22.944
N4375 X26.821 Y23.041 Z-3.81
N4380 X26.833 Y23.138 Z-3.9
N4385 X26.852 Y23.236 Z-4.051
N4390 X26.879 Y23.334 Z-4.262
N4395 X26.914 Y23.431 Z-4.533
N4400 X26.997 Y23.432 Z-4.102
N4405 X27.036 Z-3.919
N4410 X27.106 Z-3.612
N4415 X27.139 Z-3.484
N4420 X27.17 Y23.433 Z-3.373
N4425 X27.2 Z-3.276
N4430 X27.229 Z-3.193
N4435 X27.257 Z-3.123
N4440 X27.284 Z-3.066
N4445 X27.311 Z-3.019
N4450 X27.337 Y23.434 Z-2.984
N4455 X27.362 Z-2.959
N4460 X27.375 Z-2.95
N4465 X27.4 Z-2.94
N4470 X29.992 Y23.449 Z-2.939
N4475 X30.005 Z-2.94
N4480 X30.03 Z-2.95
N4485 X30.068 Z-2.984
N4490 X30.094 Y23.45 Z-3.02
N4495 X30.121 Z-3.066
N4500 X30.148 Z-3.124
N4505 X30.176 Z-3.194
N4510 X30.205 Z-3.276
N4515 X30.235 Z-3.373
N4520 X30.266 Y23.451 Z-3.485
N4525 X30.333 Z-3.757
N4530 X30.408 Z-4.102
N4535 X30.491 Y23.452 Z-4.533
N4540 X30.526 Y23.549 Z-4.262
N4545 X30.553 Y23.647 Z-4.051
N4550 X30.572 Y23.744 Z-3.9
N4555 X30.584 Y23.842 Z-3.81
N4560 X30.587 Y23.939 Z-3.78
N4565 X30.577 Y25.614
N4570 Y25.711 Z-3.743
N4575 X30.576 Y25.752 Z-3.688
N4580 Y25.773 Z-3.626
N4585 Y25.752 Z-3.688
N4590 X30.577 Y25.711 Z-3.743
N4595 Y25.614 Z-3.78
N4600 X30.587 Y23.939
N4605 X30.584 Y23.842 Z-3.81
N4610 X30.572 Y23.744 Z-3.9
N4615 X30.553 Y23.647 Z-4.051
N4620 X30.526 Y23.549 Z-4.262
N4625 X30.491 Y23.452 Z-4.533
N4630 X30.527 Y23.355 Z-4.262
N4635 X30.555 Y23.257 Z-4.051
N4640 X30.576 Y23.16 Z-3.9
N4645 X30.588 Y23.063 Z-3.81
N4650 X30.593 Y22.965 Z-3.779
N4655 X30.604 Y20.996
N4660 Y20.899 Z-3.741
N4665 Y20.856 Z-3.681
N4670 Y20.832 Z-3.611
N4675 Z5.
N4680 X12.374 Y12.374
N4685 Z-4.937 F100.
N4690 X15.203 Y15.203 F500.
N4695 Z5.
N4700 X12.374 Y12.374
N4705 Z-4.937 F100.
N4710 Z5. F500.
N4715 Z-4.937 F100.
N4720 Z15. F500.
N4725 G53 G0 Z0.
N4730 G53 G0 X0. Y0.
N4735 M30
%
