%
(TEST_POCKET)
(MACHINE)
(  MODEL LASER SNAKE V2)
(  DESCRIPTION 3-AXIS ROUTER)
(T1  D=3. CR=0. TAPER=7.5DEG - ZMIN=-1. - CHAMFER MILL)
N10 G90 G94 G17 G91.1
N15 G21
(WHEN USING FUSION 360 FOR PERSONAL USE, THE FEEDRATE OF)
(RAPID MOVES IS REDUCED TO MATCH THE FEEDRATE OF CUTTING)
(MOVES, WHICH CAN INCREASE MACHINING TIME. UNRESTRICTED RAPID)
(MOVES ARE AVAILABLE WITH A FUSION 360 SUBSCRIPTION.)
N20 G53 G0 Z0.
(2D POCKET1)
N25 T1 M6
N30 S20000 M3
N35 G54
N40 G0 X-27.947 Y20.938
N45 G43 Z15. H1
N50 G1 Z5. F500.
N55 Z2.5 F100.
N60 Z-1.
N65 G2 X-28.033 Y21.235 I0.488 J0.301 F500.
N70 G1 X-28.057 Y25.497
N75 X-28.075 Y25.647
N80 X-28.083 Y25.663
N85 X-28.091 Y25.649
N90 X-28.107 Y25.497
N95 X-28.081 Y21.016
N100 X-28.063 Y20.859
N105 X-28.057 Y20.849
N110 X-28.047 Y20.843
N115 X-27.89 Y20.827
N120 X-27.859
N125 G2 X-27.947 Y20.938 I0.399 J0.411
N130 X-27.937 Y21.067 I0.093 J0.058
N135 G3 X-27.899 Y21.19 I-0.124 J0.106
N140 G1 X-27.902 Y21.236
N145 X-27.927 Y25.505
N150 X-27.948 Y25.687
N155 X-27.994 Y25.772
N160 X-28.024 Y25.793
N165 X-28.089 Y25.804
N170 X-28.148 Y25.793
N175 X-28.174 Y25.774
N180 X-28.218 Y25.686
N185 X-28.237 Y25.504
N190 X-28.211 Y21.008
N195 X-28.19 Y20.819
N200 X-28.154 Y20.752
N205 X-28.085 Y20.715
N210 X-27.896 Y20.697
N215 X-25.099 Y20.713
N220 X-24.944 Y20.761
N225 X-25.103 Y20.81
N230 X-27.457 Y20.796
N235 G2 X-27.899 Y21.19 I-0.003 J0.442
N240 X-27.824 Y21.323 I0.129 J0.014
N245 G3 X-27.741 Y21.452 I-0.057 J0.128
N250 G1 X-27.765 Y25.515
N255 X-27.79 Y25.736
N260 X-27.869 Y25.884
N265 X-27.961 Y25.947
N270 X-28.09 Y25.969
N275 X-28.214 Y25.945
N280 X-28.301 Y25.882
N285 X-28.377 Y25.733
N290 X-28.4 Y25.512
N295 X-28.373 Y20.999
N300 X-28.348 Y20.77
N305 X-28.273 Y20.631
N310 X-28.133 Y20.557
N315 X-27.904 Y20.534
N320 X-25.074 Y20.551
N325 X-24.792 Y20.638
N330 X-24.74 Y20.759
N335 X-24.796 Y20.885
N340 X-25.079 Y20.972
N345 X-27.458 Y20.959
N350 G2 X-27.74 Y21.237 I-0.002 J0.28
N355 G1 X-27.741 Y21.452
N360 G2 X-27.652 Y21.587 I0.146 J0.001
N365 G3 X-27.563 Y21.723 I-0.057 J0.135
N370 G1 X-27.585 Y25.526
N375 X-27.616 Y25.791
N380 X-27.731 Y26.008
N385 X-27.892 Y26.117
N390 X-28.092 Y26.152
N395 X-28.286 Y26.115
N400 X-28.442 Y26.003
N405 X-28.552 Y25.785
N410 X-28.58 Y25.52
N415 X-28.553 Y20.988
N420 X-28.523 Y20.715
N425 X-28.406 Y20.498
N430 X-28.187 Y20.381
N435 X-27.912 Y20.354
N440 X-25.047 Y20.371
N445 X-24.659 Y20.49
N450 X-24.544 Y20.76
N455 X-24.665 Y21.032
N460 X-25.052 Y21.153
N465 X-27.459 Y21.139
N470 G2 X-27.56 Y21.238 I-0.001 J0.1
N475 G1 X-27.563 Y21.723
N480 Z15.
N485 X-23.595 Y23.767
N490 Z5.
N495 Z2.5 F100.
N500 Z-1.
N505 X-23.534 Y24.218 F500.
N510 G2 X-23.48 Y24.388 I0.518 J-0.07
N515 G1 X-23.138 Y25.048
N520 G2 X-22.99 Y25.224 I0.464 J-0.241
N525 G1 X-22.529 Y25.574
N530 X-22.889 Y25.382
N535 X-23.213 Y25.102
N540 X-23.477 Y24.741
N545 X-23.663 Y24.321
N550 X-23.788 Y23.795
N555 X-23.823 Y23.264
N560 X-23.648 Y22.155
N565 X-23.47 Y21.751
N570 X-23.208 Y21.388
N575 X-22.876 Y21.102
N580 X-22.485 Y20.896
N585 X-22.955 Y21.248
N590 G2 X-23.103 Y21.419 I0.312 J0.419
N595 G1 X-23.466 Y22.091
N600 G2 X-23.523 Y22.264 I0.46 J0.248
N605 G1 X-23.655 Y23.173
N610 G2 Y23.318 I0.517 J0.075
N615 G1 X-23.595 Y23.767
N620 Z5.
N625 X-19.375 Y22.226
N630 Z2.5 F100.
N635 Z-1.
N640 X-19.487 Y21.864 F500.
N645 X-19.526 Y21.79
N650 X-19.781 Y21.389
N655 X-19.767 Y21.377
N660 X-19.715 Y21.422
N665 X-19.461 Y21.779
N670 X-19.281 Y22.191
N675 X-19.163 Y22.712
N680 X-19.128 Y23.253
N685 X-19.198 Y23.969
N690 X-19.418 Y24.619
N695 X-19.744 Y25.09
N700 X-19.757 Y25.1
N705 X-19.771 Y25.087
N710 X-19.518 Y24.681
N715 G2 X-19.46 Y24.551 I-0.479 J-0.292
N720 G1 X-19.294 Y24.002
N725 G2 X-19.272 Y23.888 I-0.537 J-0.162
N730 G1 X-19.223 Y23.316
N735 X-19.222 Y23.225
N740 X-19.267 Y22.622
N745 G2 X-19.29 Y22.501 I-0.559 J0.042
N750 G1 X-19.375 Y22.226
N755 X-19.386 Y22.206
N760 X-19.403 Y22.192
N765 X-19.425 Y22.185
N770 X-19.446 Y22.179
N775 X-19.463 Y22.165
N780 X-19.474 Y22.145
N785 X-19.535 Y21.945
N790 G2 X-19.587 Y21.829 I-0.467 J0.142
N795 G1 X-19.838 Y21.427
N800 G2 X-19.932 Y21.316 I-0.414 J0.258
N805 G1 X-20.29 Y21.006
N810 G2 X-20.415 Y20.927 I-0.32 J0.369
N815 G1 X-20.82 Y20.752
N820 X-20.856 Y20.738
N825 X-20.388 Y20.871
N830 X-19.995 Y21.083
N835 X-19.663 Y21.377
N840 X-19.399 Y21.748
N845 X-19.214 Y22.174
N850 X-19.094 Y22.706
N855 X-19.059 Y23.257
N860 X-19.131 Y23.988
N865 X-19.357 Y24.654
N870 X-19.695 Y25.139
N875 X-20.159 Y25.497
N880 X-20.794 Y25.733
N885 X-20.841 Y25.738
N890 X-20.407 Y25.552
N895 G2 X-20.277 Y25.471 I-0.192 J-0.449
N900 G1 X-19.922 Y25.16
N905 G2 X-19.827 Y25.047 I-0.322 J-0.367
N910 G1 X-19.58 Y24.643
N915 G2 X-19.53 Y24.53 I-0.417 J-0.254
N920 G1 X-19.364 Y23.981
N925 G2 X-19.345 Y23.882 I-0.467 J-0.141
N930 G1 X-19.295 Y23.309
N935 X-19.294 Y23.231
N940 X-19.339 Y22.628
N945 G2 X-19.359 Y22.522 I-0.487 J0.036
N950 G1 X-19.474 Y22.145
N955 X-19.486 Y22.123
N960 X-19.505 Y22.108
N965 X-19.528 Y22.1
N970 X-19.552 Y22.093
N975 X-19.571 Y22.077
N980 X-19.583 Y22.056
N985 X-19.61 Y21.968
N990 G2 X-19.654 Y21.87 I-0.392 J0.119
N995 G1 X-19.904 Y21.468
N1000 G2 X-19.984 Y21.375 I-0.348 J0.217
N1005 G1 X-20.341 Y21.065
N1010 G2 X-20.446 Y20.999 I-0.269 J0.31
N1015 G1 X-20.851 Y20.824
N1020 G2 X-20.959 Y20.794 I-0.163 J0.376
N1025 G1 X-21.396 Y20.734
N1030 G2 X-21.53 Y20.738 I-0.055 J0.406
N1035 G1 X-22.188 Y20.867
N1040 G2 X-22.355 Y20.941 I0.079 J0.402
N1045 G1 X-22.888 Y21.338
N1050 G2 X-23.004 Y21.473 I0.245 J0.329
N1055 G1 X-23.366 Y22.145
N1060 G2 X-23.411 Y22.28 I0.361 J0.194
N1065 G1 X-23.543 Y23.189
N1070 G2 X-23.544 Y23.303 I0.406 J0.059
N1075 G1 X-23.422 Y24.203
N1080 G2 X-23.38 Y24.337 I0.406 J-0.055
N1085 G1 X-23.037 Y24.996
N1090 G2 X-22.921 Y25.134 I0.364 J-0.189
N1095 G1 X-22.4 Y25.53
N1100 G2 X-22.237 Y25.604 I0.248 J-0.327
N1105 G1 X-21.576 Y25.743
N1110 G2 X-21.443 Y25.749 I0.084 J-0.401
N1115 G1 X-20.979 Y25.694
N1120 G2 X-20.867 Y25.664 I-0.048 J-0.407
N1125 G1 X-20.438 Y25.481
N1130 G2 X-20.329 Y25.412 I-0.161 J-0.377
N1135 G1 X-19.973 Y25.101
N1140 G2 X-19.894 Y25.006 I-0.27 J-0.308
N1145 G1 X-19.647 Y24.602
N1150 G2 X-19.605 Y24.507 I-0.35 J-0.214
N1155 G1 X-19.438 Y23.958
N1160 X-19.428 Y23.917
N1165 X-19.422 Y23.875
N1170 X-19.373 Y23.303
N1175 X-19.372 Y23.237
N1180 X-19.417 Y22.634
N1185 X-19.423 Y22.589
N1190 X-19.434 Y22.545
N1195 X-19.583 Y22.056
N1200 G2 X-19.674 Y21.979 I-0.104 J0.032
N1205 G3 X-19.774 Y21.915 I0.016 J-0.137
N1210 G1 X-20.011 Y21.535
N1215 X-20.036 Y21.5
N1220 X-20.066 Y21.47
N1225 X-20.423 Y21.161
N1230 X-20.458 Y21.135
N1235 X-20.497 Y21.115
N1240 X-20.937 Y20.927
N1245 X-21.413 Y20.859
N1250 X-21.459 Y20.857
N1255 X-21.506 Y20.862
N1260 X-22.185 Y20.996
N1265 G2 X-22.279 Y21.042 I0.076 J0.274
N1270 G1 X-22.828 Y21.452
N1275 G2 X-22.893 Y21.532 I0.185 J0.215
N1280 G1 X-23.265 Y22.224
N1285 X-23.278 Y22.261
N1290 X-23.286 Y22.298
N1295 X-23.418 Y23.207
N1300 X-23.421 Y23.246
N1305 X-23.419 Y23.286
N1310 X-23.292 Y24.213
N1315 X-23.282 Y24.247
N1320 X-23.268 Y24.278
N1325 X-22.925 Y24.938
N1330 G2 X-22.845 Y25.034 I0.252 J-0.131
N1335 G1 X-22.324 Y25.429
N1340 G2 X-22.211 Y25.481 I0.172 J-0.226
N1345 G1 X-21.515 Y25.625
N1350 X-21.458 Y25.624
N1355 X-20.994 Y25.568
N1360 X-20.955 Y25.561
N1365 X-20.916 Y25.548
N1370 X-20.487 Y25.365
N1375 X-20.448 Y25.344
N1380 X-20.412 Y25.317
N1385 X-20.056 Y25.006
N1390 X-20.026 Y24.975
N1395 X-20.001 Y24.94
N1400 X-19.755 Y24.537
N1405 X-19.738 Y24.505
N1410 X-19.725 Y24.471
N1415 X-19.559 Y23.922
N1420 X-19.548 Y23.864
N1425 X-19.498 Y23.292
N1430 Y23.246
N1435 X-19.543 Y22.643
N1440 X-19.555 Y22.582
N1445 X-19.741 Y21.974
N1450 X-19.761 Y21.937
N1455 X-19.774 Y21.915
N1460 G2 X-19.925 Y21.847 I-0.127 J0.079
N1465 G3 X-20.076 Y21.779 I-0.024 J-0.147
N1470 G1 X-20.167 Y21.632
N1475 X-20.187 Y21.609
N1480 X-20.544 Y21.299
N1485 X-20.57 Y21.283
N1490 X-20.974 Y21.108
N1495 X-21. Y21.101
N1500 X-21.438 Y21.042
N1505 X-21.47 Y21.043
N1510 X-22.129 Y21.172
N1515 X-22.15 Y21.178
N1520 X-22.169 Y21.189
N1525 X-22.703 Y21.587
N1530 X-22.719 Y21.602
N1535 X-22.731 Y21.62
N1540 X-23.093 Y22.292
N1545 X-23.104 Y22.325
N1550 X-23.236 Y23.233
N1555 Y23.261
N1560 X-23.115 Y24.161
N1565 X-23.104 Y24.194
N1570 X-22.762 Y24.854
N1575 X-22.75 Y24.872
N1580 X-22.734 Y24.887
N1585 X-22.213 Y25.283
N1590 X-22.194 Y25.294
N1595 X-22.173 Y25.301
N1600 X-21.512 Y25.44
N1605 X-21.48 Y25.441
N1610 X-21.016 Y25.386
N1615 X-20.989 Y25.379
N1620 X-20.559 Y25.195
N1625 X-20.533 Y25.179
N1630 X-20.178 Y24.868
N1635 X-20.158 Y24.844
N1640 X-19.912 Y24.441
N1645 X-19.901 Y24.418
N1650 X-19.735 Y23.868
N1655 X-19.731 Y23.848
N1660 X-19.682 Y23.276
N1665 X-19.681 Y23.26
N1670 X-19.726 Y22.657
N1675 X-19.731 Y22.635
N1680 X-19.906 Y22.058
N1685 X-19.917 Y22.034
N1690 X-20.076 Y21.779
N1695 G3 X-20.072 Y21.561 I0.17 J-0.106
N1700 G1 X-19.924 Y21.343
N1705 G3 X-19.626 Y21.305 I0.166 J0.112
N1710 G1 X-19.604 Y21.324
N1715 X-19.33 Y21.709
N1720 X-19.139 Y22.149
N1725 X-19.016 Y22.695
N1730 X-18.981 Y23.259
N1735 X-19.054 Y24.005
N1740 X-19.287 Y24.689
N1745 X-19.638 Y25.193
N1750 X-20.121 Y25.566
N1755 X-20.777 Y25.81
N1760 X-21.5 Y25.88
N1765 X-22.037 Y25.835
N1770 X-22.55 Y25.691
N1775 X-22.954 Y25.476
N1780 X-23.297 Y25.179
N1785 X-23.575 Y24.797
N1790 X-23.771 Y24.358
N1795 X-23.9 Y23.812
N1800 X-23.936 Y23.259
N1805 X-23.758 Y22.123
N1810 X-23.569 Y21.694
N1815 X-23.291 Y21.311
N1820 X-22.94 Y21.008
N1825 X-22.526 Y20.791
N1830 X-21.998 Y20.644
N1835 X-21.439 Y20.602
N1840 X-20.883 Y20.649
N1845 X-20.358 Y20.798
N1850 X-19.95 Y21.018
N1855 X-19.626 Y21.305
N1860 G2 X-19.521 Y21.327 I0.071 J-0.08
N1865 G3 X-19.42 Y21.36 I0.028 J0.085
N1870 G1 X-19.228 Y21.629
N1875 X-19.21 Y21.662
N1880 X-19.022 Y22.093
N1885 X-19.012 Y22.126
N1890 X-18.891 Y22.662
N1895 X-18.887 Y22.691
N1900 X-18.852 Y23.247
N1905 X-18.853 Y23.275
N1910 X-18.925 Y24.011
N1915 X-18.933 Y24.052
N1920 X-19.162 Y24.724
N1925 X-19.185 Y24.769
N1930 X-19.527 Y25.261
N1935 X-19.544 Y25.282
N1940 X-19.565 Y25.301
N1945 X-20.035 Y25.664
N1950 X-20.058 Y25.679
N1955 X-20.083 Y25.69
N1960 X-20.725 Y25.929
N1965 X-20.771 Y25.939
N1970 X-21.499 Y26.007
N1975 X-22.043 Y25.964
N1980 X-22.077 Y25.958
N1985 X-22.579 Y25.817
N1990 X-22.615 Y25.802
N1995 X-23.009 Y25.593
N2000 X-23.043 Y25.57
N2005 X-23.377 Y25.281
N2010 X-23.405 Y25.25
N2015 X-23.676 Y24.878
N2020 X-23.695 Y24.845
N2025 X-23.887 Y24.415
N2030 X-23.898 Y24.383
N2035 X-24.025 Y23.846
N2040 X-24.029 Y23.816
N2045 X-24.065 Y23.273
N2050 X-24.064 Y23.233
N2055 X-23.887 Y22.109
N2060 X-23.874 Y22.065
N2065 X-23.689 Y21.647
N2070 X-23.67 Y21.614
N2075 X-23.4 Y21.24
N2080 X-23.371 Y21.209
N2085 X-23.029 Y20.914
N2090 X-22.995 Y20.891
N2095 X-22.591 Y20.678
N2100 X-22.556 Y20.664
N2105 X-22.037 Y20.521
N2110 X-22.003 Y20.515
N2115 X-21.439 Y20.476
N2120 X-20.877 Y20.52
N2125 X-20.843 Y20.526
N2130 X-20.328 Y20.672
N2135 X-20.292 Y20.686
N2140 X-19.894 Y20.901
N2145 X-19.86 Y20.925
N2150 X-19.523 Y21.224
N2155 X-19.495 Y21.254
N2160 X-19.42 Y21.36
N2165 G2 X-19.268 Y21.418 I0.119 J-0.085
N2170 G3 X-19.116 Y21.476 I0.033 J0.143
N2175 G1 X-19.059 Y21.556
N2180 X-18.843 Y22.053
N2185 X-18.708 Y22.651
N2190 X-18.67 Y23.264
N2195 X-18.749 Y24.07
N2200 X-19.007 Y24.83
N2205 X-19.41 Y25.41
N2210 X-19.968 Y25.84
N2215 X-20.706 Y26.114
N2220 X-21.498 Y26.191
N2225 X-22.093 Y26.141
N2230 X-22.666 Y25.98
N2235 X-23.13 Y25.733
N2240 X-23.527 Y25.39
N2245 X-23.845 Y24.953
N2250 X-24.065 Y24.457
N2255 X-24.207 Y23.858
N2260 X-24.248 Y23.245
N2265 X-24.058 Y22.035
N2270 X-23.839 Y21.539
N2275 X-23.521 Y21.1
N2280 X-23.116 Y20.75
N2285 X-22.641 Y20.501
N2290 X-22.051 Y20.338
N2295 X-21.438 Y20.291
N2300 X-20.827 Y20.343
N2305 X-20.241 Y20.509
N2310 X-19.771 Y20.762
N2315 X-19.372 Y21.116
N2320 X-19.116 Y21.476
N2325 Z15.
N2330 X-14.227 Y25.598
N2335 Z5.
N2340 Z2.5 F100.
N2345 Z-1.
N2350 X-14.231 Y25.599 F500.
N2355 X-14.253
N2360 X-14.274 Y25.592
N2365 X-14.294 Y25.579
N2370 X-14.322 Y25.54
N2375 X-14.33 Y25.519
N2380 X-14.329 Y25.507
N2385 X-14.322 Y25.498
N2390 X-14.31 Y25.495
N2395 G2 X-14.182 Y25.498 I0.077 J-0.695
N2400 G1 X-14.171 Y25.501
N2405 X-14.163 Y25.51
N2410 Y25.522
N2415 X-14.171 Y25.548
N2420 X-14.192 Y25.579
N2425 X-14.211 Y25.593
N2430 X-14.227 Y25.598
N2435 X-14.25 Y25.609
N2440 X-14.268 Y25.625
N2445 X-14.28 Y25.647
N2450 X-14.295 Y25.668
N2455 X-14.319 Y25.68
N2460 X-14.345 Y25.679
N2465 X-14.349 Y25.678
N2470 X-14.418 Y25.584
N2475 X-14.492 Y25.337
N2480 G2 X-14.001 Y25.35 I0.26 J-0.536
N2485 G1 X-14.079 Y25.599
N2490 X-14.136 Y25.678
N2495 X-14.242 Y25.71
N2500 X-14.345 Y25.679
N2505 Z5.
N2510 X-17.286 Y25.356
N2515 Z2.5 F100.
N2520 Z-1.
N2525 Y25.357 F500.
N2530 G3 X-17.337 Y25.523 I-3.598 J-1.007
N2535 G1 X-17.392 Y25.69
N2540 X-17.409 Y25.686
N2545 G3 X-17.38 Y25.52 I33.102 J5.757
N2550 X-17.347 Y25.354 I5.037 J0.902
N2555 G1 X-16.764 Y23.034
N2560 X-16.748 Y23.038
N2565 X-17.286 Y25.356
N2570 Z5.
N2575 X-16.023 Y21.288
N2580 Z2.5 F100.
N2585 Z-1.
N2590 X-16.043 Y21.29 F500.
N2595 X-16.054 Y21.287
N2600 X-16.062 Y21.277
N2605 X-16.063 Y21.265
N2610 X-16.059 Y21.251
N2615 X-16.037 Y21.168
N2620 X-16.015
N2625 X-15.987 Y21.26
N2630 Y21.273
N2635 X-15.995 Y21.283
N2640 X-16.007 Y21.287
N2645 X-16.023 Y21.288
N2650 X-16.045 Y21.294
N2655 X-16.063 Y21.308
N2660 X-16.074 Y21.329
N2665 X-16.085 Y21.349
N2670 X-16.102 Y21.364
N2675 X-16.123 Y21.373
N2680 X-16.168 Y21.384
N2685 X-16.097 Y21.118
N2690 X-16.031 Y20.959
N2695 X-16.018 Y20.964
N2700 X-15.993 Y20.998
N2705 X-15.882 Y21.364
N2710 G2 X-16.123 Y21.373 I-0.094 J0.698
N2715 X-16.217 Y21.477 I0.025 J0.117
N2720 G3 X-16.289 Y21.596 I-0.166 J-0.018
N2725 G2 X-16.393 Y21.687 I0.314 J0.465
N2730 G1 X-16.325 Y21.418
N2735 X-16.232 Y21.072
N2740 X-16.142 Y20.853
N2745 X-16.105 Y20.816
N2750 X-16.049 Y20.804
N2755 X-15.929 Y20.842
N2760 X-15.863 Y20.933
N2765 X-15.718 Y21.412
N2770 X-15.67 Y21.591
N2775 G2 X-16.289 Y21.596 I-0.305 J0.471
N2780 G1 Z5.
N2785 X-12.417 Y21.311
N2790 Z2.5 F100.
N2795 Z-1.
N2800 X-12.432 Y21.31 F500.
N2805 X-12.444 Y21.305
N2810 X-12.451 Y21.295
N2815 Y21.282
N2820 X-12.446 Y21.266
N2825 X-12.445 Y21.262
N2830 X-12.424 Y21.195
N2835 X-12.402
N2840 X-12.376 Y21.288
N2845 X-12.377 Y21.3
N2850 X-12.385 Y21.309
N2855 X-12.397 Y21.312
N2860 X-12.417 Y21.311
N2865 X-12.44 Y21.314
N2870 X-12.459 Y21.325
N2875 X-12.473 Y21.344
N2880 X-12.486 Y21.362
N2885 X-12.505 Y21.375
N2890 X-12.526 Y21.381
N2895 X-12.557 Y21.384
N2900 X-12.439 Y21.011
N2905 X-12.419 Y20.984
N2910 X-12.408 Y20.981
N2915 X-12.379 Y21.016
N2920 X-12.271 Y21.408
N2925 G2 X-12.526 Y21.381 I-0.2 J0.675
N2930 X-12.632 Y21.471 I0.009 J0.119
N2935 G3 X-12.719 Y21.579 I-0.16 J-0.04
N2940 G1 X-12.769 Y21.607
N2945 X-12.72 Y21.428
N2950 X-12.568 Y20.945
N2955 X-12.504 Y20.861
N2960 X-12.407 Y20.832
N2965 X-12.311 Y20.862
N2970 X-12.248 Y20.955
N2975 X-12.112 Y21.447
N2980 X-12.048 Y21.712
N2985 G2 X-12.719 Y21.579 I-0.422 J0.37
N2990 G1 Z5.
N2995 X-11.191 Y25.402
N3000 Z2.5 F100.
N3005 Z-1.
N3010 X-11.708 Y23.072 F500.
N3015 X-11.692 Y23.069
N3020 X-11.139 Y25.38
N3025 X-11.138 Y25.388
N3030 X-11.137 Y25.39
N3035 G3 X-11.099 Y25.6 I-5.516 J1.11
N3040 G1 X-11.076 Y25.74
N3045 X-11.08 Y25.756
N3050 X-11.088 Y25.764
N3055 X-11.099 Y25.765
N3060 X-11.107 Y25.758
N3065 X-11.115 Y25.746
N3070 X-11.191 Y25.402
N3075 X-11.201 Y25.379
N3080 X-11.219 Y25.362
N3085 X-11.242 Y25.352
N3090 X-11.266 Y25.343
N3095 X-11.284 Y25.326
N3100 X-11.294 Y25.303
N3105 X-12.018 Y21.984
N3110 G2 X-12.916 Y21.959 I-0.452 J0.099
N3115 G1 X-13.807 Y25.17
N3120 X-13.958 Y25.66
N3125 X-14.055 Y25.792
N3130 X-14.242 Y25.849
N3135 X-14.43 Y25.792
N3140 X-14.539 Y25.644
N3145 X-14.683 Y25.165
N3150 X-15.528 Y21.944
N3155 G2 X-16.426 Y21.958 I-0.448 J0.117
N3160 G1 X-17.214 Y25.377
N3165 X-17.365 Y25.834
N3170 X-17.452 Y25.799
N3175 X-17.486 Y25.717
N3180 X-17.42 Y25.339
N3185 X-16.42 Y21.393
N3190 X-16.326 Y21.041
N3195 X-16.226 Y20.797
N3200 X-16.154 Y20.726
N3205 X-16.044 Y20.702
N3210 X-15.869 Y20.758
N3215 X-15.774 Y20.888
N3220 X-15.623 Y21.385
N3225 X-14.68 Y24.92
N3230 G2 X-13.787 Y24.923 I0.447 J-0.119
N3235 G1 X-12.814 Y21.4
N3240 X-12.657 Y20.899
N3245 X-12.564 Y20.777
N3250 X-12.407 Y20.728
N3255 X-12.249 Y20.779
N3260 X-12.158 Y20.913
N3265 X-12.017 Y21.423
N3270 X-11.064 Y25.376
N3275 X-11.003 Y25.754
N3280 X-11.038 Y25.837
N3285 X-11.095 Y25.859
N3290 X-11.136 Y25.845
N3295 X-11.182 Y25.772
N3300 X-11.267 Y25.427
N3305 X-11.294 Y25.303
N3310 G2 X-11.411 Y25.189 I-0.144 J0.031
N3315 G3 X-11.529 Y25.076 I0.026 J-0.145
N3320 G1 X-12.197 Y22.016
N3325 G2 X-12.742 Y22.007 I-0.274 J0.066
N3330 G1 X-13.632 Y25.221
N3335 X-13.783 Y25.712
N3340 X-13.795 Y25.742
N3345 X-13.812 Y25.77
N3350 X-13.933 Y25.935
N3355 X-13.945 Y25.947
N3360 X-13.96 Y25.954
N3365 X-14.224 Y26.035
N3370 X-14.242 Y26.038
N3375 X-14.26 Y26.035
N3380 X-14.524 Y25.954
N3385 X-14.54 Y25.947
N3390 X-14.552 Y25.935
N3395 X-14.686 Y25.753
N3400 X-14.702 Y25.726
N3405 X-14.714 Y25.697
N3410 X-14.858 Y25.214
N3415 X-15.703 Y21.989
N3420 G2 X-16.25 Y21.999 I-0.272 J0.073
N3425 G1 X-17.039 Y25.426
N3430 X-17.204 Y25.929
N3435 X-17.213 Y25.947
N3440 X-17.227 Y25.963
N3445 X-17.267 Y25.998
N3450 X-17.283 Y26.009
N3455 X-17.301 Y26.014
N3460 X-17.356 Y26.023
N3465 X-17.376 Y26.024
N3470 X-17.396 Y26.019
N3475 X-17.578 Y25.945
N3480 X-17.59 Y25.938
N3485 X-17.597 Y25.927
N3490 X-17.667 Y25.756
N3495 X-17.672 Y25.737
N3500 X-17.671 Y25.717
N3505 X-17.598 Y25.301
N3510 X-16.596 Y21.347
N3515 X-16.584 Y21.301
N3520 X-16.571 Y21.256
N3525 X-16.553 Y21.188
N3530 X-16.535 Y21.119
N3535 X-16.517 Y21.051
N3540 X-16.498 Y20.983
N3545 X-16.485 Y20.95
N3550 X-16.472 Y20.917
N3555 X-16.391 Y20.719
N3560 X-16.378 Y20.695
N3565 X-16.361 Y20.674
N3570 X-16.26 Y20.573
N3575 X-16.244 Y20.561
N3580 X-16.226 Y20.555
N3585 X-16.055 Y20.517
N3590 X-16.035 Y20.515
N3595 X-16.015 Y20.519
N3600 X-15.773 Y20.597
N3605 X-15.758 Y20.605
N3610 X-15.745 Y20.617
N3615 X-15.627 Y20.779
N3620 X-15.61 Y20.807
N3625 X-15.598 Y20.837
N3630 X-15.449 Y21.335
N3635 X-14.505 Y24.873
N3640 G2 X-13.961 Y24.875 I0.272 J-0.073
N3645 G1 X-12.988 Y21.348
N3650 X-12.831 Y20.845
N3655 X-12.819 Y20.816
N3660 X-12.802 Y20.789
N3665 X-12.685 Y20.633
N3670 X-12.672 Y20.621
N3675 X-12.657 Y20.614
N3680 X-12.423 Y20.542
N3685 X-12.405 Y20.54
N3690 X-12.388 Y20.543
N3695 X-12.149 Y20.619
N3700 X-12.135 Y20.627
N3705 X-12.123 Y20.638
N3710 X-12.009 Y20.807
N3715 X-11.992 Y20.837
N3720 X-11.981 Y20.868
N3725 X-11.841 Y21.377
N3730 X-10.886 Y25.34
N3735 X-10.817 Y25.757
N3740 Y25.776
N3745 X-10.822 Y25.795
N3750 X-10.895 Y25.967
N3755 X-10.903 Y25.978
N3760 X-10.914 Y25.985
N3765 X-11.077 Y26.048
N3770 X-11.092 Y26.051
N3775 X-11.107 Y26.048
N3780 X-11.241 Y26.002
N3785 X-11.255 Y25.994
N3790 X-11.266 Y25.982
N3795 X-11.334 Y25.873
N3800 X-11.35 Y25.843
N3805 X-11.361 Y25.81
N3810 X-11.398 Y25.657
N3815 G3 X-11.444 Y25.468 I14.356 J-3.532
N3820 G1 X-11.529 Y25.076
N3825 G2 X-11.647 Y24.962 I-0.144 J0.031
N3830 G3 X-11.764 Y24.849 I0.026 J-0.145
N3835 G1 X-12.373 Y22.061
N3840 G2 X-12.567 Y22.055 I-0.098 J0.021
N3845 G1 X-13.458 Y25.272
N3850 X-13.629 Y25.825
N3855 X-13.833 Y26.104
N3860 X-14.242 Y26.229
N3865 X-14.651 Y26.104
N3870 X-14.868 Y25.809
N3875 X-15.033 Y25.263
N3880 X-15.879 Y22.036
N3885 G2 X-16.073 Y22.039 I-0.097 J0.025
N3890 G1 X-16.864 Y25.475
N3895 X-17.055 Y26.051
N3900 X-17.201 Y26.181
N3905 X-17.397 Y26.212
N3910 X-17.73 Y26.079
N3915 X-17.861 Y25.757
N3920 X-17.775 Y25.263
N3925 X-16.771 Y21.301
N3930 X-16.67 Y20.924
N3935 X-16.534 Y20.592
N3940 X-16.336 Y20.394
N3945 X-16.026 Y20.326
N3950 X-15.645 Y20.449
N3955 X-15.444 Y20.724
N3960 X-15.274 Y21.285
N3965 X-14.329 Y24.826
N3970 G2 X-14.136 Y24.827 I0.097 J-0.026
N3975 G1 X-13.162 Y21.297
N3980 X-12.984 Y20.731
N3985 X-12.783 Y20.464
N3990 X-12.404 Y20.348
N3995 X-12.019 Y20.472
N4000 X-11.824 Y20.759
N4005 X-11.665 Y21.332
N4010 X-10.708 Y25.304
N4015 X-10.628 Y25.799
N4020 X-10.765 Y26.121
N4025 X-11.089 Y26.245
N4030 X-11.376 Y26.146
N4035 X-11.52 Y25.915
N4040 X-11.62 Y25.509
N4045 X-11.764 Y24.849
N4050 Z15.
N4055 X-6.529 Y30.73
N4060 Z5.
N4065 Z2.5 F100.
N4070 Z-1.
N4075 G2 X-6.649 Y30.739 I-0.004 J0.727 F500.
N4080 G1 X-6.625 Y30.648
N4085 X-6.542 Y30.342
N4090 X-6.527 Y30.304
N4095 X-6.43 Y30.655
N4100 X-6.409 Y30.74
N4105 G2 X-6.529 Y30.73 I-0.124 J0.716
N4110 X-6.634 Y30.804 I-0.001 J0.111
N4115 G3 X-6.726 Y30.895 I-0.14 J-0.049
N4120 G2 X-6.84 Y30.949 I0.193 J0.562
N4125 G1 X-6.754 Y30.614
N4130 X-6.668 Y30.299
N4135 X-6.599 Y30.13
N4140 X-6.571 Y30.101
N4145 X-6.545 Y30.095
N4150 X-6.465 Y30.121
N4155 X-6.421 Y30.186
N4160 X-6.301 Y30.621
N4165 X-6.22 Y30.952
N4170 G2 X-6.726 Y30.895 I-0.313 J0.505
N4175 G1 Z5.
N4180 X-8.724 Y34.781
N4185 Z2.5 F100.
N4190 Z-1.
N4195 X-8.728 Y34.78 F500.
N4200 X-8.743 Y34.77
N4205 X-8.749 Y34.752
N4210 Y34.708
N4215 X-8.745 Y34.699
N4220 X-8.736 Y34.694
N4225 X-8.726 Y34.698
N4230 G2 X-8.567 Y34.803 I0.431 J-0.482
N4235 G1 X-8.57 Y34.819
N4240 X-8.715 Y34.783
N4245 X-8.724 Y34.781
N4250 X-8.742
N4255 X-8.757 Y34.789
N4260 X-8.766 Y34.804
N4265 X-8.776 Y34.817
N4270 X-8.792 Y34.821
N4275 X-8.807 Y34.814
N4280 X-8.814 Y34.799
N4285 X-8.818 Y34.773
N4290 X-8.816 Y34.467
N4295 G2 X-8.033 Y34.732 I0.521 J-0.251
N4300 G1 X-8.075 Y34.86
N4305 X-8.318 Y34.889
N4310 X-8.582 Y34.887
N4315 X-8.811 Y34.829
N4320 X-8.814 Y34.799
N4325 Z5.
N4330 X-4.378 Y34.804
N4335 Z2.5 F100.
N4340 Z-1.
N4345 X-4.529 Y34.841 F500.
N4350 X-4.536 Y34.825
N4355 G2 X-4.376 Y34.722 I-0.266 J-0.59
N4360 G1 X-4.366 Y34.718
N4365 X-4.356 Y34.723
N4370 X-4.352 Y34.732
N4375 X-4.353 Y34.768
N4380 Y34.776
N4385 X-4.359 Y34.794
N4390 X-4.374 Y34.804
N4395 X-4.378
N4400 X-4.397 Y34.814
N4405 X-4.412 Y34.829
N4410 X-4.419 Y34.85
N4415 X-4.427 Y34.87
N4420 X-4.442 Y34.886
N4425 X-4.461 Y34.895
N4430 X-4.522 Y34.909
N4435 X-4.786 Y34.908
N4440 X-5.028 Y34.876
N4445 X-5.069 Y34.748
N4450 G2 X-4.283 Y34.492 I0.267 J-0.513
N4455 G1 X-4.285 Y34.798
N4460 X-4.292 Y34.854
N4465 X-4.461 Y34.895
N4470 X-4.492 Y34.909
N4475 X-4.516 Y34.933
N4480 X-4.529 Y34.964
N4485 X-4.544 Y34.995
N4490 X-4.571 Y35.017
N4495 X-4.605 Y35.024
N4500 X-4.793 Y35.023
N4505 X-5.095 Y34.984
N4510 X-5.124 Y34.955
N4515 X-5.248 Y34.565
N4520 X-6.084 Y31.341
N4525 G2 X-6.98 Y31.336 I-0.449 J0.116
N4530 G1 X-7.852 Y34.55
N4535 X-7.98 Y34.94
N4540 X-8.009 Y34.968
N4545 X-8.311 Y35.004
N4550 X-8.596 Y35.002
N4555 X-8.916 Y34.921
N4560 X-8.933 Y34.779
N4565 X-8.908 Y30.208
N4570 X-8.836 Y29.973
N4575 X-8.822 Y29.967
N4580 X-8.804 Y29.975
N4585 X-8.736 Y30.208
N4590 X-8.758 Y34.213
N4595 G2 X-7.846 Y34.331 I0.463 J0.003
N4600 G1 X-6.88 Y30.581
N4605 X-6.792 Y30.257
N4610 X-6.709 Y30.056
N4615 X-6.638 Y29.984
N4620 X-6.54 Y29.959
N4625 X-6.382 Y30.011
N4630 X-6.301 Y30.131
N4635 X-6.175 Y30.588
N4640 X-5.252 Y34.346
N4645 G2 X-4.338 Y34.238 I0.45 J-0.111
N4650 G1 X-4.316 Y30.234
N4655 X-4.244 Y29.998
N4660 X-4.232 Y29.993
N4665 X-4.212 Y30.002
N4670 X-4.144 Y30.234
N4675 X-4.169 Y34.805
N4680 X-4.188 Y34.947
N4685 X-4.508 Y35.025
N4690 X-4.605 Y35.024
N4695 G2 X-4.738 Y35.115 I-0.001 J0.142
N4700 G3 X-4.878 Y35.196 I-0.12 J-0.046
N4705 G1 X-4.926 Y35.189
N4710 G2 X-5.043 Y35.175 I-1.184 J9.104
N4715 G3 X-5.159 Y35.16 I1.067 J-9.119
N4720 G1 X-5.178 Y35.155
N4725 X-5.194 Y35.143
N4730 X-5.266 Y35.073
N4735 X-5.282 Y35.052
N4740 X-5.293 Y35.028
N4745 X-5.423 Y34.615
N4750 X-6.26 Y31.386
N4755 G2 X-6.805 Y31.383 I-0.273 J0.071
N4760 G1 X-7.678 Y34.603
N4765 X-7.812 Y35.015
N4770 X-7.823 Y35.038
N4775 X-7.839 Y35.059
N4780 X-7.912 Y35.128
N4785 X-7.928 Y35.14
N4790 X-7.947 Y35.145
N4795 G3 X-8.064 Y35.158 I-1.084 J-9.113
N4800 G2 X-8.181 Y35.171 I0.967 J9.127
N4805 G1 X-8.241 Y35.179
N4810 X-8.301 Y35.186
N4815 X-8.34
N4820 X-8.378
N4825 X-8.61 Y35.185
N4830 X-8.629 Y35.183
N4835 X-9.01 Y35.086
N4840 X-9.026 Y35.079
N4845 X-9.039 Y35.066
N4850 X-9.077 Y35.012
N4855 X-9.089 Y34.989
N4860 X-9.095 Y34.964
N4865 X-9.097 Y34.953
N4870 X-9.098 Y34.942
N4875 X-9.106 Y34.866
N4880 X-9.115 Y34.789
N4885 X-9.091 Y30.192
N4890 X-9.087 Y30.169
N4895 X-8.99 Y29.852
N4900 X-8.983 Y29.839
N4905 X-8.971 Y29.831
N4910 X-8.837 Y29.775
N4915 X-8.821 Y29.772
N4920 X-8.806 Y29.775
N4925 X-8.666 Y29.835
N4930 X-8.655 Y29.843
N4935 X-8.648 Y29.856
N4940 X-8.556 Y30.172
N4945 X-8.553 Y30.194
N4950 X-8.576 Y34.214
N4955 G2 X-8.022 Y34.286 I0.282 J0.002
N4960 G1 X-7.056 Y30.535
N4965 X-7.045 Y30.492
N4970 X-7.033 Y30.45
N4975 X-7.016 Y30.387
N4980 X-6.999 Y30.324
N4985 X-6.982 Y30.261
N4990 X-6.964 Y30.198
N4995 X-6.944 Y30.144
N5000 X-6.921 Y30.091
N5005 X-6.9 Y30.038
N5010 X-6.878 Y29.984
N5015 X-6.862 Y29.955
N5020 X-6.842 Y29.929
N5025 X-6.749 Y29.835
N5030 X-6.731 Y29.821
N5035 X-6.709 Y29.813
N5040 X-6.555 Y29.774
N5045 X-6.533 Y29.772
N5050 X-6.511 Y29.776
N5055 X-6.285 Y29.85
N5060 X-6.268 Y29.859
N5065 X-6.255 Y29.873
N5070 X-6.154 Y30.02
N5075 X-6.135 Y30.054
N5080 X-6.122 Y30.09
N5085 X-5.999 Y30.542
N5090 X-5.074 Y34.306
N5095 G2 X-4.52 Y34.237 I0.273 J-0.071
N5100 G1 X-4.499 Y30.217
N5105 X-4.496 Y30.194
N5110 X-4.399 Y29.878
N5115 X-4.391 Y29.866
N5120 X-4.379 Y29.857
N5125 X-4.247 Y29.801
N5130 X-4.232 Y29.798
N5135 X-4.216 Y29.801
N5140 X-4.075 Y29.861
N5145 X-4.063 Y29.869
N5150 X-4.056 Y29.882
N5155 X-3.964 Y30.197
N5160 X-3.961 Y30.22
N5165 X-3.988 Y34.818
N5170 X-3.993 Y34.861
N5175 X-3.998 Y34.905
N5180 X-4.004 Y34.949
N5185 X-4.009 Y34.992
N5190 X-4.016 Y35.017
N5195 X-4.028 Y35.04
N5200 X-4.066 Y35.094
N5205 X-4.079 Y35.106
N5210 X-4.096 Y35.113
N5215 X-4.478 Y35.206
N5220 X-4.497 Y35.208
N5225 X-4.516
N5230 X-4.552
N5235 X-4.589 Y35.207
N5240 X-4.643
N5245 X-4.697 Y35.206
N5250 X-4.751 Y35.205
N5255 X-4.806
N5260 X-4.866 Y35.198
N5265 X-4.878 Y35.196
N5270 G2 X-5.027 Y35.267 I-0.022 J0.145
N5275 G3 X-5.175 Y35.34 I-0.129 J-0.075
N5280 G1 X-5.263 Y35.329
N5285 X-5.443 Y35.151
N5290 X-5.597 Y34.665
N5295 X-6.436 Y31.432
N5300 G2 X-6.629 Y31.431 I-0.097 J0.025
N5305 G1 X-7.504 Y34.655
N5310 X-7.663 Y35.139
N5315 X-7.845 Y35.314
N5320 X-8.291 Y35.367
N5325 X-8.643 Y35.365
N5330 X-9.137 Y35.24
N5335 X-9.266 Y35.057
N5340 X-9.296 Y34.8
N5345 X-9.271 Y30.153
N5350 X-9.133 Y29.703
N5355 X-8.82 Y29.573
N5360 X-8.503 Y29.709
N5365 X-8.372 Y30.158
N5370 X-8.394 Y34.215
N5375 G2 X-8.198 Y34.241 I0.1 J0.001
N5380 G1 X-7.231 Y30.488
N5385 X-7.137 Y30.139
N5390 X-7.018 Y29.852
N5395 X-6.825 Y29.656
N5400 X-6.526 Y29.581
N5405 X-6.152 Y29.705
N5410 X-5.966 Y29.976
N5415 X-5.823 Y30.497
N5420 X-4.899 Y34.259
N5425 G2 X-4.702 Y34.236 I0.097 J-0.024
N5430 G1 X-4.679 Y30.178
N5435 X-4.542 Y29.73
N5440 X-4.232 Y29.598
N5445 X-3.911 Y29.734
N5450 X-3.781 Y30.183
N5455 X-3.806 Y34.83
N5460 X-3.84 Y35.087
N5465 X-3.97 Y35.268
N5470 X-4.466 Y35.388
N5475 X-4.818 Y35.387
N5480 X-5.175 Y35.34
N5485 Z15.
N5490 X-1.752 Y32.711
N5495 Z5.
N5500 Z2.5 F100.
N5505 Z-1.
N5510 X-1.807 Y32.783 F500.
N5515 X-1.828 Y32.777
N5520 X-1.827 Y32.587
N5525 X-1.806 Y32.581
N5530 G2 X-1.745 Y32.662 I0.537 J-0.347
N5535 G1 X-1.738 Y32.675
N5540 Y32.69
N5545 X-1.745 Y32.703
N5550 X-1.752 Y32.711
N5555 X-1.767 Y32.737
N5560 X-1.77 Y32.767
N5565 X-1.762 Y32.796
N5570 X-1.752 Y32.823
N5575 Y32.853
N5580 X-1.761 Y32.881
N5585 G2 X-1.824 Y33.133 I0.487 J0.255
N5590 G1 X-1.832 Y34.581
N5595 G2 X-1.689 Y34.954 I0.55 J0.003
N5600 G1 X-1.894 Y34.918
N5605 X-1.929 Y34.72
N5610 X-1.905 Y30.364
N5615 X-1.887 Y30.202
N5620 X-1.875 Y30.181
N5625 X-1.854 Y30.17
N5630 X-1.692 Y30.154
N5635 X-1.635
N5640 G2 X-1.81 Y30.553 I0.375 J0.402
N5645 G1 X-1.819 Y32.231
N5650 G2 X-1.587 Y32.683 I0.55 J0.003
N5655 X-1.761 Y32.881 I0.312 J0.452
N5660 X-1.742 Y33.008 I0.097 J0.051
N5665 G3 X-1.694 Y33.127 I-0.117 J0.116
N5670 G1 X-1.695 Y33.133
N5675 X-1.702 Y34.582
N5680 G2 X-1.285 Y35.005 I0.42 J0.002
N5685 G1 X1.346 Y35.019
N5690 X1.482 Y35.06
N5695 X1.346 Y35.1
N5700 X-1.711 Y35.083
N5705 X-1.961 Y35.037
N5710 X-2.014 Y34.985
N5715 X-2.058 Y34.731
N5720 X-2.034 Y30.357
N5725 X-2.013 Y30.163
N5730 X-1.971 Y30.085
N5735 X-1.893 Y30.044
N5740 X-1.698 Y30.024
N5745 X1.464 Y30.042
N5750 X1.639 Y30.097
N5755 X1.464 Y30.151
N5760 X-1.258 Y30.136
N5765 G2 X-1.68 Y30.554 I-0.002 J0.42
N5770 G1 X-1.69 Y32.232
N5775 G2 X-1.272 Y32.655 I0.42 J0.002
N5780 G1 X1.144 Y32.668
N5785 X1.245 Y32.7
N5790 X1.145 Y32.729
N5795 X-1.272 Y32.716
N5800 G2 X-1.694 Y33.127 I-0.002 J0.42
N5805 X-1.625 Y33.234 I0.114 J0.002
N5810 G3 X-1.555 Y33.34 I-0.045 J0.106
N5815 G1 X-1.562 Y34.583
N5820 G2 X-1.284 Y34.864 I0.28 J0.002
N5825 G1 X1.367 Y34.879
N5830 X1.624 Y34.957
N5835 X1.667 Y35.063
N5840 X1.624 Y35.165
N5845 X1.365 Y35.241
N5850 X-1.724 Y35.224
N5855 X-2.03 Y35.167
N5860 X-2.144 Y35.053
N5865 X-2.198 Y34.743
N5870 X-2.174 Y30.349
N5875 X-2.149 Y30.12
N5880 X-2.074 Y29.982
N5885 X-1.934 Y29.907
N5890 X-1.705 Y29.884
N5895 X1.486 Y29.902
N5900 X1.745 Y29.983
N5905 X1.791 Y30.096
N5910 X1.742 Y30.213
N5915 X1.484 Y30.291
N5920 X-1.259 Y30.276
N5925 G2 X-1.54 Y30.555 I-0.002 J0.28
N5930 G1 X-1.549 Y32.233
N5935 G2 X-1.271 Y32.514 I0.28 J0.002
N5940 G1 X1.166 Y32.528
N5945 X1.408 Y32.604
N5950 X1.448 Y32.703
N5955 X1.407 Y32.798
N5960 X1.165 Y32.869
N5965 X-1.273 Y32.856
N5970 G2 X-1.554 Y33.134 I-0.002 J0.28
N5975 G1 X-1.555 Y33.34
N5980 G2 X-1.466 Y33.476 I0.146 J0.001
N5985 G3 X-1.377 Y33.611 I-0.057 J0.135
N5990 G1 X-1.382 Y34.584
N5995 G2 X-1.283 Y34.684 I0.1 J0.001
N6000 G1 X1.395 Y34.699
N6005 X1.759 Y34.81
N6010 X1.862 Y35.064
N6015 X1.756 Y35.314
N6020 X1.391 Y35.421
N6025 X-1.741 Y35.403
N6030 X-2.117 Y35.334
N6035 X-2.311 Y35.14
N6040 X-2.378 Y34.759
N6045 X-2.354 Y30.338
N6050 X-2.324 Y30.065
N6055 X-2.206 Y29.848
N6060 X-1.987 Y29.732
N6065 X-1.713 Y29.704
N6070 X1.514 Y29.722
N6075 X1.879 Y29.837
N6080 X1.986 Y30.096
N6085 X1.876 Y30.361
N6090 X1.51 Y30.472
N6095 X-1.26 Y30.456
N6100 G2 X-1.36 Y30.556 I-0.001 J0.1
N6105 G1 X-1.369 Y32.234
N6110 G2 X-1.27 Y32.334 I0.1 J0.001
N6115 G1 X1.194 Y32.348
N6120 X1.544 Y32.458
N6125 X1.642 Y32.705
N6130 X1.54 Y32.946
N6135 X1.19 Y33.049
N6140 X-1.274 Y33.036
N6145 G2 X-1.374 Y33.135 I-0.001 J0.1
N6150 G1 X-1.377 Y33.611
N6155 Z15.
N6160 X7.254 Y31.129
N6165 Z5.
N6170 Z2.5 F100.
N6175 Z-1.
N6180 X7.48 Y31.766 F500.
N6185 X7.557 Y32.627
N6190 X7.511 Y33.217
N6195 X7.39 Y33.742
N6200 X7.134 Y34.204
N6205 X6.788 Y34.631
N6210 X6.53 Y34.809
N6215 X6.232 Y34.924
N6220 X6.221 Y34.925
N6225 X6.579 Y34.723
N6230 G2 X6.727 Y34.599 I-0.256 J-0.454
N6235 G1 X7.002 Y34.262
N6240 G2 X7.091 Y34.103 I-0.404 J-0.33
N6245 G1 X7.312 Y33.469
N6250 G2 X7.339 Y33.337 I-0.493 J-0.171
N6255 G1 X7.389 Y32.664
N6260 X7.391 Y32.616
N6265 X7.388 Y32.568
N6270 X7.283 Y31.623
N6275 G2 X7.212 Y31.41 I-0.518 J0.057
N6280 G1 X6.726 Y30.606
N6285 G2 X6.543 Y30.425 I-0.446 J0.27
N6290 G1 X6.38 Y30.331
N6295 X6.478 Y30.36
N6300 X6.861 Y30.616
N6305 X7.249 Y31.115
N6310 X7.254 Y31.129
N6315 Z5.
N6320 X3.665 Y34.922
N6325 Z2.5 F100.
N6330 Z-1.
N6335 X3.663 Y34.921 F500.
N6340 X3.646 Y34.913
N6345 X3.638 Y34.896
N6350 X3.634 Y34.864
N6355 X3.632 Y34.832
N6360 X3.628 Y34.788
N6365 X3.625 Y34.743
N6370 X3.643 Y34.741
N6375 G2 X3.712 Y34.903 I0.579 J-0.15
N6380 G1 X3.714 Y34.914
N6385 X3.709 Y34.923
N6390 X3.698 Y34.925
N6395 X3.673 Y34.922
N6400 X3.665
N6405 X3.64 Y34.926
N6410 X3.621 Y34.944
N6415 X3.605 Y34.956
N6420 X3.586 Y34.955
N6425 X3.571 Y34.942
N6430 X3.569 Y34.94
N6435 X3.552 Y34.772
N6440 X3.576 Y30.503
N6445 X3.609 Y30.214
N6450 X3.861 Y30.161
N6455 X3.936
N6460 G2 X3.719 Y30.584 I0.309 J0.426
N6465 G1 X3.697 Y34.588
N6470 G2 X3.904 Y35.009 I0.526 J0.003
N6475 G1 X3.786 Y35.008
N6480 X3.619 Y34.989
N6485 X3.587 Y34.972
N6490 X3.571 Y34.942
N6495 X3.553 Y34.919
N6500 X3.53 Y34.902
N6505 X3.502 Y34.892
N6510 X3.474 Y34.88
N6515 X3.454 Y34.858
N6520 X3.444 Y34.829
N6525 X3.439 Y34.778
N6530 X3.463 Y30.496
N6535 X3.5 Y30.17
N6540 X3.55 Y30.106
N6545 X3.85 Y30.047
N6550 X5.352 Y30.056
N6555 X6.022 Y30.107
N6560 X6.525 Y30.261
N6565 X6.936 Y30.535
N6570 X7.346 Y31.062
N6575 X7.587 Y31.743
N6580 X7.667 Y32.626
N6585 X7.619 Y33.234
N6590 X7.492 Y33.782
N6595 X7.225 Y34.265
N6600 X6.863 Y34.711
N6605 X6.581 Y34.906
N6610 X6.258 Y35.031
N6615 X5.292 Y35.13
N6620 X3.779 Y35.121
N6625 X3.584 Y35.099
N6630 X3.503 Y35.055
N6635 X3.459 Y34.973
N6640 X3.444 Y34.829
N6645 G2 X3.375 Y34.739 I-0.108 J0.011
N6650 G3 X3.31 Y34.645 I0.035 J-0.094
N6655 G1 X3.333 Y30.488
N6660 X3.341 Y30.405
N6665 X3.351 Y30.322
N6670 X3.359 Y30.238
N6675 X3.368 Y30.155
N6680 X3.377 Y30.119
N6685 X3.396 Y30.088
N6690 X3.458 Y30.009
N6695 X3.479 Y29.99
N6700 X3.505 Y29.98
N6705 X3.825 Y29.917
N6710 X3.85 Y29.915
N6715 X5.357 Y29.926
N6720 X6.033 Y29.975
N6725 X6.06 Y29.981
N6730 X6.564 Y30.134
N6735 X6.598 Y30.15
N6740 X7.01 Y30.425
N6745 X7.04 Y30.453
N6750 X7.451 Y30.981
N6755 X7.47 Y31.017
N6760 X7.712 Y31.699
N6765 X7.719 Y31.73
N6770 X7.798 Y32.615
N6775 X7.799 Y32.636
N6780 X7.751 Y33.244
N6785 X7.748 Y33.263
N6790 X7.621 Y33.812
N6795 X7.608 Y33.845
N6800 X7.341 Y34.329
N6805 X7.328 Y34.348
N6810 X6.965 Y34.795
N6815 X6.939 Y34.82
N6820 X6.656 Y35.015
N6825 X6.629 Y35.029
N6830 X6.305 Y35.154
N6835 X6.272 Y35.162
N6840 X5.298 Y35.26
N6845 X3.771 Y35.251
N6850 X3.682 Y35.244
N6855 X3.596 Y35.234
N6860 G3 X3.497 Y35.203 I0.03 J-0.267
N6865 G1 X3.436 Y35.169
N6870 X3.408 Y35.148
N6875 X3.387 Y35.12
N6880 X3.355 Y35.059
N6885 G3 X3.325 Y34.96 I0.237 J-0.126
N6890 G1 X3.316 Y34.873
N6895 X3.309 Y34.784
N6900 X3.31 Y34.645
N6905 G2 X3.219 Y34.507 I-0.148 J-0.001
N6910 G3 X3.129 Y34.37 I0.058 J-0.137
N6915 G1 X3.15 Y30.477
N6920 X3.199 Y30.046
N6925 X3.376 Y29.822
N6930 X3.821 Y29.735
N6935 X5.365 Y29.743
N6940 X6.08 Y29.798
N6945 X6.66 Y29.975
N6950 X7.152 Y30.303
N6955 X7.623 Y30.91
N6960 X7.895 Y31.675
N6965 X7.98 Y32.624
N6970 X7.929 Y33.281
N6975 X7.787 Y33.895
N6980 X7.485 Y34.44
N6985 X7.077 Y34.943
N6990 X6.728 Y35.184
N6995 X6.331 Y35.337
N7000 X5.307 Y35.442
N7005 X3.761 Y35.434
N7010 X3.488 Y35.403
N7015 X3.271 Y35.284
N7020 X3.154 Y35.066
N7025 X3.126 Y34.793
N7030 X3.129 Y34.37
N7035 G3 X3.493 Y34.257 I0.2 J0.001
N7040 G1 X3.859 Y34.785
N7045 G2 X4.22 Y35.003 I0.364 J-0.195
N7050 G1 X5.009 Y35.008
N7055 X5.061 Y35.005
N7060 X5.996 Y34.891
N7065 G2 X6.148 Y34.841 I-0.05 J-0.41
N7070 G1 X6.526 Y34.628
N7075 G2 X6.642 Y34.53 I-0.203 J-0.359
N7080 G1 X6.918 Y34.193
N7085 G2 X6.988 Y34.067 I-0.319 J-0.261
N7090 G1 X7.209 Y33.433
N7095 G2 X7.231 Y33.329 I-0.39 J-0.136
N7100 G1 X7.281 Y32.656
N7105 X7.28 Y32.58
N7110 X7.175 Y31.635
N7115 G2 X7.118 Y31.467 I-0.41 J0.045
N7120 G1 X6.633 Y30.662
N7125 G2 X6.488 Y30.519 I-0.353 J0.213
N7130 G1 X6.175 Y30.336
N7135 G2 X6.061 Y30.291 I-0.208 J0.356
N7140 G1 X5.712 Y30.209
N7145 X5.633 Y30.198
N7150 X5.167 Y30.179
N7155 X5.152
N7160 X4.247 Y30.174
N7165 G2 X3.832 Y30.584 I-0.002 J0.413
N7170 G1 X3.81 Y34.588
N7175 G2 X3.859 Y34.785 I0.413 J0.002
N7180 X3.98 Y34.84 I0.097 J-0.052
N7185 G3 X4.112 Y34.852 I0.048 J0.212
N7190 G2 X4.221 Y34.874 I0.11 J-0.262
N7195 G1 X5.046 Y34.877
N7200 X5.98 Y34.763
N7205 G2 X6.085 Y34.729 I-0.034 J-0.282
N7210 G1 X6.484 Y34.502
N7215 X6.515 Y34.477
N7220 X6.543 Y34.448
N7225 X6.819 Y34.111
N7230 X6.847 Y34.07
N7235 X6.867 Y34.025
N7240 X7.096 Y33.362
N7245 X7.102 Y33.319
N7250 X7.152 Y32.646
N7255 Y32.594
N7260 X7.047 Y31.649
N7265 G2 X7.008 Y31.533 I-0.282 J0.031
N7270 G1 X6.522 Y30.729
N7275 G2 X6.423 Y30.631 I-0.243 J0.147
N7280 G1 X6.11 Y30.448
N7285 X6.072 Y30.429
N7290 X6.032 Y30.416
N7295 X5.682 Y30.334
N7300 X5.628 Y30.327
N7305 X5.152 Y30.308
N7310 X4.246 Y30.303
N7315 G2 X3.961 Y30.585 I-0.002 J0.284
N7320 G1 X3.939 Y34.589
N7325 G2 X4.112 Y34.852 I0.284 J0.002
N7330 X4.293 Y34.789 I0.056 J-0.132
N7335 G3 X4.459 Y34.692 I0.164 J0.09
N7340 G1 X5.011 Y34.695
N7345 X5.024 Y34.694
N7350 X5.958 Y34.581
N7355 X5.995 Y34.568
N7360 X6.372 Y34.356
N7365 X6.4 Y34.332
N7370 X6.676 Y33.995
N7375 X6.693 Y33.965
N7380 X6.914 Y33.331
N7385 X6.919 Y33.305
N7390 X6.969 Y32.633
N7395 Y32.614
N7400 X6.864 Y31.669
N7405 X6.86 Y31.648
N7410 X6.851 Y31.628
N7415 X6.365 Y30.824
N7420 X6.35 Y30.804
N7425 X6.33 Y30.789
N7430 X6.017 Y30.606
N7435 X5.99 Y30.595
N7440 X5.64 Y30.513
N7445 X5.621 Y30.51
N7450 X5.154 Y30.492
N7455 X4.245 Y30.487
N7460 G2 X4.145 Y30.586 I-0.001 J0.1
N7465 G1 X4.123 Y34.59
N7470 G2 X4.222 Y34.691 I0.1 J0.001
N7475 G1 X4.459 Y34.692
N7480 Z15.
N7485 X15.136 Y23.363
N7490 Z5.
N7495 Z2.5 F100.
N7500 Z-1.
N7505 Y23.396 F500.
N7510 X15.104 Y23.363
N7515 X15.136 Y23.329
N7520 Y23.363
N7525 G2 X15.2 Y23.46 I0.105 J0.001
N7530 G3 X15.264 Y23.557 I-0.041 J0.096
N7535 G1 X15.252 Y25.51
N7540 X15.234 Y25.664
N7545 X15.216 Y25.699
N7550 X15.204 Y25.701
N7555 X15.183 Y25.665
N7560 X15.166 Y25.51
N7565 X15.176 Y23.85
N7570 G2 X14.89 Y23.361 I-0.555 J-0.003
N7575 X15.182 Y22.876 I-0.263 J-0.488
N7580 G1 X15.193 Y20.922
N7585 X15.211 Y20.764
N7590 X15.23 Y20.728
N7595 X15.242 Y20.73
N7600 X15.262 Y20.769
N7605 X15.279 Y20.924
N7610 X15.264 Y23.557
N7615 Z5.
N7620 X11.556 Y23.351
N7625 Z2.5 F100.
N7630 Z-1.
N7635 X11.533 Y23.375 F500.
N7640 Y23.308
N7645 X11.565 Y23.342
N7650 X11.556 Y23.351
N7655 G2 X11.536 Y23.475 I0.077 J0.076
N7660 G3 X11.538 Y23.6 I-0.13 J0.065
N7665 G2 X11.487 Y23.828 I0.504 J0.232
N7670 G1 X11.478 Y25.488
N7675 X11.46 Y25.642
N7680 X11.441 Y25.677
N7685 X11.427 Y25.679
N7690 X11.408 Y25.647
N7695 X11.392 Y25.489
N7700 X11.418 Y20.9
N7705 X11.437 Y20.742
N7710 X11.455 Y20.706
N7715 X11.467 Y20.708
N7720 X11.488 Y20.747
N7725 X11.504 Y20.902
N7730 X11.493 Y22.855
N7735 G2 X11.779 Y23.343 I0.555 J0.003
N7740 X11.538 Y23.6 I0.263 J0.488
N7745 G1 X11.531 Y23.629
N7750 X11.537 Y23.658
N7755 X11.553 Y23.682
N7760 X11.571 Y23.705
N7765 X11.58 Y23.733
N7770 Y23.762
N7775 X11.575 Y23.829
N7780 X11.565 Y25.493
N7785 X11.544 Y25.669
N7790 X11.504 Y25.744
N7795 X11.484 Y25.758
N7800 X11.427 Y25.768
N7805 X11.375 Y25.759
N7810 X11.36 Y25.748
N7815 X11.322 Y25.671
N7820 X11.305 Y25.493
N7825 X11.331 Y20.895
N7830 X11.352 Y20.717
N7835 X11.392 Y20.637
N7840 X11.408 Y20.626
N7845 X11.457 Y20.617
N7850 X11.51 Y20.627
N7855 X11.532 Y20.642
N7860 X11.573 Y20.721
N7865 X11.592 Y20.898
N7870 X11.58 Y22.855
N7875 G2 X12.045 Y23.325 I0.467 J0.003
N7880 G1 X14.624 Y23.34
N7885 G2 X15.094 Y22.876 I0.003 J-0.467
N7890 G1 X15.106 Y20.917
N7895 X15.126 Y20.738
N7900 X15.167 Y20.659
N7905 X15.183 Y20.648
N7910 X15.231 Y20.639
N7915 X15.285 Y20.649
N7920 X15.306 Y20.664
N7925 X15.347 Y20.743
N7930 X15.366 Y20.92
N7935 X15.34 Y25.515
N7940 X15.319 Y25.691
N7945 X15.279 Y25.766
N7950 X15.258 Y25.78
N7955 X15.203 Y25.79
N7960 X15.154 Y25.78
N7965 X15.137 Y25.768
N7970 X15.097 Y25.691
N7975 X15.079 Y25.514
N7980 X15.089 Y23.849
N7985 G2 X14.624 Y23.379 I-0.467 J-0.003
N7990 G1 X12.045 Y23.364
N7995 G2 X11.58 Y23.762 I-0.003 J0.467
N8000 X11.663 Y23.916 I0.145 J0.022
N8005 G3 X11.757 Y24.064 I-0.068 J0.147
N8010 G1 X11.749 Y25.505
N8015 X11.741 Y25.599
N8020 X11.73 Y25.693
N8025 X11.723 Y25.725
N8030 X11.71 Y25.755
N8035 X11.675 Y25.821
N8040 G3 X11.599 Y25.906 I-0.21 J-0.112
N8045 G1 X11.587 Y25.915
N8050 X11.554 Y25.932
N8055 X11.518 Y25.942
N8060 X11.456 Y25.953
N8065 X11.426 Y25.955
N8070 X11.396 Y25.952
N8075 X11.339 Y25.942
N8080 X11.302 Y25.931
N8085 X11.268 Y25.912
N8090 X11.249 Y25.898
N8095 X11.217 Y25.869
N8100 X11.194 Y25.834
N8105 X11.154 Y25.752
N8110 X11.143 Y25.723
N8115 X11.137 Y25.692
N8120 X11.128 Y25.597
N8125 X11.121 Y25.501
N8130 X11.148 Y20.884
N8135 X11.156 Y20.788
N8140 X11.166 Y20.693
N8145 X11.172 Y20.662
N8150 X11.184 Y20.633
N8155 X11.227 Y20.549
N8160 X11.25 Y20.515
N8165 X11.281 Y20.487
N8170 X11.302 Y20.472
N8175 X11.336 Y20.453
N8180 X11.373 Y20.442
N8185 X11.427 Y20.433
N8190 X11.458 Y20.43
N8195 X11.489 Y20.433
N8200 X11.548 Y20.444
N8205 X11.583 Y20.455
N8210 X11.616 Y20.473
N8215 X11.642 Y20.492
N8220 X11.673 Y20.519
N8225 X11.696 Y20.553
N8230 X11.74 Y20.637
N8235 X11.752 Y20.667
N8240 X11.758 Y20.699
N8245 X11.768 Y20.793
N8250 X11.775 Y20.888
N8255 X11.764 Y22.856
N8260 G2 X12.046 Y23.142 I0.284 J0.002
N8265 G1 X14.625 Y23.157
N8270 G2 X14.911 Y22.875 I0.002 J-0.284
N8275 G1 X14.922 Y20.906
N8280 X14.93 Y20.81
N8285 X14.941 Y20.715
N8290 X14.947 Y20.684
N8295 X14.959 Y20.655
N8300 X15.002 Y20.571
N8305 X15.025 Y20.537
N8310 X15.056 Y20.509
N8315 X15.077 Y20.494
N8320 X15.111 Y20.475
N8325 X15.148 Y20.464
N8330 X15.201 Y20.455
N8335 X15.233 Y20.452
N8340 X15.264 Y20.455
N8345 X15.322 Y20.466
N8350 X15.358 Y20.477
N8355 X15.39 Y20.495
N8360 X15.417 Y20.513
N8365 X15.447 Y20.541
N8370 X15.47 Y20.575
N8375 X15.514 Y20.659
N8380 X15.527 Y20.689
N8385 X15.533 Y20.721
N8390 X15.543 Y20.815
N8395 X15.55 Y20.91
N8400 X15.523 Y25.526
N8405 X15.515 Y25.621
N8410 X15.504 Y25.715
N8415 X15.498 Y25.747
N8420 X15.485 Y25.777
N8425 X15.45 Y25.843
N8430 G3 X15.373 Y25.928 I-0.21 J-0.112
N8435 G1 X15.361 Y25.936
N8440 X15.328 Y25.954
N8445 X15.293 Y25.964
N8450 X15.232 Y25.974
N8455 X15.201 Y25.977
N8460 X15.171 Y25.974
N8465 X15.116 Y25.964
N8470 X15.08 Y25.952
N8475 X15.047 Y25.934
N8480 X15.025 Y25.918
N8485 X14.995 Y25.89
N8490 X14.972 Y25.856
N8495 X14.93 Y25.773
N8500 X14.918 Y25.743
N8505 X14.912 Y25.712
N8510 X14.902 Y25.618
N8515 X14.895 Y25.523
N8520 X14.905 Y23.848
N8525 G2 X14.623 Y23.563 I-0.284 J-0.002
N8530 G1 X12.044 Y23.548
N8535 G2 X11.758 Y23.83 I-0.002 J0.284
N8540 G1 X11.757 Y24.064
N8545 G2 X11.848 Y24.203 I0.149 J0.001
N8550 G3 X11.939 Y24.341 I-0.058 J0.137
N8555 G1 X11.932 Y25.516
N8560 X11.901 Y25.781
N8565 X11.785 Y25.997
N8570 X11.624 Y26.107
N8575 X11.425 Y26.141
N8580 X11.228 Y26.105
N8585 X11.072 Y25.993
N8590 X10.964 Y25.774
N8595 X10.937 Y25.51
N8600 X10.964 Y20.873
N8605 X10.994 Y20.609
N8610 X11.106 Y20.39
N8615 X11.263 Y20.278
N8620 X11.459 Y20.244
N8625 X11.657 Y20.281
N8630 X11.816 Y20.394
N8635 X11.931 Y20.613
N8640 X11.959 Y20.879
N8645 X11.948 Y22.857
N8650 G2 X12.047 Y22.958 I0.1 J0.001
N8655 G1 X14.627 Y22.973
N8660 G2 X14.727 Y22.873 I0.001 J-0.1
N8665 G1 X14.739 Y20.895
N8670 X14.769 Y20.63
N8675 X14.881 Y20.412
N8680 X15.037 Y20.3
N8685 X15.234 Y20.266
N8690 X15.431 Y20.303
N8695 X15.591 Y20.415
N8700 X15.705 Y20.635
N8705 X15.734 Y20.901
N8710 X15.707 Y25.538
N8715 X15.676 Y25.803
N8720 X15.56 Y26.019
N8725 X15.399 Y26.129
N8730 X15.2 Y26.163
N8735 X15.005 Y26.126
N8740 X14.85 Y26.014
N8745 X14.739 Y25.796
N8750 X14.712 Y25.532
N8755 X14.721 Y23.847
N8760 G2 X14.622 Y23.747 I-0.1 J-0.001
N8765 G1 X12.043 Y23.732
N8770 G2 X11.942 Y23.831 I-0.001 J0.1
N8775 G1 X11.939 Y24.341
N8780 Z15.
N8785 X17.802 Y20.941
N8790 Z5.
N8795 Z2.5 F100.
N8800 Z-1.
N8805 X17.775 Y25.524 F500.
N8810 G3 X17.761 Y25.675 I-2.636 J-0.162
N8815 G1 X17.749 Y25.7
N8820 X17.741 Y25.708
N8825 X17.73
N8830 X17.721 Y25.7
N8835 X17.712 Y25.682
N8840 G3 X17.698 Y25.524 I2.804 J-0.329
N8845 G1 X17.725 Y20.939
N8850 G3 X17.739 Y20.787 I2.541 J0.158
N8855 G1 X17.751 Y20.761
N8860 X17.759 Y20.754
N8865 X17.77
N8870 X17.778 Y20.761
N8875 X17.787 Y20.779
N8880 G3 X17.802 Y20.938 I-2.864 J0.336
N8885 G1 Y20.941
N8890 X17.807 Y20.97
N8895 X17.823 Y20.994
N8900 X17.847 Y21.01
N8905 X17.871 Y21.027
N8910 X17.887 Y21.051
N8915 X17.893 Y21.079
N8920 X17.867 Y25.53
N8925 X17.846 Y25.706
N8930 X17.806 Y25.781
N8935 X17.785 Y25.795
N8940 X17.731 Y25.804
N8945 X17.682 Y25.795
N8950 X17.665 Y25.782
N8955 X17.625 Y25.704
N8960 X17.606 Y25.528
N8965 X17.633 Y20.933
N8970 X17.654 Y20.757
N8975 X17.697 Y20.676
N8980 X17.716 Y20.663
N8985 X17.762 Y20.654
N8990 X17.814 Y20.664
N8995 X17.834 Y20.678
N9000 X17.875 Y20.756
N9005 X17.893 Y20.934
N9010 Y21.079
N9015 G2 X17.984 Y21.218 I0.149 J0.001
N9020 G3 X18.075 Y21.356 I-0.058 J0.137
N9025 G1 X18.05 Y25.541
N9030 X18.042 Y25.635
N9035 X18.032 Y25.73
N9040 X18.025 Y25.761
N9045 X18.012 Y25.792
N9050 X17.977 Y25.858
N9055 G3 X17.9 Y25.943 I-0.211 J-0.112
N9060 G1 X17.888 Y25.951
N9065 X17.856 Y25.968
N9070 X17.82 Y25.979
N9075 X17.76 Y25.989
N9080 X17.729 Y25.991
N9085 X17.698 Y25.988
N9090 X17.645 Y25.978
N9095 X17.608 Y25.967
N9100 X17.575 Y25.948
N9105 X17.553 Y25.932
N9110 X17.523 Y25.904
N9115 X17.5 Y25.87
N9120 X17.457 Y25.787
N9125 X17.445 Y25.757
N9130 X17.439 Y25.726
N9135 X17.43 Y25.632
N9140 X17.423 Y25.537
N9145 X17.449 Y20.921
N9150 X17.458 Y20.827
N9155 X17.468 Y20.732
N9160 X17.475 Y20.701
N9165 X17.488 Y20.671
N9170 X17.533 Y20.586
N9175 X17.556 Y20.553
N9180 X17.586 Y20.526
N9185 X17.61 Y20.509
N9190 X17.643 Y20.49
N9195 X17.679 Y20.479
N9200 X17.729 Y20.47
N9205 X17.762 Y20.467
N9210 X17.794 Y20.47
N9215 X17.85 Y20.48
N9220 X17.886 Y20.491
N9225 X17.919 Y20.51
N9230 X17.945 Y20.527
N9235 X17.976 Y20.555
N9240 X17.999 Y20.59
N9245 X18.042 Y20.673
N9250 X18.054 Y20.703
N9255 X18.06 Y20.735
N9260 X18.07 Y20.83
N9265 X18.077 Y20.925
N9270 X18.075 Y21.356
N9275 G2 X18.166 Y21.494 I0.149 J0.001
N9280 G3 X18.257 Y21.632 I-0.058 J0.137
N9285 G1 X18.234 Y25.552
N9290 X18.203 Y25.817
N9295 X18.087 Y26.034
N9300 X17.926 Y26.143
N9305 X17.727 Y26.178
N9310 X17.533 Y26.14
N9315 X17.379 Y26.029
N9320 X17.267 Y25.811
N9325 X17.239 Y25.547
N9330 X17.266 Y20.91
N9335 X17.297 Y20.645
N9340 X17.413 Y20.427
N9345 X17.569 Y20.316
N9350 X17.762 Y20.28
N9355 X17.96 Y20.317
N9360 X18.119 Y20.43
N9365 X18.233 Y20.649
N9370 X18.261 Y20.916
N9375 X18.257 Y21.632
N9380 Z15.
N9385 X24.467 Y22.859
N9390 Z5.
N9395 Z2.5 F100.
N9400 Z-1.
N9405 X24.383 Y22.868 F500.
N9410 G2 X24.515 Y22.52 I-0.402 J-0.351
N9415 G1 X24.521 Y21.562
N9420 G2 X24.482 Y21.359 I-0.534 J-0.003
N9425 G1 X24.524 Y21.417
N9430 X24.548 Y21.619
N9435 X24.542 Y22.656
N9440 X24.494 Y22.857
N9445 X24.467 Y22.859
N9450 Z5.
N9455 X24.264 Y25.005
N9460 Z2.5 F100.
N9465 Z-1.
N9470 X23.972 Y25.348 F500.
N9475 X23.519 Y25.588
N9480 X23.792 Y25.393
N9485 G2 X23.911 Y25.276 I-0.3 J-0.42
N9490 G1 X24.25 Y24.806
N9495 X24.292 Y24.772
N9500 X24.326 Y24.785
N9505 X24.332 Y24.8
N9510 X24.277 Y24.981
N9515 X24.272 Y24.995
N9520 X24.264 Y25.005
N9525 Z5.
N9530 X20.085 Y23.783
N9535 Z2.5 F100.
N9540 Z-1.
N9545 X20.073 Y23.617 F500.
N9550 X20.09 Y23.615
N9555 X20.113 Y23.79
N9560 X20.125 Y23.875
N9565 X20.108 Y23.878
N9570 X20.087 Y23.794
N9575 X20.085 Y23.785
N9580 Y23.783
N9585 X20.078 Y23.757
N9590 X20.061 Y23.735
N9595 X20.038 Y23.722
N9600 X20.014 Y23.708
N9605 X19.998 Y23.687
N9610 X19.991 Y23.661
N9615 X19.962 Y23.242
N9620 X20.007 Y22.684
N9625 X20.148 Y22.156
N9630 X20.354 Y21.738
N9635 X20.64 Y21.379
N9640 X20.995 Y21.098
N9645 X21.226 Y20.985
N9650 X20.839 Y21.261
N9655 G2 X20.678 Y21.447 I0.3 J0.422
N9660 G1 X20.293 Y22.199
N9665 G2 X20.24 Y22.373 I0.461 J0.236
N9670 G1 X20.139 Y23.216
N9675 G2 X20.14 Y23.347 I0.514 J0.062
N9680 G1 X20.257 Y24.221
N9685 G2 X20.312 Y24.393 I0.513 J-0.069
N9690 G1 X20.662 Y25.061
N9695 G2 X20.809 Y25.234 I0.459 J-0.241
N9700 G1 X21.125 Y25.471
N9705 X20.967 Y25.394
N9710 X20.609 Y25.107
N9715 X20.329 Y24.747
N9720 X20.131 Y24.326
N9725 X20. Y23.797
N9730 X19.991 Y23.661
N9735 X19.982 Y23.629
N9740 X19.961 Y23.602
N9745 X19.932 Y23.586
N9750 X19.903 Y23.569
N9755 X19.883 Y23.543
N9760 X19.874 Y23.51
N9765 X19.856 Y23.241
N9770 X19.903 Y22.666
N9775 X20.049 Y22.118
N9780 X20.265 Y21.681
N9785 X20.565 Y21.304
N9790 X20.938 Y21.008
N9795 X21.372 Y20.797
N9800 X21.907 Y20.66
N9805 X22.458 Y20.621
N9810 X23.44 Y20.747
N9815 X24.375 Y21.137
N9820 X24.577 Y21.278
N9825 X24.641 Y21.375
N9830 X24.669 Y21.612
N9835 X24.663 Y22.67
N9840 X24.601 Y22.93
N9845 X24.537 Y22.974
N9850 X24.243 Y23.003
N9855 X22.975 Y22.996
N9860 X22.883 Y22.965
N9865 X23.094 Y22.924
N9870 X23.979 Y22.929
N9875 G2 X24.394 Y22.519 I0.002 J-0.413
N9880 G1 X24.4 Y21.561
N9885 G2 X24.149 Y21.179 I-0.413 J-0.002
N9890 G1 X23.412 Y20.865
N9895 G2 X23.31 Y20.837 I-0.162 J0.379
N9900 G1 X22.532 Y20.723
N9905 G2 X22.404 Y20.725 I-0.059 J0.408
N9910 G1 X21.672 Y20.848
N9915 G2 X21.502 Y20.919 I0.069 J0.407
N9920 G1 X20.9 Y21.347
N9925 G2 X20.772 Y21.495 I0.239 J0.336
N9930 G1 X20.387 Y22.247
N9935 G2 X20.345 Y22.386 I0.367 J0.188
N9940 G1 X20.243 Y23.229
N9945 G2 X20.244 Y23.333 I0.41 J0.049
N9950 G1 X20.362 Y24.207
N9955 G2 X20.405 Y24.344 I0.409 J-0.055
N9960 G1 X20.756 Y25.012
N9965 G2 X20.873 Y25.15 I0.365 J-0.192
N9970 G1 X21.428 Y25.567
N9975 G2 X21.595 Y25.642 I0.248 J-0.33
N9980 G1 X22.335 Y25.789
N9985 G2 X22.487 Y25.791 I0.081 J-0.405
N9990 G1 X23.15 Y25.674
N9995 G2 X23.318 Y25.604 I-0.072 J-0.406
N10000 G1 X23.732 Y25.308
N10005 G2 X23.826 Y25.215 I-0.24 J-0.336
N10010 G1 X24.174 Y24.735
N10015 X24.26 Y24.663
N10020 X24.285 Y24.657
N10025 X24.405 Y24.705
N10030 X24.443 Y24.794
N10035 X24.365 Y25.047
N10040 X24.038 Y25.43
N10045 X23.424 Y25.756
N10050 X22.485 Y25.892
N10055 X21.911 Y25.847
N10060 X21.349 Y25.7
N10065 X20.91 Y25.483
N10070 X20.534 Y25.181
N10075 X20.238 Y24.802
N10080 X20.031 Y24.361
N10085 X19.895 Y23.814
N10090 X19.874 Y23.51
N10095 G2 X19.801 Y23.416 I-0.107 J0.007
N10100 G3 X19.728 Y23.321 I0.034 J-0.102
N10105 G1 X19.723 Y23.241
N10110 X19.772 Y22.644
N10115 X19.924 Y22.072
N10120 X20.152 Y21.609
N10125 X20.471 Y21.21
N10130 X20.867 Y20.895
N10135 X21.326 Y20.672
N10140 X21.885 Y20.529
N10145 X22.462 Y20.487
N10150 X23.474 Y20.618
N10155 X24.44 Y21.02
N10160 X24.674 Y21.184
N10165 X24.769 Y21.328
N10170 X24.801 Y21.605
N10175 X24.795 Y22.686
N10180 X24.718 Y23.01
N10185 X24.585 Y23.102
N10190 X24.249 Y23.136
N10195 X22.953 Y23.128
N10200 X22.726 Y23.051
N10205 X22.669 Y22.919
N10210 X22.675 Y22.886
N10215 X22.694 Y22.867
N10220 X23.082 Y22.791
N10225 X23.98 Y22.797
N10230 G2 X24.261 Y22.518 I0.002 J-0.28
N10235 G1 X24.267 Y21.561
N10240 G2 X24.097 Y21.301 I-0.28 J-0.002
N10245 G1 X23.36 Y20.987
N10250 X23.326 Y20.975
N10255 X23.291 Y20.968
N10260 X22.513 Y20.855
N10265 X22.469 Y20.852
N10270 X22.426 Y20.856
N10275 X21.694 Y20.979
N10280 G2 X21.579 Y21.027 I0.047 J0.276
N10285 G1 X20.977 Y21.455
N10290 G2 X20.89 Y21.556 I0.162 J0.228
N10295 G1 X20.505 Y22.307
N10300 X20.486 Y22.353
N10305 X20.476 Y22.401
N10310 X20.375 Y23.245
N10315 X20.373 Y23.28
N10320 X20.376 Y23.315
N10325 X20.493 Y24.189
N10330 X20.504 Y24.237
N10335 X20.523 Y24.282
N10340 X20.873 Y24.95
N10345 G2 X20.953 Y25.044 I0.248 J-0.13
N10350 G1 X21.508 Y25.461
N10355 G2 X21.621 Y25.512 I0.168 J-0.224
N10360 G1 X22.361 Y25.66
N10365 G2 X22.464 Y25.661 I0.055 J-0.275
N10370 G1 X23.127 Y25.544
N10375 G2 X23.241 Y25.496 I-0.049 J-0.276
N10380 G1 X23.655 Y25.201
N10385 X23.69 Y25.171
N10390 X23.719 Y25.137
N10395 X24.076 Y24.644
N10400 X24.199 Y24.541
N10405 X24.296 Y24.518
N10410 X24.505 Y24.603
N10415 X24.584 Y24.787
N10420 X24.484 Y25.112
N10425 X24.122 Y25.536
N10430 X23.466 Y25.884
N10435 X22.49 Y26.025
N10440 X21.888 Y25.978
N10445 X21.302 Y25.824
N10450 X20.839 Y25.596
N10455 X20.439 Y25.275
N10460 X20.125 Y24.872
N10465 X19.905 Y24.406
N10470 X19.764 Y23.834
N10475 X19.728 Y23.321
N10480 G2 X19.638 Y23.196 I-0.146 J0.01
N10485 G3 X19.557 Y23.064 I0.049 J-0.121
N10490 G1 X19.594 Y22.613
N10495 X19.755 Y22.008
N10500 X19.999 Y21.512
N10505 X20.343 Y21.081
N10510 X20.771 Y20.742
N10515 X21.264 Y20.502
N10520 X21.856 Y20.35
N10525 X22.467 Y20.307
N10530 X23.521 Y20.443
N10535 X24.527 Y20.862
N10540 X24.805 Y21.056
N10545 X24.943 Y21.264
N10550 X24.981 Y21.595
N10555 X24.975 Y22.708
N10560 X24.877 Y23.118
N10565 X24.649 Y23.277
N10570 X24.257 Y23.316
N10575 X22.923 Y23.308
N10580 X22.592 Y23.196
N10585 X22.481 Y22.939
N10590 X22.509 Y22.801
N10595 X22.601 Y22.701
N10600 X23.065 Y22.611
N10605 X23.981 Y22.617
N10610 G2 X24.081 Y22.517 I0.001 J-0.1
N10615 G1 X24.087 Y21.559
N10620 G2 X24.026 Y21.467 I-0.1 J-0.001
N10625 G1 X23.29 Y21.153
N10630 X23.265 Y21.146
N10635 X22.487 Y21.033
N10640 X22.456
N10645 X21.724 Y21.156
N10650 X21.703 Y21.163
N10655 X21.683 Y21.174
N10660 X21.081 Y21.602
N10665 X21.064 Y21.618
N10670 X21.05 Y21.638
N10675 X20.665 Y22.389
N10680 X20.655 Y22.423
N10685 X20.554 Y23.266
N10690 Y23.291
N10695 X20.672 Y24.165
N10700 X20.682 Y24.198
N10705 X21.032 Y24.866
N10710 X21.045 Y24.885
N10715 X21.061 Y24.9
N10720 X21.616 Y25.318
N10725 X21.635 Y25.329
N10730 X21.656 Y25.336
N10735 X22.396 Y25.483
N10740 X22.433
N10745 X23.096 Y25.366
N10750 X23.117 Y25.36
N10755 X23.136 Y25.349
N10760 X23.55 Y25.054
N10765 X23.573 Y25.031
N10770 X23.943 Y24.52
N10775 X24.116 Y24.376
N10780 X24.31 Y24.33
N10785 X24.641 Y24.463
N10790 X24.776 Y24.777
N10795 X24.645 Y25.2
N10800 X24.237 Y25.679
N10805 X23.522 Y26.058
N10810 X22.495 Y26.206
N10815 X21.858 Y26.156
N10820 X21.239 Y25.994
N10825 X20.741 Y25.748
N10830 X20.31 Y25.402
N10835 X19.97 Y24.967
N10840 X19.735 Y24.466
N10845 X19.585 Y23.862
N10850 X19.542 Y23.239
N10855 X19.557 Y23.064
N10860 Z15.
N10865 X26.924 Y23.44
N10870 Z5.
N10875 Z2.5 F100.
N10880 Z-1.
N10885 X26.901 Y23.465 F500.
N10890 Y23.397
N10895 X26.933 Y23.431
N10900 X26.924 Y23.44
N10905 G2 X26.904 Y23.564 I0.077 J0.076
N10910 G3 X26.906 Y23.689 I-0.13 J0.065
N10915 G2 X26.855 Y23.918 I0.504 J0.232
N10920 G1 X26.846 Y25.577
N10925 X26.828 Y25.731
N10930 X26.809 Y25.766
N10935 X26.795 Y25.769
N10940 X26.776 Y25.736
N10945 X26.76 Y25.578
N10950 X26.786 Y20.989
N10955 X26.804 Y20.831
N10960 X26.823 Y20.795
N10965 X26.835 Y20.797
N10970 X26.856 Y20.836
N10975 X26.872 Y20.991
N10980 X26.861 Y22.944
N10985 G2 X27.147 Y23.432 I0.555 J0.003
N10990 X26.906 Y23.689 I0.263 J0.488
N10995 G1 Z5.
N11000 X30.504 Y23.452
N11005 Z2.5 F100.
N11010 Z-1.
N11015 Y23.486 F500.
N11020 X30.472 Y23.452
N11025 X30.504 Y23.418
N11030 Y23.452
N11035 G2 X30.568 Y23.549 I0.105 J0.001
N11040 G3 X30.632 Y23.646 I-0.041 J0.096
N11045 G1 X30.62 Y25.599
N11050 X30.602 Y25.753
N11055 X30.584 Y25.788
N11060 X30.572 Y25.79
N11065 X30.551 Y25.755
N11070 X30.534 Y25.599
N11075 X30.544 Y23.939
N11080 G2 X30.258 Y23.451 I-0.555 J-0.003
N11085 X30.55 Y22.965 I-0.263 J-0.489
N11090 G1 X30.561 Y21.011
N11095 X30.579 Y20.853
N11100 X30.597 Y20.817
N11105 X30.61 Y20.819
N11110 X30.63 Y20.858
N11115 X30.647 Y21.013
N11120 X30.632 Y23.646
N11125 X30.637 Y23.673
N11130 X30.652 Y23.696
N11135 X30.675 Y23.712
N11140 X30.698 Y23.727
N11145 X30.713 Y23.75
N11150 X30.718 Y23.778
N11155 X30.708 Y25.604
N11160 X30.687 Y25.78
N11165 X30.647 Y25.855
N11170 X30.626 Y25.869
N11175 X30.571 Y25.879
N11180 X30.521 Y25.87
N11185 X30.505 Y25.858
N11190 X30.465 Y25.78
N11195 X30.447 Y25.603
N11200 X30.457 Y23.939
N11205 G2 X29.992 Y23.469 I-0.467 J-0.003
N11210 G1 X27.413 Y23.454
N11215 G2 X26.943 Y23.918 I-0.003 J0.467
N11220 G1 X26.933 Y25.582
N11225 X26.913 Y25.758
N11230 X26.872 Y25.834
N11235 X26.852 Y25.848
N11240 X26.795 Y25.857
N11245 X26.743 Y25.848
N11250 X26.728 Y25.837
N11255 X26.69 Y25.76
N11260 X26.672 Y25.582
N11265 X26.699 Y20.984
N11270 X26.72 Y20.806
N11275 X26.76 Y20.726
N11280 X26.776 Y20.715
N11285 X26.825 Y20.706
N11290 X26.878 Y20.716
N11295 X26.9 Y20.732
N11300 X26.941 Y20.81
N11305 X26.96 Y20.987
N11310 X26.948 Y22.944
N11315 G2 X27.413 Y23.414 I0.467 J0.003
N11320 G1 X29.992 Y23.429
N11325 G2 X30.462 Y22.965 I0.003 J-0.467
N11330 G1 X30.474 Y21.006
N11335 X30.494 Y20.827
N11340 X30.535 Y20.748
N11345 X30.551 Y20.737
N11350 X30.599 Y20.728
N11355 X30.653 Y20.738
N11360 X30.674 Y20.754
N11365 X30.715 Y20.832
N11370 X30.734 Y21.009
N11375 X30.718 Y23.778
N11380 G2 X30.809 Y23.916 I0.149 J0.001
N11385 G3 X30.9 Y24.054 I-0.058 J0.137
N11390 G1 X30.891 Y25.616
N11395 X30.883 Y25.71
N11400 X30.872 Y25.804
N11405 X30.866 Y25.836
N11410 X30.853 Y25.866
N11415 X30.817 Y25.933
N11420 G3 X30.741 Y26.017 I-0.21 J-0.112
N11425 G1 X30.729 Y26.026
N11430 X30.696 Y26.043
N11435 X30.661 Y26.053
N11440 X30.6 Y26.064
N11445 X30.569 Y26.066
N11450 X30.538 Y26.063
N11455 X30.484 Y26.053
N11460 X30.448 Y26.042
N11465 X30.414 Y26.023
N11470 X30.393 Y26.007
N11475 X30.363 Y25.979
N11480 X30.34 Y25.945
N11485 X30.298 Y25.862
N11490 X30.286 Y25.832
N11495 X30.28 Y25.801
N11500 X30.27 Y25.707
N11505 X30.263 Y25.612
N11510 X30.273 Y23.938
N11515 G2 X29.991 Y23.652 I-0.284 J-0.002
N11520 G1 X27.412 Y23.637
N11525 G2 X27.126 Y23.919 I-0.002 J0.284
N11530 G1 X27.117 Y25.594
N11535 X27.109 Y25.688
N11540 X27.098 Y25.782
N11545 X27.091 Y25.814
N11550 X27.078 Y25.844
N11555 X27.043 Y25.911
N11560 G3 X26.967 Y25.995 I-0.21 J-0.112
N11565 G1 X26.954 Y26.004
N11570 X26.922 Y26.021
N11575 X26.886 Y26.031
N11580 X26.824 Y26.042
N11585 X26.794 Y26.044
N11590 X26.764 Y26.042
N11595 X26.707 Y26.031
N11600 X26.67 Y26.02
N11605 X26.636 Y26.001
N11610 X26.616 Y25.987
N11615 X26.585 Y25.958
N11620 X26.562 Y25.923
N11625 X26.522 Y25.841
N11630 X26.511 Y25.812
N11635 X26.505 Y25.781
N11640 X26.495 Y25.686
N11645 X26.489 Y25.591
N11650 X26.516 Y20.973
N11655 X26.524 Y20.878
N11660 X26.534 Y20.782
N11665 X26.54 Y20.751
N11670 X26.552 Y20.722
N11675 X26.595 Y20.638
N11680 X26.618 Y20.604
N11685 X26.649 Y20.576
N11690 X26.67 Y20.561
N11695 X26.704 Y20.542
N11700 X26.741 Y20.531
N11705 X26.795 Y20.522
N11710 X26.826 Y20.519
N11715 X26.857 Y20.522
N11720 X26.916 Y20.533
N11725 X26.951 Y20.544
N11730 X26.984 Y20.562
N11735 X27.01 Y20.581
N11740 X27.04 Y20.608
N11745 X27.064 Y20.642
N11750 X27.108 Y20.726
N11755 X27.12 Y20.756
N11760 X27.126 Y20.788
N11765 X27.136 Y20.883
N11770 X27.143 Y20.978
N11775 X27.132 Y22.945
N11780 G2 X27.414 Y23.231 I0.284 J0.002
N11785 G1 X29.993 Y23.246
N11790 G2 X30.279 Y22.964 I0.002 J-0.284
N11795 G1 X30.29 Y20.995
N11800 X30.298 Y20.899
N11805 X30.309 Y20.804
N11810 X30.315 Y20.773
N11815 X30.327 Y20.744
N11820 X30.37 Y20.66
N11825 X30.393 Y20.626
N11830 X30.424 Y20.598
N11835 X30.445 Y20.583
N11840 X30.479 Y20.564
N11845 X30.515 Y20.553
N11850 X30.569 Y20.544
N11855 X30.601 Y20.541
N11860 X30.632 Y20.544
N11865 X30.69 Y20.555
N11870 X30.726 Y20.566
N11875 X30.758 Y20.584
N11880 X30.784 Y20.603
N11885 X30.815 Y20.63
N11890 X30.838 Y20.664
N11895 X30.882 Y20.748
N11900 X30.894 Y20.778
N11905 X30.901 Y20.81
N11910 X30.911 Y20.905
N11915 X30.918 Y20.999
N11920 X30.9 Y24.054
N11925 G2 X30.991 Y24.192 I0.149 J0.001
N11930 G3 X31.082 Y24.331 I-0.058 J0.137
N11935 G1 X31.075 Y25.627
N11940 X31.044 Y25.892
N11945 X30.928 Y26.108
N11950 X30.767 Y26.218
N11955 X30.568 Y26.252
N11960 X30.373 Y26.215
N11965 X30.218 Y26.103
N11970 X30.107 Y25.885
N11975 X30.08 Y25.621
N11980 X30.089 Y23.936
N11985 G2 X29.99 Y23.836 I-0.1 J-0.001
N11990 G1 X27.411 Y23.821
N11995 G2 X27.31 Y23.92 I-0.001 J0.1
N12000 G1 X27.3 Y25.605
N12005 X27.269 Y25.87
N12010 X27.153 Y26.086
N12015 X26.992 Y26.196
N12020 X26.793 Y26.23
N12025 X26.596 Y26.194
N12030 X26.439 Y26.082
N12035 X26.332 Y25.863
N12040 X26.305 Y25.599
N12045 X26.332 Y20.962
N12050 X26.362 Y20.698
N12055 X26.474 Y20.479
N12060 X26.631 Y20.368
N12065 X26.827 Y20.333
N12070 X27.025 Y20.37
N12075 X27.184 Y20.483
N12080 X27.298 Y20.702
N12085 X27.327 Y20.968
N12090 X27.316 Y22.947
N12095 G2 X27.415 Y23.047 I0.1 J0.001
N12100 G1 X29.995 Y23.062
N12105 G2 X30.095 Y22.963 I0.001 J-0.1
N12110 G1 X30.107 Y20.984
N12115 X30.137 Y20.719
N12120 X30.249 Y20.501
N12125 X30.405 Y20.39
N12130 X30.602 Y20.355
N12135 X30.799 Y20.392
N12140 X30.958 Y20.505
N12145 X31.073 Y20.724
N12150 X31.102 Y20.99
N12155 X31.082 Y24.331
N12160 Z15.
N12165 X12.31 Y12.438
N12170 Z5.
N12175 Z2.5 F100.
N12180 Z-1.
N12185 G3 X12.438 Y12.31 I0.064 J-0.064 F500.
N12190 G1 X15.267 Y15.139
N12195 G3 X15.139 Y15.267 I-0.064 J0.064
N12200 G1 X12.31 Y12.438
N12205 G2 X12.191 Y12.402 I-0.094 J0.094
N12210 G3 X12.103 Y12.312 I-0.014 J-0.073
N12215 X12.571 Y12.178 I0.271 J0.062
N12220 G1 X15.399 Y15.006
N12225 G3 X15.006 Y15.399 I-0.197 J0.197
N12230 G1 X12.178 Y12.571
N12235 G3 X12.103 Y12.312 I0.197 J-0.197
N12240 G2 X12.06 Y12.175 I-0.139 J-0.032
N12245 G3 Y12.031 I0.066 J-0.072
N12250 X12.704 Y12.045 I0.314 J0.344
N12255 G1 X15.532 Y14.874
N12260 G3 X14.874 Y15.532 I-0.329 J0.329
N12265 G1 X12.045 Y12.704
N12270 G3 X12.06 Y12.031 I0.329 J-0.329
N12275 G2 X12.102 Y11.888 I-0.097 J-0.106
N12280 G3 X12.173 Y11.756 I0.105 J-0.028
N12285 X12.834 Y11.915 I0.201 J0.618
N12290 G1 X15.662 Y14.743
N12295 G3 Y15.662 I-0.46 J0.46
N12300 X14.743 I-0.46 J-0.46
N12305 G1 X11.915 Y12.834
N12310 G3 X12.173 Y11.756 I0.46 J-0.46
N12315 G1 Z15.
N12320 X0. Y21.59
N12325 Z5.
N12330 Z2.5 F100.
N12335 Z-1.
N12340 G3 X-0.09 Y21.5 I0. J-0.09 F500.
N12345 G1 Y17.5
N12350 G3 X0.09 I0.09 J0.
N12355 G1 Y21.5
N12360 G3 X0. Y21.59 I-0.09 J0.
N12365 G2 X-0.11 Y21.649 I0. J0.133
N12370 G3 X-0.236 Y21.647 I-0.062 J-0.042
N12375 X-0.278 Y21.5 I0.236 J-0.147
N12380 G1 Y17.5
N12385 G3 X0.278 I0.278 J0.
N12390 G1 Y21.5
N12395 G3 X-0.236 Y21.647 I-0.278 J0.
N12400 G2 X-0.362 Y21.579 I-0.123 J0.077
N12405 G3 X-0.465 Y21.479 I-0.003 J-0.1
N12410 G1 Y17.5
N12415 G3 X0.465 I0.465 J0.
N12420 G1 Y21.5
N12425 G3 X-0.465 I-0.465 J0.
N12430 G1 Y21.479
N12435 G2 X-0.558 Y21.341 I-0.15 J0.
N12440 G3 X-0.65 Y21.202 I0.058 J-0.138
N12445 G1 Y17.5
N12450 G3 X0.65 I0.65 J0.
N12455 G1 Y21.5
N12460 G3 X-0.65 I-0.65 J0.
N12465 G1 Y21.202
N12470 Z15.
N12475 X-12.31 Y12.438
N12480 Z5.
N12485 Z2.5 F100.
N12490 Z-1.
N12495 X-15.139 Y15.267 F500.
N12500 G3 X-15.267 Y15.139 I-0.064 J-0.064
N12505 G1 X-12.438 Y12.31
N12510 G3 X-12.31 Y12.438 I0.064 J0.064
N12515 G2 X-12.344 Y12.604 I0.108 J0.108
N12520 G3 X-12.377 Y12.77 I-0.141 J0.058
N12525 G1 X-15.006 Y15.399
N12530 G3 X-15.399 Y15.006 I-0.197 J-0.197
N12535 G1 X-12.571 Y12.178
N12540 G3 X-12.178 Y12.571 I0.197 J0.197
N12545 G1 X-12.377 Y12.77
N12550 G2 X-12.41 Y12.936 I0.108 J0.108
N12555 G3 X-12.443 Y13.101 I-0.141 J0.058
N12560 G1 X-14.874 Y15.532
N12565 G3 X-15.532 Y14.874 I-0.329 J-0.329
N12570 G1 X-12.704 Y12.045
N12575 G3 X-12.045 Y12.704 I0.329 J0.329
N12580 G1 X-12.443 Y13.101
N12585 G2 X-12.476 Y13.264 I0.106 J0.106
N12590 G3 X-12.508 Y13.427 I-0.139 J0.057
N12595 G1 X-14.743 Y15.662
N12600 G3 X-15.662 I-0.46 J-0.46
N12605 Y14.743 I0.46 J-0.46
N12610 G1 X-12.834 Y11.915
N12615 G3 X-11.915 Y12.834 I0.46 J0.46
N12620 G1 X-12.508 Y13.427
N12625 Z15.
N12630 G53 G0 Z0.
N12635 G53 G0 X0. Y0.
N12640 M30
%
