%
(TRRACE_2)
(MACHINE)
(  MODEL LASER SNAKE V2)
(  DESCRIPTION 3-AXIS ROUTER)
(T3  D=3.175 CR=0. TAPER=45DEG - ZMIN=-0.5 - CHAMFER MILL)
N10 G90 G94 G17 G91.1
N15 G21
(WHEN USING FUSION 360 FOR PERSONAL USE, THE FEEDRATE OF)
(RAPID MOVES IS REDUCED TO MATCH THE FEEDRATE OF CUTTING)
(MOVES, WHICH CAN INCREASE MACHINING TIME. UNRESTRICTED RAPID)
(MOVES ARE AVAILABLE WITH A FUSION 360 SUBSCRIPTION.)
N20 G53 G0 Z0.
(TRACE5)
N25 T3 M6
N30 S15000 M3
N35 G54
N40 G0 X-102.367 Y20.141
N45 G43 Z15. H3
N50 G1 Z5. F750.
N55 Z-0.5 F100.
N60 X-102.654 Y20.015 F750.
N65 X-103.413 Y21.926
N70 X-106.192 Y21.928
N75 X-106.953 Y20.019
N80 X-107.241 Y20.145
N85 X-104.909 Y26.076
N90 X-104.685
N95 X-102.367 Y20.141
N100 Z5.
N105 X-103.534 Y22.241
N110 Z-0.5 F100.
N115 X-104.796 Y25.474 F750.
N120 X-106.07 Y22.243
N125 X-103.534 Y22.241
N130 Z5.
N135 X-100.26 Y21.781
N140 Z-0.5 F100.
N145 X-100.257 Y26.01 F750.
N150 X-99.93
N155 X-99.934 Y21.832
N160 X-99.671 Y21.068
N165 X-99.164 Y20.576
N170 X-98.381 Y20.323
N175 X-97.866
N180 X-97.079 Y20.574
N185 X-96.572 Y21.066
N190 X-96.311 Y21.83
N195 X-96.308 Y26.007
N200 X-95.982
N205 X-95.985 Y21.778
N210 X-96.288 Y20.9
N215 X-96.907 Y20.299
N220 X-97.817 Y20.008
N225 X-98.431
N230 X-99.336 Y20.3
N235 X-99.962 Y20.903
N240 X-100.26 Y21.781
N245 Z5.
N250 X-91.892 Y21.484
N255 Z-0.5 F100.
N260 X-91.888 Y25.748 F750.
N265 X-93.798 Y25.749
N270 Y26.064
N275 X-89.648 Y26.061
N280 Y25.746
N285 X-91.562 Y25.747
N290 X-91.566 Y20.062
N295 X-91.893 Y20.063
N300 X-91.892 Y21.484
N305 Z5.
N310 X-87.45 Y24.592
N315 Z-0.5 F100.
N320 X-87.162 Y25.174 F750.
N325 X-86.555 Y25.76
N330 X-85.933 Y26.058
N335 X-84.724 Y26.057
N340 X-84.098 Y25.758
N345 X-83.496 Y25.171
N350 X-83.205 Y24.588
N355 X-82.907 Y23.731
N360 X-82.908 Y22.318
N365 X-83.208 Y21.461
N370 X-83.5 Y20.879
N375 X-84.102 Y20.293
N380 X-84.729 Y19.998
N385 X-85.937 Y19.999
N390 X-86.559 Y20.295
N395 X-87.165 Y20.881
N400 X-87.452 Y21.464
N405 X-87.75 Y22.322
N410 X-87.749 Y23.734
N415 X-87.45 Y24.592
N420 Z5.
N425 X-83.235 Y22.367
N430 Z-0.5 F100.
N435 X-83.234 Y23.686 F750.
N440 X-83.501 Y24.47
N445 X-83.768 Y24.982
N450 X-84.299 Y25.498
N455 X-84.803 Y25.742
N460 X-85.85 Y25.743
N465 X-86.358 Y25.499
N470 X-86.886 Y24.984
N475 X-87.158 Y24.472
N480 X-87.423 Y23.689
N485 X-87.424 Y22.37
N490 X-87.16 Y21.587
N495 X-86.889 Y21.075
N500 X-86.362 Y20.559
N505 X-85.854 Y20.314
N510 X-84.807 Y20.313
N515 X-84.303 Y20.557
N520 X-83.771 Y21.072
N525 X-83.503 Y21.58
N530 X-83.235 Y22.367
N535 Z5.
N540 X-89.849 Y15.556
N545 Z-0.5 F100.
N550 X-89.953 Y15.636 F750.
N555 X-90.073 Y15.686
N560 X-90.203 Y15.703
N565 X-90.332 Y15.686
N570 X-90.453 Y15.636
N575 X-90.556 Y15.556
N580 X-90.636 Y15.453
N585 X-90.686 Y15.332
N590 X-90.703 Y15.203
N595 X-90.686 Y15.073
N600 X-90.636 Y14.953
N605 X-90.556 Y14.849
N610 X-87.728 Y12.021
N615 X-87.624 Y11.941
N620 X-87.504 Y11.891
N625 X-87.374 Y11.874
N630 X-87.245 Y11.891
N635 X-87.124 Y11.941
N640 X-87.021 Y12.021
N645 X-86.941 Y12.124
N650 X-86.891 Y12.245
N655 X-86.874 Y12.374
N660 X-86.891 Y12.504
N665 X-86.941 Y12.624
N670 X-87.021 Y12.728
N675 X-89.849 Y15.556
N680 Z5.
N685 X-90.203 Y15.203
N690 Z-0.5 F100.
N695 X-87.374 Y12.374 F750.
N700 Z5.
N705 X-75. Y2.5
N710 Z-0.5 F100.
N715 Y-2.5 F750.
N720 Z5.
N725 X-77.5 Y0.
N730 Z-0.5 F100.
N735 X-72.5 F750.
N740 Z5.
N745 X-62.804 Y11.843
N750 Z-0.5 F100.
N755 X-62.7 Y11.763 F750.
N760 X-62.579 Y11.713
N765 X-62.45 Y11.696
N770 X-62.321 Y11.713
N775 X-62.2 Y11.763
N780 X-62.097 Y11.843
N785 X-59.268 Y14.671
N790 X-59.189 Y14.775
N795 X-59.139 Y14.895
N800 X-59.122 Y15.025
N805 X-59.139 Y15.154
N810 X-59.189 Y15.275
N815 X-59.268 Y15.378
N820 X-59.372 Y15.458
N825 X-59.492 Y15.508
N830 X-59.622 Y15.525
N835 X-59.751 Y15.508
N840 X-59.872 Y15.458
N845 X-59.975 Y15.378
N850 X-62.804 Y12.55
N855 X-62.883 Y12.446
N860 X-62.933 Y12.326
N865 X-62.95 Y12.196
N870 X-62.933 Y12.067
N875 X-62.883 Y11.946
N880 X-62.804 Y11.843
N885 Z5.
N890 X-59.622 Y15.025
N895 Z-0.5 F100.
N900 X-62.45 Y12.196 F750.
N905 Z5.
N910 X-61.713 Y20.209
N915 Z-0.5 F100.
N920 X-63.628 Y25.22 F750.
N925 X-63.675 Y20.228
N930 X-64.002 Y20.231
N935 X-63.945 Y26.172
N940 X-63.646 Y26.169
N945 X-61.574 Y20.743
N950 X-59.402 Y26.128
N955 X-59.103 Y26.125
N960 X-59.16 Y20.185
N965 X-59.486 Y20.188
N970 X-59.439 Y25.18
N975 X-61.445 Y20.207
N980 X-61.713 Y20.209
N985 Z5.
N990 X-57.062 Y20.236
N995 Z-0.5 F100.
N1000 X-54.679 Y26.146 F750.
N1005 X-54.454 Y26.144
N1010 X-52.188 Y20.189
N1015 X-52.477 Y20.066
N1020 X-53.218 Y21.983
N1025 X-55.998 Y22.009
N1030 X-56.776 Y20.107
N1035 X-57.062 Y20.236
N1040 Z5.
N1045 X-50.084 Y20.098
N1050 Z-0.5 F100.
N1055 X-50.027 Y26.039 F750.
N1060 X-49.736 Y26.036
N1065 X-46.129 Y20.678
N1070 X-46.078 Y26.001
N1075 X-45.752 Y25.998
N1080 X-45.808 Y20.057
N1085 X-46.096 Y20.06
N1090 X-49.706 Y25.418
N1095 X-49.757 Y20.095
N1100 X-50.084 Y20.098
N1105 Z5.
N1110 X-53.337 Y22.299
N1115 Z-0.5 F100.
N1120 X-54.57 Y25.543 F750.
N1125 X-55.873 Y22.323
N1130 X-53.337 Y22.299
N1135 Z5.
N1140 X-28.137 Y21.93
N1145 Z-0.5 F100.
N1150 X-28.128 Y20.509 F750.
N1155 X-25.085 Y20.527
N1160 X-25.083 Y20.212
N1165 X-28.453 Y20.192
N1170 X-28.488 Y26.192
N1175 X-28.162 Y26.194
N1180 X-28.137 Y21.93
N1185 Z5.
N1190 X-22.831 Y21.106
N1195 Z-0.5 F100.
N1200 X-23.122 Y21.687 F750.
N1205 X-23.426 Y22.542
N1210 X-23.435 Y23.955
N1215 X-23.14 Y24.814
N1220 X-22.856 Y25.398
N1225 X-22.253 Y25.988
N1230 X-21.633 Y26.291
N1235 X-20.424 Y26.298
N1240 X-19.797 Y26.002
N1245 X-19.191 Y25.42
N1250 X-18.896 Y24.839
N1255 X-18.592 Y23.983
N1260 X-18.584 Y22.57
N1265 X-18.878 Y21.711
N1270 X-19.166 Y21.127
N1275 X-19.765 Y20.537
N1280 X-20.389 Y20.239
N1285 X-21.598 Y20.232
N1290 X-22.222 Y20.523
N1295 X-22.831 Y21.106
N1300 Z5.
N1305 X-18.911 Y22.617
N1310 Z-0.5 F100.
N1315 X-18.919 Y23.936 F750.
N1320 X-19.191 Y24.718
N1325 X-19.462 Y25.228
N1330 X-19.996 Y25.741
N1335 X-20.501 Y25.982
N1340 X-21.549 Y25.976
N1345 X-22.055 Y25.729
N1350 X-22.58 Y25.21
N1355 X-22.848 Y24.697
N1360 X-23.108 Y23.912
N1365 X-23.1 Y22.593
N1370 X-22.832 Y21.811
N1375 X-22.557 Y21.301
N1380 X-22.027 Y20.788
N1385 X-21.517 Y20.547
N1390 X-20.47 Y20.553
N1395 X-19.967 Y20.8
N1400 X-19.439 Y21.319
N1405 X-19.174 Y21.829
N1410 X-18.911 Y22.617
N1415 Z5.
N1420 X-15.992 Y23.274
N1425 Z-0.5 F100.
N1430 X-16.734 Y26.221 F750.
N1435 X-16.412 Y26.297
N1440 X-15.11 Y21.112
N1445 X-13.872 Y26.277
N1450 X-13.581 Y26.278
N1455 X-12.287 Y21.128
N1460 X-11.042 Y26.329
N1465 X-10.722 Y26.256
N1470 X-12.137 Y20.346
N1475 X-12.428 Y20.344
N1480 X-13.722 Y25.494
N1485 X-14.96 Y20.329
N1490 X-15.251 Y20.328
N1495 X-15.992 Y23.274
N1500 Z5.
N1505 X-9.873 Y29.459
N1510 Z-0.5 F100.
N1515 X-9.906 Y35.4 F750.
N1520 X-9.607 Y35.401
N1525 X-7.453 Y30.007
N1530 X-5.363 Y35.424
N1535 X-5.064 Y35.426
N1540 X-5.031 Y29.485
N1545 X-5.358 Y29.483
N1550 X-5.385 Y34.475
N1555 X-7.317 Y29.473
N1560 X-7.584 Y29.471
N1565 X-9.574 Y34.452
N1570 X-9.547 Y29.46
N1575 X-9.873 Y29.459
N1580 Z5.
N1585 X-2.067 Y29.442
N1590 Z-0.5 F100.
N1595 X-2.101 Y35.501 F750.
N1600 X1.832 Y35.523
N1605 X1.834 Y35.208
N1610 X-1.772 Y35.188
N1615 X-1.759 Y32.767
N1620 X0.438 Y32.779
N1625 X0.44 Y32.464
N1630 X-1.757 Y32.452
N1635 X-1.742 Y29.759
N1640 X1.864 Y29.779
N1645 X1.866 Y29.464
N1650 X-2.067 Y29.442
N1655 Z5.
N1660 X4.329 Y29.478
N1665 Z-0.5 F100.
N1670 X4.296 Y35.537 F750.
N1675 X6.457 Y35.549
N1680 X7.364 Y35.258
N1685 X7.989 Y34.672
N1690 X8.28 Y34.091
N1695 X8.584 Y33.235
N1700 X8.592 Y31.823
N1705 X8.297 Y30.963
N1710 X8.013 Y30.379
N1715 X7.394 Y29.786
N1720 X6.49 Y29.49
N1725 X4.329 Y29.478
N1730 Z5.
N1735 X8.265 Y31.87
N1740 Z-0.5 F100.
N1745 X8.257 Y33.188 F750.
N1750 X7.99 Y33.97
N1755 X7.715 Y34.481
N1760 X7.197 Y34.986
N1765 X6.413 Y35.233
N1770 X4.624 Y35.224
N1775 X4.654 Y29.795
N1780 X6.443 Y29.804
N1785 X7.225 Y30.061
N1790 X7.737 Y30.571
N1795 X8.006 Y31.085
N1800 X8.265 Y31.87
N1805 Z5.
N1810 X9.837 Y26.174
N1815 Z-0.5 F100.
N1820 X10.163 Y26.176 F750.
N1825 X10.179 Y23.499
N1830 X14.084 Y23.522
N1835 X14.069 Y26.199
N1840 X14.396 Y26.201
N1845 X14.43 Y20.26
N1850 X14.103 Y20.258
N1855 X14.086 Y23.207
N1860 X10.181 Y23.184
N1865 X10.198 Y20.236
N1870 X9.871 Y20.234
N1875 X9.837 Y26.174
N1880 Z5.
N1885 X17.393 Y20.277
N1890 Z-0.5 F100.
N1895 X17.359 Y26.218 F750.
N1900 X17.686 Y26.22
N1905 X17.72 Y20.279
N1910 X17.393 Y20.277
N1915 Z5.
N1920 X20.691 Y21.701
N1925 Z-0.5 F100.
N1930 X20.387 Y22.557 F750.
N1935 X20.379 Y23.969
N1940 X20.673 Y24.829
N1945 X20.957 Y25.413
N1950 X21.56 Y26.002
N1955 X22.18 Y26.305
N1960 X23.389 Y26.312
N1965 X24.017 Y26.02
N1970 X24.622 Y25.437
N1975 X24.957 Y24.786
N1980 X24.67 Y24.631
N1985 X24.348 Y25.243
N1990 X23.817 Y25.756
N1995 X23.312 Y25.997
N2000 X22.265 Y25.991
N2005 X21.758 Y25.744
N2010 X21.234 Y25.225
N2015 X20.965 Y24.711
N2020 X20.706 Y23.926
N2025 X20.713 Y22.608
N2030 X20.982 Y21.826
N2035 X21.256 Y21.315
N2040 X21.787 Y20.803
N2045 X22.296 Y20.562
N2050 X23.344 Y20.568
N2055 X23.846 Y20.815
N2060 X24.371 Y21.333
N2065 X24.624 Y21.823
N2070 X24.62 Y22.445
N2075 X23.274 Y22.437
N2080 X23.272 Y22.752
N2085 X24.945 Y22.762
N2090 X24.951 Y21.748
N2095 X24.647 Y21.141
N2100 X24.048 Y20.552
N2105 X23.424 Y20.253
N2110 X22.215 Y20.246
N2115 X21.592 Y20.538
N2120 X20.982 Y21.12
N2125 X20.691 Y21.701
N2130 Z5.
N2135 X27.634 Y21.822
N2140 Z-0.5 F100.
N2145 X27.608 Y26.278 F750.
N2150 X27.935 Y26.279
N2155 X27.951 Y23.602
N2160 X31.856 Y23.625
N2165 X31.841 Y26.302
N2170 X32.167 Y26.304
N2175 X32.202 Y20.363
N2180 X31.875 Y20.361
N2185 X31.858 Y23.31
N2190 X27.953 Y23.287
N2195 X27.97 Y20.339
N2200 X27.643 Y20.337
N2205 X27.634 Y21.822
N2210 Z5.
N2215 X15.686 Y15.332
N2220 Z-0.5 F100.
N2225 X15.636 Y15.453 F750.
N2230 X15.556 Y15.556
N2235 X15.453 Y15.636
N2240 X15.332 Y15.686
N2245 X15.203 Y15.703
N2250 X15.073 Y15.686
N2255 X14.953 Y15.636
N2260 X14.849 Y15.556
N2265 X12.021 Y12.728
N2270 X11.941 Y12.624
N2275 X11.891 Y12.504
N2280 X11.874 Y12.374
N2285 X11.891 Y12.245
N2290 X11.941 Y12.124
N2295 X12.021 Y12.021
N2300 X12.124 Y11.941
N2305 X12.245 Y11.891
N2310 X12.374 Y11.874
N2315 X12.504 Y11.891
N2320 X12.624 Y11.941
N2325 X12.728 Y12.021
N2330 X15.556 Y14.849
N2335 X15.636 Y14.953
N2340 X15.686 Y15.073
N2345 X15.703 Y15.203
N2350 X15.686 Y15.332
N2355 Z5.
N2360 X15.203 Y15.203
N2365 Z-0.5 F100.
N2370 X12.374 Y12.374 F750.
N2375 Z5.
N2380 X0.433 Y17.25
N2385 Z-0.5 F100.
N2390 X0.483 Y17.371 F750.
N2395 X0.5 Y17.5
N2400 Y21.5
N2405 X0.483 Y21.629
N2410 X0.433 Y21.75
N2415 X0.354 Y21.854
N2420 X0.25 Y21.933
N2425 X0.129 Y21.983
N2430 X0. Y22.
N2435 X-0.129 Y21.983
N2440 X-0.25 Y21.933
N2445 X-0.354 Y21.854
N2450 X-0.433 Y21.75
N2455 X-0.483 Y21.629
N2460 X-0.5 Y21.5
N2465 Y17.5
N2470 X-0.483 Y17.371
N2475 X-0.433 Y17.25
N2480 X-0.354 Y17.146
N2485 X-0.25 Y17.067
N2490 X-0.129 Y17.017
N2495 X0. Y17.
N2500 X0.129 Y17.017
N2505 X0.25 Y17.067
N2510 X0.354 Y17.146
N2515 X0.433 Y17.25
N2520 Z5.
N2525 X0. Y21.5
N2530 Z-0.5 F100.
N2535 Y17.5 F750.
N2540 Z5.
N2545 X-11.891 Y12.504
N2550 Z-0.5 F100.
N2555 X-11.941 Y12.624 F750.
N2560 X-12.021 Y12.728
N2565 X-14.849 Y15.556
N2570 X-14.953 Y15.636
N2575 X-15.073 Y15.686
N2580 X-15.203 Y15.703
N2585 X-15.332 Y15.686
N2590 X-15.453 Y15.636
N2595 X-15.556 Y15.556
N2600 X-15.636 Y15.453
N2605 X-15.686 Y15.332
N2610 X-15.703 Y15.203
N2615 X-15.686 Y15.073
N2620 X-15.636 Y14.953
N2625 X-15.556 Y14.849
N2630 X-12.728 Y12.021
N2635 X-12.624 Y11.941
N2640 X-12.504 Y11.891
N2645 X-12.374 Y11.874
N2650 X-12.245 Y11.891
N2655 X-12.124 Y11.941
N2660 X-12.021 Y12.021
N2665 X-11.941 Y12.124
N2670 X-11.891 Y12.245
N2675 X-11.874 Y12.374
N2680 X-11.891 Y12.504
N2685 Z5.
N2690 X-15.203 Y15.203
N2695 Z-0.5 F100.
N2700 X-12.374 Y12.374 F750.
N2705 Z5.
N2710 X0. Y4.188
N2715 Z-0.5 F100.
N2720 Y-2.5 F750.
N2725 Z5.
N2730 X-2.5 Y0.
N2735 Z-0.5 F100.
N2740 X2.5 F750.
N2745 Z5.
N2750 X2.318 Y56.739
N2755 Z-0.5 F100.
N2760 Y64.089 F750.
N2765 X-0.227
N2770 Y64.75
N2775 X5.565
N2780 Y64.089
N2785 X3.015
N2790 Y56.739
N2795 X2.318
N2800 Z5.
N2805 X8.206 Y64.75
N2810 Z-0.5 F100.
N2815 X11.994 F750.
N2820 X13.248 Y64.356
N2825 X13.735 Y63.916
N2830 X14.171 Y63.082
N2835 Y62.216
N2840 X13.735 Y61.387
N2845 X13.248 Y60.941
N2850 X11.994 Y60.548
N2855 X11.836
N2860 X14.271 Y56.949
N2865 X13.662 Y56.613
N2870 X11.007 Y60.548
N2875 X8.904
N2880 Y56.739
N2885 X8.206
N2890 Y64.75
N2895 Z5.
N2900 X13.473 Y62.375
N2905 Z-0.5 F100.
N2910 Y62.922 F750.
N2915 X13.158 Y63.511
N2920 X12.886 Y63.779
N2925 X11.889 Y64.089
N2930 X8.904
N2935 Y61.209
N2940 X11.889
N2945 X12.886 Y61.524
N2950 X13.158 Y61.782
N2955 X13.473 Y62.375
N2960 Z5.
N2965 X17.095 Y61.639
N2970 Z-0.5 F100.
N2975 X17.505 Y62.777 F750.
N2980 X17.903 Y63.559
N2985 X18.743 Y64.34
N2990 X19.613 Y64.75
N2995 X21.287
N3000 X22.163 Y64.34
N3005 X22.997 Y63.559
N3010 X23.401 Y62.777
N3015 X23.81 Y61.639
N3020 Y59.771
N3025 X23.401 Y58.633
N3030 X22.997 Y57.851
N3035 X22.163 Y57.064
N3040 X21.287 Y56.66
N3045 X19.613
N3050 X18.743 Y57.064
N3055 X17.903 Y57.851
N3060 X17.505 Y58.633
N3065 X17.095 Y59.771
N3070 Y61.639
N3075 Z5.
N3080 X23.112 Y59.871
N3085 Z-0.5 F100.
N3090 Y61.539 F750.
N3095 X22.766 Y62.52
N3100 X22.42 Y63.155
N3105 X21.749 Y63.79
N3110 X21.119 Y64.089
N3115 X19.787
N3120 X19.152 Y63.79
N3125 X18.486 Y63.155
N3130 X18.134 Y62.52
N3135 X17.793 Y61.539
N3140 Y59.871
N3145 X18.134 Y58.89
N3150 X18.486 Y58.255
N3155 X19.152 Y57.62
N3160 X19.787 Y57.321
N3165 X21.119
N3170 X21.749 Y57.62
N3175 X22.42 Y58.255
N3180 X22.766 Y58.89
N3185 X23.112 Y59.871
N3190 Z5.
N3195 X27.118 Y59.331
N3200 Z-0.5 F100.
N3205 Y64.671 F750.
N3210 X27.815
N3215 Y57.321
N3220 X31.871
N3225 Y56.66
N3230 X27.118
N3235 Y59.331
N3240 Z5.
N3245 X-2.868 Y56.739
N3250 Z-0.5 F100.
N3255 X-3.455 F750.
N3260 X-8.13 Y63.339
N3265 Y56.739
N3270 X-8.827
N3275 Y64.671
N3280 X-8.24
N3285 X-3.566 Y58.072
N3290 Y64.671
N3295 X-2.868
N3300 Y56.739
N3305 Z5.
N3310 X-12.135 Y59.771
N3315 Z-0.5 F100.
N3320 X-12.544 Y58.633 F750.
N3325 X-12.948 Y57.851
N3330 X-13.782 Y57.064
N3335 X-14.658 Y56.66
N3340 X-16.331
N3345 X-17.202 Y57.064
N3350 X-18.042 Y57.851
N3355 X-18.44 Y58.633
N3360 X-18.85 Y59.771
N3365 Y61.639
N3370 X-18.44 Y62.777
N3375 X-18.042 Y63.559
N3380 X-17.202 Y64.34
N3385 X-16.331 Y64.75
N3390 X-14.658
N3395 X-13.782 Y64.34
N3400 X-12.948 Y63.559
N3405 X-12.544 Y62.777
N3410 X-12.135 Y61.639
N3415 Y59.771
N3420 Z5.
N3425 X-12.833 Y59.871
N3430 Z-0.5 F100.
N3435 Y61.539 F750.
N3440 X-13.179 Y62.52
N3445 X-13.525 Y63.155
N3450 X-14.196 Y63.79
N3455 X-14.826 Y64.089
N3460 X-16.158
N3465 X-16.793 Y63.79
N3470 X-17.459 Y63.155
N3475 X-17.811 Y62.52
N3480 X-18.152 Y61.539
N3485 Y59.871
N3490 X-17.811 Y58.89
N3495 X-17.459 Y58.255
N3500 X-16.793 Y57.62
N3505 X-16.158 Y57.321
N3510 X-14.826
N3515 X-14.196 Y57.62
N3520 X-13.525 Y58.255
N3525 X-13.179 Y58.89
N3530 X-12.833 Y59.871
N3535 Z5.
N3540 X-23.212 Y58.827
N3545 Z-0.5 F100.
N3550 X-23.72 Y57.851 F750.
N3555 X-24.554 Y57.064
N3560 X-25.431 Y56.66
N3565 X-27.104
N3570 X-27.975 Y57.064
N3575 X-28.814 Y57.851
N3580 X-29.213 Y58.633
N3585 X-29.622 Y59.771
N3590 Y61.639
N3595 X-29.213 Y62.777
N3600 X-28.814 Y63.559
N3605 X-27.975 Y64.34
N3610 X-27.104 Y64.75
N3615 X-25.431
N3620 X-24.554 Y64.34
N3625 X-23.72 Y63.559
N3630 X-23.212 Y62.583
N3635 X-23.82 Y62.268
N3640 X-24.297 Y63.155
N3645 X-24.969 Y63.79
N3650 X-25.598 Y64.089
N3655 X-26.931
N3660 X-27.566 Y63.79
N3665 X-28.232 Y63.155
N3670 X-28.583 Y62.52
N3675 X-28.924 Y61.539
N3680 Y59.871
N3685 X-28.583 Y58.89
N3690 X-28.232 Y58.255
N3695 X-27.566 Y57.62
N3700 X-26.931 Y57.321
N3705 X-25.598
N3710 X-24.969 Y57.62
N3715 X-24.297 Y58.255
N3720 X-23.82 Y59.142
N3725 X-23.212 Y58.827
N3730 Z5.
N3735 X-42.196 Y58.326
N3740 Z-0.5 F100.
N3745 Y56.739 F750.
N3750 X-42.783
N3755 X-47.458 Y63.339
N3760 Y56.739
N3765 X-48.156
N3770 Y64.671
N3775 X-47.568
N3780 X-42.894 Y58.072
N3785 Y64.671
N3790 X-42.196
N3795 Y58.326
N3800 Z5.
N3805 X-51.463 Y59.771
N3810 Z-0.5 F100.
N3815 X-51.873 Y58.633 F750.
N3820 X-52.276 Y57.851
N3825 X-53.111 Y57.064
N3830 X-53.987 Y56.66
N3835 X-55.66
N3840 X-56.531 Y57.064
N3845 X-57.37 Y57.851
N3850 X-57.769 Y58.633
N3855 X-58.178 Y59.771
N3860 Y61.639
N3865 X-57.769 Y62.777
N3870 X-57.37 Y63.559
N3875 X-56.531 Y64.34
N3880 X-55.66 Y64.75
N3885 X-53.987
N3890 X-53.111 Y64.34
N3895 X-52.276 Y63.559
N3900 X-51.873 Y62.777
N3905 X-51.463 Y61.639
N3910 Y59.771
N3915 Z5.
N3920 X-52.161 Y59.871
N3925 Z-0.5 F100.
N3930 Y61.539 F750.
N3935 X-52.507 Y62.52
N3940 X-52.853 Y63.155
N3945 X-53.525 Y63.79
N3950 X-54.154 Y64.089
N3955 X-55.487
N3960 X-56.122 Y63.79
N3965 X-56.788 Y63.155
N3970 X-57.139 Y62.52
N3975 X-57.48 Y61.539
N3980 Y59.871
N3985 X-57.139 Y58.89
N3990 X-56.788 Y58.255
N3995 X-56.122 Y57.62
N4000 X-55.487 Y57.321
N4005 X-54.154
N4010 X-53.525 Y57.62
N4015 X-52.853 Y58.255
N4020 X-52.507 Y58.89
N4025 X-52.161 Y59.871
N4030 Z5.
N4035 X-61.48 Y59.912
N4040 Z-0.5 F100.
N4045 Y56.739 F750.
N4050 X-62.178
N4055 Y64.671
N4060 X-61.48
N4065 Y59.912
N4070 Z5.
N4075 X-67.369 Y56.739
N4080 Z-0.5 F100.
N4085 X-68.067 F750.
N4090 Y64.089
N4095 X-70.611
N4100 Y64.75
N4105 X-64.819
N4110 Y64.089
N4115 X-67.369
N4120 Y56.739
N4125 Z5.
N4130 X-73.653 Y60.82
N4135 Z-0.5 F100.
N4140 X-72.067 Y56.891 F750.
N4145 X-72.691 Y56.624
N4150 X-73.719 Y59.137
N4155 X-77.244
N4160 X-78.272 Y56.624
N4165 X-78.897 Y56.891
N4170 X-75.718 Y64.75
N4175 X-75.24
N4180 X-73.653 Y60.82
N4185 Z5.
N4190 X-73.981 Y59.798
N4195 Z-0.5 F100.
N4200 X-75.476 Y63.501 F750.
N4205 X-76.977 Y59.798
N4210 X-73.981
N4215 Z5.
N4220 X-80.347 Y64.089
N4225 Z-0.5 F100.
N4230 X-82.897 F750.
N4235 Y56.739
N4240 X-83.594
N4245 Y64.089
N4250 X-86.139
N4255 Y64.75
N4260 X-80.347
N4265 Y64.089
N4270 Z5.
N4275 X-88.775 Y64.671
N4280 Z-0.5 F100.
N4285 Y56.739 F750.
N4290 X-89.473
N4295 Y64.671
N4300 X-88.775
N4305 Z5.
N4310 X-92.78 Y58.68
N4315 Z-0.5 F100.
N4320 X-93.215 Y57.851 F750.
N4325 X-94.049 Y57.064
N4330 X-94.926 Y56.66
N4335 X-96.599
N4340 X-97.47 Y57.064
N4345 X-98.309 Y57.851
N4350 X-98.708 Y58.633
N4355 X-99.117 Y59.771
N4360 Y61.639
N4365 X-98.708 Y62.777
N4370 X-98.309 Y63.559
N4375 X-97.47 Y64.34
N4380 X-96.599 Y64.75
N4385 X-94.926
N4390 X-94.049 Y64.34
N4395 X-93.215 Y63.559
N4400 X-92.707 Y62.583
N4405 X-93.315 Y62.268
N4410 X-93.793 Y63.155
N4415 X-94.464 Y63.79
N4420 X-95.093 Y64.089
N4425 X-96.426
N4430 X-97.061 Y63.79
N4435 X-97.727 Y63.155
N4440 X-98.078 Y62.52
N4445 X-98.419 Y61.539
N4450 Y59.871
N4455 X-98.078 Y58.89
N4460 X-97.727 Y58.255
N4465 X-97.061 Y57.62
N4470 X-96.426 Y57.321
N4475 X-95.093
N4480 X-94.464 Y57.62
N4485 X-93.793 Y58.255
N4490 X-93.478 Y58.838
N4495 Y59.488
N4500 X-95.272
N4505 Y60.149
N4510 X-92.78
N4515 Y58.68
N4520 Z5.
N4525 X-101.239 Y56.891
N4530 Z-0.5 F100.
N4535 X-101.863 Y56.624 F750.
N4540 X-102.891 Y59.137
N4545 X-106.417
N4550 X-107.445 Y56.624
N4555 X-108.069 Y56.891
N4560 X-104.89 Y64.75
N4565 X-104.413
N4570 X-101.239 Y56.891
N4575 Z5.
N4580 X-103.154 Y59.798
N4585 Z-0.5 F100.
N4590 X-104.649 Y63.501 F750.
N4595 X-106.149 Y59.798
N4600 X-103.154
N4605 Z5.
N4610 Z15.
N4615 G53 G0 Z0.
N4620 G53 G0 X0. Y0.
N4625 M30
%
