%
(1001)
(T1  D=6. CR=0. - ZMIN=-20. - FLAT END MILL)
N10 G90 G94 G17 G91.1
N15 G21
N20 G53 G0 Z0.
(2D POCKET1)
N25 M9
N30 T1 M6
N35 S22000 M3
N40 G54
N45 G0 X277.045 Y612.229
N50 G43 Z15. H1
N55 G0 Z5.
N60 G1 Z1.6 F500.
N65 X277.038 Y612.202 Z1.418 F333.33
N70 X277.017 Y612.123 Z1.254
N75 X276.979 Y612.001 Z1.122
N80 X276.924 Y611.85 Z1.034
N85 X276.852 Y611.684 Z1.
N90 G2 X271.699 Y614.122 Z0.687 I-2.576 J1.219
N95 X276.852 Y611.684 Z0.375 I2.576 J-1.219
N100 X271.699 Y614.122 Z0.062 I-2.576 J1.219
N105 X276.852 Y611.684 Z-0.251 I2.576 J-1.219
N110 X271.699 Y614.122 Z-0.563 I-2.576 J1.219
N115 X276.852 Y611.684 Z-0.876 I2.576 J-1.219
N120 X271.699 Y614.122 Z-1.189 I-2.576 J1.219
N125 X276.852 Y611.684 Z-1.501 I2.576 J-1.219
N130 X271.699 Y614.122 Z-1.814 I-2.576 J1.219
N135 X276.852 Y611.684 Z-2.127 I2.576 J-1.219
N140 X271.699 Y614.122 Z-2.439 I-2.576 J1.219
N145 X276.852 Y611.684 Z-2.752 I2.576 J-1.219
N150 X271.699 Y614.122 Z-3.065 I-2.576 J1.219
N155 X277.126 Y612.903 Z-3.333 I2.576 J-1.219
N160 X272.571 I-2.277 J0.
N165 G1 Y912.903 F1200.
N170 G2 X274.781 I1.105 J0.
N175 G1 Y612.903
N180 G2 X272.571 I-1.105 J0.
N185 G3 X271.374 Y614.699 I-1.946 J0.
N190 G2 X270.176 Y616.495 I0.748 J1.796
N195 G1 Y912.903
N200 G2 X277.176 I3.5 J0.
N205 G1 Y612.903
N210 G2 X270.176 I-3.5 J0.
N215 G1 Y616.495
N220 G2 X270.604 Y616.728 I0.277 J0.
N225 G1 X271.69 Y616.023
N230 X272.765 Y615.279
N235 G2 X272.62 Y615.069 I-0.073 J-0.105
N240 X272.644 Y615.292 I0.073 J0.105
N245 G1 X272.895 Y615.396
N250 G2 X275.657 Y610.41 Z-3.646 I1.381 J-2.493 F333.33
N255 X272.895 Y615.396 Z-3.959 I-1.381 J2.493
N260 X275.657 Y610.41 Z-4.271 I1.381 J-2.493
N265 X272.895 Y615.396 Z-4.584 I-1.381 J2.493
N270 X275.657 Y610.41 Z-4.897 I1.381 J-2.493
N275 X272.895 Y615.396 Z-5.209 I-1.381 J2.493
N280 X275.657 Y610.41 Z-5.522 I1.381 J-2.493
N285 X272.895 Y615.396 Z-5.835 I-1.381 J2.493
N290 X275.657 Y610.41 Z-6.147 I1.381 J-2.493
N295 X272.895 Y615.396 Z-6.46 I-1.381 J2.493
N300 X277.126 Y612.903 Z-6.667 I1.381 J-2.493
N305 X272.571 I-2.277 J0.
N310 G1 Y912.903 F1200.
N315 G2 X274.781 I1.105 J0.
N320 G1 Y612.903
N325 G2 X272.571 I-1.105 J0.
N330 G3 X271.374 Y614.699 I-1.946 J0.
N335 G2 X270.176 Y616.495 I0.748 J1.796
N340 G1 Y912.903
N345 G2 X277.176 I3.5 J0.
N350 G1 Y612.903
N355 G2 X270.176 I-3.5 J0.
N360 G1 Y616.495
N365 G2 X270.604 Y616.728 I0.277 J0.
N370 G1 X271.69 Y616.023
N375 X272.765 Y615.279
N380 G2 X272.62 Y615.069 I-0.073 J-0.105
N385 X272.644 Y615.292 I0.073 J0.105
N390 G1 X272.895 Y615.396
N395 G2 X275.657 Y610.41 Z-6.979 I1.381 J-2.493 F333.33
N400 X272.895 Y615.396 Z-7.292 I-1.381 J2.493
N405 X275.657 Y610.41 Z-7.605 I1.381 J-2.493
N410 X272.895 Y615.396 Z-7.917 I-1.381 J2.493
N415 X275.657 Y610.41 Z-8.23 I1.381 J-2.493
N420 X272.895 Y615.396 Z-8.543 I-1.381 J2.493
N425 X275.657 Y610.41 Z-8.855 I1.381 J-2.493
N430 X272.895 Y615.396 Z-9.168 I-1.381 J2.493
N435 X275.657 Y610.41 Z-9.481 I1.381 J-2.493
N440 X272.895 Y615.396 Z-9.793 I-1.381 J2.493
N445 X277.126 Y612.903 Z-10. I1.381 J-2.493
N450 X272.571 I-2.277 J0.
N455 G1 Y912.903 F1200.
N460 G2 X274.781 I1.105 J0.
N465 G1 Y612.903
N470 G2 X272.571 I-1.105 J0.
N475 G3 X271.374 Y614.699 I-1.946 J0.
N480 G2 X270.176 Y616.495 I0.748 J1.796
N485 G1 Y912.903
N490 G2 X277.176 I3.5 J0.
N495 G1 Y612.903
N500 G2 X270.176 I-3.5 J0.
N505 G1 Y616.495
N510 G2 X270.604 Y616.728 I0.277 J0.
N515 G1 X271.69 Y616.023
N520 X272.765 Y615.279
N525 G2 X272.62 Y615.069 I-0.073 J-0.105
N530 X272.644 Y615.292 I0.073 J0.105
N535 G1 X272.895 Y615.396
N540 G2 X275.657 Y610.41 Z-10.313 I1.381 J-2.493 F333.33
N545 X272.895 Y615.396 Z-10.625 I-1.381 J2.493
N550 X275.657 Y610.41 Z-10.938 I1.381 J-2.493
N555 X272.895 Y615.396 Z-11.251 I-1.381 J2.493
N560 X275.657 Y610.41 Z-11.563 I1.381 J-2.493
N565 X272.895 Y615.396 Z-11.876 I-1.381 J2.493
N570 X275.657 Y610.41 Z-12.189 I1.381 J-2.493
N575 X272.895 Y615.396 Z-12.501 I-1.381 J2.493
N580 X275.657 Y610.41 Z-12.814 I1.381 J-2.493
N585 X272.895 Y615.396 Z-13.127 I-1.381 J2.493
N590 X277.126 Y612.903 Z-13.333 I1.381 J-2.493
N595 X272.571 I-2.277 J0.
N600 G1 Y912.903 F1200.
N605 G2 X274.781 I1.105 J0.
N610 G1 Y612.903
N615 G2 X272.571 I-1.105 J0.
N620 G3 X271.374 Y614.699 I-1.946 J0.
N625 G2 X270.176 Y616.495 I0.748 J1.796
N630 G1 Y912.903
N635 G2 X277.176 I3.5 J0.
N640 G1 Y612.903
N645 G2 X270.176 I-3.5 J0.
N650 G1 Y616.495
N655 G2 X270.604 Y616.728 I0.277 J0.
N660 G1 X271.69 Y616.023
N665 X272.765 Y615.279
N670 G2 X272.62 Y615.069 I-0.073 J-0.105
N675 X272.644 Y615.292 I0.073 J0.105
N680 G1 X272.895 Y615.396
N685 G2 X275.657 Y610.41 Z-13.646 I1.381 J-2.493 F333.33
N690 X272.895 Y615.396 Z-13.959 I-1.381 J2.493
N695 X275.657 Y610.41 Z-14.271 I1.381 J-2.493
N700 X272.895 Y615.396 Z-14.584 I-1.381 J2.493
N705 X275.657 Y610.41 Z-14.897 I1.381 J-2.493
N710 X272.895 Y615.396 Z-15.209 I-1.381 J2.493
N715 X275.657 Y610.41 Z-15.522 I1.381 J-2.493
N720 X272.895 Y615.396 Z-15.835 I-1.381 J2.493
N725 X275.657 Y610.41 Z-16.147 I1.381 J-2.493
N730 X272.895 Y615.396 Z-16.46 I-1.381 J2.493
N735 X277.126 Y612.903 Z-16.667 I1.381 J-2.493
N740 X272.571 I-2.277 J0.
N745 G1 Y912.903 F1200.
N750 G2 X274.781 I1.105 J0.
N755 G1 Y612.903
N760 G2 X272.571 I-1.105 J0.
N765 G3 X271.374 Y614.699 I-1.946 J0.
N770 G2 X270.176 Y616.495 I0.748 J1.796
N775 G1 Y912.903
N780 G2 X277.176 I3.5 J0.
N785 G1 Y612.903
N790 G2 X270.176 I-3.5 J0.
N795 G1 Y616.495
N800 G2 X270.604 Y616.728 I0.277 J0.
N805 G1 X271.69 Y616.023
N810 X272.765 Y615.279
N815 G2 X272.62 Y615.069 I-0.073 J-0.105
N820 X272.644 Y615.292 I0.073 J0.105
N825 G1 X272.895 Y615.396
N830 G2 X275.657 Y610.41 Z-16.979 I1.381 J-2.493 F333.33
N835 X272.895 Y615.396 Z-17.292 I-1.381 J2.493
N840 X275.657 Y610.41 Z-17.605 I1.381 J-2.493
N845 X272.895 Y615.396 Z-17.917 I-1.381 J2.493
N850 X275.657 Y610.41 Z-18.23 I1.381 J-2.493
N855 X272.895 Y615.396 Z-18.543 I-1.381 J2.493
N860 X275.657 Y610.41 Z-18.855 I1.381 J-2.493
N865 X272.895 Y615.396 Z-19.168 I-1.381 J2.493
N870 X275.657 Y610.41 Z-19.481 I1.381 J-2.493
N875 X272.895 Y615.396 Z-19.793 I-1.381 J2.493
N880 X277.126 Y612.903 Z-20. I1.381 J-2.493
N885 X272.571 I-2.277 J0.
N890 G1 Y912.903 F1200.
N895 G2 X274.781 I1.105 J0.
N900 G1 Y612.903
N905 G2 X272.571 I-1.105 J0.
N910 G3 X271.374 Y614.699 I-1.946 J0.
N915 G2 X270.176 Y616.495 I0.748 J1.796
N920 G1 Y912.903
N925 G2 X277.176 I3.5 J0.
N930 G1 Y612.903
N935 G2 X270.176 I-3.5 J0.
N940 G1 Y616.495
N945 X270.183 Y616.588 Z-19.985 F500.
N950 X270.204 Y616.678 Z-19.971
N955 X270.235 Y616.756 Z-19.928
N960 X270.277 Y616.828 Z-19.885
N965 X270.316 Y616.881 Z-19.819
N970 X270.362 Y616.93 Z-19.753
N975 X270.428 Y616.984 Z-19.585
N980 X270.452 Y617. Z-19.4
N985 G0 Z15.
(2D POCKET2)
N990 G0 X345.746 Y900.729
N995 Z15.
N1000 Z5.
N1005 G1 Z1.6 F500.
N1010 X345.727 Y900.709 Z1.418 F333.33
N1015 X345.669 Y900.651 Z1.254
N1020 X345.576 Y900.564 Z1.122
N1025 X345.453 Y900.46 Z1.034
N1030 X345.308 Y900.352 Z1.
N1035 G2 X342.044 Y905.025 Z0.687 I-1.632 J2.336
N1040 X345.308 Y900.352 Z0.375 I1.632 J-2.336
N1045 X342.044 Y905.025 Z0.062 I-1.632 J2.336
N1050 X345.308 Y900.352 Z-0.251 I1.632 J-2.336
N1055 X342.044 Y905.025 Z-0.563 I-1.632 J2.336
N1060 X345.308 Y900.352 Z-0.876 I1.632 J-2.336
N1065 X342.044 Y905.025 Z-1.189 I-1.632 J2.336
N1070 X345.308 Y900.352 Z-1.501 I1.632 J-2.336
N1075 X342.044 Y905.025 Z-1.814 I-1.632 J2.336
N1080 X345.308 Y900.352 Z-2.127 I1.632 J-2.336
N1085 X342.044 Y905.025 Z-2.439 I-1.632 J2.336
N1090 X343.676 Y905.538 Z-2.5 I1.632 J-2.336
N1095 G1 X345.992 F1200.
N1100 G2 X346.311 Y905.219 I0. J-0.319
N1105 G1 Y620.587
N1110 G2 X345.992 Y620.268 I-0.319 J0.
N1115 G1 X341.36
N1120 G2 X341.041 Y620.587 I0. J0.319
N1125 G1 Y905.219
N1130 G2 X341.36 Y905.538 I0.319 J0.
N1135 G1 X343.676
N1140 G3 X347.176 Y907.735 I0. J3.887
N1145 G2 X351.205 Y906.813 I1.909 J-0.922
N1150 G1 Y615.694
N1155 G2 X350.885 Y615.374 I-0.319 J0.
N1160 G1 X336.467
N1165 G2 X336.147 Y615.694 I0. J0.319
N1170 G1 Y910.112
N1175 G2 X336.467 Y910.432 I0.319 J0.
N1180 G1 X350.885
N1185 G2 X351.205 Y910.112 I0. J-0.319
N1190 G1 Y906.813
N1195 G3 X353.651 Y903.143 I3.976 J0.
N1200 G2 X356.098 Y899.473 I-1.529 J-3.67
N1205 G1 Y610.8
N1210 G2 X355.779 Y610.481 I-0.319 J0.
N1215 G1 X331.573
N1220 G2 X331.254 Y610.8 I0. J0.319
N1225 G1 Y915.005
N1230 G2 X331.573 Y915.325 I0.319 J0.
N1235 G1 X355.779
N1240 G2 X356.098 Y915.005 I0. J-0.319
N1245 G1 Y899.473
N1250 G3 X358.544 Y895.803 I3.976 J0.
N1255 G2 X360.991 Y892.133 I-1.529 J-3.67
N1260 G1 Y605.907
N1265 G2 X360.672 Y605.588 I-0.319 J0.
N1270 G1 X326.68
N1275 G2 X326.361 Y605.907 I0. J0.319
N1280 G1 Y919.899
N1285 G2 X326.68 Y920.218 I0.319 J0.
N1290 G1 X360.672
N1295 G2 X360.991 Y919.899 I0. J-0.319
N1300 G1 Y892.133
N1305 G3 X363.438 Y888.463 I3.976 J0.
N1310 G2 X365.884 Y884.793 I-1.529 J-3.67
N1315 G1 Y601.014
N1320 G2 X365.565 Y600.695 I-0.319 J0.
N1325 G1 X321.787
N1330 G2 X321.468 Y601.014 I0. J0.319
N1335 G1 Y924.792
N1340 G2 X321.787 Y925.111 I0.319 J0.
N1345 G1 X365.565
N1350 G2 X365.884 Y924.792 I0. J-0.319
N1355 G1 Y884.793
N1360 G3 X368.331 Y881.123 I3.976 J0.
N1365 G2 X370.778 Y877.453 I-1.529 J-3.67
N1370 G1 Y596.121
N1375 G2 X370.458 Y595.801 I-0.319 J0.
N1380 G1 X316.894
N1385 G2 X316.574 Y596.121 I0. J0.319
N1390 G1 Y929.685
N1395 G2 X316.894 Y930.005 I0.319 J0.
N1400 G1 X370.458
N1405 G2 X370.778 Y929.685 I0. J-0.319
N1410 G1 Y877.453
N1415 G3 X373.227 Y873.78 I3.98 J0.
N1420 G2 X375.676 Y870.106 I-1.531 J-3.674
N1425 G1 Y590.903
N1430 X311.676
N1435 Y934.903
N1440 X375.676
N1445 Y870.106
N1450 G2 X375.231 Y869.844 I-0.3 J0.
N1455 G1 X368.848 Y873.382
N1460 X368.799 Y873.416
N1465 X368.758 Y873.459
N1470 X343.927 Y904.911
N1475 X343.616 Y905.354
N1480 X343.599 Y905.392
N1485 X343.596 Y905.435
N1490 X343.609 Y905.476
N1495 X343.635 Y905.509
N1500 X343.672 Y905.531
N1505 X343.714 Y905.538
N1510 G2 X343.638 Y899.839 Z-2.813 I-0.038 J-2.85 F333.33
N1515 X343.714 Y905.538 Z-3.125 I0.038 J2.85
N1520 X343.638 Y899.839 Z-3.438 I-0.038 J-2.85
N1525 X343.714 Y905.538 Z-3.751 I0.038 J2.85
N1530 X343.638 Y899.839 Z-4.063 I-0.038 J-2.85
N1535 X343.714 Y905.538 Z-4.376 I0.038 J2.85
N1540 X343.638 Y899.839 Z-4.689 I-0.038 J-2.85
N1545 X343.676 Y905.538 Z-5. I0.038 J2.85
N1550 G1 X345.992 F1200.
N1555 G2 X346.311 Y905.219 I0. J-0.319
N1560 G1 Y620.587
N1565 G2 X345.992 Y620.268 I-0.319 J0.
N1570 G1 X341.36
N1575 G2 X341.041 Y620.587 I0. J0.319
N1580 G1 Y905.219
N1585 G2 X341.36 Y905.538 I0.319 J0.
N1590 G1 X343.676
N1595 G3 X347.176 Y907.735 I0. J3.887
N1600 G2 X351.205 Y906.813 I1.909 J-0.922
N1605 G1 Y615.694
N1610 G2 X350.885 Y615.374 I-0.319 J0.
N1615 G1 X336.467
N1620 G2 X336.147 Y615.694 I0. J0.319
N1625 G1 Y910.112
N1630 G2 X336.467 Y910.432 I0.319 J0.
N1635 G1 X350.885
N1640 G2 X351.205 Y910.112 I0. J-0.319
N1645 G1 Y906.813
N1650 G3 X353.651 Y903.143 I3.976 J0.
N1655 G2 X356.098 Y899.473 I-1.529 J-3.67
N1660 G1 Y610.8
N1665 G2 X355.779 Y610.481 I-0.319 J0.
N1670 G1 X331.573
N1675 G2 X331.254 Y610.8 I0. J0.319
N1680 G1 Y915.005
N1685 G2 X331.573 Y915.325 I0.319 J0.
N1690 G1 X355.779
N1695 G2 X356.098 Y915.005 I0. J-0.319
N1700 G1 Y899.473
N1705 G3 X358.544 Y895.803 I3.976 J0.
N1710 G2 X360.991 Y892.133 I-1.529 J-3.67
N1715 G1 Y605.907
N1720 G2 X360.672 Y605.588 I-0.319 J0.
N1725 G1 X326.68
N1730 G2 X326.361 Y605.907 I0. J0.319
N1735 G1 Y919.899
N1740 G2 X326.68 Y920.218 I0.319 J0.
N1745 G1 X360.672
N1750 G2 X360.991 Y919.899 I0. J-0.319
N1755 G1 Y892.133
N1760 G3 X363.438 Y888.463 I3.976 J0.
N1765 G2 X365.884 Y884.793 I-1.529 J-3.67
N1770 G1 Y601.014
N1775 G2 X365.565 Y600.695 I-0.319 J0.
N1780 G1 X321.787
N1785 G2 X321.468 Y601.014 I0. J0.319
N1790 G1 Y924.792
N1795 G2 X321.787 Y925.111 I0.319 J0.
N1800 G1 X365.565
N1805 G2 X365.884 Y924.792 I0. J-0.319
N1810 G1 Y884.793
N1815 G3 X368.331 Y881.123 I3.976 J0.
N1820 G2 X370.778 Y877.453 I-1.529 J-3.67
N1825 G1 Y596.121
N1830 G2 X370.458 Y595.801 I-0.319 J0.
N1835 G1 X316.894
N1840 G2 X316.574 Y596.121 I0. J0.319
N1845 G1 Y929.685
N1850 G2 X316.894 Y930.005 I0.319 J0.
N1855 G1 X370.458
N1860 G2 X370.778 Y929.685 I0. J-0.319
N1865 G1 Y877.453
N1870 G3 X373.227 Y873.78 I3.98 J0.
N1875 G2 X375.676 Y870.106 I-1.531 J-3.674
N1880 G1 Y590.903
N1885 X311.676
N1890 Y934.903
N1895 X375.676
N1900 Y870.106
N1905 G2 X375.231 Y869.844 I-0.3 J0.
N1910 G1 X368.848 Y873.382
N1915 X368.799 Y873.416
N1920 X368.758 Y873.459
N1925 X343.927 Y904.911
N1930 X343.616 Y905.354
N1935 X343.599 Y905.392
N1940 X343.596 Y905.435
N1945 X343.609 Y905.476
N1950 X343.635 Y905.509
N1955 X343.672 Y905.531
N1960 X343.714 Y905.538
N1965 G2 X343.638 Y899.839 Z-5.313 I-0.038 J-2.85 F333.33
N1970 X343.714 Y905.538 Z-5.625 I0.038 J2.85
N1975 X343.638 Y899.839 Z-5.938 I-0.038 J-2.85
N1980 X343.714 Y905.538 Z-6.251 I0.038 J2.85
N1985 X343.638 Y899.839 Z-6.563 I-0.038 J-2.85
N1990 X343.714 Y905.538 Z-6.876 I0.038 J2.85
N1995 X343.638 Y899.839 Z-7.189 I-0.038 J-2.85
N2000 X343.676 Y905.538 Z-7.5 I0.038 J2.85
N2005 G1 X345.992 F1200.
N2010 G2 X346.311 Y905.219 I0. J-0.319
N2015 G1 Y620.587
N2020 G2 X345.992 Y620.268 I-0.319 J0.
N2025 G1 X341.36
N2030 G2 X341.041 Y620.587 I0. J0.319
N2035 G1 Y905.219
N2040 G2 X341.36 Y905.538 I0.319 J0.
N2045 G1 X343.676
N2050 G3 X347.176 Y907.735 I0. J3.887
N2055 G2 X351.205 Y906.813 I1.909 J-0.922
N2060 G1 Y615.694
N2065 G2 X350.885 Y615.374 I-0.319 J0.
N2070 G1 X336.467
N2075 G2 X336.147 Y615.694 I0. J0.319
N2080 G1 Y910.112
N2085 G2 X336.467 Y910.432 I0.319 J0.
N2090 G1 X350.885
N2095 G2 X351.205 Y910.112 I0. J-0.319
N2100 G1 Y906.813
N2105 G3 X353.651 Y903.143 I3.976 J0.
N2110 G2 X356.098 Y899.473 I-1.529 J-3.67
N2115 G1 Y610.8
N2120 G2 X355.779 Y610.481 I-0.319 J0.
N2125 G1 X331.573
N2130 G2 X331.254 Y610.8 I0. J0.319
N2135 G1 Y915.005
N2140 G2 X331.573 Y915.325 I0.319 J0.
N2145 G1 X355.779
N2150 G2 X356.098 Y915.005 I0. J-0.319
N2155 G1 Y899.473
N2160 G3 X358.544 Y895.803 I3.976 J0.
N2165 G2 X360.991 Y892.133 I-1.529 J-3.67
N2170 G1 Y605.907
N2175 G2 X360.672 Y605.588 I-0.319 J0.
N2180 G1 X326.68
N2185 G2 X326.361 Y605.907 I0. J0.319
N2190 G1 Y919.899
N2195 G2 X326.68 Y920.218 I0.319 J0.
N2200 G1 X360.672
N2205 G2 X360.991 Y919.899 I0. J-0.319
N2210 G1 Y892.133
N2215 G3 X363.438 Y888.463 I3.976 J0.
N2220 G2 X365.884 Y884.793 I-1.529 J-3.67
N2225 G1 Y601.014
N2230 G2 X365.565 Y600.695 I-0.319 J0.
N2235 G1 X321.787
N2240 G2 X321.468 Y601.014 I0. J0.319
N2245 G1 Y924.792
N2250 G2 X321.787 Y925.111 I0.319 J0.
N2255 G1 X365.565
N2260 G2 X365.884 Y924.792 I0. J-0.319
N2265 G1 Y884.793
N2270 G3 X368.331 Y881.123 I3.976 J0.
N2275 G2 X370.778 Y877.453 I-1.529 J-3.67
N2280 G1 Y596.121
N2285 G2 X370.458 Y595.801 I-0.319 J0.
N2290 G1 X316.894
N2295 G2 X316.574 Y596.121 I0. J0.319
N2300 G1 Y929.685
N2305 G2 X316.894 Y930.005 I0.319 J0.
N2310 G1 X370.458
N2315 G2 X370.778 Y929.685 I0. J-0.319
N2320 G1 Y877.453
N2325 G3 X373.227 Y873.78 I3.98 J0.
N2330 G2 X375.676 Y870.106 I-1.531 J-3.674
N2335 G1 Y590.903
N2340 X311.676
N2345 Y934.903
N2350 X375.676
N2355 Y870.106
N2360 X375.669 Y870.014 Z-7.485 F500.
N2365 X375.648 Y869.924 Z-7.471
N2370 X375.617 Y869.846 Z-7.428
N2375 X375.575 Y869.773 Z-7.385
N2380 X375.536 Y869.72 Z-7.319
N2385 X375.49 Y869.672 Z-7.253
N2390 X375.424 Y869.618 Z-7.085
N2395 X375.4 Y869.601 Z-6.9
N2400 G0 Z5.
N2405 X201.502 Y620.833
N2410 G1 Z1.6 F500.
N2415 X201.482 Y620.852 Z1.418 F333.33
N2420 X201.424 Y620.91 Z1.254
N2425 X201.337 Y621.003 Z1.122
N2430 X201.233 Y621.126 Z1.034
N2435 X201.125 Y621.271 Z1.
N2440 G2 X205.798 Y624.535 Z0.687 I2.336 J1.632
N2445 X201.125 Y621.271 Z0.375 I-2.336 J-1.632
N2450 X205.798 Y624.535 Z0.062 I2.336 J1.632
N2455 X201.125 Y621.271 Z-0.251 I-2.336 J-1.632
N2460 X205.798 Y624.535 Z-0.563 I2.336 J1.632
N2465 X201.125 Y621.271 Z-0.876 I-2.336 J-1.632
N2470 X205.798 Y624.535 Z-1.189 I2.336 J1.632
N2475 X201.125 Y621.271 Z-1.501 I-2.336 J-1.632
N2480 X205.798 Y624.535 Z-1.814 I2.336 J1.632
N2485 X201.125 Y621.271 Z-2.127 I-2.336 J-1.632
N2490 X205.798 Y624.535 Z-2.439 I2.336 J1.632
N2495 X206.311 Y622.903 Z-2.5 I-2.336 J-1.632
N2500 G1 Y620.587 F1200.
N2505 G2 X205.992 Y620.268 I-0.319 J0.
N2510 G1 X201.36
N2515 G2 X201.041 Y620.587 I0. J0.319
N2520 G1 Y905.219
N2525 G2 X201.36 Y905.538 I0.319 J0.
N2530 G1 X205.992
N2535 G2 X206.311 Y905.219 I0. J-0.319
N2540 G1 Y622.903
N2545 G3 X208.508 Y619.403 I3.887 J0.
N2550 G2 X207.586 Y615.374 I-0.922 J-1.909
N2555 G1 X196.467
N2560 G2 X196.147 Y615.694 I0. J0.319
N2565 G1 Y910.112
N2570 G2 X196.467 Y910.432 I0.319 J0.
N2575 G1 X210.885
N2580 G2 X211.205 Y910.112 I0. J-0.319
N2585 G1 Y615.694
N2590 G2 X210.885 Y615.374 I-0.319 J0.
N2595 G1 X207.586
N2600 G3 X203.916 Y612.928 I0. J-3.976
N2605 G2 X200.246 Y610.481 I-3.67 J1.529
N2610 G1 X191.574
N2615 G2 X191.254 Y610.8 I0. J0.319
N2620 G1 Y915.005
N2625 G2 X191.574 Y915.325 I0.319 J0.
N2630 G1 X215.779
N2635 G2 X216.098 Y915.005 I0. J-0.319
N2640 G1 Y610.8
N2645 G2 X215.779 Y610.481 I-0.319 J0.
N2650 G1 X200.246
N2655 G3 X196.576 Y608.034 I0. J-3.976
N2660 G2 X192.906 Y605.588 I-3.67 J1.529
N2665 G1 X186.68
N2670 G2 X186.361 Y605.907 I0. J0.319
N2675 G1 Y919.899
N2680 G2 X186.68 Y920.218 I0.319 J0.
N2685 G1 X220.672
N2690 G2 X220.991 Y919.899 I0. J-0.319
N2695 G1 Y605.907
N2700 G2 X220.672 Y605.588 I-0.319 J0.
N2705 G1 X192.906
N2710 G3 X189.236 Y603.141 I0. J-3.976
N2715 G2 X185.566 Y600.695 I-3.67 J1.529
N2720 G1 X181.787
N2725 G2 X181.468 Y601.014 I0. J0.319
N2730 G1 Y924.792
N2735 G2 X181.787 Y925.111 I0.319 J0.
N2740 G1 X225.565
N2745 G2 X225.884 Y924.792 I0. J-0.319
N2750 G1 Y601.014
N2755 G2 X225.565 Y600.695 I-0.319 J0.
N2760 G1 X185.566
N2765 G3 X181.896 Y598.248 I0. J-3.976
N2770 G2 X178.226 Y595.801 I-3.67 J1.529
N2775 G1 X176.894
N2780 G2 X176.574 Y596.121 I0. J0.319
N2785 G1 Y929.685
N2790 G2 X176.894 Y930.005 I0.319 J0.
N2795 G1 X230.458
N2800 G2 X230.778 Y929.685 I0. J-0.319
N2805 G1 Y596.121
N2810 G2 X230.458 Y595.801 I-0.319 J0.
N2815 G1 X178.226
N2820 G3 X175.04 Y594.231 I0. J-4.018
N2825 G2 X171.676 Y595.374 I-1.488 J1.143
N2830 G1 Y934.903
N2835 X235.676
N2840 Y590.903
N2845 X171.676
N2850 Y595.374
N2855 G2 X171.841 Y595.57 I0.199 J0.
N2860 G1 X172.643 Y595.709
N2865 X172.692 Y595.724
N2870 X172.735 Y595.751
N2875 X205.687 Y622.648
N2880 X206.126 Y622.962
N2885 X206.164 Y622.98
N2890 X206.207 Y622.983
N2895 X206.248 Y622.971
N2900 X206.282 Y622.944
N2905 X206.304 Y622.907
N2910 X206.311 Y622.865
N2915 G2 X200.612 Y622.941 Z-2.813 I-2.85 J0.038 F333.33
N2920 X206.311 Y622.865 Z-3.125 I2.85 J-0.038
N2925 X200.612 Y622.941 Z-3.438 I-2.85 J0.038
N2930 X206.311 Y622.865 Z-3.751 I2.85 J-0.038
N2935 X200.612 Y622.941 Z-4.063 I-2.85 J0.038
N2940 X206.311 Y622.865 Z-4.376 I2.85 J-0.038
N2945 X200.612 Y622.941 Z-4.689 I-2.85 J0.038
N2950 X206.311 Y622.903 Z-5. I2.85 J-0.038
N2955 G1 Y620.587 F1200.
N2960 G2 X205.992 Y620.268 I-0.319 J0.
N2965 G1 X201.36
N2970 G2 X201.041 Y620.587 I0. J0.319
N2975 G1 Y905.219
N2980 G2 X201.36 Y905.538 I0.319 J0.
N2985 G1 X205.992
N2990 G2 X206.311 Y905.219 I0. J-0.319
N2995 G1 Y622.903
N3000 G3 X208.508 Y619.403 I3.887 J0.
N3005 G2 X207.586 Y615.374 I-0.922 J-1.909
N3010 G1 X196.467
N3015 G2 X196.147 Y615.694 I0. J0.319
N3020 G1 Y910.112
N3025 G2 X196.467 Y910.432 I0.319 J0.
N3030 G1 X210.885
N3035 G2 X211.205 Y910.112 I0. J-0.319
N3040 G1 Y615.694
N3045 G2 X210.885 Y615.374 I-0.319 J0.
N3050 G1 X207.586
N3055 G3 X203.916 Y612.928 I0. J-3.976
N3060 G2 X200.246 Y610.481 I-3.67 J1.529
N3065 G1 X191.574
N3070 G2 X191.254 Y610.8 I0. J0.319
N3075 G1 Y915.005
N3080 G2 X191.574 Y915.325 I0.319 J0.
N3085 G1 X215.779
N3090 G2 X216.098 Y915.005 I0. J-0.319
N3095 G1 Y610.8
N3100 G2 X215.779 Y610.481 I-0.319 J0.
N3105 G1 X200.246
N3110 G3 X196.576 Y608.034 I0. J-3.976
N3115 G2 X192.906 Y605.588 I-3.67 J1.529
N3120 G1 X186.68
N3125 G2 X186.361 Y605.907 I0. J0.319
N3130 G1 Y919.899
N3135 G2 X186.68 Y920.218 I0.319 J0.
N3140 G1 X220.672
N3145 G2 X220.991 Y919.899 I0. J-0.319
N3150 G1 Y605.907
N3155 G2 X220.672 Y605.588 I-0.319 J0.
N3160 G1 X192.906
N3165 G3 X189.236 Y603.141 I0. J-3.976
N3170 G2 X185.566 Y600.695 I-3.67 J1.529
N3175 G1 X181.787
N3180 G2 X181.468 Y601.014 I0. J0.319
N3185 G1 Y924.792
N3190 G2 X181.787 Y925.111 I0.319 J0.
N3195 G1 X225.565
N3200 G2 X225.884 Y924.792 I0. J-0.319
N3205 G1 Y601.014
N3210 G2 X225.565 Y600.695 I-0.319 J0.
N3215 G1 X185.566
N3220 G3 X181.896 Y598.248 I0. J-3.976
N3225 G2 X178.226 Y595.801 I-3.67 J1.529
N3230 G1 X176.894
N3235 G2 X176.574 Y596.121 I0. J0.319
N3240 G1 Y929.685
N3245 G2 X176.894 Y930.005 I0.319 J0.
N3250 G1 X230.458
N3255 G2 X230.778 Y929.685 I0. J-0.319
N3260 G1 Y596.121
N3265 G2 X230.458 Y595.801 I-0.319 J0.
N3270 G1 X178.226
N3275 G3 X175.04 Y594.231 I0. J-4.018
N3280 G2 X171.676 Y595.374 I-1.488 J1.143
N3285 G1 Y934.903
N3290 X235.676
N3295 Y590.903
N3300 X171.676
N3305 Y595.374
N3310 G2 X171.841 Y595.57 I0.199 J0.
N3315 G1 X172.643 Y595.709
N3320 X172.692 Y595.724
N3325 X172.735 Y595.751
N3330 X205.687 Y622.648
N3335 X206.126 Y622.962
N3340 X206.164 Y622.98
N3345 X206.207 Y622.983
N3350 X206.248 Y622.971
N3355 X206.282 Y622.944
N3360 X206.304 Y622.907
N3365 X206.311 Y622.865
N3370 G2 X200.612 Y622.941 Z-5.313 I-2.85 J0.038 F333.33
N3375 X206.311 Y622.865 Z-5.625 I2.85 J-0.038
N3380 X200.612 Y622.941 Z-5.938 I-2.85 J0.038
N3385 X206.311 Y622.865 Z-6.251 I2.85 J-0.038
N3390 X200.612 Y622.941 Z-6.563 I-2.85 J0.038
N3395 X206.311 Y622.865 Z-6.876 I2.85 J-0.038
N3400 X200.612 Y622.941 Z-7.189 I-2.85 J0.038
N3405 X206.311 Y622.903 Z-7.5 I2.85 J-0.038
N3410 G1 Y620.587 F1200.
N3415 G2 X205.992 Y620.268 I-0.319 J0.
N3420 G1 X201.36
N3425 G2 X201.041 Y620.587 I0. J0.319
N3430 G1 Y905.219
N3435 G2 X201.36 Y905.538 I0.319 J0.
N3440 G1 X205.992
N3445 G2 X206.311 Y905.219 I0. J-0.319
N3450 G1 Y622.903
N3455 G3 X208.508 Y619.403 I3.887 J0.
N3460 G2 X207.586 Y615.374 I-0.922 J-1.909
N3465 G1 X196.467
N3470 G2 X196.147 Y615.694 I0. J0.319
N3475 G1 Y910.112
N3480 G2 X196.467 Y910.432 I0.319 J0.
N3485 G1 X210.885
N3490 G2 X211.205 Y910.112 I0. J-0.319
N3495 G1 Y615.694
N3500 G2 X210.885 Y615.374 I-0.319 J0.
N3505 G1 X207.586
N3510 G3 X203.916 Y612.928 I0. J-3.976
N3515 G2 X200.246 Y610.481 I-3.67 J1.529
N3520 G1 X191.574
N3525 G2 X191.254 Y610.8 I0. J0.319
N3530 G1 Y915.005
N3535 G2 X191.574 Y915.325 I0.319 J0.
N3540 G1 X215.779
N3545 G2 X216.098 Y915.005 I0. J-0.319
N3550 G1 Y610.8
N3555 G2 X215.779 Y610.481 I-0.319 J0.
N3560 G1 X200.246
N3565 G3 X196.576 Y608.034 I0. J-3.976
N3570 G2 X192.906 Y605.588 I-3.67 J1.529
N3575 G1 X186.68
N3580 G2 X186.361 Y605.907 I0. J0.319
N3585 G1 Y919.899
N3590 G2 X186.68 Y920.218 I0.319 J0.
N3595 G1 X220.672
N3600 G2 X220.991 Y919.899 I0. J-0.319
N3605 G1 Y605.907
N3610 G2 X220.672 Y605.588 I-0.319 J0.
N3615 G1 X192.906
N3620 G3 X189.236 Y603.141 I0. J-3.976
N3625 G2 X185.566 Y600.695 I-3.67 J1.529
N3630 G1 X181.787
N3635 G2 X181.468 Y601.014 I0. J0.319
N3640 G1 Y924.792
N3645 G2 X181.787 Y925.111 I0.319 J0.
N3650 G1 X225.565
N3655 G2 X225.884 Y924.792 I0. J-0.319
N3660 G1 Y601.014
N3665 G2 X225.565 Y600.695 I-0.319 J0.
N3670 G1 X185.566
N3675 G3 X181.896 Y598.248 I0. J-3.976
N3680 G2 X178.226 Y595.801 I-3.67 J1.529
N3685 G1 X176.894
N3690 G2 X176.574 Y596.121 I0. J0.319
N3695 G1 Y929.685
N3700 G2 X176.894 Y930.005 I0.319 J0.
N3705 G1 X230.458
N3710 G2 X230.778 Y929.685 I0. J-0.319
N3715 G1 Y596.121
N3720 G2 X230.458 Y595.801 I-0.319 J0.
N3725 G1 X178.226
N3730 G3 X175.04 Y594.231 I0. J-4.018
N3735 G2 X171.676 Y595.374 I-1.488 J1.143
N3740 G1 Y934.903
N3745 X235.676
N3750 Y590.903
N3755 X171.676
N3760 Y595.374
N3765 X171.683 Y595.466 Z-7.485 F500.
N3770 X171.704 Y595.556 Z-7.471
N3775 X171.735 Y595.634 Z-7.428
N3780 X171.777 Y595.706 Z-7.385
N3785 X171.816 Y595.759 Z-7.319
N3790 X171.862 Y595.808 Z-7.253
N3795 X171.928 Y595.862 Z-7.085
N3800 X171.952 Y595.879 Z-6.9
N3805 G0 Z15.
(2D POCKET3)
N3810 G0 X226.184 Y879.376
N3815 Z15.
N3820 Z5.
N3825 G1 Z1.6 F500.
N3830 X226.197 Y879.351 Z1.418 F333.33
N3835 X226.234 Y879.278 Z1.254
N3840 X226.288 Y879.163 Z1.122
N3845 X226.348 Y879.013 Z1.034
N3850 X226.406 Y878.842 Z1.
N3855 G2 X220.946 Y877.203 Z0.687 I-2.73 J-0.82
N3860 X226.406 Y878.842 Z0.375 I2.73 J0.82
N3865 X220.946 Y877.203 Z0.062 I-2.73 J-0.82
N3870 X226.406 Y878.842 Z-0.251 I2.73 J0.82
N3875 X220.946 Y877.203 Z-0.563 I-2.73 J-0.82
N3880 X226.406 Y878.842 Z-0.876 I2.73 J0.82
N3885 X220.946 Y877.203 Z-1.189 I-2.73 J-0.82
N3890 X226.406 Y878.842 Z-1.501 I2.73 J0.82
N3895 X220.946 Y877.203 Z-1.814 I-2.73 J-0.82
N3900 X226.406 Y878.842 Z-2.127 I2.73 J0.82
N3905 X220.946 Y877.203 Z-2.439 I-2.73 J-0.82
N3910 X226.406 Y878.842 Z-2.752 I2.73 J0.82
N3915 X220.946 Y877.203 Z-3.065 I-2.73 J-0.82
N3920 X223.676 Y880.872 Z-3.25 I2.73 J0.82
N3925 Y876.963 I0. J-1.955
N3930 G1 X183.676 F1200.
N3935 G2 Y878.843 I0. J0.94
N3940 G1 X223.676
N3945 G2 Y876.963 I0. J-0.94
N3950 G3 X222.131 Y875.933 I0. J-1.674
N3955 G2 X220.586 Y874.903 I-1.545 J0.644
N3960 G1 X183.676
N3965 G2 Y880.903 I0. J3.
N3970 G1 X223.676
N3975 G2 Y874.903 I0. J-3.
N3980 G1 X220.586
N3985 X220.544 Y874.91
N3990 X220.507 Y874.929
N3995 X220.477 Y874.959
N4000 X220.459 Y874.997
N4005 X220.453 Y875.038
N4010 X220.46 Y875.08
N4015 X220.67 Y875.695
N4020 X221.261 Y878.454
N4025 X221.263 Y878.493
N4030 X221.254 Y878.531
N4035 X221.233 Y878.564
N4040 X221.005 Y878.825
N4045 X220.983 Y878.863
N4050 X220.974 Y878.906
N4055 X220.981 Y878.95
N4060 G2 X226.371 Y877.095 Z-3.563 I2.695 J-0.927 F333.33
N4065 X220.981 Y878.95 Z-3.875 I-2.695 J0.927
N4070 X226.371 Y877.095 Z-4.188 I2.695 J-0.927
N4075 X220.981 Y878.95 Z-4.501 I-2.695 J0.927
N4080 X226.371 Y877.095 Z-4.813 I2.695 J-0.927
N4085 X220.981 Y878.95 Z-5.126 I-2.695 J0.927
N4090 X226.371 Y877.095 Z-5.439 I2.695 J-0.927
N4095 X220.981 Y878.95 Z-5.751 I-2.695 J0.927
N4100 X226.371 Y877.095 Z-6.064 I2.695 J-0.927
N4105 X220.981 Y878.95 Z-6.377 I-2.695 J0.927
N4110 X223.676 Y880.872 Z-6.5 I2.695 J-0.927
N4115 Y876.963 I0. J-1.955
N4120 G1 X183.676 F1200.
N4125 G2 Y878.843 I0. J0.94
N4130 G1 X223.676
N4135 G2 Y876.963 I0. J-0.94
N4140 G3 X222.131 Y875.933 I0. J-1.674
N4145 G2 X220.586 Y874.903 I-1.545 J0.644
N4150 G1 X183.676
N4155 G2 Y880.903 I0. J3.
N4160 G1 X223.676
N4165 G2 Y874.903 I0. J-3.
N4170 G1 X220.586
N4175 X220.544 Y874.91
N4180 X220.507 Y874.929
N4185 X220.477 Y874.959
N4190 X220.459 Y874.997
N4195 X220.453 Y875.038
N4200 X220.46 Y875.08
N4205 X220.67 Y875.695
N4210 X221.261 Y878.454
N4215 X221.263 Y878.493
N4220 X221.254 Y878.531
N4225 X221.233 Y878.564
N4230 X221.005 Y878.825
N4235 X220.983 Y878.863
N4240 X220.974 Y878.906
N4245 X220.981 Y878.95
N4250 G2 X226.371 Y877.095 Z-6.813 I2.695 J-0.927 F333.33
N4255 X220.981 Y878.95 Z-7.125 I-2.695 J0.927
N4260 X226.371 Y877.095 Z-7.438 I2.695 J-0.927
N4265 X220.981 Y878.95 Z-7.751 I-2.695 J0.927
N4270 X226.371 Y877.095 Z-8.063 I2.695 J-0.927
N4275 X220.981 Y878.95 Z-8.376 I-2.695 J0.927
N4280 X226.371 Y877.095 Z-8.689 I2.695 J-0.927
N4285 X220.981 Y878.95 Z-9.001 I-2.695 J0.927
N4290 X226.371 Y877.095 Z-9.314 I2.695 J-0.927
N4295 X220.981 Y878.95 Z-9.627 I-2.695 J0.927
N4300 X223.676 Y880.872 Z-9.75 I2.695 J-0.927
N4305 Y876.963 I0. J-1.955
N4310 G1 X183.676 F1200.
N4315 G2 Y878.843 I0. J0.94
N4320 G1 X223.676
N4325 G2 Y876.963 I0. J-0.94
N4330 G3 X222.131 Y875.933 I0. J-1.674
N4335 G2 X220.586 Y874.903 I-1.545 J0.644
N4340 G1 X183.676
N4345 G2 Y880.903 I0. J3.
N4350 G1 X223.676
N4355 G2 Y874.903 I0. J-3.
N4360 G1 X220.586
N4365 X220.544 Y874.91
N4370 X220.507 Y874.929
N4375 X220.477 Y874.959
N4380 X220.459 Y874.997
N4385 X220.453 Y875.038
N4390 X220.46 Y875.08
N4395 X220.67 Y875.695
N4400 X221.261 Y878.454
N4405 X221.263 Y878.493
N4410 X221.254 Y878.531
N4415 X221.233 Y878.564
N4420 X221.005 Y878.825
N4425 X220.983 Y878.863
N4430 X220.974 Y878.906
N4435 X220.981 Y878.95
N4440 G2 X226.371 Y877.095 Z-10.063 I2.695 J-0.927 F333.33
N4445 X220.981 Y878.95 Z-10.375 I-2.695 J0.927
N4450 X226.371 Y877.095 Z-10.688 I2.695 J-0.927
N4455 X220.981 Y878.95 Z-11.001 I-2.695 J0.927
N4460 X226.371 Y877.095 Z-11.313 I2.695 J-0.927
N4465 X220.981 Y878.95 Z-11.626 I-2.695 J0.927
N4470 X226.371 Y877.095 Z-11.939 I2.695 J-0.927
N4475 X220.981 Y878.95 Z-12.251 I-2.695 J0.927
N4480 X226.371 Y877.095 Z-12.564 I2.695 J-0.927
N4485 X220.981 Y878.95 Z-12.877 I-2.695 J0.927
N4490 X223.676 Y880.872 Z-13. I2.695 J-0.927
N4495 Y876.963 I0. J-1.955
N4500 G1 X183.676 F1200.
N4505 G2 Y878.843 I0. J0.94
N4510 G1 X223.676
N4515 G2 Y876.963 I0. J-0.94
N4520 G3 X222.131 Y875.933 I0. J-1.674
N4525 G2 X220.586 Y874.903 I-1.545 J0.644
N4530 G1 X183.676
N4535 G2 Y880.903 I0. J3.
N4540 G1 X223.676
N4545 G2 Y874.903 I0. J-3.
N4550 G1 X220.586
N4555 X220.544 Y874.91
N4560 X220.507 Y874.929
N4565 X220.477 Y874.959
N4570 X220.459 Y874.997
N4575 X220.453 Y875.038
N4580 X220.46 Y875.08
N4585 X220.67 Y875.695
N4590 X221.261 Y878.454
N4595 X221.263 Y878.493
N4600 X221.254 Y878.531
N4605 X221.233 Y878.564
N4610 X221.005 Y878.825
N4615 X220.983 Y878.863
N4620 X220.974 Y878.906
N4625 X220.981 Y878.95
N4630 G2 X226.371 Y877.095 Z-13.313 I2.695 J-0.927 F333.33
N4635 X220.981 Y878.95 Z-13.625 I-2.695 J0.927
N4640 X226.371 Y877.095 Z-13.938 I2.695 J-0.927
N4645 X220.981 Y878.95 Z-14.251 I-2.695 J0.927
N4650 X226.371 Y877.095 Z-14.563 I2.695 J-0.927
N4655 X220.981 Y878.95 Z-14.876 I-2.695 J0.927
N4660 X226.371 Y877.095 Z-15.189 I2.695 J-0.927
N4665 X220.981 Y878.95 Z-15.501 I-2.695 J0.927
N4670 X226.371 Y877.095 Z-15.814 I2.695 J-0.927
N4675 X220.981 Y878.95 Z-16.127 I-2.695 J0.927
N4680 X223.676 Y880.872 Z-16.25 I2.695 J-0.927
N4685 Y876.963 I0. J-1.955
N4690 G1 X183.676 F1200.
N4695 G2 Y878.843 I0. J0.94
N4700 G1 X223.676
N4705 G2 Y876.963 I0. J-0.94
N4710 G3 X222.131 Y875.933 I0. J-1.674
N4715 G2 X220.586 Y874.903 I-1.545 J0.644
N4720 G1 X183.676
N4725 G2 Y880.903 I0. J3.
N4730 G1 X223.676
N4735 G2 Y874.903 I0. J-3.
N4740 G1 X220.586
N4745 X220.544 Y874.91
N4750 X220.507 Y874.929
N4755 X220.477 Y874.959
N4760 X220.459 Y874.997
N4765 X220.453 Y875.038
N4770 X220.46 Y875.08
N4775 X220.67 Y875.695
N4780 X221.261 Y878.454
N4785 X221.263 Y878.493
N4790 X221.254 Y878.531
N4795 X221.233 Y878.564
N4800 X221.005 Y878.825
N4805 X220.983 Y878.863
N4810 X220.974 Y878.906
N4815 X220.981 Y878.95
N4820 G2 X226.371 Y877.095 Z-16.563 I2.695 J-0.927 F333.33
N4825 X220.981 Y878.95 Z-16.875 I-2.695 J0.927
N4830 X226.371 Y877.095 Z-17.188 I2.695 J-0.927
N4835 X220.981 Y878.95 Z-17.501 I-2.695 J0.927
N4840 X226.371 Y877.095 Z-17.813 I2.695 J-0.927
N4845 X220.981 Y878.95 Z-18.126 I-2.695 J0.927
N4850 X226.371 Y877.095 Z-18.439 I2.695 J-0.927
N4855 X220.981 Y878.95 Z-18.751 I-2.695 J0.927
N4860 X226.371 Y877.095 Z-19.064 I2.695 J-0.927
N4865 X220.981 Y878.95 Z-19.377 I-2.695 J0.927
N4870 X223.676 Y880.872 Z-19.5 I2.695 J-0.927
N4875 Y876.963 I0. J-1.955
N4880 G1 X183.676 F1200.
N4885 G2 Y878.843 I0. J0.94
N4890 G1 X223.676
N4895 G2 Y876.963 I0. J-0.94
N4900 G3 X222.131 Y875.933 I0. J-1.674
N4905 G2 X220.586 Y874.903 I-1.545 J0.644
N4910 G1 X183.676
N4915 G2 Y880.903 I0. J3.
N4920 G1 X223.676
N4925 G2 Y874.903 I0. J-3.
N4930 G1 X220.586
N4935 X220.494 Y874.91 Z-19.485 F500.
N4940 X220.404 Y874.931 Z-19.471
N4945 X220.326 Y874.962 Z-19.428
N4950 X220.253 Y875.004 Z-19.385
N4955 X220.2 Y875.043 Z-19.319
N4960 X220.152 Y875.089 Z-19.253
N4965 X220.098 Y875.154 Z-19.085
N4970 X220.081 Y875.179 Z-18.9
N4975 G0 Z5.
N4980 X321.168 Y876.43
N4985 G1 Z1.6 F500.
N4990 X321.155 Y876.455 Z1.418 F333.33
N4995 X321.118 Y876.528 Z1.254
N5000 X321.064 Y876.643 Z1.122
N5005 X321.004 Y876.793 Z1.034
N5010 X320.946 Y876.964 Z1.
N5015 G2 X326.406 Y878.603 Z0.687 I2.73 J0.82
N5020 X320.946 Y876.964 Z0.375 I-2.73 J-0.82
N5025 X326.406 Y878.603 Z0.062 I2.73 J0.82
N5030 X320.946 Y876.964 Z-0.251 I-2.73 J-0.82
N5035 X326.406 Y878.603 Z-0.563 I2.73 J0.82
N5040 X320.946 Y876.964 Z-0.876 I-2.73 J-0.82
N5045 X326.406 Y878.603 Z-1.189 I2.73 J0.82
N5050 X320.946 Y876.964 Z-1.501 I-2.73 J-0.82
N5055 X326.406 Y878.603 Z-1.814 I2.73 J0.82
N5060 X320.946 Y876.964 Z-2.127 I-2.73 J-0.82
N5065 X326.406 Y878.603 Z-2.439 I2.73 J0.82
N5070 X320.946 Y876.964 Z-2.752 I-2.73 J-0.82
N5075 X326.406 Y878.603 Z-3.065 I2.73 J0.82
N5080 X323.676 Y874.934 Z-3.25 I-2.73 J-0.82
N5085 Y878.843 I0. J1.955
N5090 G1 X363.676 F1200.
N5095 G2 Y876.963 I0. J-0.94
N5100 G1 X323.676
N5105 G2 Y878.843 I0. J0.94
N5110 G3 X325.221 Y879.873 I0. J1.674
N5115 G2 X326.766 Y880.903 I1.545 J-0.644
N5120 G1 X363.676
N5125 G2 Y874.903 I0. J-3.
N5130 G1 X323.676
N5135 G2 Y880.903 I0. J3.
N5140 G1 X326.766
N5145 X326.808 Y880.896
N5150 X326.845 Y880.877
N5155 X326.875 Y880.847
N5160 X326.893 Y880.809
N5165 X326.899 Y880.768
N5170 X326.892 Y880.726
N5175 X326.682 Y880.111
N5180 X326.091 Y877.352
N5185 X326.089 Y877.313
N5190 X326.098 Y877.275
N5195 X326.119 Y877.242
N5200 X326.347 Y876.981
N5205 X326.369 Y876.943
N5210 X326.378 Y876.9
N5215 X326.371 Y876.856
N5220 G2 X320.981 Y878.711 Z-3.563 I-2.695 J0.927 F333.33
N5225 X326.371 Y876.856 Z-3.875 I2.695 J-0.927
N5230 X320.981 Y878.711 Z-4.188 I-2.695 J0.927
N5235 X326.371 Y876.856 Z-4.501 I2.695 J-0.927
N5240 X320.981 Y878.711 Z-4.813 I-2.695 J0.927
N5245 X326.371 Y876.856 Z-5.126 I2.695 J-0.927
N5250 X320.981 Y878.711 Z-5.439 I-2.695 J0.927
N5255 X326.371 Y876.856 Z-5.751 I2.695 J-0.927
N5260 X320.981 Y878.711 Z-6.064 I-2.695 J0.927
N5265 X326.371 Y876.856 Z-6.377 I2.695 J-0.927
N5270 X323.676 Y874.934 Z-6.5 I-2.695 J0.927
N5275 Y878.843 I0. J1.955
N5280 G1 X363.676 F1200.
N5285 G2 Y876.963 I0. J-0.94
N5290 G1 X323.676
N5295 G2 Y878.843 I0. J0.94
N5300 G3 X325.221 Y879.873 I0. J1.674
N5305 G2 X326.766 Y880.903 I1.545 J-0.644
N5310 G1 X363.676
N5315 G2 Y874.903 I0. J-3.
N5320 G1 X323.676
N5325 G2 Y880.903 I0. J3.
N5330 G1 X326.766
N5335 X326.808 Y880.896
N5340 X326.845 Y880.877
N5345 X326.875 Y880.847
N5350 X326.893 Y880.809
N5355 X326.899 Y880.768
N5360 X326.892 Y880.726
N5365 X326.682 Y880.111
N5370 X326.091 Y877.352
N5375 X326.089 Y877.313
N5380 X326.098 Y877.275
N5385 X326.119 Y877.242
N5390 X326.347 Y876.981
N5395 X326.369 Y876.943
N5400 X326.378 Y876.9
N5405 X326.371 Y876.856
N5410 G2 X320.981 Y878.711 Z-6.813 I-2.695 J0.927 F333.33
N5415 X326.371 Y876.856 Z-7.125 I2.695 J-0.927
N5420 X320.981 Y878.711 Z-7.438 I-2.695 J0.927
N5425 X326.371 Y876.856 Z-7.751 I2.695 J-0.927
N5430 X320.981 Y878.711 Z-8.063 I-2.695 J0.927
N5435 X326.371 Y876.856 Z-8.376 I2.695 J-0.927
N5440 X320.981 Y878.711 Z-8.689 I-2.695 J0.927
N5445 X326.371 Y876.856 Z-9.001 I2.695 J-0.927
N5450 X320.981 Y878.711 Z-9.314 I-2.695 J0.927
N5455 X326.371 Y876.856 Z-9.627 I2.695 J-0.927
N5460 X323.676 Y874.934 Z-9.75 I-2.695 J0.927
N5465 Y878.843 I0. J1.955
N5470 G1 X363.676 F1200.
N5475 G2 Y876.963 I0. J-0.94
N5480 G1 X323.676
N5485 G2 Y878.843 I0. J0.94
N5490 G3 X325.221 Y879.873 I0. J1.674
N5495 G2 X326.766 Y880.903 I1.545 J-0.644
N5500 G1 X363.676
N5505 G2 Y874.903 I0. J-3.
N5510 G1 X323.676
N5515 G2 Y880.903 I0. J3.
N5520 G1 X326.766
N5525 X326.808 Y880.896
N5530 X326.845 Y880.877
N5535 X326.875 Y880.847
N5540 X326.893 Y880.809
N5545 X326.899 Y880.768
N5550 X326.892 Y880.726
N5555 X326.682 Y880.111
N5560 X326.091 Y877.352
N5565 X326.089 Y877.313
N5570 X326.098 Y877.275
N5575 X326.119 Y877.242
N5580 X326.347 Y876.981
N5585 X326.369 Y876.943
N5590 X326.378 Y876.9
N5595 X326.371 Y876.856
N5600 G2 X320.981 Y878.711 Z-10.063 I-2.695 J0.927 F333.33
N5605 X326.371 Y876.856 Z-10.375 I2.695 J-0.927
N5610 X320.981 Y878.711 Z-10.688 I-2.695 J0.927
N5615 X326.371 Y876.856 Z-11.001 I2.695 J-0.927
N5620 X320.981 Y878.711 Z-11.313 I-2.695 J0.927
N5625 X326.371 Y876.856 Z-11.626 I2.695 J-0.927
N5630 X320.981 Y878.711 Z-11.939 I-2.695 J0.927
N5635 X326.371 Y876.856 Z-12.251 I2.695 J-0.927
N5640 X320.981 Y878.711 Z-12.564 I-2.695 J0.927
N5645 X326.371 Y876.856 Z-12.877 I2.695 J-0.927
N5650 X323.676 Y874.934 Z-13. I-2.695 J0.927
N5655 Y878.843 I0. J1.955
N5660 G1 X363.676 F1200.
N5665 G2 Y876.963 I0. J-0.94
N5670 G1 X323.676
N5675 G2 Y878.843 I0. J0.94
N5680 G3 X325.221 Y879.873 I0. J1.674
N5685 G2 X326.766 Y880.903 I1.545 J-0.644
N5690 G1 X363.676
N5695 G2 Y874.903 I0. J-3.
N5700 G1 X323.676
N5705 G2 Y880.903 I0. J3.
N5710 G1 X326.766
N5715 X326.808 Y880.896
N5720 X326.845 Y880.877
N5725 X326.875 Y880.847
N5730 X326.893 Y880.809
N5735 X326.899 Y880.768
N5740 X326.892 Y880.726
N5745 X326.682 Y880.111
N5750 X326.091 Y877.352
N5755 X326.089 Y877.313
N5760 X326.098 Y877.275
N5765 X326.119 Y877.242
N5770 X326.347 Y876.981
N5775 X326.369 Y876.943
N5780 X326.378 Y876.9
N5785 X326.371 Y876.856
N5790 G2 X320.981 Y878.711 Z-13.313 I-2.695 J0.927 F333.33
N5795 X326.371 Y876.856 Z-13.625 I2.695 J-0.927
N5800 X320.981 Y878.711 Z-13.938 I-2.695 J0.927
N5805 X326.371 Y876.856 Z-14.251 I2.695 J-0.927
N5810 X320.981 Y878.711 Z-14.563 I-2.695 J0.927
N5815 X326.371 Y876.856 Z-14.876 I2.695 J-0.927
N5820 X320.981 Y878.711 Z-15.189 I-2.695 J0.927
N5825 X326.371 Y876.856 Z-15.501 I2.695 J-0.927
N5830 X320.981 Y878.711 Z-15.814 I-2.695 J0.927
N5835 X326.371 Y876.856 Z-16.127 I2.695 J-0.927
N5840 X323.676 Y874.934 Z-16.25 I-2.695 J0.927
N5845 Y878.843 I0. J1.955
N5850 G1 X363.676 F1200.
N5855 G2 Y876.963 I0. J-0.94
N5860 G1 X323.676
N5865 G2 Y878.843 I0. J0.94
N5870 G3 X325.221 Y879.873 I0. J1.674
N5875 G2 X326.766 Y880.903 I1.545 J-0.644
N5880 G1 X363.676
N5885 G2 Y874.903 I0. J-3.
N5890 G1 X323.676
N5895 G2 Y880.903 I0. J3.
N5900 G1 X326.766
N5905 X326.808 Y880.896
N5910 X326.845 Y880.877
N5915 X326.875 Y880.847
N5920 X326.893 Y880.809
N5925 X326.899 Y880.768
N5930 X326.892 Y880.726
N5935 X326.682 Y880.111
N5940 X326.091 Y877.352
N5945 X326.089 Y877.313
N5950 X326.098 Y877.275
N5955 X326.119 Y877.242
N5960 X326.347 Y876.981
N5965 X326.369 Y876.943
N5970 X326.378 Y876.9
N5975 X326.371 Y876.856
N5980 G2 X320.981 Y878.711 Z-16.563 I-2.695 J0.927 F333.33
N5985 X326.371 Y876.856 Z-16.875 I2.695 J-0.927
N5990 X320.981 Y878.711 Z-17.188 I-2.695 J0.927
N5995 X326.371 Y876.856 Z-17.501 I2.695 J-0.927
N6000 X320.981 Y878.711 Z-17.813 I-2.695 J0.927
N6005 X326.371 Y876.856 Z-18.126 I2.695 J-0.927
N6010 X320.981 Y878.711 Z-18.439 I-2.695 J0.927
N6015 X326.371 Y876.856 Z-18.751 I2.695 J-0.927
N6020 X320.981 Y878.711 Z-19.064 I-2.695 J0.927
N6025 X326.371 Y876.856 Z-19.377 I2.695 J-0.927
N6030 X323.676 Y874.934 Z-19.5 I-2.695 J0.927
N6035 Y878.843 I0. J1.955
N6040 G1 X363.676 F1200.
N6045 G2 Y876.963 I0. J-0.94
N6050 G1 X323.676
N6055 G2 Y878.843 I0. J0.94
N6060 G3 X325.221 Y879.873 I0. J1.674
N6065 G2 X326.766 Y880.903 I1.545 J-0.644
N6070 G1 X363.676
N6075 G2 Y874.903 I0. J-3.
N6080 G1 X323.676
N6085 G2 Y880.903 I0. J3.
N6090 G1 X326.766
N6095 X326.858 Y880.896 Z-19.485 F500.
N6100 X326.948 Y880.875 Z-19.471
N6105 X327.026 Y880.844 Z-19.428
N6110 X327.099 Y880.802 Z-19.385
N6115 X327.152 Y880.763 Z-19.319
N6120 X327.2 Y880.717 Z-19.253
N6125 X327.254 Y880.651 Z-19.085
N6130 X327.271 Y880.627 Z-18.9
N6135 G0 Z5.
N6140 X321.168 Y646.43
N6145 G1 Z1.6 F500.
N6150 X321.155 Y646.455 Z1.418 F333.33
N6155 X321.118 Y646.528 Z1.254
N6160 X321.064 Y646.643 Z1.122
N6165 X321.004 Y646.793 Z1.034
N6170 X320.946 Y646.964 Z1.
N6175 G2 X326.406 Y648.603 Z0.687 I2.73 J0.82
N6180 X320.946 Y646.964 Z0.375 I-2.73 J-0.82
N6185 X326.406 Y648.603 Z0.062 I2.73 J0.82
N6190 X320.946 Y646.964 Z-0.251 I-2.73 J-0.82
N6195 X326.406 Y648.603 Z-0.563 I2.73 J0.82
N6200 X320.946 Y646.964 Z-0.876 I-2.73 J-0.82
N6205 X326.406 Y648.603 Z-1.189 I2.73 J0.82
N6210 X320.946 Y646.964 Z-1.501 I-2.73 J-0.82
N6215 X326.406 Y648.603 Z-1.814 I2.73 J0.82
N6220 X320.946 Y646.964 Z-2.127 I-2.73 J-0.82
N6225 X326.406 Y648.603 Z-2.439 I2.73 J0.82
N6230 X320.946 Y646.964 Z-2.752 I-2.73 J-0.82
N6235 X326.406 Y648.603 Z-3.065 I2.73 J0.82
N6240 X323.676 Y644.934 Z-3.25 I-2.73 J-0.82
N6245 Y648.843 I0. J1.955
N6250 G1 X363.676 F1200.
N6255 G2 Y646.963 I0. J-0.94
N6260 G1 X323.676
N6265 G2 Y648.843 I0. J0.94
N6270 G3 X325.221 Y649.873 I0. J1.674
N6275 G2 X326.766 Y650.903 I1.545 J-0.644
N6280 G1 X363.676
N6285 G2 Y644.903 I0. J-3.
N6290 G1 X323.676
N6295 G2 Y650.903 I0. J3.
N6300 G1 X326.766
N6305 G2 X326.857 Y650.317 I0. J-0.3
N6310 G1 X321.356 Y648.566
N6315 G2 X320.981 Y648.95 I-0.091 J0.286
N6320 X326.371 Y647.095 Z-3.563 I2.695 J-0.927 F333.33
N6325 X320.981 Y648.95 Z-3.875 I-2.695 J0.927
N6330 X326.371 Y647.095 Z-4.188 I2.695 J-0.927
N6335 X320.981 Y648.95 Z-4.501 I-2.695 J0.927
N6340 X326.371 Y647.095 Z-4.813 I2.695 J-0.927
N6345 X320.981 Y648.95 Z-5.126 I-2.695 J0.927
N6350 X326.371 Y647.095 Z-5.439 I2.695 J-0.927
N6355 X320.981 Y648.95 Z-5.751 I-2.695 J0.927
N6360 X326.371 Y647.095 Z-6.064 I2.695 J-0.927
N6365 X320.981 Y648.95 Z-6.377 I-2.695 J0.927
N6370 X323.676 Y650.872 Z-6.5 I2.695 J-0.927
N6375 Y646.963 I0. J-1.955
N6380 Y648.843 I0. J0.94 F1200.
N6385 G1 X363.676
N6390 G2 Y646.963 I0. J-0.94
N6395 G1 X323.676
N6400 G3 X322.47 Y646.322 I0. J-1.456
N6405 G2 X321.104 Y646.359 I-0.671 J0.453
N6410 X323.676 Y650.903 I2.572 J1.544
N6415 G1 X363.676
N6420 G2 Y644.903 I0. J-3.
N6425 G1 X323.676
N6430 G2 X321.104 Y646.359 I0. J3.
N6435 X321.313 Y646.809 I0.257 J0.154
N6440 G1 X323.676 Y647.19
N6445 X326.079 Y647.254
N6450 G2 X326.371 Y646.856 I0.008 J-0.3
N6455 X320.981 Y648.711 Z-6.813 I-2.695 J0.927 F333.33
N6460 X326.371 Y646.856 Z-7.125 I2.695 J-0.927
N6465 X320.981 Y648.711 Z-7.438 I-2.695 J0.927
N6470 X326.371 Y646.856 Z-7.751 I2.695 J-0.927
N6475 X320.981 Y648.711 Z-8.063 I-2.695 J0.927
N6480 X326.371 Y646.856 Z-8.376 I2.695 J-0.927
N6485 X320.981 Y648.711 Z-8.689 I-2.695 J0.927
N6490 X326.371 Y646.856 Z-9.001 I2.695 J-0.927
N6495 X320.981 Y648.711 Z-9.314 I-2.695 J0.927
N6500 X326.371 Y646.856 Z-9.627 I2.695 J-0.927
N6505 X323.676 Y644.934 Z-9.75 I-2.695 J0.927
N6510 Y648.843 I0. J1.955
N6515 G1 X363.676 F1200.
N6520 G2 Y646.963 I0. J-0.94
N6525 G1 X323.676
N6530 G2 Y648.843 I0. J0.94
N6535 G3 X325.221 Y649.873 I0. J1.674
N6540 G2 X326.766 Y650.903 I1.545 J-0.644
N6545 G1 X363.676
N6550 G2 Y644.903 I0. J-3.
N6555 G1 X323.676
N6560 G2 Y650.903 I0. J3.
N6565 G1 X326.766
N6570 G2 X326.857 Y650.317 I0. J-0.3
N6575 G1 X321.356 Y648.566
N6580 G2 X320.981 Y648.95 I-0.091 J0.286
N6585 X326.371 Y647.095 Z-10.063 I2.695 J-0.927 F333.33
N6590 X320.981 Y648.95 Z-10.375 I-2.695 J0.927
N6595 X326.371 Y647.095 Z-10.688 I2.695 J-0.927
N6600 X320.981 Y648.95 Z-11.001 I-2.695 J0.927
N6605 X326.371 Y647.095 Z-11.313 I2.695 J-0.927
N6610 X320.981 Y648.95 Z-11.626 I-2.695 J0.927
N6615 X326.371 Y647.095 Z-11.939 I2.695 J-0.927
N6620 X320.981 Y648.95 Z-12.251 I-2.695 J0.927
N6625 X326.371 Y647.095 Z-12.564 I2.695 J-0.927
N6630 X320.981 Y648.95 Z-12.877 I-2.695 J0.927
N6635 X323.676 Y650.872 Z-13. I2.695 J-0.927
N6640 Y646.963 I0. J-1.955
N6645 Y648.843 I0. J0.94 F1200.
N6650 G1 X363.676
N6655 G2 Y646.963 I0. J-0.94
N6660 G1 X323.676
N6665 G3 X322.47 Y646.322 I0. J-1.456
N6670 G2 X321.104 Y646.359 I-0.671 J0.453
N6675 X323.676 Y650.903 I2.572 J1.544
N6680 G1 X363.676
N6685 G2 Y644.903 I0. J-3.
N6690 G1 X323.676
N6695 G2 X321.104 Y646.359 I0. J3.
N6700 X321.313 Y646.809 I0.257 J0.154
N6705 G1 X323.676 Y647.19
N6710 X326.079 Y647.254
N6715 G2 X326.371 Y646.856 I0.008 J-0.3
N6720 X320.981 Y648.711 Z-13.313 I-2.695 J0.927 F333.33
N6725 X326.371 Y646.856 Z-13.625 I2.695 J-0.927
N6730 X320.981 Y648.711 Z-13.938 I-2.695 J0.927
N6735 X326.371 Y646.856 Z-14.251 I2.695 J-0.927
N6740 X320.981 Y648.711 Z-14.563 I-2.695 J0.927
N6745 X326.371 Y646.856 Z-14.876 I2.695 J-0.927
N6750 X320.981 Y648.711 Z-15.189 I-2.695 J0.927
N6755 X326.371 Y646.856 Z-15.501 I2.695 J-0.927
N6760 X320.981 Y648.711 Z-15.814 I-2.695 J0.927
N6765 X326.371 Y646.856 Z-16.127 I2.695 J-0.927
N6770 X323.676 Y644.934 Z-16.25 I-2.695 J0.927
N6775 Y648.843 I0. J1.955
N6780 G1 X363.676 F1200.
N6785 G2 Y646.963 I0. J-0.94
N6790 G1 X323.676
N6795 G2 Y648.843 I0. J0.94
N6800 G3 X325.221 Y649.873 I0. J1.674
N6805 G2 X326.766 Y650.903 I1.545 J-0.644
N6810 G1 X363.676
N6815 G2 Y644.903 I0. J-3.
N6820 G1 X323.676
N6825 G2 Y650.903 I0. J3.
N6830 G1 X326.766
N6835 G2 X326.857 Y650.317 I0. J-0.3
N6840 G1 X321.356 Y648.566
N6845 G2 X320.981 Y648.95 I-0.091 J0.286
N6850 X326.371 Y647.095 Z-16.563 I2.695 J-0.927 F333.33
N6855 X320.981 Y648.95 Z-16.875 I-2.695 J0.927
N6860 X326.371 Y647.095 Z-17.188 I2.695 J-0.927
N6865 X320.981 Y648.95 Z-17.501 I-2.695 J0.927
N6870 X326.371 Y647.095 Z-17.813 I2.695 J-0.927
N6875 X320.981 Y648.95 Z-18.126 I-2.695 J0.927
N6880 X326.371 Y647.095 Z-18.439 I2.695 J-0.927
N6885 X320.981 Y648.95 Z-18.751 I-2.695 J0.927
N6890 X326.371 Y647.095 Z-19.064 I2.695 J-0.927
N6895 X320.981 Y648.95 Z-19.377 I-2.695 J0.927
N6900 X323.676 Y650.872 Z-19.5 I2.695 J-0.927
N6905 Y646.963 I0. J-1.955
N6910 Y648.843 I0. J0.94 F1200.
N6915 G1 X363.676
N6920 G2 Y646.963 I0. J-0.94
N6925 G1 X323.676
N6930 G3 X322.47 Y646.322 I0. J-1.456
N6935 G2 X321.104 Y646.359 I-0.671 J0.453
N6940 X323.676 Y650.903 I2.572 J1.544
N6945 G1 X363.676
N6950 G2 Y644.903 I0. J-3.
N6955 G1 X323.676
N6960 G2 X321.104 Y646.359 I0. J3.
N6965 G1 X321.063 Y646.441 Z-19.485 F500.
N6970 X321.035 Y646.53 Z-19.471
N6975 X321.021 Y646.612 Z-19.428
N6980 X321.019 Y646.696 Z-19.385
N6985 X321.026 Y646.762 Z-19.319
N6990 X321.04 Y646.826 Z-19.253
N6995 X321.068 Y646.907 Z-19.085
N7000 X321.081 Y646.933 Z-18.9
N7005 G0 Z5.
N7010 X226.184 Y649.376
N7015 G1 Z1.6 F500.
N7020 X226.197 Y649.351 Z1.418 F333.33
N7025 X226.234 Y649.278 Z1.254
N7030 X226.288 Y649.163 Z1.122
N7035 X226.348 Y649.013 Z1.034
N7040 X226.406 Y648.842 Z1.
N7045 G2 X220.946 Y647.203 Z0.687 I-2.73 J-0.82
N7050 X226.406 Y648.842 Z0.375 I2.73 J0.82
N7055 X220.946 Y647.203 Z0.062 I-2.73 J-0.82
N7060 X226.406 Y648.842 Z-0.251 I2.73 J0.82
N7065 X220.946 Y647.203 Z-0.563 I-2.73 J-0.82
N7070 X226.406 Y648.842 Z-0.876 I2.73 J0.82
N7075 X220.946 Y647.203 Z-1.189 I-2.73 J-0.82
N7080 X226.406 Y648.842 Z-1.501 I2.73 J0.82
N7085 X220.946 Y647.203 Z-1.814 I-2.73 J-0.82
N7090 X226.406 Y648.842 Z-2.127 I2.73 J0.82
N7095 X220.946 Y647.203 Z-2.439 I-2.73 J-0.82
N7100 X226.406 Y648.842 Z-2.752 I2.73 J0.82
N7105 X220.946 Y647.203 Z-3.065 I-2.73 J-0.82
N7110 X223.676 Y650.872 Z-3.25 I2.73 J0.82
N7115 Y646.963 I0. J-1.955
N7120 G1 X183.676 F1200.
N7125 G2 Y648.843 I0. J0.94
N7130 G1 X223.676
N7135 G2 Y646.963 I0. J-0.94
N7140 G3 X222.131 Y645.933 I0. J-1.674
N7145 G2 X220.586 Y644.903 I-1.545 J0.644
N7150 G1 X183.676
N7155 G2 Y650.903 I0. J3.
N7160 G1 X223.676
N7165 G2 Y644.903 I0. J-3.
N7170 G1 X220.586
N7175 X220.544 Y644.91
N7180 X220.507 Y644.929
N7185 X220.477 Y644.959
N7190 X220.459 Y644.997
N7195 X220.453 Y645.038
N7200 X220.46 Y645.08
N7205 X220.67 Y645.695
N7210 X221.261 Y648.454
N7215 X221.263 Y648.493
N7220 X221.254 Y648.531
N7225 X221.233 Y648.564
N7230 X221.005 Y648.825
N7235 X220.983 Y648.863
N7240 X220.974 Y648.906
N7245 X220.981 Y648.95
N7250 G2 X226.371 Y647.095 Z-3.563 I2.695 J-0.927 F333.33
N7255 X220.981 Y648.95 Z-3.875 I-2.695 J0.927
N7260 X226.371 Y647.095 Z-4.188 I2.695 J-0.927
N7265 X220.981 Y648.95 Z-4.501 I-2.695 J0.927
N7270 X226.371 Y647.095 Z-4.813 I2.695 J-0.927
N7275 X220.981 Y648.95 Z-5.126 I-2.695 J0.927
N7280 X226.371 Y647.095 Z-5.439 I2.695 J-0.927
N7285 X220.981 Y648.95 Z-5.751 I-2.695 J0.927
N7290 X226.371 Y647.095 Z-6.064 I2.695 J-0.927
N7295 X220.981 Y648.95 Z-6.377 I-2.695 J0.927
N7300 X223.676 Y650.872 Z-6.5 I2.695 J-0.927
N7305 Y646.963 I0. J-1.955
N7310 G1 X183.676 F1200.
N7315 G2 Y648.843 I0. J0.94
N7320 G1 X223.676
N7325 G2 Y646.963 I0. J-0.94
N7330 G3 X222.131 Y645.933 I0. J-1.674
N7335 G2 X220.586 Y644.903 I-1.545 J0.644
N7340 G1 X183.676
N7345 G2 Y650.903 I0. J3.
N7350 G1 X223.676
N7355 G2 Y644.903 I0. J-3.
N7360 G1 X220.586
N7365 X220.544 Y644.91
N7370 X220.507 Y644.929
N7375 X220.477 Y644.959
N7380 X220.459 Y644.997
N7385 X220.453 Y645.038
N7390 X220.46 Y645.08
N7395 X220.67 Y645.695
N7400 X221.261 Y648.454
N7405 X221.263 Y648.493
N7410 X221.254 Y648.531
N7415 X221.233 Y648.564
N7420 X221.005 Y648.825
N7425 X220.983 Y648.863
N7430 X220.974 Y648.906
N7435 X220.981 Y648.95
N7440 G2 X226.371 Y647.095 Z-6.813 I2.695 J-0.927 F333.33
N7445 X220.981 Y648.95 Z-7.125 I-2.695 J0.927
N7450 X226.371 Y647.095 Z-7.438 I2.695 J-0.927
N7455 X220.981 Y648.95 Z-7.751 I-2.695 J0.927
N7460 X226.371 Y647.095 Z-8.063 I2.695 J-0.927
N7465 X220.981 Y648.95 Z-8.376 I-2.695 J0.927
N7470 X226.371 Y647.095 Z-8.689 I2.695 J-0.927
N7475 X220.981 Y648.95 Z-9.001 I-2.695 J0.927
N7480 X226.371 Y647.095 Z-9.314 I2.695 J-0.927
N7485 X220.981 Y648.95 Z-9.627 I-2.695 J0.927
N7490 X223.676 Y650.872 Z-9.75 I2.695 J-0.927
N7495 Y646.963 I0. J-1.955
N7500 G1 X183.676 F1200.
N7505 G2 Y648.843 I0. J0.94
N7510 G1 X223.676
N7515 G2 Y646.963 I0. J-0.94
N7520 G3 X222.131 Y645.933 I0. J-1.674
N7525 G2 X220.586 Y644.903 I-1.545 J0.644
N7530 G1 X183.676
N7535 G2 Y650.903 I0. J3.
N7540 G1 X223.676
N7545 G2 Y644.903 I0. J-3.
N7550 G1 X220.586
N7555 X220.544 Y644.91
N7560 X220.507 Y644.929
N7565 X220.477 Y644.959
N7570 X220.459 Y644.997
N7575 X220.453 Y645.038
N7580 X220.46 Y645.08
N7585 X220.67 Y645.695
N7590 X221.261 Y648.454
N7595 X221.263 Y648.493
N7600 X221.254 Y648.531
N7605 X221.233 Y648.564
N7610 X221.005 Y648.825
N7615 X220.983 Y648.863
N7620 X220.974 Y648.906
N7625 X220.981 Y648.95
N7630 G2 X226.371 Y647.095 Z-10.063 I2.695 J-0.927 F333.33
N7635 X220.981 Y648.95 Z-10.375 I-2.695 J0.927
N7640 X226.371 Y647.095 Z-10.688 I2.695 J-0.927
N7645 X220.981 Y648.95 Z-11.001 I-2.695 J0.927
N7650 X226.371 Y647.095 Z-11.313 I2.695 J-0.927
N7655 X220.981 Y648.95 Z-11.626 I-2.695 J0.927
N7660 X226.371 Y647.095 Z-11.939 I2.695 J-0.927
N7665 X220.981 Y648.95 Z-12.251 I-2.695 J0.927
N7670 X226.371 Y647.095 Z-12.564 I2.695 J-0.927
N7675 X220.981 Y648.95 Z-12.877 I-2.695 J0.927
N7680 X223.676 Y650.872 Z-13. I2.695 J-0.927
N7685 Y646.963 I0. J-1.955
N7690 G1 X183.676 F1200.
N7695 G2 Y648.843 I0. J0.94
N7700 G1 X223.676
N7705 G2 Y646.963 I0. J-0.94
N7710 G3 X222.131 Y645.933 I0. J-1.674
N7715 G2 X220.586 Y644.903 I-1.545 J0.644
N7720 G1 X183.676
N7725 G2 Y650.903 I0. J3.
N7730 G1 X223.676
N7735 G2 Y644.903 I0. J-3.
N7740 G1 X220.586
N7745 X220.544 Y644.91
N7750 X220.507 Y644.929
N7755 X220.477 Y644.959
N7760 X220.459 Y644.997
N7765 X220.453 Y645.038
N7770 X220.46 Y645.08
N7775 X220.67 Y645.695
N7780 X221.261 Y648.454
N7785 X221.263 Y648.493
N7790 X221.254 Y648.531
N7795 X221.233 Y648.564
N7800 X221.005 Y648.825
N7805 X220.983 Y648.863
N7810 X220.974 Y648.906
N7815 X220.981 Y648.95
N7820 G2 X226.371 Y647.095 Z-13.313 I2.695 J-0.927 F333.33
N7825 X220.981 Y648.95 Z-13.625 I-2.695 J0.927
N7830 X226.371 Y647.095 Z-13.938 I2.695 J-0.927
N7835 X220.981 Y648.95 Z-14.251 I-2.695 J0.927
N7840 X226.371 Y647.095 Z-14.563 I2.695 J-0.927
N7845 X220.981 Y648.95 Z-14.876 I-2.695 J0.927
N7850 X226.371 Y647.095 Z-15.189 I2.695 J-0.927
N7855 X220.981 Y648.95 Z-15.501 I-2.695 J0.927
N7860 X226.371 Y647.095 Z-15.814 I2.695 J-0.927
N7865 X220.981 Y648.95 Z-16.127 I-2.695 J0.927
N7870 X223.676 Y650.872 Z-16.25 I2.695 J-0.927
N7875 Y646.963 I0. J-1.955
N7880 G1 X183.676 F1200.
N7885 G2 Y648.843 I0. J0.94
N7890 G1 X223.676
N7895 G2 Y646.963 I0. J-0.94
N7900 G3 X222.131 Y645.933 I0. J-1.674
N7905 G2 X220.586 Y644.903 I-1.545 J0.644
N7910 G1 X183.676
N7915 G2 Y650.903 I0. J3.
N7920 G1 X223.676
N7925 G2 Y644.903 I0. J-3.
N7930 G1 X220.586
N7935 X220.544 Y644.91
N7940 X220.507 Y644.929
N7945 X220.477 Y644.959
N7950 X220.459 Y644.997
N7955 X220.453 Y645.038
N7960 X220.46 Y645.08
N7965 X220.67 Y645.695
N7970 X221.261 Y648.454
N7975 X221.263 Y648.493
N7980 X221.254 Y648.531
N7985 X221.233 Y648.564
N7990 X221.005 Y648.825
N7995 X220.983 Y648.863
N8000 X220.974 Y648.906
N8005 X220.981 Y648.95
N8010 G2 X226.371 Y647.095 Z-16.563 I2.695 J-0.927 F333.33
N8015 X220.981 Y648.95 Z-16.875 I-2.695 J0.927
N8020 X226.371 Y647.095 Z-17.188 I2.695 J-0.927
N8025 X220.981 Y648.95 Z-17.501 I-2.695 J0.927
N8030 X226.371 Y647.095 Z-17.813 I2.695 J-0.927
N8035 X220.981 Y648.95 Z-18.126 I-2.695 J0.927
N8040 X226.371 Y647.095 Z-18.439 I2.695 J-0.927
N8045 X220.981 Y648.95 Z-18.751 I-2.695 J0.927
N8050 X226.371 Y647.095 Z-19.064 I2.695 J-0.927
N8055 X220.981 Y648.95 Z-19.377 I-2.695 J0.927
N8060 X223.676 Y650.872 Z-19.5 I2.695 J-0.927
N8065 Y646.963 I0. J-1.955
N8070 G1 X183.676 F1200.
N8075 G2 Y648.843 I0. J0.94
N8080 G1 X223.676
N8085 G2 Y646.963 I0. J-0.94
N8090 G3 X222.131 Y645.933 I0. J-1.674
N8095 G2 X220.586 Y644.903 I-1.545 J0.644
N8100 G1 X183.676
N8105 G2 Y650.903 I0. J3.
N8110 G1 X223.676
N8115 G2 Y644.903 I0. J-3.
N8120 G1 X220.586
N8125 X220.494 Y644.91 Z-19.485 F500.
N8130 X220.404 Y644.931 Z-19.471
N8135 X220.326 Y644.962 Z-19.428
N8140 X220.253 Y645.004 Z-19.385
N8145 X220.2 Y645.043 Z-19.319
N8150 X220.152 Y645.089 Z-19.253
N8155 X220.098 Y645.154 Z-19.085
N8160 X220.081 Y645.179 Z-18.9
N8165 G0 Z15.
(2D CONTOUR1)
N8170 G0 X386.243 Y1245.795
N8175 Z15.
N8180 Z5.
N8185 G1 Z4.5 F100.33
N8190 Z-2.733
N8195 X386.244 Y1245.787 Z-2.827
N8200 X386.247 Y1245.766 Z-2.919
N8205 X386.252 Y1245.73 Z-3.006
N8210 X386.26 Y1245.681 Z-3.086
N8215 X386.269 Y1245.621 Z-3.158
N8220 X386.28 Y1245.55 Z-3.219
N8225 X386.292 Y1245.471 Z-3.268
N8230 X386.305 Y1245.385 Z-3.304
N8235 X386.318 Y1245.294 Z-3.326
N8240 X386.333 Y1245.201 Z-3.333
N8245 X386.422 Y1244.608 F500.
N8250 G2 X385.919 Y1243.925 I-0.593 J-0.09
N8255 G3 X347.047 Y1189.823 I6.971 J-46.025 F1200.
N8260 G1 X367.444 Y1074.143
N8265 G2 X317.316 Y1035.105 I-35.403 J-6.242
N8270 G3 X230.037 I-43.639 J-97.202
N8275 G2 X179.91 Y1074.143 I-14.725 J32.795
N8280 G1 X200.306 Y1189.823
N8285 G3 X154.463 Y1244.45 I-45.843 J8.077
N8290 G1 X23.676
N8295 G3 X17.151 Y1237.329 I0. J-6.55
N8300 G1 X44.16 Y928.616
N8305 G3 X48.853 Y905.337 I106.147 J9.286
N8310 G1 X156.295 Y570.619
N8315 G3 X210.14 Y531.353 I53.844 J17.283
N8320 G1 X337.213
N8325 G3 X391.058 Y570.619 I0. J56.551
N8330 G1 X498.5 Y905.337
N8335 G3 X503.192 Y928.616 I-101.452 J32.563
N8340 G1 X530.201 Y1237.329
N8345 G3 X523.676 Y1244.45 I-6.525 J0.571
N8350 G1 X392.89
N8355 G3 X385.919 Y1243.925 I0. J-46.55
N8360 X383.925 Y1242.074 I0.362 J-2.39
N8365 G2 X382.027 Y1240.125 I-2.55 J0.584
N8370 G3 X349.952 Y1190.335 I10.863 J-42.225
N8375 G1 X370.349 Y1074.655
N8380 G2 X316.108 Y1032.414 I-38.308 J-6.755
N8385 G3 X231.246 I-42.431 J-94.511
N8390 G2 X177.004 Y1074.655 I-15.933 J35.486
N8395 G1 X197.4 Y1190.335
N8400 G3 X154.463 Y1241.5 I-42.938 J7.566
N8405 G1 X23.676
N8410 G3 X20.09 Y1237.586 I0. J-3.6
N8415 G1 X47.099 Y928.873
N8420 G3 X51.662 Y906.239 I103.206 J9.029
N8425 G1 X159.104 Y571.521
N8430 G3 X210.14 Y534.303 I51.035 J16.383
N8435 G1 X337.213
N8440 G3 X388.249 Y571.521 I0. J53.6
N8445 G1 X495.691 Y906.239
N8450 G3 X500.253 Y928.873 I-98.643 J31.661
N8455 G1 X527.262 Y1237.586
N8460 G3 X523.676 Y1241.5 I-3.586 J0.314
N8465 G1 X392.89
N8470 G3 X382.027 Y1240.125 I0. J-43.6
N8475 X381.665 Y1239.72 I0.122 J-0.473
N8480 G2 X381.307 Y1239.311 I-0.491 J0.069
N8485 G3 X350.543 Y1190.439 I11.583 J-41.41
N8490 G1 X370.94 Y1074.759
N8495 G2 X315.862 Y1031.867 I-38.899 J-6.859
N8500 G3 X231.491 I-42.185 J-93.964
N8505 G2 X176.413 Y1074.759 I-16.179 J36.034
N8510 G1 X196.809 Y1190.439
N8515 G3 X154.463 Y1240.9 I-42.347 J7.462
N8520 G1 X23.676
N8525 G3 X20.688 Y1237.639 I0. J-3.
N8530 G1 X47.697 Y928.926
N8535 G3 X52.234 Y906.422 I102.608 J8.977
N8540 G1 X159.676 Y571.704
N8545 G3 X210.14 Y534.903 I50.464 J16.199
N8550 G1 X337.213
N8555 G3 X387.677 Y571.704 I0. J53.
N8560 G1 X495.119 Y906.422
N8565 G3 X499.656 Y928.926 I-98.072 J31.478
N8570 G1 X526.665 Y1237.639
N8575 G3 X523.676 Y1240.9 I-2.989 J0.261
N8580 G1 X392.89
N8585 G3 X381.307 Y1239.311 I0. J-43.
N8590 G2 X380.568 Y1239.727 I-0.162 J0.578 F500.
N8595 G1 X380.406 Y1240.305
N8600 X380.381 Y1240.395 Z-3.326
N8605 X380.356 Y1240.483 Z-3.304
N8610 X380.333 Y1240.567 Z-3.268
N8615 X380.311 Y1240.644 Z-3.219
N8620 X380.292 Y1240.713 Z-3.158
N8625 X380.275 Y1240.772 Z-3.086
N8630 X380.262 Y1240.819 Z-3.006
N8635 X380.252 Y1240.854 Z-2.919
N8640 X380.246 Y1240.875 Z-2.827
N8645 X380.244 Y1240.882 Z-2.733
N8650 G0 Z5.
N8655 X386.243 Y1245.795
N8660 G1 Z1.167 F100.33
N8665 Z-6.067
N8670 X386.244 Y1245.787 Z-6.161
N8675 X386.247 Y1245.766 Z-6.252
N8680 X386.252 Y1245.73 Z-6.339
N8685 X386.26 Y1245.681 Z-6.419
N8690 X386.269 Y1245.621 Z-6.491
N8695 X386.28 Y1245.55 Z-6.552
N8700 X386.292 Y1245.471 Z-6.601
N8705 X386.305 Y1245.385 Z-6.637
N8710 X386.318 Y1245.294 Z-6.659
N8715 X386.333 Y1245.201 Z-6.667
N8720 X386.422 Y1244.608 F500.
N8725 G2 X385.919 Y1243.925 I-0.593 J-0.09
N8730 G3 X347.047 Y1189.823 I6.971 J-46.025 F1200.
N8735 G1 X367.444 Y1074.143
N8740 G2 X317.316 Y1035.105 I-35.403 J-6.242
N8745 G3 X230.037 I-43.639 J-97.202
N8750 G2 X179.91 Y1074.143 I-14.725 J32.795
N8755 G1 X200.306 Y1189.823
N8760 G3 X154.463 Y1244.45 I-45.843 J8.077
N8765 G1 X23.676
N8770 G3 X17.151 Y1237.329 I0. J-6.55
N8775 G1 X44.16 Y928.616
N8780 G3 X48.853 Y905.337 I106.147 J9.286
N8785 G1 X156.295 Y570.619
N8790 G3 X210.14 Y531.353 I53.844 J17.283
N8795 G1 X337.213
N8800 G3 X391.058 Y570.619 I0. J56.551
N8805 G1 X498.5 Y905.337
N8810 G3 X503.192 Y928.616 I-101.452 J32.563
N8815 G1 X530.201 Y1237.329
N8820 G3 X523.676 Y1244.45 I-6.525 J0.571
N8825 G1 X392.89
N8830 G3 X385.919 Y1243.925 I0. J-46.55
N8835 X383.925 Y1242.074 I0.362 J-2.39
N8840 G2 X382.027 Y1240.125 I-2.55 J0.584
N8845 G3 X349.952 Y1190.335 I10.863 J-42.225
N8850 G1 X370.349 Y1074.655
N8855 G2 X316.108 Y1032.414 I-38.308 J-6.755
N8860 G3 X231.246 I-42.431 J-94.511
N8865 G2 X177.004 Y1074.655 I-15.933 J35.486
N8870 G1 X197.4 Y1190.335
N8875 G3 X154.463 Y1241.5 I-42.938 J7.566
N8880 G1 X23.676
N8885 G3 X20.09 Y1237.586 I0. J-3.6
N8890 G1 X47.099 Y928.873
N8895 G3 X51.662 Y906.239 I103.206 J9.029
N8900 G1 X159.104 Y571.521
N8905 G3 X210.14 Y534.303 I51.035 J16.383
N8910 G1 X337.213
N8915 G3 X388.249 Y571.521 I0. J53.6
N8920 G1 X495.691 Y906.239
N8925 G3 X500.253 Y928.873 I-98.643 J31.661
N8930 G1 X527.262 Y1237.586
N8935 G3 X523.676 Y1241.5 I-3.586 J0.314
N8940 G1 X392.89
N8945 G3 X382.027 Y1240.125 I0. J-43.6
N8950 X381.665 Y1239.72 I0.122 J-0.473
N8955 G2 X381.307 Y1239.311 I-0.491 J0.069
N8960 G3 X350.543 Y1190.439 I11.583 J-41.41
N8965 G1 X370.94 Y1074.759
N8970 G2 X315.862 Y1031.867 I-38.899 J-6.859
N8975 G3 X231.491 I-42.185 J-93.964
N8980 G2 X176.413 Y1074.759 I-16.179 J36.034
N8985 G1 X196.809 Y1190.439
N8990 G3 X154.463 Y1240.9 I-42.347 J7.462
N8995 G1 X23.676
N9000 G3 X20.688 Y1237.639 I0. J-3.
N9005 G1 X47.697 Y928.926
N9010 G3 X52.234 Y906.422 I102.608 J8.977
N9015 G1 X159.676 Y571.704
N9020 G3 X210.14 Y534.903 I50.464 J16.199
N9025 G1 X337.213
N9030 G3 X387.677 Y571.704 I0. J53.
N9035 G1 X495.119 Y906.422
N9040 G3 X499.656 Y928.926 I-98.072 J31.478
N9045 G1 X526.665 Y1237.639
N9050 G3 X523.676 Y1240.9 I-2.989 J0.261
N9055 G1 X392.89
N9060 G3 X381.307 Y1239.311 I0. J-43.
N9065 G2 X380.568 Y1239.727 I-0.162 J0.578 F500.
N9070 G1 X380.406 Y1240.305
N9075 X380.381 Y1240.395 Z-6.659
N9080 X380.356 Y1240.483 Z-6.637
N9085 X380.333 Y1240.567 Z-6.601
N9090 X380.311 Y1240.644 Z-6.552
N9095 X380.292 Y1240.713 Z-6.491
N9100 X380.275 Y1240.772 Z-6.419
N9105 X380.262 Y1240.819 Z-6.339
N9110 X380.252 Y1240.854 Z-6.252
N9115 X380.246 Y1240.875 Z-6.161
N9120 X380.244 Y1240.882 Z-6.067
N9125 G0 Z5.
N9130 X386.243 Y1245.795
N9135 G1 Z-2.167 F100.33
N9140 Z-9.4
N9145 X386.244 Y1245.787 Z-9.494
N9150 X386.247 Y1245.766 Z-9.585
N9155 X386.252 Y1245.73 Z-9.672
N9160 X386.26 Y1245.681 Z-9.753
N9165 X386.269 Y1245.621 Z-9.824
N9170 X386.28 Y1245.55 Z-9.885
N9175 X386.292 Y1245.471 Z-9.935
N9180 X386.305 Y1245.385 Z-9.971
N9185 X386.318 Y1245.294 Z-9.993
N9190 X386.333 Y1245.201 Z-10.
N9195 X386.422 Y1244.608 F500.
N9200 G2 X385.919 Y1243.925 I-0.593 J-0.09
N9205 G3 X347.047 Y1189.823 I6.971 J-46.025 F1200.
N9210 G1 X367.444 Y1074.143
N9215 G2 X317.316 Y1035.105 I-35.403 J-6.242
N9220 G3 X230.037 I-43.639 J-97.202
N9225 G2 X179.91 Y1074.143 I-14.725 J32.795
N9230 G1 X200.306 Y1189.823
N9235 G3 X154.463 Y1244.45 I-45.843 J8.077
N9240 G1 X23.676
N9245 G3 X17.151 Y1237.329 I0. J-6.55
N9250 G1 X44.16 Y928.616
N9255 G3 X48.853 Y905.337 I106.147 J9.286
N9260 G1 X156.295 Y570.619
N9265 G3 X210.14 Y531.353 I53.844 J17.283
N9270 G1 X337.213
N9275 G3 X391.058 Y570.619 I0. J56.551
N9280 G1 X498.5 Y905.337
N9285 G3 X503.192 Y928.616 I-101.452 J32.563
N9290 G1 X530.201 Y1237.329
N9295 G3 X523.676 Y1244.45 I-6.525 J0.571
N9300 G1 X392.89
N9305 G3 X385.919 Y1243.925 I0. J-46.55
N9310 X383.925 Y1242.074 I0.362 J-2.39
N9315 G2 X382.027 Y1240.125 I-2.55 J0.584
N9320 G3 X349.952 Y1190.335 I10.863 J-42.225
N9325 G1 X370.349 Y1074.655
N9330 G2 X316.108 Y1032.414 I-38.308 J-6.755
N9335 G3 X231.246 I-42.431 J-94.511
N9340 G2 X177.004 Y1074.655 I-15.933 J35.486
N9345 G1 X197.4 Y1190.335
N9350 G3 X154.463 Y1241.5 I-42.938 J7.566
N9355 G1 X23.676
N9360 G3 X20.09 Y1237.586 I0. J-3.6
N9365 G1 X47.099 Y928.873
N9370 G3 X51.662 Y906.239 I103.206 J9.029
N9375 G1 X159.104 Y571.521
N9380 G3 X210.14 Y534.303 I51.035 J16.383
N9385 G1 X337.213
N9390 G3 X388.249 Y571.521 I0. J53.6
N9395 G1 X495.691 Y906.239
N9400 G3 X500.253 Y928.873 I-98.643 J31.661
N9405 G1 X527.262 Y1237.586
N9410 G3 X523.676 Y1241.5 I-3.586 J0.314
N9415 G1 X392.89
N9420 G3 X382.027 Y1240.125 I0. J-43.6
N9425 X381.665 Y1239.72 I0.122 J-0.473
N9430 G2 X381.307 Y1239.311 I-0.491 J0.069
N9435 G3 X350.543 Y1190.439 I11.583 J-41.41
N9440 G1 X370.94 Y1074.759
N9445 G2 X315.862 Y1031.867 I-38.899 J-6.859
N9450 G3 X231.491 I-42.185 J-93.964
N9455 G2 X176.413 Y1074.759 I-16.179 J36.034
N9460 G1 X196.809 Y1190.439
N9465 G3 X154.463 Y1240.9 I-42.347 J7.462
N9470 G1 X23.676
N9475 G3 X20.688 Y1237.639 I0. J-3.
N9480 G1 X47.697 Y928.926
N9485 G3 X52.234 Y906.422 I102.608 J8.977
N9490 G1 X159.676 Y571.704
N9495 G3 X210.14 Y534.903 I50.464 J16.199
N9500 G1 X337.213
N9505 G3 X387.677 Y571.704 I0. J53.
N9510 G1 X495.119 Y906.422
N9515 G3 X499.656 Y928.926 I-98.072 J31.478
N9520 G1 X526.665 Y1237.639
N9525 G3 X523.676 Y1240.9 I-2.989 J0.261
N9530 G1 X392.89
N9535 G3 X381.307 Y1239.311 I0. J-43.
N9540 G2 X380.568 Y1239.727 I-0.162 J0.578 F500.
N9545 G1 X380.406 Y1240.305
N9550 X380.381 Y1240.395 Z-9.993
N9555 X380.356 Y1240.483 Z-9.971
N9560 X380.333 Y1240.567 Z-9.935
N9565 X380.311 Y1240.644 Z-9.885
N9570 X380.292 Y1240.713 Z-9.824
N9575 X380.275 Y1240.772 Z-9.753
N9580 X380.262 Y1240.819 Z-9.672
N9585 X380.252 Y1240.854 Z-9.585
N9590 X380.246 Y1240.875 Z-9.494
N9595 X380.244 Y1240.882 Z-9.4
N9600 G0 Z5.
N9605 X386.243 Y1245.795
N9610 G1 Z-5.5 F100.33
N9615 Z-12.733
N9620 X386.244 Y1245.787 Z-12.827
N9625 X386.247 Y1245.766 Z-12.919
N9630 X386.252 Y1245.73 Z-13.006
N9635 X386.26 Y1245.681 Z-13.086
N9640 X386.269 Y1245.621 Z-13.158
N9645 X386.28 Y1245.55 Z-13.219
N9650 X386.292 Y1245.471 Z-13.268
N9655 X386.305 Y1245.385 Z-13.304
N9660 X386.318 Y1245.294 Z-13.326
N9665 X386.333 Y1245.201 Z-13.333
N9670 X386.422 Y1244.608 F500.
N9675 G2 X385.919 Y1243.925 I-0.593 J-0.09
N9680 G3 X347.047 Y1189.823 I6.971 J-46.025 F1200.
N9685 G1 X367.444 Y1074.143
N9690 G2 X317.316 Y1035.105 I-35.403 J-6.242
N9695 G3 X230.037 I-43.639 J-97.202
N9700 G2 X179.91 Y1074.143 I-14.725 J32.795
N9705 G1 X200.306 Y1189.823
N9710 G3 X154.463 Y1244.45 I-45.843 J8.077
N9715 G1 X23.676
N9720 G3 X17.151 Y1237.329 I0. J-6.55
N9725 G1 X44.16 Y928.616
N9730 G3 X48.853 Y905.337 I106.147 J9.286
N9735 G1 X156.295 Y570.619
N9740 G3 X210.14 Y531.353 I53.844 J17.283
N9745 G1 X337.213
N9750 G3 X391.058 Y570.619 I0. J56.551
N9755 G1 X498.5 Y905.337
N9760 G3 X503.192 Y928.616 I-101.452 J32.563
N9765 G1 X530.201 Y1237.329
N9770 G3 X523.676 Y1244.45 I-6.525 J0.571
N9775 G1 X392.89
N9780 G3 X385.919 Y1243.925 I0. J-46.55
N9785 X383.925 Y1242.074 I0.362 J-2.39
N9790 G2 X382.027 Y1240.125 I-2.55 J0.584
N9795 G3 X349.952 Y1190.335 I10.863 J-42.225
N9800 G1 X370.349 Y1074.655
N9805 G2 X316.108 Y1032.414 I-38.308 J-6.755
N9810 G3 X231.246 I-42.431 J-94.511
N9815 G2 X177.004 Y1074.655 I-15.933 J35.486
N9820 G1 X197.4 Y1190.335
N9825 G3 X154.463 Y1241.5 I-42.938 J7.566
N9830 G1 X23.676
N9835 G3 X20.09 Y1237.586 I0. J-3.6
N9840 G1 X47.099 Y928.873
N9845 G3 X51.662 Y906.239 I103.206 J9.029
N9850 G1 X159.104 Y571.521
N9855 G3 X210.14 Y534.303 I51.035 J16.383
N9860 G1 X337.213
N9865 G3 X388.249 Y571.521 I0. J53.6
N9870 G1 X495.691 Y906.239
N9875 G3 X500.253 Y928.873 I-98.643 J31.661
N9880 G1 X527.262 Y1237.586
N9885 G3 X523.676 Y1241.5 I-3.586 J0.314
N9890 G1 X392.89
N9895 G3 X382.027 Y1240.125 I0. J-43.6
N9900 X381.665 Y1239.72 I0.122 J-0.473
N9905 G2 X381.307 Y1239.311 I-0.491 J0.069
N9910 G3 X350.543 Y1190.439 I11.583 J-41.41
N9915 G1 X370.94 Y1074.759
N9920 G2 X315.862 Y1031.867 I-38.899 J-6.859
N9925 G3 X231.491 I-42.185 J-93.964
N9930 G2 X176.413 Y1074.759 I-16.179 J36.034
N9935 G1 X196.809 Y1190.439
N9940 G3 X154.463 Y1240.9 I-42.347 J7.462
N9945 G1 X23.676
N9950 G3 X20.688 Y1237.639 I0. J-3.
N9955 G1 X47.697 Y928.926
N9960 G3 X52.234 Y906.422 I102.608 J8.977
N9965 G1 X159.676 Y571.704
N9970 G3 X210.14 Y534.903 I50.464 J16.199
N9975 G1 X337.213
N9980 G3 X387.677 Y571.704 I0. J53.
N9985 G1 X495.119 Y906.422
N9990 G3 X499.656 Y928.926 I-98.072 J31.478
N9995 G1 X526.665 Y1237.639
N10000 G3 X523.676 Y1240.9 I-2.989 J0.261
N10005 G1 X392.89
N10010 G3 X381.307 Y1239.311 I0. J-43.
N10015 G2 X380.568 Y1239.727 I-0.162 J0.578 F500.
N10020 G1 X380.406 Y1240.305
N10025 X380.381 Y1240.395 Z-13.326
N10030 X380.356 Y1240.483 Z-13.304
N10035 X380.333 Y1240.567 Z-13.268
N10040 X380.311 Y1240.644 Z-13.219
N10045 X380.292 Y1240.713 Z-13.158
N10050 X380.275 Y1240.772 Z-13.086
N10055 X380.262 Y1240.819 Z-13.006
N10060 X380.252 Y1240.854 Z-12.919
N10065 X380.246 Y1240.875 Z-12.827
N10070 X380.244 Y1240.882 Z-12.733
N10075 G0 Z5.
N10080 X386.243 Y1245.795
N10085 G1 Z-8.833 F100.33
N10090 Z-16.067
N10095 X386.244 Y1245.787 Z-16.161
N10100 X386.247 Y1245.766 Z-16.252
N10105 X386.252 Y1245.73 Z-16.339
N10110 X386.26 Y1245.681 Z-16.419
N10115 X386.269 Y1245.621 Z-16.491
N10120 X386.28 Y1245.55 Z-16.552
N10125 X386.292 Y1245.471 Z-16.601
N10130 X386.305 Y1245.385 Z-16.637
N10135 X386.318 Y1245.294 Z-16.659
N10140 X386.333 Y1245.201 Z-16.667
N10145 X386.422 Y1244.608 F500.
N10150 G2 X385.919 Y1243.925 I-0.593 J-0.09
N10155 G3 X347.047 Y1189.823 I6.971 J-46.025 F1200.
N10160 G1 X367.444 Y1074.143
N10165 G2 X317.316 Y1035.105 I-35.403 J-6.242
N10170 G3 X230.037 I-43.639 J-97.202
N10175 G2 X179.91 Y1074.143 I-14.725 J32.795
N10180 G1 X200.306 Y1189.823
N10185 G3 X154.463 Y1244.45 I-45.843 J8.077
N10190 G1 X23.676
N10195 G3 X17.151 Y1237.329 I0. J-6.55
N10200 G1 X44.16 Y928.616
N10205 G3 X48.853 Y905.337 I106.147 J9.286
N10210 G1 X156.295 Y570.619
N10215 G3 X210.14 Y531.353 I53.844 J17.283
N10220 G1 X337.213
N10225 G3 X391.058 Y570.619 I0. J56.551
N10230 G1 X498.5 Y905.337
N10235 G3 X503.192 Y928.616 I-101.452 J32.563
N10240 G1 X530.201 Y1237.329
N10245 G3 X523.676 Y1244.45 I-6.525 J0.571
N10250 G1 X392.89
N10255 G3 X385.919 Y1243.925 I0. J-46.55
N10260 X383.925 Y1242.074 I0.362 J-2.39
N10265 G2 X382.027 Y1240.125 I-2.55 J0.584
N10270 G3 X349.952 Y1190.335 I10.863 J-42.225
N10275 G1 X370.349 Y1074.655
N10280 G2 X316.108 Y1032.414 I-38.308 J-6.755
N10285 G3 X231.246 I-42.431 J-94.511
N10290 G2 X177.004 Y1074.655 I-15.933 J35.486
N10295 G1 X197.4 Y1190.335
N10300 G3 X154.463 Y1241.5 I-42.938 J7.566
N10305 G1 X23.676
N10310 G3 X20.09 Y1237.586 I0. J-3.6
N10315 G1 X47.099 Y928.873
N10320 G3 X51.662 Y906.239 I103.206 J9.029
N10325 G1 X159.104 Y571.521
N10330 G3 X210.14 Y534.303 I51.035 J16.383
N10335 G1 X337.213
N10340 G3 X388.249 Y571.521 I0. J53.6
N10345 G1 X495.691 Y906.239
N10350 G3 X500.253 Y928.873 I-98.643 J31.661
N10355 G1 X527.262 Y1237.586
N10360 G3 X523.676 Y1241.5 I-3.586 J0.314
N10365 G1 X392.89
N10370 G3 X382.027 Y1240.125 I0. J-43.6
N10375 X381.665 Y1239.72 I0.122 J-0.473
N10380 G2 X381.307 Y1239.311 I-0.491 J0.069
N10385 G3 X350.543 Y1190.439 I11.583 J-41.41
N10390 G1 X370.94 Y1074.759
N10395 G2 X315.862 Y1031.867 I-38.899 J-6.859
N10400 G3 X231.491 I-42.185 J-93.964
N10405 G2 X176.413 Y1074.759 I-16.179 J36.034
N10410 G1 X196.809 Y1190.439
N10415 G3 X154.463 Y1240.9 I-42.347 J7.462
N10420 G1 X23.676
N10425 G3 X20.688 Y1237.639 I0. J-3.
N10430 G1 X47.697 Y928.926
N10435 G3 X52.234 Y906.422 I102.608 J8.977
N10440 G1 X159.676 Y571.704
N10445 G3 X210.14 Y534.903 I50.464 J16.199
N10450 G1 X337.213
N10455 G3 X387.677 Y571.704 I0. J53.
N10460 G1 X495.119 Y906.422
N10465 G3 X499.656 Y928.926 I-98.072 J31.478
N10470 G1 X526.665 Y1237.639
N10475 G3 X523.676 Y1240.9 I-2.989 J0.261
N10480 G1 X392.89
N10485 G3 X381.307 Y1239.311 I0. J-43.
N10490 G2 X380.568 Y1239.727 I-0.162 J0.578 F500.
N10495 G1 X380.406 Y1240.305
N10500 X380.381 Y1240.395 Z-16.659
N10505 X380.356 Y1240.483 Z-16.637
N10510 X380.333 Y1240.567 Z-16.601
N10515 X380.311 Y1240.644 Z-16.552
N10520 X380.292 Y1240.713 Z-16.491
N10525 X380.275 Y1240.772 Z-16.419
N10530 X380.262 Y1240.819 Z-16.339
N10535 X380.252 Y1240.854 Z-16.252
N10540 X380.246 Y1240.875 Z-16.161
N10545 X380.244 Y1240.882 Z-16.067
N10550 G0 Z5.
N10555 X386.243 Y1245.795
N10560 G1 Z-12.167 F100.33
N10565 Z-19.4
N10570 X386.244 Y1245.787 Z-19.494
N10575 X386.247 Y1245.766 Z-19.585
N10580 X386.252 Y1245.73 Z-19.672
N10585 X386.26 Y1245.681 Z-19.753
N10590 X386.269 Y1245.621 Z-19.824
N10595 X386.28 Y1245.55 Z-19.885
N10600 X386.292 Y1245.471 Z-19.935
N10605 X386.305 Y1245.385 Z-19.971
N10610 X386.318 Y1245.294 Z-19.993
N10615 X386.333 Y1245.201 Z-20.
N10620 X386.422 Y1244.608 F500.
N10625 G2 X385.919 Y1243.925 I-0.593 J-0.09
N10630 G3 X347.047 Y1189.823 I6.971 J-46.025 F1200.
N10635 G1 X367.444 Y1074.143
N10640 G2 X317.316 Y1035.105 I-35.403 J-6.242
N10645 G3 X230.037 I-43.639 J-97.202
N10650 G2 X179.91 Y1074.143 I-14.725 J32.795
N10655 G1 X200.306 Y1189.823
N10660 G3 X154.463 Y1244.45 I-45.843 J8.077
N10665 G1 X23.676
N10670 G3 X17.151 Y1237.329 I0. J-6.55
N10675 G1 X29.575 Y1095.333
N10680 Z-18.
N10685 X34.455 Y1039.546
N10690 Z-20. F100.33
N10695 X44.16 Y928.616 F1200.
N10700 G3 X48.853 Y905.337 I106.147 J9.286
N10705 G1 X94.185 Y764.115
N10710 Z-18.
N10715 X111.3 Y710.795
N10720 Z-20. F100.33
N10725 X156.295 Y570.619 F1200.
N10730 G3 X210.14 Y531.353 I53.844 J17.283
N10735 G1 X248.288
N10740 Z-18.
N10745 X304.288
N10750 Z-20. F100.33
N10755 X337.213 F1200.
N10760 G3 X391.058 Y570.619 I0. J56.551
N10765 G1 X437.467 Y715.199
N10770 Z-18.
N10775 X454.582 Y768.519
N10780 Z-20. F100.33
N10785 X498.5 Y905.337 F1200.
N10790 G3 X503.192 Y928.616 I-101.452 J32.563
N10795 G1 X512.515 Y1035.176
N10800 Z-18.
N10805 X517.396 Y1090.963
N10810 Z-20. F100.33
N10815 X530.201 Y1237.329 F1200.
N10820 G3 X523.676 Y1244.45 I-6.525 J0.571
N10825 G1 X392.89
N10830 G3 X385.919 Y1243.925 I0. J-46.55
N10835 X383.925 Y1242.074 I0.362 J-2.39
N10840 G2 X382.027 Y1240.125 I-2.55 J0.584
N10845 G3 X349.952 Y1190.335 I10.863 J-42.225
N10850 G1 X370.349 Y1074.655
N10855 G2 X316.108 Y1032.414 I-38.308 J-6.755
N10860 G3 X231.246 I-42.431 J-94.511
N10865 G2 X177.004 Y1074.655 I-15.933 J35.486
N10870 G1 X197.4 Y1190.335
N10875 G3 X154.463 Y1241.5 I-42.938 J7.566
N10880 G1 X23.676
N10885 G3 X20.09 Y1237.586 I0. J-3.6
N10890 G1 X32.513 Y1095.59
N10895 Z-18.
N10900 X37.394 Y1039.803
N10905 Z-20. F100.33
N10910 X47.099 Y928.873 F1200.
N10915 G3 X51.662 Y906.239 I103.206 J9.029
N10920 G1 X96.993 Y765.017
N10925 Z-18.
N10930 X114.109 Y711.696
N10935 Z-20. F100.33
N10940 X159.104 Y571.521 F1200.
N10945 G3 X210.14 Y534.303 I51.035 J16.383
N10950 G1 X248.288
N10955 Z-18.
N10960 X304.288
N10965 Z-20. F100.33
N10970 X337.213 F1200.
N10975 G3 X388.249 Y571.521 I0. J53.6
N10980 G1 X434.658 Y716.101
N10985 Z-18.
N10990 X451.773 Y769.421
N10995 Z-20. F100.33
N11000 X495.691 Y906.239 F1200.
N11005 G3 X500.253 Y928.873 I-98.643 J31.661
N11010 G1 X509.576 Y1035.433
N11015 Z-18.
N11020 X514.457 Y1091.22
N11025 Z-20. F100.33
N11030 X527.262 Y1237.586 F1200.
N11035 G3 X523.676 Y1241.5 I-3.586 J0.314
N11040 G1 X392.89
N11045 G3 X382.027 Y1240.125 I0. J-43.6
N11050 X381.665 Y1239.72 I0.122 J-0.473
N11055 G2 X381.307 Y1239.311 I-0.491 J0.069
N11060 G3 X350.543 Y1190.439 I11.583 J-41.41
N11065 G1 X370.94 Y1074.759
N11070 G2 X315.862 Y1031.867 I-38.899 J-6.859
N11075 G3 X231.491 I-42.185 J-93.964
N11080 G2 X176.413 Y1074.759 I-16.179 J36.034
N11085 G1 X196.809 Y1190.439
N11090 G3 X154.463 Y1240.9 I-42.347 J7.462
N11095 G1 X23.676
N11100 G3 X20.688 Y1237.639 I0. J-3.
N11105 G1 X33.111 Y1095.642
N11110 Z-18.
N11115 X37.992 Y1039.855
N11120 Z-20. F100.33
N11125 X47.697 Y928.926 F1200.
N11130 G3 X52.234 Y906.422 I102.608 J8.977
N11135 G1 X97.565 Y765.2
N11140 Z-18.
N11145 X114.68 Y711.88
N11150 Z-20. F100.33
N11155 X159.676 Y571.704 F1200.
N11160 G3 X210.14 Y534.903 I50.464 J16.199
N11165 G1 X248.288
N11170 Z-18.
N11175 X304.288
N11180 Z-20. F100.33
N11185 X337.213 F1200.
N11190 G3 X387.677 Y571.704 I0. J53.
N11195 G1 X434.087 Y716.284
N11200 Z-18.
N11205 X451.202 Y769.604
N11210 Z-20. F100.33
N11215 X495.119 Y906.422 F1200.
N11220 G3 X499.656 Y928.926 I-98.072 J31.478
N11225 G1 X508.978 Y1035.485
N11230 Z-18.
N11235 X513.859 Y1091.272
N11240 Z-20. F100.33
N11245 X526.665 Y1237.639 F1200.
N11250 G3 X523.676 Y1240.9 I-2.989 J0.261
N11255 G1 X392.89
N11260 G3 X381.307 Y1239.311 I0. J-43.
N11265 G2 X380.568 Y1239.727 I-0.162 J0.578 F500.
N11270 G1 X380.406 Y1240.305
N11275 X380.381 Y1240.395 Z-19.993
N11280 X380.356 Y1240.483 Z-19.971
N11285 X380.333 Y1240.567 Z-19.935
N11290 X380.311 Y1240.644 Z-19.885
N11295 X380.292 Y1240.713 Z-19.824
N11300 X380.275 Y1240.772 Z-19.753
N11305 X380.262 Y1240.819 Z-19.672
N11310 X380.252 Y1240.854 Z-19.585
N11315 X380.246 Y1240.875 Z-19.494
N11320 X380.244 Y1240.882 Z-19.4
N11325 G0 Z15.
N11330 G53 Z0.
N11335 M30
%
