%
(1001)
(T6  D=1.52 CR=0. - ZMIN=-3. - FLAT END MILL)
N10 G90 G94 G17 G91.1
N15 G21
N20 G53 G0 Z0.
(2D ADAPTIVE1.5MMREST )
N25 T6 M6
N30 S18000 M3
N35 G54
N40 G0 X38.429 Y195.69
N45 G43 Z30. H6
N50 G0 Z5.
N55 Z-0.196
N60 G1 Z-0.348 F1000.
N65 X38.425 Y195.684 Z-0.395
N70 X38.414 Y195.665 Z-0.437
N75 X38.397 Y195.636 Z-0.471
N80 X38.375 Y195.6 Z-0.493
N85 X38.351 Y195.56 Z-0.5
N90 G3 X37.909 Y194.053 I2.721 J-1.618
N95 G1 Y192.276
N100 G0 Z5.
N105 X35.273 Y208.806
N110 Z-0.196
N115 G1 Z-0.348 F1000.
N120 X35.279 Y208.802 Z-0.395
N125 X35.298 Y208.791 Z-0.437
N130 X35.327 Y208.773 Z-0.471
N135 X35.363 Y208.751 Z-0.493
N140 X35.403 Y208.727 Z-0.5
N145 G3 X36.905 Y208.267 I1.649 J2.702
N150 G1 X37.13 Y208.263
N155 G0 Z5.
N160 X42.211 Y331.616
N165 Z-0.196
N170 G1 Z-0.348 F1000.
N175 X42.215 Y331.623 Z-0.395
N180 X42.226 Y331.641 Z-0.437
N185 X42.243 Y331.67 Z-0.471
N190 X42.265 Y331.707 Z-0.493
N195 X42.289 Y331.747 Z-0.5
N200 G3 X42.731 Y333.254 I-2.721 J1.618
N205 G1 Y333.679
N210 Y333.724
N215 Y333.754
N220 X42.724 Y333.904
N225 X42.705 Y333.926
N230 X42.679 Y333.941
N235 X42.651 Y333.946
N240 X42.574 Y333.936
N245 X42.501 Y333.913
N250 G3 X42.63 Y333.607 I0.064 J-0.153
N255 X42.731 Y333.754 I-0.064 J0.153
N260 G1 Y333.924
N265 X42.718 Y333.939
N270 X42.705 Y333.946
N275 X42.148
N280 G0 Z5.
N285 X53.404 Y341.253
N290 Z-0.196
N295 G1 Z-0.348 F1000.
N300 X53.407 Y341.246 Z-0.395
N305 X53.417 Y341.227 Z-0.437
N310 X53.432 Y341.197 Z-0.471
N315 X53.452 Y341.159 Z-0.493
N320 X53.473 Y341.118 Z-0.5
N325 G3 X54.338 Y339.806 I6.485 J3.334
N330 G1 X54.355 Y339.787
N335 X54.388 Y339.745
N340 X54.398 Y339.729
N345 X54.457 Y339.629
N350 X54.474 Y339.589
N355 X54.539 Y339.454
N360 X54.651 Y339.354
N365 X54.785 Y339.287
N370 X54.816 Y339.28
N375 X54.948 Y339.275
N380 X55.072 Y339.32
N385 X55.17 Y339.409
N390 X55.226 Y339.529
N395 X55.238 Y339.559
N400 X55.247 Y339.605
N405 X55.242 Y339.652
N410 X55.223 Y339.694
N415 X55.191 Y339.729
N420 X55.151 Y339.753
N425 X55.106 Y339.763
N430 X54.626 Y339.795
N435 G3 X54.474 Y339.589 I-0.01 J-0.152
N440 G1 X54.488 Y339.556
N445 X54.498 Y339.529
N450 X54.511 Y339.479
N455 X54.523 Y339.429
N460 X54.533 Y339.329
N465 X54.541 Y339.254
N470 X54.609 Y339.121
N475 X54.613 Y339.118
N480 X54.748 Y339.047
N485 X54.901 Y339.04
N490 X55.042 Y339.098
N495 X55.146 Y339.209
N500 X55.194 Y339.354
N505 X55.19 Y339.398
N510 X55.174 Y339.439
N515 X55.147 Y339.474
N520 X55.111 Y339.499
N525 X55.07 Y339.513
N530 X55.026 Y339.515
N535 X54.669 Y339.477
N540 X54.626 Y339.466
N545 X54.589 Y339.443
N550 X54.559 Y339.411
N555 X54.54 Y339.372
N560 X54.533 Y339.329
N565 X54.534 Y339.229
N570 Y339.098
N575 X54.538 Y339.024
N580 X54.604 Y338.889
N585 X54.721 Y338.795
N590 X54.724 Y338.794
N595 X54.856 Y338.777
N600 X54.985 Y338.809
N605 X55.093 Y338.887
N610 X55.165 Y339.
N615 X55.19 Y339.131
N620 Y339.259
N625 X55.191 Y339.329
N630 X55.194 Y339.354
N635 G3 X54.95 Y339.485 I-0.152 J0.01
N640 G1 X54.594 Y339.214
N645 X54.563 Y339.182
N650 X54.543 Y339.142
N655 X54.534 Y339.098
N660 Y338.828
N665 X54.538 Y338.754
N670 X54.608 Y338.621
N675 X54.729 Y338.533
N680 X54.732 Y338.532
N685 X54.863 Y338.518
N690 X54.99 Y338.552
N695 X55.096 Y338.63
N700 X55.165 Y338.742
N705 X55.19 Y338.871
N710 Y339.131
N715 G3 X54.939 Y339.241 I-0.152 J-0.005
N720 G1 X54.587 Y338.938
N725 X54.56 Y338.907
N730 X54.542 Y338.87
N735 X54.534 Y338.828
N740 Y338.598
N745 X54.538 Y338.523
N750 X54.593 Y338.383
N755 X54.707 Y338.286
N760 X54.711 Y338.284
N765 X54.845 Y338.262
N770 X54.978 Y338.292
N775 X55.089 Y338.369
N780 X55.164 Y338.483
N785 X55.19 Y338.616
N790 Y338.871
N795 G3 X54.945 Y338.986 I-0.152 J-0.005
N800 G1 X54.593 Y338.713
N805 X54.562 Y338.681
N810 X54.542 Y338.641
N815 X54.534 Y338.598
N820 Y338.328
N825 X54.538 Y338.253
N830 X54.601 Y338.117
N835 X54.719 Y338.025
N840 X54.723 Y338.023
N845 X54.855 Y338.006
N850 X54.985 Y338.039
N855 X55.093 Y338.117
N860 X55.165 Y338.229
N865 X55.19 Y338.36
N870 Y338.616
N875 G3 X54.941 Y338.729 I-0.152 J-0.005
N880 G1 X54.59 Y338.44
N885 X54.561 Y338.409
N890 X54.542 Y338.37
N895 X54.534 Y338.328
N900 Y338.073
N905 X54.538 Y337.998
N910 X54.601 Y337.862
N915 X54.719 Y337.769
N920 X54.722 Y337.768
N925 X54.854 Y337.75
N930 X54.984 Y337.782
N935 X55.092 Y337.86
N940 X55.164 Y337.973
N945 X55.19 Y338.104
N950 Y338.36
N955 G3 X54.942 Y338.472 I-0.152 J-0.005
N960 G1 X54.59 Y338.185
N965 X54.561 Y338.154
N970 X54.542 Y338.115
N975 X54.534 Y338.073
N980 Y337.828
N985 X54.538 Y337.753
N990 X54.595 Y337.614
N995 X54.711 Y337.518
N1000 X54.714 Y337.517
N1005 X54.848 Y337.496
N1010 X54.979 Y337.526
N1015 X55.09 Y337.604
N1020 X55.164 Y337.717
N1025 X55.19 Y337.85
N1030 Y338.104
N1035 G3 X54.944 Y338.218 I-0.152 J-0.005
N1040 G1 X54.592 Y337.942
N1045 X54.562 Y337.91
N1050 X54.542 Y337.871
N1055 X54.534 Y337.828
N1060 Y337.572
N1065 X54.538 Y337.497
N1070 X54.596 Y337.359
N1075 X54.712 Y337.264
N1080 X54.715 Y337.262
N1085 X54.849 Y337.242
N1090 X54.98 Y337.273
N1095 X55.091 Y337.35
N1100 X55.164 Y337.464
N1105 X55.19 Y337.596
N1110 Y337.85
N1115 G3 X54.944 Y337.964 I-0.152 J-0.005
N1120 G1 X54.592 Y337.686
N1125 X54.562 Y337.655
N1130 X54.542 Y337.615
N1135 X54.534 Y337.572
N1140 Y337.297
N1145 X54.538 Y337.222
N1150 X54.606 Y337.088
N1155 X54.727 Y336.999
N1160 X54.731 Y336.998
N1165 X54.862 Y336.983
N1170 X54.989 Y337.018
N1175 X55.095 Y337.096
N1180 X55.165 Y337.208
N1185 X55.19 Y337.337
N1190 Y337.596
N1195 G3 X54.939 Y337.707 I-0.152 J-0.005
N1200 G1 X54.588 Y337.407
N1205 X54.56 Y337.376
N1210 X54.542 Y337.338
N1215 X54.534 Y337.297
N1220 Y337.027
N1225 X54.538 Y336.952
N1230 X54.612 Y336.821
N1235 X54.735 Y336.735
N1240 X54.737
N1245 X54.9 Y336.727
N1250 X55.048 Y336.792
N1255 X55.152 Y336.917
N1260 X55.19 Y337.076
N1265 Y337.337
N1270 G3 X54.937 Y337.446 I-0.152 J-0.005
N1275 G1 X54.586 Y337.136
N1280 X54.559 Y337.105
N1285 X54.541 Y337.067
N1290 X54.534 Y337.027
N1295 Y336.797
N1300 X54.538 Y336.722
N1305 X54.596 Y336.583
N1310 X54.711 Y336.486
N1315 X54.721 Y336.483
N1320 X54.853 Y336.464
N1325 X54.983 Y336.496
N1330 X55.092 Y336.574
N1335 X55.164 Y336.687
N1340 X55.19 Y336.818
N1345 Y337.076
N1350 G3 X54.943 Y337.189 I-0.152 J-0.005
N1355 G1 X54.592 Y336.91
N1360 X54.562 Y336.878
N1365 X54.542 Y336.839
N1370 X54.534 Y336.797
N1375 Y336.527
N1380 X54.538 Y336.452
N1385 X54.603 Y336.316
N1390 X54.722 Y336.225
N1395 X54.725 Y336.224
N1400 X54.857 Y336.207
N1405 X54.986 Y336.24
N1410 X55.093 Y336.319
N1415 X55.165 Y336.431
N1420 X55.19 Y336.561
N1425 Y336.818
N1430 G3 X54.941 Y336.93 I-0.152 J-0.005
N1435 G1 X54.589 Y336.638
N1440 X54.561 Y336.607
N1445 X54.542 Y336.568
N1450 X54.534 Y336.527
N1455 Y336.258
N1460 X54.538 Y336.183
N1465 X54.609 Y336.05
N1470 X54.73 Y335.963
N1475 X54.733 Y335.962
N1480 X54.864 Y335.948
N1485 X54.99 Y335.983
N1490 X55.096 Y336.061
N1495 X55.165 Y336.172
N1500 X55.19 Y336.302
N1505 Y336.561
N1510 G3 X54.938 Y336.671 I-0.152 J-0.005
N1515 G1 X54.587 Y336.367
N1520 X54.559 Y336.336
N1525 X54.542 Y336.299
N1530 X54.534 Y336.258
N1535 Y336.026
N1540 X54.538 Y335.951
N1545 X54.594 Y335.812
N1550 X54.709 Y335.715
N1555 X54.713 Y335.714
N1560 X54.847 Y335.692
N1565 X54.979 Y335.722
N1570 X55.09 Y335.8
N1575 X55.164 Y335.914
N1580 X55.19 Y336.047
N1585 Y336.302
N1590 G3 X54.944 Y336.416 I-0.152 J-0.005
N1595 G1 X54.593 Y336.14
N1600 X54.562 Y336.109
N1605 X54.542 Y336.069
N1610 X54.534 Y336.026
N1615 Y335.771
N1620 X54.538 Y335.696
N1625 X54.595 Y335.557
N1630 X54.71 Y335.461
N1635 X54.714 Y335.46
N1640 X54.847 Y335.439
N1645 X54.979 Y335.469
N1650 X55.09 Y335.547
N1655 X55.164 Y335.66
N1660 X55.19 Y335.793
N1665 Y336.047
N1670 G3 X54.944 Y336.161 I-0.152 J-0.005
N1675 G1 X54.593 Y335.885
N1680 X54.562 Y335.853
N1685 X54.542 Y335.814
N1690 X54.534 Y335.771
N1695 Y334.825
N1700 X54.533 Y334.725
N1705 X54.528 Y334.625
N1710 G0 Z5.
N1715 X51.392 Y333.426
N1720 Z-0.196
N1725 G1 Z-0.348 F1000.
N1730 X51.386 Y333.429 Z-0.395
N1735 X51.367 Y333.441 Z-0.437
N1740 X51.338 Y333.458 Z-0.471
N1745 X51.302 Y333.479 Z-0.493
N1750 X51.261 Y333.503 Z-0.5
N1755 G3 X49.754 Y333.946 I-1.618 J-2.721
N1760 G1 X49.329
N1765 X49.284
N1770 X49.254
N1775 X49.104 Y333.939
N1780 X49.082 Y333.92
N1785 X49.068 Y333.895
N1790 X49.063 Y333.867
N1795 X49.073 Y333.791
N1800 X49.096 Y333.718
N1805 G3 X49.4 Y333.844 I0.152 J0.063
N1810 X49.254 Y333.946 I-0.152 J-0.063
N1815 G1 X49.084
N1820 X49.069 Y333.935
N1825 X49.063 Y333.924
N1830 Y333.369
N1835 G0 Z5.
N1840 X62.042 Y332.805
N1845 Z-0.196
N1850 G1 Z-0.348 F1000.
N1855 X62.038 Y332.798 Z-0.395
N1860 X62.027 Y332.78 Z-0.437
N1865 X62.01 Y332.751 Z-0.471
N1870 X61.988 Y332.715 Z-0.493
N1875 X61.964 Y332.674 Z-0.5
N1880 G3 X61.522 Y331.167 I2.721 J-1.618
N1885 G1 Y330.722
N1890 X61.529 Y330.572
N1895 X61.587 Y330.433
N1900 X61.676 Y330.313
N1905 X61.733 Y330.262
N1910 X61.869 Y330.187
N1915 X62.025 Y330.177
N1920 X62.17 Y330.236
N1925 X62.202 Y330.268
N1930 X62.223 Y330.307
N1935 X62.231 Y330.351
N1940 X62.226 Y330.396
N1945 X62.209 Y330.437
N1950 X62.18 Y330.472
N1955 X62.105 Y330.538
N1960 X61.774 Y330.83
N1965 G3 X61.522 Y330.722 I-0.101 J-0.114
N1970 G1 Y330.321
N1975 X61.529 Y330.172
N1980 X61.606 Y330.079
N1985 X61.714 Y330.027
N1990 X61.834 Y330.026
N1995 X61.943 Y330.076
N2000 X61.975 Y330.11
N2005 X61.994 Y330.153
N2010 X62. Y330.199
N2015 X61.991 Y330.245
N2020 X61.969 Y330.286
N2025 X61.935 Y330.318
N2030 X61.761 Y330.44
N2035 G3 X61.522 Y330.321 I-0.087 J-0.124
N2040 G1 Y330.091
N2045 Y330.053
N2050 Y330.021
N2055 X61.524 Y329.984
N2060 X61.601 Y329.914
N2065 X61.704 Y329.901
N2070 X61.797 Y329.948
N2075 X61.819 Y329.98
N2080 X61.828 Y330.018
N2085 X61.824 Y330.057
N2090 G3 X61.522 Y330.021 I-0.148 J-0.042
N2095 G1 Y329.921
N2100 Y329.891
N2105 Y329.852
N2110 X61.523 Y329.818
N2115 X61.569 Y329.791
N2120 X61.622 Y329.79
N2125 X61.667 Y329.817
N2130 X61.681 Y329.843
N2135 X61.68 Y329.873
N2140 X61.665 Y329.901
N2145 X61.64 Y329.922
N2150 X61.609 Y329.93
N2155 X61.576 Y329.926
N2160 X61.549 Y329.91
N2165 X61.529 Y329.884
N2170 X61.522 Y329.852
N2175 Y329.793
N2180 Y329.771
N2185 Y329.75
N2190 Y329.746
N2195 X61.526 Y329.728
N2200 X61.535 Y329.712
N2205 X61.548 Y329.699
N2210 X61.562 Y329.715
N2215 X61.569 Y329.736
N2220 X61.641 Y330.474
N2225 X61.647 Y330.535 F6000.
N2230 X61.656 Y330.56
N2235 X61.676 Y330.577
N2240 X61.701 Y330.582
N2245 X61.726 Y330.574
N2250 X61.744 Y330.555
N2255 X61.75 Y330.529
N2260 X61.743 Y330.504
N2265 X61.739 Y330.496
N2270 G3 X61.522 Y329.75 I1.365 J-0.802 F1000.
N2275 G1 Y329.735
N2280 X61.523 Y329.721
N2285 X61.536 Y329.708
N2290 X61.548 Y329.699
N2295 X61.561 Y329.708
N2300 X61.794 Y329.945
N2305 X61.872 Y330.021
N2310 X61.894 Y330.038
N2315 X62.005 Y330.121
N2320 X62.294 Y330.321
N2325 X62.444 Y330.421
N2330 X62.6 Y330.522
N2335 X62.77 Y330.622
N2340 G3 X62.607 Y330.878 I-0.082 J0.128
N2345 X62.537 Y330.747 I0.082 J-0.128
N2350 G1 X62.551 Y330.71 Z-0.494
N2355 X62.564 Y330.677 Z-0.479
N2360 X62.576 Y330.648 Z-0.455
N2365 X62.594 Y330.633 Z-0.423
N2370 X62.605 Y330.623 Z-0.387
N2375 X62.609 Y330.62 Z-0.348
N2380 G0 Z5.
N2385 X64.506 Y323.182
N2390 Z-0.196
N2395 G1 Z-0.348 F1000.
N2400 Y323.189 Z-0.395
N2405 X64.507 Y323.211 Z-0.437
N2410 X64.508 Y323.245 Z-0.471
N2415 X64.509 Y323.287 Z-0.493
N2420 X64.511 Y323.334 Z-0.5
N2425 G3 X64.168 Y324.867 I-3.164 J0.097
N2430 G1 X64.139 Y324.917
N2435 X64.115 Y324.939
N2440 X64.086 Y324.959
N2445 X64.052 Y324.972
N2450 X63.412 Y325.133
N2455 X62.696 Y325.313
N2460 X62.649 Y325.317
N2465 X62.594 Y325.311
N2470 X62.564 Y325.304
N2475 X62.526 Y325.288
N2480 X61.994 Y324.978
N2485 X61.945 Y324.933
N2490 X61.931 Y324.917
N2495 X61.91 Y324.881
N2500 G0 Z5.
N2505 X54.669 Y331.741
N2510 Z-0.196
N2515 G1 Z-0.348 F1000.
N2520 X54.673 Y331.748 Z-0.395
N2525 X54.684 Y331.766 Z-0.437
N2530 X54.701 Y331.795 Z-0.471
N2535 X54.723 Y331.831 Z-0.493
N2540 X54.747 Y331.872 Z-0.5
N2545 G3 X55.19 Y333.379 I-2.721 J1.618
N2550 G1 Y335.793
N2555 G0 Z5.
N2560 X54.776 Y198.525
N2565 Z-0.196
N2570 G1 Z-0.348 F1000.
N2575 X54.769 Y198.526 Z-0.395
N2580 X54.747 Y198.529 Z-0.437
N2585 X54.714 Y198.535 Z-0.471
N2590 X54.672 Y198.541 Z-0.493
N2595 X54.626 Y198.548 Z-0.5
N2600 G3 X53.057 Y198.618 I-1.108 J-7.207
N2605 G1 X52.632 Y198.576
N2610 X52.483 Y198.554
N2615 X52.352 Y198.482
N2620 X52.241 Y198.381
N2625 X52.154 Y198.259
N2630 X52.091 Y198.123
N2635 X52.05 Y197.978
N2640 X52.048 Y197.963
N2645 X52.059 Y197.825
N2650 X52.121 Y197.702
N2655 X52.226 Y197.612
N2660 X52.271 Y197.596
N2665 X52.319
N2670 X52.365 Y197.611
N2675 X52.403 Y197.639
N2680 X52.432 Y197.677
N2685 X52.566 Y197.941
N2690 X52.777 Y198.356
N2695 G3 X52.632 Y198.576 I-0.135 J0.069
N2700 G1 X52.231 Y198.537
N2705 X52.083 Y198.515
N2710 X51.95 Y198.445
N2715 X51.838 Y198.345
N2720 X51.797 Y198.283
N2725 X51.742 Y198.145
N2730 X51.748 Y197.997
N2735 X51.815 Y197.864
N2740 X51.93 Y197.77
N2745 X51.974 Y197.757
N2750 X52.021 Y197.758
N2755 X52.065 Y197.773
N2760 X52.102 Y197.801
N2765 X52.13 Y197.838
N2770 X52.163 Y197.903
N2775 X52.376 Y198.316
N2780 G3 X52.231 Y198.537 I-0.135 J0.07
N2785 G1 X51.831 Y198.498
N2790 X51.683 Y198.475
N2795 X51.582 Y198.37
N2800 X51.533 Y198.233
N2805 X51.544 Y198.088
N2810 X51.613 Y197.96
N2815 X51.728 Y197.87
N2820 X51.772 Y197.858
N2825 X51.819 Y197.86
N2830 X51.862 Y197.876
N2835 X51.899 Y197.904
N2840 X51.926 Y197.942
N2845 X51.94 Y197.986
N2850 X51.991 Y198.323
N2855 Y198.368
N2860 X51.978 Y198.411
N2865 X51.953 Y198.449
N2870 X51.918 Y198.477
N2875 X51.876 Y198.494
N2880 X51.831 Y198.498
N2885 X51.586 Y198.473
N2890 X51.512 Y198.462
N2895 X51.376 Y198.397
N2900 X51.327 Y198.285
N2905 X51.331 Y198.163
N2910 X51.389 Y198.055
N2915 X51.487 Y197.982
N2920 X51.551 Y197.963
N2925 G3 X51.86 Y198.199 I0.051 J0.253
N2930 X51.586 Y198.473 I-0.257 J0.017
N2935 G1 X51.355 Y198.451
N2940 X51.281 Y198.44
N2945 X51.198 Y198.346
N2950 X51.179 Y198.222
N2955 X51.228 Y198.107
N2960 X51.332 Y198.037
N2965 X51.368 Y198.031
N2970 X51.404 Y198.033
N2975 G3 X51.355 Y198.451 I-0.035 J0.208
N2980 G1 X51.185 Y198.434
N2985 X51.111 Y198.423
N2990 X51.05 Y198.34
N2995 X51.041 Y198.237
N3000 X51.086 Y198.144
N3005 X51.172 Y198.088
N3010 X51.201 Y198.084
N3015 X51.231 Y198.086
N3020 G3 X51.185 Y198.434 I-0.034 J0.173
N3025 G1 X51.055 Y198.421
N3030 X50.981 Y198.41
N3035 X50.93 Y198.342
N3040 X50.921 Y198.257
N3045 X50.958 Y198.18
N3050 X51.03 Y198.133
N3055 X51.054 Y198.129
N3060 X51.079
N3065 G3 X51.055 Y198.421 I-0.014 J0.146
N3070 G1 X50.916 Y198.408
N3075 X50.879 Y198.402
N3080 X50.824 Y198.324
N3085 X50.838 Y198.23
N3090 X50.912 Y198.17
N3095 X50.932 Y198.167
N3100 X50.952 Y198.169
N3105 X50.988 Y198.185
N3110 X51.018 Y198.211
N3115 X51.037 Y198.246
N3120 X51.044 Y198.285
N3125 X51.039 Y198.324
N3130 X51.02 Y198.359
N3135 X50.991 Y198.387
N3140 X50.955 Y198.403
N3145 X50.916 Y198.408
N3150 X50.83 Y198.399
N3155 X50.793 Y198.394
N3160 X50.747 Y198.328
N3165 X50.758 Y198.248
N3170 X50.821 Y198.198
N3175 X50.854 Y198.196
N3180 X50.89 Y198.21
N3185 X50.919 Y198.236
N3190 X50.936 Y198.271
N3195 X50.938 Y198.309
N3200 X50.927 Y198.346
N3205 X50.902 Y198.376
N3210 X50.868 Y198.394
N3215 X50.83 Y198.399
N3220 X50.755 Y198.392
N3225 X50.718 Y198.386
N3230 X50.679 Y198.331
N3235 X50.689 Y198.264
N3240 X50.741 Y198.222
N3245 X50.769 Y198.22
N3250 X50.801 Y198.229
N3255 X50.827 Y198.25
N3260 X50.843 Y198.28
N3265 X50.846 Y198.313
N3270 X50.837 Y198.345
N3275 X50.817 Y198.371
N3280 X50.788 Y198.387
N3285 X50.755 Y198.392
N3290 X50.685 Y198.385
N3295 X50.648 Y198.379
N3300 X50.618 Y198.333
N3305 X50.627 Y198.278
N3310 X50.67 Y198.244
N3315 X50.682 Y198.241
N3320 X50.712 Y198.244
N3325 X50.737 Y198.259
N3330 X50.755 Y198.283
N3335 X50.762 Y198.311
N3340 X50.756 Y198.341
N3345 X50.739 Y198.365
N3350 X50.714 Y198.381
N3355 X50.685 Y198.385
N3360 X50.616 Y198.378
N3365 X50.579 Y198.372
N3370 X50.559 Y198.333
N3375 X50.568 Y198.29
N3380 X50.604 Y198.264
N3385 X50.614 Y198.262
N3390 X50.641 Y198.265
N3395 X50.663 Y198.281
N3400 X50.676 Y198.305
N3405 X50.677 Y198.332
N3410 X50.665 Y198.357
N3415 X50.643 Y198.373
N3420 X50.616 Y198.378
N3425 X50.555 Y198.372
N3430 X50.516 Y198.368
N3435 X50.485 Y198.365
N3440 X50.455 Y198.361
N3445 Y198.334
N3450 X50.468 Y198.31
N3455 X50.491 Y198.296
N3460 X50.504 Y198.298
N3465 X50.518 Y198.311
N3470 X50.523 Y198.329
N3475 X50.518 Y198.348
N3480 X50.504 Y198.361
N3485 X50.485 Y198.365
N3490 X50.455 Y198.362
N3495 X50.416 Y198.358
N3500 X50.385 Y198.355
N3505 X50.371 Y198.352
N3510 X50.386 Y198.33
N3515 X51.139 Y198.419
N3520 X51.171 Y198.423 F6000.
N3525 X51.193 Y198.421
N3530 X51.212 Y198.41
N3535 X51.225 Y198.393
N3540 X51.229 Y198.372
N3545 Y198.371
N3550 X51.224 Y198.349
N3555 X51.211 Y198.332
N3560 X51.191 Y198.321
N3565 X51.169 Y198.32
N3570 G3 X50.385 Y198.355 I-0.554 J-3.603 F1000.
N3575 G1 X50.372 Y198.353
N3580 X50.359 Y198.341
N3585 X50.372 Y198.331
N3590 X50.44 Y198.311
N3595 X50.457 Y198.308
N3600 X50.475 Y198.31
N3605 X50.506 Y198.314
N3610 X50.796 Y198.322
N3615 X50.887 Y198.324
N3620 X50.922 Y198.321
N3625 X50.955 Y198.31
N3630 X50.984 Y198.292
N3635 G3 X51.486 Y197.983 I1.678 J2.159
N3640 G1 X51.586 Y197.939
N3645 X51.886 Y197.793
N3650 X52.045 Y197.711
N3655 X52.086 Y197.689
N3660 X52.228 Y197.611
N3665 X52.286 Y197.575
N3670 X52.568 Y197.396
N3675 G3 X52.722 Y197.657 I0.077 J0.131
N3680 X52.573 Y197.66 I-0.077 J-0.131
N3685 G1 X52.547 Y197.631 Z-0.494
N3690 X52.523 Y197.604 Z-0.479
N3695 X52.503 Y197.581 Z-0.455
N3700 X52.498 Y197.558 Z-0.423
N3705 X52.494 Y197.543 Z-0.387
N3710 X52.493 Y197.538 Z-0.348
N3715 G0 Z5.
N3720 X54.551 Y194.739
N3725 Z-0.196
N3730 G1 Z-0.348 F1000.
N3735 X54.55 Y194.732 Z-0.395
N3740 X54.545 Y194.711 Z-0.437
N3745 X54.536 Y194.678 Z-0.471
N3750 X54.526 Y194.637 Z-0.493
N3755 X54.515 Y194.591 Z-0.5
N3760 G3 X54.437 Y194.008 I2.655 J-0.653
N3765 G1 X54.439 Y193.752
N3770 X54.445 Y193.709
N3775 X54.464 Y193.67
N3780 X54.493 Y193.637
N3785 X54.53 Y193.614
N3790 X54.572 Y193.603
N3795 X54.615
N3800 G2 X54.776 Y193.388 I0.024 J-0.15
N3805 G1 X54.693 Y193.214
N3810 X53.706 Y191.144 F6000.
N3815 X53.593 Y190.908 F1000.
N3820 X53.57 Y190.873
N3825 X53.538 Y190.845
N3830 X53.499 Y190.828
N3835 G3 X53.162 Y190.627 I0.223 J-0.759
N3840 G1 X52.955 Y190.405
N3845 X52.887 Y190.335
N3850 X52.687 Y190.157
N3855 G3 X52.897 Y189.937 I0.105 J-0.11
N3860 X52.94 Y190.08 I-0.105 J0.11
N3865 G1 X52.919 Y190.113 Z-0.494
N3870 X52.899 Y190.143 Z-0.479
N3875 X52.882 Y190.169 Z-0.455
N3880 X52.862 Y190.18 Z-0.423
N3885 X52.849 Y190.187 Z-0.387
N3890 X52.844 Y190.19 Z-0.348
N3895 G0 Z5.
N3900 X39.401 Y190.688
N3905 Z-0.196
N3910 G1 Z-0.348 F1000.
N3915 X39.403 Y190.695 Z-0.395
N3920 X39.407 Y190.716 Z-0.437
N3925 X39.414 Y190.749 Z-0.471
N3930 X39.423 Y190.791 Z-0.493
N3935 X39.433 Y190.837 Z-0.5
N3940 G3 X39.371 Y192.406 I-3.095 J0.664
N3945 G1 X39.271 Y192.706
N3950 X39.198 Y192.936
N3955 X39.179 Y192.975
N3960 X39.15 Y193.008
N3965 X39.113 Y193.03
N3970 X39.071 Y193.042
N3975 X39.027 Y193.04
N3980 X38.986 Y193.027
N3985 G2 X38.781 Y193.228 I-0.067 J0.136
N3990 G1 X38.844 Y193.363
N3995 X39.288 Y194.308 F6000.
N4000 X39.315 Y194.347
N4005 X39.352 Y194.377
N4010 X39.397 Y194.393
N4015 X39.445 Y194.394
N4020 X39.491 Y194.381
N4025 G3 X40.251 Y194.132 I1.356 J2.86
N4030 X41.033 Y194.081 I0.595 J3.109 F1000.
N4035 G1 X41.433 Y194.119
N4040 X41.581 Y194.14
N4045 X41.716 Y194.206
N4050 X41.831 Y194.303
N4055 X41.922 Y194.422
N4060 X41.989 Y194.556
N4065 X42.033 Y194.7
N4070 X42.037 Y194.725
N4075 X42.03 Y194.861
N4080 X41.972 Y194.985
N4085 X41.872 Y195.077
N4090 X41.827 Y195.094
N4095 X41.779 Y195.096
N4100 X41.733 Y195.083
N4105 X41.693 Y195.056
N4110 X41.664 Y195.019
N4115 X41.514 Y194.748
N4120 X41.291 Y194.344
N4125 G3 X41.433 Y194.119 I0.133 J-0.074
N4130 G1 X41.878 Y194.161
N4135 X42.027 Y194.182
N4140 X42.156 Y194.259
N4145 X42.263 Y194.363
N4150 X42.298 Y194.419
N4155 X42.349 Y194.556
N4160 X42.34 Y194.701
N4165 X42.273 Y194.831
N4170 X42.159 Y194.923
N4175 X42.114 Y194.936
N4180 X42.066 Y194.935
N4185 X42.022 Y194.919
N4190 X41.984 Y194.89
N4195 X41.957 Y194.851
N4200 X41.934 Y194.802
N4205 X41.732 Y194.378
N4210 G3 X41.878 Y194.161 I0.137 J-0.065
N4215 G1 X42.279 Y194.198
N4220 X42.427 Y194.22
N4225 X42.43 Y194.222
N4230 X42.524 Y194.332
N4235 X42.566 Y194.47
N4240 X42.55 Y194.613
N4245 X42.478 Y194.738
N4250 X42.362 Y194.824
N4255 X42.317 Y194.836
N4260 X42.27 Y194.832
N4265 X42.226 Y194.815
N4270 X42.189 Y194.785
N4275 X42.164 Y194.745
N4280 X42.152 Y194.699
N4285 X42.118 Y194.365
N4290 X42.12 Y194.322
N4295 X42.135 Y194.28
N4300 X42.16 Y194.245
N4305 X42.194 Y194.218
N4310 X42.235 Y194.202
N4315 X42.279 Y194.198
N4320 X42.509 Y194.22
N4325 X42.583 Y194.231
N4330 X42.719 Y194.294
N4335 X42.77 Y194.412
N4340 X42.762 Y194.541
N4345 X42.695 Y194.652
N4350 X42.586 Y194.721
N4355 X42.533 Y194.733
N4360 G3 X42.236 Y194.49 I-0.039 J-0.255
N4365 X42.509 Y194.22 I0.258 J-0.012
N4370 G1 X42.734 Y194.241
N4375 X42.808 Y194.252
N4380 X42.897 Y194.348
N4385 X42.918 Y194.476
N4390 X42.867 Y194.595
N4395 X42.758 Y194.667
N4400 X42.724 Y194.673
N4405 X42.689 Y194.671
N4410 G3 X42.734 Y194.241 I0.032 J-0.214
N4415 G1 X42.909 Y194.258
N4420 X42.984 Y194.269
N4425 X43.049 Y194.355
N4430 X43.059 Y194.463
N4435 X43.012 Y194.56
N4440 X42.92 Y194.618
N4445 X42.892 Y194.622
N4450 X42.863 Y194.62
N4455 G3 X42.909 Y194.258 I0.036 J-0.179
N4460 G1 X43.079 Y194.274
N4465 X43.116 Y194.279
N4470 X43.173 Y194.352
N4475 X43.183 Y194.443
N4480 X43.143 Y194.525
N4485 X43.065 Y194.575
N4490 X43.041 Y194.577
N4495 X43.018 Y194.572
N4500 G3 X43.079 Y194.274 I0.052 J-0.145
N4505 G1 X43.179 Y194.283
N4510 X43.216 Y194.289
N4515 X43.271 Y194.346
N4520 X43.284 Y194.423
N4525 X43.253 Y194.496
N4530 X43.187 Y194.539
N4535 X43.167 Y194.541
N4540 X43.147 Y194.54
N4545 G3 X43.179 Y194.283 I0.025 J-0.127
N4550 G1 X43.279 Y194.293
N4555 X43.317 Y194.298
N4560 X43.369 Y194.368
N4565 X43.358 Y194.455
N4570 X43.289 Y194.509
N4575 X43.256 Y194.51
N4580 X43.217 Y194.496
N4585 X43.186 Y194.468
N4590 X43.167 Y194.431
N4595 X43.164 Y194.39
N4600 X43.176 Y194.351
N4605 X43.202 Y194.318
N4610 X43.238 Y194.298
N4615 X43.279 Y194.293
N4620 X43.379 Y194.302
N4625 X43.417 Y194.307
N4630 X43.452 Y194.369
N4635 X43.438 Y194.44
N4640 X43.38 Y194.482
N4645 X43.353 Y194.483
N4650 X43.322 Y194.469
N4655 X43.298 Y194.445
N4660 X43.285 Y194.414
N4665 X43.283 Y194.38
N4670 X43.294 Y194.348
N4675 X43.316 Y194.322
N4680 X43.346 Y194.306
N4685 X43.379 Y194.302
N4690 X43.48 Y194.311
N4695 X43.517 Y194.317
N4700 X43.537 Y194.369
N4705 X43.521 Y194.423
N4710 X43.475 Y194.455
N4715 X43.452
N4720 X43.426 Y194.44
N4725 X43.408 Y194.416
N4730 X43.402 Y194.386
N4735 X43.407 Y194.357
N4740 X43.424 Y194.332
N4745 X43.45 Y194.316
N4750 X43.48 Y194.311
N4755 X43.548 Y194.318
N4760 X43.585 Y194.323
N4765 X43.602 Y194.365
N4770 X43.589 Y194.407
N4775 X43.553 Y194.433
N4780 X43.535 Y194.434
N4785 X43.508 Y194.422
N4790 X43.491 Y194.399
N4795 X43.487 Y194.37
N4800 X43.497 Y194.342
N4805 X43.52 Y194.324
N4810 X43.548 Y194.318
N4815 X43.61 Y194.324
N4820 X43.648 Y194.327
N4825 X43.68 Y194.33
N4830 X43.706 Y194.334
N4835 Y194.362
N4840 X43.692 Y194.386
N4845 X43.668 Y194.401
N4850 X43.652 Y194.396
N4855 X43.64 Y194.376
N4860 X43.642 Y194.353
N4865 X43.657 Y194.336
N4870 X43.68 Y194.33
N4875 X43.707 Y194.333
N4880 X43.73 Y194.335
N4885 X43.755 Y194.337
N4890 X43.78 Y194.342
N4895 X43.763 Y194.361
N4900 X43.008 Y194.277
N4905 X42.968 Y194.273 F6000.
N4910 X42.943 Y194.276
N4915 X42.923 Y194.291
N4920 X42.911 Y194.313
N4925 X42.912 Y194.338
N4930 X42.924 Y194.36
N4935 X42.945 Y194.374
N4940 X42.97 Y194.376
N4945 G3 X43.755 Y194.337 I0.57 J3.601 F1000.
N4950 G1 X43.767 Y194.339
N4955 X43.78 Y194.342
N4960 X43.798 Y194.356
N4965 X43.78 Y194.37
N4970 X43.58 Y194.425
N4975 X43.279 Y194.511
N4980 X42.879 Y194.63
N4985 X42.624 Y194.708
N4990 X42.579 Y194.723
N4995 X42.279 Y194.863
N5000 X42.179 Y194.913
N5005 X41.978 Y195.016
N5010 X41.878 Y195.073
N5015 X41.659 Y195.209
N5020 X41.578 Y195.259
N5025 X41.51 Y195.309
N5030 G3 X41.341 Y195.056 I-0.085 J-0.126
N5035 X41.489 Y195.044 I0.085 J0.126
N5040 G1 X41.517 Y195.072 Z-0.494
N5045 X41.542 Y195.098 Z-0.479
N5050 X41.564 Y195.12 Z-0.455
N5055 X41.57 Y195.143 Z-0.423
N5060 X41.574 Y195.157 Z-0.387
N5065 X41.576 Y195.162 Z-0.348
N5070 G0 Z5.
N5075 X52.991 Y113.369
N5080 Z-0.196
N5085 G1 Z-0.348 F1000.
N5090 X52.986 Y113.364 Z-0.395
N5095 X52.97 Y113.349 Z-0.437
N5100 X52.945 Y113.326 Z-0.471
N5105 X52.914 Y113.297 Z-0.493
N5110 X52.88 Y113.265 Z-0.5
N5115 G3 X52.038 Y111.939 I2.167 J-2.307
N5120 G1 X51.922 Y111.539
N5125 X51.888 Y111.393
N5130 X51.897 Y111.243
N5135 X51.945 Y111.101
N5140 X52.021 Y110.972
N5145 X52.12 Y110.859
N5150 X52.237 Y110.765
N5155 X52.367 Y110.69
N5160 X52.507 Y110.636
N5165 X52.653 Y110.602
N5170 X52.664 Y110.601
N5175 X52.787 Y110.611
N5180 X52.899 Y110.663
N5185 X52.987 Y110.75
N5190 X53.005 Y110.79
N5195 X53.011 Y110.834
N5200 X53.005 Y110.877
N5205 X52.986 Y110.917
N5210 X52.956 Y110.95
N5215 X52.54 Y111.296
N5220 X52.164 Y111.608
N5225 G3 X51.922 Y111.539 I-0.097 J-0.117
N5230 G1 X51.806 Y111.138
N5235 X51.771 Y110.992
N5240 X51.783 Y110.843
N5245 X51.833 Y110.701
N5250 X51.91 Y110.573
N5255 X52.008 Y110.459
N5260 X52.122 Y110.362
N5265 X52.25 Y110.283
N5270 X52.304 Y110.261
N5275 X52.461 Y110.234
N5280 X52.613 Y110.278
N5285 X52.731 Y110.385
N5290 X52.749 Y110.423
N5295 X52.756 Y110.464
N5300 X52.751 Y110.506
N5305 X52.735 Y110.545
N5310 X52.709 Y110.578
N5315 X52.402 Y110.87
N5320 X52.055 Y111.201
N5325 G3 X51.806 Y111.138 I-0.105 J-0.11
N5330 G1 X51.689 Y110.738
N5335 X51.654 Y110.592
N5340 X51.667 Y110.443
N5345 X51.715 Y110.301
N5350 X51.791 Y110.171
N5355 X51.89 Y110.059
N5360 X52.008 Y109.966
N5365 X52.049 Y109.945
N5370 X52.171 Y109.907
N5375 X52.298 Y109.915
N5380 X52.415 Y109.967
N5385 X52.505 Y110.058
N5390 X52.522 Y110.095
N5395 X52.529 Y110.135
N5400 X52.525 Y110.176
N5405 X52.51 Y110.214
N5410 X52.485 Y110.246
N5415 X52.275 Y110.459
N5420 X51.941 Y110.797
N5425 G3 X51.689 Y110.738 I-0.108 J-0.107
N5430 G1 X51.57 Y110.338
N5435 X51.535 Y110.192
N5440 X51.549 Y110.043
N5445 X51.6 Y109.901
N5450 X51.683 Y109.777
N5455 X51.791 Y109.672
N5460 X51.822 Y109.654
N5465 X51.947 Y109.607
N5470 X52.08 Y109.61
N5475 X52.203 Y109.662
N5480 X52.298 Y109.756
N5485 X52.315 Y109.794
N5490 X52.322 Y109.834
N5495 X52.317 Y109.875
N5500 X52.302 Y109.913
N5505 X52.277 Y109.946
N5510 X52.16 Y110.061
N5515 X51.821 Y110.397
N5520 G3 X51.57 Y110.338 I-0.107 J-0.108
N5525 G1 X51.451 Y109.937
N5530 X51.416 Y109.792
N5535 X51.439 Y109.643
N5540 X51.507 Y109.51
N5545 X51.606 Y109.397
N5550 X51.619 Y109.388
N5555 X51.746 Y109.334
N5560 X51.885 Y109.333
N5565 X52.013 Y109.385
N5570 X52.112 Y109.482
N5575 X52.13 Y109.522
N5580 X52.135 Y109.565
N5585 X52.129 Y109.608
N5590 X52.11 Y109.647
N5595 X52.081 Y109.68
N5600 X52.068 Y109.69
N5605 X51.693 Y110.005
N5610 G3 X51.451 Y109.937 I-0.098 J-0.116
N5615 G1 X51.353 Y109.607
N5620 X51.317 Y109.461
N5625 X51.342 Y109.313
N5630 X51.417 Y109.183
N5635 X51.421 Y109.18
N5640 X51.551 Y109.106
N5645 X51.701 Y109.092
N5650 X51.843 Y109.141
N5655 X51.951 Y109.245
N5660 X51.969 Y109.287
N5665 X51.974 Y109.333
N5670 X51.965 Y109.378
N5675 X51.944 Y109.418
N5680 X51.911 Y109.45
N5685 X51.585 Y109.682
N5690 X51.543 Y109.703
N5695 X51.496 Y109.71
N5700 X51.45 Y109.703
N5705 X51.408 Y109.682
N5710 X51.374 Y109.648
N5715 X51.353 Y109.607
N5720 X51.255 Y109.282
N5725 X51.238 Y109.209
N5730 X51.253 Y109.06
N5735 X51.344 Y108.962
N5740 X51.467 Y108.907
N5745 X51.601 Y108.905
N5750 X51.725 Y108.955
N5755 X51.82 Y109.049
N5760 X51.838 Y109.09
N5765 X51.843 Y109.135
N5770 X51.834 Y109.179
N5775 X51.813 Y109.219
N5780 X51.782 Y109.251
N5785 X51.742 Y109.272
N5790 X51.451 Y109.376
N5795 X51.403 Y109.385
N5800 X51.356 Y109.379
N5805 X51.312 Y109.358
N5810 X51.278 Y109.324
N5815 X51.255 Y109.282
N5820 X51.185 Y109.049
N5825 X51.167 Y108.976
N5830 X51.194 Y108.829
N5835 X51.305 Y108.74
N5840 X51.443 Y108.711
N5845 X51.58 Y108.749
N5850 X51.684 Y108.845
N5855 X51.698 Y108.873
N5860 X51.707 Y108.902
N5865 G3 X51.185 Y109.049 I-0.265 J0.06
N5870 G1 X51.121 Y108.836
N5875 X51.103 Y108.764
N5880 X51.136 Y108.617
N5885 X51.232 Y108.547
N5890 X51.349 Y108.527
N5895 X51.462 Y108.562
N5900 X51.549 Y108.643
N5905 X51.571 Y108.691
N5910 G3 X51.121 Y108.836 I-0.226 J0.069
N5915 G1 X51.061 Y108.636
N5920 X51.043 Y108.563
N5925 X51.108 Y108.452
N5930 X51.224 Y108.395
N5935 X51.352 Y108.41
N5940 X51.451 Y108.494
N5945 X51.461 Y108.514
N5950 X51.467 Y108.536
N5955 G3 X51.061 Y108.636 I-0.207 J0.032
N5960 G1 X51.022 Y108.506
N5965 X51.004 Y108.433
N5970 X51.017 Y108.359
N5975 X51.087 Y108.287
N5980 X51.183 Y108.258
N5985 X51.281 Y108.28
N5990 X51.356 Y108.348
N5995 X51.366 Y108.366
N6000 G3 X51.268 Y108.618 I-0.168 J0.08
N6005 X51.022 Y108.506 I-0.07 J-0.172
N6010 G1 X50.977 Y108.358
N6015 X50.959 Y108.286
N6020 X51.009 Y108.198
N6025 X51.1 Y108.152
N6030 X51.201 Y108.164
N6035 X51.278 Y108.229
N6040 X51.292 Y108.262
N6045 G3 X50.977 Y108.358 I-0.159 J0.044
N6050 G1 X50.94 Y108.236
N6055 X50.922 Y108.163
N6060 X50.968 Y108.087
N6065 X51.049 Y108.048
N6070 X51.137 Y108.059
N6075 X51.205 Y108.117
N6080 X51.218 Y108.146
N6085 G3 X50.94 Y108.236 I-0.14 J0.043
N6090 G1 X50.896 Y108.091
N6095 X50.887 Y108.055
N6100 X50.929 Y107.987
N6105 X51. Y107.953
N6110 X51.079 Y107.964
N6115 X51.139 Y108.015
N6120 X51.146 Y108.031
N6125 X51.148 Y108.048
N6130 G3 X50.896 Y108.091 I-0.13 J0.002
N6135 G1 X50.87 Y108.005
N6140 X50.861 Y107.969
N6145 X50.894 Y107.906
N6150 X50.956 Y107.873
N6155 X51.027 Y107.88
N6160 X51.081 Y107.926
N6165 X51.089 Y107.948
N6170 Y107.99
N6175 X51.074 Y108.029
N6180 X51.045 Y108.06
N6185 X51.007 Y108.079
N6190 X50.964 Y108.082
N6195 X50.924 Y108.069
N6200 X50.891 Y108.042
N6205 X50.87 Y108.005
N6210 X50.84 Y107.905
N6215 X50.831 Y107.869
N6220 X50.882 Y107.807
N6225 X50.962 Y107.796
N6230 X51.028 Y107.843
N6235 X51.035 Y107.865
N6240 X51.031 Y107.901
N6245 X51.015 Y107.933
N6250 X50.989 Y107.958
N6255 X50.955 Y107.971
N6260 X50.919 Y107.972
N6265 X50.885 Y107.96
N6270 X50.858 Y107.937
N6275 X50.84 Y107.905
N6280 X50.819 Y107.836
N6285 X50.81 Y107.799
N6290 X50.854 Y107.743
N6295 X50.925 Y107.732
N6300 X50.983 Y107.774
N6305 X50.99 Y107.791
N6310 Y107.824
N6315 X50.977 Y107.855
N6320 X50.955 Y107.879
N6325 X50.925 Y107.893
N6330 X50.892 Y107.895
N6335 X50.861 Y107.885
N6340 X50.835 Y107.864
N6345 X50.819 Y107.836
N6350 X50.798 Y107.767
N6355 X50.789 Y107.731
N6360 X50.829 Y107.682
N6365 X50.891 Y107.673
N6370 X50.942 Y107.71
N6375 X50.948 Y107.725
N6380 Y107.759
N6385 X50.934 Y107.789
N6390 X50.909 Y107.811
N6395 X50.876 Y107.82
N6400 X50.843 Y107.814
N6405 X50.815 Y107.796
N6410 X50.798 Y107.767
N6415 X50.777 Y107.698
N6420 X50.768 Y107.661
N6425 X50.805 Y107.621
N6430 X50.859 Y107.616
N6435 X50.903 Y107.648
N6440 X50.908 Y107.661
N6445 Y107.691
N6450 X50.895 Y107.717
N6455 X50.873 Y107.736
N6460 X50.845 Y107.743
N6465 X50.816 Y107.739
N6470 X50.792 Y107.722
N6475 X50.777 Y107.698
N6480 X50.758 Y107.635
N6485 X50.749 Y107.599
N6490 X50.782 Y107.566
N6495 X50.828 Y107.563
N6500 X50.866 Y107.591
N6505 X50.87 Y107.602
N6510 Y107.631
N6515 X50.856 Y107.657
N6520 X50.83 Y107.673
N6525 X50.801 Y107.674
N6530 X50.775 Y107.66
N6535 X50.758 Y107.635
N6540 X50.737 Y107.567
N6545 X50.728 Y107.535
N6550 X50.719 Y107.505
N6555 X50.711 Y107.472
N6560 X50.742 Y107.461
N6565 X50.776 Y107.467
N6570 X50.801 Y107.49
N6575 X50.802 Y107.509
N6580 X50.784 Y107.529
N6585 X50.759 Y107.535
N6590 X50.734 Y107.526
N6595 X50.719 Y107.505
N6600 X50.707 Y107.467
N6605 X50.698 Y107.435
N6610 X50.691 Y107.415
N6615 X50.687 Y107.396
N6620 X50.685 Y107.375
N6625 X50.713 Y107.384
N6630 X50.922 Y108.11
N6635 X50.938 Y108.165 F6000.
N6640 X50.951 Y108.186
N6645 X50.972 Y108.2
N6650 X50.997 Y108.201
N6655 X51.02 Y108.191
N6660 X51.035 Y108.171
N6665 X51.04 Y108.147
N6670 X51.032 Y108.123
N6675 G3 X50.691 Y107.415 I3.095 J-1.926 F1000.
N6680 G1 X50.685 Y107.395
N6685 Y107.375
N6690 X50.696 Y107.365
N6695 X50.707 Y107.357
N6700 X50.726 Y107.371
N6705 X50.894 Y107.635
N6710 X51.152 Y108.036
N6715 X51.545 Y108.636
N6720 X51.946 Y109.237
N6725 X52.286 Y109.739
N6730 X52.698 Y110.338
N6735 X53.118 Y110.938
N6740 X53.287 Y111.177
N6745 G3 X53.033 Y111.344 I-0.127 J0.083
N6750 X53.023 Y111.195 I0.127 J-0.083
N6755 G1 X53.051 Y111.168 Z-0.494
N6760 X53.077 Y111.143 Z-0.479
N6765 X53.099 Y111.121 Z-0.455
N6770 X53.122 Y111.115 Z-0.423
N6775 X53.136 Y111.111 Z-0.387
N6780 X53.141 Y111.11 Z-0.348
N6785 G0 Z5.
N6790 X66.95 Y118.147
N6795 Z-0.196
N6800 G1 Z-0.348 F1000.
N6805 X66.945 Y118.142 Z-0.395
N6810 X66.93 Y118.126 Z-0.437
N6815 X66.908 Y118.101 Z-0.471
N6820 X66.879 Y118.069 Z-0.493
N6825 X66.848 Y118.034 Z-0.5
N6830 G3 X66.119 Y116.643 I2.351 J-2.119
N6835 G1 X66.058 Y116.343
N6840 X66.037 Y116.243
N6845 X66.013 Y116.095
N6850 X66.04 Y115.947
N6855 X66.102 Y115.811
N6860 X66.191 Y115.69
N6865 X66.301 Y115.587
N6870 X66.426 Y115.505
N6875 X66.562 Y115.442
N6880 X66.69 Y115.406
N6885 X66.834 Y115.395
N6890 X66.97 Y115.443
N6895 X67.076 Y115.541
N6900 X67.095 Y115.582
N6905 X67.101 Y115.628
N6910 X67.094 Y115.673
N6915 X67.073 Y115.713
N6920 X67.041 Y115.746
N6925 X66.664 Y116.033
N6930 X66.277 Y116.326
N6935 G3 X66.037 Y116.243 I-0.092 J-0.121
N6940 G1 X65.972 Y115.942
N6945 X65.949 Y115.842
N6950 X65.923 Y115.695
N6955 X65.951 Y115.547
N6960 X66.013 Y115.411
N6965 X66.102 Y115.29
N6970 X66.209 Y115.185
N6975 X66.333 Y115.101
N6980 X66.385 Y115.076
N6985 X66.504 Y115.043
N6990 X66.627 Y115.053
N6995 X66.74 Y115.104
N7000 X66.828 Y115.191
N7005 X66.846 Y115.231
N7010 X66.853 Y115.273
N7015 X66.847 Y115.316
N7020 X66.829 Y115.356
N7025 X66.801 Y115.389
N7030 X66.555 Y115.603
N7035 X66.196 Y115.917
N7040 G3 X65.949 Y115.842 I-0.1 J-0.114
N7045 G1 X65.897 Y115.617
N7050 X65.853 Y115.442
N7055 X65.825 Y115.295
N7060 X65.853 Y115.147
N7065 X65.915 Y115.011
N7070 X66.006 Y114.892
N7075 X66.118 Y114.792
N7080 X66.146 Y114.777
N7085 X66.268 Y114.735
N7090 X66.397 Y114.74
N7095 X66.516 Y114.791
N7100 X66.609 Y114.881
N7105 X66.627 Y114.92
N7110 X66.633 Y114.963
N7115 X66.628 Y115.005
N7120 X66.611 Y115.045
N7125 X66.583 Y115.078
N7130 X66.456 Y115.193
N7135 X66.101 Y115.513
N7140 G3 X65.853 Y115.442 I-0.102 J-0.113
N7145 G1 X65.803 Y115.242
N7150 X65.75 Y115.042
N7155 X65.718 Y114.895
N7160 X65.751 Y114.749
N7165 X65.826 Y114.619
N7170 X65.93 Y114.51
N7175 X65.933 Y114.508
N7180 X66.058 Y114.459
N7185 X66.192 Y114.46
N7190 X66.316 Y114.511
N7195 X66.413 Y114.604
N7200 X66.431 Y114.644
N7205 X66.437 Y114.689
N7210 X66.43 Y114.733
N7215 X66.41 Y114.773
N7220 X66.38 Y114.806
N7225 X66.373 Y114.811
N7230 X65.989 Y115.116
N7235 G3 X65.75 Y115.042 I-0.095 J-0.119
N7240 G1 X65.723 Y114.941
N7245 X65.658 Y114.711
N7250 X65.625 Y114.565
N7255 X65.659 Y114.419
N7260 X65.671 Y114.4
N7265 X65.767 Y114.3
N7270 X65.893 Y114.245
N7275 X66.031 Y114.242
N7280 X66.16 Y114.292
N7285 X66.26 Y114.387
N7290 X66.28 Y114.431
N7295 X66.284 Y114.48
N7300 X66.273 Y114.528
N7305 X66.247 Y114.569
N7310 X66.21 Y114.601
N7315 X65.881 Y114.796
N7320 X65.839 Y114.813
N7325 X65.793 Y114.817
N7330 X65.749 Y114.807
N7335 X65.71 Y114.785
N7340 X65.678 Y114.752
N7345 X65.658 Y114.711
N7350 X65.581 Y114.441
N7355 X65.572 Y114.411
N7360 X65.555 Y114.338
N7365 X65.578 Y114.19
N7370 X65.666 Y114.1
N7375 X65.782 Y114.051
N7380 X65.908 Y114.049
N7385 X66.026 Y114.096
N7390 X66.116 Y114.183
N7395 X66.134 Y114.217
N7400 X66.146 Y114.253
N7405 G3 X65.572 Y114.411 I-0.291 J0.064
N7410 G1 X65.508 Y114.195
N7415 X65.49 Y114.122
N7420 X65.514 Y113.974
N7425 X65.617 Y113.89
N7430 X65.748 Y113.861
N7435 X65.877 Y113.895
N7440 X65.977 Y113.984
N7445 X65.992 Y114.012
N7450 X66.003 Y114.042
N7455 G3 X65.508 Y114.195 I-0.25 J0.069
N7460 G1 X65.44 Y113.972
N7465 X65.431 Y113.936
N7470 X65.437 Y113.861
N7475 X65.517 Y113.761
N7480 X65.637 Y113.715
N7485 X65.764 Y113.736
N7490 X65.862 Y113.819
N7495 X65.874 Y113.843
N7500 X65.88 Y113.87
N7505 G3 X65.44 Y113.972 I-0.225 J0.028
N7510 G1 X65.399 Y113.841
N7515 X65.381 Y113.768
N7520 X65.437 Y113.657
N7525 X65.545 Y113.596
N7530 X65.669 Y113.605
N7535 X65.767 Y113.682
N7540 X65.786 Y113.726
N7545 G3 X65.591 Y113.976 I-0.196 J0.048
N7550 G1 X65.59
N7555 X65.54 Y113.969
N7560 X65.494 Y113.951
N7565 X65.454 Y113.923
N7570 X65.421 Y113.885
N7575 X65.399 Y113.841
N7580 X65.347 Y113.672
N7585 X65.337 Y113.636
N7590 X65.348 Y113.561
N7595 X65.414 Y113.492
N7600 X65.506 Y113.463
N7605 X65.599 Y113.483
N7610 X65.672 Y113.545
N7615 X65.681 Y113.563
N7620 X65.687 Y113.583
N7625 G3 X65.347 Y113.672 I-0.174 J0.03
N7630 G1 X65.305 Y113.54
N7635 X65.295 Y113.504
N7640 X65.338 Y113.416
N7645 X65.422 Y113.367
N7650 X65.519 Y113.374
N7655 X65.596 Y113.435
N7660 X65.607 Y113.467
N7665 G3 X65.305 Y113.54 I-0.155 J0.02
N7670 G1 X65.273 Y113.44
N7675 X65.263 Y113.404
N7680 X65.269 Y113.329
N7685 X65.343 Y113.267
N7690 X65.44 Y113.264
N7695 X65.518 Y113.322
N7700 X65.531 Y113.349
N7705 X65.539 Y113.394
N7710 G3 X65.273 Y113.44 I-0.137 J0.
N7715 G1 X65.231 Y113.31
N7720 X65.221 Y113.274
N7725 X65.258 Y113.209
N7730 X65.324 Y113.175
N7735 X65.397 Y113.183
N7740 X65.455 Y113.23
N7745 X65.464 Y113.256
N7750 X65.461 Y113.299
N7755 X65.443 Y113.338
N7760 X65.411 Y113.369
N7765 X65.371 Y113.386
N7770 X65.328 Y113.388
N7775 X65.287 Y113.375
N7780 X65.253 Y113.347
N7785 X65.231 Y113.31
N7790 X65.196 Y113.204
N7795 X65.186 Y113.168
N7800 X65.241 Y113.104
N7805 X65.325 Y113.093
N7810 X65.395 Y113.141
N7815 X65.401 Y113.156
N7820 X65.403 Y113.171
N7825 X65.395 Y113.207
N7830 X65.376 Y113.238
N7835 X65.348 Y113.261
N7840 X65.313 Y113.273
N7845 X65.277
N7850 X65.242 Y113.26
N7855 X65.215 Y113.236
N7860 X65.196 Y113.204
N7865 X65.175 Y113.14
N7870 X65.165 Y113.104
N7875 X65.209 Y113.042
N7880 X65.283 Y113.029
N7885 X65.346 Y113.071
N7890 X65.354 Y113.089
N7895 Y113.124
N7900 X65.342 Y113.156
N7905 X65.319 Y113.182
N7910 X65.288 Y113.197
N7915 X65.254 Y113.201
N7920 X65.22 Y113.191
N7925 X65.193 Y113.17
N7930 X65.175 Y113.14
N7935 X65.153 Y113.071
N7940 X65.143 Y113.035
N7945 X65.182 Y112.982
N7950 X65.247 Y112.97
N7955 X65.303 Y113.007
N7960 X65.31 Y113.023
N7965 X65.311 Y113.058
N7970 X65.297 Y113.091
N7975 X65.27 Y113.115
N7980 X65.237 Y113.125
N7985 X65.202 Y113.12
N7990 X65.172 Y113.101
N7995 X65.153 Y113.071
N8000 X65.133 Y113.01
N8005 X65.123 Y112.973
N8010 X65.157 Y112.926
N8015 X65.215 Y112.917
N8020 X65.263 Y112.949
N8025 X65.27 Y112.963
N8030 X65.272 Y112.995
N8035 X65.261 Y113.024
N8040 X65.238 Y113.047
N8045 X65.208 Y113.057
N8050 X65.177 Y113.053
N8055 X65.15 Y113.036
N8060 X65.133 Y113.01
N8065 X65.11 Y112.94
N8070 X65.1 Y112.904
N8075 X65.134 Y112.867
N8080 X65.183 Y112.862
N8085 X65.224 Y112.891
N8090 X65.229 Y112.903
N8095 Y112.934
N8100 X65.214 Y112.961
N8105 X65.187 Y112.978
N8110 X65.156 Y112.979
N8115 X65.128 Y112.966
N8120 X65.11 Y112.94
N8125 X65.085 Y112.866
N8130 X65.075 Y112.83
N8135 X65.107 Y112.804
N8140 X65.149
N8145 X65.182 Y112.829
N8150 X65.186 Y112.838
N8155 X65.184 Y112.864
N8160 X65.171 Y112.886
N8165 X65.148 Y112.899
N8170 X65.123
N8175 X65.1 Y112.888
N8180 X65.085 Y112.866
N8185 X65.066 Y112.809
N8190 X65.056 Y112.773
N8195 X65.083 Y112.753
N8200 X65.117 Y112.752
N8205 X65.144 Y112.773
N8210 X65.148 Y112.781
N8215 X65.149 Y112.803
N8220 X65.14 Y112.823
N8225 X65.121 Y112.835
N8230 X65.099 Y112.837
N8235 X65.079 Y112.828
N8240 X65.066 Y112.809
N8245 X65.043 Y112.74
N8250 X65.033 Y112.709
N8255 X65.021 Y112.671
N8260 X65.012 Y112.64
N8265 X65.011 Y112.629
N8270 X65.013 Y112.619
N8275 X65.019 Y112.61
N8280 X65.027 Y112.619
N8285 X65.259 Y113.356
N8290 X65.278 Y113.417 F6000.
N8295 X65.291 Y113.439
N8300 X65.313 Y113.452
N8305 X65.338 Y113.453
N8310 X65.36 Y113.442
N8315 X65.375 Y113.422
N8320 X65.379 Y113.397
N8325 X65.371 Y113.374
N8330 G3 X65.021 Y112.671 I3.067 J-1.97 F1000.
N8335 G1 X65.005 Y112.625
N8340 X65.019 Y112.61
N8345 X65.032 Y112.611
N8350 X65.044 Y112.625
N8355 X65.122 Y112.74
N8360 X65.13 Y112.757
N8365 X65.247 Y113.038
N8370 X65.295 Y113.153
N8375 X65.313 Y113.184
N8380 X65.336 Y113.21
N8385 G3 X65.738 Y113.64 I-1.788 J2.069
N8390 G1 X66.017 Y114.041
N8395 X66.597 Y114.866
N8400 X67.006 Y115.442
N8405 X67.221 Y115.742
N8410 X67.383 Y115.967
N8415 G0 Z5.
N8420 X76.803 Y114.293
N8425 Z-0.196
N8430 G1 Z-0.348 F1000.
N8435 X76.796 Y114.296 Z-0.395
N8440 X76.778 Y114.307 Z-0.437
N8445 X76.749 Y114.324 Z-0.471
N8450 X76.712 Y114.346 Z-0.493
N8455 X76.672 Y114.37 Z-0.5
N8460 G3 X76.014 Y113.941 I-0.222 J-0.379
N8465 G1 X76.059 Y113.64
N8470 G0 Z5.
N8475 X72.767 Y98.42
N8480 Z-0.196
N8485 G1 Z-0.348 F1000.
N8490 X72.759 Y98.418 Z-0.395
N8495 X72.739 Y98.413 Z-0.437
N8500 X72.706 Y98.404 Z-0.471
N8505 X72.665 Y98.394 Z-0.493
N8510 X72.619 Y98.382 Z-0.5
N8515 G3 X71.242 Y97.627 I0.785 J-3.066
N8520 G1 X71.141 Y97.527
N8525 X70.936 Y97.327
N8530 X70.901 Y97.295
N8535 X70.801 Y97.216
N8540 X70.639 Y97.09
N8545 G3 X70.834 Y96.856 I0.098 J-0.117
N8550 X70.887 Y96.996 I-0.098 J0.117
N8555 G1 X70.868 Y97.03 Z-0.494
N8560 X70.85 Y97.062 Z-0.479
N8565 X70.835 Y97.089 Z-0.455
N8570 X70.815 Y97.101 Z-0.423
N8575 X70.803 Y97.109 Z-0.387
N8580 X70.799 Y97.112 Z-0.348
N8585 G0 Z5.
N8590 X70.874 Y111.486
N8595 Z-0.196
N8600 G1 Z-0.348 F1000.
N8605 X70.878 Y111.493 Z-0.395
N8610 X70.889 Y111.511 Z-0.437
N8615 X70.907 Y111.54 Z-0.471
N8620 X70.929 Y111.576 Z-0.493
N8625 X70.953 Y111.616 Z-0.5
N8630 G3 X71.617 Y113.04 I-6.237 J3.777
N8635 G1 X71.675 Y113.24
N8640 X71.702 Y113.34
N8645 X71.741 Y113.495
N8650 X71.77 Y113.642
N8655 X71.748 Y113.791
N8660 X71.691 Y113.93
N8665 X71.607 Y114.054
N8670 X71.502 Y114.161
N8675 X71.381 Y114.25
N8680 X71.248 Y114.318
N8685 X71.206 Y114.333
N8690 X71.078 Y114.351
N8695 X70.951 Y114.322
N8700 X70.843 Y114.25
N8705 X70.816 Y114.211
N8710 X70.803 Y114.165
N8715 X70.804 Y114.117
N8720 X70.82 Y114.073
N8725 X70.849 Y114.035
N8730 X71.146 Y113.753
N8735 X71.49 Y113.427
N8740 G3 X71.741 Y113.495 I0.105 J0.11
N8745 G1 X71.776 Y113.64
N8750 X71.834 Y113.941
N8755 X71.846 Y114.09
N8760 X71.816 Y114.237
N8765 X71.751 Y114.373
N8770 X71.661 Y114.493
N8775 X71.61 Y114.538
N8780 X71.497 Y114.606
N8785 X71.366 Y114.627
N8790 X71.237 Y114.6
N8795 X71.127 Y114.527
N8800 X71.1 Y114.488
N8805 X71.087 Y114.443
N8810 Y114.396
N8815 X71.102 Y114.352
N8820 X71.13 Y114.314
N8825 X71.251 Y114.193
N8830 X71.579 Y113.867
N8835 G3 X71.834 Y113.941 I0.107 J0.108
N8840 G1 X71.859 Y114.141
N8845 X71.87 Y114.241
N8850 X71.877 Y114.341
N8855 X71.878 Y114.441
N8860 X71.873 Y114.591
N8865 X71.797 Y114.701
N8870 X71.685 Y114.775
N8875 X71.553 Y114.801
N8880 X71.421 Y114.776
N8885 X71.309 Y114.703
N8890 X71.281 Y114.664
N8895 X71.267 Y114.619
N8900 X71.268 Y114.571
N8905 X71.284 Y114.526
N8910 X71.313 Y114.488
N8915 X71.352 Y114.46
N8920 X71.66 Y114.312
N8925 G3 X71.878 Y114.441 I0.066 J0.137
N8930 G1 X71.88 Y114.541
N8935 X71.879 Y114.641
N8940 X71.867 Y114.741
N8945 X71.854 Y114.815
N8950 X71.787 Y114.897
N8955 X71.69 Y114.94
N8960 X71.584 Y114.934
N8965 X71.493 Y114.88
N8970 X71.463 Y114.843
N8975 X71.442 Y114.799
N8980 G3 X71.854 Y114.646 I0.206 J-0.077
N8985 X71.867 Y114.741 I-0.206 J0.077
N8990 G1 X71.843 Y114.941
N8995 X71.836 Y114.972
N9000 X71.829 Y115.01
N9005 X71.821 Y115.04
N9010 X71.77 Y115.069
N9015 X71.712 Y115.07
N9020 X71.66 Y115.041
N9025 X71.643 Y115.014
N9030 X71.638 Y114.982
N9035 X71.647 Y114.95
N9040 X71.671 Y114.92
N9045 X71.705 Y114.901
N9050 X71.744 Y114.898
N9055 X71.781 Y114.91
N9060 X71.811 Y114.936
N9065 X71.827 Y114.971
N9070 X71.829 Y115.01
N9075 X71.822 Y115.042
N9080 X71.811 Y115.084
N9085 X71.801 Y115.119
N9090 X71.798 Y115.131
N9095 X71.791 Y115.143
N9100 G0 Z5.
N9105 X71.745 Y114.395
N9110 Z-0.196
N9115 G1 Z-0.348 F1000.
N9120 X71.747 Y114.402 Z-0.395
N9125 X71.753 Y114.423 Z-0.437
N9130 X71.762 Y114.456 Z-0.471
N9135 X71.774 Y114.496 Z-0.493
N9140 X71.786 Y114.542 Z-0.5
N9145 G3 X71.798 Y115.131 I-1.143 J0.318
N9150 G1 X71.793 Y115.142
N9155 X71.779 Y115.152
N9160 X71.765 Y115.142
N9165 X71.245 Y114.641
N9170 X70.801 Y114.208
N9175 X70.53 Y113.941
N9180 X70.461 Y113.872
N9185 G3 X70.683 Y113.664 I0.111 J-0.104
N9190 X70.719 Y113.809 I-0.111 J0.104
N9195 G1 X70.696 Y113.841 Z-0.494
N9200 X70.674 Y113.87 Z-0.479
N9205 X70.656 Y113.895 Z-0.455
N9210 X70.635 Y113.905 Z-0.423
N9215 X70.621 Y113.912 Z-0.387
N9220 X70.617 Y113.914 Z-0.348
N9225 G0 Z5.
N9230 X61.759 Y100.806
N9235 Z-0.196
N9240 G1 Z-0.348 F1000.
N9245 X61.753 Y100.802 Z-0.395
N9250 X61.734 Y100.791 Z-0.437
N9255 X61.706 Y100.773 Z-0.471
N9260 X61.669 Y100.751 Z-0.493
N9265 X61.629 Y100.726 Z-0.5
N9270 G3 X60.536 Y99.598 I1.655 J-2.698
N9275 G1 X60.446 Y99.429
N9280 G3 X60.719 Y99.295 I0.136 J-0.067
N9285 X60.711 Y99.444 I-0.136 J0.067
N9290 G1 X60.679 Y99.467 Z-0.494
N9295 X60.65 Y99.489 Z-0.479
N9300 X60.626 Y99.507 Z-0.455
N9305 X60.602 Y99.511 Z-0.423
N9310 X60.588 Y99.513 Z-0.387
N9315 X60.583 Y99.514 Z-0.348
N9320 G0 Z5.
N9325 X59.982 Y111.861
N9330 Z-0.196
N9335 G1 Z-0.348 F1000.
N9340 X59.988 Y111.866 Z-0.395
N9345 X60.004 Y111.88 Z-0.437
N9350 X60.03 Y111.902 Z-0.471
N9355 X60.062 Y111.93 Z-0.493
N9360 X60.097 Y111.96 Z-0.5
N9365 G3 X60.993 Y113.251 I-2.071 J2.393
N9370 G1 X61.12 Y113.64
N9375 X61.159 Y113.785
N9380 X61.154 Y113.935
N9385 X61.112 Y114.079
N9390 X61.04 Y114.211
N9395 X60.945 Y114.327
N9400 X60.832 Y114.425
N9405 X60.704 Y114.505
N9410 X60.567 Y114.564
N9415 X60.507 Y114.58
N9420 X60.379 Y114.591
N9425 X60.255 Y114.555
N9430 X60.152 Y114.477
N9435 X60.128 Y114.438
N9440 X60.117 Y114.394
N9445 X60.119 Y114.349
N9450 X60.135 Y114.306
N9455 X60.162 Y114.269
N9460 X60.525 Y113.919
N9465 X60.872 Y113.583
N9470 G3 X61.12 Y113.64 I0.106 J0.109
N9475 G1 X61.216 Y113.941
N9480 X61.256 Y114.071
N9485 X61.294 Y114.216
N9490 X61.277 Y114.365
N9495 X61.224 Y114.506
N9500 X61.146 Y114.634
N9505 X61.047 Y114.747
N9510 X60.932 Y114.842
N9515 X60.898 Y114.862
N9520 X60.75 Y114.91
N9525 X60.595 Y114.89
N9530 X60.465 Y114.805
N9535 X60.44 Y114.768
N9540 X60.426 Y114.725
N9545 X60.427 Y114.68
N9550 X60.44 Y114.637
N9555 X60.465 Y114.599
N9560 X60.681 Y114.365
N9565 X61.001 Y114.018
N9570 G3 X61.256 Y114.071 I0.112 J0.103
N9575 G1 X61.338 Y114.341
N9580 X61.382 Y114.488
N9585 X61.417 Y114.634
N9590 X61.395 Y114.782
N9595 X61.34 Y114.921
N9600 X61.253 Y115.044
N9605 X61.226 Y115.07
N9610 X61.114 Y115.142
N9615 X60.984 Y115.168
N9620 X60.853 Y115.144
N9625 X60.741 Y115.073
N9630 X60.713 Y115.036
N9635 X60.698 Y114.992
N9640 X60.697 Y114.946
N9645 X60.71 Y114.902
N9650 X60.735 Y114.863
N9655 X60.81 Y114.781
N9660 X61.125 Y114.434
N9665 G3 X61.382 Y114.488 I0.112 J0.102
N9670 G1 X61.427 Y114.641
N9675 X61.493 Y114.875
N9680 X61.527 Y115.022
N9685 X61.497 Y115.168
N9690 X61.491 Y115.178
N9695 X61.385 Y115.292
N9700 X61.241 Y115.35
N9705 X61.085 Y115.34
N9710 X60.949 Y115.265
N9715 X60.922 Y115.231
N9720 X60.906 Y115.191
N9725 X60.902 Y115.148
N9730 X60.91 Y115.105
N9735 X60.93 Y115.067
N9740 X60.959 Y115.036
N9745 X61.254 Y114.803
N9750 X61.297 Y114.779
N9755 X61.345 Y114.77
N9760 X61.393 Y114.776
N9765 X61.437 Y114.798
N9770 X61.471 Y114.832
N9775 X61.493 Y114.875
N9780 X61.54 Y115.042
N9785 X61.575 Y115.171
N9790 X61.591 Y115.245
N9795 X61.552 Y115.357
N9800 X61.471 Y115.443
N9805 X61.36 Y115.487
N9810 X61.242 Y115.48
N9815 X61.137 Y115.425
N9820 X61.105 Y115.39
N9825 X61.081 Y115.348
N9830 X61.067 Y115.302
N9835 G3 X61.575 Y115.171 I0.257 J-0.053
N9840 G1 X61.629 Y115.372
N9845 X61.644 Y115.445
N9850 X61.594 Y115.539
N9855 X61.505 Y115.596
N9860 X61.4 Y115.605
N9865 X61.303 Y115.562
N9870 X61.276 Y115.534
N9875 X61.257 Y115.5
N9880 X61.245 Y115.462
N9885 G3 X61.629 Y115.372 I0.194 J-0.033
N9890 G1 X61.673 Y115.542
N9895 X61.685 Y115.584
N9900 X61.694 Y115.618
N9905 X61.701 Y115.655
N9910 X61.638 Y115.711
N9915 X61.554 Y115.726
N9920 X61.475 Y115.695
N9925 X61.459 Y115.676
N9930 X61.451 Y115.653
N9935 X61.452 Y115.628
N9940 X61.467 Y115.59
N9945 X61.493 Y115.558
N9950 X61.529 Y115.538
N9955 X61.569 Y115.529
N9960 X61.61 Y115.534
N9965 X61.646 Y115.552
N9970 X61.675 Y115.581
N9975 X61.694 Y115.618
N9980 X61.718 Y115.711
N9985 X61.726 Y115.742
N9990 X61.734 Y115.772
N9995 X61.741 Y115.811
N10000 X61.71 Y115.83
N10005 X61.674 Y115.834
N10010 X61.64 Y115.819
N10015 X61.629 Y115.806
N10020 X61.625 Y115.789
N10025 Y115.788
N10030 X61.631 Y115.763
N10035 X61.648 Y115.743
N10040 X61.673 Y115.733
N10045 X61.699 Y115.736
N10050 X61.72 Y115.75
N10055 X61.734 Y115.772
N10060 X61.752 Y115.842
N10065 X61.745 Y115.86
N10070 X61.734 Y115.871
N10075 X61.723 Y115.878
N10080 X61.708 Y115.87
N10085 X61.593 Y115.785
N10090 X61.393 Y115.633
N10095 X61.277 Y115.542
N10100 X61.038 Y115.342
N10105 X60.993 Y115.304
N10110 X60.923 Y115.242
N10115 X60.593 Y114.936
N10120 X60.292 Y114.63
N10125 X60.192 Y114.521
N10130 X59.992 Y114.302
N10135 X59.892 Y114.186
N10140 X59.769 Y114.041
N10145 G0 Z5.
N10150 X48.223 Y96.548
N10155 Z-0.196
N10160 G1 Z-0.348 F1000.
N10165 X48.216 Y96.549 Z-0.395
N10170 X48.194 Y96.55 Z-0.437
N10175 X48.161 Y96.553 Z-0.471
N10180 X48.118 Y96.555 Z-0.493
N10185 X48.071 Y96.559 Z-0.5
N10190 G3 X46.527 Y96.273 I-0.215 J-3.158
N10195 G1 X46.432 Y96.226
N10200 X46.282 Y96.153
N10205 X46.211 Y96.126
N10210 X46.027 Y96.068
N10215 X45.987 Y96.05
N10220 X45.955 Y96.021
N10225 X45.932 Y95.984
N10230 X45.921 Y95.942
N10235 X45.922 Y95.898
N10240 X45.935 Y95.857
N10245 G2 X45.843 Y95.645 I-0.137 J-0.066
N10250 X45.648 Y95.768 I-0.045 J0.145
N10255 G1 Y95.812 F6000.
N10260 X45.661 Y95.855
N10265 X45.685 Y95.892
N10270 X45.719 Y95.92
N10275 X45.76 Y95.938
N10280 X46.379 Y96.096
N10285 G2 X46.455 Y95.802 I0.038 J-0.147
N10290 X46.349 Y95.813 I-0.038 J0.147
N10295 G1 X46.342 Y95.817
N10300 G3 X45.581 Y95.978 I-0.699 J-1.42 F1000.
N10305 G1 X45.281 Y95.956
N10310 X45.181
N10315 X44.981 Y95.963
N10320 X44.881 Y95.971
N10325 X44.625 Y96.01
N10330 X44.58 Y96.018
N10335 X44.28 Y96.11
N10340 G0 Z5.
N10345 X71.396 Y260.951
N10350 Z-0.196
N10355 G1 Z-0.348 F1000.
N10360 X71.392 Y260.944 Z-0.395
N10365 X71.38 Y260.926 Z-0.437
N10370 X71.362 Y260.898 Z-0.471
N10375 X71.339 Y260.862 Z-0.493
N10380 X71.314 Y260.823 Z-0.5
N10385 G3 X70.819 Y259.332 I2.663 J-1.711
N10390 G1 X70.813 Y259.162
N10395 G3 X71.117 I0.152 J0.
N10400 X71.044 Y259.292 I-0.152 J0.
N10405 G1 X71.003 Y259.303 Z-0.494
N10410 X70.965 Y259.314 Z-0.475
N10415 X70.937 Y259.308 Z-0.451
N10420 X70.916 Y259.303 Z-0.42
N10425 X70.903 Y259.3 Z-0.385
N10430 X70.898 Y259.298 Z-0.348
N10435 G0 Z5.
N10440 X64.809 Y248.469
N10445 Z-0.196
N10450 G1 Z-0.348 F1000.
N10455 X64.816 Y248.467 Z-0.395
N10460 X64.837 Y248.462 Z-0.437
N10465 X64.87 Y248.455 Z-0.471
N10470 X64.911 Y248.445 Z-0.493
N10475 X64.957 Y248.435 Z-0.5
N10480 G3 X66.528 Y248.474 I0.709 J3.085
N10485 G1 X66.597 Y248.497
N10490 X66.933 Y248.624
N10495 X66.951 Y248.631
N10500 X66.962 Y248.642
N10505 X66.969 Y248.653
N10510 Y248.984
N10515 X66.963 Y249.027
N10520 X66.945 Y249.066
N10525 X66.916 Y249.099
N10530 X66.879 Y249.122
N10535 X66.838 Y249.134
N10540 X66.794
N10545 G2 X66.619 Y249.284 I-0.023 J0.15
N10550 X66.794 Y249.434 I0.152 J0.
N10555 X66.841 Y249.149 I-0.023 J-0.15 F6000.
N10560 G1 X66.727 Y249.09
N10565 G2 X66.526 Y249.303 I-0.07 J0.135
N10570 G3 X66.845 Y250.036 I-2.721 J1.618
N10575 X66.969 Y250.81 I-3.039 J0.884 F1000.
N10580 G1 Y251.255
N10585 Y251.286
N10590 Y251.324
N10595 X66.962 Y251.474
N10600 X66.935 Y251.507
N10605 X66.899 Y251.528
N10610 X66.858 Y251.536
N10615 X66.803 Y251.53
N10620 X66.75 Y251.516
N10625 X66.699 Y251.494
N10630 G3 X66.87 Y251.167 I0.086 J-0.163
N10635 X66.969 Y251.324 I-0.086 J0.163
N10640 G1 Y251.506
N10645 X66.966 Y251.516
N10650 X66.96 Y251.526
N10655 X66.95 Y251.536
N10660 X66.397
N10665 G0 Z5.
N10670 X74.035 Y187.617
N10675 Z-0.196
N10680 G1 Z-0.348 F1000.
N10685 X74.033 Y187.624 Z-0.395
N10690 X74.027 Y187.645 Z-0.437
N10695 X74.018 Y187.677 Z-0.471
N10700 X74.006 Y187.718 Z-0.493
N10705 X73.994 Y187.763 Z-0.5
N10710 G3 X73.403 Y189.218 I-7.012 J-2.
N10715 G1 X73.353 Y189.304
N10720 X73.297 Y189.404
N10725 X73.221 Y189.549
N10730 X73.202 Y189.585
N10735 X73.193 Y189.604
N10740 X73.119 Y189.734
N10745 X73.056 Y189.761
N10750 X72.987 Y189.762
N10755 X72.923 Y189.735
N10760 X72.881 Y189.699
N10765 X72.845 Y189.656
N10770 X72.816 Y189.608
N10775 G3 X73.191 Y189.426 I0.187 J-0.091
N10780 X73.193 Y189.604 I-0.187 J0.091
N10785 G1 X73.143 Y189.704
N10790 X73.102 Y189.792
N10795 X73.097 Y189.804
N10800 X73.092 Y189.815
N10805 X73.081 Y189.822
N10810 X73.072 Y189.826
N10815 X73.061 Y189.828
N10820 X73.051 Y189.815
N10825 X73.05 Y189.801
N10830 X73.058 Y189.789
N10835 X73.071 Y189.784
N10840 X73.085 Y189.789
N10845 X73.093 Y189.801
N10850 X73.092 Y189.815
N10855 X73.079 Y189.826
N10860 X73.061 Y189.828
N10865 X72.902 Y189.721
N10870 X72.802 Y189.658
N10875 X72.602 Y189.538
N10880 X72.567 Y189.519
N10885 X72.533 Y189.493
N10890 X72.507 Y189.458
N10895 X72.492 Y189.417
N10900 X72.489 Y189.374
N10905 X72.498 Y189.332
N10910 X72.519 Y189.294
N10915 X72.634 Y189.159
N10920 G3 X72.9 Y189.233 I0.116 J0.099
N10925 G1 Y189.281 F6000.
N10930 X72.885 Y189.326
N10935 X72.858 Y189.365
N10940 X72.819 Y189.393
N10945 X72.774 Y189.407
N10950 X72.726 Y189.408
N10955 G3 X71.968 Y189.204 I0.562 J-3.602 F1000.
N10960 G1 X71.901 Y189.175
N10965 X71.646 Y189.081
N10970 G3 X71.761 Y188.799 I0.057 J-0.141
N10975 X71.854 Y188.916 I-0.057 J0.141
N10980 G1 X71.856 Y188.94 Z-0.498
N10985 X71.841 Y188.98 Z-0.484
N10990 X71.828 Y189.014 Z-0.458
N10995 X71.818 Y189.039 Z-0.422
N11000 X71.808 Y189.05 Z-0.386
N11005 X71.805 Y189.053 Z-0.348
N11010 G0 Z5.
N11015 X63.456 Y196.01
N11020 Z-0.196
N11025 G1 Z-0.348 F1000.
N11030 X63.463 Y196.012 Z-0.395
N11035 X63.484 Y196.019 Z-0.437
N11040 X63.516 Y196.029 Z-0.471
N11045 X63.556 Y196.042 Z-0.493
N11050 X63.601 Y196.056 Z-0.5
N11055 G3 X65.039 Y196.688 I-2.196 J6.953
N11060 G1 X65.236 Y196.81
N11065 X65.296 Y196.845
N11070 X65.396 Y196.899
N11075 X65.525 Y196.977
N11080 X65.616 Y197.096
N11085 X65.676 Y197.233
N11090 X65.705 Y197.38
N11095 X65.708 Y197.53
N11100 X65.685 Y197.679
N11105 X65.665 Y197.741
N11110 X65.6 Y197.861
N11115 X65.494 Y197.947
N11120 X65.364 Y197.987
N11125 X65.316 Y197.982
N11130 X65.271 Y197.963
N11135 X65.235 Y197.93
N11140 X65.211 Y197.887
N11145 X65.201 Y197.84
N11150 X65.192 Y197.512
N11155 X65.177 Y197.04
N11160 G3 X65.396 Y196.899 I0.152 J-0.005
N11165 G1 X65.605 Y197.01
N11170 X65.727 Y197.064
N11175 X65.861 Y197.131
N11180 X65.96 Y197.244
N11185 X66.026 Y197.378
N11190 X66.062 Y197.524
N11195 X66.065 Y197.579
N11200 X66.045 Y197.71
N11205 X65.979 Y197.825
N11210 X65.875 Y197.908
N11215 X65.747 Y197.946
N11220 X65.701 Y197.942
N11225 X65.659 Y197.925
N11230 X65.623 Y197.895
N11235 X65.598 Y197.856
N11240 X65.586 Y197.812
N11245 X65.572 Y197.691
N11250 X65.52 Y197.222
N11255 G3 X65.727 Y197.064 I0.151 J-0.017
N11260 G1 X65.897 Y197.138
N11265 X65.997 Y197.178
N11270 X66.046 Y197.196
N11275 X66.184 Y197.254
N11280 X66.291 Y197.36
N11285 X66.359 Y197.493
N11290 X66.36 Y197.499
N11295 X66.356 Y197.644
N11300 X66.295 Y197.775
N11305 X66.186 Y197.87
N11310 X66.048 Y197.915
N11315 X66.001 Y197.911
N11320 X65.958 Y197.892
N11325 X65.922 Y197.862
N11330 X65.898 Y197.822
N11335 X65.886 Y197.777
N11340 X65.848 Y197.354
N11345 G3 X66.046 Y197.196 I0.151 J-0.014
N11350 G1 X66.197 Y197.25
N11355 X66.297 Y197.285
N11360 X66.376 Y197.31
N11365 X66.447 Y197.336
N11370 X66.561 Y197.433
N11375 X66.589 Y197.582
N11380 X66.547 Y197.727
N11385 X66.442 Y197.837
N11390 X66.3 Y197.888
N11395 X66.249 Y197.886
N11400 X66.2 Y197.875
N11405 G3 X66.376 Y197.31 I0.098 J-0.279
N11410 G1 X66.552 Y197.363
N11415 X66.597 Y197.376
N11420 X66.669 Y197.399
N11425 X66.738 Y197.5
N11430 X66.755 Y197.622
N11435 X66.717 Y197.738
N11440 X66.631 Y197.825
N11445 X66.515 Y197.865
N11450 X66.478 Y197.864
N11455 X66.442 Y197.853
N11460 G3 X66.597 Y197.376 I0.099 J-0.231
N11465 G1 X66.766 Y197.42
N11470 X66.837 Y197.443
N11475 X66.903 Y197.557
N11480 X66.897 Y197.688
N11485 X66.821 Y197.796
N11490 X66.7 Y197.846
N11495 X66.668 Y197.845
N11500 X66.637 Y197.836
N11505 G3 X66.766 Y197.42 I0.081 J-0.203
N11510 G1 X66.928 Y197.462
N11515 X66.964 Y197.473
N11520 X67.024 Y197.518
N11525 X67.057 Y197.614
N11530 X67.039 Y197.713
N11535 X66.974 Y197.791
N11540 X66.879 Y197.827
N11545 X66.854 Y197.826
N11550 X66.829 Y197.82
N11555 G3 X66.928 Y197.462 I0.062 J-0.176
N11560 G1 X67.053 Y197.491
N11565 X67.125 Y197.512
N11570 X67.175 Y197.596
N11575 X67.171 Y197.694
N11580 X67.115 Y197.774
N11585 X67.025 Y197.812
N11590 X66.982 Y197.808
N11595 G3 X67.053 Y197.491 I0.04 J-0.157
N11600 G1 X67.198 Y197.525
N11605 X67.234 Y197.535
N11610 X67.282 Y197.606
N11615 Y197.693
N11620 X67.234 Y197.765
N11625 X67.155 Y197.798
N11630 X67.137 Y197.797
N11635 X67.119 Y197.792
N11640 G3 X67.198 Y197.525 I0.052 J-0.13
N11645 G1 X67.298 Y197.547
N11650 X67.334 Y197.557
N11655 X67.377 Y197.618
N11660 X67.378 Y197.694
N11665 X67.338 Y197.757
N11670 X67.268 Y197.786
N11675 X67.239 Y197.782
N11680 X67.203 Y197.764
N11685 X67.176 Y197.734
N11690 X67.159 Y197.697
N11695 X67.156 Y197.657
N11700 X67.165 Y197.618
N11705 X67.188 Y197.584
N11710 X67.219 Y197.56
N11715 X67.258 Y197.547
N11720 X67.298
N11725 X67.398 Y197.568
N11730 X67.434 Y197.578
N11735 X67.471 Y197.654
N11740 X67.445 Y197.735
N11745 X67.37 Y197.775
N11750 X67.344 Y197.772
N11755 X67.311 Y197.752
N11760 X67.286 Y197.722
N11765 X67.275 Y197.684
N11770 X67.278 Y197.646
N11775 X67.294 Y197.61
N11780 X67.323 Y197.583
N11785 X67.359 Y197.569
N11790 X67.398 Y197.568
N11795 X67.498 Y197.59
N11800 X67.534 Y197.599
N11805 X67.557 Y197.667
N11810 X67.53 Y197.733
N11815 X67.466 Y197.765
N11820 X67.443 Y197.761
N11825 X67.413 Y197.738
N11830 X67.396 Y197.706
N11835 X67.392 Y197.669
N11840 X67.403 Y197.634
N11845 X67.428 Y197.606
N11850 X67.461 Y197.591
N11855 X67.498 Y197.59
N11860 X67.566 Y197.604
N11865 X67.602 Y197.614
N11870 X67.624 Y197.671
N11875 X67.602 Y197.729
N11880 X67.547 Y197.757
N11885 X67.529 Y197.754
N11890 X67.5 Y197.738
N11895 X67.481 Y197.711
N11900 X67.475 Y197.678
N11905 X67.483 Y197.646
N11910 X67.504 Y197.62
N11915 X67.533 Y197.605
N11920 X67.566 Y197.604
N11925 X67.628 Y197.617
N11930 X67.665 Y197.626
N11935 X67.684 Y197.675
N11940 X67.665 Y197.725
N11945 X67.618 Y197.749
N11950 X67.602 Y197.748
N11955 X67.576 Y197.735
N11960 X67.558 Y197.713
N11965 X67.551 Y197.685
N11970 X67.556 Y197.656
N11975 X67.574 Y197.632
N11980 X67.599 Y197.618
N11985 X67.628 Y197.617
N11990 X67.698 Y197.631
N11995 X67.735 Y197.64
N12000 X67.746 Y197.683
N12005 X67.728 Y197.723
N12010 X67.688 Y197.742
N12015 X67.675 Y197.741
N12020 X67.651 Y197.727
N12025 X67.636 Y197.703
N12030 X67.634 Y197.675
N12035 X67.647 Y197.65
N12040 X67.67 Y197.634
N12045 X67.698 Y197.631
N12050 X67.767 Y197.645
N12055 X67.798 Y197.651
N12060 X67.829 Y197.657
N12065 X67.857 Y197.665
N12070 X67.853 Y197.695
N12075 X67.834 Y197.718
N12080 X67.806 Y197.729
N12085 X67.789 Y197.722
N12090 X67.781 Y197.7
N12095 X67.787 Y197.676
N12100 X67.805 Y197.661
N12105 X67.829 Y197.657
N12110 X67.867 Y197.665
N12115 X67.898 Y197.671
N12120 X67.923 Y197.676
N12125 X67.937 Y197.68
N12130 X67.92 Y197.7
N12135 X67.179 Y197.539
N12140 X67.147 Y197.532 F6000.
N12145 X67.122 Y197.533
N12150 X67.1 Y197.546
N12155 X67.087 Y197.567
N12160 X67.085 Y197.592
N12165 X67.095 Y197.615
N12170 X67.114 Y197.63
N12175 X67.139 Y197.635
N12180 G3 X67.923 Y197.676 I0.202 J3.64 F1000.
N12185 G1 X67.936 Y197.679
N12190 X67.95 Y197.693
N12195 X67.948 Y197.711
N12200 X67.936 Y197.716
N12205 X67.698 Y197.741
N12210 X67.69
N12215 X67.661 Y197.728 Z-0.494
N12220 X67.633 Y197.716 Z-0.481
N12225 X67.609 Y197.705 Z-0.461
N12230 X67.596 Y197.683 Z-0.43
N12235 X67.588 Y197.67 Z-0.394
N12240 X67.586 Y197.665 Z-0.354
N12245 G0 Z5.
N12250 X67.659 Y197.633
N12255 Z1.652
N12260 G1 Z1.5 F1000.
N12265 Z-0.5
N12270 G3 X66.898 Y197.825 I-1.269 J-3.417
N12275 G1 X64.841 Y198.042
N12280 G0 Z5.
N12285 X72.559 Y163.266
N12290 Z-0.196
N12295 G1 Z-0.348 F1000.
N12300 X72.56 Y163.274 Z-0.395
N12305 X72.564 Y163.295 Z-0.437
N12310 X72.57 Y163.328 Z-0.471
N12315 X72.578 Y163.37 Z-0.493
N12320 X72.587 Y163.416 Z-0.5
N12325 G3 X72.487 Y164.983 I-3.11 J0.588
N12330 G1 X72.451 Y165.083
N12335 X72.43 Y165.122
N12340 X72.399 Y165.153
N12345 X72.361 Y165.174
N12350 X72.319 Y165.183
N12355 X72.275 Y165.18
N12360 X72.235 Y165.165
N12365 X72.192 Y165.149
N12370 X72.146 Y165.147
N12375 X72.102 Y165.158
N12380 X72.063 Y165.183
N12385 X72.033 Y165.217
N12390 X72.015 Y165.26
N12395 X71.952 Y165.499
N12400 X70.941 Y169.369 F6000.
N12405 X70.936 Y169.409
N12410 X70.942 Y169.449
N12415 X70.958 Y169.486
N12420 G3 X71.285 Y170.216 I-2.702 J1.648
N12425 X71.418 Y170.988 I-3.029 J0.919 F1000.
N12430 G1 X71.422 Y171.289
N12435 G0 Z5.
N12440 X74.33 Y182.072
N12445 Z-0.196
N12450 G1 Z-0.348 F1000.
N12455 X74.337 Y182.075 Z-0.395
N12460 X74.357 Y182.083 Z-0.437
N12465 X74.388 Y182.096 Z-0.471
N12470 X74.427 Y182.112 Z-0.493
N12475 X74.471 Y182.13 Z-0.5
N12480 G3 X75.725 Y183.076 I-1.219 J2.921
N12485 G1 X75.839 Y183.229
N12490 G0 Z5.
N12495 X78.376 Y260.293
N12500 Z-0.196
N12505 G1 Z-0.348 F1000.
N12510 X78.369 Y260.292 Z-0.395
N12515 X78.347 Z-0.437
N12520 X78.314 Z-0.471
N12525 X78.271 Z-0.493
N12530 X78.224 Z-0.5
N12535 G3 X76.705 Y259.893 I0.019 J-3.165
N12540 G1 X76.605 Y259.833
N12545 X76.405 Y259.751
N12550 X76.35 Y259.73
N12555 X76.212 Y259.671
N12560 X76.106 Y259.565
N12565 X76.029 Y259.436
N12570 X75.982 Y259.294
N12575 X75.96 Y259.145
N12580 X75.965 Y258.996
N12585 X75.992 Y258.848
N12590 X76.041 Y258.706
N12595 X76.054 Y258.681
N12600 X76.133 Y258.579
N12605 X76.243 Y258.512
N12610 X76.37 Y258.488
N12615 X76.905 Y258.487
N12620 G3 X77.035 Y258.71 I-0.005 J0.152
N12625 G1 X76.811 Y259.132
N12630 X76.8 Y259.152 F6000.
N12635 X76.532 Y259.658 F1000.
N12640 X76.507 Y259.692
N12645 X76.474 Y259.718
N12650 X76.434 Y259.734
N12655 X76.392 Y259.738
N12660 X76.35 Y259.73
N12665 X76.305 Y259.714
N12670 X76.205 Y259.69
N12675 X76.005 Y259.648
N12680 X75.905 Y259.631
N12685 X75.704 Y259.609
N12690 X75.604 Y259.599
N12695 X75.304 Y259.609
N12700 X75.204 Y259.62
N12705 X75.004 Y259.647
N12710 X74.919 Y259.662
N12715 X74.704 Y259.718
N12720 X74.604 Y259.75
N12725 X74.503 Y259.792
N12730 X74.403 Y259.84
N12735 X74.303 Y259.892
N12740 X74.192 Y259.963
N12745 X74.143 Y259.994
N12750 G3 X73.986 Y259.734 I-0.078 J-0.13
N12755 X74.135 Y259.73 I0.078 J0.13
N12760 G1 X74.161 Y259.759 Z-0.494
N12765 X74.185 Y259.786 Z-0.479
N12770 X74.206 Y259.809 Z-0.455
N12775 X74.212 Y259.832 Z-0.423
N12780 X74.215 Y259.846 Z-0.387
N12785 X74.216 Y259.851 Z-0.348
N12790 G0 Z5.
N12795 X78.189 Y251.592
N12800 Z-0.196
N12805 G1 Z-0.348 F1000.
N12810 X78.185 Y251.586 Z-0.395
N12815 X78.174 Y251.567 Z-0.437
N12820 X78.157 Y251.538 Z-0.471
N12825 X78.135 Y251.502 Z-0.493
N12830 X78.111 Y251.461 Z-0.5
N12835 G3 X77.669 Y249.954 I2.721 J-1.618
N12840 G1 Y249.554
N12845 X77.676 Y249.404
N12850 X77.727 Y249.263
N12855 X77.811 Y249.139
N12860 X77.92 Y249.036
N12865 X78.046 Y248.955
N12870 X78.184 Y248.896
N12875 X78.33 Y248.86
N12880 X78.479 Y248.846
N12885 X78.629 Y248.854
N12890 X78.777 Y248.882
N12895 X78.781 Y248.883
N12900 X78.889 Y248.942
N12905 X78.971 Y249.034
N12910 X79.016 Y249.149
N12915 X79.058 Y249.354
N12920 X79.125 Y249.654
N12925 X79.149 Y249.754
N12930 X79.225 Y250.054
N12935 X79.283 Y250.254
N12940 G3 X79.061 Y250.424 I-0.147 J0.037
N12945 G1 X78.685 Y250.212
N12950 X78.295 Y249.991 F6000.
N12955 X77.746 Y249.681 F1000.
N12960 X77.715 Y249.658
N12965 X77.691 Y249.627
N12970 X77.675 Y249.592
N12975 X77.669 Y249.554
N12980 Y249.123
N12985 Y249.085
N12990 Y249.053
N12995 X77.676 Y248.904
N13000 X77.705 Y248.797
N13005 X77.709 Y248.577
N13010 X77.68 Y248.461
N13015 X77.674 Y248.432
N13020 X77.67 Y248.403
N13025 X77.669 Y248.374
N13030 G3 X77.973 Y248.379 I0.152 J0.005
N13035 G1 Y248.692
N13040 Y248.735 F6000.
N13045 Y249.048 F1000.
N13050 G3 X77.669 Y249.053 I-0.152 J0.
N13055 G1 Y246.997
N13060 G3 X77.969 Y246.969 I0.152 J0.005
N13065 G1 X78.045 Y247.307
N13070 X79.062 Y251.822 F6000.
N13075 X79.075 Y251.859
N13080 X79.098 Y251.892
N13085 X79.129 Y251.917
N13090 X79.165 Y251.934
N13095 X79.204 Y251.941
N13100 G3 X79.992 Y252.074 I-0.129 J3.163
N13105 X80.708 Y252.392 I-0.918 J3.029 F1000.
N13110 G1 X80.961 Y252.556
N13115 X81.039 Y252.599
N13120 X81.167 Y252.677
N13125 X81.263 Y252.792
N13130 X81.326 Y252.928
N13135 X81.359 Y253.074
N13140 X81.364 Y253.224
N13145 X81.351 Y253.313
N13150 X81.308 Y253.439
N13155 X81.222 Y253.54
N13160 X81.105 Y253.602
N13165 X80.973 Y253.617
N13170 X80.931 Y253.606
N13175 X80.894 Y253.584
N13180 X80.864 Y253.552
N13185 X80.845 Y253.513
N13190 X80.838 Y253.47
N13195 X80.831 Y253.21
N13200 X80.819 Y252.738
N13205 G3 X81.039 Y252.599 I0.152 J-0.004
N13210 G1 X81.209 Y252.691
N13215 X81.309 Y252.742
N13220 X81.379 Y252.773
N13225 X81.513 Y252.84
N13230 X81.612 Y252.952
N13235 X81.677 Y253.088
N13240 X81.709 Y253.234
N13245 X81.707 Y253.345
N13250 X81.677 Y253.481
N13255 X81.598 Y253.596
N13260 X81.482 Y253.673
N13265 X81.346 Y253.702
N13270 X81.209 Y253.677
N13275 X81.169 Y253.652
N13280 X81.138 Y253.615
N13285 X81.12 Y253.572
N13290 X81.117 Y253.524
N13295 X81.128 Y253.401
N13300 X81.171 Y252.901
N13305 X81.182 Y252.855
N13310 X81.207 Y252.815
N13315 X81.242 Y252.785
N13320 X81.286 Y252.766
N13325 X81.333 Y252.762
N13330 X81.379 Y252.773
N13335 X81.609 Y252.874
N13340 X81.709 Y252.913
N13345 X81.847 Y252.972
N13350 X81.948 Y253.082
N13355 X82.013 Y253.218
N13360 X82.04 Y253.365
N13365 X82.032 Y253.515
N13370 X81.987 Y253.658
N13375 X81.957 Y253.712
N13380 X81.859 Y253.823
N13385 X81.725 Y253.885
N13390 X81.576 Y253.886
N13395 X81.441 Y253.827
N13400 X81.309 Y253.732
N13405 X81.209 Y253.677
N13410 X81.175 Y253.65
N13415 X81.151 Y253.615
N13420 X81.137 Y253.575
N13425 X81.135 Y253.533
N13430 X81.144 Y253.491
N13435 X81.165 Y253.454
N13440 X81.177 Y253.438
N13445 X81.54 Y252.964
N13450 X81.574 Y252.932
N13455 X81.616 Y252.911
N13460 X81.663 Y252.905
N13465 X81.709 Y252.913
N13470 X81.909 Y252.988
N13475 X82.009 Y253.023
N13480 X82.039 Y253.033
N13485 X82.18 Y253.087
N13490 X82.28 Y253.198
N13495 X82.345 Y253.333
N13500 X82.376 Y253.48
N13505 X82.374 Y253.63
N13510 X82.342 Y253.777
N13515 X82.28 Y253.913
N13520 X82.241 Y253.967
N13525 X82.14 Y254.061
N13530 X82.01 Y254.109
N13535 X81.872 Y254.104
N13540 X81.746 Y254.047
N13545 X81.441 Y253.827
N13550 X81.412 Y253.797
N13555 X81.392 Y253.761
N13560 X81.382 Y253.721
N13565 X81.384 Y253.68
N13570 X81.397 Y253.64
N13575 X81.419 Y253.606
N13580 X81.478 Y253.539
N13585 X81.883 Y253.079
N13590 X81.916 Y253.051
N13595 X81.955 Y253.033
N13600 X81.997 Y253.027
N13605 X82.039 Y253.033
N13610 X82.209 Y253.088
N13615 X82.309 Y253.119
N13620 X82.34 Y253.128
N13625 X82.481 Y253.177
N13630 X82.593 Y253.278
N13635 X82.67 Y253.406
N13640 X82.716 Y253.549
N13645 X82.733 Y253.698
N13650 X82.721 Y253.848
N13655 X82.681 Y253.992
N13660 X82.617 Y254.128
N13665 X82.565 Y254.197
N13670 X82.467 Y254.287
N13675 X82.342 Y254.334
N13680 X82.208 Y254.331
N13685 X82.085 Y254.28
N13690 X82.009 Y254.229
N13695 X81.904 Y254.158
N13700 X81.746 Y254.047
N13705 X81.715 Y254.013
N13710 X81.694 Y253.972
N13715 X81.687 Y253.926
N13720 X81.695 Y253.88
N13725 X81.716 Y253.839
N13730 X81.829 Y253.679
N13735 X82.179 Y253.187
N13740 X82.21 Y253.155
N13745 X82.25 Y253.133
N13750 X82.294 Y253.124
N13755 X82.34 Y253.128
N13760 X82.61 Y253.206
N13765 X82.71 Y253.233
N13770 X82.853 Y253.279
N13775 X82.96 Y253.383
N13780 X83.038 Y253.511
N13785 X83.086 Y253.654
N13790 X83.108 Y253.802
N13795 X83.106 Y253.952
N13800 X83.079 Y254.1
N13805 X83.029 Y254.241
N13810 X82.957 Y254.373
N13815 X82.912 Y254.429
N13820 X82.817 Y254.51
N13825 X82.7 Y254.554
N13830 X82.575
N13835 X82.457 Y254.511
N13840 X82.309 Y254.425
N13845 X82.203 Y254.358
N13850 X82.085 Y254.28
N13855 X82.052 Y254.247
N13860 X82.03 Y254.207
N13865 X82.022 Y254.161
N13870 X82.027 Y254.115
N13875 X82.046 Y254.073
N13880 X82.222 Y253.802
N13885 X82.549 Y253.299
N13890 X82.579 Y253.264
N13895 X82.619 Y253.241
N13900 X82.664 Y253.23
N13905 X82.71 Y253.233
N13910 X82.91 Y253.286
N13915 X83.04 Y253.319
N13920 X83.184 Y253.362
N13925 X83.301 Y253.456
N13930 X83.39 Y253.576
N13935 X83.452 Y253.713
N13940 X83.488 Y253.859
N13945 X83.502 Y254.008
N13950 X83.493 Y254.158
N13955 X83.463 Y254.305
N13960 X83.411 Y254.446
N13965 X83.34 Y254.577
N13970 X83.3 Y254.628
N13975 X83.178 Y254.726
N13980 X83.025 Y254.762
N13985 X82.872 Y254.729
N13990 X82.81 Y254.7
N13995 X82.61 Y254.6
N14000 X82.457 Y254.511
N14005 X82.423 Y254.482
N14010 X82.4 Y254.444
N14015 X82.388 Y254.401
N14020 X82.389 Y254.356
N14025 X82.403 Y254.314
N14030 X82.605 Y253.92
N14035 X82.874 Y253.398
N14040 X82.896 Y253.366
N14045 X82.926 Y253.34
N14050 X82.962 Y253.323
N14055 X83.001 Y253.316
N14060 X83.04 Y253.319
N14065 X83.31 Y253.386
N14070 X83.41 Y253.409
N14075 X83.554 Y253.451
N14080 X83.675 Y253.54
N14085 X83.769 Y253.657
N14090 X83.839 Y253.79
N14095 X83.884 Y253.933
N14100 X83.907 Y254.081
N14105 X83.909 Y254.231
N14110 X83.893 Y254.38
N14115 X83.857 Y254.526
N14120 X83.799 Y254.664
N14125 X83.756 Y254.738
N14130 X83.653 Y254.851
N14135 X83.513 Y254.909
N14140 X83.361 Y254.904
N14145 X83.31 Y254.891
N14150 X83.21 Y254.857
N14155 X83.01 Y254.786
N14160 X82.937 Y254.758
N14165 X82.872 Y254.729
N14170 X82.835 Y254.702
N14175 X82.808 Y254.666
N14180 X82.792 Y254.623
N14185 X82.79 Y254.578
N14190 X82.801 Y254.534
N14195 X83.015 Y254.031
N14200 X83.241 Y253.499
N14205 X83.262 Y253.463
N14210 X83.292 Y253.435
N14215 X83.329 Y253.416
N14220 X83.369 Y253.407
N14225 X83.41 Y253.409
N14230 X83.615 Y253.457
N14235 X83.766 Y253.479
N14240 X83.913 Y253.508
N14245 X84.04 Y253.587
N14250 X84.144 Y253.696
N14255 X84.224 Y253.822
N14260 X84.281 Y253.961
N14265 X84.318 Y254.107
N14270 X84.335 Y254.256
N14275 X84.334 Y254.406
N14280 X84.314 Y254.554
N14285 X84.274 Y254.699
N14290 X84.216 Y254.837
N14295 X84.208 Y254.851
N14300 X84.111 Y254.953
N14305 X83.982 Y255.01
N14310 X83.841 Y255.012
N14315 X83.61 Y254.968
N14320 X83.361 Y254.904
N14325 X83.318 Y254.883
N14330 X83.283 Y254.85
N14335 X83.26 Y254.808
N14340 X83.252 Y254.761
N14345 X83.259 Y254.714
N14350 X83.418 Y254.192
N14355 X83.435 Y254.136 F6000.
N14360 X83.604 Y253.586 F1000.
N14365 X83.622 Y253.548
N14370 X83.649 Y253.516
N14375 X83.684 Y253.493
N14380 X83.724 Y253.481
N14385 X83.766 Y253.479
N14390 X84.166 Y253.536
N14395 X84.313 Y253.565
N14400 X84.442 Y253.642
N14405 X84.548 Y253.748
N14410 X84.633 Y253.872
N14415 X84.697 Y254.007
N14420 X84.742 Y254.15
N14425 X84.768 Y254.298
N14430 X84.775 Y254.448
N14435 X84.767 Y254.598
N14440 X84.738 Y254.745
N14445 X84.689 Y254.887
N14450 X84.685 Y254.896
N14455 X84.596 Y255.005
N14460 X84.471 Y255.072
N14465 X84.331 Y255.084
N14470 X84.111 Y255.056
N14475 X84.011 Y255.041
N14480 X83.911 Y255.025
N14485 X83.841 Y255.012
N14490 X83.797 Y254.994
N14495 X83.76 Y254.964
N14500 X83.735 Y254.923
N14505 X83.723 Y254.877
N14510 X83.726 Y254.829
N14515 X83.851 Y254.298
N14520 X83.873 Y254.204 F6000.
N14525 X84.002 Y253.653 F1000.
N14530 X84.018 Y253.612
N14535 X84.045 Y253.578
N14540 X84.081 Y253.552
N14545 X84.122 Y253.538
N14550 X84.166 Y253.536
N14555 X84.566 Y253.593
N14560 X84.713 Y253.621
N14565 X84.846 Y253.692
N14570 X84.957 Y253.793
N14575 X85.048 Y253.912
N14580 X85.119 Y254.044
N14585 X85.171 Y254.185
N14590 X85.205 Y254.331
N14595 X85.221 Y254.48
N14600 X85.22 Y254.63
N14605 X85.198 Y254.779
N14610 X85.157 Y254.923
N14615 X85.153 Y254.931
N14620 X85.067 Y255.047
N14625 X84.941 Y255.118
N14630 X84.798 Y255.134
N14635 X84.611 Y255.115
N14640 X84.331 Y255.084
N14645 X84.285 Y255.07
N14650 X84.246 Y255.042
N14655 X84.218 Y255.003
N14660 X84.203 Y254.957
N14665 Y254.909
N14670 X84.292 Y254.372
N14675 X84.309 Y254.267 F6000.
N14680 X84.4 Y253.719 F1000.
N14685 X84.414 Y253.676
N14690 X84.441 Y253.638
N14695 X84.477 Y253.611
N14700 X84.52 Y253.595
N14705 X84.566 Y253.593
N14710 X85.012 Y253.656
N14715 X85.159 Y253.684
N14720 X85.29 Y253.758
N14725 X85.4 Y253.859
N14730 X85.491 Y253.978
N14735 X85.563 Y254.11
N14740 X85.616 Y254.25
N14745 X85.652 Y254.396
N14750 X85.67 Y254.545
N14755 Y254.695
N14760 X85.66 Y254.763
N14765 X85.611 Y254.897
N14770 X85.513 Y255.001
N14775 X85.382 Y255.058
N14780 X85.339 Y255.059
N14785 X85.297 Y255.048
N14790 X85.26 Y255.026
N14795 X85.231 Y254.994
N14800 X85.212 Y254.956
N14805 X85.035 Y254.415
N14810 X85.001 Y254.313 F6000.
N14815 X84.851 Y253.855 F1000.
N14820 G3 X85.012 Y253.656 I0.144 J-0.047
N14825 G1 X85.442 Y253.717
N14830 X85.589 Y253.745
N14835 X85.722 Y253.816
N14840 X85.835 Y253.914
N14845 X85.929 Y254.031
N14850 X86.003 Y254.161
N14855 X86.06 Y254.3
N14860 X86.096 Y254.446
N14865 X86.11 Y254.595
N14870 Y254.611
N14875 X86.073 Y254.749
N14880 X85.986 Y254.862
N14885 X85.86 Y254.932
N14890 X85.817 Y254.937
N14895 X85.774 Y254.93
N14900 X85.735 Y254.911
N14905 X85.703 Y254.882
N14910 X85.681 Y254.845
N14915 X85.472 Y254.359
N14920 X85.286 Y253.928
N14925 G3 X85.442 Y253.717 I0.14 J-0.06
N14930 G1 X85.912 Y253.783
N14935 X86.059 Y253.812
N14940 X86.189 Y253.888
N14945 X86.299 Y253.99
N14950 X86.388 Y254.11
N14955 X86.423 Y254.179
N14960 X86.457 Y254.278
N14965 X86.46 Y254.384
N14970 X86.432 Y254.485
N14975 G3 X86.178 Y254.515 I-0.137 J-0.067
N14980 G1 X86.05 Y254.36
N14985 X85.779 Y254.031
N14990 G3 X85.912 Y253.783 I0.117 J-0.097
N14995 G1 X86.343 Y253.844
N15000 X86.381 Y253.85
N15005 X86.413 Y253.854
N15010 X86.486 Y253.868
N15015 X86.543 Y253.922
N15020 X86.571 Y253.995
N15025 X86.566 Y254.073
N15030 X86.55 Y254.11
N15035 X86.525 Y254.143
N15040 X86.494 Y254.17
N15045 G3 X86.294 Y253.885 I-0.1 J-0.143
N15050 X86.413 Y253.854 I0.1 J0.143
N15055 G1 X86.557 Y253.875
N15060 X86.579 Y253.878
N15065 X86.59 Y253.883
N15070 X86.601 Y253.895
N15075 Y253.913
N15080 X86.593 Y253.958
N15085 X86.571 Y254.058
N15090 X86.485 Y254.358
N15095 X86.444 Y254.458
N15100 X86.413 Y254.529
N15105 X86.397 Y254.558
N15110 X86.332 Y254.658
N15115 X86.313 Y254.682
N15120 X86.271 Y254.724
N15125 X86.229 Y254.758
N15130 X86.212 Y254.771
N15135 X86.162 Y254.803
N15140 X86.112 Y254.832
N15145 X86.012 Y254.877
N15150 X85.912 Y254.915
N15155 X85.712 Y254.977
N15160 X85.612 Y255.007
N15165 X85.38 Y255.059
N15170 X85.312 Y255.072
N15175 X84.911 Y255.142
N15180 X84.899 Y255.143
N15185 X84.798 Y255.134
N15190 G3 X84.838 Y254.832 I0.02 J-0.151
N15195 X84.957 Y254.922 I-0.02 J0.151
N15200 G1 X84.964 Y254.953 Z-0.497
N15205 X84.97 Y254.983 Z-0.486
N15210 X84.959 Y255.017 Z-0.463
N15215 X84.951 Y255.044 Z-0.43
N15220 X84.946 Y255.061 Z-0.391
N15225 X84.945 Y255.067 Z-0.348
N15230 G0 Z5.
N15235 X87.982 Y243.309
N15240 Z-0.196
N15245 G1 Z-0.348 F1000.
N15250 X87.979 Y243.315 Z-0.395
N15255 X87.967 Y243.334 Z-0.437
N15260 X87.949 Y243.362 Z-0.471
N15265 X87.927 Y243.398 Z-0.493
N15270 X87.902 Y243.438 Z-0.5
N15275 G3 X86.935 Y244.676 I-6.196 J-3.844
N15280 G1 X86.913 Y244.697
N15285 X86.867 Y244.75
N15290 X86.813 Y244.825
N15295 X86.798 Y244.85
N15300 X86.771 Y244.905
N15305 X86.759 Y244.93
N15310 X86.749 Y244.95
N15315 X86.716 Y245.017
N15320 X86.642 Y245.057
N15325 X86.558 Y245.061
N15330 X86.481 Y245.03
N15335 X86.447 Y244.997
N15340 X86.424 Y244.956
N15345 X86.414 Y244.909
N15350 X86.417 Y244.862
N15355 X86.434 Y244.818
N15360 G3 X86.749 Y244.95 I0.151 J0.083
N15365 G1 X86.732 Y245.
N15370 X86.717 Y245.05
N15375 X86.713 Y245.07
N15380 X86.706 Y245.114
N15385 X86.7 Y245.15
N15390 X86.695 Y245.165
N15395 X86.673 Y245.149
N15400 X86.812 Y244.404
N15405 X86.818 Y244.37 F6000.
N15410 X86.817 Y244.345
N15415 X86.804 Y244.323
N15420 X86.782 Y244.311
N15425 X86.757 Y244.309
N15430 X86.735 Y244.32
N15435 X86.719 Y244.34
N15440 X86.716 Y244.365
N15445 G3 X86.7 Y245.15 I-3.632 J0.32 F1000.
N15450 G1 X86.696 Y245.163
N15455 X86.685 Y245.177
N15460 X86.67 Y245.175
N15465 X86.613 Y245.128
N15470 X86.51 Y245.05
N15475 X86.313 Y244.916
N15480 X86.2 Y244.85
N15485 X86.012 Y244.746
N15490 X85.957 Y244.719
N15495 G3 X86.103 Y244.452 I0.073 J-0.133
N15500 X86.182 Y244.578 I-0.073 J0.133
N15505 G1 Y244.585
N15510 X86.168 Y244.622 Z-0.492
N15515 X86.155 Y244.656 Z-0.474
N15520 X86.145 Y244.685 Z-0.447
N15525 X86.13 Y244.698 Z-0.417
N15530 X86.121 Y244.706 Z-0.384
N15535 X86.118 Y244.709 Z-0.348
N15540 G0 Z5.
N15545 X79.083 Y246.151
N15550 Z-0.196
N15555 G1 Z-0.348 F1000.
N15560 X79.085 Y246.158 Z-0.395
N15565 X79.09 Y246.179 Z-0.437
N15570 X79.1 Y246.211 Z-0.471
N15575 X79.111 Y246.252 Z-0.493
N15580 X79.124 Y246.297 Z-0.5
N15585 G3 X79.142 Y247.082 I-1.523 J0.429
N15590 G1 X79.07 Y247.352
N15595 X79.049 Y247.452
N15600 X79.007 Y247.682
N15605 X78.997 Y247.752
N15610 X78.96 Y248.053
N15615 X78.935 Y248.353
N15620 X78.927 Y248.453
N15625 X78.921 Y248.553
N15630 X78.924 Y248.653
N15635 X78.939 Y248.753
N15640 X78.997 Y249.053
N15645 X79.016 Y249.149
N15650 G0 Z5.
N15655 X72.271 Y258.681
N15660 Z-0.196
N15665 G1 Z-0.348 F1000.
N15670 X72.278 Y258.679 Z-0.395
N15675 X72.299 Y258.675 Z-0.437
N15680 X72.332 Y258.668 Z-0.471
N15685 X72.373 Y258.658 Z-0.493
N15690 X72.419 Y258.648 Z-0.5
N15695 G3 X73.981 Y258.478 I1.568 J7.121
N15700 G1 X74.203 Y258.485
N15705 X74.303 Y258.488
N15710 X74.403
N15715 X74.434
N15720 X74.472
N15725 X74.622 Y258.496
N15730 X74.842 Y258.498
N15735 X74.87 Y258.493
N15740 X74.898 Y258.489
N15745 X74.927 Y258.488
N15750 G3 X74.916 Y258.792 I-0.005 J0.152
N15755 X74.431 Y258.646 I0.035 J-0.999
N15760 G1 X74.404 Y258.621
N15765 X74.391 Y258.588
N15770 X74.392 Y258.552
N15775 X74.409 Y258.519
N15780 X74.437 Y258.497
N15785 X74.472 Y258.488
N15790 X76.37
N15795 G0 Z5.
N15800 X73.455 Y138.944
N15805 Z-0.196
N15810 G1 Z-0.348 F1000.
N15815 X73.462 Y138.941 Z-0.395
N15820 X73.481 Y138.932 Z-0.437
N15825 X73.511 Y138.918 Z-0.471
N15830 X73.55 Y138.899 Z-0.493
N15835 X73.592 Y138.879 Z-0.5
N15840 G3 X75.134 Y138.58 I1.356 J2.86
N15845 G1 X75.559 Y138.62
N15850 X75.708 Y138.641
N15855 X75.84 Y138.713
N15860 X75.951 Y138.814
N15865 X76.038 Y138.935
N15870 X76.103 Y139.071
N15875 X76.144 Y139.215
N15880 X76.146 Y139.229
N15885 X76.135 Y139.366
N15890 X76.073 Y139.49
N15895 X75.969 Y139.58
N15900 X75.923 Y139.595
N15905 X75.876
N15910 X75.83 Y139.581
N15915 X75.791 Y139.553
N15920 X75.763 Y139.515
N15925 X75.629 Y139.255
N15930 X75.415 Y138.841
N15935 G3 X75.559 Y138.62 I0.135 J-0.07
N15940 G1 X75.957 Y138.657
N15945 X76.106 Y138.679
N15950 X76.239 Y138.747
N15955 X76.352 Y138.846
N15960 X76.394 Y138.907
N15965 X76.45 Y139.044
N15970 X76.444 Y139.193
N15975 X76.379 Y139.326
N15980 X76.265 Y139.421
N15985 X76.221 Y139.434
N15990 X76.174
N15995 X76.13 Y139.419
N16000 X76.093 Y139.392
N16005 X76.065 Y139.355
N16010 X76.031 Y139.29
N16015 X75.814 Y138.88
N16020 G3 X75.957 Y138.657 I0.134 J-0.071
N16025 G1 X76.36 Y138.695
N16030 X76.508 Y138.717
N16035 X76.609 Y138.822
N16040 X76.658 Y138.96
N16045 X76.647 Y139.106
N16050 X76.578 Y139.235
N16055 X76.462 Y139.324
N16060 X76.417 Y139.336
N16065 X76.371 Y139.334
N16070 X76.328 Y139.318
N16075 X76.291 Y139.289
N16080 X76.265 Y139.251
N16085 X76.251 Y139.207
N16090 X76.201 Y138.869
N16095 Y138.824
N16100 X76.214 Y138.781
N16105 X76.239 Y138.744
N16110 X76.274 Y138.716
N16115 X76.315 Y138.699
N16120 X76.36 Y138.695
N16125 X76.605 Y138.718
N16130 X76.679 Y138.729
N16135 X76.815 Y138.794
N16140 X76.867 Y138.914
N16145 X76.859 Y139.045
N16150 X76.792 Y139.158
N16155 X76.682 Y139.229
N16160 X76.629 Y139.241
N16165 G3 X76.327 Y138.993 I-0.039 J-0.26
N16170 X76.605 Y138.718 I0.263 J-0.012
N16175 G1 X76.835 Y138.74
N16180 X76.91 Y138.751
N16185 X76.996 Y138.848
N16190 X77.018 Y138.976
N16195 X76.967 Y139.096
N16200 X76.86 Y139.17
N16205 X76.822 Y139.176
N16210 X76.784 Y139.174
N16215 G3 X76.835 Y138.74 I0.038 J-0.215
N16220 G1 X77.005 Y138.756
N16225 X77.08 Y138.767
N16230 X77.147 Y138.853
N16235 X77.158 Y138.962
N16240 X77.111 Y139.06
N16245 X77.019 Y139.119
N16250 X76.99 Y139.123
N16255 X76.961 Y139.121
N16260 G3 X77.005 Y138.756 I0.034 J-0.181
N16265 G1 X77.136 Y138.768
N16270 X77.21 Y138.779
N16275 X77.269 Y138.85
N16280 X77.28 Y138.942
N16285 X77.241 Y139.026
N16290 X77.163 Y139.076
N16295 X77.139 Y139.08
N16300 X77.114
N16305 G3 X77.136 Y138.768 I0.012 J-0.156
N16310 G1 X77.261 Y138.78
N16315 X77.335 Y138.791
N16320 X77.381 Y138.852
N16325 X77.388 Y138.928
N16330 X77.354 Y138.997
N16335 X77.289 Y139.038
N16340 X77.267 Y139.042
N16345 G3 X77.121 Y138.915 I-0.015 J-0.131
N16350 X77.261 Y138.78 I0.132 J-0.003
N16355 G1 X77.406 Y138.794
N16360 X77.443 Y138.799
N16365 X77.484 Y138.872
N16370 X77.467 Y138.955
N16375 X77.4 Y139.005
N16380 X77.383 Y139.007
N16385 X77.367 Y139.004
N16390 X77.332 Y138.986
N16395 X77.307 Y138.957
N16400 X77.293 Y138.921
N16405 Y138.882
N16410 X77.307 Y138.845
N16415 X77.333 Y138.816
N16420 X77.367 Y138.798
N16425 X77.406 Y138.794
N16430 X77.474 Y138.8
N16435 X77.511 Y138.805
N16440 X77.552 Y138.865
N16445 X77.541 Y138.936
N16450 X77.484 Y138.981
N16455 X77.456 Y138.982
N16460 X77.423 Y138.971
N16465 X77.397 Y138.948
N16470 X77.381 Y138.917
N16475 X77.378 Y138.882
N16480 X77.388 Y138.849
N16485 X77.41 Y138.822
N16490 X77.44 Y138.805
N16495 X77.474 Y138.8
N16500 X77.574 Y138.809
N16505 X77.612 Y138.815
N16510 X77.634 Y138.867
N16515 X77.619 Y138.922
N16520 X77.572 Y138.955
N16525 X77.55
N16530 X77.523 Y138.941
N16535 X77.504 Y138.917
N16540 X77.496 Y138.887
N16545 X77.501 Y138.856
N16550 X77.518 Y138.831
N16555 X77.544 Y138.814
N16560 X77.574 Y138.809
N16565 X77.636 Y138.815
N16570 X77.674 Y138.819
N16575 X77.706 Y138.822
N16580 X77.743 Y138.827
N16585 X77.746 Y138.866
N16590 X77.728 Y138.901
N16595 X77.695 Y138.921
N16600 X77.675 Y138.918
N16605 X77.656 Y138.898
N16610 X77.651 Y138.871
N16615 X77.659 Y138.846
N16620 X77.679 Y138.827
N16625 X77.706 Y138.822
N16630 X77.775 Y138.828
N16635 X77.806 Y138.831
N16640 X77.85 Y138.835
N16645 X77.868 Y138.839
N16650 X77.879 Y138.843
N16655 X77.89 Y138.849
N16660 X77.873 Y138.865
N16665 X77.116 Y138.777
N16670 X77.064 Y138.771 F6000.
N16675 X77.039 Y138.774
N16680 X77.018 Y138.789
N16685 X77.007 Y138.811
N16690 X77.008 Y138.836
N16695 X77.02 Y138.858
N16700 X77.041 Y138.872
N16705 X77.066 Y138.874
N16710 G3 X77.85 Y138.835 I0.57 J3.601 F1000.
N16715 G1 X77.873 Y138.837
N16720 X77.89 Y138.849
N16725 X77.895 Y138.861
N16730 X77.884 Y138.87
N16735 X77.706 Y138.918
N16740 X77.683 Y138.922
N16745 X77.66 Y138.921
N16750 X76.996 Y138.8
N16755 X76.964 Y138.797
N16760 X76.932 Y138.802
N16765 X76.896 Y138.816 F6000.
N16770 X76.864 Y138.839
N16775 X76.839 Y138.87
N16780 X76.835 Y138.877
N16785 G3 X76.275 Y139.416 I-1.344 J-0.836 F1000.
N16790 G1 X76. Y139.562
N16795 X75.905 Y139.616
N16800 X75.83 Y139.662
N16805 X75.657 Y139.778
N16810 X75.604 Y139.815
N16815 X75.404 Y139.973
N16820 X75.335 Y140.034
N16825 G3 X75.142 Y139.799 I-0.097 J-0.117
N16830 X75.289 Y139.773 I0.097 J0.117
N16835 G1 X75.319 Y139.798 Z-0.494
N16840 X75.347 Y139.821 Z-0.479
N16845 X75.371 Y139.841 Z-0.455
N16850 X75.379 Y139.863 Z-0.423
N16855 X75.385 Y139.877 Z-0.387
N16860 X75.387 Y139.881 Z-0.348
N16865 G0 Z5.
N16870 X82.785 Y148.666
N16875 Z-0.196
N16880 G1 Z-0.348 F1000.
N16885 X82.791 Y148.661 Z-0.395
N16890 X82.806 Y148.646 Z-0.437
N16895 X82.831 Y148.623 Z-0.471
N16900 X82.862 Y148.594 Z-0.493
N16905 X82.896 Y148.561 Z-0.5
N16910 G3 X84.266 Y147.794 I2.184 J2.291
N16915 G1 X84.311 Y147.783
N16920 X84.566 Y147.714
N16925 G3 X84.636 Y148.01 I0.035 J0.148
N16930 X84.492 Y147.968 I-0.035 J-0.148
N16935 G1 X84.476 Y147.933 Z-0.494
N16940 X84.462 Y147.9 Z-0.479
N16945 X84.449 Y147.871 Z-0.455
N16950 Y147.862 Z-0.444
N16955 X84.451 Y147.843 Z-0.415
N16960 X84.452 Y147.832 Z-0.382
N16965 X84.453 Y147.828 Z-0.348
N16970 G0 Z5.
N16975 X88.878 Y143.024
N16980 Z-0.196
N16985 G1 Z-0.348 F1000.
N16990 X88.87 Y143.025 Z-0.395
N16995 X88.849 Y143.028 Z-0.437
N17000 X88.816 Y143.033 Z-0.471
N17005 X88.774 Y143.04 Z-0.493
N17010 X88.727 Y143.047 Z-0.5
N17015 G3 X87.158 Y143.117 I-1.108 J-7.207
N17020 G1 X86.758 Y143.077
N17025 X86.61 Y143.055
N17030 X86.475 Y142.989
N17035 X86.361 Y142.892
N17040 X86.27 Y142.772
N17045 X86.203 Y142.638
N17050 X86.16 Y142.494
N17055 X86.156 Y142.465
N17060 X86.164 Y142.329
N17065 X86.223 Y142.205
N17070 X86.324 Y142.113
N17075 X86.369 Y142.097
N17080 X86.417 Y142.095
N17085 X86.463 Y142.108
N17090 X86.502 Y142.135
N17095 X86.531 Y142.173
N17100 X86.681 Y142.448
N17105 X86.901 Y142.853
N17110 G3 X86.758 Y143.077 I-0.134 J0.073
N17115 G1 X86.313 Y143.034
N17120 X86.164 Y143.011
N17125 X86.035 Y142.935
N17130 X85.928 Y142.829
N17135 X85.893 Y142.773
N17140 X85.843 Y142.637
N17145 X85.852 Y142.493
N17150 X85.917 Y142.364
N17155 X86.029 Y142.271
N17160 X86.074 Y142.258
N17165 X86.122 Y142.259
N17170 X86.167 Y142.275
N17175 X86.205 Y142.303
N17180 X86.232 Y142.343
N17185 X86.256 Y142.393
N17190 X86.459 Y142.816
N17195 G3 X86.313 Y143.034 I-0.137 J0.066
N17200 G1 X85.912 Y142.994
N17205 X85.764 Y142.972
N17210 X85.67 Y142.862
N17215 X85.627 Y142.725
N17220 X85.643 Y142.583
N17225 X85.713 Y142.459
N17230 X85.826 Y142.372
N17235 X85.872 Y142.36
N17240 X85.919 Y142.362
N17245 X85.964 Y142.379
N17250 X86.001 Y142.409
N17255 X86.026 Y142.449
N17260 X86.039 Y142.495
N17265 X86.073 Y142.827
N17270 X86.071 Y142.871
N17275 X86.057 Y142.912
N17280 X86.031 Y142.948
N17285 X85.997 Y142.975
N17290 X85.956 Y142.991
N17295 X85.912 Y142.994
N17300 X85.683 Y142.972
N17305 X85.608 Y142.961
N17310 X85.473 Y142.897
N17315 X85.423 Y142.78
N17320 X85.432 Y142.653
N17325 X85.497 Y142.544
N17330 X85.605 Y142.477
N17335 X85.659 Y142.464
N17340 G3 X85.954 Y142.705 I0.04 J0.252
N17345 X85.683 Y142.972 I-0.255 J0.012
N17350 G1 X85.457 Y142.949
N17355 X85.383 Y142.938
N17360 X85.299 Y142.846
N17365 X85.277 Y142.723
N17370 X85.326 Y142.607
N17375 X85.428 Y142.536
N17380 X85.465 Y142.529
N17385 X85.502 Y142.531
N17390 G3 X85.457 Y142.949 I-0.032 J0.208
N17395 G1 X85.312 Y142.935
N17400 X85.238 Y142.924
N17405 X85.173 Y142.886
N17410 X85.135 Y142.805
N17415 X85.14 Y142.715
N17420 X85.185 Y142.638
N17425 X85.262 Y142.591
N17430 X85.297 Y142.584
N17435 G3 X85.5 Y142.751 I0.026 J0.175
N17440 X85.312 Y142.935 I-0.177 J0.007
N17445 G1 X85.112 Y142.915
N17450 X85.075 Y142.91
N17455 X85.024 Y142.842
N17460 X85.016 Y142.757
N17465 X85.053 Y142.681
N17470 X85.124 Y142.635
N17475 X85.148 Y142.632
N17480 X85.171 Y142.637
N17485 G3 X85.112 Y142.915 I-0.051 J0.135
N17490 G1 X85.012 Y142.906
N17495 X84.974 Y142.9
N17500 X84.921 Y142.823
N17505 X84.934 Y142.73
N17510 X85.007 Y142.671
N17515 X85.027 Y142.669
N17520 X85.046 Y142.671
N17525 X85.082 Y142.686
N17530 X85.112 Y142.712
N17535 X85.131 Y142.746
N17540 X85.138 Y142.784
N17545 X85.132 Y142.823
N17550 X85.114 Y142.858
N17555 X85.086 Y142.885
N17560 X85.051 Y142.902
N17565 X85.012 Y142.906
N17570 X84.911 Y142.896
N17575 X84.874 Y142.89
N17580 X84.835 Y142.824
N17585 X84.849 Y142.748
N17590 X84.911 Y142.701
N17595 X84.926 Y142.699
N17600 X84.942 Y142.701
N17605 X84.975 Y142.716
N17610 X85. Y142.742
N17615 X85.014 Y142.776
N17620 X85.015 Y142.812
N17625 X85.003 Y142.847
N17630 X84.98 Y142.874
N17635 X84.948 Y142.891
N17640 X84.911 Y142.896
N17645 X84.843 Y142.889
N17650 X84.806 Y142.883
N17655 X84.77 Y142.829
N17660 X84.78 Y142.765
N17665 X84.831 Y142.725
N17670 X84.858 Y142.723
N17675 X84.888 Y142.733
N17680 X84.913 Y142.753
N17685 X84.928 Y142.781
N17690 X84.931 Y142.813
N17695 X84.922 Y142.844
N17700 X84.902 Y142.869
N17705 X84.874 Y142.885
N17710 X84.843 Y142.889
N17715 X84.743 Y142.879
N17720 X84.706 Y142.874
N17725 X84.688 Y142.827
N17730 X84.703 Y142.78
N17735 X84.743 Y142.751
N17740 X84.764
N17745 X84.791 Y142.767
N17750 X84.808 Y142.793
N17755 X84.811 Y142.825
N17760 X84.798 Y142.854
N17765 X84.774 Y142.873
N17770 X84.743 Y142.879
N17775 X84.681 Y142.873
N17780 X84.643 Y142.869
N17785 X84.611 Y142.866
N17790 X84.58 Y142.861
N17795 X84.579 Y142.831
N17800 X84.593 Y142.804
N17805 X84.619 Y142.788
N17810 X84.635 Y142.79
N17815 X84.65 Y142.806
N17820 X84.655 Y142.827
N17825 X84.648 Y142.847
N17830 X84.632 Y142.862
N17835 X84.611 Y142.866
N17840 X84.55 Y142.86
N17845 X84.511 Y142.856
N17850 X84.493 Y142.854
N17855 X84.475 Y142.837
N17860 X84.487 Y142.83
N17865 X84.493 Y142.854
N17870 X84.474 Y142.838
N17875 X84.493 Y142.825
N17880 X84.711 Y142.761
N17885 X85.012 Y142.67
N17890 X85.312 Y142.575
N17895 X85.612 Y142.474
N17900 X85.634 Y142.464
N17905 X85.912 Y142.33
N17910 X86.012 Y142.28
N17915 X86.232 Y142.164
N17920 X86.313 Y142.12
N17925 X86.57 Y141.964
N17930 X86.613 Y141.936
N17935 X86.913 Y141.708
N17940 X86.969 Y141.664
N17945 X87.013 Y141.625
N17950 X87.281 Y141.364
N17955 X87.346 Y141.293
N17960 X87.439 Y141.188
N17965 X87.614 Y140.989
N17970 X87.635 Y140.963
N17975 X87.814 Y140.713
N17980 X87.907 Y140.596
N17985 X88.037 Y140.52
N17990 X88.181 Y140.478
N17995 X88.33 Y140.467
N18000 X88.479 Y140.482
N18005 X88.554 Y140.503
N18010 X88.681 Y140.568
N18015 X88.772 Y140.678
N18020 X88.812 Y140.815
N18025 X88.834 Y141.063
N18030 X88.855 Y141.294
N18035 G3 X88.619 Y141.431 I-0.152 J0.01
N18040 G1 X88.312 Y141.226
N18045 X87.856 Y140.924
N18050 X87.821 Y140.892
N18055 X87.798 Y140.85
N18060 X87.788 Y140.804
N18065 X87.794 Y140.756
N18070 X87.814 Y140.713
N18075 X87.85 Y140.663
N18080 X87.914 Y140.56
N18085 X87.994 Y140.419
N18090 X88.073 Y140.292
N18095 X88.194 Y140.203
N18100 X88.335 Y140.15
N18105 X88.397 Y140.142
N18110 X88.55 Y140.157
N18115 X88.683 Y140.234
N18120 X88.77 Y140.36
N18125 X88.796 Y140.512
N18130 X88.793 Y140.563
N18135 X88.799 Y140.663
N18140 X88.812 Y140.815
N18145 G3 X88.579 Y140.951 I-0.152 J0.007
N18150 G1 X88.522 Y140.915
N18155 X88.048 Y140.617
N18160 X88.014 Y140.587
N18165 X87.99 Y140.549
N18170 X87.978 Y140.506
N18175 X87.98 Y140.461
N18180 X87.994 Y140.419
N18185 X88.025 Y140.363
N18190 X88.078 Y140.263
N18195 X88.155 Y140.108
N18200 X88.227 Y139.976
N18205 X88.35 Y139.89
N18210 X88.377 Y139.883
N18215 X88.512 Y139.875
N18220 X88.64 Y139.919
N18225 X88.743 Y140.007
N18230 X88.805 Y140.127
N18235 X88.817 Y140.262
N18240 X88.798 Y140.463
N18245 X88.796 Y140.512
N18250 G3 X88.54 Y140.61 I-0.151 J-0.013
N18255 G1 X88.189 Y140.281
N18260 X88.16 Y140.244
N18265 X88.144 Y140.2
N18270 X88.142 Y140.153
N18275 X88.155 Y140.108
N18280 X88.226 Y139.962
N18285 X88.267 Y139.862
N18290 X88.297 Y139.794
N18295 X88.396 Y139.681
N18300 X88.527 Y139.659
N18305 X88.656 Y139.69
N18310 X88.762 Y139.771
N18315 X88.827 Y139.887
N18320 X88.841 Y140.019
N18325 X88.817 Y140.262
N18330 G3 X88.546 Y140.334 I-0.151 J-0.02
N18335 G1 X88.291 Y140.004
N18340 X88.272 Y139.972
N18345 X88.261 Y139.936
N18350 X88.26 Y139.899
N18355 X88.267 Y139.862
N18360 X88.314 Y139.738
N18365 X88.341 Y139.662
N18370 X88.35 Y139.632
N18375 X88.375 Y139.561
N18380 X88.486 Y139.461
N18385 X88.632 Y139.459
N18390 X88.762 Y139.525
N18395 X88.847 Y139.644
N18400 X88.866 Y139.789
N18405 X88.841 Y140.019
N18410 G3 X88.559 Y140.076 I-0.151 J-0.02
N18415 G1 X88.366 Y139.746
N18420 X88.351 Y139.71
N18425 X88.346 Y139.671
N18430 X88.35 Y139.632
N18435 X88.37 Y139.562
N18440 X88.406 Y139.426
N18445 X88.429 Y139.355
N18450 X88.539 Y139.253
N18455 X88.676 Y139.252
N18460 X88.798 Y139.315
N18465 X88.876 Y139.427
N18470 X88.892 Y139.564
N18475 X88.88 Y139.662
N18480 X88.866 Y139.789
N18485 X88.853 Y139.83
N18490 X88.827 Y139.865
N18495 X88.792 Y139.889
N18500 X88.75 Y139.901
N18505 X88.707 Y139.899
N18510 G3 X88.406 Y139.426 I0.084 J-0.385
N18515 G1 X88.423 Y139.362
N18520 X88.446 Y139.262
N18525 X88.451 Y139.232
N18530 X88.46 Y139.195
N18535 X88.502 Y139.133
N18540 X88.614 Y139.086
N18545 X88.734 Y139.094
N18550 X88.839 Y139.156
N18555 X88.904 Y139.257
N18560 X88.917 Y139.378
N18565 X88.892 Y139.564
N18570 X88.88 Y139.601
N18575 X88.856 Y139.632
N18580 X88.823 Y139.654
N18585 X88.785 Y139.664
N18590 X88.745 Y139.661
N18595 G3 X88.451 Y139.232 I0.091 J-0.378
N18600 G1 X88.48 Y139.062
N18605 X88.488 Y139.025
N18610 X88.533 Y138.965
N18615 X88.644 Y138.918
N18620 X88.764 Y138.926
N18625 X88.867 Y138.988
N18630 X88.931 Y139.09
N18635 X88.941 Y139.21
N18640 X88.919 Y139.362
N18645 X88.917 Y139.378
N18650 X88.904 Y139.414
N18655 X88.882 Y139.444
N18660 X88.851 Y139.465
N18665 X88.814 Y139.476
N18670 X88.777 Y139.475
N18675 G3 X88.48 Y139.062 I0.073 J-0.365
N18680 G1 X88.497 Y138.962
N18685 X88.5 Y138.931
N18690 X88.512 Y138.857
N18695 X88.602 Y138.737
N18700 X88.742 Y138.722
N18705 X88.871 Y138.779
N18710 X88.954 Y138.893
N18715 X88.968 Y139.034
N18720 X88.941 Y139.21
N18725 X88.925 Y139.249
N18730 X88.897 Y139.28
N18735 X88.859 Y139.299
N18740 X88.817 Y139.303
N18745 G3 X88.5 Y138.931 I0.03 J-0.347
N18750 G1 X88.529 Y138.661
N18755 X88.544 Y138.461
N18760 X88.551 Y138.361
N18765 Y138.261
N18770 X88.526 Y137.961
N18775 X88.492 Y137.66
N18780 X88.476 Y137.56
N18785 X88.442 Y137.36
N18790 X88.421 Y137.26
N18795 X88.37 Y137.06
N18800 G3 X88.664 Y136.984 I0.147 J-0.038
N18805 X88.486 Y137.171 I-0.147 J0.038
N18810 G1 X88.445 Y137.156 F6000.
N18815 X88.409 Y137.13
N18820 X88.383 Y137.094
N18825 X88.368 Y137.053
N18830 X88.222 Y136.335
N18835 G3 X88.52 Y136.274 I0.149 J-0.03
N18840 X88.445 Y136.437 I-0.149 J0.03
N18845 G1 X88.4 Y136.454 F1000.
N18850 X88.351 Y136.455
N18855 X88.304 Y136.441
N18860 X88.265 Y136.413
N18865 G3 X87.89 Y135.959 I1.91 J-1.957
N18870 G1 X87.789 Y135.793
N18875 G3 X88.054 Y135.644 I0.133 J-0.074
N18880 X88.053 Y135.793 I-0.133 J0.074
N18885 G1 X88.024 Y135.818 Z-0.494
N18890 X87.996 Y135.841 Z-0.479
N18895 X87.972 Y135.861 Z-0.455
N18900 X87.949 Y135.866 Z-0.423
N18905 X87.935 Y135.869 Z-0.387
N18910 X87.93 Y135.87 Z-0.348
N18915 G0 Z5.
N18920 X88.181 Y141.08
N18925 Z-0.196
N18930 G1 Z-0.348 F1000.
N18935 X88.186 Y141.086 Z-0.395
N18940 X88.201 Y141.101 Z-0.437
N18945 X88.224 Y141.126 Z-0.471
N18950 X88.253 Y141.157 Z-0.493
N18955 X88.285 Y141.191 Z-0.5
N18960 G3 X89.047 Y142.565 I-2.301 J2.173
N18965 G1 X89.069 Y142.665
N18970 X89.147 Y142.965
N18975 X89.244 Y143.265
N18980 X89.279 Y143.365
N18985 X89.318 Y143.465
N18990 X89.36 Y143.565
N18995 X89.403 Y143.665
N19000 G0 Z5.
N19005 X104.513 Y144.966
N19010 Z-0.196
N19015 G1 Z-0.348 F1000.
N19020 Y144.958 Z-0.395
N19025 X104.514 Y144.937 Z-0.437
N19030 X104.516 Y144.903 Z-0.471
N19035 X104.519 Y144.861 Z-0.493
N19040 X104.522 Y144.814 Z-0.5
N19045 G3 X104.784 Y143.265 I7.278 J0.436
N19050 G1 X104.88 Y142.965
N19055 X104.906 Y142.865
N19060 X104.95 Y142.722
N19065 X105.046 Y142.606
N19070 X105.166 Y142.516
N19075 X105.302 Y142.454
N19080 X105.448 Y142.417
N19085 X105.597 Y142.404
N19090 X105.747 Y142.415
N19095 X105.893 Y142.448
N19100 X106.033 Y142.502
N19105 X106.065 Y142.519
N19110 X106.163 Y142.598
N19115 X106.227 Y142.706
N19120 X106.249 Y142.83
N19125 Y143.365
N19130 G3 X106.035 Y143.499 I-0.152 J-0.005
N19135 G1 X105.589 Y143.301
N19140 X105.52 Y143.27 F6000.
N19145 X104.993 Y143.036 F1000.
N19150 X104.957 Y143.014
N19155 X104.929 Y142.984
N19160 X104.91 Y142.947
N19165 X104.902 Y142.906
N19170 X104.906 Y142.865
N19175 X104.957 Y142.665
N19180 X104.979 Y142.565
N19185 X104.99 Y142.51
N19190 X105.027 Y142.364
N19195 X105.112 Y142.241
N19200 X105.227 Y142.144
N19205 X105.359 Y142.073
N19210 X105.502 Y142.027
N19215 X105.65 Y142.003
N19220 X105.8 Y141.999
N19225 X105.948 Y142.017
N19230 X105.988 Y142.028
N19235 X106.123 Y142.099
N19240 X106.216 Y142.221
N19245 X106.249 Y142.37
N19250 Y142.83
N19255 X106.24 Y142.875
N19260 X106.219 Y142.916
N19265 X106.185 Y142.948
N19270 X106.144 Y142.969
N19275 X106.099 Y142.977
N19280 X106.053 Y142.97
N19285 X105.638 Y142.844
N19290 X105.095 Y142.68
N19295 X105.056 Y142.661
N19300 X105.023 Y142.632
N19305 X105. Y142.595
N19310 X104.989 Y142.553
N19315 X104.99 Y142.51
N19320 X105.027 Y142.324
N19325 X105.037 Y142.264
N19330 X105.058 Y142.134
N19335 X105.089 Y141.987
N19340 X105.17 Y141.861
N19345 X105.28 Y141.759
N19350 X105.408 Y141.681
N19355 X105.547 Y141.625
N19360 X105.693 Y141.591
N19365 X105.843 Y141.584
N19370 X105.992 Y141.599
N19375 X105.996 Y141.6
N19380 X106.128 Y141.672
N19385 X106.217 Y141.793
N19390 X106.249 Y141.939
N19395 Y142.37
N19400 X106.241 Y142.414
N19405 X106.22 Y142.454
N19410 X106.189 Y142.486
N19415 X106.15 Y142.507
N19420 X106.106 Y142.516
N19425 X106.062 Y142.513
N19430 X105.722 Y142.431
N19435 X105.173 Y142.3
N19440 X105.132 Y142.284
N19445 X105.098 Y142.256
N19450 X105.073 Y142.22
N19455 X105.059 Y142.178
N19460 X105.058 Y142.134
N19465 X105.084 Y141.964
N19470 X105.109 Y141.764
N19475 X105.134 Y141.616
N19480 X105.206 Y141.484
N19485 X105.308 Y141.375
N19490 X105.431 Y141.289
N19495 X105.567 Y141.226
N19500 X105.712 Y141.186
N19505 X105.862 Y141.175
N19510 X105.926 Y141.181
N19515 X106.052 Y141.216
N19520 X106.156 Y141.295
N19525 X106.225 Y141.406
N19530 X106.249 Y141.534
N19535 Y141.939
N19540 X106.241 Y141.982
N19545 X106.222 Y142.021
N19550 X106.192 Y142.053
N19555 X106.155 Y142.075
N19560 X106.112 Y142.085
N19565 X106.069 Y142.084
N19570 X105.784 Y142.03
N19575 X105.232 Y141.926
N19580 X105.19 Y141.912
N19585 X105.154 Y141.886
N19590 X105.127 Y141.85
N19595 X105.111 Y141.808
N19600 X105.109 Y141.764
N19605 X105.127 Y141.606
N19610 X105.151 Y141.364
N19615 X105.172 Y141.215
N19620 X105.243 Y141.083
N19625 X105.344 Y140.972
N19630 X105.466 Y140.885
N19635 X105.602 Y140.822
N19640 X105.748 Y140.786
N19645 X105.897 Y140.777
N19650 X105.94 Y140.782
N19655 X106.061 Y140.821
N19660 X106.161 Y140.9
N19665 X106.226 Y141.009
N19670 X106.249 Y141.134
N19675 Y141.534
N19680 X106.241 Y141.577
N19685 X106.222 Y141.616
N19690 X106.192 Y141.648
N19695 X106.154 Y141.67
N19700 X106.111 Y141.68
N19705 X106.068 Y141.678
N19710 X105.83 Y141.631
N19715 X105.273 Y141.521
N19720 X105.232 Y141.507
N19725 X105.197 Y141.481
N19730 X105.17 Y141.447
N19735 X105.155 Y141.407
N19740 X105.151 Y141.364
N19745 X105.16 Y141.263
N19750 X105.183 Y140.963
N19755 X105.201 Y140.814
N19760 X105.271 Y140.682
N19765 X105.373 Y140.571
N19770 X105.495 Y140.485
N19775 X105.632 Y140.423
N19780 X105.778 Y140.39
N19785 X105.928 Y140.385
N19790 X105.95 Y140.388
N19795 X106.068 Y140.429
N19800 X106.164 Y140.508
N19805 X106.227 Y140.616
N19810 X106.249 Y140.739
N19815 Y141.134
N19820 X106.241 Y141.177
N19825 X106.221 Y141.217
N19830 X106.191 Y141.248
N19835 X106.153 Y141.27
N19840 X106.11 Y141.28
N19845 X106.066 Y141.277
N19850 X105.865 Y141.235
N19855 X105.304 Y141.117
N19860 X105.264 Y141.102
N19865 X105.23 Y141.078
N19870 X105.204 Y141.044
N19875 X105.188 Y141.005
N19880 X105.183 Y140.963
N19885 X105.203 Y140.663
N19890 X105.201 Y140.608
N19895 X105.204 Y140.458
N19900 X105.263 Y140.32
N19905 X105.358 Y140.204
N19910 X105.476 Y140.112
N19915 X105.61 Y140.044
N19920 X105.755 Y140.004
N19925 X105.904 Y139.992
N19930 X105.938 Y139.997
N19935 X106.06 Y140.035
N19940 X106.16 Y140.114
N19945 X106.226 Y140.223
N19950 X106.249 Y140.349
N19955 Y140.739
N19960 X106.241 Y140.781
N19965 X106.222 Y140.82
N19970 X106.192 Y140.852
N19975 X106.155 Y140.874
N19980 X106.113 Y140.884
N19985 X106.07 Y140.883
N19990 X105.901 Y140.852
N19995 X105.326 Y140.747
N20000 X105.288 Y140.735
N20005 X105.254 Y140.713
N20010 X105.227 Y140.683
N20015 X105.209 Y140.647
N20020 X105.201 Y140.608
N20025 X105.2 Y140.563
N20030 X105.178 Y140.263
N20035 X105.173 Y140.113
N20040 X105.212 Y139.968
N20045 X105.292 Y139.841
N20050 X105.399 Y139.735
N20055 X105.523 Y139.652
N20060 X105.662 Y139.595
N20065 X105.809 Y139.565
N20070 X105.892 Y139.564
N20075 X106.029 Y139.591
N20080 X106.144 Y139.667
N20085 X106.222 Y139.783
N20090 X106.249 Y139.919
N20095 Y140.349
N20100 X106.242 Y140.39
N20105 X106.223 Y140.428
N20110 X106.195 Y140.459
N20115 X106.16 Y140.482
N20120 X106.12 Y140.494
N20125 X106.078
N20130 X105.889 Y140.47
N20135 X105.31 Y140.395
N20140 X105.271 Y140.385
N20145 X105.236 Y140.365
N20150 X105.208 Y140.336
N20155 X105.188 Y140.301
N20160 X105.178 Y140.263
N20165 X105.152 Y139.962
N20170 X105.122 Y139.662
N20175 X105.085 Y139.362
N20180 X105.072 Y139.262
N20185 X105.025 Y138.962
N20190 X104.968 Y138.661
N20195 X104.927 Y138.487
N20200 X104.896 Y138.361
N20205 X104.869 Y138.261
N20210 X104.827 Y138.118
N20215 X104.82 Y138.075
N20220 X104.827 Y138.032
N20225 X104.845 Y137.992
N20230 X104.873 Y137.96
N20235 X104.91 Y137.936
N20240 X104.951 Y137.924
N20245 G2 X105.048 Y137.677 I-0.021 J-0.151
N20250 G1 X104.92 Y137.521
N20255 X101.944 Y133.889 F6000.
N20260 X101.913 Y133.861
N20265 X101.877 Y133.842
N20270 X101.836 Y133.834
N20275 G3 X101.054 Y133.737 I0.503 J-7.274
N20280 X100.29 Y133.557 I1.286 J-7.177 F1000.
N20285 G1 X99.988 Y133.457
N20290 X99.923 Y133.438
N20295 X99.793 Y133.402
N20300 G3 X99.883 Y133.112 I0.045 J-0.145
