%
(1001)
(T2  D=3. CR=0. - ZMIN=-3. - FLAT END MILL)
N10 G90 G94 G17 G91.1
N15 G21
N20 G53 G0 Z0.
(2D ADAPTIVE3MMREST)
N25 T2 M6
N30 S24000 M3
N35 G54
N40 G0 X23.272 Y25.846
N45 G43 Z30. H2
N50 G0 Z5.
N55 Z-0.4
N60 G1 Z-0.7 F3000.
N65 X23.273 Y25.839 Z-0.767
N70 X23.277 Y25.817 Z-0.83
N75 X23.282 Y25.781 Z-0.887
N80 X23.289 Y25.734 Z-0.935
N85 X23.298 Y25.678 Z-0.97
N90 X23.307 Y25.616 Z-0.992
N95 X23.318 Y25.55 Z-1.
N100 G3 X23.965 Y24.032 I3.286 J0.504
N105 G1 X23.985 Y24.007
N110 X24.005 Y23.987
N115 G3 X24.464 Y24.34 I0.183 J0.238
N120 G1 X24.439 Y24.402 Z-0.992
N125 X24.414 Y24.46 Z-0.97
N130 X24.393 Y24.513 Z-0.935
N135 X24.374 Y24.557 Z-0.887
N140 X24.361 Y24.59 Z-0.83
N145 X24.352 Y24.61 Z-0.767
N150 X24.349 Y24.617 Z-0.7
N155 G0 Z5.
N160 X39.267 Y205.87
N165 Z-0.4
N170 G1 Z-0.7 F3000.
N175 X39.263 Y205.864 Z-0.767
N180 X39.252 Y205.845 Z-0.83
N185 X39.233 Y205.814 Z-0.887
N190 X39.209 Y205.773 Z-0.935
N195 X39.18 Y205.724 Z-0.97
N200 X39.148 Y205.67 Z-0.992
N205 X39.114 Y205.612 Z-1.
N210 G3 X38.649 Y204.029 I2.858 J-1.699
N215 G1 Y203.143
N220 X38.656 Y202.993
N225 X38.693 Y202.848
N230 X38.75 Y202.709
N235 X38.824 Y202.579
N240 X38.913 Y202.458
N245 X39.014 Y202.347
N250 X39.126 Y202.247
N255 X39.246 Y202.158
N260 X39.375 Y202.081
N265 X39.432 Y202.053
N270 X39.644 Y201.987
N275 X39.866 Y201.992
N280 X40.076 Y202.065
N285 X40.251 Y202.201
N290 X40.29 Y202.241
N295 X40.432 Y202.386
N300 X40.573 Y202.523
N305 X40.715 Y202.654
N310 X40.793 Y202.723
N315 G3 X40.622 Y203.239 I-0.206 J0.218
N320 G1 X40.517 Y203.251
N325 X39.271 Y203.397 F6000.
N330 X38.983 Y203.431 F3000.
N335 G3 X38.649 Y203.143 I-0.035 J-0.298
N340 G1 Y202.37
N345 X38.656 Y202.221
N350 X38.694 Y202.075
N355 X38.755 Y201.938
N360 X38.834 Y201.811
N365 X38.841 Y201.804
N370 X38.998 Y201.664
N375 X39.189 Y201.578
N380 X39.398 Y201.552
N385 X39.605 Y201.59
N390 X39.791 Y201.687
N395 X39.94 Y201.835
N400 X40.006 Y201.924
N405 X40.148 Y202.091
N410 X40.251 Y202.201
N415 G3 X40.015 Y202.699 I-0.226 J0.198
N420 G1 X39.927 Y202.695
N425 X39.273 Y202.672 F6000.
N430 X38.938 Y202.66 F3000.
N435 G3 X38.649 Y202.37 I0.011 J-0.3
N440 G1 Y201.76
N445 X38.656 Y201.611
N450 X38.703 Y201.468
N455 X38.836 Y201.319
N460 X39.01 Y201.223
N465 X39.207 Y201.19
N470 X39.403 Y201.224
N475 X39.577 Y201.322
N480 X39.708 Y201.472
N485 X39.824 Y201.661
N490 X39.917 Y201.803
N495 X39.94 Y201.835
N500 G3 X39.596 Y202.289 I-0.247 J0.17
N505 G1 X39.564 Y202.278
N510 X39.252 Y202.171 F6000.
N515 X38.851 Y202.034 F3000.
N520 G3 X38.649 Y201.76 I0.097 J-0.284
N525 G1 Y201.335
N530 X38.656 Y201.185
N535 X38.753 Y201.037
N540 X38.898 Y200.935
N545 X39.07 Y200.893
N550 X39.245 Y200.917
N555 X39.399 Y201.003
N560 X39.511 Y201.14
N565 X39.564 Y201.236
N570 X39.708 Y201.472
N575 G3 X39.614 Y201.846 I-0.243 J0.137
N580 X39.272 Y201.943 I-0.336 J-0.533
N585 G1 X39.185 Y201.936 F6000.
N590 X39.099 Y201.917
N595 G3 X38.649 Y201.335 I0.18 J-0.604 F3000.
N600 G1 Y200.981
N605 X38.656 Y200.831
N610 X38.747 Y200.718
N615 X38.872 Y200.644
N620 X39.016 Y200.621
N625 X39.158 Y200.65
N630 X39.281 Y200.729
N635 X39.367 Y200.846
N640 X39.486 Y201.094
N645 X39.511 Y201.14
N650 G3 X39.406 Y201.444 I-0.201 J0.101
N655 X38.649 Y200.981 I-0.226 J-0.481
N660 G1 Y200.698
N665 X38.656 Y200.548
N670 X38.761 Y200.436
N675 X38.904 Y200.381
N680 X39.056 Y200.395
N685 X39.187 Y200.475
N690 X39.27 Y200.604
N695 X39.279 Y200.646
N700 X39.282 Y200.689
N705 G3 X38.649 Y200.698 I-0.317 J-0.003
N710 G1 Y200.449
N715 X38.652 Y200.374
N720 X38.699 Y200.231
N725 X38.796 Y200.165
N730 X38.911 Y200.143
N735 X39.026 Y200.169
N740 X39.12 Y200.24
N745 X39.178 Y200.342
N750 X39.189 Y200.385
N755 G3 X38.953 Y200.711 I-0.268 J0.054
N760 X38.649 Y200.449 I-0.032 J-0.271
N765 G1 Y200.201
N770 X38.652 Y200.126
N775 X38.704 Y199.985
N780 X38.821 Y199.926
N785 X38.951 Y199.933
N790 X39.061 Y200.004
N795 X39.121 Y200.119
N800 X39.127 Y200.151
N805 G3 X38.914 Y200.432 I-0.238 J0.041
N810 X38.649 Y200.201 I-0.025 J-0.24
N815 G1 Y199.96
N820 X38.652 Y199.885
N825 X38.725 Y199.8
N830 X38.829 Y199.76
N835 X38.94 Y199.774
N840 X39.031 Y199.839
N845 X39.08 Y199.939
N850 X39.082 Y199.97
N855 G3 X38.649 Y199.96 I-0.216 J-0.017
N860 G1 Y199.775
N865 X38.652 Y199.7
N870 X38.727 Y199.627
N875 X38.827 Y199.598
N880 X38.93 Y199.619
N885 X39.01 Y199.686
N890 X39.049 Y199.783
N895 X39.047 Y199.818
N900 G3 X38.649 Y199.775 I-0.196 J-0.05
N905 G1 Y199.633
N910 X38.652 Y199.558
N915 X38.72 Y199.484
N920 X38.814 Y199.452
N925 X38.913 Y199.47
N930 X38.991 Y199.533
N935 X39.028 Y199.626
N940 Y199.643
N945 G3 X38.839 Y199.817 I-0.189 J-0.016
N950 G1 X38.838
N955 G3 X38.649 Y199.633 I0. J-0.19
N960 G1 Y199.492
N965 X38.652 Y199.417
N970 X38.736 Y199.333
N975 X38.854 Y199.316
N980 X38.958 Y199.372
N985 X39.009 Y199.479
N990 X39.01 Y199.489
N995 G3 X38.649 Y199.492 I-0.18 J-0.004
N1000 G1 Y199.35
N1005 X38.652 Y199.275
N1010 X38.686 Y199.208
N1015 X38.777 Y199.164
N1020 X38.878 Y199.174
N1025 X38.958 Y199.236
N1030 X38.993 Y199.33
N1035 Y199.337
N1040 G3 X38.828 Y199.516 I-0.172 J0.007
N1045 X38.649 Y199.35 I-0.007 J-0.172
N1050 G1 Y199.178
N1055 X38.65 Y199.141
N1060 X38.727 Y199.058
N1065 X38.839 Y199.04
N1070 X38.937 Y199.094
N1075 X38.982 Y199.198
N1080 X38.978 Y199.229
N1085 G3 X38.649 Y199.178 I-0.16 J-0.057
N1090 G1 Y199.066
N1095 X38.652 Y198.991
N1100 X38.69 Y198.926
N1105 X38.775 Y198.89
N1110 X38.867 Y198.903
N1115 X38.939 Y198.961
N1120 X38.97 Y199.048
N1125 X38.993 Y199.33
N1130 X38.988 Y199.364
N1135 X38.969 Y199.393
N1140 X38.94 Y199.412
N1145 X38.907 Y199.418
N1150 X38.873 Y199.41
N1155 G3 X38.649 Y199.066 I0.171 J-0.357
N1160 G1 Y198.894
N1165 X38.65 Y198.857
N1170 X38.729 Y198.783
N1175 X38.836 Y198.773
N1180 X38.927 Y198.831
N1185 X38.964 Y198.932
N1190 X38.961 Y198.951
N1195 X38.953 Y198.969
N1200 G3 X38.649 Y198.894 I-0.142 J-0.08
N1205 G1 Y198.783
N1210 X38.65 Y198.745
N1215 X38.68 Y198.676
N1220 X38.767 Y198.633
N1225 X38.863 Y198.645
N1230 X38.937 Y198.709
N1235 X38.963 Y198.802
N1240 X38.96 Y198.818
N1245 G3 X38.649 Y198.783 I-0.153 J-0.041
N1250 G1 Y198.641
N1255 X38.65 Y198.603
N1260 X38.684 Y198.536
N1265 X38.773 Y198.493
N1270 X38.87 Y198.507
N1275 X38.943 Y198.573
N1280 X38.966 Y198.669
N1285 X38.953 Y198.732
N1290 X38.927 Y198.791
N1295 X38.898 Y198.825
N1300 X38.86 Y198.848
N1305 X38.816 Y198.857
N1310 X38.771 Y198.851
N1315 X38.731 Y198.831
N1320 X38.7 Y198.799
N1325 X38.673 Y198.75
N1330 X38.656 Y198.696
N1335 X38.649 Y198.641
N1340 Y198.499
N1345 X38.65 Y198.461
N1350 X38.685 Y198.395
N1355 X38.777 Y198.35
N1360 X38.879 Y198.366
N1365 X38.953 Y198.436
N1370 X38.974 Y198.537
N1375 X38.96 Y198.597
N1380 X38.933 Y198.654
N1385 X38.904 Y198.688
N1390 X38.865 Y198.711
N1395 X38.821 Y198.72
N1400 X38.776 Y198.714
N1405 X38.735 Y198.694
N1410 X38.704 Y198.662
N1415 X38.675 Y198.611
N1420 X38.656 Y198.556
N1425 X38.649 Y198.499
N1430 Y198.357
N1435 X38.65 Y198.32
N1440 X38.686 Y198.252
N1445 X38.782 Y198.204
N1450 X38.888 Y198.22
N1455 X38.966 Y198.295
N1460 X38.987 Y198.4
N1465 X38.972 Y198.461
N1470 X38.945 Y198.518
N1475 X38.916 Y198.553
N1480 X38.877 Y198.576
N1485 X38.832 Y198.586
N1490 X38.787 Y198.581
N1495 X38.746 Y198.563
N1500 X38.712 Y198.532
N1505 X38.679 Y198.478
N1510 X38.657 Y198.419
N1515 X38.649 Y198.357
N1520 Y198.215
N1525 X38.65 Y198.178
N1530 X38.683 Y198.11
N1535 X38.783 Y198.057
N1540 X38.896 Y198.071
N1545 X38.98 Y198.149
N1550 X39.002 Y198.261
N1555 X38.985 Y198.326
N1560 X38.954 Y198.385
N1565 X38.923 Y198.418
N1570 X38.884 Y198.441
N1575 X38.839 Y198.45
N1580 X38.794 Y198.445
N1585 X38.753 Y198.427
N1590 X38.718 Y198.397
N1595 X38.682 Y198.342
N1600 X38.658 Y198.281
N1605 X38.649 Y198.215
N1610 Y198.074
N1615 X38.65 Y198.036
N1620 X38.68 Y197.967
N1625 X38.76 Y197.913
N1630 X38.857 Y197.905
N1635 X38.946 Y197.945
N1640 X39.004 Y198.022
N1645 X39.018 Y198.118
N1650 X39.007 Y198.165
N1655 X38.989 Y198.21
N1660 X38.963 Y198.252
N1665 X38.932 Y198.284
N1670 X38.892 Y198.306
N1675 X38.848 Y198.315
N1680 X38.803 Y198.31
N1685 X38.761 Y198.293
N1690 X38.726 Y198.264
N1695 X38.694 Y198.222
N1700 X38.67 Y198.176
N1705 X38.655 Y198.126
N1710 X38.649 Y198.074
N1715 Y197.932
N1720 X38.652 Y197.857
N1725 X38.688 Y197.791
N1730 X38.695 Y197.785
N1735 X38.785 Y197.738
N1740 X38.885 Y197.739
N1745 X38.974 Y197.789
N1750 X39.028 Y197.874
N1755 X39.035 Y197.975
N1760 X39.018 Y198.118
N1765 X39.008 Y198.148
N1770 X38.988 Y198.173
N1775 X38.961 Y198.19
N1780 X38.93 Y198.196
N1785 G3 X38.649 Y197.932 I-0.007 J-0.274
N1790 G1 Y197.76
N1795 X38.652 Y197.685
N1800 X38.689 Y197.62
N1805 X38.787 Y197.567
N1810 X38.899 Y197.568
N1815 X38.996 Y197.622
N1820 X39.055 Y197.717
N1825 X39.061 Y197.829
N1830 X39.045 Y197.879
N1835 X39.02 Y197.925
N1840 X38.987 Y197.966
N1845 X38.946 Y197.997
N1850 X38.899 Y198.015
N1855 X38.848 Y198.018
N1860 X38.799 Y198.006
N1865 X38.755 Y197.979
N1870 X38.712 Y197.934
N1875 X38.679 Y197.881
N1880 X38.657 Y197.822
N1885 X38.649 Y197.76
N1890 Y197.578
N1895 X38.652 Y197.503
N1900 X38.691 Y197.439
N1905 X38.798 Y197.383
N1910 X38.919 Y197.385
N1915 X39.024 Y197.445
N1920 X39.087 Y197.548
N1925 X39.093 Y197.668
N1930 X39.079 Y197.713
N1935 X39.058 Y197.754
N1940 X39.031 Y197.792
N1945 X38.996 Y197.824
N1950 X38.955 Y197.845
N1955 X38.909 Y197.855
N1960 X38.863 Y197.852
N1965 X38.818 Y197.838
N1970 G3 X38.649 Y197.578 I0.13 J-0.27
N1975 G1 Y197.407
N1980 X38.652 Y197.333
N1985 X38.687 Y197.266
N1990 X38.791 Y197.158
N1995 X38.907 Y197.142
N2000 X39.019 Y197.178
N2005 X39.104 Y197.258
N2010 X39.146 Y197.368
N2015 X39.137 Y197.485
N2020 G3 X38.953 Y197.669 I-0.283 J-0.098
N2025 G1 X38.911 Y197.679
N2030 X38.869
N2035 X38.827 Y197.669
N2040 X38.789 Y197.651
N2045 G3 X38.649 Y197.407 I0.16 J-0.254
N2050 G1 Y197.188
N2055 X38.652 Y197.113
N2060 X38.711 Y196.975
N2065 X38.827 Y196.919
N2070 X38.955 Y196.915
N2075 X39.074 Y196.964
N2080 X39.162 Y197.058
N2085 X39.204 Y197.179
N2090 X39.192 Y197.307
N2095 X39.173 Y197.351
N2100 X39.146 Y197.391
N2105 X39.112 Y197.426
N2110 X39.07 Y197.451
N2115 G3 X38.649 Y197.188 I-0.122 J-0.274
N2120 G1 Y196.939
N2125 X38.652 Y196.864
N2130 X38.72 Y196.73
N2135 X38.84 Y196.641
N2140 X38.994 Y196.631
N2145 X39.137 Y196.688
N2150 X39.24 Y196.803
N2155 X39.283 Y196.95
N2160 X39.258 Y197.102
N2165 G3 X38.742 Y197.154 I-0.273 J-0.124
N2170 G1 X38.705 Y197.105
N2175 X38.676 Y197.054
N2180 X38.656 Y196.998
N2185 X38.649 Y196.939
N2190 Y196.656
N2195 X38.652 Y196.581
N2200 X38.719 Y196.446
N2205 X38.836 Y196.352
N2210 X38.991 Y196.324
N2215 X39.144 Y196.357
N2220 X39.274 Y196.448
N2225 X39.358 Y196.581
N2230 X39.385 Y196.736
N2235 X39.35 Y196.889
N2240 G3 X38.886 Y196.986 I-0.269 J-0.132
N2245 G1 X38.754 Y196.874
N2250 X38.711 Y196.829
N2255 X38.678 Y196.776
N2260 X38.657 Y196.717
N2265 X38.649 Y196.656
N2270 Y196.372
N2275 X38.652 Y196.297
N2280 X38.71 Y196.158
N2285 X38.816 Y196.053
N2290 X38.975 Y196.005
N2295 X39.141 Y196.016
N2300 X39.292 Y196.084
N2305 X39.41 Y196.2
N2310 X39.48 Y196.351
N2315 X39.492 Y196.516
N2320 X39.446 Y196.676
N2325 G3 X39.005 Y196.775 I-0.264 J-0.143
N2330 G1 X38.771 Y196.603
N2335 G3 X38.649 Y196.372 I0.177 J-0.242
N2340 G1 Y196.088
N2345 X38.656 Y195.939
N2350 X38.73 Y195.808
N2355 X38.84 Y195.706
N2360 X38.973 Y195.637
N2365 X39.153 Y195.625
N2370 X39.328 Y195.672
N2375 X39.477 Y195.774
N2380 X39.585 Y195.919
N2385 X39.64 Y196.091
N2390 X39.636 Y196.271
N2395 X39.572 Y196.441
N2400 G3 X39.173 Y196.544 I-0.254 J-0.159
N2405 G1 X38.804 Y196.341
N2410 G3 X38.649 Y196.088 I0.145 J-0.263
N2415 G1 Y195.735
N2420 X38.656 Y195.585
N2425 X38.721 Y195.45
N2430 X38.823 Y195.339
N2435 X38.948 Y195.256
N2440 X39.088 Y195.205
N2445 X39.297 Y195.204
N2450 X39.494 Y195.271
N2455 X39.659 Y195.399
N2460 X39.773 Y195.573
N2465 X39.826 Y195.774
N2470 X39.81 Y195.982
N2475 X39.728 Y196.173
N2480 G3 X39.342 Y196.268 I-0.247 J-0.171
N2485 G1 X39.225 Y196.207
N2490 X38.809 Y195.99
N2495 G3 X38.649 Y195.735 I0.139 J-0.266
N2500 G1 Y195.344
N2505 X38.656 Y195.194
N2510 X38.71 Y195.055
N2515 X38.802 Y194.936
N2520 X38.918 Y194.841
N2525 X39.051 Y194.771
N2530 X39.194 Y194.727
N2535 X39.343 Y194.708
N2540 X39.493 Y194.712
N2545 X39.529 Y194.719
N2550 X39.72 Y194.786
N2555 X39.884 Y194.904
N2560 X40.007 Y195.065
N2565 X40.079 Y195.254
N2570 X40.094 Y195.456
N2575 X40.051 Y195.654
N2580 X39.953 Y195.831
N2585 G3 X39.61 Y195.919 I-0.232 J-0.19
N2590 G1 X39.245 Y195.774
N2595 X38.838 Y195.613
N2600 G3 X38.649 Y195.344 I0.111 J-0.279
N2605 G1 Y194.884
N2610 X38.656 Y194.734
N2615 X38.744 Y194.599
N2620 X38.878 Y194.512
N2625 X39.037 Y194.486
N2630 X39.192 Y194.526
N2635 X39.249 Y194.564
N2640 X39.299 Y194.61
N2645 X39.341 Y194.663
N2650 G3 X39.243 Y195.179 I-0.315 J0.207
N2655 G1 X39.222 Y195.193 F6000.
N2660 G3 X38.649 Y194.884 I-0.196 J-0.322 F3000.
N2665 G1 Y194.571
N2670 Y194.532
N2675 Y194.501
N2680 X38.65 Y194.468
N2685 X38.66 Y194.416
N2690 X38.682 Y194.369
N2695 X38.716 Y194.329
N2700 X38.733 Y194.323
N2705 X38.751 Y194.328
N2710 X38.764 Y194.341
N2715 X38.767 Y194.359
N2720 X38.705 Y195.067
N2725 X38.684 Y195.296 F6000.
N2730 X38.688 Y195.334
N2735 X38.705 Y195.367
N2740 X38.733 Y195.392
N2745 X38.769 Y195.404
N2750 X38.806 Y195.403
N2755 X38.84 Y195.388
N2760 X38.867 Y195.361
N2765 X38.882 Y195.327
N2770 X38.883 Y195.289
N2775 X38.87 Y195.254
N2780 X38.866 Y195.247
N2785 G3 X38.649 Y194.501 I1.365 J-0.802 F3000.
N2790 G1 Y194.447
N2795 X38.651 Y194.43
N2800 X38.654 Y194.416
N2805 X38.659 Y194.402
N2810 X38.665 Y194.388
N2815 X38.673 Y194.374
N2820 X38.686 Y194.358
N2825 X38.702 Y194.342
N2830 X38.716 Y194.329
N2835 X38.73 Y194.318
N2840 X38.748 Y194.309
N2845 X38.766 Y194.302
N2850 X38.783 Y194.297
N2855 X38.801 Y194.295
N2860 X38.819
N2865 X38.837 Y194.297
N2870 X38.854 Y194.301
N2875 X38.872 Y194.308
N2880 X38.89 Y194.317
N2885 X38.907 Y194.33
N2890 X38.943 Y194.361
N2895 X39.014 Y194.415
N2900 X39.034 Y194.43
N2905 X39.156 Y194.508
N2910 X39.282 Y194.571
N2915 X39.439 Y194.635
N2920 X39.581 Y194.673
N2925 X39.723 Y194.697
N2930 X39.864 Y194.715
N2935 X39.942 Y194.722
N2940 X40.091 Y194.743
N2945 X40.236 Y194.84
N2950 X40.335 Y194.983
N2955 X40.374 Y195.153
N2960 X40.347 Y195.325
N2965 X40.258 Y195.475
N2970 X40.208 Y195.521
N2975 X40.151 Y195.559
N2980 X40.091 Y195.59
N2985 G3 X39.565 Y195.458 I-0.175 J-0.417
N2990 X39.466 Y195.222 I0.351 J-0.285 F6000.
N2995 X39.942 Y194.722 I0.449 J-0.049 F3000.
N3000 G1 X40.333 Y194.759
N3005 X40.363 Y194.761
N3010 X40.437 Y194.772
N3015 X40.531 Y194.856
N3020 X40.578 Y194.973
N3025 X40.568 Y195.099
N3030 X40.503 Y195.207
N3035 X40.459 Y195.24
N3040 X40.408 Y195.262
N3045 X40.354 Y195.271
N3050 X40.299 Y195.267
N3055 G3 X40.363 Y194.761 I0.049 J-0.251
N3060 G1 X40.545 Y194.78
N3065 X40.573 Y194.783
N3070 X40.598 Y194.791
N3075 X40.61 Y194.797
N3080 X40.622 Y194.804
N3085 X40.636 Y194.815
N3090 X40.65 Y194.83
N3095 X40.67 Y194.855
N3100 X40.682 Y194.873
N3105 X40.691 Y194.891
N3110 X40.697 Y194.908
N3115 X40.701 Y194.926
N3120 X40.702 Y194.944
N3125 Y194.961
N3130 X40.699 Y194.979
N3135 X40.694 Y194.997
N3140 X40.687 Y195.014
N3145 X40.677 Y195.031
N3150 X40.664 Y195.049
N3155 X40.57 Y195.139
N3160 X40.431 Y195.28
N3165 X40.053 Y195.706
N3170 X40.006 Y195.761
N3175 X39.94 Y195.848
N3180 X39.723 Y196.181
N3185 X39.669 Y196.273
N3190 G3 X39.115 Y196.103 I-0.254 J-0.159
N3195 G1 X39.118 Y196.036 Z-0.992
N3200 X39.12 Y195.973 Z-0.97
N3205 X39.122 Y195.916 Z-0.935
N3210 X39.124 Y195.869 Z-0.887
N3215 X39.125 Y195.833 Z-0.83
N3220 X39.126 Y195.811 Z-0.767
N3225 Y195.803 Z-0.7
N3230 G0 Z5.
N3235 X55.973 Y199.502
N3240 Z-0.4
N3245 G1 Z-0.7 F3000.
N3250 X55.966 Y199.499 Z-0.767
N3255 X55.947 Y199.488 Z-0.83
N3260 X55.915 Y199.47 Z-0.887
N3265 X55.874 Y199.447 Z-0.935
N3270 X55.824 Y199.419 Z-0.97
N3275 X55.769 Y199.388 Z-0.992
N3280 X55.711 Y199.356 Z-1.
N3285 G3 X54.366 Y198.4 I3.738 J-6.685
N3290 G1 X54.217 Y198.258
N3295 X54.184 Y198.229
N3300 X54.022 Y198.116
N3305 X53.962 Y198.081
N3310 X53.832 Y198.007
N3315 X53.734 Y197.875
N3320 X53.681 Y197.721
N3325 X53.676 Y197.558
N3330 X53.722 Y197.401
N3335 X53.812 Y197.265
N3340 G3 X54.444 Y197.194 I0.359 J0.352
N3345 G1 X54.483 Y197.222
N3350 X54.52 Y197.254
N3355 G3 X54.627 Y197.837 I-0.351 J0.366 F6000.
N3360 X53.962 Y198.081 I-0.458 J-0.217 F3000.
N3365 G1 X53.901 Y198.051
N3370 X53.759 Y197.992
N3375 X53.71 Y197.975
N3380 X53.682 Y197.967
N3385 X53.646 Y197.957
N3390 X53.617 Y197.949
N3395 X53.545 Y197.929
N3400 X53.479 Y197.848
N3405 X53.453 Y197.747
N3410 X53.47 Y197.644
N3415 X53.528 Y197.558
N3420 X53.574 Y197.527
N3425 X53.627 Y197.509
N3430 X53.682 Y197.505
N3435 X53.737 Y197.517
N3440 G3 X53.617 Y197.949 I-0.076 J0.212
N3445 G1 X53.493 Y197.92
N3450 X53.475 Y197.913
N3455 X53.462 Y197.907
N3460 X53.448 Y197.898
N3465 X53.435 Y197.887
N3470 X53.421 Y197.873
N3475 X53.407 Y197.853
N3480 X53.397 Y197.833
N3485 X53.391 Y197.815
N3490 X53.387 Y197.797
N3495 X53.386 Y197.762
N3500 Y197.744
N3505 X53.389 Y197.726
N3510 X53.394 Y197.709
N3515 X53.402 Y197.691
N3520 X53.414 Y197.67
N3525 X53.423 Y197.66
N3530 X53.475 Y197.609
N3535 X53.617 Y197.472
N3540 X53.681 Y197.407
N3545 X53.901 Y197.168
N3550 X54.06 Y196.982
N3555 X54.106 Y196.923
N3560 G3 X54.632 Y197.166 I0.231 J0.192
N3565 G1 X54.621 Y197.231 Z-0.992
N3570 X54.61 Y197.294 Z-0.97
N3575 X54.6 Y197.35 Z-0.935
N3580 X54.592 Y197.397 Z-0.887
N3585 X54.586 Y197.432 Z-0.83
N3590 X54.582 Y197.454 Z-0.767
N3595 X54.581 Y197.461 Z-0.7
N3600 G0 Z5.
N3605 X41.938 Y187.883
N3610 Z-0.4
N3615 G1 Z-0.7 F3000.
N3620 X41.934 Y187.889 Z-0.767
N3625 X41.921 Y187.907 Z-0.83
N3630 X41.9 Y187.936 Z-0.887
N3635 X41.873 Y187.975 Z-0.935
N3640 X41.84 Y188.021 Z-0.97
N3645 X41.803 Y188.073 Z-0.992
N3650 X41.764 Y188.127 Z-1.
N3655 G3 X40.666 Y189.359 I-6.233 J-4.45
N3660 G1 X40.539 Y189.467
N3665 X40.432 Y189.558
N3670 X40.374 Y189.608
N3675 X40.073 Y189.892
N3680 X39.959 Y189.989
N3685 X39.832 Y190.068
N3690 X39.693 Y190.126
N3695 X39.549 Y190.165
N3700 X39.4 Y190.187
N3705 X39.363 Y190.188
N3710 X39.147 Y190.161
N3715 X38.949 Y190.069
N3720 X38.79 Y189.92
N3725 X38.684 Y189.73
N3730 X38.641 Y189.516
N3735 G3 X38.995 Y189.22 I0.3 J-0.002
N3740 G1 X39.25 Y189.266
N3745 X39.782 Y189.362 F6000.
N3750 X39.914 Y189.386 F3000.
N3755 G3 X40.073 Y189.892 I-0.053 J0.295
N3760 G1 X40.006 Y189.955
N3765 X39.925 Y190.034
N3770 X39.864 Y190.099
N3775 X39.723 Y190.256
N3780 X39.669 Y190.317
N3785 X39.643 Y190.35
N3790 X39.542 Y190.462
N3795 X39.351 Y190.538
N3800 X39.145 Y190.543
N3805 X38.95 Y190.477
N3810 X38.79 Y190.347
N3815 X38.685 Y190.17
N3820 X38.648 Y189.967
N3825 G3 X38.776 Y189.644 I0.512 J0.015
N3830 X39.152 Y189.456 I0.42 J0.37
N3835 X39.602 Y189.629 I0.044 J0.558 F6000.
N3840 X39.643 Y190.35 I-0.406 J0.385 F3000.
N3845 G1 X39.554 Y190.459
N3850 X39.449 Y190.601
N3855 X39.414 Y190.654
N3860 X39.325 Y190.775
N3865 X39.178 Y190.83
N3870 X39.022 Y190.832
N3875 X38.875 Y190.779
N3880 X38.754 Y190.68
N3885 X38.676 Y190.545
N3890 X38.649 Y190.391
N3895 X38.659 Y190.318
N3900 X38.683 Y190.248
N3905 X38.721 Y190.185
N3910 G3 X39.414 Y190.654 I0.336 J0.25
N3915 G1 X39.261 Y190.885
N3920 X39.246 Y190.908
N3925 X39.161 Y191.032
N3930 X39.026 Y191.075
N3935 X38.884 Y191.06
N3940 X38.761 Y190.988
N3945 X38.678 Y190.873
N3950 X38.649 Y190.734
N3955 X38.655 Y190.682
N3960 X38.67 Y190.631
N3965 X38.693 Y190.584
N3970 G3 X39.246 Y190.908 I0.275 J0.164
N3975 G1 X39.173 Y191.026
N3980 X39.123 Y191.119
N3985 X39.045 Y191.247
N3990 X38.912 Y191.28
N3995 X38.78 Y191.243
N4000 X38.684 Y191.145
N4005 X38.649 Y191.012
N4010 X38.656 Y190.953
N4015 G3 X38.983 Y190.773 I0.243 J0.055
N4020 X39.123 Y191.119 I-0.083 J0.235
N4025 G1 X39.02 Y191.31
N4030 X38.98 Y191.394
N4035 X38.942 Y191.473
N4040 X38.928 Y191.495
N4045 X38.914 Y191.51
N4050 X38.9 Y191.521
N4055 X38.886 Y191.53
N4060 X38.872 Y191.538
N4065 X38.854 Y191.544
N4070 X38.837 Y191.548
N4075 X38.819 Y191.55
N4080 X38.801
N4085 X38.783 Y191.548
N4090 X38.766 Y191.543
N4095 X38.748 Y191.536
N4100 X38.73 Y191.527
N4105 X38.71 Y191.511
N4110 X38.689 Y191.489
N4115 X38.674 Y191.471
N4120 X38.663 Y191.452
N4125 X38.656 Y191.434
N4130 X38.652 Y191.416
N4135 X38.649 Y191.399
N4140 Y190.034
N4145 X38.646 Y189.75
N4150 G3 X39.21 Y189.614 I0.3 J0.007
N4155 G1 X39.242 Y189.673 Z-0.992
N4160 X39.272 Y189.728 Z-0.97
N4165 X39.299 Y189.778 Z-0.935
N4170 X39.322 Y189.82 Z-0.887
N4175 X39.339 Y189.851 Z-0.83
N4180 X39.35 Y189.871 Z-0.767
N4185 X39.353 Y189.878 Z-0.7
N4190 G0 Z5.
N4195 X41.373 Y329.963
N4200 Z-0.4
N4205 G1 Z-0.7 F3000.
N4210 X41.377 Y329.97 Z-0.767
N4215 X41.388 Y329.989 Z-0.83
N4220 X41.406 Y330.02 Z-0.887
N4225 X41.431 Y330.061 Z-0.935
N4230 X41.46 Y330.109 Z-0.97
N4235 X41.492 Y330.164 Z-0.992
N4240 X41.526 Y330.221 Z-1.
N4245 G3 X41.991 Y331.804 I-2.858 J1.699
N4250 G1 Y332.684
N4255 X41.984 Y332.834
N4260 X41.922 Y332.982
N4265 X41.814 Y333.102
N4270 X41.673 Y333.179
N4275 X41.515 Y333.206
N4280 G3 X41.289 Y332.721 I0.01 J-0.3
N4285 G1 X41.366 Y332.623
N4290 X41.423 Y332.551 F6000.
N4295 X41.455 Y332.509 F3000.
N4300 G3 X41.991 Y332.684 I0.236 J0.185
N4305 G1 Y333.046
N4310 X41.99 Y333.062
N4315 X41.987 Y333.078
N4320 X41.982 Y333.094
N4325 X41.976 Y333.109
N4330 X41.965 Y333.127
N4335 X41.952 Y333.144
N4340 X41.932 Y333.163
N4345 X41.913 Y333.179
N4350 X41.897 Y333.189
N4355 X41.881 Y333.196
N4360 X41.865 Y333.201
N4365 X41.849 Y333.204
N4370 X41.708 Y333.206
N4375 X40.715
N4380 G0 Z5.
N4385 X52.693 Y341.751
N4390 Z-0.4
N4395 G1 Z-0.7 F3000.
N4400 X52.699 Y341.746 Z-0.767
N4405 X52.716 Y341.732 Z-0.83
N4410 X52.744 Y341.71 Z-0.887
N4415 X52.782 Y341.681 Z-0.935
N4420 X52.826 Y341.645 Z-0.97
N4425 X52.876 Y341.606 Z-0.992
N4430 X52.929 Y341.565 Z-1.
N4435 G3 X54.326 Y340.688 I4.746 J6.011
N4440 G1 X54.468 Y340.625
N4445 X54.61 Y340.541
N4450 X54.752 Y340.436
N4455 X54.769 Y340.421
N4460 X54.787 Y340.409
N4465 X54.805 Y340.4
N4470 X54.822 Y340.394
N4475 X54.84 Y340.39
N4480 X54.858 Y340.389
N4485 X54.876
N4490 X54.893 Y340.392
N4495 X54.91 Y340.397
N4500 X54.928 Y340.404
N4505 X54.945 Y340.414
N4510 X55. Y340.458
N4515 X55.035 Y340.487
N4520 X55.124 Y340.543
N4525 G0 Z5.
N4530 X62.88 Y335.234
N4535 Z-0.4
N4540 G1 Z-0.7 F3000.
N4545 X62.876 Y335.227 Z-0.767
N4550 X62.865 Y335.208 Z-0.83
N4555 X62.847 Y335.178 Z-0.887
N4560 X62.822 Y335.137 Z-0.935
N4565 X62.793 Y335.088 Z-0.97
N4570 X62.761 Y335.033 Z-0.992
N4575 X62.727 Y334.976 Z-1.
N4580 G3 X62.262 Y333.393 I2.858 J-1.699
N4585 G1 Y332.4
N4590 X62.269 Y332.251
N4595 X62.302 Y332.104
N4600 X62.318 Y332.061
N4605 X62.426 Y331.873
N4610 X62.587 Y331.727
N4615 X62.784 Y331.637
N4620 X63. Y331.612
N4625 X63.212 Y331.654
N4630 G3 X63.294 Y332.161 I-0.113 J0.278
N4635 G1 X63.164 Y332.271
N4640 X62.842 Y332.545 F6000.
N4645 X62.756 Y332.618 F3000.
N4650 G3 X62.262 Y332.4 I-0.194 J-0.228
N4655 G1 Y331.833
N4660 X62.269 Y331.683
N4665 X62.343 Y331.549
N4670 X62.467 Y331.457
N4675 X62.618 Y331.427
N4680 X62.767 Y331.463
N4685 X62.828 Y331.501
N4690 X62.882 Y331.548
N4695 X62.929 Y331.602
N4700 G3 X62.856 Y332.112 I-0.298 J0.218
N4705 G1 X62.837 Y332.127 F6000.
N4710 G3 X62.262 Y331.833 I-0.206 J-0.307 F3000.
N4715 G1 Y331.49
N4720 Y331.46
N4725 X62.263 Y331.445
N4730 X62.274 Y331.408
N4735 X62.292 Y331.385
N4740 X62.316 Y331.37
N4745 X62.345 Y331.363
N4750 X62.374 Y331.366
N4755 X62.405 Y331.382
N4760 X62.428 Y331.409
N4765 X62.437 Y331.444
N4770 X62.433 Y331.479
N4775 X62.415 Y331.509
N4780 X62.386 Y331.53
N4785 X62.351 Y331.537
N4790 X62.317 Y331.531
N4795 X62.287 Y331.511
N4800 X62.268 Y331.481
N4805 X62.263 Y331.445
N4810 X62.266 Y331.431
N4815 X62.274 Y331.408
N4820 X62.284 Y331.388
N4825 X62.299 Y331.368
N4830 X62.32 Y331.344
N4835 X62.33 Y331.335
N4840 X62.341 Y331.327
N4845 X62.357 Y331.318
N4850 X62.374 Y331.311
N4855 X62.391 Y331.306
N4860 X62.408 Y331.303
N4865 X62.425 Y331.302
N4870 X62.443 Y331.303
N4875 X62.461 Y331.307
N4880 X62.479 Y331.312
N4885 X62.657 Y331.408
N4890 X62.691 Y331.426
N4895 X62.833 Y331.495
N4900 X62.975 Y331.561
N4905 X63.117 Y331.619
N4910 X63.4 Y331.723
N4915 X63.542 Y331.77
N4920 X63.655 Y331.799
N4925 G3 X63.64 Y332.378 I-0.085 J0.288
N4930 G1 X63.576 Y332.394 Z-0.992
N4935 X63.514 Y332.409 Z-0.97
N4940 X63.459 Y332.422 Z-0.935
N4945 X63.412 Y332.433 Z-0.887
N4950 X63.378 Y332.442 Z-0.83
N4955 X63.356 Y332.447 Z-0.767
N4960 X63.349 Y332.449 Z-0.7
N4965 G0 Z5.
N4970 X69.535 Y331.476
N4975 Z-0.4
N4980 G1 Z-0.7 F3000.
N4985 X69.537 Y331.469 Z-0.767
N4990 X69.543 Y331.448 Z-0.83
N4995 X69.553 Y331.413 Z-0.887
N5000 X69.567 Y331.368 Z-0.935
N5005 X69.582 Y331.313 Z-0.97
N5010 X69.6 Y331.252 Z-0.992
N5015 X69.619 Y331.188 Z-1.
N5020 G3 X70.249 Y329.663 I7.352 J2.146
N5025 G1 X70.348 Y329.496
N5030 X70.471 Y329.281
N5035 X70.551 Y329.139
N5040 X70.652 Y328.948
N5045 X70.729 Y328.819
N5050 X70.827 Y328.705
N5055 X70.941 Y328.607
N5060 X71.066 Y328.525
N5065 X71.201 Y328.459
N5070 X71.342 Y328.408
N5075 X71.487 Y328.371
N5080 X71.636 Y328.349
N5085 X71.785 Y328.341
N5090 X71.935 Y328.345
N5095 X72.084 Y328.363
N5100 X72.233 Y328.393
N5105 X72.383 Y328.435
N5110 X72.534 Y328.492
N5115 X72.57 Y328.509
N5120 X72.735 Y328.617
N5125 X72.863 Y328.767
N5130 X72.945 Y328.947
N5135 X72.973 Y329.142
N5140 Y330.068
N5145 G3 X72.527 Y330.319 I-0.3 J-0.01
N5150 G1 X72.377 Y330.235
N5155 X71.065 Y329.503 F6000.
N5160 X70.776 Y329.341 F3000.
N5165 G3 X70.652 Y328.948 I0.146 J-0.262
N5170 G1 X70.777 Y328.714
N5175 X70.847 Y328.572
N5180 X70.915 Y328.428
N5185 X70.966 Y328.317
N5190 X71.035 Y328.183
N5195 X71.128 Y328.065
N5200 X71.238 Y327.964
N5205 X71.36 Y327.877
N5210 X71.493 Y327.807
N5215 X71.632 Y327.75
N5220 X71.776 Y327.708
N5225 X71.923 Y327.679
N5230 X72.072 Y327.664
N5235 X72.222 Y327.662
N5240 X72.372 Y327.674
N5245 X72.396 Y327.678
N5250 X72.581 Y327.739
N5255 X72.742 Y327.848
N5260 X72.867 Y327.997
N5265 X72.946 Y328.175
N5270 X72.973 Y328.367
N5275 Y329.142
N5280 G3 X72.541 Y329.401 I-0.3 J-0.01
N5285 G1 X72.372 Y329.319
N5290 X71.41 Y328.847 F6000.
N5295 X71.111 Y328.701 F3000.
N5300 G3 X70.966 Y328.317 I0.132 J-0.269
N5305 G1 X70.979 Y328.288
N5310 X71.038 Y328.146
N5315 X71.149 Y327.863
N5320 X71.198 Y327.73
N5325 X71.25 Y327.589
N5330 X71.33 Y327.462
N5335 X71.43 Y327.35
N5340 X71.544 Y327.253
N5345 X71.669 Y327.17
N5350 X71.804 Y327.103
N5355 X71.945 Y327.053
N5360 X72.091 Y327.019
N5365 X72.24 Y327.003
N5370 X72.272
N5375 X72.489 Y327.037
N5380 X72.684 Y327.136
N5385 X72.839 Y327.291
N5390 X72.938 Y327.486
N5395 X72.973 Y327.703
N5400 Y328.367
N5405 G3 X72.547 Y328.629 I-0.3 J-0.01
N5410 G1 X72.37 Y328.547
N5415 X71.694 Y328.233 F6000.
N5420 X71.362 Y328.079 F3000.
N5425 G3 X71.198 Y327.73 I0.126 J-0.272
N5430 G1 X71.331 Y327.296
N5435 X71.363 Y327.154
N5440 X71.403 Y327.009
N5445 X71.468 Y326.874
N5450 X71.556 Y326.753
N5455 X71.663 Y326.648
N5460 X71.785 Y326.56
N5465 X71.918 Y326.49
N5470 X72.059 Y326.44
N5475 X72.206 Y326.409
N5480 X72.213 Y326.408
N5485 X72.443 Y326.426
N5490 X72.655 Y326.519
N5495 X72.825 Y326.675
N5500 X72.935 Y326.878
N5505 X72.973 Y327.105
N5510 Y327.703
N5515 G3 X72.544 Y327.963 I-0.3 J-0.01
N5520 G1 X72.371 Y327.881
N5525 X71.883 Y327.648 F6000.
N5530 X71.529 Y327.48 F3000.
N5535 G3 X71.363 Y327.154 I0.129 J-0.271
N5540 G1 X71.426 Y326.87
N5545 X71.451 Y326.728
N5550 X71.482 Y326.538
N5555 X71.513 Y326.391
N5560 X71.579 Y326.257
N5565 X71.671 Y326.138
N5570 X71.782 Y326.037
N5575 X71.908 Y325.955
N5580 X72.045 Y325.895
N5585 X72.081 Y325.885
N5590 X72.294 Y325.859
N5595 X72.505 Y325.898
N5600 X72.694 Y326.
N5605 X72.844 Y326.154
N5610 X72.94 Y326.346
N5615 X72.973 Y326.558
N5620 Y327.105
N5625 G3 X72.522 Y327.354 I-0.3 J-0.01
N5630 G1 X72.378 Y327.27
N5635 X72.005 Y327.053 F6000.
N5640 X71.629 Y326.835 F3000.
N5645 G3 X71.482 Y326.538 I0.151 J-0.259
N5650 G1 X71.497 Y326.445
N5655 X71.516 Y326.303
N5660 X71.547 Y326.019
N5665 X71.569 Y325.871
N5670 X71.627 Y325.733
N5675 X71.714 Y325.61
N5680 X71.823 Y325.508
N5685 X71.948 Y325.425
N5690 X72.085 Y325.364
N5695 X72.089 Y325.363
N5700 X72.301 Y325.339
N5705 X72.511 Y325.38
N5710 X72.698 Y325.483
N5715 X72.846 Y325.636
N5720 X72.94 Y325.828
N5725 X72.973 Y326.039
N5730 Y326.558
N5735 G3 X72.515 Y326.803 I-0.3 J-0.01
N5740 G1 X72.38 Y326.72
N5745 X72.081 Y326.536 F6000.
N5750 X71.689 Y326.294 F3000.
N5755 G3 X71.547 Y326.019 I0.157 J-0.255
N5760 G1 X71.561 Y325.878
N5765 X71.585 Y325.516
N5770 X71.603 Y325.367
N5775 X71.655 Y325.226
N5780 X71.739 Y325.102
N5785 X71.847 Y324.998
N5790 X71.972 Y324.915
N5795 X71.989 Y324.907
N5800 X72.213 Y324.85
N5805 X72.443 Y324.868
N5810 X72.654 Y324.961
N5815 X72.824 Y325.117
N5820 X72.935 Y325.32
N5825 X72.973 Y325.547
N5830 Y326.039
N5835 G3 X72.512 Y326.281 I-0.3 J-0.01
N5840 G1 X72.381 Y326.198
N5845 X72.124 Y326.034 F6000.
N5850 X71.724 Y325.779 F3000.
N5855 G3 X71.585 Y325.516 I0.161 J-0.253
N5860 G1 X71.59 Y325.452
N5865 X71.61 Y324.984
N5870 X71.622 Y324.834
N5875 X71.684 Y324.698
N5880 X71.777 Y324.58
N5885 X71.89 Y324.481
N5890 X72.019 Y324.405
N5895 X72.022 Y324.404
N5900 X72.242 Y324.358
N5905 X72.466 Y324.385
N5910 X72.669 Y324.481
N5915 X72.832 Y324.637
N5920 X72.936 Y324.836
N5925 X72.973 Y325.058
N5930 Y325.547
N5935 G3 X72.497 Y325.78 I-0.3 J-0.01
N5940 G1 X72.386 Y325.7
N5945 X72.141 Y325.522 F6000.
N5950 X71.733 Y325.226 F3000.
N5955 G3 X71.61 Y324.984 I0.176 J-0.243
N5960 G1 X71.616 Y324.743
N5965 X71.621 Y324.523
N5970 X71.631 Y324.374
N5975 X71.687 Y324.234
N5980 X71.773 Y324.112
N5985 X71.883 Y324.01
N5990 X72.01 Y323.93
N5995 X72.232 Y323.88
N6000 X72.458 Y323.904
N6005 X72.664 Y323.999
N6010 X72.829 Y324.154
N6015 X72.936 Y324.355
N6020 X72.973 Y324.579
N6025 Y325.058
N6030 G3 X72.5 Y325.293 I-0.3 J-0.01
N6035 G1 X72.385 Y325.212
N6040 X72.16 Y325.053 F6000.
N6045 X71.748 Y324.763 F3000.
N6050 G3 X71.621 Y324.523 I0.173 J-0.245
N6055 G1 X71.622 Y324.46
N6060 Y324.034
N6065 X71.63 Y323.884
N6070 X71.688 Y323.746
N6075 X71.776 Y323.625
N6080 X71.887 Y323.524
N6085 X72.016 Y323.446
N6090 X72.237 Y323.398
N6095 X72.461 Y323.423
N6100 X72.666 Y323.518
N6105 X72.83 Y323.674
N6110 X72.936 Y323.874
N6115 X72.973 Y324.097
N6120 Y324.579
N6125 G3 X72.497 Y324.811 I-0.3 J-0.01
N6130 G1 X72.386 Y324.731
N6135 X72.161 Y324.568 F6000.
N6140 X71.746 Y324.267 F3000.
N6145 G3 X71.622 Y324.034 I0.176 J-0.243
N6150 G1 Y323.566
N6155 X71.63 Y323.416
N6160 X71.684 Y323.276
N6165 X71.77 Y323.153
N6170 X71.88 Y323.051
N6175 X72.008 Y322.97
N6180 X72.23 Y322.919
N6185 X72.456 Y322.942
N6190 X72.663 Y323.037
N6195 X72.829 Y323.193
N6200 X72.936 Y323.393
N6205 X72.973 Y323.618
N6210 Y324.097
N6215 G3 X72.5 Y324.331 I-0.3 J-0.01
N6220 G1 X72.385 Y324.25
N6225 X72.165 Y324.094 F6000.
N6230 X71.749 Y323.8 F3000.
N6235 G3 X71.622 Y323.566 I0.173 J-0.245
N6240 G1 Y323.07
N6245 X71.63 Y322.92
N6250 X71.688 Y322.782
N6255 X71.777 Y322.662
N6260 X71.889 Y322.562
N6265 X72.017 Y322.483
N6270 X72.238 Y322.436
N6275 X72.462 Y322.461
N6280 X72.667 Y322.557
N6285 X72.831 Y322.712
N6290 X72.936 Y322.912
N6295 X72.973 Y323.135
N6300 Y323.618
N6305 G3 X72.496 Y323.85 I-0.3 J-0.01
N6310 G1 X72.386 Y323.77
N6315 X72.16 Y323.605 F6000.
N6320 X71.745 Y323.302 F3000.
N6325 G3 X71.622 Y323.07 I0.177 J-0.242
N6330 G1 Y322.616
N6335 X71.63 Y322.466
N6340 X71.681 Y322.326
N6345 X71.765 Y322.201
N6350 X71.873 Y322.097
N6355 X72. Y322.014
N6360 X72.223 Y321.961
N6365 X72.451 Y321.982
N6370 X72.66 Y322.075
N6375 X72.827 Y322.231
N6380 X72.935 Y322.433
N6385 X72.973 Y322.659
N6390 Y323.135
N6395 G3 X72.502 Y323.371 I-0.3 J-0.01
N6400 G1 X72.384 Y323.29
N6405 X72.168 Y323.14 F6000.
N6410 X71.751 Y322.853 F3000.
N6415 G3 X71.622 Y322.616 I0.171 J-0.247
N6420 G1 Y322.113
N6425 X71.63 Y321.963
N6430 X71.688 Y321.825
N6435 X71.776 Y321.704
N6440 X71.888 Y321.604
N6445 X71.907 Y321.592
N6450 X72.102 Y321.51
N6455 X72.312 Y321.49
N6460 X72.519 Y321.533
N6465 X72.703 Y321.637
N6470 X72.848 Y321.79
N6475 X72.941 Y321.98
N6480 X72.973 Y322.189
N6485 Y322.659
N6490 G3 X72.496 Y322.891 I-0.3 J-0.01
N6495 G1 X72.386 Y322.811
N6500 X72.161 Y322.647 F6000.
N6505 X71.745 Y322.345 F3000.
N6510 G3 X71.622 Y322.113 I0.176 J-0.243
N6515 G1 Y321.652
N6520 X71.63 Y321.503
N6525 X71.685 Y321.363
N6530 X71.771 Y321.241
N6535 X71.882 Y321.14
N6540 X71.899 Y321.129
N6545 X72.094 Y321.044
N6550 X72.305 Y321.022
N6555 X72.514 Y321.064
N6560 X72.7 Y321.166
N6565 X72.846 Y321.32
N6570 X72.94 Y321.511
N6575 X72.973 Y321.721
N6580 Y322.189
N6585 G3 X72.498 Y322.422 I-0.3 J-0.01
N6590 G1 X72.386 Y322.342
N6595 X72.163 Y322.183 F6000.
N6600 X71.748 Y321.886 F3000.
N6605 G3 X71.622 Y321.652 I0.174 J-0.244
N6610 G1 Y321.198
N6615 X71.63 Y321.048
N6620 X71.681 Y320.907
N6625 X71.765 Y320.783
N6630 X71.874 Y320.68
N6635 X72. Y320.598
N6640 X72.222 Y320.545
N6645 X72.45 Y320.566
N6650 X72.659 Y320.659
N6655 X72.827 Y320.815
N6660 X72.935 Y321.017
N6665 X72.973 Y321.243
N6670 Y321.721
N6675 G3 X72.501 Y321.957 I-0.3 J-0.01
N6680 G1 X72.385 Y321.875
N6685 X72.167 Y321.724 F6000.
N6690 X71.751 Y321.434 F3000.
N6695 G3 X71.622 Y321.198 I0.171 J-0.246
N6700 G1 Y320.7
N6705 X71.63 Y320.55
N6710 X71.687 Y320.411
N6715 X71.775 Y320.29
N6720 X71.886 Y320.19
N6725 X71.905 Y320.178
N6730 X72.1 Y320.095
N6735 X72.31 Y320.075
N6740 X72.517 Y320.118
N6745 X72.702 Y320.221
N6750 X72.848 Y320.375
N6755 X72.941 Y320.565
N6760 X72.973 Y320.774
N6765 Y321.243
N6770 G3 X72.497 Y321.476 I-0.3 J-0.01
N6775 G1 X72.386 Y321.395
N6780 X72.161 Y321.233 F6000.
N6785 X71.746 Y320.933 F3000.
N6790 G3 X71.622 Y320.7 I0.176 J-0.243
N6795 G1 Y320.234
N6800 X71.63 Y320.085
N6805 X71.686 Y319.945
N6810 X71.773 Y319.823
N6815 X71.884 Y319.723
N6820 X72.011 Y319.643
N6825 X72.233 Y319.594
N6830 X72.458 Y319.617
N6835 X72.664 Y319.712
N6840 X72.829 Y319.868
N6845 X72.936 Y320.068
N6850 X72.973 Y320.292
N6855 Y320.774
N6860 G3 X72.498 Y321.007 I-0.3 J-0.01
N6865 G1 X72.386 Y320.927
N6870 X72.162 Y320.766 F6000.
N6875 X71.747 Y320.467 F3000.
N6880 G3 X71.622 Y320.234 I0.175 J-0.244
N6885 G1 Y319.78
N6890 X71.63 Y319.63
N6895 X71.68 Y319.489
N6900 X71.761 Y319.363
N6905 X71.869 Y319.259
N6910 X71.996 Y319.174
N6915 X72.219 Y319.119
N6920 X72.448 Y319.14
N6925 X72.658 Y319.233
N6930 X72.826 Y319.389
N6935 X72.935 Y319.591
N6940 X72.973 Y319.817
N6945 Y320.292
N6950 G3 X72.504 Y320.53 I-0.3 J-0.01
N6955 G1 X72.384 Y320.448
N6960 X72.169 Y320.302 F6000.
N6965 X71.753 Y320.018 F3000.
N6970 G3 X71.622 Y319.78 I0.169 J-0.248
N6975 G1 Y319.277
N6980 X71.63 Y319.127
N6985 X71.686 Y318.988
N6990 X71.774 Y318.867
N6995 X71.885 Y318.766
N7000 X71.903 Y318.754
N7005 X72.098 Y318.671
N7010 X72.309 Y318.65
N7015 X72.516 Y318.693
N7020 X72.702 Y318.796
N7025 X72.847 Y318.949
N7030 X72.941 Y319.139
N7035 X72.973 Y319.349
N7040 Y319.817
N7045 G3 X72.497 Y320.05 I-0.3 J-0.01
N7050 G1 X72.386 Y319.97
N7055 X72.162 Y319.809 F6000.
N7060 X71.747 Y319.51 F3000.
N7065 G3 X71.622 Y319.277 I0.175 J-0.243
N7070 G1 Y318.816
N7075 X71.63 Y318.667
N7080 X71.683 Y318.527
N7085 X71.769 Y318.404
N7090 X71.88 Y318.302
N7095 X72.006 Y318.221
N7100 X72.228 Y318.17
N7105 X72.455 Y318.193
N7110 X72.662 Y318.287
N7115 X72.828 Y318.443
N7120 X72.936 Y318.644
N7125 X72.973 Y318.869
N7130 Y319.349
N7135 G3 X72.499 Y319.583 I-0.3 J-0.01
N7140 G1 X72.385 Y319.502
N7145 X72.164 Y319.345 F6000.
N7150 X71.748 Y319.051 F3000.
N7155 G3 X71.622 Y318.816 I0.174 J-0.245
N7160 G1 Y318.319
N7165 X71.63 Y318.169
N7170 X71.688 Y318.032
N7175 X71.778 Y317.911
N7180 X71.89 Y317.811
N7185 X71.909 Y317.8
N7190 X72.104 Y317.719
N7195 X72.314 Y317.699
N7200 X72.52 Y317.743
N7205 X72.704 Y317.847
N7210 X72.848 Y318.
N7215 X72.941 Y318.19
N7220 X72.973 Y318.398
N7225 Y318.869
N7230 G3 X72.496 Y319.1 I-0.3 J-0.01
N7235 G1 X72.387 Y319.021
N7240 X72.16 Y318.855 F6000.
N7245 X71.745 Y318.551 F3000.
N7250 G3 X71.622 Y318.319 I0.177 J-0.242
N7255 G1 Y317.859
N7260 X71.63 Y317.709
N7265 X71.685 Y317.57
N7270 X71.772 Y317.448
N7275 X71.884 Y317.347
N7280 X71.901 Y317.336
N7285 X72.096 Y317.252
N7290 X72.307 Y317.23
N7295 X72.515 Y317.273
N7300 X72.7 Y317.375
N7305 X72.847 Y317.529
N7310 X72.94 Y317.72
N7315 X72.973 Y317.93
N7320 Y318.398
N7325 G3 X72.498 Y318.631 I-0.3 J-0.01
N7330 G1 X72.386 Y318.551
N7335 X72.162 Y318.39 F6000.
N7340 X71.747 Y318.092 F3000.
N7345 G3 X71.622 Y317.859 I0.175 J-0.244
N7350 G1 Y317.398
N7355 X71.63 Y317.249
N7360 X71.683 Y317.108
N7365 X71.769 Y316.985
N7370 X71.879 Y316.884
N7375 X72.006 Y316.803
N7380 X72.228 Y316.751
N7385 X72.454 Y316.774
N7390 X72.662 Y316.868
N7395 X72.828 Y317.024
N7400 X72.936 Y317.225
N7405 X72.973 Y317.45
N7410 Y317.93
N7415 G3 X72.5 Y318.164 I-0.3 J-0.01
N7420 G1 X72.385 Y318.083
N7425 X72.164 Y317.927 F6000.
N7430 X71.749 Y317.633 F3000.
N7435 G3 X71.622 Y317.398 I0.173 J-0.245
N7440 G1 Y316.901
N7445 X71.63 Y316.751
N7450 X71.688 Y316.613
N7455 X71.778 Y316.493
N7460 X71.889 Y316.393
N7465 X71.908 Y316.381
N7470 X72.103 Y316.3
N7475 X72.313 Y316.28
N7480 X72.52 Y316.324
N7485 X72.703 Y316.428
N7490 X72.848 Y316.581
N7495 X72.941 Y316.771
N7500 X72.973 Y316.979
N7505 Y317.45
N7510 G3 X72.496 Y317.682 I-0.3 J-0.01
N7515 G1 X72.387 Y317.602
N7520 X72.16 Y317.436 F6000.
N7525 X71.745 Y317.133 F3000.
N7530 G3 X71.622 Y316.901 I0.177 J-0.242
N7535 G1 Y316.441
N7540 X71.63 Y316.291
N7545 X71.685 Y316.152
N7550 X71.772 Y316.029
N7555 X71.883 Y315.929
N7560 X71.9 Y315.918
N7565 X72.095 Y315.834
N7570 X72.306 Y315.812
N7575 X72.514 Y315.854
N7580 X72.7 Y315.957
N7585 X72.847 Y316.11
N7590 X72.94 Y316.301
N7595 X72.973 Y316.511
N7600 Y316.979
N7605 G3 X72.498 Y317.213 I-0.3 J-0.01
N7610 G1 X72.386 Y317.132
N7615 X72.163 Y316.972 F6000.
N7620 X71.747 Y316.674 F3000.
N7625 G3 X71.622 Y316.441 I0.175 J-0.244
N7630 G1 Y315.98
N7635 X71.63 Y315.831
N7640 X71.683 Y315.69
N7645 X71.769 Y315.567
N7650 X71.879 Y315.465
N7655 X72.005 Y315.384
N7660 X72.227 Y315.333
N7665 X72.454 Y315.355
N7670 X72.662 Y315.45
N7675 X72.828 Y315.605
N7680 X72.935 Y315.807
N7685 X72.973 Y316.031
N7690 Y316.511
N7695 G3 X72.5 Y316.745 I-0.3 J-0.01
N7700 G1 X72.385 Y316.665
N7705 X72.165 Y316.509 F6000.
N7710 X71.749 Y316.215 F3000.
N7715 G3 X71.622 Y315.98 I0.173 J-0.245
N7720 G1 Y315.483
N7725 X71.63 Y315.334
N7730 X71.688 Y315.195
N7735 X71.777 Y315.075
N7740 X71.889 Y314.975
N7745 X71.908 Y314.963
N7750 X72.103 Y314.882
N7755 X72.313 Y314.862
N7760 X72.519 Y314.906
N7765 X72.703 Y315.009
N7770 X72.848 Y315.163
N7775 X72.941 Y315.352
N7780 X72.973 Y315.561
N7785 Y316.031
N7790 G3 X72.496 Y316.263 I-0.3 J-0.01
N7795 G1 X72.386 Y316.183
N7800 X72.16 Y316.018 F6000.
N7805 X71.745 Y315.715 F3000.
N7810 G3 X71.622 Y315.483 I0.177 J-0.242
N7815 G1 Y315.023
N7820 X71.63 Y314.873
N7825 X71.685 Y314.734
N7830 X71.772 Y314.611
N7835 X71.883 Y314.511
N7840 X71.9 Y314.5
N7845 X72.095 Y314.416
N7850 X72.306 Y314.394
N7855 X72.514 Y314.436
N7860 X72.7 Y314.538
N7865 X72.847 Y314.692
N7870 X72.94 Y314.883
N7875 X72.973 Y315.093
N7880 Y315.561
N7885 G3 X72.498 Y315.794 I-0.3 J-0.01
N7890 G1 X72.386 Y315.714
N7895 X72.163 Y315.554 F6000.
N7900 X71.747 Y315.256 F3000.
N7905 G3 X71.622 Y315.023 I0.175 J-0.244
N7910 G1 Y314.562
N7915 X71.63 Y314.413
N7920 X71.683 Y314.272
N7925 X71.768 Y314.149
N7930 X71.879 Y314.047
N7935 X72.005 Y313.966
N7940 X72.227 Y313.915
N7945 X72.454 Y313.937
N7950 X72.662 Y314.031
N7955 X72.828 Y314.187
N7960 X72.935 Y314.388
N7965 X72.973 Y314.613
N7970 Y315.093
N7975 G3 X72.5 Y315.327 I-0.3 J-0.01
N7980 G1 X72.385 Y315.246
N7985 X72.165 Y315.091 F6000.
N7990 X71.749 Y314.797 F3000.
N7995 G3 X71.622 Y314.562 I0.173 J-0.245
N8000 G1 Y314.065
N8005 X71.63 Y313.916
N8010 X71.688 Y313.777
N8015 X71.777 Y313.657
N8020 X71.889 Y313.557
N8025 X71.908 Y313.545
N8030 X72.103 Y313.464
N8035 X72.313 Y313.444
N8040 X72.519 Y313.488
N8045 X72.703 Y313.591
N8050 X72.848 Y313.745
N8055 X72.941 Y313.934
N8060 X72.973 Y314.143
N8065 Y314.613
N8070 G3 X72.496 Y314.845 I-0.3 J-0.01
N8075 G1 X72.386 Y314.765
N8080 X72.16 Y314.6 F6000.
N8085 X71.745 Y314.297 F3000.
N8090 G3 X71.622 Y314.065 I0.177 J-0.242
N8095 G1 Y313.605
N8100 X71.63 Y313.455
N8105 X71.685 Y313.316
N8110 X71.772 Y313.193
N8115 X71.883 Y313.093
N8120 X71.9 Y313.082
N8125 X72.095 Y312.998
N8130 X72.306 Y312.975
N8135 X72.514 Y313.018
N8140 X72.7 Y313.12
N8145 X72.847 Y313.274
N8150 X72.94 Y313.465
N8155 X72.973 Y313.675
N8160 Y314.143
N8165 G3 X72.498 Y314.376 I-0.3 J-0.01
N8170 G1 X72.386 Y314.296
N8175 X72.163 Y314.136 F6000.
N8180 X71.747 Y313.838 F3000.
N8185 G3 X71.622 Y313.605 I0.175 J-0.244
N8190 G1 Y313.144
N8195 X71.63 Y312.995
N8200 X71.683 Y312.854
N8205 X71.768 Y312.731
N8210 X71.879 Y312.629
N8215 X72.005 Y312.548
N8220 X72.227 Y312.497
N8225 X72.454 Y312.519
N8230 X72.662 Y312.613
N8235 X72.828 Y312.769
N8240 X72.935 Y312.97
N8245 X72.973 Y313.195
N8250 Y313.675
N8255 G3 X72.5 Y313.909 I-0.3 J-0.01
N8260 G1 X72.385 Y313.828
N8265 X72.165 Y313.673 F6000.
N8270 X71.749 Y313.379 F3000.
N8275 G3 X71.622 Y313.144 I0.173 J-0.245
N8280 G1 Y312.647
N8285 X71.63 Y312.498
N8290 X71.688 Y312.359
N8295 X71.777 Y312.239
N8300 X71.889 Y312.139
N8305 X71.908 Y312.127
N8310 X72.103 Y312.046
N8315 X72.313 Y312.026
N8320 X72.519 Y312.07
N8325 X72.703 Y312.173
N8330 X72.848 Y312.326
N8335 X72.941 Y312.516
N8340 X72.973 Y312.725
N8345 Y313.195
N8350 G3 X72.496 Y313.427 I-0.3 J-0.01
N8355 G1 X72.386 Y313.347
N8360 X72.16 Y313.182 F6000.
N8365 X71.745 Y312.879 F3000.
N8370 G3 X71.622 Y312.647 I0.177 J-0.242
N8375 G1 Y312.187
N8380 X71.63 Y312.037
N8385 X71.685 Y311.898
N8390 X71.772 Y311.775
N8395 X71.883 Y311.675
N8400 X71.9 Y311.664
N8405 X72.095 Y311.58
N8410 X72.306 Y311.557
N8415 X72.514 Y311.6
N8420 X72.7 Y311.702
N8425 X72.847 Y311.856
N8430 X72.94 Y312.047
N8435 X72.973 Y312.257
N8440 Y312.725
N8445 G3 X72.498 Y312.958 I-0.3 J-0.01
N8450 G1 X72.386 Y312.878
N8455 X72.163 Y312.718 F6000.
N8460 X71.747 Y312.42 F3000.
N8465 G3 X71.622 Y312.187 I0.175 J-0.244
N8470 G1 Y311.726
N8475 X71.63 Y311.577
N8480 X71.683 Y311.436
N8485 X71.768 Y311.313
N8490 X71.879 Y311.211
N8495 X72.005 Y311.13
N8500 X72.227 Y311.079
N8505 X72.454 Y311.101
N8510 X72.662 Y311.195
N8515 X72.828 Y311.351
N8520 X72.935 Y311.552
N8525 X72.973 Y311.777
N8530 Y312.257
N8535 G3 X72.5 Y312.491 I-0.3 J-0.01
N8540 G1 X72.385 Y312.41
N8545 X72.165 Y312.255 F6000.
N8550 X71.749 Y311.961 F3000.
N8555 G3 X71.622 Y311.726 I0.173 J-0.245
N8560 G1 Y311.229
N8565 X71.63 Y311.08
N8570 X71.688 Y310.941
N8575 X71.777 Y310.821
N8580 X71.889 Y310.721
N8585 X71.908 Y310.709
N8590 X72.103 Y310.628
N8595 X72.313 Y310.608
N8600 X72.519 Y310.652
N8605 X72.703 Y310.755
N8610 X72.848 Y310.908
N8615 X72.941 Y311.098
N8620 X72.973 Y311.307
N8625 Y311.777
N8630 G3 X72.496 Y312.009 I-0.3 J-0.01
N8635 G1 X72.386 Y311.929
N8640 X72.16 Y311.764 F6000.
N8645 X71.745 Y311.461 F3000.
N8650 G3 X71.622 Y311.229 I0.177 J-0.242
N8655 G1 Y310.769
N8660 X71.63 Y310.619
N8665 X71.685 Y310.48
N8670 X71.772 Y310.357
N8675 X71.883 Y310.257
N8680 X71.9 Y310.246
N8685 X72.095 Y310.162
N8690 X72.306 Y310.139
N8695 X72.514 Y310.182
N8700 X72.7 Y310.284
N8705 X72.847 Y310.438
N8710 X72.94 Y310.629
N8715 X72.973 Y310.839
N8720 Y311.307
N8725 G3 X72.498 Y311.54 I-0.3 J-0.01
N8730 G1 X72.386 Y311.46
N8735 X72.163 Y311.3 F6000.
N8740 X71.747 Y311.002 F3000.
N8745 G3 X71.622 Y310.769 I0.175 J-0.244
N8750 G1 Y310.308
N8755 X71.63 Y310.159
N8760 X71.683 Y310.018
N8765 X71.768 Y309.895
N8770 X71.879 Y309.793
N8775 X72.005 Y309.712
N8780 X72.227 Y309.661
N8785 X72.454 Y309.683
N8790 X72.662 Y309.777
N8795 X72.828 Y309.933
N8800 X72.935 Y310.134
N8805 X72.973 Y310.359
N8810 Y310.839
N8815 G3 X72.5 Y311.073 I-0.3 J-0.01
N8820 G1 X72.385 Y310.992
N8825 X72.165 Y310.837 F6000.
N8830 X71.749 Y310.543 F3000.
N8835 G3 X71.622 Y310.308 I0.173 J-0.245
N8840 G1 Y309.811
N8845 Y309.781
N8850 Y309.743
N8855 X71.63 Y309.594
N8860 X71.628 Y309.282
N8865 X71.625 Y309.251
N8870 X71.623 Y309.22
N8875 X71.622 Y309.188
N8880 X71.635 Y309.173
N8885 X71.655 Y309.169
N8890 X71.673 Y309.179
N8895 X71.68 Y309.199
N8900 X71.668 Y309.9
N8905 X71.657 Y310.546 F6000.
N8910 X71.664 Y310.583
N8915 X71.682 Y310.614
N8920 X71.711 Y310.637
N8925 X71.747 Y310.648
N8930 X71.783 Y310.645
N8935 X71.816 Y310.629
N8940 X71.842 Y310.602
N8945 X71.855 Y310.568
N8950 X71.856 Y310.532
N8955 X71.843 Y310.497
N8960 X71.839 Y310.49
N8965 G3 X71.622 Y309.743 I1.365 J-0.802 F3000.
N8970 G1 Y307.444
N8975 X71.621 Y307.401
N8980 X71.629 Y307.364
N8985 X71.65 Y307.334
N8990 X71.68 Y307.312
N8995 X71.717 Y307.304
N9000 X71.753 Y307.309
N9005 X71.786 Y307.327
N9010 X71.809 Y307.356
N9015 X71.841 Y307.415 Z-0.992
N9020 X71.871 Y307.47 Z-0.97
N9025 X71.898 Y307.52 Z-0.935
N9030 X71.921 Y307.562 Z-0.887
N9035 X71.938 Y307.594 Z-0.83
N9040 X71.948 Y307.613 Z-0.767
N9045 X71.952 Y307.62 Z-0.7
N9050 G0 Z5.
N9055 X65.238 Y304.674
N9060 Z-0.4
N9065 G1 Z-0.7 F3000.
N9070 X65.235 Y304.681 Z-0.767
N9075 X65.225 Y304.701 Z-0.83
N9080 X65.209 Y304.733 Z-0.887
N9085 X65.188 Y304.775 Z-0.935
N9090 X65.163 Y304.826 Z-0.97
N9095 X65.134 Y304.883 Z-0.992
N9100 X65.105 Y304.943 Z-1.
N9105 G3 X64.216 Y306.333 I-6.86 J-3.406
N9110 G1 X64.114 Y306.451
N9115 X64.017 Y306.593
N9120 X63.967 Y306.69
N9125 X63.948 Y306.735
N9130 X63.889 Y306.876
N9135 X63.832 Y307.015
N9140 X63.745 Y307.138
N9145 X63.64 Y307.244
N9150 X63.52 Y307.335
N9155 X63.39 Y307.41
N9160 X63.252 Y307.469
N9165 X63.109 Y307.513
N9170 X63.042 Y307.527
N9175 X62.831 Y307.537
N9180 X62.626 Y307.483
N9185 X62.446 Y307.372
N9190 X62.307 Y307.212
N9195 X62.221 Y307.018
N9200 G3 X62.474 Y306.652 I0.292 J-0.068
N9205 G1 X62.756 Y306.616
N9210 X63.353 Y306.537 F6000.
N9215 X63.558 Y306.511 F3000.
N9220 G3 X63.889 Y306.876 I0.039 J0.297
N9225 G1 X63.85 Y307.018
N9230 X63.826 Y307.167
N9235 X63.812 Y307.302
N9240 X63.811 Y307.345
N9245 X63.803 Y307.495
N9250 X63.743 Y307.632
N9255 X63.66 Y307.757
N9260 X63.557 Y307.867
N9265 X63.44 Y307.96
N9270 X63.31 Y308.035
N9275 X63.172 Y308.092
N9280 X63.137 Y308.102
N9285 X62.927 Y308.123
N9290 X62.72 Y308.081
N9295 X62.535 Y307.979
N9300 X62.389 Y307.827
N9305 X62.294 Y307.638
N9310 X62.261 Y307.429
N9315 G3 X62.534 Y307.139 I0.3 J0.008
N9320 G1 X62.882 Y307.108
N9325 X63.19 Y307.08 F6000.
N9330 X63.485 Y307.054 F3000.
N9335 G3 X63.811 Y307.345 I0.027 J0.299
N9340 G1 X63.81 Y307.727
N9345 Y307.869
N9350 X63.803 Y308.019
N9355 X63.758 Y308.162
N9360 X63.685 Y308.293
N9365 X63.591 Y308.409
N9370 X63.478 Y308.508
N9375 X63.351 Y308.588
N9380 X63.214 Y308.649
N9385 X63.069 Y308.689
N9390 X63.062 Y308.69
N9395 X62.862
N9400 X62.671 Y308.634
N9405 X62.503 Y308.526
N9410 X62.373 Y308.376
N9415 X62.29 Y308.195
N9420 X62.262 Y307.997
N9425 X62.261 Y307.429
N9430 G3 X62.688 Y307.165 I0.3 J0.008
N9435 G1 X62.861 Y307.246
N9440 X63.224 Y307.415 F6000.
N9445 X63.637 Y307.608 F3000.
N9450 G3 X63.81 Y307.869 I-0.127 J0.272
N9455 G1 Y308.436
N9460 X63.803 Y308.586
N9465 X63.759 Y308.73
N9470 X63.688 Y308.862
N9475 X63.593 Y308.978
N9480 X63.482 Y309.078
N9485 X63.355 Y309.158
N9490 X63.218 Y309.22
N9495 X63.074 Y309.261
N9500 X63.062 Y309.263
N9505 X62.862
N9510 X62.671 Y309.207
N9515 X62.503 Y309.099
N9520 X62.373 Y308.949
N9525 X62.29 Y308.768
N9530 X62.262 Y308.57
N9535 Y307.997
N9540 G3 X62.687 Y307.736 I0.3 J0.01
N9545 G1 X62.864 Y307.817
N9550 X63.224 Y307.984 F6000.
N9555 X63.636 Y308.174 F3000.
N9560 G3 X63.81 Y308.436 I-0.126 J0.272
N9565 G1 Y309.003
N9570 X63.803 Y309.153
N9575 X63.76 Y309.297
N9580 X63.69 Y309.43
N9585 X63.596 Y309.547
N9590 X63.485 Y309.647
N9595 X63.359 Y309.728
N9600 X63.223 Y309.791
N9605 X63.079 Y309.833
N9610 X63.065 Y309.835
N9615 X62.865 Y309.836
N9620 X62.673 Y309.78
N9625 X62.505 Y309.673
N9630 X62.373 Y309.522
N9635 X62.29 Y309.34
N9640 X62.262 Y309.143
N9645 Y308.57
N9650 G3 X62.686 Y308.308 I0.3 J0.01
N9655 G1 X62.865 Y308.389
N9660 X63.223 Y308.553 F6000.
N9665 X63.635 Y308.741 F3000.
N9670 G3 X63.81 Y309.003 I-0.125 J0.273
N9675 G1 Y309.571
N9680 X63.803 Y309.72
N9685 X63.762 Y309.865
N9690 X63.693 Y309.998
N9695 X63.599 Y310.115
N9700 X63.489 Y310.217
N9705 X63.363 Y310.298
N9710 X63.227 Y310.361
N9715 X63.083 Y310.404
N9720 X63.068 Y310.406
N9725 X62.867 Y310.408
N9730 X62.675 Y310.353
N9735 X62.506 Y310.246
N9740 X62.374 Y310.095
N9745 X62.29 Y309.913
N9750 X62.262 Y309.715
N9755 Y309.143
N9760 G3 X62.685 Y308.88 I0.3 J0.01
N9765 G1 X62.865 Y308.961
N9770 X63.222 Y309.122 F6000.
N9775 X63.634 Y309.308 F3000.
N9780 G3 X63.81 Y309.571 I-0.123 J0.273
N9785 G1 Y310.138
N9790 X63.803 Y310.288
N9795 X63.763 Y310.432
N9800 X63.695 Y310.566
N9805 X63.602 Y310.684
N9810 X63.492 Y310.786
N9815 X63.366 Y310.868
N9820 X63.23 Y310.931
N9825 X63.087 Y310.975
N9830 X63.07 Y310.977
N9835 X62.869 Y310.98
N9840 X62.676 Y310.925
N9845 X62.507 Y310.818
N9850 X62.374 Y310.667
N9855 X62.29 Y310.485
N9860 X62.262 Y310.286
N9865 Y309.715
N9870 G3 X62.684 Y309.451 I0.3 J0.01
N9875 G1 X62.865 Y309.532
N9880 X63.221 Y309.691 F6000.
N9885 X63.632 Y309.874 F3000.
N9890 G3 X63.81 Y310.138 I-0.122 J0.274
N9895 G1 Y310.705
N9900 X63.803 Y310.855
N9905 X63.764 Y311.
N9910 X63.696 Y311.134
N9915 X63.604 Y311.252
N9920 X63.494 Y311.354
N9925 X63.369 Y311.437
N9930 X63.234 Y311.501
N9935 X63.09 Y311.545
N9940 X63.072 Y311.548
N9945 X62.871 Y311.551
N9950 X62.678 Y311.497
N9955 X62.508 Y311.39
N9960 X62.375 Y311.238
N9965 X62.291 Y311.056
N9970 X62.262 Y310.857
N9975 Y310.286
N9980 G3 X62.683 Y310.022 I0.3 J0.01
N9985 G1 X62.866 Y310.103
N9990 X63.22 Y310.259 F6000.
N9995 X63.631 Y310.441 F3000.
N10000 G3 X63.81 Y310.705 I-0.121 J0.274
N10005 G1 Y311.272
N10010 X63.803 Y311.422
N10015 X63.765 Y311.567
N10020 X63.698 Y311.702
N10025 X63.606 Y311.82
N10030 X63.497 Y311.923
N10035 X63.372 Y312.006
N10040 X63.237 Y312.071
N10045 X63.094 Y312.115
N10050 X63.074 Y312.118
N10055 X62.873 Y312.122
N10060 X62.679 Y312.068
N10065 X62.508 Y311.961
N10070 X62.375 Y311.81
N10075 X62.291 Y311.627
N10080 X62.262 Y311.428
N10085 Y310.857
N10090 G3 X62.682 Y310.593 I0.3 J0.01
N10095 G1 X62.866 Y310.673
N10100 X63.22 Y310.828 F6000.
N10105 X63.631 Y311.008 F3000.
N10110 G3 X63.81 Y311.272 I-0.12 J0.275
N10115 G1 Y311.882
N10120 X63.803 Y312.032
N10125 X63.755 Y312.174
N10130 X63.682 Y312.305
N10135 X63.585 Y312.42
N10140 X63.471 Y312.518
N10145 X63.343 Y312.596
N10150 X63.206 Y312.656
N10155 X63.061 Y312.695
N10160 X63.054 Y312.696
N10165 X62.856 Y312.694
N10170 X62.667 Y312.637
N10175 X62.501 Y312.529
N10180 X62.372 Y312.378
N10185 X62.29 Y312.198
N10190 X62.262 Y312.002
N10195 Y311.428
N10200 G3 X62.691 Y311.167 I0.3 J0.01
N10205 G1 X62.863 Y311.25
N10210 X63.226 Y311.424 F6000.
N10215 X63.64 Y311.622 F3000.
N10220 G3 X63.81 Y311.882 I-0.13 J0.271
N10225 G1 Y312.45
N10230 X63.803 Y312.599
N10235 X63.757 Y312.742
N10240 X63.685 Y312.874
N10245 X63.589 Y312.989
N10250 X63.476 Y313.088
N10255 X63.348 Y313.167
N10260 X63.211 Y313.228
N10265 X63.067 Y313.268
N10270 X63.057 Y313.269
N10275 X62.858 Y313.268
N10280 X62.668 Y313.211
N10285 X62.502 Y313.103
N10290 X62.372 Y312.953
N10295 X62.29 Y312.772
N10300 X62.262 Y312.576
N10305 Y312.002
N10310 G3 X62.69 Y311.741 I0.3 J0.01
N10315 G1 X62.864 Y311.823
N10320 X63.225 Y311.994 F6000.
N10325 X63.638 Y312.189 F3000.
N10330 G3 X63.81 Y312.45 I-0.128 J0.271
N10335 G1 Y313.017
N10340 X63.803 Y313.167
N10345 X63.758 Y313.31
N10350 X63.687 Y313.442
N10355 X63.592 Y313.558
N10360 X63.48 Y313.658
N10365 X63.353 Y313.738
N10370 X63.216 Y313.799
N10375 X63.072 Y313.84
N10380 X63.06 Y313.842
N10385 X62.861
N10390 X62.67 Y313.786
N10395 X62.503 Y313.678
N10400 X62.373 Y313.527
N10405 X62.29 Y313.346
N10410 X62.262 Y313.149
N10415 Y312.576
N10420 G3 X62.688 Y312.314 I0.3 J0.01
N10425 G1 X62.864 Y312.396
N10430 X63.224 Y312.563 F6000.
N10435 X63.637 Y312.755 F3000.
N10440 G3 X63.81 Y313.017 I-0.126 J0.272
N10445 G1 Y313.584
N10450 X63.803 Y313.734
N10455 X63.76 Y313.878
N10460 X63.69 Y314.01
N10465 X63.595 Y314.127
N10470 X63.484 Y314.227
N10475 X63.358 Y314.308
N10480 X63.221 Y314.37
N10485 X63.077 Y314.412
N10490 X63.064 Y314.414
N10495 X62.864 Y314.415
N10500 X62.672 Y314.359
N10505 X62.504 Y314.251
N10510 X62.373 Y314.101
N10515 X62.29 Y313.919
N10520 X62.262 Y313.722
N10525 Y313.149
N10530 G3 X62.687 Y312.887 I0.3 J0.01
N10535 G1 X62.864 Y312.968
N10540 X63.223 Y313.133 F6000.
N10545 X63.635 Y313.322 F3000.
N10550 G3 X63.81 Y313.584 I-0.125 J0.273
N10555 G1 Y314.151
N10560 X63.803 Y314.301
N10565 X63.761 Y314.445
N10570 X63.692 Y314.578
N10575 X63.598 Y314.695
N10580 X63.488 Y314.797
N10585 X63.362 Y314.878
N10590 X63.225 Y314.941
N10595 X63.082 Y314.983
N10600 X63.067 Y314.986
N10605 X62.867 Y314.987
N10610 X62.674 Y314.932
N10615 X62.505 Y314.824
N10620 X62.374 Y314.674
N10625 X62.29 Y314.492
N10630 X62.262 Y314.294
N10635 Y313.722
N10640 G3 X62.685 Y313.459 I0.3 J0.01
N10645 G1 X62.865 Y313.54
N10650 X63.222 Y313.702 F6000.
N10655 X63.634 Y313.888 F3000.
N10660 G3 X63.81 Y314.151 I-0.124 J0.273
N10665 G1 Y314.718
N10670 X63.803 Y314.868
N10675 X63.762 Y315.013
N10680 X63.694 Y315.146
N10685 X63.601 Y315.264
N10690 X63.491 Y315.366
N10695 X63.365 Y315.448
N10700 X63.229 Y315.511
N10705 X63.086 Y315.554
N10710 X63.069 Y315.557
N10715 X62.869 Y315.559
N10720 X62.676 Y315.504
N10725 X62.506 Y315.397
N10730 X62.374 Y315.246
N10735 X62.29 Y315.064
N10740 X62.262 Y314.865
N10745 Y314.294
N10750 G3 X62.684 Y314.03 I0.3 J0.01
N10755 G1 X62.865 Y314.111
N10760 X63.221 Y314.271 F6000.
N10765 X63.633 Y314.455 F3000.
N10770 G3 X63.81 Y314.718 I-0.123 J0.274
N10775 G1 Y315.321
N10780 X63.803 Y315.47
N10785 X63.755 Y315.613
N10790 X63.681 Y315.743
N10795 X63.584 Y315.858
N10800 X63.471 Y315.956
N10805 X63.343 Y316.034
N10810 X63.205 Y316.094
N10815 X63.06 Y316.133
N10820 X63.054 Y316.134
N10825 X62.856 Y316.132
N10830 X62.666 Y316.074
N10835 X62.5 Y315.966
N10840 X62.371 Y315.816
N10845 X62.29 Y315.636
N10850 X62.262 Y315.44
N10855 Y314.865
N10860 G3 X62.691 Y314.605 I0.3 J0.01
N10865 G1 X62.863 Y314.688
N10870 X63.226 Y314.862 F6000.
N10875 X63.64 Y315.061 F3000.
N10880 G3 X63.81 Y315.321 I-0.13 J0.27
N10885 G1 Y315.888
N10890 X63.803 Y316.038
N10895 X63.757 Y316.181
N10900 X63.684 Y316.312
N10905 X63.588 Y316.427
N10910 X63.475 Y316.526
N10915 X63.348 Y316.605
N10920 X63.211 Y316.666
N10925 X63.066 Y316.706
N10930 X63.057 Y316.707
N10935 X62.858 Y316.706
N10940 X62.668 Y316.649
N10945 X62.502 Y316.541
N10950 X62.372 Y316.391
N10955 X62.29 Y316.21
N10960 X62.262 Y316.014
N10965 Y315.44
N10970 G3 X62.69 Y315.179 I0.3 J0.01
N10975 G1 X62.863 Y315.261
N10980 X63.225 Y315.432 F6000.
N10985 X63.638 Y315.627 F3000.
N10990 G3 X63.81 Y315.888 I-0.128 J0.271
N10995 G1 Y316.455
N11000 X63.803 Y316.605
N11005 X63.758 Y316.748
N11010 X63.687 Y316.88
N11015 X63.592 Y316.996
N11020 X63.48 Y317.096
N11025 X63.353 Y317.176
N11030 X63.216 Y317.237
N11035 X63.072 Y317.278
N11040 X63.06 Y317.28
N11045 X62.861
N11050 X62.67 Y317.223
N11055 X62.503 Y317.116
N11060 X62.373 Y316.965
N11065 X62.29 Y316.784
N11070 X62.262 Y316.587
N11075 Y316.014
N11080 G3 X62.688 Y315.752 I0.3 J0.01
N11085 G1 X62.864 Y315.834
N11090 X63.224 Y316.001 F6000.
N11095 X63.637 Y316.193 F3000.
N11100 G3 X63.81 Y316.455 I-0.127 J0.272
N11105 G1 Y317.022
N11110 X63.803 Y317.172
N11115 X63.76 Y317.316
N11120 X63.69 Y317.448
N11125 X63.595 Y317.565
N11130 X63.484 Y317.665
N11135 X63.357 Y317.746
N11140 X63.221 Y317.808
N11145 X63.077 Y317.85
N11150 X63.063 Y317.852
N11155 X62.864 Y317.853
N11160 X62.672 Y317.797
N11165 X62.504 Y317.689
N11170 X62.373 Y317.539
N11175 X62.29 Y317.357
N11180 X62.262 Y317.16
N11185 Y316.587
N11190 G3 X62.687 Y316.325 I0.3 J0.01
N11195 G1 X62.864 Y316.406
N11200 X63.223 Y316.571 F6000.
N11205 X63.635 Y316.76 F3000.
N11210 G3 X63.81 Y317.022 I-0.125 J0.273
N11215 G1 Y317.589
N11220 X63.803 Y317.739
N11225 X63.761 Y317.883
N11230 X63.692 Y318.016
N11235 X63.598 Y318.134
N11240 X63.487 Y318.235
N11245 X63.361 Y318.316
N11250 X63.225 Y318.379
N11255 X63.081 Y318.421
N11260 X63.066 Y318.424
N11265 X62.866 Y318.425
N11270 X62.674 Y318.37
N11275 X62.505 Y318.262
N11280 X62.374 Y318.111
N11285 X62.29 Y317.93
N11290 X62.262 Y317.732
N11295 Y317.16
N11300 G3 X62.685 Y316.897 I0.3 J0.01
N11305 G1 X62.865 Y316.978
N11310 X63.222 Y317.14 F6000.
N11315 X63.634 Y317.327 F3000.
N11320 G3 X63.81 Y317.589 I-0.124 J0.273
N11325 G1 Y318.157
N11330 X63.803 Y318.306
N11335 X63.762 Y318.451
N11340 X63.694 Y318.584
N11345 X63.601 Y318.702
N11350 X63.491 Y318.804
N11355 X63.365 Y318.886
N11360 X63.229 Y318.949
N11365 X63.085 Y318.992
N11370 X63.069 Y318.995
N11375 X62.869 Y318.997
N11380 X62.676 Y318.942
N11385 X62.506 Y318.835
N11390 X62.374 Y318.684
N11395 X62.29 Y318.502
N11400 X62.262 Y318.303
N11405 Y317.732
N11410 G3 X62.684 Y317.468 I0.3 J0.01
N11415 G1 X62.865 Y317.549
N11420 X63.221 Y317.709 F6000.
N11425 X63.633 Y317.893 F3000.
N11430 G3 X63.81 Y318.157 I-0.123 J0.274
N11435 G1 Y318.724
N11440 X63.803 Y318.874
N11445 X63.763 Y319.018
N11450 X63.696 Y319.152
N11455 X63.603 Y319.271
N11460 X63.493 Y319.373
N11465 X63.368 Y319.455
N11470 X63.233 Y319.519
N11475 X63.089 Y319.563
N11480 X63.071 Y319.566
N11485 X62.871 Y319.568
N11490 X62.677 Y319.514
N11495 X62.507 Y319.407
N11500 X62.375 Y319.256
N11505 X62.291 Y319.073
N11510 X62.262 Y318.874
N11515 Y318.303
N11520 G3 X62.683 Y318.039 I0.3 J0.01
N11525 G1 X62.865 Y318.12
N11530 X63.221 Y318.278 F6000.
N11535 X63.632 Y318.46 F3000.
N11540 G3 X63.81 Y318.724 I-0.122 J0.274
N11545 G1 Y319.291
N11550 X63.803 Y319.441
N11555 X63.764 Y319.586
N11560 X63.697 Y319.72
N11565 X63.606 Y319.839
N11570 X63.496 Y319.941
N11575 X63.371 Y320.024
N11580 X63.236 Y320.089
N11585 X63.092 Y320.133
N11590 X63.074 Y320.136
N11595 X62.872 Y320.139
N11600 X62.679 Y320.085
N11605 X62.508 Y319.978
N11610 X62.375 Y319.827
N11615 X62.291 Y319.644
N11620 X62.262 Y319.445
N11625 Y318.874
N11630 G3 X62.682 Y318.61 I0.3 J0.01
N11635 G1 X62.866 Y318.691
N11640 X63.22 Y318.846 F6000.
N11645 X63.631 Y319.027 F3000.
N11650 G3 X63.81 Y319.291 I-0.121 J0.275
N11655 G1 Y319.893
N11660 X63.803 Y320.043
N11665 X63.757 Y320.186
N11670 X63.684 Y320.317
N11675 X63.588 Y320.432
N11680 X63.475 Y320.531
N11685 X63.348 Y320.61
N11690 X63.211 Y320.671
N11695 X63.066 Y320.711
N11700 X63.058 Y320.712
N11705 X62.859 Y320.711
N11710 X62.669 Y320.654
N11715 X62.502 Y320.546
N11720 X62.372 Y320.396
N11725 X62.29 Y320.215
N11730 X62.262 Y320.019
N11735 Y319.445
N11740 G3 X62.69 Y319.184 I0.3 J0.01
N11745 G1 X62.863 Y319.266
N11750 X63.225 Y319.437 F6000.
N11755 X63.638 Y319.633 F3000.
N11760 G3 X63.81 Y319.893 I-0.128 J0.271
N11765 G1 Y320.46
N11770 X63.803 Y320.61
N11775 X63.758 Y320.754
N11780 X63.687 Y320.886
N11785 X63.592 Y321.001
N11790 X63.48 Y321.101
N11795 X63.353 Y321.181
N11800 X63.216 Y321.242
N11805 X63.071 Y321.283
N11810 X63.06 Y321.285
N11815 X62.861
N11820 X62.67 Y321.228
N11825 X62.503 Y321.121
N11830 X62.373 Y320.97
N11835 X62.29 Y320.789
N11840 X62.262 Y320.592
N11845 Y320.019
N11850 G3 X62.688 Y319.757 I0.3 J0.01
N11855 G1 X62.864 Y319.839
N11860 X63.224 Y320.007 F6000.
N11865 X63.637 Y320.199 F3000.
N11870 G3 X63.81 Y320.46 I-0.127 J0.272
N11875 G1 Y321.028
N11880 X63.803 Y321.177
N11885 X63.76 Y321.321
N11890 X63.689 Y321.454
N11895 X63.595 Y321.57
N11900 X63.483 Y321.671
N11905 X63.357 Y321.751
N11910 X63.22 Y321.813
N11915 X63.076 Y321.855
N11920 X63.063 Y321.857
N11925 X62.864 Y321.858
N11930 X62.672 Y321.802
N11935 X62.504 Y321.694
N11940 X62.373 Y321.544
N11945 X62.29 Y321.362
N11950 X62.262 Y321.165
N11955 Y320.592
N11960 G3 X62.687 Y320.33 I0.3 J0.01
N11965 G1 X62.864 Y320.411
N11970 X63.223 Y320.576 F6000.
N11975 X63.635 Y320.766 F3000.
N11980 G3 X63.81 Y321.028 I-0.125 J0.273
N11985 G1 Y321.595
N11990 X63.803 Y321.745
N11995 X63.761 Y321.889
N12000 X63.692 Y322.022
N12005 X63.598 Y322.139
N12010 X63.487 Y322.24
N12015 X63.361 Y322.321
N12020 X63.225 Y322.384
N12025 X63.081 Y322.427
N12030 X63.066 Y322.429
N12035 X62.866 Y322.43
N12040 X62.674 Y322.375
N12045 X62.505 Y322.267
N12050 X62.374 Y322.116
N12055 X62.29 Y321.935
N12060 X62.262 Y321.737
N12065 Y321.165
N12070 G3 X62.685 Y320.902 I0.3 J0.01
N12075 G1 X62.865 Y320.983
N12080 X63.222 Y321.145 F6000.
N12085 X63.634 Y321.332 F3000.
N12090 G3 X63.81 Y321.595 I-0.124 J0.273
N12095 G1 Y322.191
N12100 X63.803 Y322.341
N12105 X63.755 Y322.483
N12110 X63.682 Y322.614
N12115 X63.585 Y322.728
N12120 X63.472 Y322.826
N12125 X63.344 Y322.905
N12130 X63.206 Y322.965
N12135 X63.061 Y323.004
N12140 X63.054 Y323.005
N12145 X62.856 Y323.003
N12150 X62.667 Y322.946
N12155 X62.501 Y322.838
N12160 X62.372 Y322.687
N12165 X62.29 Y322.507
N12170 X62.262 Y322.311
N12175 Y321.737
N12180 G3 X62.691 Y321.477 I0.3 J0.01
N12185 G1 X62.863 Y321.559
N12190 X63.226 Y321.733 F6000.
N12195 X63.64 Y321.931 F3000.
N12200 G3 X63.81 Y322.191 I-0.13 J0.271
N12205 G1 Y322.758
N12210 X63.803 Y322.908
N12215 X63.757 Y323.051
N12220 X63.685 Y323.182
N12225 X63.589 Y323.298
N12230 X63.476 Y323.397
N12235 X63.349 Y323.476
N12240 X63.212 Y323.537
N12245 X63.067 Y323.577
N12250 X63.057 Y323.578
N12255 X62.859 Y323.577
N12260 X62.668 Y323.521
N12265 X62.502 Y323.413
N12270 X62.372 Y323.262
N12275 X62.29 Y323.081
N12280 X62.262 Y322.885
N12285 Y322.311
N12290 G3 X62.689 Y322.05 I0.3 J0.01
N12295 G1 X62.864 Y322.132
N12300 X63.225 Y322.302 F6000.
N12305 X63.638 Y322.497 F3000.
N12310 G3 X63.81 Y322.758 I-0.128 J0.271
N12315 G1 Y323.042
N12320 X63.808 Y323.183
N12325 X63.805 Y323.325
N12330 X63.794 Y323.475
N12335 X63.751 Y323.618
N12340 X63.68 Y323.751
N12345 X63.585 Y323.867
N12350 X63.473 Y323.966
N12355 X63.346 Y324.046
N12360 X63.209 Y324.107
N12365 X63.16 Y324.121
N12370 X62.952 Y324.147
N12375 X62.745 Y324.11
N12380 X62.559 Y324.013
N12385 X62.409 Y323.866
N12390 X62.311 Y323.681
N12395 X62.271 Y323.475
N12400 G3 X62.525 Y323.177 I0.3 J-0.001
N12405 G1 X62.88 Y323.122
N12410 X63.19 Y323.074 F6000.
N12415 X63.459 Y323.033 F3000.
N12420 G3 X63.805 Y323.325 I0.046 J0.296
N12425 G1 X63.802 Y323.467
N12430 X63.797 Y323.609
N12435 X63.786 Y323.751
N12440 X63.77 Y323.892
N12445 X63.741 Y324.034
N12450 X63.732 Y324.07
N12455 X63.726 Y324.087
N12460 X63.685 Y324.176
N12465 X63.684 Y324.179
N12470 X63.664 Y324.221
N12475 X63.594 Y324.354
N12480 X63.493 Y324.465
N12485 X63.382 Y324.534
N12490 X63.26 Y324.58
N12495 X63.131 Y324.604
N12500 G3 X62.938 Y324.063 I-0.016 J-0.3
N12505 G1 X62.952 Y324.052
N12510 X63.207 Y323.864 F6000.
N12515 X63.21 Y323.862 F3000.
N12520 G3 X63.664 Y324.221 I0.178 J0.242
N12525 G1 X63.586 Y324.388
N12530 X63.567 Y324.423
N12535 X63.557 Y324.441
N12540 X63.541 Y324.46
N12545 X63.471 Y324.52
N12550 X63.435 Y324.547
N12555 X63.418 Y324.558
N12560 X63.4 Y324.565
N12565 X63.365 Y324.577
N12570 X63.258 Y324.592
N12575 X63.117 Y324.605
N12580 X62.975 Y324.608
N12585 X62.833 Y324.594
N12590 X62.691 Y324.576
N12595 X62.656 Y324.564
N12600 X62.638 Y324.554
N12605 X62.62 Y324.542
N12610 X62.55 Y324.482
N12615 X62.527 Y324.46
N12620 X62.514 Y324.442
N12625 X62.486 Y324.389
N12630 X62.449 Y324.318
N12635 X62.384 Y324.176
N12640 X62.355 Y324.105
N12645 X62.334 Y324.034
N12650 X62.304 Y323.892
N12655 X62.287 Y323.751
N12660 X62.276 Y323.609
N12665 X62.271 Y323.467
N12670 X62.264 Y323.183
N12675 X62.262 Y323.042
N12680 Y322.885
N12685 G0 Z5.
N12690 X53.831 Y329.963
N12695 Z-0.4
N12700 G1 Z-0.7 F3000.
N12705 X53.835 Y329.97 Z-0.767
N12710 X53.847 Y329.989 Z-0.83
N12715 X53.865 Y330.02 Z-0.887
N12720 X53.889 Y330.061 Z-0.935
N12725 X53.918 Y330.109 Z-0.97
N12730 X53.951 Y330.164 Z-0.992
N12735 X53.985 Y330.221 Z-1.
N12740 G3 X54.45 Y331.804 I-2.858 J1.699
N12745 G1 Y332.684
N12750 X54.442 Y332.834
N12755 X54.371 Y332.998
N12760 X54.247 Y333.127
N12765 X54.086 Y333.204
N12770 X53.908 Y333.22
N12775 G3 X53.722 Y332.721 I0.038 J-0.298
N12780 G1 X53.811 Y332.623
N12785 X53.878 Y332.548 F6000.
N12790 X53.927 Y332.494 F3000.
N12795 G3 X54.45 Y332.684 I0.223 J0.201
N12800 G1 Y333.109
N12805 X54.448 Y333.145
N12810 X54.445 Y333.163
N12815 X54.439 Y333.18
N12820 X54.431 Y333.198
N12825 X54.42 Y333.216
N12830 X54.411 Y333.226
N12835 X54.401 Y333.236
N12840 X54.382 Y333.251
N12845 X54.354 Y333.267
N12850 X54.34 Y333.274
N12855 X54.326 Y333.279
N12860 X54.308 Y333.283
N12865 X54.291 Y333.286
N12870 X54.273
N12875 X54.255 Y333.284
N12880 X54.184 Y333.263
N12885 X54.138 Y333.251
N12890 X54.043 Y333.232
N12895 X53.901 Y333.219
N12900 X53.617 Y333.209
N12905 X53.475 Y333.206
N12910 X53.192
N12915 G0 Z5.
N12920 X53.048 Y332.588
N12925 Z-0.4
N12930 G1 Z-0.7 F3000.
N12935 X53.042 Y332.592 Z-0.767
N12940 X53.022 Y332.603 Z-0.83
N12945 X52.992 Y332.621 Z-0.887
N12950 X52.951 Y332.645 Z-0.935
N12955 X52.902 Y332.675 Z-0.97
N12960 X52.847 Y332.707 Z-0.992
N12965 X52.79 Y332.741 Z-1.
N12970 G3 X51.207 Y333.206 I-1.699 J-2.858
N12975 G1 X50.356
N12980 X50.206 Y333.198
N12985 X50.047 Y333.137
N12990 X49.917 Y333.026
N12995 X49.833 Y332.877
N13000 X49.803 Y332.708
N13005 G3 X50.286 Y332.481 I0.3 J0.01
N13010 G1 X50.387 Y332.559
N13015 X50.489 Y332.638 F6000.
N13020 X50.529 Y332.669 F3000.
N13025 G3 X50.356 Y333.206 I-0.183 J0.238
N13030 G1 X49.966
N13035 X49.949 Y333.204
N13040 X49.931 Y333.201
N13045 X49.917 Y333.196
N13050 X49.903 Y333.19
N13055 X49.889 Y333.182
N13060 X49.857 Y333.158
N13065 X49.839 Y333.141
N13070 X49.828 Y333.125
N13075 X49.819 Y333.109
N13080 X49.811 Y333.092
N13085 X49.806 Y333.074
N13090 X49.804 Y333.056
N13095 X49.803 Y332.968
N13100 Y331.975
N13105 G0 Z5.
N13110 X71.849 Y330.026
N13115 Z-0.4
N13120 G1 Z-0.7 F3000.
N13125 X71.856 Y330.03 Z-0.767
N13130 X71.875 Y330.041 Z-0.83
N13135 X71.905 Y330.06 Z-0.887
N13140 X71.945 Y330.085 Z-0.935
N13145 X71.994 Y330.115 Z-0.97
N13150 X72.047 Y330.149 Z-0.992
N13155 X72.104 Y330.184 Z-1.
N13160 G3 X73.403 Y331.202 I-4.048 J6.502
N13165 G1 X73.467 Y331.269
N13170 X73.538 Y331.327
N13175 X73.608 Y331.382
N13180 X73.648 Y331.408
N13185 X73.75 Y331.469
N13190 X73.892 Y331.539
N13195 X74.027 Y331.605
N13200 X74.141 Y331.702
N13205 X74.238 Y331.817
N13210 X74.318 Y331.944
N13215 X74.381 Y332.08
N13220 X74.385 Y332.092
N13225 X74.421 Y332.307
N13230 X74.388 Y332.523
N13235 X74.291 Y332.718
N13240 X74.138 Y332.874
N13245 X73.945 Y332.976
N13250 G3 X73.56 Y332.709 I-0.086 J-0.287
N13255 G1 X73.542 Y332.462
N13260 X73.512 Y332.041 F6000.
N13265 X73.498 Y331.845 F3000.
N13270 G3 X73.892 Y331.539 I0.299 J-0.021
N13275 G1 X73.92 Y331.55
N13280 X74.034 Y331.587
N13285 X74.176 Y331.624
N13290 X74.317 Y331.648
N13295 X74.465 Y331.673
N13300 X74.598 Y331.743
N13305 X74.735 Y331.904
N13310 X74.814 Y332.101
N13315 X74.826 Y332.313
N13320 X74.77 Y332.517
N13325 X74.651 Y332.693
N13330 X74.483 Y332.822
N13335 X74.283 Y332.891
N13340 G3 X73.945 Y332.559 I-0.04 J-0.297
N13345 G1 X73.973 Y332.321
N13350 X73.98 Y332.261 F6000.
N13355 X74.021 Y331.912 F3000.
N13360 G3 X74.317 Y331.648 I0.298 J0.035
N13365 G1 X74.459 Y331.652
N13370 X74.679 Y331.655
N13375 X74.829 Y331.665
N13380 X74.968 Y331.721
N13385 X75.088 Y331.811
N13390 X75.195 Y331.99
N13395 X75.24 Y332.193
N13400 X75.217 Y332.4
N13405 X75.131 Y332.59
N13410 X74.989 Y332.743
N13415 X74.806 Y332.842
N13420 X74.601 Y332.879
N13425 G3 X74.309 Y332.542 I0.006 J-0.3
N13430 G1 X74.343 Y332.272
N13435 X74.387 Y331.918
N13440 G3 X74.679 Y331.655 I0.298 J0.037
N13445 G1 X74.885 Y331.657
N13450 X75.104
N13455 X75.254 Y331.664
N13460 X75.392 Y331.724
N13465 X75.526 Y331.871
N13470 X75.609 Y332.051
N13475 X75.633 Y332.248
N13480 X75.597 Y332.444
N13485 X75.502 Y332.619
N13490 X75.36 Y332.757
N13495 X75.182 Y332.846
N13500 X74.986 Y332.876
N13505 X74.743 Y332.877
N13510 X74.601 Y332.879
N13515 G3 X74.374 Y332.389 I0.006 J-0.3
N13520 G1 X74.446 Y332.301
N13525 X74.547 Y332.178 F6000.
N13530 X74.882 Y331.767 F3000.
N13535 X74.928 Y331.722
N13540 X74.981 Y331.688
N13545 X75.041 Y331.666
N13550 X75.104 Y331.657
N13555 X75.495
N13560 X75.644 Y331.664
N13565 X75.782 Y331.725
N13570 X75.9 Y331.817
N13575 X76.004 Y331.997
N13580 X76.046 Y332.201
N13585 X76.021 Y332.408
N13590 X75.931 Y332.596
N13595 X75.787 Y332.746
N13600 X75.603 Y332.843
N13605 X75.397 Y332.876
N13610 X74.986
N13615 G3 X74.764 Y332.386 I0.01 J-0.3
N13620 G1 X74.839 Y332.294
N13625 X74.936 Y332.177 F6000.
N13630 X75.273 Y331.766 F3000.
N13635 X75.319 Y331.722
N13640 X75.372 Y331.688
N13645 X75.432 Y331.666
N13650 X75.495 Y331.657
N13655 X75.92
N13660 X76.07 Y331.664
N13665 X76.206 Y331.726
N13670 X76.338 Y331.875
N13675 X76.418 Y332.056
N13680 X76.44 Y332.253
N13685 X76.402 Y332.447
N13690 X76.307 Y332.621
N13695 X76.164 Y332.758
N13700 X75.987 Y332.846
N13705 X75.791 Y332.876
N13710 X75.397
N13715 G3 X75.178 Y332.383 I0.01 J-0.3
N13720 G1 X75.252 Y332.295
N13725 X75.356 Y332.172 F6000.
N13730 X75.701 Y331.763 F3000.
N13735 X75.746 Y331.72
N13740 X75.799 Y331.687
N13745 X75.858 Y331.666
N13750 X75.92 Y331.657
N13755 X76.302
N13760 X76.452 Y331.664
N13765 X76.59 Y331.725
N13770 X76.708 Y331.817
N13775 X76.812 Y331.997
N13780 X76.853 Y332.201
N13785 X76.827 Y332.408
N13790 X76.738 Y332.596
N13795 X76.593 Y332.746
N13800 X76.409 Y332.843
N13805 X76.203 Y332.876
N13810 X75.791
N13815 G3 X75.57 Y332.385 I0.01 J-0.3
N13820 G1 X75.645 Y332.295
N13825 X75.743 Y332.176 F6000.
N13830 X76.081 Y331.766 F3000.
N13835 X76.127 Y331.722
N13840 X76.18 Y331.688
N13845 X76.24 Y331.666
N13850 X76.302 Y331.657
N13855 X76.728
N13860 X76.878 Y331.664
N13865 X77.018 Y331.717
N13870 X77.14 Y331.805
N13875 X77.253 Y331.981
N13880 X77.304 Y332.186
N13885 X77.285 Y332.395
N13890 X77.2 Y332.587
N13895 X77.057 Y332.742
N13900 X76.872 Y332.841
N13905 X76.665 Y332.876
N13910 X76.203
N13915 G3 X75.985 Y332.382 I0.01 J-0.3
N13920 G1 X76.059 Y332.295
N13925 X76.163 Y332.172 F6000.
N13930 X76.509 Y331.763 F3000.
N13935 X76.554 Y331.72
N13940 X76.607 Y331.687
N13945 X76.666 Y331.666
N13950 X76.728 Y331.657
N13955 X78.996
N13960 X79.181 Y331.652
N13965 X79.233 Y331.657
N13970 X79.284 Y331.671
N13975 X79.331 Y331.693
N13980 X79.374 Y331.723
N13985 X79.814 Y332.094
N13990 X80.77 Y332.902 F6000.
N13995 X80.811 Y332.943
N14000 X80.842 Y332.991
N14005 X80.864 Y333.044
N14010 G3 X80.372 Y333.35 I-0.287 J0.087 F3000.
N14015 G1 X80.272 Y333.25
N14020 X80.13 Y333.138
N14025 X80.083 Y333.109
N14030 X79.989 Y333.056
N14035 X79.847 Y332.99
N14040 X79.705 Y332.937
N14045 X79.492 Y332.891
N14050 X79.138 Y332.879
N14055 X78.996 Y332.876
N14060 X76.665
N14065 G3 X76.375 Y332.577 I0.01 J-0.3
N14070 G1 Y332.576
N14075 G3 X76.534 Y332.311 I0.3 J0.
N14080 G1 X76.583 Y332.291 F6000.
N14085 X76.635 Y332.279
N14090 X81.049 Y331.688
N14095 G3 X81.129 Y332.283 I0.04 J0.297
N14100 X80.791 Y332.022 I-0.04 J-0.297
N14105 X80.734 Y331.157 I7.601 J-0.94
N14110 X80.766 Y330.372 I7.659 J-0.075 F3000.
N14115 G1 X80.779 Y330.273
N14120 X80.785 Y330.132
N14125 Y329.628
N14130 X80.792 Y329.478
N14135 X80.827 Y329.332
N14140 X80.883 Y329.193
N14145 X80.957 Y329.063
N14150 X81.046 Y328.942
N14155 X81.148 Y328.832
N14160 X81.261 Y328.733
N14165 X81.382 Y328.645
N14170 X81.511 Y328.569
N14175 X81.647 Y328.504
N14180 X81.787 Y328.451
N14185 X81.933 Y328.409
N14190 X81.949 Y328.406
N14195 X82.157 Y328.395
N14200 X82.359 Y328.447
N14205 X82.537 Y328.556
N14210 X82.675 Y328.712
N14215 X82.869 Y328.997
N14220 X82.969 Y329.139
N14225 X83.108 Y329.312
N14230 G3 X82.889 Y329.791 I-0.24 J0.18
N14235 G1 X82.747 Y329.801
N14240 X81.408 Y329.896 F6000.
N14245 X81.106 Y329.917 F3000.
N14250 G3 X80.785 Y329.628 I-0.021 J-0.299
N14255 G1 Y328.855
N14260 X80.792 Y328.706
N14265 X80.831 Y328.561
N14270 X80.89 Y328.423
N14275 X80.967 Y328.294
N14280 X81.058 Y328.175
N14285 X81.162 Y328.067
N14290 X81.277 Y327.971
N14295 X81.402 Y327.887
N14300 X81.411 Y327.883
N14305 X81.615 Y327.816
N14310 X81.829 Y327.814
N14315 X82.034 Y327.877
N14320 X82.21 Y327.999
N14325 X82.341 Y328.169
N14330 X82.399 Y328.274
N14335 X82.495 Y328.43
N14340 X82.612 Y328.614
N14345 X82.675 Y328.712
N14350 G3 X82.413 Y329.166 I-0.258 J0.154
N14355 G1 X82.265 Y329.164
N14360 X81.409 Y329.15 F6000.
N14365 X81.08 Y329.145 F3000.
N14370 G3 X80.785 Y328.855 I0.005 J-0.3
N14375 G1 Y328.146
N14380 X80.792 Y327.997
N14385 X80.826 Y327.851
N14390 X80.888 Y327.714
N14395 X80.971 Y327.589
N14400 X80.993 Y327.566
N14405 X81.173 Y327.429
N14410 X81.386 Y327.356
N14415 X81.611 Y327.355
N14420 X81.826 Y327.426
N14425 X82.006 Y327.561
N14430 X82.134 Y327.746
N14435 X82.19 Y327.863
N14440 X82.329 Y328.146
N14445 X82.341 Y328.169
N14450 G3 X82.023 Y328.6 I-0.268 J0.136
N14455 G1 X81.902 Y328.58
N14460 X81.404 Y328.495 F6000.
N14465 X81.034 Y328.432 F3000.
N14470 G3 X80.785 Y328.146 I0.05 J-0.296
N14475 G1 Y327.536
N14480 X80.792 Y327.386
N14485 X80.844 Y327.246
N14490 X80.977 Y327.1
N14495 X81.15 Y327.001
N14500 X81.343 Y326.96
N14505 X81.54 Y326.98
N14510 X81.722 Y327.06
N14515 X81.871 Y327.19
N14520 X81.973 Y327.36
N14525 X82.004 Y327.437
N14530 X82.123 Y327.721
N14535 X82.134 Y327.746
N14540 G3 X81.739 Y328.14 I-0.275 J0.119
N14545 G1 X81.677 Y328.113
N14550 X81.375 Y327.981 F6000.
N14555 X80.964 Y327.801 F3000.
N14560 G3 X80.785 Y327.536 I0.12 J-0.275
N14565 G1 Y327.111
N14570 X80.792 Y326.961
N14575 X80.848 Y326.822
N14580 X80.994 Y326.687
N14585 X81.178 Y326.611
N14590 X81.377 Y326.605
N14595 X81.565 Y326.667
N14600 X81.72 Y326.792
N14605 X81.821 Y326.963
N14610 X81.947 Y327.296
N14615 X81.973 Y327.36
N14620 G3 X81.537 Y327.721 I-0.282 J0.103
N14625 G1 X81.496 Y327.696
N14630 X81.348 Y327.607 F6000.
N14635 X80.93 Y327.358 F3000.
N14640 G3 X80.785 Y327.111 I0.154 J-0.257
N14645 G1 Y326.728
N14650 X80.792 Y326.579
N14655 X80.853 Y326.441
N14660 X80.986 Y326.328
N14665 X81.15 Y326.269
N14670 X81.324 Y326.271
N14675 X81.487 Y326.334
N14680 X81.617 Y326.45
N14685 X81.699 Y326.604
N14690 X81.739 Y326.728
N14695 X81.787 Y326.87
N14700 X81.821 Y326.963
N14705 G3 X81.68 Y327.286 I-0.249 J0.084
N14710 X81.29 Y327.328 I-0.261 J-0.579
N14715 G1 X81.232 Y327.313 F6000.
N14720 G3 X80.785 Y326.728 I0.188 J-0.607 F3000.
N14725 G1 Y326.367
N14730 X80.793 Y326.216
N14735 X80.901 Y326.079
N14740 X81.055 Y325.995
N14745 X81.229 Y325.978
N14750 X81.396 Y326.031
N14755 X81.529 Y326.146
N14760 X81.606 Y326.303
N14765 X81.648 Y326.445
N14770 X81.699 Y326.604
N14775 G3 X81.56 Y326.88 I-0.221 J0.062
N14780 X80.785 Y326.367 I-0.205 J-0.533
N14785 G1 Y326.048
N14790 X80.792 Y325.898
N14795 X80.868 Y325.769
N14800 X81.013 Y325.688
N14805 X81.178 Y325.673
N14810 X81.336 Y325.725
N14815 X81.459 Y325.836
N14820 X81.527 Y325.988
N14825 X81.548 Y326.08
N14830 X81.606 Y326.303
N14835 G3 X81.461 Y326.545 I-0.2 J0.044
N14840 X80.785 Y326.048 I-0.142 J-0.515
N14845 G1 Y325.736
N14850 X80.792 Y325.586
N14855 X80.871 Y325.458
N14860 X81.008 Y325.39
N14865 X81.161 Y325.383
N14870 X81.303 Y325.437
N14875 X81.412 Y325.544
N14880 X81.469 Y325.686
N14885 X81.503 Y325.878
N14890 X81.527 Y325.988
N14895 G3 X81.386 Y326.201 I-0.181 J0.033
N14900 X80.785 Y325.736 I-0.108 J-0.482
N14905 G1 Y325.452
N14910 X80.792 Y325.302
N14915 X80.869 Y325.174
N14920 X80.999 Y325.112
N14925 X81.143 Y325.108
N14930 X81.275 Y325.164
N14935 X81.374 Y325.268
N14940 X81.422 Y325.404
N14945 X81.428 Y325.452
N14950 X81.469 Y325.686
N14955 Y325.736
N14960 X81.454 Y325.783
N14965 X81.426 Y325.824
N14970 X81.388 Y325.856
N14975 X81.342 Y325.874
N14980 G3 X80.785 Y325.452 I-0.107 J-0.438
N14985 G1 Y325.169
N14990 X80.792 Y325.019
N14995 X80.873 Y324.893
N15000 X80.997 Y324.839
N15005 X81.131 Y324.84
N15010 X81.254 Y324.895
N15015 X81.344 Y324.994
N15020 X81.387 Y325.122
N15025 X81.416 Y325.362
N15030 X81.422 Y325.404
N15035 X81.419 Y325.449
N15040 X81.404 Y325.493
N15045 X81.376 Y325.529
N15050 X81.34 Y325.557
N15055 X81.296 Y325.572
N15060 G3 X80.785 Y325.169 I-0.085 J-0.419
N15065 G1 Y324.885
N15070 X80.788 Y324.81
N15075 X80.847 Y324.672
N15080 X80.967 Y324.606
N15085 X81.103 Y324.598
N15090 X81.23 Y324.649
N15095 X81.322 Y324.75
N15100 X81.362 Y324.88
N15105 X81.376 Y325.027
N15110 X81.387 Y325.122
N15115 X81.384 Y325.166
N15120 X81.368 Y325.208
N15125 X81.341 Y325.243
N15130 X81.304 Y325.268
N15135 X81.261 Y325.281
N15140 G3 X80.785 Y324.885 I-0.062 J-0.411
N15145 G1 Y324.63
N15150 X80.788 Y324.555
N15155 X80.853 Y324.42
N15160 X80.969 Y324.362
N15165 X81.099 Y324.359
N15170 X81.219 Y324.411
N15175 X81.305 Y324.508
N15180 X81.343 Y324.633
N15185 X81.362 Y324.88
N15190 X81.357 Y324.924
N15195 X81.34 Y324.963
N15200 X81.311 Y324.996
N15205 X81.274 Y325.018
N15210 X81.232 Y325.028
N15215 G3 X80.785 Y324.63 I-0.034 J-0.412
N15220 G1 Y324.387
N15225 X80.788 Y324.312
N15230 X80.855 Y324.177
N15235 X80.969 Y324.124
N15240 X81.096 Y324.123
N15245 X81.212 Y324.176
N15250 X81.294 Y324.273
N15255 X81.327 Y324.396
N15260 X81.331 Y324.46
N15265 X81.343 Y324.633
N15270 X81.338 Y324.675
N15275 X81.321 Y324.713
N15280 X81.293 Y324.745
N15285 X81.256 Y324.766
N15290 X81.215 Y324.775
N15295 G3 X80.785 Y324.387 I-0.027 J-0.403
N15300 G1 Y324.133
N15305 X80.788 Y324.058
N15310 X80.862 Y323.928
N15315 X80.975 Y323.881
N15320 X81.096 Y323.885
N15325 X81.206 Y323.938
N15330 X81.283 Y324.032
N15335 X81.315 Y324.15
N15340 X81.327 Y324.396
N15345 X81.321 Y324.437
N15350 X81.302 Y324.475
N15355 X81.272 Y324.505
N15360 X81.235 Y324.525
N15365 X81.193 Y324.531
N15370 G3 X80.785 Y324.133 I0.004 J-0.412
N15375 G1 Y323.921
N15380 X80.788 Y323.846
N15385 X80.851 Y323.71
N15390 X80.964 Y323.657
N15395 X81.09 Y323.658
N15400 X81.202 Y323.713
N15405 X81.28 Y323.811
N15410 X81.308 Y323.933
N15415 G3 X81.165 Y324.18 I-0.3 J-0.009
N15420 G1 X81.121 Y324.2
N15425 X81.074 Y324.208
N15430 X81.027 Y324.205
N15435 G3 X80.785 Y323.921 I0.058 J-0.294
N15440 G1 Y323.678
N15445 X80.788 Y323.603
N15450 X80.858 Y323.47
N15455 X80.972 Y323.423
N15460 X81.096 Y323.428
N15465 X81.205 Y323.484
N15470 X81.281 Y323.582
N15475 X81.308 Y323.703
N15480 X81.304 Y323.728
N15485 G3 X80.785 Y323.678 I-0.257 J-0.059
N15490 G1 Y323.467
N15495 X80.788 Y323.392
N15500 X80.849 Y323.255
N15505 X80.966 Y323.201
N15510 X81.094 Y323.203
N15515 X81.208 Y323.261
N15520 X81.286 Y323.363
N15525 X81.311 Y323.489
N15530 X81.308 Y323.609
N15535 Y323.703
N15540 X81.301 Y323.739
N15545 X81.284 Y323.773
N15550 X81.259 Y323.8
N15555 X81.226 Y323.818
N15560 X81.19 Y323.827
N15565 G3 X80.785 Y323.467 I-0.031 J-0.373
N15570 G1 Y323.247
N15575 X80.788 Y323.172
N15580 X80.847 Y323.034
N15585 X80.967 Y322.978
N15590 X81.099 Y322.98
N15595 X81.216 Y323.04
N15600 X81.295 Y323.145
N15605 X81.32 Y323.275
N15610 X81.311 Y323.489
N15615 X81.303 Y323.525
N15620 X81.286 Y323.558
N15625 X81.26 Y323.584
N15630 X81.228 Y323.602
N15635 X81.192 Y323.61
N15640 G3 X80.785 Y323.247 I-0.03 J-0.376
N15645 G1 Y322.999
N15650 X80.788 Y322.924
N15655 X80.858 Y322.791
N15660 X80.981 Y322.74
N15665 X81.114 Y322.747
N15670 X81.231 Y322.812
N15675 X81.308 Y322.92
N15680 X81.331 Y323.052
N15685 X81.321 Y323.234
N15690 X81.32 Y323.275
N15695 X81.311 Y323.314
N15700 X81.29 Y323.348
N15705 X81.261 Y323.375
N15710 X81.224 Y323.392
N15715 X81.185 Y323.396
N15720 G3 X80.785 Y322.999 I0.012 J-0.412
N15725 G1 Y322.787
N15730 X80.788 Y322.712
N15735 X80.848 Y322.574
N15740 X80.975 Y322.512
N15745 X81.116 Y322.514
N15750 X81.241 Y322.579
N15755 X81.324 Y322.693
N15760 X81.347 Y322.833
N15765 X81.331 Y323.052
N15770 X81.322 Y323.089
N15775 X81.303 Y323.123
N15780 X81.274 Y323.15
N15785 X81.24 Y323.167
N15790 X81.202 Y323.174
N15795 G3 X80.785 Y322.787 I-0.016 J-0.402
N15800 G1 Y322.543
N15805 X80.788 Y322.468
N15810 X80.854 Y322.333
N15815 X80.858 Y322.33
N15820 X80.991 Y322.27
N15825 X81.138 Y322.276
N15830 X81.265 Y322.348
N15835 X81.346 Y322.471
N15840 X81.363 Y322.616
N15845 X81.347 Y322.833
N15850 X81.336 Y322.872
N15855 X81.315 Y322.907
N15860 X81.284 Y322.934
N15865 X81.247 Y322.951
N15870 X81.207 Y322.956
N15875 G3 X80.785 Y322.543 I0.005 J-0.428
N15880 G1 Y322.29
N15885 X80.788 Y322.215
N15890 X80.859 Y322.083
N15895 X81.001 Y322.021
N15900 X81.155 Y322.029
N15905 X81.288 Y322.106
N15910 X81.373 Y322.234
N15915 X81.391 Y322.388
N15920 X81.363 Y322.616
N15925 X81.35 Y322.657
N15930 X81.326 Y322.692
N15935 X81.292 Y322.718
N15940 X81.252 Y322.734
N15945 X81.21 Y322.737
N15950 G3 X80.785 Y322.29 I0.039 J-0.463
N15955 G1 Y322.078
N15960 X80.788 Y322.003
N15965 X80.841 Y321.862
N15970 X80.962 Y321.787
N15975 X81.104 Y321.768
N15980 X81.241 Y321.807
N15985 X81.35 Y321.9
N15990 X81.413 Y322.028
N15995 X81.418 Y322.171
N16000 G3 X80.909 Y322.317 I-0.293 J-0.062
N16005 G1 X80.869 Y322.276
N16010 X80.834 Y322.233
N16015 X80.808 Y322.185
N16020 X80.792 Y322.132
N16025 X80.785 Y322.078
N16030 Y321.829
N16035 X80.788 Y321.754
N16040 X80.84 Y321.613
N16045 X80.97 Y321.532
N16050 X81.123 Y321.51
N16055 X81.271 Y321.553
N16060 X81.388 Y321.653
N16065 X81.455 Y321.792
N16070 X81.459 Y321.946
N16075 G3 X80.985 Y322.12 I-0.293 J-0.065
N16080 G1 X80.903 Y322.058
N16085 G3 X80.785 Y321.829 I0.181 J-0.239
N16090 G1 Y321.581
N16095 X80.792 Y321.431
N16100 X80.871 Y321.303
N16105 X81.016 Y321.233
N16110 X81.177 Y321.226
N16115 X81.328 Y321.283
N16120 X81.445 Y321.395
N16125 X81.507 Y321.544
N16130 X81.505 Y321.706
N16135 X81.492 Y321.765
N16140 X81.459 Y321.946
N16145 X81.443 Y321.989
N16150 X81.416 Y322.025
N16155 X81.38 Y322.054
N16160 X81.338 Y322.071
N16165 X81.293 Y322.077
N16170 G3 X80.785 Y321.581 I0.006 J-0.514
N16175 G1 Y321.297
N16180 X80.792 Y321.147
N16185 X80.868 Y321.018
N16190 X81.031 Y320.938
N16195 X81.212 Y320.93
N16200 X81.381 Y320.997
N16205 X81.508 Y321.126
N16210 X81.571 Y321.296
N16215 X81.56 Y321.477
N16220 X81.548 Y321.521
N16225 X81.523 Y321.624
N16230 X81.505 Y321.706
N16235 X81.487 Y321.752
N16240 X81.457 Y321.79
N16245 X81.417 Y321.82
N16250 X81.371 Y321.837
N16255 X81.322 Y321.842
N16260 G3 X80.785 Y321.297 I0.027 J-0.564
N16265 G1 Y320.984
N16270 X80.792 Y320.834
N16275 X80.873 Y320.708
N16280 X81.026 Y320.628
N16285 X81.198 Y320.607
N16290 X81.366 Y320.648
N16295 X81.509 Y320.746
N16300 X81.608 Y320.887
N16305 X81.651 Y321.055
N16310 X81.632 Y321.226
N16315 X81.598 Y321.34
N16320 X81.56 Y321.477
N16325 G3 X81.345 Y321.612 I-0.186 J-0.059
N16330 X80.785 Y320.984 I0.097 J-0.651
N16335 G1 Y320.695
N16340 X80.792 Y320.545
N16345 X80.863 Y320.413
N16350 X80.973 Y320.311
N16355 X81.144 Y320.255
N16360 X81.324 Y320.259
N16365 X81.492 Y320.323
N16370 X81.629 Y320.439
N16375 X81.719 Y320.595
N16380 X81.752 Y320.772
N16385 X81.724 Y320.949
N16390 X81.641 Y321.198
N16395 X81.632 Y321.226
N16400 G3 X81.403 Y321.371 I-0.203 J-0.068
N16405 X80.785 Y320.695 I0.087 J-0.701
N16410 G1 Y320.347
N16415 X80.792 Y320.198
N16420 X80.862 Y320.065
N16425 X80.966 Y319.957
N16430 X81.161 Y319.882
N16435 X81.37 Y319.879
N16440 X81.567 Y319.95
N16445 X81.727 Y320.084
N16450 X81.829 Y320.266
N16455 X81.863 Y320.473
N16460 X81.822 Y320.678
N16465 X81.784 Y320.773
N16470 X81.724 Y320.949
N16475 G3 X81.47 Y321.102 I-0.223 J-0.084
N16480 X80.785 Y320.347 I0.103 J-0.782
N16485 G1 Y319.986
N16490 X80.792 Y319.836
N16495 X80.857 Y319.701
N16500 X80.956 Y319.588
N16505 X81.145 Y319.499
N16510 X81.352 Y319.474
N16515 X81.557 Y319.514
N16520 X81.739 Y319.617
N16525 X81.879 Y319.772
N16530 X81.965 Y319.962
N16535 X81.986 Y320.17
N16540 X81.941 Y320.374
N16545 X81.822 Y320.678
N16550 G3 X81.311 Y320.745 I-0.275 J-0.119
N16555 G1 X81.219 Y320.628
N16560 X80.849 Y320.162
N16565 X80.815 Y320.108
N16570 X80.794 Y320.049
N16575 X80.785 Y319.986
N16580 Y319.595
N16585 X80.792 Y319.446
N16590 X80.856 Y319.31
N16595 X80.952 Y319.195
N16600 X81.071 Y319.104
N16605 X81.206 Y319.038
N16610 X81.35 Y318.997
N16615 X81.499 Y318.98
N16620 X81.509 Y318.981
N16625 X81.728 Y319.027
N16630 X81.921 Y319.141
N16635 X82.068 Y319.309
N16640 X82.155 Y319.516
N16645 X82.172 Y319.739
N16650 X82.117 Y319.956
N16655 X82.01 Y320.206
N16660 X81.952 Y320.347
N16665 X81.941 Y320.374
N16670 G3 X81.439 Y320.451 I-0.275 J-0.119
N16675 G1 X81.321 Y320.315
N16680 X81.239 Y320.221 F6000.
N16685 X80.858 Y319.782 F3000.
N16690 X80.819 Y319.726
N16695 X80.795 Y319.663
N16700 X80.785 Y319.595
N16705 Y319.17
N16710 X80.792 Y319.02
N16715 X80.843 Y318.879
N16720 X80.925 Y318.753
N16725 X81.031 Y318.647
N16730 X81.154 Y318.562
N16735 X81.29 Y318.498
N16740 X81.434 Y318.458
N16745 X81.583 Y318.438
N16750 X81.733 Y318.44
N16755 X81.881 Y318.463
N16760 X82.026 Y318.504
N16765 X82.045 Y318.512
N16770 X82.212 Y318.616
N16775 X82.343 Y318.762
N16780 X82.429 Y318.939
N16785 X82.462 Y319.132
N16790 X82.44 Y319.328
N16795 X82.365 Y319.509
N16800 X82.204 Y319.78
N16805 X82.132 Y319.922
N16810 X82.117 Y319.956
N16815 G3 X81.648 Y320.053 I-0.271 J-0.128
N16820 G1 X81.475 Y319.902
N16825 X81.293 Y319.742 F6000.
N16830 X80.887 Y319.385 F3000.
N16835 X80.845 Y319.34
N16840 X80.813 Y319.288
N16845 X80.793 Y319.231
N16850 X80.785 Y319.17
N16855 Y318.675
N16860 X80.792 Y318.525
N16865 X80.838 Y318.382
N16870 X80.913 Y318.252
N16875 X81.011 Y318.138
N16880 X81.125 Y318.04
N16885 X81.251 Y317.96
N16890 X81.387 Y317.896
N16895 X81.53 Y317.85
N16900 X81.677 Y317.823
N16905 X81.827 Y317.813
N16910 X81.977 Y317.822
N16915 X82.124 Y317.847
N16920 X82.268 Y317.89
N16925 X82.406 Y317.949
N16930 X82.465 Y317.983
N16935 X82.643 Y318.126
N16940 X82.765 Y318.319
N16945 X82.819 Y318.541
N16950 X82.798 Y318.769
N16955 X82.705 Y318.977
N16960 X82.457 Y319.355
N16965 X82.365 Y319.509
N16970 G3 X81.946 Y319.597 I-0.253 J-0.162
N16975 G1 X81.689 Y319.426
N16980 X81.335 Y319.191 F6000.
N16985 X80.918 Y318.914 F3000.
N16990 G3 X80.785 Y318.675 I0.166 J-0.25
N16995 G1 Y318.107
N17000 X80.792 Y317.958
N17005 X80.836 Y317.814
N17010 X80.907 Y317.682
N17015 X80.997 Y317.562
N17020 X81.103 Y317.456
N17025 X81.223 Y317.365
N17030 X81.352 Y317.289
N17035 X81.489 Y317.228
N17040 X81.631 Y317.181
N17045 X81.778 Y317.149
N17050 X81.927 Y317.131
N17055 X82.077 Y317.128
N17060 X82.226 Y317.14
N17065 X82.374 Y317.165
N17070 X82.519 Y317.204
N17075 X82.659 Y317.259
N17080 X82.793 Y317.326
N17085 X82.919 Y317.407
N17090 X83.036 Y317.5
N17095 X83.045 Y317.509
N17100 X83.172 Y317.675
N17105 X83.244 Y317.872
N17110 X83.254 Y318.08
N17115 X83.203 Y318.283
N17120 X83.094 Y318.462
N17125 X83.058 Y318.504
N17130 X82.945 Y318.646
N17135 X82.737 Y318.929
N17140 X82.705 Y318.977
N17145 G3 X82.323 Y319.07 I-0.245 J-0.174
N17150 G1 X82.006 Y318.907
N17155 X81.363 Y318.577 F6000.
N17160 X80.947 Y318.364 F3000.
N17165 G3 X80.785 Y318.107 I0.137 J-0.267
N17170 G1 Y317.511
N17175 X80.792 Y317.362
N17180 X80.829 Y317.216
N17185 X80.892 Y317.08
N17190 X80.974 Y316.954
N17195 X81.072 Y316.841
N17200 X81.183 Y316.74
N17205 X81.304 Y316.652
N17210 X81.434 Y316.576
N17215 X81.57 Y316.513
N17220 X81.711 Y316.464
N17225 X81.857 Y316.426
N17230 X82.005 Y316.401
N17235 X82.157 Y316.387
N17240 X82.316 Y316.386
N17245 X82.472 Y316.398
N17250 X82.629 Y316.422
N17255 X82.775 Y316.457
N17260 X82.921 Y316.505
N17265 X83.059 Y316.564
N17270 X83.192 Y316.633
N17275 X83.318 Y316.715
N17280 X83.436 Y316.807
N17285 X83.546 Y316.909
N17290 X83.645 Y317.022
N17295 X83.657 Y317.038
N17300 X83.752 Y317.219
N17305 X83.791 Y317.42
N17310 X83.77 Y317.623
N17315 X83.691 Y317.812
N17320 X83.561 Y317.97
N17325 X83.533 Y317.995
N17330 X83.391 Y318.133
N17335 X83.108 Y318.445
N17340 X83.094 Y318.462
N17345 G3 X82.754 Y318.537 I-0.223 J-0.201
N17350 G1 X82.373 Y318.375
N17355 X81.377 Y317.951 F6000.
N17360 X80.967 Y317.777 F3000.
N17365 G3 X80.785 Y317.511 I0.117 J-0.276
N17370 G1 Y316.831
N17375 X80.792 Y316.681
N17380 X80.83 Y316.536
N17385 X80.891 Y316.399
N17390 X80.97 Y316.272
N17395 X81.064 Y316.155
N17400 X81.17 Y316.049
N17405 X81.286 Y315.954
N17410 X81.411 Y315.871
N17415 X81.542 Y315.798
N17420 X81.685 Y315.734
N17425 X81.813 Y315.689
N17430 X81.939 Y315.658
N17435 X82.07 Y315.65
N17440 X82.199 Y315.668
N17445 G3 X82.326 Y316.194 I-0.063 J0.293
N17450 G1 X82.24 Y316.264
N17455 X81.366 Y316.978 F6000.
N17460 X81.274 Y317.053 F3000.
N17465 G3 X80.785 Y316.831 I-0.19 J-0.232
N17470 G1 Y316.122
N17475 X80.792 Y315.972
N17480 X80.798 Y315.949
N17485 X80.878 Y315.753
N17490 X81.015 Y315.592
N17495 X81.195 Y315.48
N17500 X81.401 Y315.43
N17505 X81.612 Y315.446
N17510 X81.808 Y315.526
N17515 G3 X81.811 Y316.053 I-0.142 J0.264
N17520 G1 X81.687 Y316.122
N17525 X81.381 Y316.291 F6000.
N17530 X81.229 Y316.374 F3000.
N17535 G3 X80.785 Y316.122 I-0.145 J-0.263
N17540 G1 Y315.625
N17545 X80.792 Y315.475
N17550 X80.879 Y315.327
N17555 X81.018 Y315.224
N17560 X81.185 Y315.183
N17565 X81.356 Y315.211
N17570 X81.501 Y315.304
N17575 X81.552 Y315.367
N17580 X81.592 Y315.438
N17585 G3 X81.415 Y315.977 I-0.385 J0.173
N17590 G1 X81.341 Y316.011 F6000.
N17595 G3 X80.785 Y315.625 I-0.135 J-0.4 F3000.
N17600 G1 Y315.271
N17605 X80.792 Y315.122
N17610 X80.871 Y315.027
N17615 X80.98 Y314.972
N17620 X81.103 Y314.964
N17625 X81.218 Y315.006
N17630 X81.307 Y315.09
N17635 X81.329 Y315.127
N17640 X81.345 Y315.167
N17645 G3 X81.126 Y315.545 I-0.272 J0.095
N17650 X80.785 Y315.271 I-0.053 J-0.283
N17655 G1 Y315.023
N17660 X80.788 Y314.948
N17665 X80.866 Y314.845
N17670 X80.986 Y314.801
N17675 X81.112 Y314.83
N17680 X81.201 Y314.923
N17685 X81.216 Y314.965
N17690 X81.222 Y315.01
N17695 G3 X80.785 Y315.023 I-0.219 J0.005
N17700 G1 Y314.846
N17705 Y314.817
N17710 Y314.778
N17715 X80.787 Y314.735
N17720 X80.864 Y314.668
N17725 X80.965 Y314.65
N17730 X81.061 Y314.687
N17735 X81.124 Y314.767
N17740 X81.13 Y314.795
N17745 X81.126 Y314.824
N17750 G3 X80.785 Y314.778 I-0.167 J-0.052
N17755 G1 X80.786 Y314.711
N17760 X80.789 Y314.693
N17765 X80.794 Y314.675
N17770 X80.801 Y314.659
N17775 X80.811 Y314.642
N17780 X80.825 Y314.625
N17785 X80.839 Y314.608
N17790 X80.857 Y314.593
N17795 X80.875 Y314.582
N17800 X80.893 Y314.574
N17805 X80.91 Y314.569
N17810 X80.928 Y314.566
N17815 X80.946 Y314.565
N17820 X80.963 Y314.566
N17825 X80.981 Y314.569
N17830 X80.995 Y314.573
N17835 X81.008 Y314.579
N17840 X81.022 Y314.586
N17845 X81.036 Y314.595
N17850 X81.047 Y314.604
N17855 X81.057 Y314.615
N17860 X81.073 Y314.635
N17865 X81.083 Y314.655
N17870 X81.09 Y314.675
N17875 X81.104 Y314.727
N17880 X81.108 Y314.78
N17885 X81.103 Y314.833
N17890 X81.016 Y315.43
N17895 X81.014 Y315.452
N17900 G2 X81.419 Y315.753 I0.299 J0.021 F6000.
N17905 G1 X81.426 Y315.751
N17910 G3 X82.199 Y315.668 I0.549 J1.484 F3000.
N17915 G1 X82.257 Y315.678
N17920 X82.399 Y315.697
N17925 X82.683 Y315.703
N17930 X82.884 Y315.718
N17935 X83.044 Y315.742
N17940 X83.206 Y315.781
N17945 X83.37 Y315.833
N17950 X83.516 Y315.894
N17955 X83.65 Y315.962
N17960 X83.788 Y316.048
N17965 X83.909 Y316.137
N17970 X84.022 Y316.236
N17975 X84.126 Y316.344
N17980 X84.22 Y316.46
N17985 X84.304 Y316.585
N17990 X84.31 Y316.596
N17995 X84.378 Y316.778
N18000 X84.393 Y316.971
N18005 X84.354 Y317.161
N18010 X84.265 Y317.333
N18015 X84.133 Y317.474
N18020 G3 X83.744 Y317.449 I-0.18 J-0.24
N18025 G1 X83.485 Y317.197
N18030 X82.534 Y316.273 F6000.
N18035 X82.478 Y316.219 F3000.
N18040 G3 X82.683 Y315.703 I0.209 J-0.215
N18045 G1 X82.824 Y315.707
N18050 X83.895 Y315.712
N18055 X84.045 Y315.72
N18060 X84.191 Y315.752
N18065 X84.332 Y315.803
N18070 X84.465 Y315.873
N18075 X84.588 Y315.959
N18080 X84.699 Y316.059
N18085 X84.73 Y316.095
N18090 X84.837 Y316.26
N18095 X84.895 Y316.448
N18100 X84.898 Y316.644
N18105 X84.846 Y316.834
N18110 X84.743 Y317.002
N18115 X84.598 Y317.134
N18120 X84.548 Y317.16
N18125 X84.494 Y317.175
N18130 X84.438 Y317.181
N18135 X84.437
N18140 G3 X84.182 Y317.038 I0. J-0.3
N18145 G1 X84.019 Y316.773
N18150 X83.731 Y316.303 F6000.
N18155 X83.648 Y316.168 F3000.
N18160 G3 X83.895 Y315.712 I0.256 J-0.157
N18165 G1 X84.639 Y315.715
N18170 X84.789 Y315.723
N18175 X84.982 Y315.818
N18180 X85.135 Y315.97
N18185 X85.231 Y316.164
N18190 X85.258 Y316.378
N18195 X85.215 Y316.589
N18200 X85.106 Y316.776
N18205 X84.943 Y316.916
N18210 G3 X84.503 Y316.722 I-0.147 J-0.262
N18215 G1 X84.452 Y316.5
N18220 X84.413 Y316.331 F6000.
N18225 X84.355 Y316.083 F3000.
N18230 G3 X84.639 Y315.715 I0.292 J-0.068
N18235 G1 X85.093 Y315.717
N18240 X85.243 Y315.726
N18245 X85.412 Y315.832
N18250 X85.53 Y315.993
N18255 X85.582 Y316.186
N18260 X85.56 Y316.384
N18265 X85.467 Y316.561
N18270 X85.315 Y316.692
N18275 X85.242 Y316.723
N18280 X85.163 Y316.741
N18285 X85.083 Y316.744
N18290 G3 X84.648 Y316.46 I0.025 J-0.513
N18295 G1 X84.618 Y316.385 F6000.
N18300 X84.6 Y316.306
N18305 X84.595 Y316.225
N18310 G3 X85.093 Y315.717 I0.514 J0.006 F3000.
N18315 G1 X85.454 Y315.719
N18320 X85.604 Y315.727
N18325 X85.738 Y315.817
N18330 X85.83 Y315.948
N18335 X85.867 Y316.105
N18340 X85.846 Y316.264
N18345 X85.768 Y316.404
N18350 X85.644 Y316.507
N18355 X85.587 Y316.53
N18360 X85.527 Y316.545
N18365 X85.465 Y316.549
N18370 G3 X85.454 Y315.719 I0.002 J-0.415
N18375 G1 X85.773 Y315.721
N18380 X85.923 Y315.729
N18385 X86.042 Y315.828
N18390 X86.108 Y315.97
N18395 X86.107 Y316.125
N18400 X86.04 Y316.266
N18405 X85.92 Y316.364
N18410 X85.855 Y316.386
N18415 X85.788 Y316.394
N18420 G3 X85.773 Y315.721 I-0.005 J-0.337
N18425 G1 X86.057 Y315.722
N18430 X86.131 Y315.726
N18435 X86.238 Y315.8
N18440 X86.301 Y315.914
N18445 X86.307 Y316.044
N18450 X86.254 Y316.163
N18455 X86.154 Y316.246
N18460 X86.101 Y316.263
N18465 X86.046 Y316.266
N18470 G3 X86.057 Y315.722 I0.018 J-0.272
N18475 G1 X86.27 Y315.723
N18480 X86.345 Y315.727
N18485 X86.445 Y315.814
N18490 X86.483 Y315.94
N18495 X86.446 Y316.068
N18500 X86.347 Y316.155
N18505 X86.307 Y316.167
N18510 X86.265 Y316.17
N18515 G3 X86.27 Y315.723 I0.012 J-0.223
N18520 G1 X86.442 Y315.724
N18525 X86.48
N18530 X86.511
N18535 X86.542 Y315.726
N18540 X86.615 Y315.804
N18545 X86.637 Y315.908
N18550 X86.602 Y316.009
N18555 X86.52 Y316.077
N18560 X86.488 Y316.084
N18565 X86.456 Y316.078
N18570 G3 X86.511 Y315.724 I0.06 J-0.172
N18575 G1 X86.582
N18580 X86.617 Y315.726
N18585 X86.635 Y315.73
N18590 X86.652 Y315.737
N18595 X86.672 Y315.746
N18600 X86.691 Y315.76
N18605 X86.704 Y315.773
N18610 X86.714 Y315.785
N18615 X86.722 Y315.797
N18620 X86.729 Y315.81
N18625 X86.736 Y315.828
N18630 X86.741 Y315.845
N18635 X86.743 Y315.863
N18640 X86.744 Y315.881
N18645 X86.743 Y315.898
N18650 X86.739 Y315.916
N18655 X86.734 Y315.934
N18660 X86.725 Y315.952
N18665 X86.719 Y315.963
N18670 X86.711 Y315.974
N18675 X86.701 Y315.985
N18680 X86.689 Y315.996
N18685 X86.671 Y316.008
N18690 X86.652 Y316.018
N18695 X86.369 Y316.145
N18700 X86.177 Y316.235
N18705 X85.802 Y316.424
N18710 X85.66 Y316.498
N18715 X85.518 Y316.576
N18720 X85.369 Y316.661
N18725 X85.235 Y316.739
N18730 X84.809 Y316.998
N18735 X84.667 Y317.087
N18740 X84.384 Y317.28
N18745 X84.263 Y317.37
N18750 X84.087 Y317.511
N18755 X83.915 Y317.653
N18760 X83.817 Y317.738
N18765 X83.561 Y317.97
N18770 G3 X83.085 Y317.638 I-0.193 J-0.229
N18775 G1 X83.108 Y317.576 Z-0.992
N18780 X83.13 Y317.516 Z-0.97
N18785 X83.149 Y317.462 Z-0.935
N18790 X83.165 Y317.418 Z-0.887
N18795 X83.177 Y317.384 Z-0.83
N18800 X83.185 Y317.363 Z-0.767
N18805 X83.187 Y317.356 Z-0.7
N18810 G0 Z5.
N18815 X98.322 Y322.583
N18820 Z-0.4
N18825 G1 Z-0.7 F3000.
N18830 X98.314 Y322.582 Z-0.767
N18835 X98.292 Z-0.83
N18840 X98.256 Y322.58 Z-0.887
N18845 X98.209 Y322.579 Z-0.935
N18850 X98.152 Y322.577 Z-0.97
N18855 X98.089 Y322.575 Z-0.992
N18860 X98.022 Y322.573 Z-1.
N18865 G3 X96.388 Y322.344 I0.241 J-7.655
N18870 G1 X96.294 Y322.316
N18875 X96.152 Y322.284
N18880 X96.01 Y322.267
N18885 X95.79 Y322.264
N18890 X95.641 Y322.255
N18895 X95.495 Y322.218
N18900 X95.358 Y322.158
N18905 X95.23 Y322.08
N18910 X95.113 Y321.986
N18915 X95.007 Y321.879
N18920 X94.914 Y321.762
N18925 X94.833 Y321.636
N18930 X94.763 Y321.503
N18935 X94.707 Y321.364
N18940 X94.689 Y321.306
N18945 X94.657 Y321.09
N18950 X94.694 Y320.875
N18955 X94.794 Y320.682
N18960 X94.95 Y320.529
N18965 G3 X95.377 Y320.632 I0.166 J0.25
N18970 G1 X95.52 Y320.886
N18975 X95.963 Y321.672 F6000.
N18980 X96.045 Y321.817 F3000.
N18985 G3 X95.79 Y322.264 I-0.261 J0.147
N18990 G1 X95.585 Y322.262
N18995 X95.081 Y322.259
N19000 X94.932 Y322.251
N19005 X94.786 Y322.215
N19010 X94.648 Y322.157
N19015 X94.519 Y322.08
N19020 X94.402 Y321.986
N19025 X94.297 Y321.879
N19030 X94.277 Y321.853
N19035 X94.18 Y321.678
N19040 X94.137 Y321.484
N19045 X94.151 Y321.285
N19050 X94.22 Y321.097
N19055 X94.339 Y320.937
N19060 X94.498 Y320.817
N19065 G3 X94.901 Y320.95 I0.135 J0.268
N19070 G1 X95.042 Y321.231
N19075 X95.258 Y321.66 F6000.
N19080 X95.34 Y321.824 F3000.
N19085 G3 X95.081 Y322.259 I-0.268 J0.135
N19090 G1 X94.372 Y322.256
N19095 X94.223 Y322.247
N19100 X94.025 Y322.143
N19105 X93.872 Y321.979
N19110 X93.782 Y321.775
N19115 X93.764 Y321.552
N19120 X93.82 Y321.335
N19125 X93.945 Y321.149
N19130 X94.123 Y321.014
N19135 G3 X94.548 Y321.236 I0.129 J0.271
N19140 G1 X94.586 Y321.463
N19145 X94.615 Y321.636 F6000.
N19150 X94.659 Y321.907 F3000.
N19155 G3 X94.372 Y322.256 I-0.296 J0.049
N19160 G1 X93.947 Y322.254
N19165 X93.797 Y322.245
N19170 X93.655 Y322.197
N19175 X93.513 Y322.061
N19180 X93.426 Y321.884
N19185 X93.404 Y321.689
N19190 X93.451 Y321.497
N19195 X93.56 Y321.334
N19200 X93.719 Y321.217
N19205 X93.786 Y321.192
N19210 X93.856 Y321.177
N19215 X93.928 Y321.172
N19220 G3 X94.4 Y321.443 I0.003 J0.541
N19225 X94.47 Y321.761 I-0.469 J0.27 F6000.
N19230 X93.947 Y322.254 I-0.539 J-0.048 F3000.
N19235 G1 X93.522 Y322.251
N19240 X93.372 Y322.243
N19245 X93.227 Y322.137
N19250 X93.132 Y321.985
N19255 X93.1 Y321.808
N19260 X93.135 Y321.632
N19265 X93.232 Y321.481
N19270 X93.379 Y321.377
N19275 X93.431 Y321.36
N19280 X93.486 Y321.351
N19285 X93.541
N19290 G3 X93.959 Y321.8 I-0.033 J0.45
N19295 G1 Y321.801
N19300 G3 X93.522 Y322.251 I-0.451 J0.
N19305 G1 X93.203 Y322.25
N19310 X93.053 Y322.242
N19315 X92.932 Y322.151
N19320 X92.854 Y322.022
N19325 X92.829 Y321.872
N19330 X92.862 Y321.725
N19335 X92.947 Y321.6
N19340 X93.072 Y321.515
N19345 X93.134 Y321.498
N19350 X93.198 Y321.493
N19355 G3 X93.203 Y322.25 I-0.007 J0.379
N19360 G1 X92.891 Y322.248
N19365 X92.741 Y322.24
N19370 X92.634 Y322.134
N19375 X92.583 Y321.993
N19380 X92.596 Y321.843
N19385 X92.672 Y321.713
N19390 X92.796 Y321.628
N19395 X92.845 Y321.615
N19400 X92.897 Y321.613
N19405 G3 X92.891 Y322.248 I-0.015 J0.318
N19410 G1 X92.636 Y322.247
N19415 X92.561 Y322.243
N19420 X92.451 Y322.166
N19425 X92.39 Y322.047
N19430 X92.391 Y321.912
N19435 X92.454 Y321.794
N19440 X92.565 Y321.718
N19445 X92.603 Y321.709
N19450 X92.643 Y321.708
N19455 G3 X92.636 Y322.247 I-0.016 J0.27
N19460 G1 X92.423 Y322.246
N19465 X92.348 Y322.242
N19470 X92.259 Y322.171
N19475 X92.212 Y322.068
N19480 X92.217 Y321.955
N19485 X92.272 Y321.856
N19490 X92.367 Y321.792
N19495 X92.4 Y321.785
N19500 X92.434 Y321.784
N19505 G3 X92.423 Y322.246 I-0.018 J0.231
N19510 G1 X92.246 Y322.245
N19515 X92.171 Y322.241
N19520 X92.083 Y322.16
N19525 X92.055 Y322.043
N19530 X92.095 Y321.93
N19535 X92.191 Y321.858
N19540 X92.219 Y321.851
N19545 X92.248 Y321.85
N19550 G3 X92.246 Y322.245 I-0.008 J0.198
N19555 G1 X92.069
N19560 X92.04 Y322.244
N19565 X92.007
N19570 X91.981 Y322.238
N19575 X91.956 Y322.229
N19580 X91.928 Y322.204
N19585 X91.913 Y322.169
N19590 X91.912 Y322.131
N19595 X91.926 Y322.096
N19600 X91.952 Y322.069
N19605 X91.987 Y322.055
N19610 X92.025
N19615 X92.06 Y322.069
N19620 X92.086 Y322.097
N19625 X92.1 Y322.132
N19630 X92.099 Y322.17
N19635 X92.083 Y322.204
N19640 X92.062 Y322.225
N19645 X92.036 Y322.239
N19650 X92.007 Y322.244
N19655 X91.99 Y322.241
N19660 X91.973 Y322.236
N19665 X91.956 Y322.229
N19670 X91.939 Y322.22
N19675 X91.923 Y322.207
N19680 X91.898 Y322.183
N19685 X91.885 Y322.166
N19690 X91.875 Y322.15
N19695 X91.868 Y322.133
N19700 X91.863 Y322.116
N19705 X91.86 Y322.099
N19710 X91.859 Y322.083
N19715 X91.86 Y322.066
N19720 X91.863 Y322.049
N19725 X91.868 Y322.032
N19730 X91.875 Y322.015
N19735 X91.885 Y321.998
N19740 X91.898 Y321.981
N19745 X91.916 Y321.964
N19750 X91.934 Y321.952
N19755 X91.952 Y321.943
N19760 X92.225 Y321.845
N19765 X92.607 Y321.702
N19770 X92.749 Y321.647
N19775 X93.033 Y321.532
N19780 X93.151 Y321.482
N19785 X93.6 Y321.276
N19790 X94.042 Y321.056
N19795 X94.45 Y320.843
N19800 X94.579 Y320.773
N19805 X94.803 Y320.631
N19810 X94.876 Y320.582
N19815 X95.018 Y320.48
N19820 X95.443 Y320.158
N19825 X95.557 Y320.064
N19830 X95.585 Y320.04
N19835 G0 Z5.
N19840 X84.095 Y306.195
N19845 Z-0.4
N19850 G1 Z-0.7 F3000.
N19855 X84.093 Y306.202 Z-0.767
N19860 X84.088 Y306.224 Z-0.83
N19865 X84.08 Y306.259 Z-0.887
N19870 X84.069 Y306.305 Z-0.935
N19875 X84.057 Y306.361 Z-0.97
N19880 X84.042 Y306.422 Z-0.992
N19885 X84.027 Y306.487 Z-1.
N19890 G3 X83.27 Y307.953 I-3.24 J-0.745
N19895 G1 X83.215 Y308.011
N19900 X83.108 Y308.128
N19905 X82.965 Y308.294
N19910 X82.824 Y308.47
N19915 X82.779 Y308.529
N19920 X82.682 Y308.644
N19925 X82.566 Y308.739
N19930 X82.437 Y308.816
N19935 X82.299 Y308.875
N19940 X82.155 Y308.916
N19945 X82.007 Y308.941
N19950 X81.857 Y308.951
N19955 X81.707 Y308.946
N19960 X81.559 Y308.928
N19965 X81.412 Y308.896
N19970 X81.269 Y308.852
N19975 X81.225 Y308.834
N19980 X81.046 Y308.73
N19985 X80.905 Y308.577
N19990 X80.815 Y308.39
