%
(1001)
(T1  D=6. CR=0. - ZMIN=-7.9 - FLAT END MILL)
N10 G90 G94 G17 G91.1
N15 G21
N20 G53 G0 Z0.
(FACE1)
N25 T1 M6
N30 S24000 M3
N35 G54
N40 G0 X294.091 Y-2.69
N45 G43 Z30. H1
N50 G0 Z5.
N55 G1 Z-0.3 F4000.
N60 G18 G3 X293.491 Z-0.9 I-0.6 K0.
N65 G1 X292.039
N70 X7.961
N75 X2.15
N80 G17 G2 Y2.567 I0. J2.628
N85 G1 X297.85
N90 X301.436
N95 G3 Y7.824 I0. J2.628
N100 G1 X-1.436
N105 X-3.639
N110 G2 Y13.081 I0. J2.628
N115 G1 X303.639
N120 X304.771
N125 G3 Y18.338 I0. J2.628
N130 G1 X-4.771
N135 X-5.
N140 G2 Y23.595 I0. J2.628
N145 G1 X305.
N150 G3 Y28.852 I0. J2.628
N155 G1 X-5.
N160 G2 Y34.109 I0. J2.628
N165 G1 X305.
N170 G3 Y39.366 I0. J2.628
N175 G1 X-5.
N180 G2 Y44.623 I0. J2.628
N185 G1 X305.
N190 G3 Y49.88 I0. J2.628
N195 G1 X-5.
N200 G2 Y55.137 I0. J2.628
N205 G1 X305.
N210 G3 Y60.394 I0. J2.628
N215 G1 X-5.
N220 G2 Y65.651 I0. J2.628
N225 G1 X305.
N230 G3 Y70.908 I0. J2.628
N235 G1 X-5.
N240 G2 Y76.165 I0. J2.628
N245 G1 X305.
N250 G3 Y81.422 I0. J2.628
N255 G1 X-5.
N260 G2 Y86.679 I0. J2.628
N265 G1 X305.
N270 G3 Y91.936 I0. J2.628
N275 G1 X-5.
N280 G2 Y97.192 I0. J2.628
N285 G1 X305.
N290 G3 Y102.449 I0. J2.628
N295 G1 X-5.
N300 G2 Y107.706 I0. J2.628
N305 G1 X305.
N310 G3 Y112.963 I0. J2.628
N315 G1 X-5.
N320 G2 Y118.22 I0. J2.628
N325 G1 X305.
N330 G3 Y123.477 I0. J2.628
N335 G1 X-5.
N340 G2 Y128.734 I0. J2.628
N345 G1 X305.
N350 G3 Y133.991 I0. J2.628
N355 G1 X-5.
N360 G2 Y139.248 I0. J2.628
N365 G1 X305.
N370 G3 Y144.505 I0. J2.628
N375 G1 X-5.
N380 G2 Y149.762 I0. J2.628
N385 G1 X305.
N390 G3 Y155.019 I0. J2.628
N395 G1 X-5.
N400 G2 Y160.276 I0. J2.628
N405 G1 X305.
N410 G3 Y165.533 I0. J2.628
N415 G1 X-5.
N420 G2 Y170.79 I0. J2.628
N425 G1 X305.
N430 G3 Y176.047 I0. J2.628
N435 G1 X-5.
N440 G2 Y181.304 I0. J2.628
N445 G1 X305.
N450 G3 Y186.561 I0. J2.628
N455 G1 X-5.
N460 G2 Y191.818 I0. J2.628
N465 G1 X305.
N470 G3 Y197.075 I0. J2.628
N475 G1 X-5.
N480 G2 Y202.332 I0. J2.628
N485 G1 X305.
N490 G3 Y207.589 I0. J2.628
N495 G1 X-5.
N500 G2 Y212.846 I0. J2.628
N505 G1 X305.
N510 G3 Y218.103 I0. J2.628
N515 G1 X-5.
N520 G2 Y223.36 I0. J2.628
N525 G1 X305.
N530 G3 Y228.617 I0. J2.628
N535 G1 X-5.
N540 G2 Y233.874 I0. J2.628
N545 G1 X305.
N550 G3 Y239.131 I0. J2.628
N555 G1 X-5.
N560 G2 Y244.388 I0. J2.628
N565 G1 X305.
N570 G3 Y249.645 I0. J2.628
N575 G1 X-5.
N580 G2 Y254.902 I0. J2.628
N585 G1 X305.
N590 G3 Y260.159 I0. J2.628
N595 G1 X-5.
N600 G2 Y265.416 I0. J2.628
N605 G1 X305.
N610 G3 Y270.673 I0. J2.628
N615 G1 X-5.
N620 G2 Y275.93 I0. J2.628
N625 G1 X305.
N630 G3 Y281.187 I0. J2.628
N635 G1 X-5.
N640 G2 Y286.444 I0. J2.628
N645 G1 X305.
N650 G3 Y291.701 I0. J2.628
N655 G1 X-5.
N660 G2 Y296.958 I0. J2.629
N665 G1 X305.
N670 G3 Y302.214 I0. J2.628
N675 G1 X-5.
N680 G2 Y307.471 I0. J2.629
N685 G1 X305.
N690 G3 Y312.728 I0. J2.628
N695 G1 X-5.
N700 G2 Y317.985 I0. J2.629
N705 G1 X305.
N710 G3 Y323.242 I0. J2.628
N715 G1 X-5.
N720 G2 Y328.499 I0. J2.629
N725 G1 X305.
N730 G3 Y333.756 I0. J2.628
N735 G1 X-5.
N740 G2 Y339.013 I0. J2.628
N745 G1 X305.
N750 G3 Y344.27 I0. J2.628
N755 G1 X-5.
N760 G2 Y349.527 I0. J2.628
N765 G1 X305.
N770 G3 Y354.784 I0. J2.628
N775 G1 X-5.
N780 G2 Y360.041 I0. J2.628
N785 G1 X305.
N790 G3 Y365.298 I0. J2.628
N795 G1 X-5.
N800 G2 Y370.555 I0. J2.628
N805 G1 X305.
N810 G3 Y375.812 I0. J2.629
N815 G1 X-5.
N820 G2 Y381.069 I0. J2.628
N825 G1 X-4.84
N830 X304.84
N835 G3 Y386.326 I0. J2.629
N840 G1 X303.819
N845 X-3.819
N850 G2 Y391.583 I0. J2.628
N855 G1 X-1.746
N860 X301.746
N865 G3 Y396.84 I0. J2.629
N870 G1 X298.346
N875 X1.654
N880 G2 Y402.097 I0. J2.628
N885 G1 X7.134
N890 X292.866
N895 G18 G2 X293.466 Z-0.3 I0. K0.6
N900 G0 Z5.
N905 X294.091 Y-2.69
N910 G1 Z-1.3 F4000.
N915 G3 X293.491 Z-1.9 I-0.6 K0.
N920 G1 X292.039
N925 X7.961
N930 X2.15
N935 G17 G2 Y2.567 I0. J2.628
N940 G1 X297.85
N945 X301.436
N950 G3 Y7.824 I0. J2.628
N955 G1 X-1.436
N960 X-3.639
N965 G2 Y13.081 I0. J2.628
N970 G1 X303.639
N975 X304.771
N980 G3 Y18.338 I0. J2.628
N985 G1 X-4.771
N990 X-5.
N995 G2 Y23.595 I0. J2.628
N1000 G1 X305.
N1005 G3 Y28.852 I0. J2.628
N1010 G1 X-5.
N1015 G2 Y34.109 I0. J2.628
N1020 G1 X305.
N1025 G3 Y39.366 I0. J2.628
N1030 G1 X-5.
N1035 G2 Y44.623 I0. J2.628
N1040 G1 X305.
N1045 G3 Y49.88 I0. J2.628
N1050 G1 X-5.
N1055 G2 Y55.137 I0. J2.628
N1060 G1 X305.
N1065 G3 Y60.394 I0. J2.628
N1070 G1 X-5.
N1075 G2 Y65.651 I0. J2.628
N1080 G1 X305.
N1085 G3 Y70.908 I0. J2.628
N1090 G1 X-5.
N1095 G2 Y76.165 I0. J2.628
N1100 G1 X305.
N1105 G3 Y81.422 I0. J2.628
N1110 G1 X-5.
N1115 G2 Y86.679 I0. J2.628
N1120 G1 X305.
N1125 G3 Y91.936 I0. J2.628
N1130 G1 X-5.
N1135 G2 Y97.192 I0. J2.628
N1140 G1 X305.
N1145 G3 Y102.449 I0. J2.628
N1150 G1 X-5.
N1155 G2 Y107.706 I0. J2.628
N1160 G1 X305.
N1165 G3 Y112.963 I0. J2.628
N1170 G1 X-5.
N1175 G2 Y118.22 I0. J2.628
N1180 G1 X305.
N1185 G3 Y123.477 I0. J2.628
N1190 G1 X-5.
N1195 G2 Y128.734 I0. J2.628
N1200 G1 X305.
N1205 G3 Y133.991 I0. J2.628
N1210 G1 X-5.
N1215 G2 Y139.248 I0. J2.628
N1220 G1 X305.
N1225 G3 Y144.505 I0. J2.628
N1230 G1 X-5.
N1235 G2 Y149.762 I0. J2.628
N1240 G1 X305.
N1245 G3 Y155.019 I0. J2.628
N1250 G1 X-5.
N1255 G2 Y160.276 I0. J2.628
N1260 G1 X305.
N1265 G3 Y165.533 I0. J2.628
N1270 G1 X-5.
N1275 G2 Y170.79 I0. J2.628
N1280 G1 X305.
N1285 G3 Y176.047 I0. J2.628
N1290 G1 X-5.
N1295 G2 Y181.304 I0. J2.628
N1300 G1 X305.
N1305 G3 Y186.561 I0. J2.628
N1310 G1 X-5.
N1315 G2 Y191.818 I0. J2.628
N1320 G1 X305.
N1325 G3 Y197.075 I0. J2.628
N1330 G1 X-5.
N1335 G2 Y202.332 I0. J2.628
N1340 G1 X305.
N1345 G3 Y207.589 I0. J2.628
N1350 G1 X-5.
N1355 G2 Y212.846 I0. J2.628
N1360 G1 X305.
N1365 G3 Y218.103 I0. J2.628
N1370 G1 X-5.
N1375 G2 Y223.36 I0. J2.628
N1380 G1 X305.
N1385 G3 Y228.617 I0. J2.628
N1390 G1 X-5.
N1395 G2 Y233.874 I0. J2.628
N1400 G1 X305.
N1405 G3 Y239.131 I0. J2.628
N1410 G1 X-5.
N1415 G2 Y244.388 I0. J2.628
N1420 G1 X305.
N1425 G3 Y249.645 I0. J2.628
N1430 G1 X-5.
N1435 G2 Y254.902 I0. J2.628
N1440 G1 X305.
N1445 G3 Y260.159 I0. J2.628
N1450 G1 X-5.
N1455 G2 Y265.416 I0. J2.628
N1460 G1 X305.
N1465 G3 Y270.673 I0. J2.628
N1470 G1 X-5.
N1475 G2 Y275.93 I0. J2.628
N1480 G1 X305.
N1485 G3 Y281.187 I0. J2.628
N1490 G1 X-5.
N1495 G2 Y286.444 I0. J2.628
N1500 G1 X305.
N1505 G3 Y291.701 I0. J2.628
N1510 G1 X-5.
N1515 G2 Y296.958 I0. J2.629
N1520 G1 X305.
N1525 G3 Y302.214 I0. J2.628
N1530 G1 X-5.
N1535 G2 Y307.471 I0. J2.629
N1540 G1 X305.
N1545 G3 Y312.728 I0. J2.628
N1550 G1 X-5.
N1555 G2 Y317.985 I0. J2.629
N1560 G1 X305.
N1565 G3 Y323.242 I0. J2.628
N1570 G1 X-5.
N1575 G2 Y328.499 I0. J2.629
N1580 G1 X305.
N1585 G3 Y333.756 I0. J2.628
N1590 G1 X-5.
N1595 G2 Y339.013 I0. J2.628
N1600 G1 X305.
N1605 G3 Y344.27 I0. J2.628
N1610 G1 X-5.
N1615 G2 Y349.527 I0. J2.628
N1620 G1 X305.
N1625 G3 Y354.784 I0. J2.628
N1630 G1 X-5.
N1635 G2 Y360.041 I0. J2.628
N1640 G1 X305.
N1645 G3 Y365.298 I0. J2.628
N1650 G1 X-5.
N1655 G2 Y370.555 I0. J2.628
N1660 G1 X305.
N1665 G3 Y375.812 I0. J2.629
N1670 G1 X-5.
N1675 G2 Y381.069 I0. J2.628
N1680 G1 X-4.84
N1685 X304.84
N1690 G3 Y386.326 I0. J2.629
N1695 G1 X303.819
N1700 X-3.819
N1705 G2 Y391.583 I0. J2.628
N1710 G1 X-1.746
N1715 X301.746
N1720 G3 Y396.84 I0. J2.629
N1725 G1 X298.346
N1730 X1.654
N1735 G2 Y402.097 I0. J2.628
N1740 G1 X7.134
N1745 X292.866
N1750 G18 G2 X293.466 Z-1.3 I0. K0.6
N1755 G0 Z5.
N1760 X294.091 Y-2.69
N1765 G1 Z-2.3 F4000.
N1770 G3 X293.491 Z-2.9 I-0.6 K0.
N1775 G1 X292.039
N1780 X7.961
N1785 X2.15
N1790 G17 G2 Y2.567 I0. J2.628
N1795 G1 X297.85
N1800 X301.436
N1805 G3 Y7.824 I0. J2.628
N1810 G1 X-1.436
N1815 X-3.639
N1820 G2 Y13.081 I0. J2.628
N1825 G1 X303.639
N1830 X304.771
N1835 G3 Y18.338 I0. J2.628
N1840 G1 X-4.771
N1845 X-5.
N1850 G2 Y23.595 I0. J2.628
N1855 G1 X305.
N1860 G3 Y28.852 I0. J2.628
N1865 G1 X-5.
N1870 G2 Y34.109 I0. J2.628
N1875 G1 X305.
N1880 G3 Y39.366 I0. J2.628
N1885 G1 X-5.
N1890 G2 Y44.623 I0. J2.628
N1895 G1 X305.
N1900 G3 Y49.88 I0. J2.628
N1905 G1 X-5.
N1910 G2 Y55.137 I0. J2.628
N1915 G1 X305.
N1920 G3 Y60.394 I0. J2.628
N1925 G1 X-5.
N1930 G2 Y65.651 I0. J2.628
N1935 G1 X305.
N1940 G3 Y70.908 I0. J2.628
N1945 G1 X-5.
N1950 G2 Y76.165 I0. J2.628
N1955 G1 X305.
N1960 G3 Y81.422 I0. J2.628
N1965 G1 X-5.
N1970 G2 Y86.679 I0. J2.628
N1975 G1 X305.
N1980 G3 Y91.936 I0. J2.628
N1985 G1 X-5.
N1990 G2 Y97.192 I0. J2.628
N1995 G1 X305.
N2000 G3 Y102.449 I0. J2.628
N2005 G1 X-5.
N2010 G2 Y107.706 I0. J2.628
N2015 G1 X305.
N2020 G3 Y112.963 I0. J2.628
N2025 G1 X-5.
N2030 G2 Y118.22 I0. J2.628
N2035 G1 X305.
N2040 G3 Y123.477 I0. J2.628
N2045 G1 X-5.
N2050 G2 Y128.734 I0. J2.628
N2055 G1 X305.
N2060 G3 Y133.991 I0. J2.628
N2065 G1 X-5.
N2070 G2 Y139.248 I0. J2.628
N2075 G1 X305.
N2080 G3 Y144.505 I0. J2.628
N2085 G1 X-5.
N2090 G2 Y149.762 I0. J2.628
N2095 G1 X305.
N2100 G3 Y155.019 I0. J2.628
N2105 G1 X-5.
N2110 G2 Y160.276 I0. J2.628
N2115 G1 X305.
N2120 G3 Y165.533 I0. J2.628
N2125 G1 X-5.
N2130 G2 Y170.79 I0. J2.628
N2135 G1 X305.
N2140 G3 Y176.047 I0. J2.628
N2145 G1 X-5.
N2150 G2 Y181.304 I0. J2.628
N2155 G1 X305.
N2160 G3 Y186.561 I0. J2.628
N2165 G1 X-5.
N2170 G2 Y191.818 I0. J2.628
N2175 G1 X305.
N2180 G3 Y197.075 I0. J2.628
N2185 G1 X-5.
N2190 G2 Y202.332 I0. J2.628
N2195 G1 X305.
N2200 G3 Y207.589 I0. J2.628
N2205 G1 X-5.
N2210 G2 Y212.846 I0. J2.628
N2215 G1 X305.
N2220 G3 Y218.103 I0. J2.628
N2225 G1 X-5.
N2230 G2 Y223.36 I0. J2.628
N2235 G1 X305.
N2240 G3 Y228.617 I0. J2.628
N2245 G1 X-5.
N2250 G2 Y233.874 I0. J2.628
N2255 G1 X305.
N2260 G3 Y239.131 I0. J2.628
N2265 G1 X-5.
N2270 G2 Y244.388 I0. J2.628
N2275 G1 X305.
N2280 G3 Y249.645 I0. J2.628
N2285 G1 X-5.
N2290 G2 Y254.902 I0. J2.628
N2295 G1 X305.
N2300 G3 Y260.159 I0. J2.628
N2305 G1 X-5.
N2310 G2 Y265.416 I0. J2.628
N2315 G1 X305.
N2320 G3 Y270.673 I0. J2.628
N2325 G1 X-5.
N2330 G2 Y275.93 I0. J2.628
N2335 G1 X305.
N2340 G3 Y281.187 I0. J2.628
N2345 G1 X-5.
N2350 G2 Y286.444 I0. J2.628
N2355 G1 X305.
N2360 G3 Y291.701 I0. J2.628
N2365 G1 X-5.
N2370 G2 Y296.958 I0. J2.629
N2375 G1 X305.
N2380 G3 Y302.214 I0. J2.628
N2385 G1 X-5.
N2390 G2 Y307.471 I0. J2.629
N2395 G1 X305.
N2400 G3 Y312.728 I0. J2.628
N2405 G1 X-5.
N2410 G2 Y317.985 I0. J2.629
N2415 G1 X305.
N2420 G3 Y323.242 I0. J2.628
N2425 G1 X-5.
N2430 G2 Y328.499 I0. J2.629
N2435 G1 X305.
N2440 G3 Y333.756 I0. J2.628
N2445 G1 X-5.
N2450 G2 Y339.013 I0. J2.628
N2455 G1 X305.
N2460 G3 Y344.27 I0. J2.628
N2465 G1 X-5.
N2470 G2 Y349.527 I0. J2.628
N2475 G1 X305.
N2480 G3 Y354.784 I0. J2.628
N2485 G1 X-5.
N2490 G2 Y360.041 I0. J2.628
N2495 G1 X305.
N2500 G3 Y365.298 I0. J2.628
N2505 G1 X-5.
N2510 G2 Y370.555 I0. J2.628
N2515 G1 X305.
N2520 G3 Y375.812 I0. J2.629
N2525 G1 X-5.
N2530 G2 Y381.069 I0. J2.628
N2535 G1 X-4.84
N2540 X304.84
N2545 G3 Y386.326 I0. J2.629
N2550 G1 X303.819
N2555 X-3.819
N2560 G2 Y391.583 I0. J2.628
N2565 G1 X-1.746
N2570 X301.746
N2575 G3 Y396.84 I0. J2.629
N2580 G1 X298.346
N2585 X1.654
N2590 G2 Y402.097 I0. J2.628
N2595 G1 X7.134
N2600 X292.866
N2605 G18 G2 X293.466 Z-2.3 I0. K0.6
N2610 G0 Z5.
N2615 X294.091 Y-2.69
N2620 G1 Z-3.3 F4000.
N2625 G3 X293.491 Z-3.9 I-0.6 K0.
N2630 G1 X292.039
N2635 X7.961
N2640 X2.15
N2645 G17 G2 Y2.567 I0. J2.628
N2650 G1 X297.85
N2655 X301.436
N2660 G3 Y7.824 I0. J2.628
N2665 G1 X-1.436
N2670 X-3.639
N2675 G2 Y13.081 I0. J2.628
N2680 G1 X303.639
N2685 X304.771
N2690 G3 Y18.338 I0. J2.628
N2695 G1 X-4.771
N2700 X-5.
N2705 G2 Y23.595 I0. J2.628
N2710 G1 X305.
N2715 G3 Y28.852 I0. J2.628
N2720 G1 X-5.
N2725 G2 Y34.109 I0. J2.628
N2730 G1 X305.
N2735 G3 Y39.366 I0. J2.628
N2740 G1 X-5.
N2745 G2 Y44.623 I0. J2.628
N2750 G1 X305.
N2755 G3 Y49.88 I0. J2.628
N2760 G1 X-5.
N2765 G2 Y55.137 I0. J2.628
N2770 G1 X305.
N2775 G3 Y60.394 I0. J2.628
N2780 G1 X-5.
N2785 G2 Y65.651 I0. J2.628
N2790 G1 X305.
N2795 G3 Y70.908 I0. J2.628
N2800 G1 X-5.
N2805 G2 Y76.165 I0. J2.628
N2810 G1 X305.
N2815 G3 Y81.422 I0. J2.628
N2820 G1 X-5.
N2825 G2 Y86.679 I0. J2.628
N2830 G1 X305.
N2835 G3 Y91.936 I0. J2.628
N2840 G1 X-5.
N2845 G2 Y97.192 I0. J2.628
N2850 G1 X305.
N2855 G3 Y102.449 I0. J2.628
N2860 G1 X-5.
N2865 G2 Y107.706 I0. J2.628
N2870 G1 X305.
N2875 G3 Y112.963 I0. J2.628
N2880 G1 X-5.
N2885 G2 Y118.22 I0. J2.628
N2890 G1 X305.
N2895 G3 Y123.477 I0. J2.628
N2900 G1 X-5.
N2905 G2 Y128.734 I0. J2.628
N2910 G1 X305.
N2915 G3 Y133.991 I0. J2.628
N2920 G1 X-5.
N2925 G2 Y139.248 I0. J2.628
N2930 G1 X305.
N2935 G3 Y144.505 I0. J2.628
N2940 G1 X-5.
N2945 G2 Y149.762 I0. J2.628
N2950 G1 X305.
N2955 G3 Y155.019 I0. J2.628
N2960 G1 X-5.
N2965 G2 Y160.276 I0. J2.628
N2970 G1 X305.
N2975 G3 Y165.533 I0. J2.628
N2980 G1 X-5.
N2985 G2 Y170.79 I0. J2.628
N2990 G1 X305.
N2995 G3 Y176.047 I0. J2.628
N3000 G1 X-5.
N3005 G2 Y181.304 I0. J2.628
N3010 G1 X305.
N3015 G3 Y186.561 I0. J2.628
N3020 G1 X-5.
N3025 G2 Y191.818 I0. J2.628
N3030 G1 X305.
N3035 G3 Y197.075 I0. J2.628
N3040 G1 X-5.
N3045 G2 Y202.332 I0. J2.628
N3050 G1 X305.
N3055 G3 Y207.589 I0. J2.628
N3060 G1 X-5.
N3065 G2 Y212.846 I0. J2.628
N3070 G1 X305.
N3075 G3 Y218.103 I0. J2.628
N3080 G1 X-5.
N3085 G2 Y223.36 I0. J2.628
N3090 G1 X305.
N3095 G3 Y228.617 I0. J2.628
N3100 G1 X-5.
N3105 G2 Y233.874 I0. J2.628
N3110 G1 X305.
N3115 G3 Y239.131 I0. J2.628
N3120 G1 X-5.
N3125 G2 Y244.388 I0. J2.628
N3130 G1 X305.
N3135 G3 Y249.645 I0. J2.628
N3140 G1 X-5.
N3145 G2 Y254.902 I0. J2.628
N3150 G1 X305.
N3155 G3 Y260.159 I0. J2.628
N3160 G1 X-5.
N3165 G2 Y265.416 I0. J2.628
N3170 G1 X305.
N3175 G3 Y270.673 I0. J2.628
N3180 G1 X-5.
N3185 G2 Y275.93 I0. J2.628
N3190 G1 X305.
N3195 G3 Y281.187 I0. J2.628
N3200 G1 X-5.
N3205 G2 Y286.444 I0. J2.628
N3210 G1 X305.
N3215 G3 Y291.701 I0. J2.628
N3220 G1 X-5.
N3225 G2 Y296.958 I0. J2.629
N3230 G1 X305.
N3235 G3 Y302.214 I0. J2.628
N3240 G1 X-5.
N3245 G2 Y307.471 I0. J2.629
N3250 G1 X305.
N3255 G3 Y312.728 I0. J2.628
N3260 G1 X-5.
N3265 G2 Y317.985 I0. J2.629
N3270 G1 X305.
N3275 G3 Y323.242 I0. J2.628
N3280 G1 X-5.
N3285 G2 Y328.499 I0. J2.629
N3290 G1 X305.
N3295 G3 Y333.756 I0. J2.628
N3300 G1 X-5.
N3305 G2 Y339.013 I0. J2.628
N3310 G1 X305.
N3315 G3 Y344.27 I0. J2.628
N3320 G1 X-5.
N3325 G2 Y349.527 I0. J2.628
N3330 G1 X305.
N3335 G3 Y354.784 I0. J2.628
N3340 G1 X-5.
N3345 G2 Y360.041 I0. J2.628
N3350 G1 X305.
N3355 G3 Y365.298 I0. J2.628
N3360 G1 X-5.
N3365 G2 Y370.555 I0. J2.628
N3370 G1 X305.
N3375 G3 Y375.812 I0. J2.629
N3380 G1 X-5.
N3385 G2 Y381.069 I0. J2.628
N3390 G1 X-4.84
N3395 X304.84
N3400 G3 Y386.326 I0. J2.629
N3405 G1 X303.819
N3410 X-3.819
N3415 G2 Y391.583 I0. J2.628
N3420 G1 X-1.746
N3425 X301.746
N3430 G3 Y396.84 I0. J2.629
N3435 G1 X298.346
N3440 X1.654
N3445 G2 Y402.097 I0. J2.628
N3450 G1 X7.134
N3455 X292.866
N3460 G18 G2 X293.466 Z-3.3 I0. K0.6
N3465 G0 Z5.
N3470 X294.091 Y-2.69
N3475 G1 Z-4.3 F4000.
N3480 G3 X293.491 Z-4.9 I-0.6 K0.
N3485 G1 X292.039
N3490 X7.961
N3495 X2.15
N3500 G17 G2 Y2.567 I0. J2.628
N3505 G1 X297.85
N3510 X301.436
N3515 G3 Y7.824 I0. J2.628
N3520 G1 X-1.436
N3525 X-3.639
N3530 G2 Y13.081 I0. J2.628
N3535 G1 X303.639
N3540 X304.771
N3545 G3 Y18.338 I0. J2.628
N3550 G1 X-4.771
N3555 X-5.
N3560 G2 Y23.595 I0. J2.628
N3565 G1 X305.
N3570 G3 Y28.852 I0. J2.628
N3575 G1 X-5.
N3580 G2 Y34.109 I0. J2.628
N3585 G1 X305.
N3590 G3 Y39.366 I0. J2.628
N3595 G1 X-5.
N3600 G2 Y44.623 I0. J2.628
N3605 G1 X305.
N3610 G3 Y49.88 I0. J2.628
N3615 G1 X-5.
N3620 G2 Y55.137 I0. J2.628
N3625 G1 X305.
N3630 G3 Y60.394 I0. J2.628
N3635 G1 X-5.
N3640 G2 Y65.651 I0. J2.628
N3645 G1 X305.
N3650 G3 Y70.908 I0. J2.628
N3655 G1 X-5.
N3660 G2 Y76.165 I0. J2.628
N3665 G1 X305.
N3670 G3 Y81.422 I0. J2.628
N3675 G1 X-5.
N3680 G2 Y86.679 I0. J2.628
N3685 G1 X305.
N3690 G3 Y91.936 I0. J2.628
N3695 G1 X-5.
N3700 G2 Y97.192 I0. J2.628
N3705 G1 X305.
N3710 G3 Y102.449 I0. J2.628
N3715 G1 X-5.
N3720 G2 Y107.706 I0. J2.628
N3725 G1 X305.
N3730 G3 Y112.963 I0. J2.628
N3735 G1 X-5.
N3740 G2 Y118.22 I0. J2.628
N3745 G1 X305.
N3750 G3 Y123.477 I0. J2.628
N3755 G1 X-5.
N3760 G2 Y128.734 I0. J2.628
N3765 G1 X305.
N3770 G3 Y133.991 I0. J2.628
N3775 G1 X-5.
N3780 G2 Y139.248 I0. J2.628
N3785 G1 X305.
N3790 G3 Y144.505 I0. J2.628
N3795 G1 X-5.
N3800 G2 Y149.762 I0. J2.628
N3805 G1 X305.
N3810 G3 Y155.019 I0. J2.628
N3815 G1 X-5.
N3820 G2 Y160.276 I0. J2.628
N3825 G1 X305.
N3830 G3 Y165.533 I0. J2.628
N3835 G1 X-5.
N3840 G2 Y170.79 I0. J2.628
N3845 G1 X305.
N3850 G3 Y176.047 I0. J2.628
N3855 G1 X-5.
N3860 G2 Y181.304 I0. J2.628
N3865 G1 X305.
N3870 G3 Y186.561 I0. J2.628
N3875 G1 X-5.
N3880 G2 Y191.818 I0. J2.628
N3885 G1 X305.
N3890 G3 Y197.075 I0. J2.628
N3895 G1 X-5.
N3900 G2 Y202.332 I0. J2.628
N3905 G1 X305.
N3910 G3 Y207.589 I0. J2.628
N3915 G1 X-5.
N3920 G2 Y212.846 I0. J2.628
N3925 G1 X305.
N3930 G3 Y218.103 I0. J2.628
N3935 G1 X-5.
N3940 G2 Y223.36 I0. J2.628
N3945 G1 X305.
N3950 G3 Y228.617 I0. J2.628
N3955 G1 X-5.
N3960 G2 Y233.874 I0. J2.628
N3965 G1 X305.
N3970 G3 Y239.131 I0. J2.628
N3975 G1 X-5.
N3980 G2 Y244.388 I0. J2.628
N3985 G1 X305.
N3990 G3 Y249.645 I0. J2.628
N3995 G1 X-5.
N4000 G2 Y254.902 I0. J2.628
N4005 G1 X305.
N4010 G3 Y260.159 I0. J2.628
N4015 G1 X-5.
N4020 G2 Y265.416 I0. J2.628
N4025 G1 X305.
N4030 G3 Y270.673 I0. J2.628
N4035 G1 X-5.
N4040 G2 Y275.93 I0. J2.628
N4045 G1 X305.
N4050 G3 Y281.187 I0. J2.628
N4055 G1 X-5.
N4060 G2 Y286.444 I0. J2.628
N4065 G1 X305.
N4070 G3 Y291.701 I0. J2.628
N4075 G1 X-5.
N4080 G2 Y296.958 I0. J2.629
N4085 G1 X305.
N4090 G3 Y302.214 I0. J2.628
N4095 G1 X-5.
N4100 G2 Y307.471 I0. J2.629
N4105 G1 X305.
N4110 G3 Y312.728 I0. J2.628
N4115 G1 X-5.
N4120 G2 Y317.985 I0. J2.629
N4125 G1 X305.
N4130 G3 Y323.242 I0. J2.628
N4135 G1 X-5.
N4140 G2 Y328.499 I0. J2.629
N4145 G1 X305.
N4150 G3 Y333.756 I0. J2.628
N4155 G1 X-5.
N4160 G2 Y339.013 I0. J2.628
N4165 G1 X305.
N4170 G3 Y344.27 I0. J2.628
N4175 G1 X-5.
N4180 G2 Y349.527 I0. J2.628
N4185 G1 X305.
N4190 G3 Y354.784 I0. J2.628
N4195 G1 X-5.
N4200 G2 Y360.041 I0. J2.628
N4205 G1 X305.
N4210 G3 Y365.298 I0. J2.628
N4215 G1 X-5.
N4220 G2 Y370.555 I0. J2.628
N4225 G1 X305.
N4230 G3 Y375.812 I0. J2.629
N4235 G1 X-5.
N4240 G2 Y381.069 I0. J2.628
N4245 G1 X-4.84
N4250 X304.84
N4255 G3 Y386.326 I0. J2.629
N4260 G1 X303.819
N4265 X-3.819
N4270 G2 Y391.583 I0. J2.628
N4275 G1 X-1.746
N4280 X301.746
N4285 G3 Y396.84 I0. J2.629
N4290 G1 X298.346
N4295 X1.654
N4300 G2 Y402.097 I0. J2.628
N4305 G1 X7.134
N4310 X292.866
N4315 G18 G2 X293.466 Z-4.3 I0. K0.6
N4320 G0 Z5.
N4325 X294.091 Y-2.69
N4330 G1 Z-5.3 F4000.
N4335 G3 X293.491 Z-5.9 I-0.6 K0.
N4340 G1 X292.039
N4345 X7.961
N4350 X2.15
N4355 G17 G2 Y2.567 I0. J2.628
N4360 G1 X297.85
N4365 X301.436
N4370 G3 Y7.824 I0. J2.628
N4375 G1 X-1.436
N4380 X-3.639
N4385 G2 Y13.081 I0. J2.628
N4390 G1 X303.639
N4395 X304.771
N4400 G3 Y18.338 I0. J2.628
N4405 G1 X-4.771
N4410 X-5.
N4415 G2 Y23.595 I0. J2.628
N4420 G1 X305.
N4425 G3 Y28.852 I0. J2.628
N4430 G1 X-5.
N4435 G2 Y34.109 I0. J2.628
N4440 G1 X305.
N4445 G3 Y39.366 I0. J2.628
N4450 G1 X-5.
N4455 G2 Y44.623 I0. J2.628
N4460 G1 X305.
N4465 G3 Y49.88 I0. J2.628
N4470 G1 X-5.
N4475 G2 Y55.137 I0. J2.628
N4480 G1 X305.
N4485 G3 Y60.394 I0. J2.628
N4490 G1 X-5.
N4495 G2 Y65.651 I0. J2.628
N4500 G1 X305.
N4505 G3 Y70.908 I0. J2.628
N4510 G1 X-5.
N4515 G2 Y76.165 I0. J2.628
N4520 G1 X305.
N4525 G3 Y81.422 I0. J2.628
N4530 G1 X-5.
N4535 G2 Y86.679 I0. J2.628
N4540 G1 X305.
N4545 G3 Y91.936 I0. J2.628
N4550 G1 X-5.
N4555 G2 Y97.192 I0. J2.628
N4560 G1 X305.
N4565 G3 Y102.449 I0. J2.628
N4570 G1 X-5.
N4575 G2 Y107.706 I0. J2.628
N4580 G1 X305.
N4585 G3 Y112.963 I0. J2.628
N4590 G1 X-5.
N4595 G2 Y118.22 I0. J2.628
N4600 G1 X305.
N4605 G3 Y123.477 I0. J2.628
N4610 G1 X-5.
N4615 G2 Y128.734 I0. J2.628
N4620 G1 X305.
N4625 G3 Y133.991 I0. J2.628
N4630 G1 X-5.
N4635 G2 Y139.248 I0. J2.628
N4640 G1 X305.
N4645 G3 Y144.505 I0. J2.628
N4650 G1 X-5.
N4655 G2 Y149.762 I0. J2.628
N4660 G1 X305.
N4665 G3 Y155.019 I0. J2.628
N4670 G1 X-5.
N4675 G2 Y160.276 I0. J2.628
N4680 G1 X305.
N4685 G3 Y165.533 I0. J2.628
N4690 G1 X-5.
N4695 G2 Y170.79 I0. J2.628
N4700 G1 X305.
N4705 G3 Y176.047 I0. J2.628
N4710 G1 X-5.
N4715 G2 Y181.304 I0. J2.628
N4720 G1 X305.
N4725 G3 Y186.561 I0. J2.628
N4730 G1 X-5.
N4735 G2 Y191.818 I0. J2.628
N4740 G1 X305.
N4745 G3 Y197.075 I0. J2.628
N4750 G1 X-5.
N4755 G2 Y202.332 I0. J2.628
N4760 G1 X305.
N4765 G3 Y207.589 I0. J2.628
N4770 G1 X-5.
N4775 G2 Y212.846 I0. J2.628
N4780 G1 X305.
N4785 G3 Y218.103 I0. J2.628
N4790 G1 X-5.
N4795 G2 Y223.36 I0. J2.628
N4800 G1 X305.
N4805 G3 Y228.617 I0. J2.628
N4810 G1 X-5.
N4815 G2 Y233.874 I0. J2.628
N4820 G1 X305.
N4825 G3 Y239.131 I0. J2.628
N4830 G1 X-5.
N4835 G2 Y244.388 I0. J2.628
N4840 G1 X305.
N4845 G3 Y249.645 I0. J2.628
N4850 G1 X-5.
N4855 G2 Y254.902 I0. J2.628
N4860 G1 X305.
N4865 G3 Y260.159 I0. J2.628
N4870 G1 X-5.
N4875 G2 Y265.416 I0. J2.628
N4880 G1 X305.
N4885 G3 Y270.673 I0. J2.628
N4890 G1 X-5.
N4895 G2 Y275.93 I0. J2.628
N4900 G1 X305.
N4905 G3 Y281.187 I0. J2.628
N4910 G1 X-5.
N4915 G2 Y286.444 I0. J2.628
N4920 G1 X305.
N4925 G3 Y291.701 I0. J2.628
N4930 G1 X-5.
N4935 G2 Y296.958 I0. J2.629
N4940 G1 X305.
N4945 G3 Y302.214 I0. J2.628
N4950 G1 X-5.
N4955 G2 Y307.471 I0. J2.629
N4960 G1 X305.
N4965 G3 Y312.728 I0. J2.628
N4970 G1 X-5.
N4975 G2 Y317.985 I0. J2.629
N4980 G1 X305.
N4985 G3 Y323.242 I0. J2.628
N4990 G1 X-5.
N4995 G2 Y328.499 I0. J2.629
N5000 G1 X305.
N5005 G3 Y333.756 I0. J2.628
N5010 G1 X-5.
N5015 G2 Y339.013 I0. J2.628
N5020 G1 X305.
N5025 G3 Y344.27 I0. J2.628
N5030 G1 X-5.
N5035 G2 Y349.527 I0. J2.628
N5040 G1 X305.
N5045 G3 Y354.784 I0. J2.628
N5050 G1 X-5.
N5055 G2 Y360.041 I0. J2.628
N5060 G1 X305.
N5065 G3 Y365.298 I0. J2.628
N5070 G1 X-5.
N5075 G2 Y370.555 I0. J2.628
N5080 G1 X305.
N5085 G3 Y375.812 I0. J2.629
N5090 G1 X-5.
N5095 G2 Y381.069 I0. J2.628
N5100 G1 X-4.84
N5105 X304.84
N5110 G3 Y386.326 I0. J2.629
N5115 G1 X303.819
N5120 X-3.819
N5125 G2 Y391.583 I0. J2.628
N5130 G1 X-1.746
N5135 X301.746
N5140 G3 Y396.84 I0. J2.629
N5145 G1 X298.346
N5150 X1.654
N5155 G2 Y402.097 I0. J2.628
N5160 G1 X7.134
N5165 X292.866
N5170 G18 G2 X293.466 Z-5.3 I0. K0.6
N5175 G0 Z5.
N5180 X294.091 Y-2.69
N5185 G1 Z-6.3 F4000.
N5190 G3 X293.491 Z-6.9 I-0.6 K0.
N5195 G1 X292.039
N5200 X7.961
N5205 X2.15
N5210 G17 G2 Y2.567 I0. J2.628
N5215 G1 X297.85
N5220 X301.436
N5225 G3 Y7.824 I0. J2.628
N5230 G1 X-1.436
N5235 X-3.639
N5240 G2 Y13.081 I0. J2.628
N5245 G1 X303.639
N5250 X304.771
N5255 G3 Y18.338 I0. J2.628
N5260 G1 X-4.771
N5265 X-5.
N5270 G2 Y23.595 I0. J2.628
N5275 G1 X305.
N5280 G3 Y28.852 I0. J2.628
N5285 G1 X-5.
N5290 G2 Y34.109 I0. J2.628
N5295 G1 X305.
N5300 G3 Y39.366 I0. J2.628
N5305 G1 X-5.
N5310 G2 Y44.623 I0. J2.628
N5315 G1 X305.
N5320 G3 Y49.88 I0. J2.628
N5325 G1 X-5.
N5330 G2 Y55.137 I0. J2.628
N5335 G1 X305.
N5340 G3 Y60.394 I0. J2.628
N5345 G1 X-5.
N5350 G2 Y65.651 I0. J2.628
N5355 G1 X305.
N5360 G3 Y70.908 I0. J2.628
N5365 G1 X-5.
N5370 G2 Y76.165 I0. J2.628
N5375 G1 X305.
N5380 G3 Y81.422 I0. J2.628
N5385 G1 X-5.
N5390 G2 Y86.679 I0. J2.628
N5395 G1 X305.
N5400 G3 Y91.936 I0. J2.628
N5405 G1 X-5.
N5410 G2 Y97.192 I0. J2.628
N5415 G1 X305.
N5420 G3 Y102.449 I0. J2.628
N5425 G1 X-5.
N5430 G2 Y107.706 I0. J2.628
N5435 G1 X305.
N5440 G3 Y112.963 I0. J2.628
N5445 G1 X-5.
N5450 G2 Y118.22 I0. J2.628
N5455 G1 X305.
N5460 G3 Y123.477 I0. J2.628
N5465 G1 X-5.
N5470 G2 Y128.734 I0. J2.628
N5475 G1 X305.
N5480 G3 Y133.991 I0. J2.628
N5485 G1 X-5.
N5490 G2 Y139.248 I0. J2.628
N5495 G1 X305.
N5500 G3 Y144.505 I0. J2.628
N5505 G1 X-5.
N5510 G2 Y149.762 I0. J2.628
N5515 G1 X305.
N5520 G3 Y155.019 I0. J2.628
N5525 G1 X-5.
N5530 G2 Y160.276 I0. J2.628
N5535 G1 X305.
N5540 G3 Y165.533 I0. J2.628
N5545 G1 X-5.
N5550 G2 Y170.79 I0. J2.628
N5555 G1 X305.
N5560 G3 Y176.047 I0. J2.628
N5565 G1 X-5.
N5570 G2 Y181.304 I0. J2.628
N5575 G1 X305.
N5580 G3 Y186.561 I0. J2.628
N5585 G1 X-5.
N5590 G2 Y191.818 I0. J2.628
N5595 G1 X305.
N5600 G3 Y197.075 I0. J2.628
N5605 G1 X-5.
N5610 G2 Y202.332 I0. J2.628
N5615 G1 X305.
N5620 G3 Y207.589 I0. J2.628
N5625 G1 X-5.
N5630 G2 Y212.846 I0. J2.628
N5635 G1 X305.
N5640 G3 Y218.103 I0. J2.628
N5645 G1 X-5.
N5650 G2 Y223.36 I0. J2.628
N5655 G1 X305.
N5660 G3 Y228.617 I0. J2.628
N5665 G1 X-5.
N5670 G2 Y233.874 I0. J2.628
N5675 G1 X305.
N5680 G3 Y239.131 I0. J2.628
N5685 G1 X-5.
N5690 G2 Y244.388 I0. J2.628
N5695 G1 X305.
N5700 G3 Y249.645 I0. J2.628
N5705 G1 X-5.
N5710 G2 Y254.902 I0. J2.628
N5715 G1 X305.
N5720 G3 Y260.159 I0. J2.628
N5725 G1 X-5.
N5730 G2 Y265.416 I0. J2.628
N5735 G1 X305.
N5740 G3 Y270.673 I0. J2.628
N5745 G1 X-5.
N5750 G2 Y275.93 I0. J2.628
N5755 G1 X305.
N5760 G3 Y281.187 I0. J2.628
N5765 G1 X-5.
N5770 G2 Y286.444 I0. J2.628
N5775 G1 X305.
N5780 G3 Y291.701 I0. J2.628
N5785 G1 X-5.
N5790 G2 Y296.958 I0. J2.629
N5795 G1 X305.
N5800 G3 Y302.214 I0. J2.628
N5805 G1 X-5.
N5810 G2 Y307.471 I0. J2.629
N5815 G1 X305.
N5820 G3 Y312.728 I0. J2.628
N5825 G1 X-5.
N5830 G2 Y317.985 I0. J2.629
N5835 G1 X305.
N5840 G3 Y323.242 I0. J2.628
N5845 G1 X-5.
N5850 G2 Y328.499 I0. J2.629
N5855 G1 X305.
N5860 G3 Y333.756 I0. J2.628
N5865 G1 X-5.
N5870 G2 Y339.013 I0. J2.628
N5875 G1 X305.
N5880 G3 Y344.27 I0. J2.628
N5885 G1 X-5.
N5890 G2 Y349.527 I0. J2.628
N5895 G1 X305.
N5900 G3 Y354.784 I0. J2.628
N5905 G1 X-5.
N5910 G2 Y360.041 I0. J2.628
N5915 G1 X305.
N5920 G3 Y365.298 I0. J2.628
N5925 G1 X-5.
N5930 G2 Y370.555 I0. J2.628
N5935 G1 X305.
N5940 G3 Y375.812 I0. J2.629
N5945 G1 X-5.
N5950 G2 Y381.069 I0. J2.628
N5955 G1 X-4.84
N5960 X304.84
N5965 G3 Y386.326 I0. J2.629
N5970 G1 X303.819
N5975 X-3.819
N5980 G2 Y391.583 I0. J2.628
N5985 G1 X-1.746
N5990 X301.746
N5995 G3 Y396.84 I0. J2.629
N6000 G1 X298.346
N6005 X1.654
N6010 G2 Y402.097 I0. J2.628
N6015 G1 X7.134
N6020 X292.866
N6025 G18 G2 X293.466 Z-6.3 I0. K0.6
N6030 G0 Z5.
N6035 X294.091 Y-2.69
N6040 G1 Z-7.3 F4000.
N6045 G3 X293.491 Z-7.9 I-0.6 K0.
N6050 G1 X292.039
N6055 X7.961
N6060 X2.15
N6065 G17 G2 Y2.567 I0. J2.628
N6070 G1 X297.85
N6075 X301.436
N6080 G3 Y7.824 I0. J2.628
N6085 G1 X-1.436
N6090 X-3.639
N6095 G2 Y13.081 I0. J2.628
N6100 G1 X303.639
N6105 X304.771
N6110 G3 Y18.338 I0. J2.628
N6115 G1 X-4.771
N6120 X-5.
N6125 G2 Y23.595 I0. J2.628
N6130 G1 X305.
N6135 G3 Y28.852 I0. J2.628
N6140 G1 X-5.
N6145 G2 Y34.109 I0. J2.628
N6150 G1 X305.
N6155 G3 Y39.366 I0. J2.628
N6160 G1 X-5.
N6165 G2 Y44.623 I0. J2.628
N6170 G1 X305.
N6175 G3 Y49.88 I0. J2.628
N6180 G1 X-5.
N6185 G2 Y55.137 I0. J2.628
N6190 G1 X305.
N6195 G3 Y60.394 I0. J2.628
N6200 G1 X-5.
N6205 G2 Y65.651 I0. J2.628
N6210 G1 X305.
N6215 G3 Y70.908 I0. J2.628
N6220 G1 X-5.
N6225 G2 Y76.165 I0. J2.628
N6230 G1 X305.
N6235 G3 Y81.422 I0. J2.628
N6240 G1 X-5.
N6245 G2 Y86.679 I0. J2.628
N6250 G1 X305.
N6255 G3 Y91.936 I0. J2.628
N6260 G1 X-5.
N6265 G2 Y97.192 I0. J2.628
N6270 G1 X305.
N6275 G3 Y102.449 I0. J2.628
N6280 G1 X-5.
N6285 G2 Y107.706 I0. J2.628
N6290 G1 X305.
N6295 G3 Y112.963 I0. J2.628
N6300 G1 X-5.
N6305 G2 Y118.22 I0. J2.628
N6310 G1 X305.
N6315 G3 Y123.477 I0. J2.628
N6320 G1 X-5.
N6325 G2 Y128.734 I0. J2.628
N6330 G1 X305.
N6335 G3 Y133.991 I0. J2.628
N6340 G1 X-5.
N6345 G2 Y139.248 I0. J2.628
N6350 G1 X305.
N6355 G3 Y144.505 I0. J2.628
N6360 G1 X-5.
N6365 G2 Y149.762 I0. J2.628
N6370 G1 X305.
N6375 G3 Y155.019 I0. J2.628
N6380 G1 X-5.
N6385 G2 Y160.276 I0. J2.628
N6390 G1 X305.
N6395 G3 Y165.533 I0. J2.628
N6400 G1 X-5.
N6405 G2 Y170.79 I0. J2.628
N6410 G1 X305.
N6415 G3 Y176.047 I0. J2.628
N6420 G1 X-5.
N6425 G2 Y181.304 I0. J2.628
N6430 G1 X305.
N6435 G3 Y186.561 I0. J2.628
N6440 G1 X-5.
N6445 G2 Y191.818 I0. J2.628
N6450 G1 X305.
N6455 G3 Y197.075 I0. J2.628
N6460 G1 X-5.
N6465 G2 Y202.332 I0. J2.628
N6470 G1 X305.
N6475 G3 Y207.589 I0. J2.628
N6480 G1 X-5.
N6485 G2 Y212.846 I0. J2.628
N6490 G1 X305.
N6495 G3 Y218.103 I0. J2.628
N6500 G1 X-5.
N6505 G2 Y223.36 I0. J2.628
N6510 G1 X305.
N6515 G3 Y228.617 I0. J2.628
N6520 G1 X-5.
N6525 G2 Y233.874 I0. J2.628
N6530 G1 X305.
N6535 G3 Y239.131 I0. J2.628
N6540 G1 X-5.
N6545 G2 Y244.388 I0. J2.628
N6550 G1 X305.
N6555 G3 Y249.645 I0. J2.628
N6560 G1 X-5.
N6565 G2 Y254.902 I0. J2.628
N6570 G1 X305.
N6575 G3 Y260.159 I0. J2.628
N6580 G1 X-5.
N6585 G2 Y265.416 I0. J2.628
N6590 G1 X305.
N6595 G3 Y270.673 I0. J2.628
N6600 G1 X-5.
N6605 G2 Y275.93 I0. J2.628
N6610 G1 X305.
N6615 G3 Y281.187 I0. J2.628
N6620 G1 X-5.
N6625 G2 Y286.444 I0. J2.628
N6630 G1 X305.
N6635 G3 Y291.701 I0. J2.628
N6640 G1 X-5.
N6645 G2 Y296.958 I0. J2.629
N6650 G1 X305.
N6655 G3 Y302.214 I0. J2.628
N6660 G1 X-5.
N6665 G2 Y307.471 I0. J2.629
N6670 G1 X305.
N6675 G3 Y312.728 I0. J2.628
N6680 G1 X-5.
N6685 G2 Y317.985 I0. J2.629
N6690 G1 X305.
N6695 G3 Y323.242 I0. J2.628
N6700 G1 X-5.
N6705 G2 Y328.499 I0. J2.629
N6710 G1 X305.
N6715 G3 Y333.756 I0. J2.628
N6720 G1 X-5.
N6725 G2 Y339.013 I0. J2.628
N6730 G1 X305.
N6735 G3 Y344.27 I0. J2.628
N6740 G1 X-5.
N6745 G2 Y349.527 I0. J2.628
N6750 G1 X305.
N6755 G3 Y354.784 I0. J2.628
N6760 G1 X-5.
N6765 G2 Y360.041 I0. J2.628
N6770 G1 X305.
N6775 G3 Y365.298 I0. J2.628
N6780 G1 X-5.
N6785 G2 Y370.555 I0. J2.628
N6790 G1 X305.
N6795 G3 Y375.812 I0. J2.629
N6800 G1 X-5.
N6805 G2 Y381.069 I0. J2.628
N6810 G1 X-4.84
N6815 X304.84
N6820 G3 Y386.326 I0. J2.629
N6825 G1 X303.819
N6830 X-3.819
N6835 G2 Y391.583 I0. J2.628
N6840 G1 X-1.746
N6845 X301.746
N6850 G3 Y396.84 I0. J2.629
N6855 G1 X298.346
N6860 X1.654
N6865 G2 Y402.097 I0. J2.628
N6870 G1 X7.134
N6875 X292.866
N6880 G18 G2 X293.466 Z-7.3 I0. K0.6
N6885 G0 Z30.
N6890 G17
N6895 G53 G0 Z0.
N6900 M30
%
