%
(1001)
(T1  D=6. CR=0. - ZMIN=-12. - FLAT END MILL)
N10 G90 G94 G17 G91.1
N15 G21
N20 G53 G0 Z0.
(2D CONTOUR6MM OUTSIDE)
N25 T1 M6
N30 S24000 M3
N35 G54
N40 G0 X135.6 Y5.2
N45 G43 Z30. H1
N50 G0 Z5.
N55 G1 Z2. F50.
N60 Z-0.4
N65 G19 G3 Y5.8 Z-1. J0.6 K0.
N70 G1 Y6.4 F4000.
N75 G17 G3 X135. Y7. I-0.6 J0.
N80 G1 X10.
N85 G2 X7. Y10. I0. J3.
N90 G1 Y360.
N95 G2 X10. Y363. I3. J0.
N100 G1 X260.
N105 G2 X263. Y360. I0. J-3.
N110 G1 Y10.
N115 G2 X260. Y7. I-3. J0.
N120 G1 X135.
N125 G3 X134.4 Y6.4 I0. J-0.6
N130 G1 Y5.8
N135 G19 G2 Y5.2 Z-0.4 J0. K0.6
N140 G0 Z5.
N145 X135.6
N150 G1 Z1. F50.
N155 Z-1.4
N160 G3 Y5.8 Z-2. J0.6 K0.
N165 G1 Y6.4 F4000.
N170 G17 G3 X135. Y7. I-0.6 J0.
N175 G1 X10.
N180 G2 X7. Y10. I0. J3.
N185 G1 Y360.
N190 G2 X10. Y363. I3. J0.
N195 G1 X260.
N200 G2 X263. Y360. I0. J-3.
N205 G1 Y10.
N210 G2 X260. Y7. I-3. J0.
N215 G1 X135.
N220 G3 X134.4 Y6.4 I0. J-0.6
N225 G1 Y5.8
N230 G19 G2 Y5.2 Z-1.4 J0. K0.6
N235 G0 Z5.
N240 X135.6
N245 G1 Z0. F50.
N250 Z-2.4
N255 G3 Y5.8 Z-3. J0.6 K0.
N260 G1 Y6.4 F4000.
N265 G17 G3 X135. Y7. I-0.6 J0.
N270 G1 X10.
N275 G2 X7. Y10. I0. J3.
N280 G1 Y360.
N285 G2 X10. Y363. I3. J0.
N290 G1 X260.
N295 G2 X263. Y360. I0. J-3.
N300 G1 Y10.
N305 G2 X260. Y7. I-3. J0.
N310 G1 X135.
N315 G3 X134.4 Y6.4 I0. J-0.6
N320 G1 Y5.8
N325 G19 G2 Y5.2 Z-2.4 J0. K0.6
N330 G0 Z5.
N335 X135.6
N340 G1 Z-1. F50.
N345 Z-3.4
N350 G3 Y5.8 Z-4. J0.6 K0.
N355 G1 Y6.4 F4000.
N360 G17 G3 X135. Y7. I-0.6 J0.
N365 G1 X10.
N370 G2 X7. Y10. I0. J3.
N375 G1 Y360.
N380 G2 X10. Y363. I3. J0.
N385 G1 X260.
N390 G2 X263. Y360. I0. J-3.
N395 G1 Y10.
N400 G2 X260. Y7. I-3. J0.
N405 G1 X135.
N410 G3 X134.4 Y6.4 I0. J-0.6
N415 G1 Y5.8
N420 G19 G2 Y5.2 Z-3.4 J0. K0.6
N425 G0 Z5.
N430 X135.6
N435 G1 Z-2. F50.
N440 Z-4.4
N445 G3 Y5.8 Z-5. J0.6 K0.
N450 G1 Y6.4 F4000.
N455 G17 G3 X135. Y7. I-0.6 J0.
N460 G1 X10.
N465 G2 X7. Y10. I0. J3.
N470 G1 Y360.
N475 G2 X10. Y363. I3. J0.
N480 G1 X260.
N485 G2 X263. Y360. I0. J-3.
N490 G1 Y10.
N495 G2 X260. Y7. I-3. J0.
N500 G1 X135.
N505 G3 X134.4 Y6.4 I0. J-0.6
N510 G1 Y5.8
N515 G19 G2 Y5.2 Z-4.4 J0. K0.6
N520 G0 Z5.
N525 X135.6
N530 G1 Z-3. F50.
N535 Z-5.4
N540 G3 Y5.8 Z-6. J0.6 K0.
N545 G1 Y6.4 F4000.
N550 G17 G3 X135. Y7. I-0.6 J0.
N555 G1 X10.
N560 G2 X7. Y10. I0. J3.
N565 G1 Y360.
N570 G2 X10. Y363. I3. J0.
N575 G1 X260.
N580 G2 X263. Y360. I0. J-3.
N585 G1 Y10.
N590 G2 X260. Y7. I-3. J0.
N595 G1 X135.
N600 G3 X134.4 Y6.4 I0. J-0.6
N605 G1 Y5.8
N610 G19 G2 Y5.2 Z-5.4 J0. K0.6
N615 G0 Z5.
N620 X135.6
N625 G1 Z-4. F50.
N630 Z-6.4
N635 G3 Y5.8 Z-7. J0.6 K0.
N640 G1 Y6.4 F4000.
N645 G17 G3 X135. Y7. I-0.6 J0.
N650 G1 X10.
N655 G2 X7. Y10. I0. J3.
N660 G1 Y360.
N665 G2 X10. Y363. I3. J0.
N670 G1 X260.
N675 G2 X263. Y360. I0. J-3.
N680 G1 Y10.
N685 G2 X260. Y7. I-3. J0.
N690 G1 X135.
N695 G3 X134.4 Y6.4 I0. J-0.6
N700 G1 Y5.8
N705 G19 G2 Y5.2 Z-6.4 J0. K0.6
N710 G0 Z5.
N715 X135.6
N720 G1 Z-5. F50.
N725 Z-7.4
N730 G3 Y5.8 Z-8. J0.6 K0.
N735 G1 Y6.4 F4000.
N740 G17 G3 X135. Y7. I-0.6 J0.
N745 G1 X10.
N750 G2 X7. Y10. I0. J3.
N755 G1 Y360.
N760 G2 X10. Y363. I3. J0.
N765 G1 X260.
N770 G2 X263. Y360. I0. J-3.
N775 G1 Y10.
N780 G2 X260. Y7. I-3. J0.
N785 G1 X135.
N790 G3 X134.4 Y6.4 I0. J-0.6
N795 G1 Y5.8
N800 G19 G2 Y5.2 Z-7.4 J0. K0.6
N805 G0 Z5.
N810 X135.6
N815 G1 Z-6. F50.
N820 Z-8.4
N825 G3 Y5.8 Z-9. J0.6 K0.
N830 G1 Y6.4 F4000.
N835 G17 G3 X135. Y7. I-0.6 J0.
N840 G1 X10.
N845 G2 X7. Y10. I0. J3.
N850 G1 Y360.
N855 G2 X10. Y363. I3. J0.
N860 G1 X260.
N865 G2 X263. Y360. I0. J-3.
N870 G1 Y10.
N875 G2 X260. Y7. I-3. J0.
N880 G1 X135.
N885 G3 X134.4 Y6.4 I0. J-0.6
N890 G1 Y5.8
N895 G19 G2 Y5.2 Z-8.4 J0. K0.6
N900 G0 Z5.
N905 X135.6
N910 G1 Z-7. F50.
N915 Z-9.4
N920 G3 Y5.8 Z-10. J0.6 K0.
N925 G1 Y6.4 F4000.
N930 G17 G3 X135. Y7. I-0.6 J0.
N935 G1 X10.
N940 G2 X7. Y10. I0. J3.
N945 G1 Y360.
N950 G2 X10. Y363. I3. J0.
N955 G1 X260.
N960 G2 X263. Y360. I0. J-3.
N965 G1 Y10.
N970 G2 X260. Y7. I-3. J0.
N975 G1 X135.
N980 G3 X134.4 Y6.4 I0. J-0.6
N985 G1 Y5.8
N990 G19 G2 Y5.2 Z-9.4 J0. K0.6
N995 G0 Z5.
N1000 X135.6
N1005 G1 Z-8. F50.
N1010 Z-10.
N1015 Y5.8
N1020 Y6.4 F4000.
N1025 G17 G3 X135. Y7. I-0.6 J0.
N1030 G1 X129.
N1035 Z-11. F50.
N1040 X10. F4000.
N1045 G2 X7. Y10. I0. J3.
N1050 G1 Y91.5
N1055 Z-10.
N1060 Y103.5
N1065 Z-11. F50.
N1070 Y266.5 F4000.
N1075 Z-10.
N1080 Y278.5
N1085 Z-11. F50.
N1090 Y360. F4000.
N1095 G2 X10. Y363. I3. J0.
N1100 G1 X129.
N1105 Z-10.
N1110 X141.
N1115 Z-11. F50.
N1120 X260. F4000.
N1125 G2 X263. Y360. I0. J-3.
N1130 G1 Y278.5
N1135 Z-10.
N1140 Y266.5
N1145 Z-11. F50.
N1150 Y103.5 F4000.
N1155 Z-10.
N1160 Y91.5
N1165 Z-11. F50.
N1170 Y10. F4000.
N1175 G2 X260. Y7. I-3. J0.
N1180 G1 X141.
N1185 Z-10.
N1190 X135.
N1195 G3 X134.4 Y6.4 I0. J-0.6
N1200 G1 Y5.2
N1205 G0 Z5.
N1210 X135.6
N1215 G1 Z-9. F50.
N1220 Z-10.
N1225 Y5.8
N1230 Y6.4 F4000.
N1235 G3 X135. Y7. I-0.6 J0.
N1240 G1 X129.
N1245 Z-12. F50.
N1250 X10. F4000.
N1255 G2 X7. Y10. I0. J3.
N1260 G1 Y91.5
N1265 Z-10.
N1270 Y103.5
N1275 Z-12. F50.
N1280 Y266.5 F4000.
N1285 Z-10.
N1290 Y278.5
N1295 Z-12. F50.
N1300 Y360. F4000.
N1305 G2 X10. Y363. I3. J0.
N1310 G1 X129.
N1315 Z-10.
N1320 X141.
N1325 Z-12. F50.
N1330 X260. F4000.
N1335 G2 X263. Y360. I0. J-3.
N1340 G1 Y278.5
N1345 Z-10.
N1350 Y266.5
N1355 Z-12. F50.
N1360 Y103.5 F4000.
N1365 Z-10.
N1370 Y91.5
N1375 Z-12. F50.
N1380 Y10. F4000.
N1385 G2 X260. Y7. I-3. J0.
N1390 G1 X141.
N1395 Z-10.
N1400 X135.
N1405 G3 X134.4 Y6.4 I0. J-0.6
N1410 G1 Y5.2
N1415 G0 Z30.
N1420 G53 Z0.
N1425 M30
%
