%
(1001)
(T1  D=6. CR=0. - ZMIN=-3. - FLAT END MILL)
N10 G90 G94 G17 G91.1
N15 G21
N20 G53 G0 Z0.
(2D CONTOUR16MM)
N25 T1 M6
N30 S24000 M3
N35 G54
N40 G0 X245.5 Y184.4
N45 G43 Z30. H1
N50 G0 Z5.
N55 G1 Z3. F50.
N60 Z-1.4
N65 G18 G2 X246.1 Z-2. I0.6 K0.
N70 G1 X246.7 F4000.
N75 G17 G3 X247.3 Y185. I0. J0.6
N80 G1 Y340.
N85 G3 X240. Y347.3 I-7.3 J0.
N90 G1 X30.
N95 G3 X22.7 Y340. I0. J-7.3
N100 G1 Y30.
N105 G3 X30. Y22.7 I7.3 J0.
N110 G1 X100.
N115 X240.
N120 G3 X247.3 Y30. I0. J7.3
N125 G1 Y185.
N130 G3 X246.7 Y185.6 I-0.6 J0.
N135 G1 X246.1
N140 G18 G3 X245.5 Z-1.4 I0. K0.6
N145 G0 Z5.
N150 Y184.4
N155 G1 Z1. F50.
N160 Z-2.4
N165 G2 X246.1 Z-3. I0.6 K0.
N170 G1 X246.7 F4000.
N175 G17 G3 X247.3 Y185. I0. J0.6
N180 G1 Y340.
N185 G3 X240. Y347.3 I-7.3 J0.
N190 G1 X30.
N195 G3 X22.7 Y340. I0. J-7.3
N200 G1 Y30.
N205 G3 X30. Y22.7 I7.3 J0.
N210 G1 X100.
N215 X240.
N220 G3 X247.3 Y30. I0. J7.3
N225 G1 Y185.
N230 G3 X246.7 Y185.6 I-0.6 J0.
N235 G1 X246.1
N240 G18 G3 X245.5 Z-2.4 I0. K0.6
N245 G0 Z5.
N250 X134.4 Y74.5
N255 G1 Z3. F50.
N260 Z-1.4
N265 G19 G2 Y73.9 Z-2. J-0.6 K0.
N270 G1 Y73.3 F4000.
N275 G17 G3 X135. Y72.7 I0.6 J0.
N280 G1 X170.606
N285 G2 X183.306 Y60. I0. J-12.7
N290 G1 Y43.037
N295 G2 X170.606 Y30.337 I-12.7 J0.
N300 G1 X100.
N305 G2 X87.3 Y43.037 I0. J12.7
N310 G1 Y60.
N315 G2 X100. Y72.7 I12.7 J0.
N320 G1 X135.
N325 G3 X135.6 Y73.3 I0. J0.6
N330 G1 Y73.9
N335 G19 G3 Y74.5 Z-1.4 J0. K0.6
N340 G0 Z5.
N345 X171.206 Y28.537
N350 G1 Z1. F50.
N355 Z-2.4
N360 G3 Y29.137 Z-3. J0.6 K0.
N365 G1 Y29.737 F4000.
N370 G17 G3 X170.606 Y30.337 I-0.6 J0.
N375 G1 X100.
N380 G2 X87.3 Y43.037 I0. J12.7
N385 G1 Y60.
N390 G2 X100. Y72.7 I12.7 J0.
N395 G1 X170.606
N400 G2 X183.306 Y60. I0. J-12.7
N405 G1 Y43.037
N410 G2 X170.606 Y30.337 I-12.7 J0.
N415 G3 X170.006 Y29.737 I0. J-0.6
N420 G1 Y29.137
N425 G19 G2 Y28.537 Z-2.4 J0. K0.6
N430 G0 Z30.
N435 G17
(2D ADAPTIVE6MM)
N440 G0 X216.219 Y59.245
N445 Z30.
N450 Z5.
N455 Z2.5
N460 G3 X214.329 Y64.622 Z2.187 I-0.945 J2.689 F50.
N465 X216.219 Y59.245 Z1.875 I0.945 J-2.689
N470 X214.329 Y64.622 Z1.562 I-0.945 J2.689
N475 X216.219 Y59.245 Z1.249 I0.945 J-2.689
N480 X214.329 Y64.622 Z0.937 I-0.945 J2.689
N485 X216.219 Y59.245 Z0.624 I0.945 J-2.689
N490 X214.329 Y64.622 Z0.311 I-0.945 J2.689
N495 X216.219 Y59.245 Z-0.001 I0.945 J-2.689
N500 X214.329 Y64.622 Z-0.314 I-0.945 J2.689
N505 X216.219 Y59.245 Z-0.627 I0.945 J-2.689
N510 X214.329 Y64.622 Z-0.939 I-0.945 J2.689
N515 X216.219 Y59.245 Z-1.252 I0.945 J-2.689
N520 X214.329 Y64.622 Z-1.565 I-0.945 J2.689
N525 X216.219 Y59.245 Z-1.877 I0.945 J-2.689
N530 X218.124 Y61.933 Z-2. I-0.945 J2.689
N535 X212.424 I-2.85 J0.
N540 X218.124 I2.85 J0.
N545 G1 X218.127 Y62.155 F4000.
N550 X218.28 Y63.028
N555 X218.331 Y63.169
N560 X218.364 Y63.315
N565 X218.383 Y63.464
N570 X218.387 Y63.614
N575 X218.379 Y63.768
N580 X218.357 Y63.931
N585 X218.319 Y64.103
N590 X218.264 Y64.282
N595 X218.192 Y64.466
N600 X218.1 Y64.654
N605 X217.988 Y64.842
N610 X217.855 Y65.03
N615 X217.7 Y65.214
N620 X217.525 Y65.392
N625 X217.329 Y65.562
N630 X217.113 Y65.72
N635 X216.877 Y65.866
N640 X216.623 Y65.995
N645 X216.352 Y66.107
N650 X216.067 Y66.199
N655 X215.768 Y66.269
N660 X215.459 Y66.316
N665 X215.141 Y66.338
N670 X214.818 Y66.335
N675 X214.491 Y66.305
N680 X214.163 Y66.249
N685 X213.837 Y66.165
N690 X213.516 Y66.054
N695 X213.201 Y65.917
N700 X212.897 Y65.753
N705 X212.604 Y65.565
N710 X212.326 Y65.352
N715 X212.064 Y65.116
N720 X211.821 Y64.859
N725 X211.598 Y64.581
N730 X211.397 Y64.286
N735 X211.221 Y63.974
N740 X211.069 Y63.649
N745 X210.944 Y63.311
N750 X210.846 Y62.964
N755 X210.776 Y62.609
N760 X210.734 Y62.249
N765 X210.722 Y61.887
N770 X210.739 Y61.524
N775 X210.785 Y61.163
N780 X210.859 Y60.807
N785 X210.963 Y60.457
N790 X211.094 Y60.117
N795 X211.252 Y59.788
N800 X211.436 Y59.473
N805 X211.645 Y59.173
N810 X211.877 Y58.891
N815 X212.131 Y58.628
N820 X212.406 Y58.387
N825 X212.699 Y58.168
N830 X213.009 Y57.973
N835 X213.334 Y57.804
N840 X213.671 Y57.662
N845 X214.019 Y57.547
N850 X214.375 Y57.46
N855 X214.736 Y57.402
N860 X215.101 Y57.374
N865 X215.468
N870 X215.833 Y57.405
N875 X216.194 Y57.464
N880 X216.55 Y57.552
N885 X216.897 Y57.669
N890 X217.234 Y57.813
N895 X217.559 Y57.983
N900 X217.868 Y58.179
N905 X218.161 Y58.399
N910 X218.436 Y58.642
N915 X218.69 Y58.907
N920 X218.921 Y59.19
N925 X219.13 Y59.492
N930 X219.426 Y60.004
N935 X219.769 Y60.726
N940 X219.977 Y61.271
N945 X220.119 Y61.758
N950 X220.211 Y62.208
N955 X220.265 Y62.641
N960 X220.282 Y63.061
N965 X220.267 Y63.468
N970 X220.22 Y63.866
N975 X220.141 Y64.254
N980 X220.033 Y64.634
N985 X219.894 Y65.003
N990 X219.725 Y65.362
N995 X219.526 Y65.709
N1000 X219.299 Y66.041
N1005 X219.043 Y66.357
N1010 X218.76 Y66.654
N1015 X218.45 Y66.931
N1020 X218.114 Y67.186
N1025 X217.754 Y67.416
N1030 X217.372 Y67.619
N1035 X216.968 Y67.793
N1040 X216.547 Y67.937
N1045 X216.109 Y68.047
N1050 X215.659 Y68.123
N1055 X215.199 Y68.163
N1060 X214.733 Y68.166
N1065 X214.262 Y68.131
N1070 X213.792 Y68.058
N1075 X213.326 Y67.946
N1080 X212.867 Y67.796
N1085 X212.417 Y67.609
N1090 X211.982 Y67.384
N1095 X211.564 Y67.124
N1100 X211.165 Y66.83
N1105 X210.789 Y66.502
N1110 X210.44 Y66.144
N1115 X210.119 Y65.758
N1120 X209.828 Y65.345
N1125 X209.571 Y64.909
N1130 X209.349 Y64.452
N1135 X209.164 Y63.977
N1140 X209.017 Y63.488
N1145 X208.91 Y62.988
N1150 X208.843 Y62.479
N1155 X208.817 Y61.966
N1160 X208.833 Y61.452
N1165 X208.889 Y60.94
N1170 X208.987 Y60.433
N1175 X209.125 Y59.936
N1180 X209.303 Y59.451
N1185 X209.519 Y58.981
N1190 X209.773 Y58.529
N1195 X210.062 Y58.1
N1200 X210.385 Y57.694
N1205 X210.739 Y57.316
N1210 X211.123 Y56.967
N1215 X211.534 Y56.65
N1220 X211.969 Y56.367
N1225 X212.426 Y56.12
N1230 X212.901 Y55.91
N1235 X213.391 Y55.738
N1240 X213.894 Y55.607
N1245 X214.406 Y55.517
N1250 X214.923 Y55.467
N1255 X215.443 Y55.46
N1260 X215.962 Y55.494
N1265 X216.476 Y55.57
N1270 X216.983 Y55.687
N1275 X217.478 Y55.844
N1280 X217.96 Y56.04
N1285 X218.424 Y56.275
N1290 X218.868 Y56.545
N1295 X219.289 Y56.851
N1300 X219.717 Y57.219
N1305 X220.164 Y57.668
N1310 X220.582 Y58.164
N1315 X220.971 Y58.706
N1320 X221.314 Y59.278
N1325 X221.605 Y59.864
N1330 X221.841 Y60.455
N1335 X222.024 Y61.049
N1340 X222.157 Y61.641
N1345 X222.239 Y62.232
N1350 X222.274 Y62.819
N1355 X222.261 Y63.4
N1360 X222.203 Y63.973
N1365 X222.099 Y64.536
N1370 X221.951 Y65.086
N1375 X221.76 Y65.621
N1380 X221.526 Y66.139
N1385 X221.252 Y66.638
N1390 X220.937 Y67.114
N1395 X220.583 Y67.566
N1400 X220.192 Y67.99
N1405 X219.765 Y68.384
N1410 X219.305 Y68.746
N1415 X218.813 Y69.072
N1420 X218.292 Y69.359
N1425 X217.745 Y69.607
N1430 X217.175 Y69.811
N1435 X216.586 Y69.97
N1440 X215.981 Y70.082
N1445 X215.365 Y70.146
N1450 X214.741 Y70.16
N1455 X214.114 Y70.124
N1460 X213.487 Y70.037
N1465 X212.866 Y69.899
N1470 X212.253 Y69.71
N1475 X211.655 Y69.472
N1480 X211.074 Y69.185
N1485 X210.516 Y68.85
N1490 X209.983 Y68.47
N1495 X209.481 Y68.046
N1500 X209.012 Y67.582
N1505 X208.58 Y67.079
N1510 X208.189 Y66.542
N1515 X207.841 Y65.973
N1520 X207.539 Y65.376
N1525 X207.285 Y64.756
N1530 X207.081 Y64.115
N1535 X206.929 Y63.459
N1540 X206.83 Y62.792
N1545 X206.785 Y62.117
N1550 X206.794 Y61.441
N1555 X206.857 Y60.766
N1560 X206.975 Y60.098
N1565 X207.146 Y59.44
N1570 X207.369 Y58.798
N1575 X207.643 Y58.176
N1580 X207.967 Y57.577
N1585 X208.338 Y57.005
N1590 X208.754 Y56.465
N1595 X209.212 Y55.96
N1600 X209.709 Y55.493
N1605 X210.242 Y55.067
N1610 X210.808 Y54.686
N1615 X211.403 Y54.351
N1620 X212.023 Y54.064
N1625 X212.665 Y53.829
N1630 X213.323 Y53.645
N1635 X213.994 Y53.515
N1640 X214.673 Y53.439
N1645 X215.356 Y53.418
N1650 X216.039 Y53.452
N1655 X216.717 Y53.54
N1660 X217.385 Y53.683
N1665 X218.041 Y53.879
N1670 X218.678 Y54.126
N1675 X219.303 Y54.429
N1680 X219.924 Y54.794
N1685 X220.531 Y55.221
N1690 X221.12 Y55.709
N1695 X221.68 Y56.254
N1700 X222.2 Y56.85
N1705 X222.673 Y57.489
N1710 X223.093 Y58.162
N1715 X223.455 Y58.863
N1720 X223.758 Y59.586
N1725 X223.999 Y60.324
N1730 X224.179 Y61.073
N1735 X224.298 Y61.827
N1740 X224.355 Y62.583
N1745 X224.351 Y63.335
N1750 X224.287 Y64.081
N1755 X224.164 Y64.816
N1760 X223.983 Y65.537
N1765 X223.745 Y66.239
N1770 X223.451 Y66.92
N1775 X223.104 Y67.575
N1780 X222.705 Y68.202
N1785 X222.255 Y68.796
N1790 X221.757 Y69.354
N1795 X221.214 Y69.873
N1800 X220.627 Y70.349
N1805 X220.001 Y70.779
N1810 X219.339 Y71.159
N1815 X218.645 Y71.487
N1820 X217.921 Y71.759
N1825 X217.174 Y71.974
N1830 X216.408 Y72.13
N1835 X215.627 Y72.223
N1840 X214.837 Y72.254
N1845 X214.042 Y72.221
N1850 X213.248 Y72.125
N1855 X212.461 Y71.963
N1860 X211.685 Y71.738
N1865 X210.926 Y71.451
N1870 X210.189 Y71.101
N1875 X209.48 Y70.692
N1880 X208.804 Y70.225
N1885 X208.164 Y69.704
N1890 X207.567 Y69.131
N1895 X207.015 Y68.51
N1900 X206.514 Y67.845
N1905 X206.066 Y67.14
N1910 X205.676 Y66.399
N1915 X205.346 Y65.628
N1920 X205.077 Y64.831
N1925 X204.874 Y64.013
N1930 X204.736 Y63.181
N1935 X204.666 Y62.339
N1940 X204.663 Y61.492
N1945 X204.729 Y60.647
N1950 X204.862 Y59.809
N1955 X205.062 Y58.984
N1960 X205.328 Y58.177
N1965 X205.658 Y57.393
N1970 X206.05 Y56.638
N1975 X206.502 Y55.916
N1980 X207.011 Y55.232
N1985 X207.573 Y54.591
N1990 X208.185 Y53.997
N1995 X208.843 Y53.454
N2000 X209.543 Y52.965
N2005 X210.28 Y52.534
N2010 X211.049 Y52.164
N2015 X211.845 Y51.856
N2020 X212.664 Y51.613
N2025 X213.5 Y51.436
N2030 X214.348 Y51.327
N2035 X215.201 Y51.287
N2040 X216.056 Y51.315
N2045 X216.905 Y51.412
N2050 X217.745 Y51.577
N2055 X218.576 Y51.81
N2060 X219.394 Y52.113
N2065 X220.195 Y52.485
N2070 X220.966 Y52.921
N2075 X221.7 Y53.417
N2080 X222.393 Y53.969
N2085 X223.043 Y54.572
N2090 X223.645 Y55.222
N2095 X224.197 Y55.915
N2100 X224.696 Y56.647
N2105 X225.14 Y57.414
N2110 X225.525 Y58.212
N2115 X225.85 Y59.037
N2120 X226.113 Y59.883
N2125 X226.311 Y60.747
N2130 X226.443 Y61.623
N2135 X226.507 Y62.507
N2140 X226.504 Y63.393
N2145 X226.432 Y64.276
N2150 X226.293 Y65.151
N2155 X226.085 Y66.013
N2160 X225.811 Y66.855
N2165 X225.473 Y67.674
N2170 X225.072 Y68.464
N2175 X224.61 Y69.221
N2180 X224.092 Y69.94
N2185 X223.519 Y70.616
N2190 X222.896 Y71.246
N2195 X222.227 Y71.827
N2200 X221.515 Y72.354
N2205 X220.765 Y72.826
N2210 X219.982 Y73.24
N2215 X219.169 Y73.594
N2220 X218.333 Y73.886
N2225 X217.477 Y74.115
N2230 X216.606 Y74.28
N2235 X215.725 Y74.38
N2240 X214.84 Y74.414
N2245 X213.954 Y74.382
N2250 X213.074 Y74.284
N2255 X212.203 Y74.122
N2260 X211.346 Y73.897
N2265 X210.507 Y73.61
N2270 X209.691 Y73.265
N2275 X208.902 Y72.862
N2280 X208.143 Y72.404
N2285 X207.419 Y71.894
N2290 X206.733 Y71.332
N2295 X206.091 Y70.722
N2300 X205.493 Y70.068
N2305 X204.944 Y69.373
N2310 X204.444 Y68.641
N2315 X203.997 Y67.876
N2320 X203.603 Y67.082
N2325 X203.266 Y66.262
N2330 X202.988 Y65.421
N2335 X202.771 Y64.562
N2340 X202.616 Y63.689
N2345 X202.521 Y62.808
N2350 X202.488 Y61.923
N2355 X202.515 Y61.037
N2360 X202.603 Y60.155
N2365 X202.752 Y59.282
N2370 X202.964 Y58.421
N2375 X203.235 Y57.578
N2380 X203.564 Y56.755
N2385 X203.95 Y55.957
N2390 X204.389 Y55.187
N2395 X204.879 Y54.449
N2400 X205.419 Y53.747
N2405 X206.007 Y53.084
N2410 X206.641 Y52.465
N2415 X207.316 Y51.891
N2420 X208.029 Y51.365
N2425 X208.777 Y50.889
N2430 X209.555 Y50.465
N2435 X210.36 Y50.095
N2440 X211.19 Y49.783
N2445 X212.039 Y49.53
N2450 X212.904 Y49.337
N2455 X213.78 Y49.204
N2460 X214.663 Y49.131
N2465 X215.549 Y49.119
N2470 X216.434 Y49.166
N2475 X217.313 Y49.275
N2480 X218.183 Y49.446
N2485 X219.038 Y49.677
N2490 X219.876 Y49.966
N2495 X220.693 Y50.309
N2500 X221.485 Y50.706
N2505 X222.25 Y51.153
N2510 X222.982 Y51.652
N2515 X223.68 Y52.198
N2520 X224.342 Y52.788
N2525 X224.964 Y53.418
N2530 X225.547 Y54.086
N2535 X226.086 Y54.789
N2540 X226.58 Y55.525
N2545 X227.025 Y56.292
N2550 X227.42 Y57.085
N2555 X227.765 Y57.901
N2560 X228.058 Y58.737
N2565 X228.299 Y59.59
N2570 X228.485 Y60.456
N2575 X228.613 Y61.333
N2580 X228.684 Y62.216
N2585 X228.699 Y63.102
N2590 X228.656 Y63.987
N2595 X228.558 Y64.868
N2600 X228.403 Y65.741
N2605 X228.19 Y66.601
N2610 X227.921 Y67.445
N2615 X227.597 Y68.27
N2620 X227.221 Y69.072
N2625 X226.794 Y69.849
N2630 X226.319 Y70.596
N2635 X225.795 Y71.311
N2640 X225.224 Y71.989
N2645 X224.611 Y72.629
N2650 X223.958 Y73.228
N2655 X223.269 Y73.785
N2660 X222.546 Y74.297
N2665 X221.791 Y74.762
N2670 X221.008 Y75.176
N2675 X220.2 Y75.539
N2680 X219.37 Y75.85
N2685 X218.523 Y76.11
N2690 X217.661 Y76.316
N2695 X216.788 Y76.469
N2700 X215.907 Y76.565
N2705 X215.022 Y76.604
N2710 X214.136 Y76.587
N2715 X213.253 Y76.516
N2720 X212.375 Y76.391
N2725 X211.507 Y76.213
N2730 X210.652 Y75.982
N2735 X209.813 Y75.697
N2740 X208.993 Y75.361
N2745 X208.195 Y74.976
N2750 X207.421 Y74.543
N2755 X206.675 Y74.066
N2760 X205.959 Y73.544
N2765 X205.277 Y72.978
N2770 X204.631 Y72.371
N2775 X204.023 Y71.726
N2780 X203.455 Y71.046
N2785 X202.929 Y70.334
N2790 X202.444 Y69.592
N2795 X202.005 Y68.822
N2800 X201.614 Y68.027
N2805 X201.272 Y67.21
N2810 X200.98 Y66.373
N2815 X200.738 Y65.52
N2820 X200.547 Y64.655
N2825 X200.406 Y63.78
N2830 X200.318 Y62.899
N2835 X200.284 Y62.013
N2840 X200.303 Y61.127
N2845 X200.374 Y60.244
N2850 X200.498 Y59.366
N2855 X200.672 Y58.498
N2860 X200.897 Y57.641
N2865 X201.174 Y56.799
N2870 X201.501 Y55.975
N2875 X201.876 Y55.172
N2880 X202.297 Y54.393
N2885 X202.763 Y53.639
N2890 X203.273 Y52.914
N2895 X203.823 Y52.22
N2900 X204.416 Y51.561
N2905 X205.047 Y50.938
N2910 X205.713 Y50.355
N2915 X206.413 Y49.811
N2920 X207.143 Y49.309
N2925 X207.901 Y48.85
N2930 X208.684 Y48.435
N2935 X209.491 Y48.069
N2940 X210.319 Y47.753
N2945 X211.164 Y47.486
N2950 X212.023 Y47.27
N2955 X212.894 Y47.104
N2960 X213.772 Y46.988
N2965 X214.656 Y46.923
N2970 X215.542 Y46.912
N2975 X216.427 Y46.954
N2980 X217.308 Y47.049
N2985 X218.182 Y47.195
N2990 X219.046 Y47.391
N2995 X219.898 Y47.636
N3000 X220.734 Y47.93
N3005 X221.551 Y48.272
N3010 X222.347 Y48.662
N3015 X223.119 Y49.096
N3020 X223.866 Y49.574
N3025 X224.584 Y50.092
N3030 X225.274 Y50.649
N3035 X225.931 Y51.243
N3040 X226.555 Y51.873
N3045 X227.142 Y52.536
N3050 X227.692 Y53.231
N3055 X228.202 Y53.955
N3060 X228.673 Y54.706
N3065 X229.103 Y55.481
N3070 X229.49 Y56.278
N3075 X229.833 Y57.095
N3080 X230.13 Y57.93
N3085 X230.38 Y58.78
N3090 X230.583 Y59.643
N3095 X230.738 Y60.515
N3100 X230.845 Y61.395
N3105 X230.905 Y62.279
N3110 X230.915 Y63.165
N3115 X230.875 Y64.05
N3120 X230.785 Y64.932
N3125 X230.646 Y65.807
N3130 X230.458 Y66.673
N3135 X230.223 Y67.527
N3140 X229.941 Y68.367
N3145 X229.612 Y69.19
N3150 X229.238 Y69.993
N3155 X228.818 Y70.774
N3160 X228.355 Y71.529
N3165 X227.851 Y72.258
N3170 X227.307 Y72.958
N3175 X226.726 Y73.627
N3180 X226.109 Y74.263
N3185 X225.457 Y74.862
N3190 X224.772 Y75.425
N3195 X224.057 Y75.948
N3200 X223.314 Y76.432
N3205 X222.546 Y76.874
N3210 X221.756 Y77.274
N3215 X220.944 Y77.63
N3220 X220.115 Y77.941
N3225 X219.269 Y78.206
N3230 X218.41 Y78.424
N3235 X217.541 Y78.595
N3240 X216.663 Y78.718
N3245 X215.78 Y78.794
N3250 X214.895 Y78.824
N3255 X214.009 Y78.804
N3260 X213.125 Y78.737
N3265 X212.247 Y78.621
N3270 X211.375 Y78.459
N3275 X210.514 Y78.25
N3280 X209.665 Y77.997
N3285 X208.831 Y77.699
N3290 X208.013 Y77.358
N3295 X207.214 Y76.973
N3300 X206.438 Y76.546
N3305 X205.685 Y76.079
N3310 X204.958 Y75.572
N3315 X204.259 Y75.028
N3320 X203.589 Y74.448
N3325 X202.95 Y73.834
N3330 X202.344 Y73.187
N3335 X201.774 Y72.509
N3340 X201.239 Y71.802
N3345 X200.743 Y71.068
N3350 X200.285 Y70.31
N3355 X199.867 Y69.528
N3360 X199.49 Y68.726
N3365 X199.155 Y67.906
N3370 X198.864 Y67.069
N3375 X198.617 Y66.218
N3380 X198.415 Y65.355
N3385 X198.258 Y64.483
N3390 X198.146 Y63.604
N3395 X198.079 Y62.72
N3400 X198.058 Y61.834
N3405 X198.082 Y60.949
N3410 X198.152 Y60.065
N3415 X198.269 Y59.187
N3420 X198.431 Y58.316
N3425 X198.638 Y57.454
N3430 X198.889 Y56.604
N3435 X199.183 Y55.768
N3440 X199.519 Y54.948
N3445 X199.897 Y54.147
N3450 X200.316 Y53.366
N3455 X200.775 Y52.608
N3460 X201.273 Y51.875
N3465 X201.807 Y51.169
N3470 X202.378 Y50.49
N3475 X202.982 Y49.842
N3480 X203.618 Y49.226
N3485 X204.286 Y48.643
N3490 X204.983 Y48.096
N3495 X205.707 Y47.585
N3500 X206.456 Y47.112
N3505 X207.229 Y46.678
N3510 X208.023 Y46.285
N3515 X208.836 Y45.932
N3520 X209.666 Y45.622
N3525 X210.511 Y45.355
N3530 X211.369 Y45.133
N3535 X212.237 Y44.954
N3540 X213.113 Y44.821
N3545 X213.994 Y44.732
N3550 X214.879 Y44.688
N3555 X215.766 Y44.69
N3560 X216.65 Y44.736
N3565 X217.532 Y44.829
N3570 X218.407 Y44.968
N3575 X219.274 Y45.15
N3580 X220.131 Y45.376
N3585 X220.975 Y45.645
N3590 X221.805 Y45.956
N3595 X222.618 Y46.308
N3600 X223.413 Y46.7
N3605 X224.186 Y47.132
N3610 X224.938 Y47.603
N3615 X225.665 Y48.109
N3620 X226.366 Y48.651
N3625 X227.041 Y49.225
N3630 X227.686 Y49.832
N3635 X228.302 Y50.469
N3640 X228.887 Y51.135
N3645 X229.438 Y51.829
N3650 X229.954 Y52.549
N3655 X230.436 Y53.293
N3660 X230.881 Y54.059
N3665 X231.289 Y54.846
N3670 X231.659 Y55.651
N3675 X231.99 Y56.473
N3680 X232.282 Y57.31
N3685 X232.532 Y58.16
N3690 X232.74 Y59.021
N3695 X232.905 Y59.892
N3700 X233.029 Y60.769
N3705 X233.111 Y61.651
N3710 X233.149 Y62.537
N3715 X233.145 Y63.423
N3720 X233.098 Y64.308
N3725 X233.007 Y65.189
N3730 X232.872 Y66.065
N3735 X232.695 Y66.933
N3740 X232.475 Y67.792
N3745 X232.214 Y68.638
N3750 X231.912 Y69.471
N3755 X231.57 Y70.289
N3760 X231.189 Y71.089
N3765 X230.768 Y71.869
N3770 X230.309 Y72.626
N3775 X229.813 Y73.361
N3780 X229.282 Y74.07
N3785 X228.717 Y74.753
N3790 X228.12 Y75.408
N3795 X227.492 Y76.033
N3800 X226.835 Y76.627
N3805 X226.149 Y77.188
N3810 X225.436 Y77.715
N3815 X224.699 Y78.206
N3820 X223.938 Y78.661
N3825 X223.157 Y79.079
N3830 X222.357 Y79.459
N3835 X221.539 Y79.801
N3840 X220.706 Y80.104
N3845 X219.86 Y80.366
N3850 X219.001 Y80.586
N3855 X218.133 Y80.765
N3860 X217.258 Y80.901
N3865 X216.377 Y80.997
N3870 X215.492 Y81.05
N3875 X214.606 Y81.062
N3880 X213.721 Y81.031
N3885 X212.838 Y80.96
N3890 X211.959 Y80.845
N3895 X211.087 Y80.689
N3900 X210.223 Y80.492
N3905 X209.369 Y80.254
N3910 X208.527 Y79.977
N3915 X207.699 Y79.662
N3920 X206.887 Y79.308
N3925 X206.092 Y78.917
N3930 X205.316 Y78.489
N3935 X204.561 Y78.024
N3940 X203.829 Y77.525
N3945 X203.121 Y76.992
N3950 X202.439 Y76.427
N3955 X201.783 Y75.831
N3960 X201.155 Y75.205
N3965 X200.557 Y74.552
N3970 X199.989 Y73.872
N3975 X199.454 Y73.165
N3980 X198.952 Y72.435
N3985 X198.485 Y71.682
N3990 X198.053 Y70.908
N3995 X197.657 Y70.115
N4000 X197.297 Y69.306
N4005 X196.975 Y68.48
N4010 X196.691 Y67.641
N4015 X196.445 Y66.789
N4020 X196.24 Y65.927
N4025 X196.075 Y65.057
N4030 X195.95 Y64.18
N4035 X195.865 Y63.297
N4040 X195.82 Y62.412
N4045 X195.815 Y61.526
N4050 X195.851 Y60.641
N4055 X195.926 Y59.758
N4060 X196.043 Y58.88
N4065 X196.2 Y58.008
N4070 X196.398 Y57.144
N4075 X196.634 Y56.29
N4080 X196.909 Y55.447
N4085 X197.221 Y54.618
N4090 X197.571 Y53.804
N4095 X197.957 Y53.006
N4100 X198.379 Y52.227
N4105 X198.836 Y51.468
N4110 X199.329 Y50.732
N4115 X199.854 Y50.018
N4120 X200.412 Y49.329
N4125 X201. Y48.666
N4130 X201.617 Y48.03
N4135 X202.262 Y47.423
N4140 X202.934 Y46.845
N4145 X203.632 Y46.299
N4150 X204.354 Y45.786
N4155 X205.099 Y45.306
N4160 X205.866 Y44.861
N4165 X206.651 Y44.451
N4170 X207.454 Y44.077
N4175 X208.274 Y43.74
N4180 X209.107 Y43.439
N4185 X209.954 Y43.177
N4190 X210.811 Y42.954
N4195 X211.678 Y42.771
N4200 X212.553 Y42.628
N4205 X213.433 Y42.525
N4210 X214.317 Y42.461
N4215 X215.203 Y42.437
N4220 X216.089 Y42.453
N4225 X216.973 Y42.509
N4230 X217.854 Y42.605
N4235 X218.73 Y42.741
N4240 X219.598 Y42.917
N4245 X220.458 Y43.132
N4250 X221.307 Y43.385
N4255 X222.144 Y43.676
N4260 X222.967 Y44.003
N4265 X223.775 Y44.367
N4270 X224.567 Y44.766
N4275 X225.34 Y45.199
N4280 X226.092 Y45.666
N4285 X226.824 Y46.167
N4290 X227.532 Y46.699
N4295 X228.217 Y47.261
N4300 X228.877 Y47.852
N4305 X229.512 Y48.471
N4310 X230.119 Y49.117
N4315 X230.698 Y49.788
N4320 X231.247 Y50.483
N4325 X231.765 Y51.201
N4330 X232.252 Y51.942
N4335 X232.706 Y52.703
N4340 X233.128 Y53.482
N4345 X233.516 Y54.279
N4350 X233.87 Y55.091
N4355 X234.189 Y55.918
N4360 X234.472 Y56.758
N4365 X234.719 Y57.609
N4370 X234.928 Y58.47
N4375 X235.099 Y59.339
N4380 X235.233 Y60.215
N4385 X235.329 Y61.096
N4390 X235.386 Y61.98
N4395 X235.406 Y62.866
N4400 X235.388 Y63.752
N4405 X235.332 Y64.637
N4410 X235.237 Y65.518
N4415 X235.103 Y66.394
N4420 X234.931 Y67.263
N4425 X234.721 Y68.124
N4430 X234.474 Y68.975
N4435 X234.19 Y69.814
N4440 X233.87 Y70.64
N4445 X233.515 Y71.452
N4450 X233.125 Y72.248
N4455 X232.701 Y73.026
N4460 X232.243 Y73.785
N4465 X231.752 Y74.522
N4470 X231.229 Y75.237
N4475 X230.675 Y75.929
N4480 X230.093 Y76.597
N4485 X229.482 Y77.239
N4490 X228.844 Y77.854
N4495 X228.18 Y78.441
N4500 X227.492 Y78.999
N4505 X226.78 Y79.527
N4510 X226.045 Y80.022
N4515 X225.29 Y80.485
N4520 X224.515 Y80.916
N4525 X223.723 Y81.313
N4530 X222.915 Y81.676
N4535 X222.092 Y82.004
N4540 X221.255 Y82.297
N4545 X220.408 Y82.555
N4550 X219.549 Y82.775
N4555 X218.682 Y82.958
N4560 X217.808 Y83.103
N4565 X216.929 Y83.211
N4570 X216.045 Y83.282
N4575 X215.16 Y83.316
N4580 X214.274 Y83.312
N4585 X213.389 Y83.272
N4590 X212.506 Y83.194
N4595 X211.627 Y83.079
N4600 X210.754 Y82.926
N4605 X209.889 Y82.736
N4610 X209.032 Y82.509
N4615 X208.186 Y82.247
N4620 X207.351 Y81.951
N4625 X206.529 Y81.62
N4630 X205.721 Y81.255
N4635 X204.929 Y80.858
N4640 X204.155 Y80.427
N4645 X203.399 Y79.964
N4650 X202.664 Y79.469
N4655 X201.95 Y78.944
N4660 X201.259 Y78.39
N4665 X200.591 Y77.807
N4670 X199.947 Y77.198
N4675 X199.329 Y76.563
N4680 X198.738 Y75.904
N4685 X198.174 Y75.22
N4690 X197.639 Y74.514
N4695 X197.134 Y73.785
N4700 X196.661 Y73.036
N4705 X196.218 Y72.268
N4710 X195.808 Y71.483
N4715 X195.43 Y70.682
N4720 X195.085 Y69.866
N4725 X194.773 Y69.036
N4730 X194.495 Y68.195
N4735 X194.253 Y67.342
N4740 X194.046 Y66.481
N4745 X193.875 Y65.611
N4750 X193.741 Y64.735
N4755 X193.642 Y63.855
N4760 X193.579 Y62.971
N4765 X193.552 Y62.085
N4770 X193.561 Y61.199
N4775 X193.606 Y60.314
N4780 X193.687 Y59.432
N4785 X193.804 Y58.553
N4790 X193.959 Y57.681
N4795 X194.149 Y56.815
N4800 X194.374 Y55.958
N4805 X194.634 Y55.111
N4810 X194.928 Y54.275
N4815 X195.256 Y53.452
N4820 X195.616 Y52.642
N4825 X196.009 Y51.848
N4830 X196.434 Y51.071
N4835 X196.891 Y50.311
N4840 X197.379 Y49.572
N4845 X197.898 Y48.853
N4850 X198.445 Y48.156
N4855 X199.02 Y47.482
N4860 X199.622 Y46.832
N4865 X200.249 Y46.206
N4870 X200.901 Y45.606
N4875 X201.577 Y45.033
N4880 X202.276 Y44.488
N4885 X202.997 Y43.973
N4890 X203.738 Y43.488
N4895 X204.499 Y43.034
N4900 X205.278 Y42.611
N4905 X206.073 Y42.22
N4910 X206.884 Y41.861
N4915 X207.708 Y41.535
N4920 X208.544 Y41.243
N4925 X209.392 Y40.985
N4930 X210.249 Y40.762
N4935 X211.116 Y40.575
N4940 X211.989 Y40.424
N4945 X212.867 Y40.308
N4950 X213.75 Y40.229
N4955 X214.635 Y40.184
N4960 X215.521 Y40.176
N4965 X216.407 Y40.203
N4970 X217.291 Y40.265
N4975 X218.171 Y40.364
N4980 X219.047 Y40.498
N4985 X219.917 Y40.669
N4990 X220.779 Y40.875
N4995 X221.631 Y41.115
N5000 X222.474 Y41.389
N5005 X223.305 Y41.697
N5010 X224.124 Y42.036
N5015 X224.928 Y42.408
N5020 X225.717 Y42.812
N5025 X226.489 Y43.246
N5030 X227.243 Y43.711
N5035 X227.978 Y44.207
N5040 X228.693 Y44.731
N5045 X229.386 Y45.282
N5050 X230.058 Y45.86
N5055 X230.707 Y46.463
N5060 X231.332 Y47.091
N5065 X231.933 Y47.743
N5070 X232.508 Y48.417
N5075 X233.056 Y49.113
N5080 X233.576 Y49.831
N5085 X234.068 Y50.568
N5090 X234.531 Y51.324
N5095 X234.964 Y52.097
N5100 X235.366 Y52.886
N5105 X235.739 Y53.69
N5110 X236.08 Y54.508
N5115 X236.39 Y55.338
N5120 X236.668 Y56.179
N5125 X236.913 Y57.031
N5130 X237.124 Y57.892
N5135 X237.301 Y58.76
N5140 X237.443 Y59.635
N5145 X237.552 Y60.514
N5150 X237.626 Y61.397
N5155 X237.666 Y62.282
N5160 X237.672 Y63.168
N5165 X237.644 Y64.054
N5170 X237.582 Y64.938
N5175 X237.485 Y65.819
N5180 X237.353 Y66.695
N5185 X237.186 Y67.565
N5190 X236.985 Y68.428
N5195 X236.75 Y69.283
N5200 X236.482 Y70.127
N5205 X236.182 Y70.961
N5210 X235.85 Y71.782
N5215 X235.486 Y72.59
N5220 X235.091 Y73.384
N5225 X234.665 Y74.161
N5230 X234.208 Y74.92
N5235 X233.722 Y75.661
N5240 X233.206 Y76.382
N5245 X232.663 Y77.082
N5250 X232.093 Y77.76
N5255 X231.498 Y78.416
N5260 X230.877 Y79.049
N5265 X230.233 Y79.657
N5270 X229.566 Y80.24
N5275 X228.876 Y80.797
N5280 X228.165 Y81.326
N5285 X227.433 Y81.826
N5290 X226.683 Y82.297
N5295 X225.915 Y82.738
N5300 X225.13 Y83.15
N5305 X224.33 Y83.532
N5310 X223.517 Y83.883
N5315 X222.69 Y84.202
N5320 X221.852 Y84.49
N5325 X221.004 Y84.745
N5330 X220.146 Y84.967
N5335 X219.28 Y85.155
N5340 X218.407 Y85.309
N5345 X217.529 Y85.429
N5350 X216.647 Y85.516
N5355 X215.763 Y85.569
N5360 X214.877 Y85.589
N5365 X213.991 Y85.575
N5370 X213.106 Y85.528
N5375 X212.223 Y85.448
N5380 X211.345 Y85.333
N5385 X210.471 Y85.184
N5390 X209.604 Y85.002
N5395 X208.744 Y84.787
N5400 X207.893 Y84.539
N5405 X207.052 Y84.26
N5410 X206.222 Y83.95
N5415 X205.405 Y83.609
N5420 X204.6 Y83.238
N5425 X203.81 Y82.836
N5430 X203.036 Y82.405
N5435 X202.279 Y81.945
N5440 X201.54 Y81.456
N5445 X200.82 Y80.939
N5450 X200.12 Y80.395
N5455 X199.441 Y79.826
N5460 X198.784 Y79.232
N5465 X198.148 Y78.614
N5470 X197.536 Y77.973
N5475 X196.949 Y77.31
N5480 X196.386 Y76.625
N5485 X195.85 Y75.92
N5490 X195.341 Y75.194
N5495 X194.861 Y74.45
N5500 X194.408 Y73.688
N5505 X193.984 Y72.91
N5510 X193.588 Y72.117
N5515 X193.223 Y71.31
N5520 X192.887 Y70.49
N5525 X192.581 Y69.658
N5530 X192.307 Y68.816
N5535 X192.064 Y67.963
N5540 X191.854 Y67.103
N5545 X191.677 Y66.234
N5550 X191.532 Y65.36
N5555 X191.42 Y64.481
N5560 X191.34 Y63.599
N5565 X191.292 Y62.714
N5570 X191.277 Y61.828
N5575 X191.294 Y60.942
N5580 X191.344 Y60.057
N5585 X191.427 Y59.175
N5590 X191.542 Y58.296
N5595 X191.692 Y57.423
N5600 X191.873 Y56.556
N5605 X192.087 Y55.696
N5610 X192.332 Y54.844
N5615 X192.609 Y54.002
N5620 X192.915 Y53.171
N5625 X193.252 Y52.351
N5630 X193.619 Y51.544
N5635 X194.015 Y50.752
N5640 X194.44 Y49.974
N5645 X194.894 Y49.214
N5650 X195.377 Y48.47
N5655 X195.887 Y47.746
N5660 X196.424 Y47.041
N5665 X196.986 Y46.356
N5670 X197.572 Y45.691
N5675 X198.183 Y45.049
N5680 X198.816 Y44.429
N5685 X199.472 Y43.833
N5690 X200.149 Y43.261
N5695 X200.847 Y42.715
N5700 X201.565 Y42.196
N5705 X202.302 Y41.705
N5710 X203.057 Y41.241
N5715 X203.828 Y40.805
N5720 X204.615 Y40.397
N5725 X205.416 Y40.019
N5730 X206.231 Y39.669
N5735 X207.057 Y39.35
N5740 X207.895 Y39.061
N5745 X208.743 Y38.803
N5750 X209.6 Y38.578
N5755 X210.465 Y38.385
N5760 X211.336 Y38.224
N5765 X212.213 Y38.096
N5770 X213.094 Y38.
N5775 X213.978 Y37.935
N5780 X214.863 Y37.903
N5785 X215.749 Y37.904
N5790 X216.635 Y37.936
N5795 X217.519 Y38.
N5800 X218.399 Y38.098
N5805 X219.276 Y38.229
N5810 X220.147 Y38.392
N5815 X221.011 Y38.587
N5820 X221.868 Y38.813
N5825 X222.716 Y39.07
N5830 X223.554 Y39.358
N5835 X224.381 Y39.675
N5840 X225.197 Y40.021
N5845 X226. Y40.397
N5850 X226.788 Y40.801
N5855 X227.561 Y41.234
N5860 X228.318 Y41.695
N5865 X229.058 Y42.183
N5870 X229.779 Y42.697
N5875 X230.482 Y43.237
N5880 X231.165 Y43.801
N5885 X231.828 Y44.389
N5890 X232.471 Y45.
N5895 X233.091 Y45.632
N5900 X233.689 Y46.286
N5905 X234.263 Y46.961
N5910 X234.813 Y47.656
N5915 X235.338 Y48.37
N5920 X235.836 Y49.103
N5925 X236.308 Y49.853
N5930 X236.754 Y50.619
N5935 X237.172 Y51.4
N5940 X237.563 Y52.195
N5945 X237.927 Y53.003
N5950 X238.262 Y53.823
N5955 X238.568 Y54.655
N5960 X238.845 Y55.497
N5965 X239.091 Y56.348
N5970 X239.307 Y57.207
N5975 X239.491 Y58.074
N5980 X239.645 Y58.947
N5985 X239.768 Y59.824
N5990 X239.86 Y60.706
N5995 X239.921 Y61.59
N6000 X239.951 Y62.475
N6005 X239.95 Y63.362
N6010 X239.918 Y64.247
N6015 X239.855 Y65.131
N6020 X239.759 Y66.012
N6025 X239.632 Y66.889
N6030 X239.473 Y67.761
N6035 X239.283 Y68.626
N6040 X239.062 Y69.484
N6045 X238.812 Y70.334
N6050 X238.531 Y71.175
N6055 X238.222 Y72.005
N6060 X237.883 Y72.824
N6065 X237.516 Y73.631
N6070 X237.12 Y74.423
N6075 X236.696 Y75.201
N6080 X236.244 Y75.963
N6085 X235.765 Y76.709
N6090 X235.259 Y77.436
N6095 X234.728 Y78.146
N6100 X234.172 Y78.836
N6105 X233.592 Y79.506
N6110 X232.989 Y80.155
N6115 X232.364 Y80.784
N6120 X231.718 Y81.39
N6125 X231.05 Y81.972
N6130 X230.362 Y82.53
N6135 X229.654 Y83.063
N6140 X228.927 Y83.57
N6145 X228.183 Y84.051
N6150 X227.422 Y84.506
N6155 X226.646 Y84.934
N6160 X225.856 Y85.334
N6165 X225.052 Y85.707
N6170 X224.236 Y86.052
N6175 X223.408 Y86.369
N6180 X222.57 Y86.656
N6185 X221.722 Y86.913
N6190 X220.865 Y87.14
N6195 X220.001 Y87.335
N6200 X219.131 Y87.501
N6205 X218.255 Y87.636
N6210 X217.375 Y87.74
N6215 X216.492 Y87.814
N6220 X215.607 Y87.858
N6225 X214.721 Y87.871
N6230 X213.835 Y87.854
N6235 X212.95 Y87.806
N6240 X212.067 Y87.727
N6245 X211.188 Y87.617
N6250 X210.313 Y87.476
N6255 X209.444 Y87.304
N6260 X208.581 Y87.102
N6265 X207.726 Y86.871
N6270 X206.878 Y86.611
N6275 X206.041 Y86.322
N6280 X205.213 Y86.005
N6285 X204.397 Y85.66
N6290 X203.593 Y85.288
N6295 X202.802 Y84.888
N6300 X202.027 Y84.46
N6305 X201.266 Y84.005
N6310 X200.522 Y83.524
N6315 X199.795 Y83.018
N6320 X199.085 Y82.487
N6325 X198.394 Y81.932
N6330 X197.722 Y81.355
N6335 X197.07 Y80.755
N6340 X196.438 Y80.133
N6345 X195.828 Y79.491
N6350 X195.24 Y78.828
N6355 X194.675 Y78.145
N6360 X194.135 Y77.443
N6365 X193.619 Y76.722
N6370 X193.128 Y75.984
N6375 X192.663 Y75.23
N6380 X192.223 Y74.461
N6385 X191.81 Y73.677
N6390 X191.423 Y72.88
N6395 X191.063 Y72.07
N6400 X190.73 Y71.249
N6405 X190.425 Y70.417
N6410 X190.149 Y69.575
N6415 X189.902 Y68.724
N6420 X189.685 Y67.865
N6425 X189.498 Y66.999
N6430 X189.34 Y66.127
N6435 X189.211 Y65.25
N6440 X189.112 Y64.369
N6445 X189.042 Y63.486
N6450 X189.002 Y62.601
N6455 X188.992 Y61.715
N6460 X189.011 Y60.829
N6465 X189.06 Y59.944
N6470 X189.14 Y59.062
N6475 X189.25 Y58.182
N6480 X189.39 Y57.307
N6485 X189.56 Y56.438
N6490 X189.759 Y55.574
N6495 X189.987 Y54.718
N6500 X190.244 Y53.87
N6505 X190.528 Y53.031
N6510 X190.841 Y52.201
N6515 X191.18 Y51.383
N6520 X191.547 Y50.576
N6525 X191.941 Y49.783
N6530 X192.363 Y49.003
N6535 X192.811 Y48.239
N6540 X193.285 Y47.49
N6545 X193.784 Y46.758
N6550 X194.307 Y46.043
N6555 X194.854 Y45.346
N6560 X195.424 Y44.667
N6565 X196.016 Y44.008
N6570 X196.63 Y43.368
N6575 X197.264 Y42.75
N6580 X197.919 Y42.153
N6585 X198.594 Y41.579
N6590 X199.289 Y41.029
N6595 X200.002 Y40.502
N6600 X200.732 Y40.001
N6605 X201.479 Y39.524
N6610 X202.242 Y39.073
N6615 X203.019 Y38.647
N6620 X203.81 Y38.247
N6625 X204.613 Y37.874
N6630 X205.429 Y37.527
N6635 X206.256 Y37.208
N6640 X207.093 Y36.917
N6645 X207.939 Y36.656
N6650 X208.794 Y36.423
N6655 X209.657 Y36.22
N6660 X210.526 Y36.046
N6665 X211.4 Y35.902
N6670 X212.279 Y35.786
N6675 X213.161 Y35.7
N6680 X214.045 Y35.643
N6685 X214.931 Y35.616
N6690 X215.817 Y35.617
N6695 X216.702 Y35.649
N6700 X217.586 Y35.71
N6705 X218.468 Y35.802
N6710 X219.345 Y35.924
N6715 X220.218 Y36.076
N6720 X221.086 Y36.257
N6725 X221.947 Y36.466
N6730 X222.801 Y36.703
N6735 X223.646 Y36.969
N6740 X224.482 Y37.262
N6745 X225.309 Y37.582
N6750 X226.124 Y37.929
N6755 X226.927 Y38.302
N6760 X227.718 Y38.703
N6765 X228.494 Y39.13
N6770 X229.256 Y39.583
N6775 X230.002 Y40.061
N6780 X230.732 Y40.563
N6785 X231.446 Y41.088
N6790 X232.142 Y41.636
N6795 X232.821 Y42.206
N6800 X233.48 Y42.798
N6805 X234.121 Y43.41
N6810 X234.741 Y44.043
N6815 X235.341 Y44.696
N6820 X235.918 Y45.368
N6825 X236.473 Y46.059
N6830 X237.005 Y46.767
N6835 X237.514 Y47.493
N6840 X237.999 Y48.235
N6845 X238.46 Y48.991
N6850 X238.896 Y49.763
N6855 X239.308 Y50.547
N6860 X239.694 Y51.345
N6865 X240.055 Y52.154
N6870 X240.39 Y52.974
N6875 X240.699 Y53.805
N6880 X240.979 Y54.645
N6885 X241.232 Y55.495
N6890 X241.456 Y56.352
N6895 X241.653 Y57.216
N6900 X241.821 Y58.086
N6905 X241.962 Y58.961
N6910 X242.074 Y59.84
N6915 X242.158 Y60.722
N6920 X242.214 Y61.606
N6925 X242.242 Y62.492
N6930 X242.241 Y63.378
N6935 X242.211 Y64.264
N6940 X242.152 Y65.148
N6945 X242.063 Y66.03
N6950 X241.945 Y66.908
N6955 X241.799 Y67.782
N6960 X241.624 Y68.651
N6965 X241.421 Y69.513
N6970 X241.191 Y70.369
N6975 X240.933 Y71.217
N6980 X240.648 Y72.056
N6985 X240.337 Y72.885
N6990 X239.999 Y73.704
N6995 X239.633 Y74.512
N7000 X239.242 Y75.307
N7005 X238.824 Y76.088
N7010 X238.38 Y76.855
N7015 X237.912 Y77.607
N7020 X237.419 Y78.344
N7025 X236.903 Y79.064
N7030 X236.364 Y79.767
N7035 X235.803 Y80.453
N7040 X235.22 Y81.12
N7045 X234.616 Y81.769
N7050 X233.991 Y82.398
N7055 X233.347 Y83.005
N7060 X232.682 Y83.591
N7065 X231.998 Y84.155
N7070 X231.297 Y84.696
N7075 X230.578 Y85.214
N7080 X229.842 Y85.709
N7085 X229.091 Y86.179
N7090 X228.326 Y86.626
N7095 X227.547 Y87.048
N7100 X226.754 Y87.444
N7105 X225.95 Y87.816
N7110 X225.134 Y88.162
N7115 X224.307 Y88.481
N7120 X223.47 Y88.772
N7125 X222.625 Y89.036
N7130 X221.771 Y89.273
N7135 X220.909 Y89.481
N7140 X220.042 Y89.662
N7145 X219.169 Y89.815
N7150 X218.292 Y89.941
N7155 X217.411 Y90.038
N7160 X216.528 Y90.108
N7165 X215.643 Y90.15
N7170 X214.757 Y90.164
N7175 X213.871 Y90.15
N7180 X212.986 Y90.106
N7185 X212.102 Y90.034
N7190 X211.222 Y89.934
N7195 X210.345 Y89.805
N7200 X209.473 Y89.648
N7205 X208.606 Y89.464
N7210 X207.746 Y89.253
N7215 X206.892 Y89.015
N7220 X206.046 Y88.751
N7225 X205.209 Y88.46
N7230 X204.382 Y88.143
N7235 X203.564 Y87.801
N7240 X202.759 Y87.432
N7245 X201.966 Y87.037
N7250 X201.185 Y86.617
N7255 X200.419 Y86.172
N7260 X199.667 Y85.704
N7265 X198.93 Y85.212
N7270 X198.208 Y84.697
N7275 X197.504 Y84.16
N7280 X196.816 Y83.601
N7285 X196.145 Y83.022
N7290 X195.493 Y82.422
N7295 X194.86 Y81.802
N7300 X194.247 Y81.162
N7305 X193.655 Y80.503
N7310 X193.085 Y79.825
N7315 X192.536 Y79.129
N7320 X192.009 Y78.417
N7325 X191.504 Y77.688
N7330 X191.023 Y76.944
N7335 X190.565 Y76.185
N7340 X190.131 Y75.413
N7345 X189.72 Y74.628
N7350 X189.334 Y73.83
N7355 X188.973 Y73.021
N7360 X188.637 Y72.201
N7365 X188.328 Y71.371
N7370 X188.045 Y70.531
N7375 X187.789 Y69.682
N7380 X187.56 Y68.827
N7385 X187.357 Y67.964
N7390 X187.182 Y67.095
N7395 X187.033 Y66.222
N7400 X186.911 Y65.344
N7405 X186.817 Y64.463
N7410 X186.749 Y63.579
N7415 X186.708 Y62.694
N7420 X186.695 Y61.808
N7425 X186.71 Y60.922
N7430 X186.754 Y60.037
N7435 X186.825 Y59.154
N7440 X186.924 Y58.273
N7445 X187.05 Y57.396
N7450 X187.203 Y56.523
N7455 X187.384 Y55.656
N7460 X187.591 Y54.794
N7465 X187.824 Y53.939
N7470 X188.083 Y53.092
N7475 X188.368 Y52.253
N7480 X188.679 Y51.423
N7485 X189.016 Y50.603
N7490 X189.378 Y49.795
N7495 X189.766 Y48.998
N7500 X190.178 Y48.214
N7505 X190.615 Y47.443
N7510 X191.076 Y46.686
N7515 X191.56 Y45.944
N7520 X192.067 Y45.217
N7525 X192.595 Y44.505
N7530 X193.145 Y43.811
N7535 X193.716 Y43.133
N7540 X194.308 Y42.473
N7545 X194.919 Y41.832
N7550 X195.551 Y41.21
N7555 X196.202 Y40.609
N7560 X196.871 Y40.028
N7565 X197.558 Y39.469
N7570 X198.263 Y38.931
N7575 X198.983 Y38.416
N7580 X199.72 Y37.923
N7585 X200.471 Y37.453
N7590 X201.236 Y37.006
N7595 X202.014 Y36.582
N7600 X202.805 Y36.183
N7605 X203.608 Y35.807
N7610 X204.422 Y35.458
N7615 X205.247 Y35.134
N7620 X206.082 Y34.836
N7625 X206.925 Y34.565
N7630 X207.777 Y34.32
N7635 X208.635 Y34.101
N7640 X209.501 Y33.909
N7645 X210.371 Y33.744
N7650 X211.246 Y33.606
N7655 X212.126 Y33.494
N7660 X213.008 Y33.41
N7665 X213.892 Y33.352
N7670 X214.777 Y33.321
N7675 X215.663 Y33.318
N7680 X216.549 Y33.343
N7685 X217.434 Y33.396
N7690 X218.316 Y33.477
N7695 X219.196 Y33.584
N7700 X220.072 Y33.719
N7705 X220.943 Y33.88
N7710 X221.809 Y34.068
N7715 X222.669 Y34.283
N7720 X223.522 Y34.523
N7725 X224.367 Y34.788
N7730 X225.204 Y35.079
N7735 X226.032 Y35.396
N7740 X226.849 Y35.738
N7745 X227.656 Y36.105
N7750 X228.45 Y36.497
N7755 X229.233 Y36.913
N7760 X230.002 Y37.353
N7765 X230.758 Y37.815
N7770 X231.499 Y38.301
N7775 X232.226 Y38.808
N7780 X232.937 Y39.337
N7785 X233.632 Y39.886
N7790 X234.311 Y40.456
N7795 X234.972 Y41.046
N7800 X235.615 Y41.655
N7805 X236.24 Y42.284
N7810 X236.845 Y42.931
N7815 X237.43 Y43.597
N7820 X237.995 Y44.28
N7825 X238.539 Y44.979
N7830 X239.062 Y45.694
N7835 X239.563 Y46.425
N7840 X240.043 Y47.17
N7845 X240.501 Y47.929
N7850 X240.936 Y48.701
N7855 X241.348 Y49.485
N7860 X241.737 Y50.281
N7865 X242.102 Y51.089
N7870 X242.442 Y51.907
N7875 X242.757 Y52.735
N7880 X243.047 Y53.573
N7885 X243.312 Y54.418
N7890 X243.551 Y55.271
N7895 X243.765 Y56.131
N7900 X243.953 Y56.997
N7905 X244.116 Y57.868
N7910 X244.252 Y58.744
N7915 X244.363 Y59.623
N7920 X244.448 Y60.505
N7925 X244.506 Y61.389
N7930 X244.538 Y62.275
N7935 X244.543 Y63.161
N7940 X244.521 Y64.047
N7945 X244.472 Y64.932
N7950 X244.396 Y65.814
N7955 X244.294 Y66.695
N7960 X244.166 Y67.571
N7965 X244.011 Y68.444
N7970 X243.831 Y69.312
N7975 X243.624 Y70.173
N7980 X243.393 Y71.029
N7985 X243.136 Y71.877
N7990 X242.854 Y72.717
N7995 X242.547 Y73.548
N8000 X242.214 Y74.369
N8005 X241.856 Y75.18
N8010 X241.475 Y75.98
N8015 X241.069 Y76.767
N8020 X240.639 Y77.542
N8025 X240.187 Y78.304
N8030 X239.711 Y79.052
N8035 X239.214 Y79.786
N8040 X238.696 Y80.504
N8045 X238.156 Y81.207
N8050 X237.596 Y81.894
N8055 X237.016 Y82.563
N8060 X236.415 Y83.215
N8065 X235.795 Y83.848
N8070 X235.156 Y84.462
N8075 X234.499 Y85.057
N8080 X233.824 Y85.631
N8085 X233.133 Y86.185
N8090 X232.425 Y86.718
N8095 X231.701 Y87.23
N8100 X230.963 Y87.72
N8105 X230.211 Y88.188
N8110 X229.445 Y88.634
N8115 X228.667 Y89.058
N8120 X227.876 Y89.458
N8125 X227.074 Y89.834
N8130 X226.26 Y90.185
N8135 X225.437 Y90.512
N8140 X224.604 Y90.814
N8145 X223.762 Y91.092
N8150 X222.913 Y91.344
N8155 X222.056 Y91.57
N8160 X221.193 Y91.772
N8165 X220.325 Y91.948
N8170 X219.451 Y92.098
N8175 X218.574 Y92.223
N8180 X217.693 Y92.322
N8185 X216.81 Y92.396
N8190 X215.926 Y92.443
N8195 X215.04 Y92.463
N8200 X214.154 Y92.457
N8205 X213.268 Y92.425
N8210 X212.384 Y92.367
N8215 X211.502 Y92.282
N8220 X210.623 Y92.172
N8225 X209.747 Y92.035
N8230 X208.876 Y91.874
N8235 X208.009 Y91.687
N8240 X207.149 Y91.475
N8245 X206.295 Y91.239
N8250 X205.448 Y90.977
N8255 X204.61 Y90.691
N8260 X203.78 Y90.38
N8265 X202.96 Y90.045
N8270 X202.15 Y89.686
N8275 X201.35 Y89.303
N8280 X200.563 Y88.897
N8285 X199.788 Y88.468
N8290 X199.025 Y88.016
N8295 X198.276 Y87.543
N8300 X197.541 Y87.048
N8305 X196.82 Y86.533
N8310 X196.115 Y85.996
N8315 X195.425 Y85.44
N8320 X194.752 Y84.864
N8325 X194.096 Y84.268
N8330 X193.457 Y83.654
N8335 X192.837 Y83.021
N8340 X192.236 Y82.37
N8345 X191.654 Y81.701
N8350 X191.092 Y81.017
N8355 X190.549 Y80.316
N8360 X190.028 Y79.6
N8365 X189.527 Y78.869
N8370 X189.047 Y78.124
N8375 X188.588 Y77.366
N8380 X188.152 Y76.594
N8385 X187.737 Y75.811
N8390 X187.346 Y75.016
N8395 X186.979 Y74.21
N8400 X186.635 Y73.393
N8405 X186.315 Y72.567
N8410 X186.019 Y71.732
N8415 X185.747 Y70.888
N8420 X185.5 Y70.037
N8425 X185.277 Y69.179
N8430 X185.079 Y68.316
N8435 X184.906 Y67.447
N8440 X184.758 Y66.573
N8445 X184.634 Y65.696
N8450 X184.536 Y64.815
N8455 X184.463 Y63.932
N8460 X184.416 Y63.047
N8465 X184.395 Y62.161
N8470 X184.399 Y61.275
N8475 X184.43 Y60.389
N8480 X184.485 Y59.505
N8485 X184.567 Y58.623
N8490 X184.673 Y57.743
N8495 X184.805 Y56.867
N8500 X184.962 Y55.994
N8505 X185.143 Y55.127
N8510 X185.349 Y54.265
N8515 X185.579 Y53.41
N8520 X185.834 Y52.561
N8525 X186.114 Y51.72
N8530 X186.417 Y50.888
N8535 X186.745 Y50.064
N8540 X187.097 Y49.251
N8545 X187.471 Y48.448
N8550 X187.869 Y47.656
N8555 X188.289 Y46.876
N8560 X188.732 Y46.108
N8565 X189.196 Y45.353
N8570 X189.681 Y44.612
N8575 X190.188 Y43.885
N8580 X190.715 Y43.172
N8585 X191.262 Y42.475
N8590 X191.828 Y41.794
N8595 X192.415 Y41.13
N8600 X193.02 Y40.482
N8605 X193.644 Y39.853
N8610 X194.285 Y39.242
N8615 X194.945 Y38.65
N8620 X195.62 Y38.076
N8625 X196.312 Y37.523
N8630 X197.02 Y36.989
N8635 X197.742 Y36.476
N8640 X198.479 Y35.983
N8645 X199.229 Y35.512
N8650 X199.992 Y35.062
N8655 X200.768 Y34.634
N8660 X201.557 Y34.229
N8665 X202.356 Y33.847
N8670 X203.166 Y33.488
N8675 X203.986 Y33.153
N8680 X204.816 Y32.841
N8685 X205.654 Y32.554
N8690 X206.5 Y32.29
N8695 X207.353 Y32.051
N8700 X208.213 Y31.836
N8705 X209.079 Y31.646
N8710 X209.949 Y31.48
N8715 X210.824 Y31.339
N8720 X211.702 Y31.223
N8725 X212.584 Y31.133
N8730 X213.468 Y31.068
N8735 X214.353 Y31.028
N8740 X215.239 Y31.014
N8745 X216.125 Y31.026
N8750 X217.01 Y31.063
N8755 X217.894 Y31.125
N8760 X218.776 Y31.212
N8765 X219.655 Y31.324
N8770 X220.53 Y31.462
N8775 X221.402 Y31.623
N8780 X222.268 Y31.81
N8785 X223.129 Y32.02
N8790 X223.983 Y32.256
N8795 X224.83 Y32.515
N8800 X225.67 Y32.798
N8805 X226.501 Y33.106
N8810 X227.323 Y33.436
N8815 X228.136 Y33.79
N8820 X228.938 Y34.167
N8825 X229.729 Y34.566
N8830 X230.508 Y34.987
N8835 X231.276 Y35.43
N8840 X232.031 Y35.894
N8845 X232.772 Y36.379
N8850 X233.5 Y36.884
N8855 X234.214 Y37.41
N8860 X234.913 Y37.955
N8865 X235.596 Y38.52
N8870 X236.262 Y39.103
N8875 X236.913 Y39.705
N8880 X237.546 Y40.325
N8885 X238.162 Y40.962
N8890 X238.76 Y41.616
N8895 X239.339 Y42.286
N8900 X239.9 Y42.973
N8905 X240.441 Y43.674
N8910 X240.963 Y44.39
N8915 X241.465 Y45.12
N8920 X241.947 Y45.864
N8925 X242.408 Y46.621
N8930 X242.848 Y47.39
N8935 X243.267 Y48.171
N8940 X243.663 Y48.963
N8945 X244.037 Y49.767
N8950 X244.389 Y50.58
N8955 X244.719 Y51.403
N8960 X245.025 Y52.234
N8965 X245.308 Y53.074
N8970 X245.568 Y53.921
N8975 X245.804 Y54.775
N8980 X246.017 Y55.635
N8985 X246.206 Y56.501
N8990 X246.371 Y57.372
N8995 X246.512 Y58.246
N9000 X246.628 Y59.125
N9005 X246.72 Y60.006
N9010 X246.787 Y60.89
N9015 X246.83 Y61.775
N9020 X246.848 Y62.661
N9025 X246.841 Y63.547
N9030 X246.81 Y64.432
N9035 X246.754 Y65.317
N9040 X246.673 Y66.199
N9045 X246.568 Y67.079
N9050 X246.439 Y67.956
N9055 X246.285 Y68.829
N9060 X246.108 Y69.697
N9065 X245.906 Y70.56
N9070 X245.68 Y71.416
N9075 X245.431 Y72.267
N9080 X245.157 Y73.11
N9085 X244.861 Y73.944
N9090 X244.541 Y74.771
N9095 X244.198 Y75.588
N9100 X243.832 Y76.395
N9105 X243.444 Y77.192
N9110 X243.034 Y77.977
N9115 X242.602 Y78.751
N9120 X242.149 Y79.513
N9125 X241.676 Y80.262
N9130 X241.182 Y80.997
N9135 X240.667 Y81.719
N9140 X240.132 Y82.425
N9145 X239.578 Y83.117
N9150 X239.005 Y83.793
N9155 X238.413 Y84.452
N9160 X237.803 Y85.095
N9165 X237.176 Y85.721
N9170 X236.531 Y86.328
N9175 X235.87 Y86.918
N9180 X235.192 Y87.489
N9185 X234.499 Y88.042
N9190 X233.792 Y88.575
N9195 X233.069 Y89.088
N9200 X232.333 Y89.582
N9205 X231.584 Y90.054
N9210 X230.821 Y90.506
N9215 X230.047 Y90.936
N9220 X229.26 Y91.345
N9225 X228.463 Y91.732
N9230 X227.656 Y92.096
N9235 X226.838 Y92.438
N9240 X226.012 Y92.758
N9245 X225.176 Y93.054
N9250 X224.334 Y93.328
N9255 X223.484 Y93.578
N9260 X222.627 Y93.805
N9265 X221.765 Y94.008
N9270 X220.897 Y94.188
N9275 X220.024 Y94.344
N9280 X219.148 Y94.475
N9285 X218.778 Y94.52
N9290 X218.584 Y94.53
N9295 X218.39 Y94.513
N9300 X218.201 Y94.47
N9305 X217.909 Y94.381
N9310 X217.732 Y94.328
N9315 X217.128 Y94.162
N9320 X216.524 Y94.018
N9325 X216.323 Y93.974
N9330 X215.921 Y93.898
N9335 X215.719 Y93.863
N9340 X215.115 Y93.775
N9345 X214.511 Y93.709
N9350 X214.31 Y93.691
N9355 X213.908 Y93.658
N9360 X213.706 Y93.643
N9365 X213.102 Y93.607
N9370 X212.498 Y93.581
N9375 X212.297 Y93.58
N9380 X211.895 Y93.582
N9385 X211.693 Y93.589
N9390 X211.291 Y93.611
N9395 X211.089 Y93.627
N9400 X210.486 Y93.708
N9405 X209.943 Y93.781
N9410 X209.213 Y93.82
N9415 X208.328 Y93.797
N9420 X207.446 Y93.703
N9425 X206.573 Y93.556
N9430 X205.707 Y93.365
N9435 X204.851 Y93.135
N9440 X204.005 Y92.873
N9445 X203.168 Y92.582
N9450 X202.342 Y92.263
N9455 X201.525 Y91.918
N9460 X200.719 Y91.549
N9465 X199.925 Y91.158
N9470 X199.141 Y90.743
N9475 X198.37 Y90.308
N9480 X197.61 Y89.851
N9485 X196.864 Y89.374
N9490 X196.13 Y88.876
N9495 X195.41 Y88.36
N9500 X194.705 Y87.824
N9505 X194.014 Y87.269
N9510 X193.338 Y86.695
N9515 X192.679 Y86.103
N9520 X192.036 Y85.493
N9525 X191.41 Y84.866
N9530 X190.802 Y84.222
N9535 X190.211 Y83.562
N9540 X189.637 Y82.886
N9545 X189.083 Y82.195
N9550 X188.547 Y81.489
N9555 X188.03 Y80.77
N9560 X187.532 Y80.037
N9565 X187.054 Y79.291
N9570 X186.596 Y78.532
N9575 X186.158 Y77.762
N9580 X185.741 Y76.979
N9585 X185.347 Y76.186
N9590 X184.973 Y75.382
N9595 X184.622 Y74.569
N9600 X184.293 Y73.746
N9605 X183.986 Y72.915
N9610 X183.702 Y72.076
N9615 X183.44 Y71.229
N9620 X183.201 Y70.376
N9625 X182.985 Y69.516
N9630 X182.791 Y68.652
N9635 X182.62 Y67.782
N9640 X182.473 Y66.908
N9645 X182.349 Y66.031
N9650 X182.346 Y66.009
N9655 X182.341 Y65.747
N9660 X182.385 Y65.488
N9665 X182.476 Y65.242
N9670 X182.602 Y64.98
N9675 X182.687 Y64.779
N9680 X182.752 Y64.577
N9685 X183.241 Y62.966
N9690 X183.298 Y62.765
N9695 X183.349 Y62.564
N9700 X183.381 Y62.362
N9705 X183.408 Y62.161
N9710 X183.566 Y60.55
N9715 X183.585 Y60.348
N9720 X183.599 Y60.147
N9725 X183.606 Y59.543
N9730 Y54.307
N9735 X183.65 Y53.422
N9740 X183.751 Y52.542
N9745 X183.921 Y51.672
N9750 X184.143 Y50.814
N9755 X184.408 Y49.969
N9760 X184.709 Y49.135
N9765 X185.041 Y48.314
N9770 X185.401 Y47.504
N9775 X185.786 Y46.706
N9780 X186.197 Y45.921
N9785 X186.63 Y45.148
N9790 X187.085 Y44.387
N9795 X187.56 Y43.64
N9800 X188.057 Y42.905
N9805 X188.572 Y42.185
N9810 X189.108 Y41.479
N9815 X189.662 Y40.787
N9820 X190.234 Y40.111
N9825 X190.824 Y39.45
N9830 X191.432 Y38.805
N9835 X192.057 Y38.177
N9840 X192.698 Y37.565
N9845 X193.356 Y36.971
N9850 X194.029 Y36.395
N9855 X194.718 Y35.837
N9860 X195.421 Y35.298
N9865 X196.139 Y34.778
N9870 X196.87 Y34.277
N9875 X197.614 Y33.796
N9880 X198.37 Y33.335
N9885 X199.139 Y32.894
N9890 X199.919 Y32.473
N9895 X200.71 Y32.074
N9900 X201.511 Y31.696
N9905 X202.322 Y31.339
N9910 X203.143 Y31.004
N9915 X203.972 Y30.691
N9920 X204.809 Y30.4
N9925 X205.653 Y30.132
N9930 X206.505 Y29.887
N9935 X207.363 Y29.665
N9940 X208.226 Y29.465
N9945 X209.094 Y29.289
N9950 X209.967 Y29.135
N9955 X210.844 Y29.005
N9960 X211.723 Y28.898
N9965 X212.605 Y28.815
N9970 X213.49 Y28.755
N9975 X214.375 Y28.719
N9980 X215.261 Y28.706
N9985 X216.147 Y28.716
N9990 X217.033 Y28.751
N9995 X217.917 Y28.809
N10000 X218.799 Y28.891
N10005 X219.679 Y28.996
N10010 X220.556 Y29.124
N10015 X221.429 Y29.276
N10020 X222.297 Y29.45
N10025 X223.161 Y29.648
N10030 X224.02 Y29.868
N10035 X224.872 Y30.111
N10040 X225.718 Y30.376
N10045 X226.556 Y30.663
N10050 X227.386 Y30.972
N10055 X228.208 Y31.303
N10060 X229.021 Y31.655
N10065 X229.825 Y32.029
N10070 X230.618 Y32.424
N10075 X231.401 Y32.84
N10080 X232.172 Y33.276
N10085 X232.932 Y33.732
N10090 X233.679 Y34.207
N10095 X234.414 Y34.702
N10100 X235.136 Y35.216
N10105 X235.845 Y35.749
N10110 X236.539 Y36.299
N10115 X237.219 Y36.868
N10120 X237.883 Y37.454
N10125 X238.533 Y38.057
N10130 X239.166 Y38.676
N10135 X239.784 Y39.312
N10140 X240.384 Y39.963
N10145 X240.967 Y40.631
N10150 X241.533 Y41.313
N10155 X242.081 Y42.009
N10160 X242.61 Y42.72
N10165 X243.122 Y43.443
N10170 X243.614 Y44.18
N10175 X244.087 Y44.929
N10180 X244.541 Y45.69
N10185 X244.976 Y46.463
N10190 X245.39 Y47.246
N10195 X245.784 Y48.04
N10200 X246.157 Y48.844
N10205 X246.509 Y49.657
N10210 X246.841 Y50.478
N10215 X246.912 Y50.669
N10220 X246.961 Y50.828
N10225 X246.99 Y50.992
N10230 X247. Y51.159
N10235 Y72.431
N10240 X246.958 Y73.262
N10245 X246.854 Y74.055
N10250 X246.669 Y74.922
N10255 X246.423 Y75.773
N10260 X246.13 Y76.609
N10265 X245.798 Y77.431
N10270 X245.434 Y78.239
N10275 X245.042 Y79.033
N10280 X244.624 Y79.814
N10285 X244.182 Y80.582
N10290 X243.717 Y81.337
N10295 X243.232 Y82.078
N10300 X242.726 Y82.806
N10305 X242.2 Y83.519
N10310 X241.656 Y84.219
N10315 X241.094 Y84.903
N10320 X240.513 Y85.573
N10325 X239.916 Y86.227
N10330 X239.301 Y86.866
N10335 X238.671 Y87.488
N10340 X238.024 Y88.094
N10345 X237.362 Y88.683
N10350 X236.685 Y89.255
N10355 X235.994 Y89.809
N10360 X235.288 Y90.345
N10365 X234.569 Y90.863
N10370 X233.836 Y91.361
N10375 X233.091 Y91.841
N10380 X232.333 Y92.301
N10385 X231.564 Y92.741
N10390 X230.784 Y93.161
N10395 X229.994 Y93.561
N10400 X229.193 Y93.941
N10405 X228.383 Y94.3
N10410 X227.564 Y94.638
N10415 X226.736 Y94.954
N10420 X225.901 Y95.25
N10425 X225.058 Y95.524
N10430 X224.209 Y95.777
N10435 X223.353 Y96.008
N10440 X222.966 Y96.101
N10445 X222.72 Y96.138
N10450 X222.471 Y96.13
N10455 X222.227 Y96.079
N10460 X221.997 Y95.985
N10465 X221.959 Y95.966
N10470 X221.758 Y95.868
N10475 X221.154 Y95.587
N10480 X220.953 Y95.499
N10485 X220.55 Y95.324
N10490 X220.349 Y95.239
N10495 X219.946 Y95.072
N10500 X219.745 Y94.99
N10505 X219.141 Y94.771
N10510 X218.94 Y94.704
N10515 X218.564 Y94.582
N10520 X218.262 Y94.488
N10525 X218.201 Y94.47
N10530 G3 X217.797 Y93.861 I0.195 J-0.568
N10535 G1 X217.803 Y93.768 Z-1.993
N10540 X217.81 Y93.676 Z-1.971
N10545 X217.816 Y93.589 Z-1.935
N10550 X217.821 Y93.509 Z-1.885
N10555 X217.826 Y93.438 Z-1.824
N10560 X217.83 Y93.377 Z-1.753
N10565 X217.834 Y93.328 Z-1.672
N10570 X217.836 Y93.292 Z-1.585
N10575 X217.838 Y93.27 Z-1.494
N10580 Y93.263 Z-1.4
N10585 G0 Z-0.8
N10590 X246.472 Y71.162
N10595 G1 Z-1.4 F4000.
N10600 X246.476 Y71.168 Z-1.494
N10605 X246.487 Y71.187 Z-1.585
N10610 X246.505 Y71.218 Z-1.672
N10615 X246.531 Y71.26 Z-1.753
N10620 X246.562 Y71.313 Z-1.824
N10625 X246.598 Y71.374 Z-1.885
N10630 X246.639 Y71.443 Z-1.935
N10635 X246.684 Y71.518 Z-1.971
N10640 X246.731 Y71.597 Z-1.993
N10645 X246.779 Y71.677 Z-2.
N10650 G3 X247. Y72.431 I-1.36 J0.809
N10655 G1 Y77.868
N10660 X246.974 Y78.382
N10665 X246.904 Y78.915
N10670 X246.768 Y79.553
N10675 X246.536 Y80.327
N10680 X246.214 Y81.153
N10685 X245.836 Y81.954
N10690 X245.414 Y82.734
N10695 X244.957 Y83.493
N10700 X244.471 Y84.234
N10705 X243.96 Y84.957
N10710 X243.425 Y85.664
N10715 X242.871 Y86.355
N10720 X242.297 Y87.031
N10725 X241.706 Y87.691
N10730 X241.097 Y88.335
N10735 X240.472 Y88.963
N10740 X239.832 Y89.575
N10745 X239.176 Y90.171
N10750 X238.506 Y90.751
N10755 X237.822 Y91.315
N10760 X237.125 Y91.861
N10765 X236.414 Y92.391
N10770 X235.691 Y92.903
N10775 X234.955 Y93.397
N10780 X234.208 Y93.873
N10785 X233.45 Y94.332
N10790 X232.68 Y94.771
N10795 X231.901 Y95.192
N10800 X231.111 Y95.595
N10805 X230.312 Y95.978
N10810 X229.504 Y96.341
N10815 X228.687 Y96.685
N10820 X227.862 Y97.008
N10825 X227.03 Y97.312
N10830 X226.191 Y97.596
N10835 X225.757 Y97.731
N10840 X225.44 Y97.79
N10845 X225.118 Y97.776
N10850 X224.808 Y97.688
N10855 X224.525 Y97.531
N10860 X224.344 Y97.402
N10865 X224.174 Y97.283
N10870 X223.753 Y96.999
N10875 X223.167 Y96.629
N10880 X223.113 Y96.596
N10885 X222.563 Y96.284
N10890 X222.401 Y96.193
N10895 X221.997 Y95.985
N10900 G3 X221.708 Y95.314 I0.293 J-0.524
N10905 G1 X221.731 Y95.223 Z-1.993
N10910 X221.754 Y95.134 Z-1.971
N10915 X221.775 Y95.05 Z-1.935
N10920 X221.795 Y94.972 Z-1.885
N10925 X221.812 Y94.903 Z-1.824
N10930 X221.828 Y94.844 Z-1.753
N10935 X221.84 Y94.796 Z-1.672
N10940 X221.848 Y94.761 Z-1.585
N10945 X221.854 Y94.74 Z-1.494
N10950 X221.856 Y94.733 Z-1.4
N10955 G0 Z-0.8
N10960 X246.472 Y76.599
N10965 G1 Z-1.4 F4000.
N10970 X246.476 Y76.605 Z-1.494
N10975 X246.487 Y76.624 Z-1.585
N10980 X246.505 Y76.655 Z-1.672
N10985 X246.531 Y76.697 Z-1.753
N10990 X246.562 Y76.75 Z-1.824
N10995 X246.598 Y76.811 Z-1.885
N11000 X246.639 Y76.88 Z-1.935
N11005 X246.684 Y76.955 Z-1.971
N11010 X246.731 Y77.034 Z-1.993
N11015 X246.779 Y77.115 Z-2.
N11020 G3 X247. Y77.868 I-1.36 J0.809
N11025 G1 Y82.097
N11030 X246.976 Y82.567
N11035 X246.919 Y83.008
N11040 X246.811 Y83.513
N11045 X246.631 Y84.113
N11050 X246.351 Y84.831
N11055 X245.964 Y85.629
N11060 X245.52 Y86.395
N11065 X245.032 Y87.135
N11070 X244.509 Y87.85
N11075 X243.957 Y88.544
N11080 X243.382 Y89.218
N11085 X242.786 Y89.873
N11090 X242.171 Y90.511
N11095 X241.539 Y91.132
N11100 X240.89 Y91.736
N11105 X240.227 Y92.324
N11110 X239.55 Y92.895
N11115 X238.859 Y93.45
N11120 X238.155 Y93.988
N11125 X237.439 Y94.51
N11130 X236.711 Y95.015
N11135 X235.971 Y95.504
N11140 X235.221 Y95.975
N11145 X234.46 Y96.429
N11150 X233.689 Y96.866
N11155 X232.909 Y97.285
N11160 X232.118 Y97.687
N11165 X231.32 Y98.07
N11170 X230.512 Y98.435
N11175 X229.697 Y98.781
N11180 X228.873 Y99.109
N11185 X228.041 Y99.412
N11190 X227.864 Y99.462
N11195 X227.582 Y99.512
N11200 X227.296 Y99.503
N11205 X227.018 Y99.436
N11210 X226.759 Y99.314
N11215 X226.531 Y99.142
N11220 X226.388 Y99.009
N11225 X225.944 Y98.61
N11230 X225.784 Y98.469
N11235 X225.71 Y98.408
N11240 X225.178 Y98.006
N11245 X224.979 Y97.859
N11250 X224.525 Y97.531
N11255 G3 X224.339 Y96.825 I0.367 J-0.475
N11260 X224.55 Y96.564 I0.554 J0.231 F6000.
N11265 G1 X246.058 Y81.625
N11270 G3 X246.535 Y81.533 I0.342 J0.493
N11275 X247. Y82.097 I-0.135 J0.585 F4000.
N11280 G1 Y85.923
N11285 X246.983 Y86.265
N11290 X246.932 Y86.657
N11295 X246.839 Y87.09
N11300 X246.683 Y87.609
N11305 X246.45 Y88.21
N11310 X246.108 Y88.913
N11315 X245.659 Y89.677
N11320 X245.155 Y90.406
N11325 X244.611 Y91.105
N11330 X244.034 Y91.778
N11335 X243.432 Y92.427
N11340 X242.807 Y93.056
N11345 X242.163 Y93.664
N11350 X241.502 Y94.255
N11355 X240.826 Y94.828
N11360 X240.136 Y95.383
N11365 X239.433 Y95.923
N11370 X238.717 Y96.445
N11375 X237.99 Y96.952
N11380 X237.252 Y97.442
N11385 X236.503 Y97.915
N11390 X235.744 Y98.373
N11395 X234.975 Y98.813
N11400 X234.196 Y99.237
N11405 X233.409 Y99.643
N11410 X232.613 Y100.032
N11415 X231.809 Y100.404
N11420 X230.996 Y100.758
N11425 X230.185 Y101.079
N11430 X229.608 Y101.255
N11435 X229.438 Y101.293
N11440 X229.114 Y101.325
N11445 X228.791 Y101.282
N11450 X228.487 Y101.165
N11455 X228.218 Y100.981
N11460 X227.999 Y100.74
N11465 X227.916 Y100.624
N11470 X227.756 Y100.422
N11475 X227.581 Y100.221
N11480 X227.394 Y100.008
N11485 X227.193 Y99.792
N11490 X227.022 Y99.617
N11495 X226.79 Y99.389
N11500 X226.589 Y99.196
N11505 X226.531 Y99.142
N11510 G3 X226.433 Y98.418 I0.423 J-0.425
N11515 X226.624 Y98.215 I0.52 J0.299 F6000.
N11520 G1 X246.071 Y85.443
N11525 G3 X246.535 Y85.36 I0.329 J0.502
N11530 X247. Y85.923 I-0.135 J0.585 F4000.
N11535 G1 Y89.347
N11540 X246.984 Y89.675
N11545 X246.936 Y90.034
N11550 X246.853 Y90.425
N11555 X246.713 Y90.892
N11560 X246.509 Y91.416
N11565 X246.212 Y92.028
N11570 X245.787 Y92.75
N11575 X245.278 Y93.475
N11580 X244.721 Y94.164
N11585 X244.128 Y94.822
N11590 X243.506 Y95.454
N11595 X242.861 Y96.061
N11600 X242.196 Y96.647
N11605 X241.514 Y97.213
N11610 X240.817 Y97.761
N11615 X240.107 Y98.291
N11620 X239.384 Y98.803
N11625 X238.65 Y99.3
N11630 X237.905 Y99.779
N11635 X237.15 Y100.242
N11640 X236.384 Y100.689
N11645 X235.61 Y101.119
N11650 X234.826 Y101.534
N11655 X234.035 Y101.931
N11660 X233.234 Y102.311
N11665 X232.421 Y102.664
N11670 X231.694 Y102.938
N11675 X231.168 Y103.088
N11680 X230.69 Y103.185
N11685 X230.465 Y103.211
N11690 X230.179 Y103.216
N11695 X229.898 Y103.162
N11700 X229.633 Y103.052
N11705 X229.397 Y102.891
N11710 X229.198 Y102.685
N11715 X229.046 Y102.443
N11720 X228.803 Y101.985
N11725 X228.716 Y101.832
N11730 X228.401 Y101.306
N11735 X228.348 Y101.228
N11740 X227.999 Y100.74
N11745 G3 X228.049 Y100.011 I0.5 J-0.332
N11750 G1 X228.112 Y99.949 F6000.
N11755 X228.184 Y99.897
N11760 X246.085 Y88.857
N11765 G3 X246.535 Y88.783 I0.315 J0.511
N11770 X247. Y89.347 I-0.135 J0.585 F4000.
N11775 G1 Y92.569
N11780 X246.984 Y92.88
N11785 X246.941 Y93.213
N11790 X246.862 Y93.579
N11795 X246.733 Y94.011
N11800 X246.547 Y94.49
N11805 X246.278 Y95.044
N11810 X245.897 Y95.69
N11815 X245.388 Y96.415
N11820 X244.824 Y97.099
N11825 X244.22 Y97.747
N11830 X243.585 Y98.364
N11835 X242.924 Y98.955
N11840 X242.244 Y99.523
N11845 X241.546 Y100.069
N11850 X240.833 Y100.595
N11855 X240.106 Y101.102
N11860 X239.368 Y101.592
N11865 X238.618 Y102.064
N11870 X237.858 Y102.521
N11875 X237.089 Y102.96
N11880 X236.311 Y103.384
N11885 X235.523 Y103.789
N11890 X234.724 Y104.172
N11895 X233.911 Y104.526
N11900 X233.08 Y104.833
N11905 X232.446 Y105.013
N11910 X231.935 Y105.115
N11915 X231.507 Y105.164
N11920 X231.089 Y105.179
N11925 X231.044 Y105.177
N11930 X230.748 Y105.132
N11935 X230.47 Y105.025
N11940 X230.22 Y104.862
N11945 X230.01 Y104.649
N11950 X229.851 Y104.397
N11955 X229.748 Y104.116
N11960 X229.731 Y104.047
N11965 X229.671 Y103.846
N11970 X229.429 Y103.241
N11975 X229.142 Y102.637
N11980 X229.046 Y102.443
N11985 G3 X229.211 Y101.732 I0.547 J-0.248
N11990 G1 X229.252 Y101.701 F6000.
N11995 X229.294 Y101.674
N12000 X246.103 Y92.069
N12005 G3 X246.535 Y92.005 I0.298 J0.521
N12010 X247. Y92.569 I-0.135 J0.585 F4000.
N12015 G1 Y95.589
N12020 X246.982 Y95.947
N12025 X246.941 Y96.257
N12030 X246.866 Y96.608
N12035 X246.745 Y97.013
N12040 X246.57 Y97.462
N12045 X246.321 Y97.976
N12050 X245.971 Y98.571
N12055 X245.491 Y99.254
N12060 X244.925 Y99.936
N12065 X244.314 Y100.577
N12070 X243.669 Y101.185
N12075 X242.997 Y101.763
N12080 X242.303 Y102.315
N12085 X241.592 Y102.843
N12090 X240.866 Y103.351
N12095 X240.126 Y103.839
N12100 X239.375 Y104.308
N12105 X238.613 Y104.76
N12110 X237.84 Y105.194
N12115 X237.056 Y105.608
N12120 X236.261 Y105.998
N12125 X235.451 Y106.358
N12130 X234.625 Y106.677
N12135 X233.779 Y106.942
N12140 X233.14 Y107.087
N12145 X232.609 Y107.164
N12150 X232.146 Y107.193
N12155 X231.751 Y107.186
N12160 X231.362 Y107.148
N12165 X231.217 Y107.122
N12170 X230.923 Y107.035
N12175 X230.654 Y106.888
N12180 X230.422 Y106.686
N12185 X230.239 Y106.44
N12190 X230.113 Y106.16
N12195 X230.05 Y105.859
N12200 X229.988 Y105.255
N12205 X229.954 Y105.054
N12210 X229.875 Y104.651
N12215 X229.831 Y104.45
N12220 X229.748 Y104.116
N12225 G3 X230.057 Y103.46 I0.587 J-0.124
N12230 G1 X230.063 Y103.457
N12235 X246.123 Y95.078 F6000.
N12240 G3 X246.535 Y95.026 I0.278 J0.532
N12245 X247. Y95.589 I-0.135 J0.585 F4000.
N12250 G1 Y98.61
N12255 X246.985 Y98.901
N12260 X246.947 Y99.192
N12265 X246.874 Y99.533
N12270 X246.759 Y99.917
N12275 X246.592 Y100.347
N12280 X246.357 Y100.83
N12285 X246.029 Y101.388
N12290 X245.587 Y102.017
N12295 X245.021 Y102.699
N12300 X244.405 Y103.336
N12305 X243.752 Y103.936
N12310 X243.071 Y104.503
N12315 X242.368 Y105.041
N12320 X241.646 Y105.555
N12325 X240.909 Y106.047
N12330 X240.157 Y106.517
N12335 X239.393 Y106.965
N12340 X238.616 Y107.392
N12345 X237.827 Y107.793
N12350 X237.023 Y108.166
N12355 X236.204 Y108.505
N12360 X235.368 Y108.799
N12365 X234.514 Y109.036
N12370 X233.743 Y109.186
N12375 X233.115 Y109.257
N12380 X232.568 Y109.274
N12385 X232.115 Y109.252
N12390 X231.711 Y109.199
N12395 X231.336 Y109.119
N12400 X231.001 Y109.019
N12405 X230.686 Y108.897
N12410 X230.637 Y108.873
N12415 X230.369 Y108.703
N12420 X230.148 Y108.475
N12425 X229.986 Y108.202
N12430 X229.891 Y107.899
N12435 X229.869 Y107.582
N12440 X229.921 Y107.269
N12445 X229.967 Y107.068
N12450 X230.022 Y106.665
N12455 X230.044 Y106.464
N12460 X230.05 Y105.859
N12465 G3 X230.398 Y105.34 I0.599 J0.026
N12470 G1 X230.514 Y105.287
N12475 X246.149 Y98.086 F6000.
N12480 G3 X246.535 Y98.046 I0.251 J0.545
N12485 X247. Y98.61 I-0.135 J0.585 F4000.
N12490 G1 Y101.429
N12495 X246.983 Y101.773
N12500 X246.946 Y102.053
N12505 X246.874 Y102.388
N12510 X246.766 Y102.751
N12515 X246.604 Y103.166
N12520 X246.382 Y103.624
N12525 X246.071 Y104.152
N12530 X245.659 Y104.739
N12535 X245.101 Y105.411
N12540 X244.482 Y106.046
N12545 X243.823 Y106.639
N12550 X243.135 Y107.196
N12555 X242.422 Y107.723
N12560 X241.69 Y108.222
N12565 X240.94 Y108.694
N12570 X240.175 Y109.141
N12575 X239.394 Y109.561
N12580 X238.599 Y109.952
N12585 X237.789 Y110.312
N12590 X236.964 Y110.634
N12595 X236.122 Y110.911
N12600 X235.265 Y111.137
N12605 X234.424 Y111.296
N12610 X233.647 Y111.379
N12615 X232.942 Y111.398
N12620 X232.304 Y111.363
N12625 X231.79 Y111.294
N12630 X231.327 Y111.193
N12635 X230.943 Y111.076
N12640 X230.583 Y110.934
N12645 X230.28 Y110.786
N12650 X229.98 Y110.608
N12655 X229.734 Y110.433
N12660 X229.681 Y110.389
N12665 X229.48 Y110.183
N12670 X229.326 Y109.94
N12675 X229.225 Y109.671
N12680 X229.181 Y109.387
N12685 X229.196 Y109.1
N12690 X229.269 Y108.822
N12695 X229.397 Y108.565
N12700 X229.452 Y108.477
N12705 X229.555 Y108.276
N12710 X229.651 Y108.075
N12715 X229.74 Y107.873
N12720 X229.805 Y107.672
N12725 X229.921 Y107.269
N12730 G3 X230.279 Y106.894 I0.57 J0.186
N12735 G1 X230.512 Y106.806
N12740 X246.188 Y100.889 F6000.
N12745 G3 X246.535 Y100.865 I0.212 J0.561
N12750 X247. Y101.429 I-0.135 J0.585 F4000.
N12755 G1 Y104.248
N12760 X246.984 Y104.566
N12765 X246.948 Y104.843
N12770 X246.877 Y105.174
N12775 X246.773 Y105.52
N12780 X246.616 Y105.924
N12785 X246.404 Y106.361
N12790 X246.106 Y106.866
N12795 X245.719 Y107.418
N12800 X245.199 Y108.044
N12805 X244.581 Y108.678
N12810 X243.918 Y109.267
N12815 X243.223 Y109.816
N12820 X242.501 Y110.329
N12825 X241.757 Y110.811
N12830 X240.994 Y111.261
N12835 X240.213 Y111.681
N12840 X239.416 Y112.068
N12845 X238.604 Y112.422
N12850 X237.776 Y112.737
N12855 X236.932 Y113.009
N12860 X236.075 Y113.233
N12865 X235.205 Y113.404
N12870 X234.326 Y113.516
N12875 X233.472 Y113.562
N12880 X232.716 Y113.541
N12885 X232.013 Y113.465
N12890 X231.369 Y113.343
N12895 X230.787 Y113.183
N12900 X230.309 Y113.009
N12905 X229.883 Y112.815
N12910 X229.529 Y112.617
N12915 X229.217 Y112.408
N12920 X228.939 Y112.188
N12925 X228.697 Y111.962
N12930 X228.482 Y111.726
N12935 X228.39 Y111.608
N12940 X228.222 Y111.331
N12945 X228.123 Y111.023
N12950 X228.097 Y110.7
N12955 X228.146 Y110.379
N12960 X228.268 Y110.079
N12965 X228.455 Y109.814
N12970 X228.571 Y109.686
N12975 X229.069 Y109.081
N12980 X229.397 Y108.565
N12985 G3 X229.73 Y108.326 I0.495 J0.339
N12990 G1 X230.083 Y108.227
N12995 X246.238 Y103.692 F6000.
N13000 G3 X246.535 Y103.685 I0.162 J0.578
N13005 X247. Y104.248 I-0.135 J0.585 F4000.
N13010 G1 Y107.068
N13015 X246.989 Y107.295
N13020 X246.952 Y107.572
N13025 X246.883 Y107.895
N13030 X246.783 Y108.228
N13035 X246.629 Y108.625
N13040 X246.428 Y109.039
N13045 X246.144 Y109.522
N13050 X245.779 Y110.041
N13055 X245.299 Y110.62
N13060 X244.68 Y111.254
N13065 X244.013 Y111.837
N13070 X243.31 Y112.376
N13075 X242.578 Y112.875
N13080 X241.822 Y113.337
N13085 X241.045 Y113.764
N13090 X240.25 Y114.155
N13095 X239.438 Y114.51
N13100 X238.61 Y114.825
N13105 X237.767 Y115.099
N13110 X236.911 Y115.33
N13115 X236.045 Y115.515
N13120 X235.169 Y115.65
N13125 X234.286 Y115.73
N13130 X233.401 Y115.75
N13135 X232.516 Y115.704
N13140 X231.685 Y115.595
N13145 X230.931 Y115.433
N13150 X230.267 Y115.234
N13155 X229.661 Y114.998
N13160 X229.107 Y114.728
N13165 X228.625 Y114.445
N13170 X228.22 Y114.16
N13175 X227.893 Y113.889
N13180 X227.605 Y113.607
N13185 X227.368 Y113.335
N13190 X227.164 Y113.059
N13195 X226.989 Y112.777
N13200 X226.851 Y112.51
N13205 X226.821 Y112.438
N13210 X226.739 Y112.166
N13215 X226.713 Y111.883
N13220 X226.745 Y111.6
N13225 X226.833 Y111.33
N13230 X226.975 Y111.083
N13235 X227.163 Y110.87
N13240 X227.39 Y110.699
N13245 X227.736 Y110.491
N13250 X227.797 Y110.451
N13255 X227.977 Y110.29
N13260 X228.401 Y109.875
N13265 X228.455 Y109.814
N13270 G3 X228.781 Y109.64 I0.432 J0.416
N13275 G1 X229.184 Y109.568
N13280 X246.294 Y106.498 F6000.
N13285 X246.375 Y106.489
N13290 X246.456 Y106.491
N13295 X246.535 Y106.504
N13300 G3 X247. Y107.068 I-0.135 J0.585 F4000.
N13305 G1 Y109.686
N13310 X246.985 Y109.976
N13315 X246.949 Y110.253
N13320 X246.884 Y110.559
N13325 X246.786 Y110.885
N13330 X246.637 Y111.269
N13335 X246.446 Y111.662
N13340 X246.176 Y112.121
N13345 X245.835 Y112.606
N13350 X245.39 Y113.142
N13355 X244.814 Y113.732
N13360 X244.147 Y114.314
N13365 X243.438 Y114.847
N13370 X242.698 Y115.334
N13375 X241.932 Y115.78
N13380 X241.145 Y116.185
N13385 X240.338 Y116.551
N13390 X239.514 Y116.877
N13395 X238.675 Y117.163
N13400 X237.824 Y117.409
N13405 X236.961 Y117.613
N13410 X236.09 Y117.772
N13415 X235.211 Y117.887
N13420 X234.327 Y117.951
N13425 X233.441 Y117.96
N13430 X232.556 Y117.913
N13435 X231.676 Y117.807
N13440 X231.021 Y117.679
N13445 X230.742 Y117.594
N13450 X230.487 Y117.453
N13455 X230.267 Y117.263
N13460 X230.091 Y117.031
N13465 X229.911 Y116.734
N13470 X229.81 Y116.586
N13475 X229.771 Y116.532
N13480 X229.609 Y116.325
N13485 X229.407 Y116.073
N13490 X229.283 Y115.928
N13495 X229.106 Y115.727
N13500 X229.005 Y115.626
N13505 X228.803 Y115.433
N13510 X228.683 Y115.324
N13515 X228.45 Y115.123
N13520 X228.401 Y115.085
N13525 X227.998 Y114.795
N13530 X227.89 Y114.72
N13535 X227.797 Y114.664
N13540 X227.193 Y114.371
N13545 X227.047 Y114.317
N13550 X226.906 Y114.265
N13555 X226.732 Y114.178
N13560 X226.548 Y114.066
N13565 X226.383 Y113.948
N13570 X226.227 Y113.815
N13575 X226.074 Y113.662
N13580 X225.944 Y113.509
N13585 X225.817 Y113.331
N13590 X225.707 Y113.15
N13595 X225.601 Y112.86
N13600 X225.561 Y112.553
N13605 X225.591 Y112.245
N13610 X225.688 Y111.952
N13615 X225.847 Y111.687
N13620 X226.062 Y111.464
N13625 X226.32 Y111.295
N13630 X226.388 Y111.26
N13635 X226.589 Y111.154
N13640 X226.79 Y111.045
N13645 X227.063 Y110.894
N13650 X227.193 Y110.818
N13655 X227.39 Y110.699
N13660 G3 X228.113 Y110.806 I0.292 J0.524
N13665 X228.271 Y111.336 I-0.431 J0.417 F6000.
N13670 G1 X227.794 Y113.85
N13675 X227.777 Y113.916
N13680 X227.754 Y113.98
N13685 X227.723 Y114.04
N13690 G3 X227.047 Y114.317 I-0.518 J-0.302 F4000.
N13695 G1 X226.589 Y114.175
N13700 X226.388 Y114.124
N13705 X226.351 Y114.116
N13710 X226.187 Y114.084
N13715 X225.985 Y114.052
N13720 X225.875 Y114.037
N13725 X225.727 Y114.01
N13730 X225.583 Y113.968
N13735 X225.445 Y113.909
N13740 X225.315 Y113.835
N13745 X225.192 Y113.749
N13750 X225.078 Y113.651
N13755 X224.904 Y113.421
N13760 X224.79 Y113.156
N13765 X224.742 Y112.872
N13770 X224.764 Y112.584
N13775 X224.853 Y112.31
N13780 X225.006 Y112.065
N13785 X225.212 Y111.863
N13790 X225.46 Y111.717
N13795 X225.5 Y111.699
N13800 X225.784 Y111.566
N13805 X226.32 Y111.295
N13810 G3 X227.033 Y111.454 I0.253 J0.544
N13815 X227.13 Y112.061 I-0.46 J0.385 F6000.
N13820 G1 X226.495 Y113.651
N13825 X226.49 Y113.663 F4000.
N13830 G3 X225.875 Y114.037 I-0.557 J-0.223
N13835 G1 X225.784 Y114.025
N13840 X225.381 Y113.991
N13845 X225.18 Y113.979
N13850 X225.119 Y113.984
N13855 X224.969 Y113.988
N13860 X224.821 Y113.968
N13865 X224.677 Y113.924
N13870 X224.451 Y113.779
N13875 X224.27 Y113.582
N13880 X224.145 Y113.344
N13885 X224.085 Y113.083
N13890 X224.094 Y112.814
N13895 X224.171 Y112.557
N13900 X224.311 Y112.329
N13905 X224.505 Y112.143
N13910 X224.74 Y112.014
N13915 X224.813 Y111.992
N13920 X224.888 Y111.978
N13925 X224.964 Y111.971
N13930 G3 X225.499 Y112.099 I0.041 J1.009
N13935 X225.79 Y113.615 I-0.494 J0.881 F6000.
N13940 X225.119 Y113.984 I-0.786 J-0.635 F4000.
N13945 G1 X224.576 Y114.026
N13950 X224.465 Y114.047
N13955 X224.317 Y114.066
N13960 X224.167 Y114.053
N13965 X224.023 Y114.011
N13970 X223.886 Y113.95
N13975 X223.685 Y113.776
N13980 X223.54 Y113.553
N13985 X223.461 Y113.299
N13990 X223.457 Y113.033
N13995 X223.526 Y112.776
N14000 X223.663 Y112.548
N14005 X223.859 Y112.367
N14010 X224.096 Y112.247
N14015 X224.142 Y112.236
N14020 X224.189 Y112.229
N14025 G3 X224.836 Y112.422 I0.079 J0.918
N14030 X225.075 Y113.59 I-0.568 J0.725 F6000.
N14035 X224.465 Y114.047 I-0.807 J-0.443 F4000.
N14040 G1 X224.375 Y114.063
N14045 X224.174 Y114.107
N14050 X223.972 Y114.164
N14055 X223.939 Y114.176
N14060 X223.795 Y114.217
N14065 X223.645 Y114.224
N14070 X223.497 Y114.201
N14075 X223.354 Y114.154
N14080 X223.152 Y114.016
N14085 X222.994 Y113.829
N14090 X222.89 Y113.607
N14095 X222.847 Y113.366
N14100 X222.869 Y113.122
N14105 X222.953 Y112.893
N14110 X223.095 Y112.693
N14115 X223.284 Y112.537
N14120 X223.507 Y112.436
N14125 X223.566 Y112.425
N14130 X223.626 Y112.422
N14135 G3 X224.231 Y112.662 I-0.011 J0.907
N14140 X224.47 Y113.631 I-0.615 J0.667 F6000.
N14145 X223.939 Y114.176 I-0.855 J-0.303 F4000.
N14150 G1 X223.771 Y114.233
N14155 X223.67 Y114.272
N14160 X223.645 Y114.278
N14165 X223.62 Y114.281
N14170 X223.595 Y114.28
N14175 X223.57 Y114.277
N14180 X223.368 Y114.238
N14185 X223.167 Y114.195
N14190 X222.9 Y114.129
N14195 X222.756 Y114.086
N14200 X222.621 Y114.021
N14205 X222.462 Y113.868
N14210 X222.352 Y113.677
N14215 X222.299 Y113.462
N14220 X222.307 Y113.242
N14225 X222.376 Y113.032
N14230 X222.5 Y112.85
N14235 X222.67 Y112.709
N14240 X222.873 Y112.621
N14245 X222.959 Y112.605
N14250 X223.047 Y112.599
N14255 G3 X223.599 Y112.817 I0.014 J0.774
N14260 X223.619 Y113.908 I-0.539 J0.555 F6000.
N14265 X222.9 Y114.129 I-0.558 J-0.536 F4000.
N14270 G1 X222.765 Y114.096
N14275 X222.563 Y114.042
N14280 X222.362 Y113.985
N14285 X222.259 Y113.954
N14290 X222.117 Y113.904
N14295 X221.969 Y113.764
N14300 X221.874 Y113.583
N14305 X221.841 Y113.382
N14310 X221.875 Y113.181
N14315 X221.971 Y113.002
N14320 X222.12 Y112.862
N14325 X222.305 Y112.777
N14330 G3 X222.601 Y112.79 I0.125 J0.534
N14335 X222.957 Y113.101 I-0.189 J0.577
N14340 X222.935 Y113.675 I-0.545 J0.266 F6000.
N14345 X222.259 Y113.954 I-0.523 J-0.308 F4000.
N14350 G1 X221.849 Y113.831
N14355 X221.799 Y113.816
N14360 X221.658 Y113.765
N14365 X221.539 Y113.63
N14370 X221.476 Y113.462
N14375 X221.479 Y113.282
N14380 X221.546 Y113.116
N14385 X221.668 Y112.984
N14390 X221.83 Y112.906
N14395 X221.907 Y112.895
N14400 X221.985 Y112.898
N14405 X222.061 Y112.915
N14410 G3 X222.387 Y113.321 I-0.142 J0.447
N14415 G1 X222.388 Y113.378 F6000.
N14420 X222.383 Y113.436
N14425 G3 X221.799 Y113.816 I-0.463 J-0.073 F4000.
N14430 G1 X221.758 Y113.803
N14435 X221.446 Y113.7
N14440 X221.306 Y113.646
N14445 X221.207 Y113.514
N14450 X221.175 Y113.352
N14455 X221.214 Y113.192
N14460 X221.318 Y113.064
N14465 X221.467 Y112.992
N14470 X221.513 Y112.986
N14475 X221.559 Y112.984
N14480 G3 X221.909 Y113.407 I-0.011 J0.365
N14485 X221.446 Y113.7 I-0.361 J-0.057
N14490 G1 X221.154 Y113.604
N14495 X221.016 Y113.546
N14500 X220.948 Y113.442
N14505 X220.931 Y113.32
N14510 X220.966 Y113.201
N14515 X221.048 Y113.108
N14520 X221.161 Y113.057
N14525 X221.237 Y113.052
N14530 G3 X221.234 Y113.615 I-0.004 J0.282
N14535 G1 X221.233
N14540 X221.193 Y113.612
N14545 X221.154 Y113.604
N14550 X220.898 Y113.512
N14555 X220.869 Y113.498
N14560 X220.841 Y113.478
N14565 X220.808 Y113.444
N14570 X220.795 Y113.428
N14575 X220.784 Y113.411
N14580 X220.773 Y113.386
N14585 X220.765 Y113.361
N14590 X220.76 Y113.335
N14595 X220.759 Y113.31
N14600 X220.761 Y113.285
N14605 X220.766 Y113.26
N14610 X220.775 Y113.235
N14615 X220.788 Y113.21
N14620 X220.804 Y113.187
N14625 X220.826 Y113.164
N14630 X220.845 Y113.149
N14635 X220.864 Y113.138
N14640 X220.94 Y113.109
N14645 X220.953 Y113.105
N14650 X221.154 Y113.059
N14655 X221.246 Y113.051
N14660 X221.339 Y113.057
N14665 X221.409 Y113.08 Z-1.995
N14670 X221.478 Y113.103 Z-1.982
N14675 X221.544 Y113.126 Z-1.959
N14680 X221.606 Y113.176 Z-1.921
N14685 X221.662 Y113.223 Z-1.871
N14690 X221.712 Y113.264 Z-1.812
N14695 X221.742 Y113.312 Z-1.741
N14700 X221.767 Y113.351 Z-1.663
N14705 X221.785 Y113.379 Z-1.579
N14710 X221.796 Y113.396 Z-1.491
N14715 X221.799 Y113.402 Z-1.4
N14720 G0 Z-0.8
N14725 X246.472 Y108.416
N14730 G1 Z-1.4 F4000.
N14735 X246.476 Y108.423 Z-1.494
N14740 X246.487 Y108.441 Z-1.585
N14745 X246.505 Y108.472 Z-1.672
N14750 X246.531 Y108.515 Z-1.753
N14755 X246.562 Y108.567 Z-1.824
N14760 X246.598 Y108.629 Z-1.885
N14765 X246.639 Y108.698 Z-1.935
N14770 X246.684 Y108.773 Z-1.971
N14775 X246.731 Y108.851 Z-1.993
N14780 X246.779 Y108.932 Z-2.
N14785 G3 X247. Y109.686 I-1.36 J0.809
N14790 G1 Y112.303
N14795 X246.986 Y112.592
N14800 X246.949 Y112.867
N14805 X246.889 Y113.149
N14810 X246.792 Y113.474
N14815 X246.65 Y113.838
N14820 X246.465 Y114.219
N14825 X246.21 Y114.653
N14830 X245.886 Y115.114
N14835 X245.472 Y115.612
N14840 X244.939 Y116.159
N14845 X244.273 Y116.74
N14850 X243.561 Y117.267
N14855 X242.814 Y117.744
N14860 X242.04 Y118.175
N14865 X241.243 Y118.562
N14870 X240.426 Y118.907
N14875 X239.594 Y119.211
N14880 X238.748 Y119.476
N14885 X237.891 Y119.7
N14890 X237.025 Y119.885
N14895 X236.15 Y120.028
N14900 X235.27 Y120.128
N14905 X234.385 Y120.183
N14910 X233.499 Y120.188
N14915 X232.614 Y120.144
N14920 X232.004 Y120.068
N14925 X231.941 Y120.055
N14930 X231.671 Y119.97
N14935 X231.423 Y119.832
N14940 X231.208 Y119.646
N14945 X231.035 Y119.422
N14950 X230.91 Y119.166
N14955 X230.84 Y118.891
N14960 X230.816 Y118.732
N14965 X230.779 Y118.546
N14970 X230.726 Y118.345
N14975 X230.652 Y118.143
N14980 X230.615 Y118.048
N14985 X230.569 Y117.942
N14990 X230.414 Y117.608
N14995 X230.381 Y117.539
N15000 X230.277 Y117.338
N15005 X230.091 Y117.031
N15010 G3 X230.196 Y116.308 I0.523 J-0.293
N15015 X230.453 Y116.16 I0.419 J0.43 F6000.
N15020 G1 X246.239 Y111.746
N15025 G3 X246.535 Y111.74 I0.162 J0.578
N15030 X247. Y112.303 I-0.135 J0.585 F4000.
N15035 G1 Y114.921
N15040 X246.989 Y115.143
N15045 X246.954 Y115.406
N15050 X246.896 Y115.679
N15055 X246.799 Y116.004
N15060 X246.666 Y116.345
N15065 X246.484 Y116.719
N15070 X246.243 Y117.129
N15075 X245.933 Y117.571
N15080 X245.545 Y118.038
N15085 X245.046 Y118.55
N15090 X244.426 Y119.09
N15095 X243.713 Y119.617
N15100 X242.963 Y120.089
N15105 X242.184 Y120.511
N15110 X241.381 Y120.886
N15115 X240.559 Y121.217
N15120 X239.722 Y121.508
N15125 X238.872 Y121.759
N15130 X238.012 Y121.972
N15135 X237.143 Y122.145
N15140 X236.267 Y122.279
N15145 X235.386 Y122.373
N15150 X234.501 Y122.424
N15155 X233.656 Y122.427
N15160 X233.076 Y122.383
N15165 X232.576 Y122.304
N15170 X232.159 Y122.203
N15175 X231.789 Y122.082
N15180 X231.601 Y122.003
N15185 X231.332 Y121.854
N15190 X231.103 Y121.65
N15195 X230.924 Y121.401
N15200 X230.803 Y121.118
N15205 X230.747 Y120.817
N15210 X230.757 Y120.51
N15215 X230.838 Y119.956
N15220 X230.849 Y119.754
N15225 X230.86 Y119.352
N15230 X230.858 Y119.15
N15235 X230.849 Y118.949
N15240 X230.84 Y118.891
N15245 G3 X231.216 Y118.265 I0.596 J-0.068
N15250 G1 X231.286 Y118.243 F6000.
N15255 X246.25 Y114.361
N15260 G3 X246.535 Y114.358 I0.151 J0.581
N15265 X247. Y114.921 I-0.135 J0.585 F4000.
N15270 G1 Y117.338
N15275 X246.984 Y117.648
N15280 X246.952 Y117.892
N15285 X246.894 Y118.165
N15290 X246.799 Y118.483
N15295 X246.675 Y118.802
N15300 X246.493 Y119.176
N15305 X246.268 Y119.559
N15310 X245.964 Y119.991
N15315 X245.601 Y120.428
N15320 X245.13 Y120.912
N15325 X244.543 Y121.423
N15330 X243.835 Y121.947
N15335 X243.083 Y122.415
N15340 X242.3 Y122.83
N15345 X241.493 Y123.197
N15350 X240.668 Y123.519
N15355 X239.827 Y123.8
N15360 X238.974 Y124.041
N15365 X238.112 Y124.244
N15370 X237.241 Y124.409
N15375 X236.364 Y124.536
N15380 X235.482 Y124.624
N15385 X234.597 Y124.659
N15390 X233.743 Y124.631
N15395 X233.063 Y124.555
N15400 X232.491 Y124.443
N15405 X232.044 Y124.318
N15410 X231.645 Y124.171
N15415 X231.297 Y124.009
N15420 X230.983 Y123.832
N15425 X230.706 Y123.645
N15430 X230.598 Y123.559
N15435 X230.394 Y123.358
N15440 X230.235 Y123.119
N15445 X230.128 Y122.853
N15450 X230.077 Y122.571
N15455 X230.085 Y122.284
N15460 X230.151 Y122.005
N15465 X230.272 Y121.746
N15470 X230.38 Y121.567
N15475 X230.414 Y121.5
N15480 X230.477 Y121.365
N15485 X230.564 Y121.164
N15490 X230.75 Y120.56
N15495 X230.757 Y120.51
N15500 G3 X231.221 Y120.031 I0.59 J0.107
N15505 G1 X231.298 Y120.014
N15510 X246.273 Y116.772 F6000.
N15515 G3 X246.535 Y116.774 I0.127 J0.586
N15520 X247. Y117.338 I-0.135 J0.585 F4000.
N15525 G1 Y119.754
N15530 X246.983 Y120.094
N15535 X246.952 Y120.327
N15540 X246.894 Y120.6
N15545 X246.804 Y120.901
N15550 X246.681 Y121.217
N15555 X246.501 Y121.587
N15560 X246.287 Y121.95
N15565 X245.991 Y122.373
N15570 X245.644 Y122.79
N15575 X245.192 Y123.254
N15580 X244.629 Y123.745
N15585 X243.954 Y124.245
N15590 X243.201 Y124.713
N15595 X242.417 Y125.125
N15600 X241.608 Y125.487
N15605 X240.781 Y125.804
N15610 X239.938 Y126.079
N15615 X239.084 Y126.314
N15620 X238.22 Y126.511
N15625 X237.348 Y126.67
N15630 X236.47 Y126.788
N15635 X235.587 Y126.861
N15640 X234.701 Y126.881
N15645 X233.821 Y126.841
N15650 X233.023 Y126.74
N15655 X232.324 Y126.594
N15660 X231.702 Y126.411
N15665 X231.185 Y126.212
N15670 X230.755 Y126.006
N15675 X230.383 Y125.789
N15680 X230.076 Y125.575
N15685 X229.788 Y125.338
N15690 X229.553 Y125.111
N15695 X229.331 Y124.859
N15700 X229.151 Y124.619
N15705 X229.114 Y124.559
N15710 X228.984 Y124.296
N15715 X228.911 Y124.013
N15720 X228.896 Y123.72
N15725 X228.942 Y123.431
N15730 X229.046 Y123.157
N15735 X229.203 Y122.91
N15740 X229.407 Y122.7
N15745 X229.558 Y122.574
N15750 G3 X229.81 Y122.459 I0.369 J0.473
N15755 G1 X230.306 Y122.36
N15760 X246.283 Y119.187 F6000.
N15765 G3 X246.535 Y119.191 I0.117 J0.589
N15770 X247. Y119.754 I-0.135 J0.585 F4000.
N15775 G1 Y122.171
N15780 X246.984 Y122.493
N15785 X246.954 Y122.722
N15790 X246.895 Y122.995
N15795 X246.809 Y123.282
N15800 X246.687 Y123.598
N15805 X246.514 Y123.954
N15810 X246.303 Y124.312
N15815 X246.015 Y124.722
N15820 X245.674 Y125.132
N15825 X245.238 Y125.58
N15830 X244.691 Y126.057
N15835 X244.035 Y126.542
N15840 X243.283 Y127.01
N15845 X242.497 Y127.421
N15850 X241.687 Y127.779
N15855 X240.858 Y128.091
N15860 X240.013 Y128.361
N15865 X239.157 Y128.59
N15870 X238.292 Y128.779
N15875 X237.418 Y128.928
N15880 X236.539 Y129.035
N15885 X235.655 Y129.096
N15890 X234.768 Y129.105
N15895 X233.884 Y129.058
N15900 X233.004 Y128.952
N15905 X232.182 Y128.789
N15910 X231.441 Y128.579
N15915 X230.772 Y128.331
N15920 X230.181 Y128.055
N15925 X229.655 Y127.756
N15930 X229.183 Y127.436
N15935 X228.805 Y127.131
N15940 X228.493 Y126.836
N15945 X228.223 Y126.536
N15950 X228.007 Y126.254
N15955 X227.814 Y125.954
N15960 X227.664 Y125.673
N15965 X227.534 Y125.375
N15970 X227.437 Y125.093
N15975 X227.397 Y124.938
N15980 X227.354 Y124.634
N15985 X227.378 Y124.329
N15990 X227.468 Y124.036
N15995 X227.62 Y123.769
N16000 X227.826 Y123.542
N16005 X228.076 Y123.365
N16010 X228.359 Y123.247
N16015 X228.453 Y123.231
N16020 X229.14 Y123.168
N16025 X246.346 Y121.594 F6000.
N16030 X246.441 Y121.593
N16035 X246.535 Y121.607
N16040 G3 X247. Y122.171 I-0.135 J0.585 F4000.
N16045 G1 Y124.587
N16050 X246.986 Y124.857
N16055 X246.956 Y125.086
N16060 X246.898 Y125.358
N16065 X246.815 Y125.636
N16070 X246.692 Y125.952
N16075 X246.526 Y126.294
N16080 X246.315 Y126.653
N16085 X246.034 Y127.052
N16090 X245.697 Y127.459
N16095 X245.272 Y127.895
N16100 X244.737 Y128.361
N16105 X244.095 Y128.836
N16110 X243.343 Y129.304
N16115 X242.557 Y129.712
N16120 X241.745 Y130.068
N16125 X240.914 Y130.376
N16130 X240.068 Y130.639
N16135 X239.21 Y130.861
N16140 X238.343 Y131.042
N16145 X237.467 Y131.181
N16150 X236.587 Y131.279
N16155 X235.702 Y131.331
N16160 X234.816 Y131.335
N16165 X233.931 Y131.289
N16170 X233.051 Y131.19
N16175 X232.178 Y131.034
N16180 X231.319 Y130.818
N16185 X230.478 Y130.538
N16190 X229.706 Y130.211
N16195 X229.037 Y129.862
N16200 X228.438 Y129.485
N16205 X227.905 Y129.087
N16210 X227.437 Y128.675
N16215 X227.033 Y128.257
N16220 X226.682 Y127.83
N16225 X226.4 Y127.425
N16230 X226.166 Y127.023
N16235 X225.997 Y126.672
N16240 X225.859 Y126.311
N16245 X225.764 Y125.989
N16250 X225.694 Y125.651
N16255 X225.656 Y125.351
N16260 X225.641 Y125.033
N16265 X225.651 Y124.747
N16270 X225.652 Y124.74
N16275 X225.713 Y124.465
N16280 X225.827 Y124.207
N16285 X225.991 Y123.977
N16290 X226.197 Y123.785
N16295 X226.438 Y123.639
N16300 X226.703 Y123.543
N16305 X226.982 Y123.502
N16310 X227.193 Y123.493
N16315 X227.797 Y123.405
N16320 X227.91 Y123.379
N16325 X228.359 Y123.247
N16330 X228.446 Y123.232
N16335 X228.534 Y123.229
N16340 X229.142 Y123.256
N16345 X246.426 Y124.009 F6000.
N16350 X246.481 Y124.014
N16355 X246.535 Y124.024
N16360 G3 X247. Y124.587 I-0.135 J0.585 F4000.
N16365 G1 Y127.004
N16370 X246.99 Y127.198
N16375 X246.96 Y127.427
N16380 X246.902 Y127.697
N16385 X246.821 Y127.97
N16390 X246.698 Y128.286
N16395 X246.536 Y128.619
N16400 X246.325 Y128.978
N16405 X246.05 Y129.369
N16410 X245.715 Y129.773
N16415 X245.298 Y130.2
N16420 X244.773 Y130.658
N16425 X244.145 Y131.123
N16430 X243.392 Y131.591
N16435 X242.605 Y131.998
N16440 X241.792 Y132.35
N16445 X240.96 Y132.654
N16450 X240.112 Y132.911
N16455 X239.252 Y133.126
N16460 X238.383 Y133.3
N16465 X237.507 Y133.432
N16470 X236.625 Y133.523
N16475 X235.741 Y133.571
N16480 X234.854 Y133.574
N16485 X233.969 Y133.531
N16490 X233.088 Y133.44
N16495 X232.213 Y133.301
N16500 X231.347 Y133.112
N16505 X230.494 Y132.871
N16510 X229.659 Y132.574
N16515 X228.847 Y132.22
N16520 X228.064 Y131.806
N16525 X227.339 Y131.347
N16530 X226.682 Y130.852
N16535 X226.097 Y130.333
N16540 X225.584 Y129.799
N16545 X225.156 Y129.274
N16550 X224.798 Y128.755
N16555 X224.496 Y128.233
N16560 X224.25 Y127.714
N16565 X224.054 Y127.2
N16570 X223.924 Y126.75
N16575 X223.835 Y126.317
N16580 X223.789 Y125.942
N16585 X223.773 Y125.57
N16590 X223.786 Y125.238
N16595 X223.826 Y124.907
N16600 X223.886 Y124.611
N16605 X223.933 Y124.445
N16610 X224.059 Y124.144
N16615 X224.251 Y123.881
N16620 X224.499 Y123.669
N16625 X224.79 Y123.52
N16630 X225.107 Y123.442
N16635 X225.433 Y123.44
N16640 X225.784 Y123.479
N16645 X225.985 Y123.496
N16650 X226.388 Y123.514
N16655 X226.589 Y123.519
N16660 X226.982 Y123.502
N16665 X227.076 Y123.509
N16670 X227.759 Y123.612
N16675 X246.49 Y126.431 F6000.
N16680 X246.535 Y126.44
N16685 G3 X247. Y127.004 I-0.135 J0.585 F4000.
N16690 G1 Y129.219
N16695 X246.984 Y129.532
N16700 X246.954 Y129.761
N16705 X246.897 Y130.027
N16710 X246.817 Y130.297
N16715 X246.694 Y130.612
N16720 X246.536 Y130.937
N16725 X246.325 Y131.295
N16730 X246.057 Y131.678
N16735 X245.723 Y132.08
N16740 X245.315 Y132.498
N16745 X244.799 Y132.948
N16750 X244.184 Y133.403
N16755 X243.444 Y133.863
N16760 X242.657 Y134.27
N16765 X241.843 Y134.62
N16770 X241.009 Y134.92
N16775 X240.16 Y135.174
N16780 X239.299 Y135.384
N16785 X238.429 Y135.553
N16790 X237.552 Y135.681
N16795 X236.671 Y135.769
N16800 X235.786 Y135.816
N16805 X234.9 Y135.821
N16810 X234.014 Y135.783
N16815 X233.132 Y135.703
N16820 X232.254 Y135.579
N16825 X231.384 Y135.412
N16830 X230.524 Y135.2
N16835 X229.676 Y134.942
N16840 X228.845 Y134.635
N16845 X228.034 Y134.277
N16850 X227.248 Y133.868
N16855 X226.49 Y133.409
N16860 X225.765 Y132.899
N16865 X225.078 Y132.34
N16870 X224.435 Y131.73
N16875 X223.857 Y131.089
N16880 X223.354 Y130.43
N16885 X222.926 Y129.767
N16890 X222.582 Y129.124
N16895 X222.309 Y128.499
N16900 X222.097 Y127.884
N16905 X221.945 Y127.289
N16910 X221.847 Y126.721
N16915 X221.8 Y126.208
N16920 X221.795 Y125.723
N16925 X221.824 Y125.323
N16930 X221.884 Y124.928
N16935 X221.963 Y124.59
N16940 X222.068 Y124.264
N16945 X222.192 Y123.965
N16950 X222.215 Y123.919
N16955 X222.382 Y123.664
N16960 X222.601 Y123.452
N16965 X222.86 Y123.291
N16970 X223.147 Y123.191
N16975 X223.45 Y123.155
N16980 X223.753 Y123.186
N16985 X223.972 Y123.229
N16990 X224.576 Y123.331
N16995 X225.18 Y123.411
N17000 X225.433 Y123.44
N17005 X225.49 Y123.452
N17010 X226.196 Y123.626
N17015 X246.535 Y128.655 F6000.
N17020 X246.544 Y128.657 F4000.
N17025 G3 X247. Y129.219 I-0.144 J0.582
N17030 G1 Y131.635
N17035 X246.99 Y131.84
N17040 X246.96 Y132.069
N17045 X246.903 Y132.333
N17050 X246.823 Y132.601
N17055 X246.7 Y132.917
N17060 X246.545 Y133.236
N17065 X246.334 Y133.594
N17070 X246.071 Y133.969
N17075 X245.738 Y134.37
N17080 X245.337 Y134.781
N17085 X244.828 Y135.226
N17090 X244.222 Y135.674
N17095 X243.496 Y136.125
N17100 X242.709 Y136.532
N17105 X241.894 Y136.881
N17110 X241.06 Y137.179
N17115 X240.21 Y137.43
N17120 X239.349 Y137.638
N17125 X238.478 Y137.804
N17130 X237.601 Y137.93
N17135 X236.719 Y138.017
N17140 X235.834 Y138.065
N17145 X234.948 Y138.074
N17150 X234.063 Y138.043
N17155 X233.179 Y137.973
N17160 X232.3 Y137.864
N17165 X231.426 Y137.716
N17170 X230.56 Y137.528
N17175 X229.704 Y137.3
N17180 X228.86 Y137.029
N17185 X228.032 Y136.715
N17190 X227.221 Y136.357
N17195 X226.432 Y135.955
N17200 X225.666 Y135.509
N17205 X224.926 Y135.021
N17210 X224.216 Y134.491
N17215 X223.54 Y133.918
N17220 X222.903 Y133.302
N17225 X222.31 Y132.644
N17230 X221.763 Y131.947
N17235 X221.268 Y131.212
N17240 X220.829 Y130.442
N17245 X220.465 Y129.665
N17250 X220.183 Y128.91
N17255 X219.974 Y128.177
N17260 X219.834 Y127.475
N17265 X219.755 Y126.799
N17270 X219.731 Y126.169
N17275 X219.757 Y125.579
N17280 X219.819 Y125.088
N17285 X219.913 Y124.635
N17290 X220.023 Y124.257
N17295 X220.159 Y123.902
N17300 X220.305 Y123.596
N17305 X220.477 Y123.3
N17310 X220.486 Y123.287
N17315 X220.676 Y123.066
N17320 X220.907 Y122.89
N17325 X221.171 Y122.765
N17330 X221.454 Y122.697
N17335 X221.745 Y122.689
N17340 X222.032 Y122.742
N17345 X222.563 Y122.898
N17350 X223.167 Y123.056
N17355 X223.368 Y123.104
N17360 X223.753 Y123.186
N17365 X223.804 Y123.201
N17370 X224.496 Y123.44
N17375 X246.536 Y131.069 F6000.
N17380 X246.597 Y131.089 F4000.
N17385 G3 X247. Y131.635 I-0.196 J0.567
N17390 G1 Y133.851
N17395 X246.985 Y134.146
N17400 X246.955 Y134.375
N17405 X246.9 Y134.635
N17410 X246.82 Y134.903
N17415 X246.697 Y135.217
N17420 X246.545 Y135.53
N17425 X246.334 Y135.889
N17430 X246.077 Y136.255
N17435 X245.744 Y136.656
N17440 X245.35 Y137.059
N17445 X244.848 Y137.497
N17450 X244.248 Y137.941
N17455 X243.534 Y138.386
N17460 X242.747 Y138.792
N17465 X241.932 Y139.14
N17470 X241.097 Y139.437
N17475 X240.247 Y139.686
N17480 X239.385 Y139.892
N17485 X238.514 Y140.056
N17490 X237.637 Y140.182
N17495 X236.755 Y140.27
N17500 X235.871 Y140.32
N17505 X234.985 Y140.333
N17510 X234.099 Y140.309
N17515 X233.215 Y140.249
N17520 X232.334 Y140.153
N17525 X231.458 Y140.02
N17530 X230.588 Y139.852
N17535 X229.726 Y139.647
N17540 X228.873 Y139.405
N17545 X228.032 Y139.125
N17550 X227.205 Y138.807
N17555 X226.394 Y138.45
N17560 X225.602 Y138.053
N17565 X224.829 Y137.62
N17570 X224.079 Y137.148
N17575 X223.353 Y136.639
N17580 X222.655 Y136.094
N17585 X221.987 Y135.511
N17590 X221.354 Y134.891
N17595 X220.759 Y134.235
N17600 X220.203 Y133.545
N17605 X219.69 Y132.823
N17610 X219.222 Y132.07
N17615 X218.804 Y131.289
N17620 X218.441 Y130.48
N17625 X218.136 Y129.648
N17630 X217.896 Y128.795
N17635 X217.729 Y127.954
N17640 X217.635 Y127.15
N17645 X217.608 Y126.387
N17650 X217.64 Y125.687
N17655 X217.72 Y125.051
N17660 X217.843 Y124.462
N17665 X217.983 Y123.986
N17670 X218.137 Y123.584
N17675 X218.314 Y123.216
N17680 X218.492 Y122.909
N17685 X218.697 Y122.614
N17690 X218.722 Y122.583
N17695 X218.928 Y122.38
N17700 X219.171 Y122.224
N17705 X219.441 Y122.12
N17710 X219.726 Y122.074
N17715 X220.015 Y122.088
N17720 X220.295 Y122.161
N17725 X220.55 Y122.257
N17730 X220.953 Y122.395
N17735 X221.154 Y122.463
N17740 X221.557 Y122.593
N17745 X221.869 Y122.692
N17750 X221.959 Y122.721
N17755 X222.032 Y122.742
N17760 X222.075 Y122.758
N17765 X222.754 Y123.051
N17770 X246.513 Y133.304 F6000.
N17775 X246.674 Y133.374 F4000.
N17780 G3 X247. Y133.851 I-0.214 J0.496
N17785 G1 Y136.267
N17790 X246.992 Y136.43
N17795 X246.962 Y136.659
N17800 X246.907 Y136.917
N17805 X246.827 Y137.184
N17810 X246.705 Y137.498
N17815 X246.554 Y137.809
N17820 X246.343 Y138.167
N17825 X246.089 Y138.529
N17830 X245.756 Y138.93
N17835 X245.367 Y139.328
N17840 X244.869 Y139.762
N17845 X244.273 Y140.203
N17850 X243.567 Y140.643
N17855 X242.779 Y141.049
N17860 X241.964 Y141.397
N17865 X241.129 Y141.693
N17870 X240.278 Y141.941
N17875 X239.416 Y142.146
N17880 X238.546 Y142.311
N17885 X237.668 Y142.437
N17890 X236.787 Y142.526
N17895 X235.902 Y142.579
N17900 X235.016 Y142.598
N17905 X234.13 Y142.581
N17910 X233.246 Y142.529
N17915 X232.364 Y142.444
N17920 X231.486 Y142.326
N17925 X230.613 Y142.174
N17930 X229.746 Y141.989
N17935 X228.887 Y141.771
N17940 X228.038 Y141.519
N17945 X227.199 Y141.233
N17950 X226.373 Y140.912
N17955 X225.562 Y140.556
N17960 X224.766 Y140.165
N17965 X223.988 Y139.741
N17970 X223.23 Y139.282
N17975 X222.492 Y138.791
N17980 X221.778 Y138.267
N17985 X221.089 Y137.71
N17990 X220.427 Y137.121
N17995 X219.796 Y136.499
N18000 X219.198 Y135.845
N18005 X218.634 Y135.161
N18010 X218.106 Y134.45
N18015 X217.617 Y133.711
N18020 X217.168 Y132.947
N18025 X216.764 Y132.158
N18030 X216.408 Y131.346
N18035 X216.104 Y130.514
N18040 X215.854 Y129.664
N18045 X215.66 Y128.799
N18050 X215.526 Y127.923
N18055 X215.457 Y127.04
N18060 X215.456 Y126.166
N18065 X215.519 Y125.367
N18070 X215.634 Y124.655
N18075 X215.794 Y124.002
N18080 X215.985 Y123.425
N18085 X216.184 Y122.955
N18090 X216.38 Y122.58
N18095 X216.6 Y122.23
N18100 X216.813 Y121.945
N18105 X216.916 Y121.828
N18110 X217.131 Y121.63
N18115 X217.383 Y121.481
N18120 X217.66 Y121.387
N18125 X217.951 Y121.353
N18130 X218.242 Y121.381
N18135 X218.521 Y121.468
N18140 X218.762 Y121.567
N18145 X219.262 Y121.768
N18150 X219.946 Y122.031
N18155 X220.295 Y122.161
N18160 G3 X220.66 Y122.794 I-0.23 J0.554
N18165 G1 X220.648 Y122.887 Z-1.993
N18170 X220.636 Y122.977 Z-1.971
N18175 X220.624 Y123.064 Z-1.935
N18180 X220.614 Y123.143 Z-1.885
N18185 X220.604 Y123.214 Z-1.824
N18190 X220.596 Y123.275 Z-1.753
N18195 X220.59 Y123.324 Z-1.672
N18200 X220.585 Y123.359 Z-1.585
N18205 X220.582 Y123.381 Z-1.494
N18210 X220.581 Y123.388 Z-1.4
N18215 G0 Z-0.8
N18220 X246.472 Y134.998
N18225 G1 Z-1.4 F4000.
N18230 X246.476 Y135.004 Z-1.494
N18235 X246.487 Y135.023 Z-1.585
N18240 X246.505 Y135.054 Z-1.672
N18245 X246.531 Y135.096 Z-1.753
N18250 X246.562 Y135.149 Z-1.824
N18255 X246.598 Y135.21 Z-1.885
N18260 X246.639 Y135.279 Z-1.935
N18265 X246.684 Y135.354 Z-1.971
N18270 X246.731 Y135.433 Z-1.993
N18275 X246.779 Y135.514 Z-2.
N18280 G3 X247. Y136.267 I-1.36 J0.809
N18285 G1 Y138.482
N18290 X246.988 Y138.717
N18295 X246.958 Y138.946
N18300 X246.904 Y139.2
N18305 X246.824 Y139.467
N18310 X246.703 Y139.778
N18315 X246.553 Y140.087
N18320 X246.342 Y140.446
N18325 X246.092 Y140.801
N18330 X245.759 Y141.202
N18335 X245.375 Y141.596
N18340 X244.882 Y142.026
N18345 X244.288 Y142.466
N18350 X243.587 Y142.902
N18355 X242.8 Y143.308
N18360 X241.984 Y143.655
N18365 X241.149 Y143.95
N18370 X240.298 Y144.198
N18375 X239.436 Y144.403
N18380 X238.565 Y144.568
N18385 X237.688 Y144.695
N18390 X236.807 Y144.786
N18395 X235.923 Y144.843
N18400 X235.037 Y144.866
N18405 X234.151 Y144.856
N18410 X233.266 Y144.813
N18415 X232.383 Y144.738
N18420 X231.503 Y144.632
N18425 X230.628 Y144.495
N18430 X229.758 Y144.327
N18435 X228.894 Y144.128
N18440 X228.038 Y143.898
N18445 X227.191 Y143.638
N18450 X226.354 Y143.347
N18455 X225.529 Y143.024
N18460 X224.717 Y142.669
N18465 X223.919 Y142.283
N18470 X223.137 Y141.867
N18475 X222.372 Y141.419
N18480 X221.626 Y140.942
N18485 X220.899 Y140.435
N18490 X220.193 Y139.899
N18495 X219.511 Y139.333
N18500 X218.854 Y138.739
N18505 X218.224 Y138.116
N18510 X217.623 Y137.465
N18515 X217.052 Y136.787
N18520 X216.513 Y136.083
N18525 X216.008 Y135.356
N18530 X215.537 Y134.605
N18535 X215.104 Y133.832
N18540 X214.71 Y133.038
N18545 X214.359 Y132.225
N18550 X214.053 Y131.393
N18555 X213.794 Y130.546
N18560 X213.582 Y129.685
N18565 X213.421 Y128.814
N18570 X213.311 Y127.934
N18575 X213.259 Y127.05
N18580 X213.267 Y126.164
N18585 X213.338 Y125.281
N18590 X213.472 Y124.449
N18595 X213.656 Y123.693
N18600 X213.883 Y123.007
N18605 X214.118 Y122.45
N18610 X214.366 Y121.974
N18615 X214.6 Y121.601
N18620 X214.845 Y121.274
N18625 X215.091 Y120.993
N18630 X215.185 Y120.902
N18635 X215.413 Y120.723
N18640 X215.673 Y120.595
N18645 X215.954 Y120.523
N18650 X216.243 Y120.51
N18655 X216.529 Y120.557
N18660 X216.799 Y120.662
N18665 X217.128 Y120.832
N18670 X217.33 Y120.932
N18675 X217.531 Y121.028
N18680 X217.732 Y121.123
N18685 X217.933 Y121.214
N18690 X218.521 Y121.468
N18695 G3 X218.855 Y122.118 I-0.257 J0.542
N18700 G1 X218.838 Y122.21 Z-1.993
N18705 X218.821 Y122.3 Z-1.971
N18710 X218.806 Y122.386 Z-1.935
N18715 X218.791 Y122.465 Z-1.885
N18720 X218.779 Y122.535 Z-1.824
N18725 X218.768 Y122.595 Z-1.753
N18730 X218.759 Y122.644 Z-1.672
N18735 X218.752 Y122.679 Z-1.585
N18740 X218.748 Y122.701 Z-1.494
N18745 X218.747 Y122.708 Z-1.4
N18750 G0 Z-0.8
N18755 X246.472 Y137.213
N18760 G1 Z-1.4 F4000.
N18765 X246.476 Y137.219 Z-1.494
N18770 X246.487 Y137.238 Z-1.585
N18775 X246.505 Y137.269 Z-1.672
N18780 X246.531 Y137.311 Z-1.753
N18785 X246.562 Y137.364 Z-1.824
N18790 X246.598 Y137.426 Z-1.885
N18795 X246.639 Y137.495 Z-1.935
N18800 X246.684 Y137.569 Z-1.971
N18805 X246.731 Y137.648 Z-1.993
N18810 X246.779 Y137.729 Z-2.
N18815 G3 X247. Y138.482 I-1.36 J0.809
N18820 G1 Y140.697
N18825 X246.985 Y140.994
N18830 X246.955 Y141.223
N18835 X246.901 Y141.475
N18840 X246.821 Y141.742
N18845 X246.701 Y142.052
N18850 X246.551 Y142.359
N18855 X246.341 Y142.717
N18860 X246.093 Y143.07
N18865 X245.76 Y143.47
N18870 X245.379 Y143.861
N18875 X244.889 Y144.289
N18880 X244.297 Y144.727
N18885 X243.599 Y145.161
N18890 X242.812 Y145.568
N18895 X241.996 Y145.915
N18900 X241.161 Y146.21
N18905 X240.31 Y146.457
N18910 X239.448 Y146.662
N18915 X238.577 Y146.828
N18920 X237.701 Y146.957
N18925 X236.819 Y147.05
N18930 X235.935 Y147.11
N18935 X235.05 Y147.138
N18940 X234.164 Y147.134
N18945 X233.278 Y147.099
N18950 X232.394 Y147.034
N18955 X231.513 Y146.938
N18960 X230.636 Y146.814
N18965 X229.763 Y146.661
N18970 X228.896 Y146.479
N18975 X228.035 Y146.269
N18980 X227.182 Y146.03
N18985 X226.337 Y145.763
N18990 X225.502 Y145.468
N18995 X224.677 Y145.143
N19000 X223.864 Y144.79
N19005 X223.064 Y144.408
N19010 X222.279 Y143.998
N19015 X221.509 Y143.56
N19020 X220.755 Y143.095
N19025 X220.018 Y142.602
N19030 X219.3 Y142.083
N19035 X218.602 Y141.537
N19040 X217.926 Y140.965
N19045 X217.272 Y140.367
N19050 X216.642 Y139.743
N19055 X216.039 Y139.094
N19060 X215.463 Y138.421
N19065 X214.915 Y137.724
N19070 X214.396 Y137.006
N19075 X213.908 Y136.266
N19080 X213.452 Y135.507
N19085 X213.03 Y134.728
N19090 X212.643 Y133.93
N19095 X212.295 Y133.115
N19100 X211.987 Y132.284
N19105 X211.719 Y131.44
N19110 X211.493 Y130.583
N19115 X211.311 Y129.716
N19120 X211.173 Y128.84
N19125 X211.081 Y127.959
N19130 X211.041 Y127.074
N19135 X211.054 Y126.188
N19140 X211.123 Y125.304
N19145 X211.251 Y124.428
N19150 X211.441 Y123.562
N19155 X211.678 Y122.772
N19160 X211.948 Y122.081
N19165 X212.246 Y121.468
N19170 X212.531 Y120.987
N19175 X212.793 Y120.614
N19180 X213.072 Y120.279
N19185 X213.332 Y120.013
N19190 X213.497 Y119.869
N19195 X213.737 Y119.701
N19200 X214.008 Y119.586
N19205 X214.297 Y119.531
N19210 X214.591 Y119.536
N19215 X214.877 Y119.604
N19220 X215.143 Y119.729
N19225 X215.317 Y119.832
N19230 X215.921 Y120.185
N19235 X216.323 Y120.41
N19240 X216.599 Y120.56
N19245 X216.799 Y120.662
N19250 G3 X217.088 Y121.333 I-0.293 J0.524
N19255 G1 X217.065 Y121.424 Z-1.993
N19260 X217.043 Y121.513 Z-1.971
N19265 X217.021 Y121.597 Z-1.935
N19270 X217.002 Y121.675 Z-1.885
N19275 X216.984 Y121.745 Z-1.824
N19280 X216.969 Y121.804 Z-1.753
N19285 X216.957 Y121.852 Z-1.672
N19290 X216.948 Y121.887 Z-1.585
N19295 X216.943 Y121.908 Z-1.494
N19300 X216.941 Y121.915 Z-1.4
N19305 G0 Z-0.8
N19310 X246.472 Y139.428
N19315 G1 Z-1.4 F4000.
N19320 X246.476 Y139.434 Z-1.494
N19325 X246.487 Y139.453 Z-1.585
N19330 X246.505 Y139.484 Z-1.672
N19335 X246.531 Y139.527 Z-1.753
N19340 X246.562 Y139.579 Z-1.824
N19345 X246.598 Y139.641 Z-1.885
N19350 X246.639 Y139.71 Z-1.935
N19355 X246.684 Y139.784 Z-1.971
N19360 X246.731 Y139.863 Z-1.993
N19365 X246.779 Y139.944 Z-2.
N19370 G3 X247. Y140.697 I-1.36 J0.809
N19375 G1 Y143.114
N19380 X246.992 Y143.264
N19385 X246.962 Y143.494
N19390 X246.907 Y143.746
N19395 X246.826 Y144.014
N19400 X246.704 Y144.325
N19405 X246.553 Y144.633
N19410 X246.34 Y144.992
N19415 X246.091 Y145.344
N19420 X245.756 Y145.746
N19425 X245.373 Y146.136
N19430 X244.881 Y146.563
N19435 X244.283 Y147.003
N19440 X243.581 Y147.437
N19445 X242.792 Y147.841
N19450 X241.976 Y148.187
N19455 X241.14 Y148.48
N19460 X240.288 Y148.726
N19465 X239.426 Y148.931
N19470 X238.556 Y149.096
N19475 X237.679 Y149.225
N19480 X236.798 Y149.32
N19485 X235.914 Y149.383
N19490 X235.029 Y149.414
N19495 X234.142 Y149.415
N19500 X233.257 Y149.387
N19505 X232.372 Y149.329
N19510 X231.491 Y149.243
N19515 X230.612 Y149.129
N19520 X229.737 Y148.988
N19525 X228.867 Y148.821
N19530 X228.002 Y148.626
N19535 X227.144 Y148.405
N19540 X226.293 Y148.158
N19545 X225.45 Y147.885
N19550 X224.617 Y147.585
N19555 X223.793 Y147.259
N19560 X222.98 Y146.906
N19565 X222.179 Y146.527
N19570 X221.391 Y146.122
N19575 X220.616 Y145.691
N19580 X219.857 Y145.234
N19585 X219.113 Y144.753
N19590 X218.385 Y144.247
N19595 X217.675 Y143.717
N19600 X216.984 Y143.162
N19605 X216.313 Y142.584
N19610 X215.662 Y141.983
N19615 X215.033 Y141.358
N19620 X214.428 Y140.711
N19625 X213.848 Y140.041
N19630 X213.293 Y139.35
N19635 X212.765 Y138.639
N19640 X212.264 Y137.908
N19645 X211.791 Y137.159
N19650 X211.348 Y136.391
N19655 X210.935 Y135.607
N19660 X210.555 Y134.806
N19665 X210.21 Y133.99
N19670 X209.899 Y133.16
N19675 X209.626 Y132.318
N19680 X209.389 Y131.464
N19685 X209.19 Y130.6
N19690 X209.031 Y129.728
N19695 X208.912 Y128.85
N19700 X208.836 Y127.967
N19705 X208.805 Y127.082
N19710 X208.822 Y126.196
N19715 X208.889 Y125.312
N19720 X209.006 Y124.434
N19725 X209.175 Y123.564
N19730 X209.292 Y123.123
N19735 X209.383 Y122.877
N19740 X209.517 Y122.653
N19745 X209.691 Y122.457
N19750 X209.899 Y122.297
N19755 X210.284 Y122.054
N19760 X210.398 Y121.969
N19765 X210.486 Y121.897
N19770 X210.632 Y121.768
N19775 X210.888 Y121.485
N19780 X210.993 Y121.365
N19785 X211.151 Y121.164
N19790 X211.559 Y120.56
N19795 X211.671 Y120.358
N19800 X211.895 Y119.895
N19805 X211.91 Y119.852
N19810 X211.966 Y119.713
N19815 X212.072 Y119.514
N19820 X212.098 Y119.473
N19825 X212.301 Y119.223
N19830 X212.555 Y119.027
N19835 X212.847 Y118.893
N19840 X213.161 Y118.83
N19845 X213.482 Y118.84
N19850 X213.793 Y118.922
N19855 X214.076 Y119.074
N19860 G3 X214.275 Y119.777 I-0.358 J0.481
N19865 X213.933 Y120.115 I-0.558 J-0.222 F6000.
N19870 G1 X212.698 Y120.591
N19875 G3 X212.16 Y120.538 I-0.216 J-0.56
N19880 X211.91 Y119.852 I0.322 J-0.507 F4000.
N19885 G1 X211.944 Y119.754
N19890 X212.096 Y119.263
N19895 X212.12 Y119.15
N19900 X212.144 Y118.99
N19905 X212.173 Y118.842
N19910 X212.283 Y118.646
N19915 X212.448 Y118.492
N19920 X212.652 Y118.396
N19925 X212.876 Y118.366
N19930 X213.097 Y118.407
N19935 X213.296 Y118.513
N19940 G3 X213.508 Y118.797 I-0.453 J0.559
N19945 X213.546 Y119.217 I-0.657 J0.272
N19950 X212.462 Y119.665 I-0.696 J-0.148 F6000.
N19955 X212.144 Y118.99 I0.389 J-0.595 F4000.
N19960 G1 X212.18 Y118.747
N19965 X212.207 Y118.546
N19970 X212.21 Y118.485
N19975 X212.224 Y118.336
N19980 X212.301 Y118.209
N19985 X212.419 Y118.12
N19990 X212.561 Y118.08
N19995 X212.708 Y118.094
N20000 X212.84 Y118.162
N20005 X212.886 Y118.206
N20010 X212.925 Y118.255
N20015 X212.958 Y118.31
N20020 G3 X212.809 Y118.83 I-0.352 J0.181
N20025 G1 X212.76 Y118.854 F6000.
N20030 G3 X212.21 Y118.485 I-0.155 J-0.364 F4000.
N20035 G1 X212.216 Y118.345
N20040 X212.217 Y118.143
N20045 X212.216 Y118.116
N20050 Y118.093
N20055 X212.223 Y118.056
N20060 X212.229 Y118.037
N20065 X212.236 Y118.017
N20070 X212.263 Y117.986
N20075 X212.299 Y117.964
N20080 X212.34 Y117.955
N20085 X212.382 Y117.958
N20090 G3 X212.316 Y118.216 I-0.033 J0.129
N20095 X212.216 Y118.093 I0.033 J-0.129
N20100 G1 X212.219 Y118.068
N20105 X212.226 Y118.043
N20110 X212.236 Y118.017
N20115 X212.25 Y117.992
N20120 X212.27 Y117.967
N20125 X212.297 Y117.942
N20130 X212.322 Y117.923
N20135 X212.348 Y117.91
N20140 X212.373 Y117.901
N20145 X212.398 Y117.895
N20150 X212.423 Y117.893
N20155 X212.448 Y117.894
N20160 X212.473 Y117.898
N20165 X212.498 Y117.906
N20170 X212.529 Y117.92
N20175 X212.559 Y117.942
N20180 X212.901 Y118.21
N20185 X213.102 Y118.367
N20190 X213.304 Y118.519
N20195 X213.908 Y118.957
N20200 X214.109 Y119.097
N20205 X214.522 Y119.352
N20210 X215.143 Y119.729
N20215 G3 X215.383 Y120.419 I-0.329 J0.502
N20220 G1 X215.354 Y120.508 Z-1.993
N20225 X215.325 Y120.595 Z-1.971
N20230 X215.298 Y120.677 Z-1.935
N20235 X215.273 Y120.754 Z-1.885
N20240 X215.25 Y120.822 Z-1.824
N20245 X215.231 Y120.88 Z-1.753
N20250 X215.216 Y120.926 Z-1.672
N20255 X215.204 Y120.961 Z-1.585
N20260 X215.197 Y120.982 Z-1.494
N20265 X215.195 Y120.989 Z-1.4
N20270 G0 Z-0.8
N20275 X246.472 Y141.845
N20280 G1 Z-1.4 F4000.
N20285 X246.476 Y141.851 Z-1.494
N20290 X246.487 Y141.87 Z-1.585
N20295 X246.505 Y141.901 Z-1.672
N20300 X246.531 Y141.943 Z-1.753
N20305 X246.562 Y141.996 Z-1.824
N20310 X246.598 Y142.057 Z-1.885
N20315 X246.639 Y142.126 Z-1.935
N20320 X246.684 Y142.201 Z-1.971
N20325 X246.731 Y142.28 Z-1.993
N20330 X246.779 Y142.36 Z-2.
N20335 G3 X247. Y143.114 I-1.36 J0.809
N20340 G1 Y145.329
N20345 X246.99 Y145.528
N20350 X246.96 Y145.755
N20355 X246.906 Y146.007
N20360 X246.827 Y146.273
N20365 X246.706 Y146.582
N20370 X246.558 Y146.889
N20375 X246.348 Y147.244
N20380 X246.1 Y147.598
N20385 X245.77 Y147.995
N20390 X245.389 Y148.386
N20395 X244.899 Y148.814
N20400 X244.311 Y149.248
N20405 X243.613 Y149.683
N20410 X242.826 Y150.089
N20415 X242.011 Y150.436
N20420 X241.175 Y150.732
N20425 X240.325 Y150.981
