%
(1001)
(T1  D=6. CR=0. - ZMIN=-8. - FLAT END MILL)
N10 G90 G94 G17 G91.1
N15 G21
N20 G53 G0 Z0.
(FACE2)
N25 T1 M6
N30 S24000 M3
N35 G54
N40 G0 X289.114 Y6.02
N45 G43 Z30. H1
N50 G0 Z5.
N55 G1 Z-7.4 F4000.
N60 G18 G3 X288.514 Z-8. I-0.6 K0.
N65 G1 X287.022
N70 X12.978
N75 X9.004
N80 G17 G2 Y10.001 I0. J1.99
N85 G1 X290.996
N90 X293.317
N95 G3 Y13.981 I0. J1.99
N100 G1 X6.683
N105 X5.416
N110 G2 Y17.961 I0. J1.99
N115 G1 X294.584
N120 X294.999
N125 G3 Y21.942 I0. J1.99
N130 G1 X5.001
N135 X5.
N140 G2 Y25.922 I0. J1.99
N145 G1 X295.
N150 G3 Y29.902 I0. J1.99
N155 G1 X5.
N160 G2 Y33.882 I0. J1.99
N165 G1 X295.
N170 G3 Y37.863 I0. J1.99
N175 G1 X5.
N180 G2 Y41.843 I0. J1.99
N185 G1 X295.
N190 G3 Y45.823 I0. J1.99
N195 G1 X5.
N200 G2 Y49.804 I0. J1.99
N205 G1 X295.
N210 G3 Y53.784 I0. J1.99
N215 G1 X5.
N220 G2 Y57.764 I0. J1.99
N225 G1 X295.
N230 G3 Y61.745 I0. J1.99
N235 G1 X5.
N240 G2 Y65.725 I0. J1.99
N245 G1 X295.
N250 G3 Y69.705 I0. J1.99
N255 G1 X5.
N260 G2 Y73.686 I0. J1.99
N265 G1 X295.
N270 G3 Y77.666 I0. J1.99
N275 G1 X5.
N280 G2 Y81.646 I0. J1.99
N285 G1 X295.
N290 G3 Y85.626 I0. J1.99
N295 G1 X5.
N300 G2 Y89.607 I0. J1.99
N305 G1 X295.
N310 G3 Y93.587 I0. J1.99
N315 G1 X5.
N320 G2 Y97.567 I0. J1.99
N325 G1 X295.
N330 G3 Y101.548 I0. J1.99
N335 G1 X5.
N340 G2 Y105.528 I0. J1.99
N345 G1 X295.
N350 G3 Y109.508 I0. J1.99
N355 G1 X5.
N360 G2 Y113.489 I0. J1.99
N365 G1 X295.
N370 G3 Y117.469 I0. J1.99
N375 G1 X5.
N380 G2 Y121.449 I0. J1.99
N385 G1 X295.
N390 G3 Y125.429 I0. J1.99
N395 G1 X5.
N400 G2 Y129.41 I0. J1.99
N405 G1 X295.
N410 G3 Y133.39 I0. J1.99
N415 G1 X5.
N420 G2 Y137.37 I0. J1.99
N425 G1 X295.
N430 G3 Y141.351 I0. J1.99
N435 G1 X5.
N440 G2 Y145.331 I0. J1.99
N445 G1 X295.
N450 G3 Y149.311 I0. J1.99
N455 G1 X5.
N460 G2 Y153.292 I0. J1.99
N465 G1 X295.
N470 G3 Y157.272 I0. J1.99
N475 G1 X5.
N480 G2 Y161.252 I0. J1.99
N485 G1 X295.
N490 G3 Y165.233 I0. J1.99
N495 G1 X5.
N500 G2 Y169.213 I0. J1.99
N505 G1 X295.
N510 G3 Y173.193 I0. J1.99
N515 G1 X5.
N520 G2 Y177.173 I0. J1.99
N525 G1 X295.
N530 G3 Y181.154 I0. J1.99
N535 G1 X5.
N540 G2 Y185.134 I0. J1.99
N545 G1 X295.
N550 G3 Y189.114 I0. J1.99
N555 G1 X5.
N560 G2 Y193.095 I0. J1.99
N565 G1 X295.
N570 G3 Y197.075 I0. J1.99
N575 G1 X5.
N580 G2 Y201.055 I0. J1.99
N585 G1 X295.
N590 G3 Y205.036 I0. J1.99
N595 G1 X5.
N600 G2 Y209.016 I0. J1.99
N605 G1 X295.
N610 G3 Y212.996 I0. J1.99
N615 G1 X5.
N620 G2 Y216.977 I0. J1.99
N625 G1 X295.
N630 G3 Y220.957 I0. J1.99
N635 G1 X5.
N640 G2 Y224.937 I0. J1.99
N645 G1 X295.
N650 G3 Y228.917 I0. J1.99
N655 G1 X5.
N660 G2 Y232.898 I0. J1.99
N665 G1 X295.
N670 G3 Y236.878 I0. J1.99
N675 G1 X5.
N680 G2 Y240.858 I0. J1.99
N685 G1 X295.
N690 G3 Y244.839 I0. J1.99
N695 G1 X5.
N700 G2 Y248.819 I0. J1.99
N705 G1 X295.
N710 G3 Y252.799 I0. J1.99
N715 G1 X5.
N720 G2 Y256.78 I0. J1.99
N725 G1 X295.
N730 G3 Y260.76 I0. J1.99
N735 G1 X5.
N740 G2 Y264.74 I0. J1.99
N745 G1 X295.
N750 G3 Y268.721 I0. J1.99
N755 G1 X5.
N760 G2 Y272.701 I0. J1.99
N765 G1 X295.
N770 G3 Y276.681 I0. J1.99
N775 G1 X5.
N780 G2 Y280.661 I0. J1.99
N785 G1 X295.
N790 G3 Y284.642 I0. J1.99
N795 G1 X5.
N800 G2 Y288.622 I0. J1.99
N805 G1 X295.
N810 G3 Y292.602 I0. J1.99
N815 G1 X5.
N820 G2 Y296.583 I0. J1.99
N825 G1 X295.
N830 G3 Y300.563 I0. J1.99
N835 G1 X5.
N840 G2 Y304.543 I0. J1.99
N845 G1 X295.
N850 G3 Y308.524 I0. J1.99
N855 G1 X5.
N860 G2 Y312.504 I0. J1.99
N865 G1 X295.
N870 G3 Y316.484 I0. J1.99
N875 G1 X5.
N880 G2 Y320.464 I0. J1.99
N885 G1 X295.
N890 G3 Y324.445 I0. J1.99
N895 G1 X5.
N900 G2 Y328.425 I0. J1.99
N905 G1 X295.
N910 G3 Y332.405 I0. J1.99
N915 G1 X5.
N920 G2 Y336.386 I0. J1.99
N925 G1 X295.
N930 G3 Y340.366 I0. J1.99
N935 G1 X5.
N940 G2 Y344.346 I0. J1.99
N945 G1 X295.
N950 G3 Y348.327 I0. J1.99
N955 G1 X5.
N960 G2 Y352.307 I0. J1.99
N965 G1 X295.
N970 G3 Y356.287 I0. J1.99
N975 G1 X5.
N980 G2 Y360.268 I0. J1.99
N985 G1 X295.
N990 G3 Y364.248 I0. J1.99
N995 G1 X5.
N1000 G2 Y368.228 I0. J1.99
N1005 G1 X295.
N1010 G3 Y372.208 I0. J1.99
N1015 G1 X5.
N1020 G2 Y376.189 I0. J1.99
N1025 G1 X295.
N1030 G3 Y380.169 I0. J1.99
N1035 G1 X294.877
N1040 X5.123
N1045 G2 Y384.149 I0. J1.99
N1050 G1 X5.972
N1055 X294.028
N1060 G3 Y388.13 I0. J1.99
N1065 G1 X292.242
N1070 X7.758
N1075 G2 Y392.11 I0. J1.99
N1080 G1 X10.827
N1085 X289.173
N1090 G18 G2 X289.773 Z-7.4 I0. K0.6
N1095 G0 Z30.
N1100 G17
N1105 G53 G0 Z0.
N1110 M30
%
