%
(1001)
(T1  D=6. CR=0. - ZMIN=-12. - FLAT END MILL)
N10 G90 G94 G17 G91.1
N15 G21
N20 G53 G0 Z0.
(2D CONTOUR6MM OUTSIDE)
N25 T1 M6
N30 S24000 M3
N35 G54
N40 G0 X135.6 Y5.2
N45 G43 Z30. H1
N50 G0 Z5.
N55 G1 Z3. F50.
N60 Z-1.4
N65 G19 G3 Y5.8 Z-2. J0.6 K0.
N70 G1 Y6.4 F4000.
N75 G17 G3 X135. Y7. I-0.6 J0.
N80 G1 X10.
N85 G2 X7. Y10. I0. J3.
N90 G1 Y360.
N95 G2 X10. Y363. I3. J0.
N100 G1 X260.
N105 G2 X263. Y360. I0. J-3.
N110 G1 Y10.
N115 G2 X260. Y7. I-3. J0.
N120 G1 X135.
N125 G3 X134.4 Y6.4 I0. J-0.6
N130 G1 Y5.8
N135 G19 G2 Y5.2 Z-1.4 J0. K0.6
N140 G0 Z5.
N145 X135.6
N150 G1 Z1. F50.
N155 Z-3.4
N160 G3 Y5.8 Z-4. J0.6 K0.
N165 G1 Y6.4 F4000.
N170 G17 G3 X135. Y7. I-0.6 J0.
N175 G1 X10.
N180 G2 X7. Y10. I0. J3.
N185 G1 Y360.
N190 G2 X10. Y363. I3. J0.
N195 G1 X260.
N200 G2 X263. Y360. I0. J-3.
N205 G1 Y10.
N210 G2 X260. Y7. I-3. J0.
N215 G1 X135.
N220 G3 X134.4 Y6.4 I0. J-0.6
N225 G1 Y5.8
N230 G19 G2 Y5.2 Z-3.4 J0. K0.6
N235 G0 Z5.
N240 X135.6
N245 G1 Z-1. F50.
N250 Z-5.4
N255 G3 Y5.8 Z-6. J0.6 K0.
N260 G1 Y6.4 F4000.
N265 G17 G3 X135. Y7. I-0.6 J0.
N270 G1 X10.
N275 G2 X7. Y10. I0. J3.
N280 G1 Y360.
N285 G2 X10. Y363. I3. J0.
N290 G1 X260.
N295 G2 X263. Y360. I0. J-3.
N300 G1 Y10.
N305 G2 X260. Y7. I-3. J0.
N310 G1 X135.
N315 G3 X134.4 Y6.4 I0. J-0.6
N320 G1 Y5.8
N325 G19 G2 Y5.2 Z-5.4 J0. K0.6
N330 G0 Z5.
N335 X135.6
N340 G1 Z-3. F50.
N345 Z-7.4
N350 G3 Y5.8 Z-8. J0.6 K0.
N355 G1 Y6.4 F4000.
N360 G17 G3 X135. Y7. I-0.6 J0.
N365 G1 X10.
N370 G2 X7. Y10. I0. J3.
N375 G1 Y360.
N380 G2 X10. Y363. I3. J0.
N385 G1 X260.
N390 G2 X263. Y360. I0. J-3.
N395 G1 Y10.
N400 G2 X260. Y7. I-3. J0.
N405 G1 X135.
N410 G3 X134.4 Y6.4 I0. J-0.6
N415 G1 Y5.8
N420 G19 G2 Y5.2 Z-7.4 J0. K0.6
N425 G0 Z5.
N430 X135.6
N435 G1 Z-5. F50.
N440 Z-9.4
N445 G3 Y5.8 Z-10. J0.6 K0.
N450 G1 Y6.4 F4000.
N455 G17 G3 X135. Y7. I-0.6 J0.
N460 G1 X10.
N465 G2 X7. Y10. I0. J3.
N470 G1 Y360.
N475 G2 X10. Y363. I3. J0.
N480 G1 X260.
N485 G2 X263. Y360. I0. J-3.
N490 G1 Y10.
N495 G2 X260. Y7. I-3. J0.
N500 G1 X135.
N505 G3 X134.4 Y6.4 I0. J-0.6
N510 G1 Y5.8
N515 G19 G2 Y5.2 Z-9.4 J0. K0.6
N520 G0 Z5.
N525 X135.6
N530 G1 Z-7. F50.
N535 Z-10.
N540 Y5.8
N545 Y6.4 F4000.
N550 G17 G3 X135. Y7. I-0.6 J0.
N555 G1 X129.
N560 Z-12. F50.
N565 X10. F4000.
N570 G2 X7. Y10. I0. J3.
N575 G1 Y91.5
N580 Z-10.
N585 Y103.5
N590 Z-12. F50.
N595 Y266.5 F4000.
N600 Z-10.
N605 Y278.5
N610 Z-12. F50.
N615 Y360. F4000.
N620 G2 X10. Y363. I3. J0.
N625 G1 X129.
N630 Z-10.
N635 X141.
N640 Z-12. F50.
N645 X260. F4000.
N650 G2 X263. Y360. I0. J-3.
N655 G1 Y278.5
N660 Z-10.
N665 Y266.5
N670 Z-12. F50.
N675 Y103.5 F4000.
N680 Z-10.
N685 Y91.5
N690 Z-12. F50.
N695 Y10. F4000.
N700 G2 X260. Y7. I-3. J0.
N705 G1 X141.
N710 Z-10.
N715 X135.
N720 G3 X134.4 Y6.4 I0. J-0.6
N725 G1 Y5.2
N730 G0 Z30.
N735 G53 Z0.
N740 M30
%
