%
(1002)
(T1  D=6. CR=0. - ZMIN=-7.9 - FLAT END MILL)
N10 G90 G94 G17 G91.1
N15 G21
N20 G53 G0 Z0.
(FACE1)
N25 T1 M6
N30 S24000 M3
N35 G54
N40 G0 X294.74 Y-2.248
N45 G43 Z30. H1
N50 G0 Z5.
N55 G1 Z-1.3 F4000.
N60 G18 G3 X294.14 Z-1.9 I-0.6 K0.
N65 G1 X292.657
N70 X7.343
N75 X1.43
N80 G17 G2 Y3.447 I0. J2.847
N85 G1 X298.57
N90 X302.1
N95 G3 Y9.142 I0. J2.847
N100 G1 X-2.1
N105 X-4.129
N110 G2 Y14.837 I0. J2.847
N115 G1 X304.129
N120 X304.96
N125 G3 Y20.532 I0. J2.847
N130 G1 X-4.96
N135 X-5.
N140 G2 Y26.227 I0. J2.847
N145 G1 X305.
N150 G3 Y31.922 I0. J2.847
N155 G1 X-5.
N160 G2 Y37.617 I0. J2.847
N165 G1 X305.
N170 G3 Y43.312 I0. J2.847
N175 G1 X-5.
N180 G2 Y49.006 I0. J2.847
N185 G1 X305.
N190 G3 Y54.701 I0. J2.847
N195 G1 X-5.
N200 G2 Y60.396 I0. J2.847
N205 G1 X305.
N210 G3 Y66.091 I0. J2.847
N215 G1 X-5.
N220 G2 Y71.786 I0. J2.847
N225 G1 X305.
N230 G3 Y77.481 I0. J2.847
N235 G1 X-5.
N240 G2 Y83.176 I0. J2.847
N245 G1 X305.
N250 G3 Y88.871 I0. J2.847
N255 G1 X-5.
N260 G2 Y94.566 I0. J2.847
N265 G1 X305.
N270 G3 Y100.261 I0. J2.847
N275 G1 X-5.
N280 G2 Y105.956 I0. J2.847
N285 G1 X305.
N290 G3 Y111.651 I0. J2.847
N295 G1 X-5.
N300 G2 Y117.346 I0. J2.847
N305 G1 X305.
N310 G3 Y123.041 I0. J2.847
N315 G1 X-5.
N320 G2 Y128.736 I0. J2.847
N325 G1 X305.
N330 G3 Y134.431 I0. J2.847
N335 G1 X-5.
N340 G2 Y140.126 I0. J2.847
N345 G1 X305.
N350 G3 Y145.82 I0. J2.847
N355 G1 X-5.
N360 G2 Y151.515 I0. J2.847
N365 G1 X305.
N370 G3 Y157.21 I0. J2.847
N375 G1 X-5.
N380 G2 Y162.905 I0. J2.847
N385 G1 X305.
N390 G3 Y168.6 I0. J2.847
N395 G1 X-5.
N400 G2 Y174.295 I0. J2.847
N405 G1 X305.
N410 G3 Y179.99 I0. J2.847
N415 G1 X-5.
N420 G2 Y185.685 I0. J2.847
N425 G1 X305.
N430 G3 Y191.38 I0. J2.847
N435 G1 X-5.
N440 G2 Y197.075 I0. J2.847
N445 G1 X305.
N450 G3 Y202.77 I0. J2.847
N455 G1 X-5.
N460 G2 Y208.465 I0. J2.847
N465 G1 X305.
N470 G3 Y214.16 I0. J2.847
N475 G1 X-5.
N480 G2 Y219.855 I0. J2.847
N485 G1 X305.
N490 G3 Y225.55 I0. J2.847
N495 G1 X-5.
N500 G2 Y231.245 I0. J2.847
N505 G1 X305.
N510 G3 Y236.94 I0. J2.847
N515 G1 X-5.
N520 G2 Y242.635 I0. J2.847
N525 G1 X305.
N530 G3 Y248.329 I0. J2.847
N535 G1 X-5.
N540 G2 Y254.024 I0. J2.847
N545 G1 X305.
N550 G3 Y259.719 I0. J2.847
N555 G1 X-5.
N560 G2 Y265.414 I0. J2.847
N565 G1 X305.
N570 G3 Y271.109 I0. J2.847
N575 G1 X-5.
N580 G2 Y276.804 I0. J2.847
N585 G1 X305.
N590 G3 Y282.499 I0. J2.847
N595 G1 X-5.
N600 G2 Y288.194 I0. J2.847
N605 G1 X305.
N610 G3 Y293.889 I0. J2.847
N615 G1 X-5.
N620 G2 Y299.584 I0. J2.847
N625 G1 X305.
N630 G3 Y305.279 I0. J2.847
N635 G1 X-5.
N640 G2 Y310.974 I0. J2.847
N645 G1 X305.
N650 G3 Y316.669 I0. J2.847
N655 G1 X-5.
N660 G2 Y322.364 I0. J2.847
N665 G1 X305.
N670 G3 Y328.059 I0. J2.847
N675 G1 X-5.
N680 G2 Y333.754 I0. J2.847
N685 G1 X305.
N690 G3 Y339.449 I0. J2.847
N695 G1 X-5.
N700 G2 Y345.144 I0. J2.847
N705 G1 X305.
N710 G3 Y350.839 I0. J2.847
N715 G1 X-5.
N720 G2 Y356.533 I0. J2.847
N725 G1 X305.
N730 G3 Y362.228 I0. J2.847
N735 G1 X-5.
N740 G2 Y367.923 I0. J2.847
N745 G1 X305.
N750 G3 Y373.618 I0. J2.847
N755 G1 X-5.
N760 G2 Y379.313 I0. J2.847
N765 G1 X-4.968
N770 X304.968
N775 G3 Y385.008 I0. J2.847
N780 G1 X304.165
N785 X-4.165
N790 G2 Y390.703 I0. J2.847
N795 G1 X-2.174
N800 X302.174
N805 G3 Y396.398 I0. J2.847
N810 G1 X298.69
N815 X1.31
N820 G2 Y402.093 I0. J2.847
N825 G1 X7.128
N830 X292.872
N835 G18 G2 X293.472 Z-1.3 I0. K0.6
N840 G0 Z5.
N845 X294.74 Y-2.248
N850 G1 Z-3.3 F4000.
N855 G3 X294.14 Z-3.9 I-0.6 K0.
N860 G1 X292.657
N865 X7.343
N870 X1.43
N875 G17 G2 Y3.447 I0. J2.847
N880 G1 X298.57
N885 X302.1
N890 G3 Y9.142 I0. J2.847
N895 G1 X-2.1
N900 X-4.129
N905 G2 Y14.837 I0. J2.847
N910 G1 X304.129
N915 X304.96
N920 G3 Y20.532 I0. J2.847
N925 G1 X-4.96
N930 X-5.
N935 G2 Y26.227 I0. J2.847
N940 G1 X305.
N945 G3 Y31.922 I0. J2.847
N950 G1 X-5.
N955 G2 Y37.617 I0. J2.847
N960 G1 X305.
N965 G3 Y43.312 I0. J2.847
N970 G1 X-5.
N975 G2 Y49.006 I0. J2.847
N980 G1 X305.
N985 G3 Y54.701 I0. J2.847
N990 G1 X-5.
N995 G2 Y60.396 I0. J2.847
N1000 G1 X305.
N1005 G3 Y66.091 I0. J2.847
N1010 G1 X-5.
N1015 G2 Y71.786 I0. J2.847
N1020 G1 X305.
N1025 G3 Y77.481 I0. J2.847
N1030 G1 X-5.
N1035 G2 Y83.176 I0. J2.847
N1040 G1 X305.
N1045 G3 Y88.871 I0. J2.847
N1050 G1 X-5.
N1055 G2 Y94.566 I0. J2.847
N1060 G1 X305.
N1065 G3 Y100.261 I0. J2.847
N1070 G1 X-5.
N1075 G2 Y105.956 I0. J2.847
N1080 G1 X305.
N1085 G3 Y111.651 I0. J2.847
N1090 G1 X-5.
N1095 G2 Y117.346 I0. J2.847
N1100 G1 X305.
N1105 G3 Y123.041 I0. J2.847
N1110 G1 X-5.
N1115 G2 Y128.736 I0. J2.847
N1120 G1 X305.
N1125 G3 Y134.431 I0. J2.847
N1130 G1 X-5.
N1135 G2 Y140.126 I0. J2.847
N1140 G1 X305.
N1145 G3 Y145.82 I0. J2.847
N1150 G1 X-5.
N1155 G2 Y151.515 I0. J2.847
N1160 G1 X305.
N1165 G3 Y157.21 I0. J2.847
N1170 G1 X-5.
N1175 G2 Y162.905 I0. J2.847
N1180 G1 X305.
N1185 G3 Y168.6 I0. J2.847
N1190 G1 X-5.
N1195 G2 Y174.295 I0. J2.847
N1200 G1 X305.
N1205 G3 Y179.99 I0. J2.847
N1210 G1 X-5.
N1215 G2 Y185.685 I0. J2.847
N1220 G1 X305.
N1225 G3 Y191.38 I0. J2.847
N1230 G1 X-5.
N1235 G2 Y197.075 I0. J2.847
N1240 G1 X305.
N1245 G3 Y202.77 I0. J2.847
N1250 G1 X-5.
N1255 G2 Y208.465 I0. J2.847
N1260 G1 X305.
N1265 G3 Y214.16 I0. J2.847
N1270 G1 X-5.
N1275 G2 Y219.855 I0. J2.847
N1280 G1 X305.
N1285 G3 Y225.55 I0. J2.847
N1290 G1 X-5.
N1295 G2 Y231.245 I0. J2.847
N1300 G1 X305.
N1305 G3 Y236.94 I0. J2.847
N1310 G1 X-5.
N1315 G2 Y242.635 I0. J2.847
N1320 G1 X305.
N1325 G3 Y248.329 I0. J2.847
N1330 G1 X-5.
N1335 G2 Y254.024 I0. J2.847
N1340 G1 X305.
N1345 G3 Y259.719 I0. J2.847
N1350 G1 X-5.
N1355 G2 Y265.414 I0. J2.847
N1360 G1 X305.
N1365 G3 Y271.109 I0. J2.847
N1370 G1 X-5.
N1375 G2 Y276.804 I0. J2.847
N1380 G1 X305.
N1385 G3 Y282.499 I0. J2.847
N1390 G1 X-5.
N1395 G2 Y288.194 I0. J2.847
N1400 G1 X305.
N1405 G3 Y293.889 I0. J2.847
N1410 G1 X-5.
N1415 G2 Y299.584 I0. J2.847
N1420 G1 X305.
N1425 G3 Y305.279 I0. J2.847
N1430 G1 X-5.
N1435 G2 Y310.974 I0. J2.847
N1440 G1 X305.
N1445 G3 Y316.669 I0. J2.847
N1450 G1 X-5.
N1455 G2 Y322.364 I0. J2.847
N1460 G1 X305.
N1465 G3 Y328.059 I0. J2.847
N1470 G1 X-5.
N1475 G2 Y333.754 I0. J2.847
N1480 G1 X305.
N1485 G3 Y339.449 I0. J2.847
N1490 G1 X-5.
N1495 G2 Y345.144 I0. J2.847
N1500 G1 X305.
N1505 G3 Y350.839 I0. J2.847
N1510 G1 X-5.
N1515 G2 Y356.533 I0. J2.847
N1520 G1 X305.
N1525 G3 Y362.228 I0. J2.847
N1530 G1 X-5.
N1535 G2 Y367.923 I0. J2.847
N1540 G1 X305.
N1545 G3 Y373.618 I0. J2.847
N1550 G1 X-5.
N1555 G2 Y379.313 I0. J2.847
N1560 G1 X-4.968
N1565 X304.968
N1570 G3 Y385.008 I0. J2.847
N1575 G1 X304.165
N1580 X-4.165
N1585 G2 Y390.703 I0. J2.847
N1590 G1 X-2.174
N1595 X302.174
N1600 G3 Y396.398 I0. J2.847
N1605 G1 X298.69
N1610 X1.31
N1615 G2 Y402.093 I0. J2.847
N1620 G1 X7.128
N1625 X292.872
N1630 G18 G2 X293.472 Z-3.3 I0. K0.6
N1635 G0 Z5.
N1640 X294.74 Y-2.248
N1645 G1 Z-5.3 F4000.
N1650 G3 X294.14 Z-5.9 I-0.6 K0.
N1655 G1 X292.657
N1660 X7.343
N1665 X1.43
N1670 G17 G2 Y3.447 I0. J2.847
N1675 G1 X298.57
N1680 X302.1
N1685 G3 Y9.142 I0. J2.847
N1690 G1 X-2.1
N1695 X-4.129
N1700 G2 Y14.837 I0. J2.847
N1705 G1 X304.129
N1710 X304.96
N1715 G3 Y20.532 I0. J2.847
N1720 G1 X-4.96
N1725 X-5.
N1730 G2 Y26.227 I0. J2.847
N1735 G1 X305.
N1740 G3 Y31.922 I0. J2.847
N1745 G1 X-5.
N1750 G2 Y37.617 I0. J2.847
N1755 G1 X305.
N1760 G3 Y43.312 I0. J2.847
N1765 G1 X-5.
N1770 G2 Y49.006 I0. J2.847
N1775 G1 X305.
N1780 G3 Y54.701 I0. J2.847
N1785 G1 X-5.
N1790 G2 Y60.396 I0. J2.847
N1795 G1 X305.
N1800 G3 Y66.091 I0. J2.847
N1805 G1 X-5.
N1810 G2 Y71.786 I0. J2.847
N1815 G1 X305.
N1820 G3 Y77.481 I0. J2.847
N1825 G1 X-5.
N1830 G2 Y83.176 I0. J2.847
N1835 G1 X305.
N1840 G3 Y88.871 I0. J2.847
N1845 G1 X-5.
N1850 G2 Y94.566 I0. J2.847
N1855 G1 X305.
N1860 G3 Y100.261 I0. J2.847
N1865 G1 X-5.
N1870 G2 Y105.956 I0. J2.847
N1875 G1 X305.
N1880 G3 Y111.651 I0. J2.847
N1885 G1 X-5.
N1890 G2 Y117.346 I0. J2.847
N1895 G1 X305.
N1900 G3 Y123.041 I0. J2.847
N1905 G1 X-5.
N1910 G2 Y128.736 I0. J2.847
N1915 G1 X305.
N1920 G3 Y134.431 I0. J2.847
N1925 G1 X-5.
N1930 G2 Y140.126 I0. J2.847
N1935 G1 X305.
N1940 G3 Y145.82 I0. J2.847
N1945 G1 X-5.
N1950 G2 Y151.515 I0. J2.847
N1955 G1 X305.
N1960 G3 Y157.21 I0. J2.847
N1965 G1 X-5.
N1970 G2 Y162.905 I0. J2.847
N1975 G1 X305.
N1980 G3 Y168.6 I0. J2.847
N1985 G1 X-5.
N1990 G2 Y174.295 I0. J2.847
N1995 G1 X305.
N2000 G3 Y179.99 I0. J2.847
N2005 G1 X-5.
N2010 G2 Y185.685 I0. J2.847
N2015 G1 X305.
N2020 G3 Y191.38 I0. J2.847
N2025 G1 X-5.
N2030 G2 Y197.075 I0. J2.847
N2035 G1 X305.
N2040 G3 Y202.77 I0. J2.847
N2045 G1 X-5.
N2050 G2 Y208.465 I0. J2.847
N2055 G1 X305.
N2060 G3 Y214.16 I0. J2.847
N2065 G1 X-5.
N2070 G2 Y219.855 I0. J2.847
N2075 G1 X305.
N2080 G3 Y225.55 I0. J2.847
N2085 G1 X-5.
N2090 G2 Y231.245 I0. J2.847
N2095 G1 X305.
N2100 G3 Y236.94 I0. J2.847
N2105 G1 X-5.
N2110 G2 Y242.635 I0. J2.847
N2115 G1 X305.
N2120 G3 Y248.329 I0. J2.847
N2125 G1 X-5.
N2130 G2 Y254.024 I0. J2.847
N2135 G1 X305.
N2140 G3 Y259.719 I0. J2.847
N2145 G1 X-5.
N2150 G2 Y265.414 I0. J2.847
N2155 G1 X305.
N2160 G3 Y271.109 I0. J2.847
N2165 G1 X-5.
N2170 G2 Y276.804 I0. J2.847
N2175 G1 X305.
N2180 G3 Y282.499 I0. J2.847
N2185 G1 X-5.
N2190 G2 Y288.194 I0. J2.847
N2195 G1 X305.
N2200 G3 Y293.889 I0. J2.847
N2205 G1 X-5.
N2210 G2 Y299.584 I0. J2.847
N2215 G1 X305.
N2220 G3 Y305.279 I0. J2.847
N2225 G1 X-5.
N2230 G2 Y310.974 I0. J2.847
N2235 G1 X305.
N2240 G3 Y316.669 I0. J2.847
N2245 G1 X-5.
N2250 G2 Y322.364 I0. J2.847
N2255 G1 X305.
N2260 G3 Y328.059 I0. J2.847
N2265 G1 X-5.
N2270 G2 Y333.754 I0. J2.847
N2275 G1 X305.
N2280 G3 Y339.449 I0. J2.847
N2285 G1 X-5.
N2290 G2 Y345.144 I0. J2.847
N2295 G1 X305.
N2300 G3 Y350.839 I0. J2.847
N2305 G1 X-5.
N2310 G2 Y356.533 I0. J2.847
N2315 G1 X305.
N2320 G3 Y362.228 I0. J2.847
N2325 G1 X-5.
N2330 G2 Y367.923 I0. J2.847
N2335 G1 X305.
N2340 G3 Y373.618 I0. J2.847
N2345 G1 X-5.
N2350 G2 Y379.313 I0. J2.847
N2355 G1 X-4.968
N2360 X304.968
N2365 G3 Y385.008 I0. J2.847
N2370 G1 X304.165
N2375 X-4.165
N2380 G2 Y390.703 I0. J2.847
N2385 G1 X-2.174
N2390 X302.174
N2395 G3 Y396.398 I0. J2.847
N2400 G1 X298.69
N2405 X1.31
N2410 G2 Y402.093 I0. J2.847
N2415 G1 X7.128
N2420 X292.872
N2425 G18 G2 X293.472 Z-5.3 I0. K0.6
N2430 G0 Z5.
N2435 X294.74 Y-2.248
N2440 G1 Z-7.3 F4000.
N2445 G3 X294.14 Z-7.9 I-0.6 K0.
N2450 G1 X292.657
N2455 X7.343
N2460 X1.43
N2465 G17 G2 Y3.447 I0. J2.847
N2470 G1 X298.57
N2475 X302.1
N2480 G3 Y9.142 I0. J2.847
N2485 G1 X-2.1
N2490 X-4.129
N2495 G2 Y14.837 I0. J2.847
N2500 G1 X304.129
N2505 X304.96
N2510 G3 Y20.532 I0. J2.847
N2515 G1 X-4.96
N2520 X-5.
N2525 G2 Y26.227 I0. J2.847
N2530 G1 X305.
N2535 G3 Y31.922 I0. J2.847
N2540 G1 X-5.
N2545 G2 Y37.617 I0. J2.847
N2550 G1 X305.
N2555 G3 Y43.312 I0. J2.847
N2560 G1 X-5.
N2565 G2 Y49.006 I0. J2.847
N2570 G1 X305.
N2575 G3 Y54.701 I0. J2.847
N2580 G1 X-5.
N2585 G2 Y60.396 I0. J2.847
N2590 G1 X305.
N2595 G3 Y66.091 I0. J2.847
N2600 G1 X-5.
N2605 G2 Y71.786 I0. J2.847
N2610 G1 X305.
N2615 G3 Y77.481 I0. J2.847
N2620 G1 X-5.
N2625 G2 Y83.176 I0. J2.847
N2630 G1 X305.
N2635 G3 Y88.871 I0. J2.847
N2640 G1 X-5.
N2645 G2 Y94.566 I0. J2.847
N2650 G1 X305.
N2655 G3 Y100.261 I0. J2.847
N2660 G1 X-5.
N2665 G2 Y105.956 I0. J2.847
N2670 G1 X305.
N2675 G3 Y111.651 I0. J2.847
N2680 G1 X-5.
N2685 G2 Y117.346 I0. J2.847
N2690 G1 X305.
N2695 G3 Y123.041 I0. J2.847
N2700 G1 X-5.
N2705 G2 Y128.736 I0. J2.847
N2710 G1 X305.
N2715 G3 Y134.431 I0. J2.847
N2720 G1 X-5.
N2725 G2 Y140.126 I0. J2.847
N2730 G1 X305.
N2735 G3 Y145.82 I0. J2.847
N2740 G1 X-5.
N2745 G2 Y151.515 I0. J2.847
N2750 G1 X305.
N2755 G3 Y157.21 I0. J2.847
N2760 G1 X-5.
N2765 G2 Y162.905 I0. J2.847
N2770 G1 X305.
N2775 G3 Y168.6 I0. J2.847
N2780 G1 X-5.
N2785 G2 Y174.295 I0. J2.847
N2790 G1 X305.
N2795 G3 Y179.99 I0. J2.847
N2800 G1 X-5.
N2805 G2 Y185.685 I0. J2.847
N2810 G1 X305.
N2815 G3 Y191.38 I0. J2.847
N2820 G1 X-5.
N2825 G2 Y197.075 I0. J2.847
N2830 G1 X305.
N2835 G3 Y202.77 I0. J2.847
N2840 G1 X-5.
N2845 G2 Y208.465 I0. J2.847
N2850 G1 X305.
N2855 G3 Y214.16 I0. J2.847
N2860 G1 X-5.
N2865 G2 Y219.855 I0. J2.847
N2870 G1 X305.
N2875 G3 Y225.55 I0. J2.847
N2880 G1 X-5.
N2885 G2 Y231.245 I0. J2.847
N2890 G1 X305.
N2895 G3 Y236.94 I0. J2.847
N2900 G1 X-5.
N2905 G2 Y242.635 I0. J2.847
N2910 G1 X305.
N2915 G3 Y248.329 I0. J2.847
N2920 G1 X-5.
N2925 G2 Y254.024 I0. J2.847
N2930 G1 X305.
N2935 G3 Y259.719 I0. J2.847
N2940 G1 X-5.
N2945 G2 Y265.414 I0. J2.847
N2950 G1 X305.
N2955 G3 Y271.109 I0. J2.847
N2960 G1 X-5.
N2965 G2 Y276.804 I0. J2.847
N2970 G1 X305.
N2975 G3 Y282.499 I0. J2.847
N2980 G1 X-5.
N2985 G2 Y288.194 I0. J2.847
N2990 G1 X305.
N2995 G3 Y293.889 I0. J2.847
N3000 G1 X-5.
N3005 G2 Y299.584 I0. J2.847
N3010 G1 X305.
N3015 G3 Y305.279 I0. J2.847
N3020 G1 X-5.
N3025 G2 Y310.974 I0. J2.847
N3030 G1 X305.
N3035 G3 Y316.669 I0. J2.847
N3040 G1 X-5.
N3045 G2 Y322.364 I0. J2.847
N3050 G1 X305.
N3055 G3 Y328.059 I0. J2.847
N3060 G1 X-5.
N3065 G2 Y333.754 I0. J2.847
N3070 G1 X305.
N3075 G3 Y339.449 I0. J2.847
N3080 G1 X-5.
N3085 G2 Y345.144 I0. J2.847
N3090 G1 X305.
N3095 G3 Y350.839 I0. J2.847
N3100 G1 X-5.
N3105 G2 Y356.533 I0. J2.847
N3110 G1 X305.
N3115 G3 Y362.228 I0. J2.847
N3120 G1 X-5.
N3125 G2 Y367.923 I0. J2.847
N3130 G1 X305.
N3135 G3 Y373.618 I0. J2.847
N3140 G1 X-5.
N3145 G2 Y379.313 I0. J2.847
N3150 G1 X-4.968
N3155 X304.968
N3160 G3 Y385.008 I0. J2.847
N3165 G1 X304.165
N3170 X-4.165
N3175 G2 Y390.703 I0. J2.847
N3180 G1 X-2.174
N3185 X302.174
N3190 G3 Y396.398 I0. J2.847
N3195 G1 X298.69
N3200 X1.31
N3205 G2 Y402.093 I0. J2.847
N3210 G1 X7.128
N3215 X292.872
N3220 G18 G2 X293.472 Z-7.3 I0. K0.6
N3225 G0 Z30.
N3230 G17
N3235 G53 G0 Z0.
N3240 M30
%
