(Exported by FreeCAD)
(Post Processor: linuxcnc_post)
(Output Time:2019-06-17 15:29:48.493535)
(begin preamble)
G17 G54 G40 G49 G80 G90
G21
(begin operation: T1: 6mm end mill)
(machine: not set, mm/min)
(T1: 6mm end mill)
M6 T1
M3 S18000
(finish operation: T1: 6mm end mill)
(begin operation: Profile_Edges)
(machine: not set, mm/min)
(Profile_Edges)
(Compensated Tool Path. Diameter: 6.0)
G0 Z5.000
G0 X26.741 Y576.708
G0 Z3.000
G1 X26.741 Y576.708 Z-0.000 F90.000
G3 X22.523 Y575.234 Z-0.000 I-1.754 J-1.754 F600.000
G1 X22.503 Y574.873 Z-0.000 F600.000
G1 X22.503 Y60.079 Z0.000 F600.000
G3 X27.446 Y59.717 Z0.000 I2.479 J-0.081 F600.000
G1 X27.467 Y60.079 Z0.000 F600.000
G1 X27.467 Y574.873 Z-0.000 F600.000
G3 X26.741 Y576.708 Z-0.000 I-2.479 J0.081 F600.000
G1 X26.741 Y576.708 Z-2.000 F90.000
G3 X22.523 Y575.234 Z-2.000 I-1.754 J-1.754 F600.000
G1 X22.503 Y574.873 Z-2.000 F600.000
G1 X22.503 Y60.079 Z-2.000 F600.000
G3 X27.446 Y59.717 Z-2.000 I2.479 J-0.081 F600.000
G1 X27.467 Y60.079 Z-2.000 F600.000
G1 X27.467 Y574.873 Z-2.000 F600.000
G3 X26.741 Y576.708 Z-2.000 I-2.479 J0.081 F600.000
G1 X26.741 Y576.708 Z-4.000 F90.000
G3 X22.523 Y575.234 Z-4.000 I-1.754 J-1.754 F600.000
G1 X22.503 Y574.873 Z-4.000 F600.000
G1 X22.503 Y60.079 Z-4.000 F600.000
G3 X27.446 Y59.717 Z-4.000 I2.479 J-0.081 F600.000
G1 X27.467 Y60.079 Z-4.000 F600.000
G1 X27.467 Y574.873 Z-4.000 F600.000
G3 X26.741 Y576.708 Z-4.000 I-2.479 J0.081 F600.000
G1 X26.741 Y576.708 Z-6.000 F90.000
G3 X22.523 Y575.234 Z-6.000 I-1.754 J-1.754 F600.000
G1 X22.503 Y574.873 Z-6.000 F600.000
G1 X22.503 Y60.079 Z-6.000 F600.000
G3 X27.446 Y59.717 Z-6.000 I2.479 J-0.081 F600.000
G1 X27.467 Y60.079 Z-6.000 F600.000
G1 X27.467 Y574.873 Z-6.000 F600.000
G3 X26.741 Y576.708 Z-6.000 I-2.479 J0.081 F600.000
G1 X26.741 Y576.708 Z-8.000 F90.000
G3 X22.523 Y575.234 Z-8.000 I-1.754 J-1.754 F600.000
G1 X22.503 Y574.873 Z-8.000 F600.000
G1 X22.503 Y60.079 Z-8.000 F600.000
G3 X27.446 Y59.717 Z-8.000 I2.479 J-0.081 F600.000
G1 X27.467 Y60.079 Z-8.000 F600.000
G1 X27.467 Y574.873 Z-8.000 F600.000
G3 X26.741 Y576.708 Z-8.000 I-2.479 J0.081 F600.000
G1 X26.741 Y576.708 Z-10.000 F90.000
G3 X22.523 Y575.234 Z-10.000 I-1.754 J-1.754 F600.000
G1 X22.503 Y574.873 Z-10.000 F600.000
G1 X22.503 Y60.079 Z-10.000 F600.000
G3 X27.446 Y59.717 Z-10.000 I2.479 J-0.081 F600.000
G1 X27.467 Y60.079 Z-10.000 F600.000
G1 X27.467 Y574.873 Z-10.000 F600.000
G3 X26.741 Y576.708 Z-10.000 I-2.479 J0.081 F600.000
G1 X26.741 Y576.708 Z-12.000 F90.000
G3 X22.523 Y575.234 Z-12.000 I-1.754 J-1.754 F600.000
G1 X22.503 Y574.873 Z-12.000 F600.000
G1 X22.503 Y60.079 Z-12.000 F600.000
G3 X27.446 Y59.717 Z-12.000 I2.479 J-0.081 F600.000
G1 X27.467 Y60.079 Z-12.000 F600.000
G1 X27.467 Y574.873 Z-12.000 F600.000
G3 X26.741 Y576.708 Z-12.000 I-2.479 J0.081 F600.000
G1 X26.741 Y576.708 Z-14.000 F90.000
G3 X22.523 Y575.234 Z-14.000 I-1.754 J-1.754 F600.000
G1 X22.503 Y574.873 Z-14.000 F600.000
G1 X22.503 Y60.079 Z-14.000 F600.000
G3 X27.446 Y59.717 Z-14.000 I2.479 J-0.081 F600.000
G1 X27.467 Y60.079 Z-14.000 F600.000
G1 X27.467 Y574.873 Z-14.000 F600.000
G3 X26.741 Y576.708 Z-14.000 I-2.479 J0.081 F600.000
G1 X26.741 Y576.708 Z-16.000 F90.000
G3 X22.523 Y575.234 Z-16.000 I-1.754 J-1.754 F600.000
G1 X22.503 Y574.873 Z-16.000 F600.000
G1 X22.503 Y60.079 Z-16.000 F600.000
G3 X27.446 Y59.717 Z-16.000 I2.479 J-0.081 F600.000
G1 X27.467 Y60.079 Z-16.000 F600.000
G1 X27.467 Y574.873 Z-16.000 F600.000
G3 X26.741 Y576.708 Z-16.000 I-2.479 J0.081 F600.000
G1 X26.741 Y576.708 Z-18.000 F90.000
G3 X22.523 Y575.234 Z-18.000 I-1.754 J-1.754 F600.000
G1 X22.503 Y574.873 Z-18.000 F600.000
G1 X22.503 Y60.079 Z-18.000 F600.000
G3 X27.446 Y59.717 Z-18.000 I2.479 J-0.081 F600.000
G1 X27.467 Y60.079 Z-18.000 F600.000
G1 X27.467 Y574.873 Z-18.000 F600.000
G3 X26.741 Y576.708 Z-18.000 I-2.479 J0.081 F600.000
G1 X26.741 Y576.708 Z-20.000 F90.000
G3 X22.523 Y575.234 Z-20.000 I-1.754 J-1.754 F600.000
G1 X22.503 Y574.873 Z-20.000 F600.000
G1 X22.503 Y60.079 Z-20.000 F600.000
G3 X27.446 Y59.717 Z-20.000 I2.479 J-0.081 F600.000
G1 X27.467 Y60.079 Z-20.000 F600.000
G1 X27.467 Y574.873 Z-20.000 F600.000
G3 X26.741 Y576.708 Z-20.000 I-2.479 J0.081 F600.000
G1 X26.741 Y576.708 Z-22.000 F90.000
G3 X22.523 Y575.234 Z-22.000 I-1.754 J-1.754 F600.000
G1 X22.503 Y574.873 Z-22.000 F600.000
G1 X22.503 Y60.079 Z-22.000 F600.000
G3 X27.446 Y59.717 Z-22.000 I2.479 J-0.081 F600.000
G1 X27.467 Y60.079 Z-22.000 F600.000
G1 X27.467 Y574.873 Z-22.000 F600.000
G3 X26.741 Y576.708 Z-22.000 I-2.479 J0.081 F600.000
G0 Z5.000
(finish operation: Profile_Edges)
(begin postamble)
M05
G17 G54 G90 G80 G40
M2
