(Exported by FreeCAD)
(Post Processor: linuxcnc_post)
(Output Time:2019-06-18 21:43:36.482655)
(begin preamble)
G17 G54 G40 G49 G80 G90
G21
(begin operation: T1: 6mm end mill)
(machine: not set, mm/min)
(T1: 6mm end mill)
M6 T1
M3 S18500
(finish operation: T1: 6mm end mill)
(begin operation: Profile_Edges)
(machine: not set, mm/min)
(Profile_Edges)
(Compensated Tool Path. Diameter: 6.0)
G0 Z20.000
G0 X40.698 Y576.714
G0 Z15.000
G1 X40.698 Y576.714 Z-0.000 F90.000
G3 X36.480 Y575.241 Z-0.000 I-1.754 J-1.754 F600.000
G1 X36.460 Y574.880 Z-0.000 F600.000
G1 X36.460 Y60.085 Z0.000 F600.000
G3 X41.403 Y59.724 Z0.000 I2.479 J-0.081 F600.000
G1 X41.424 Y60.085 Z0.000 F600.000
G1 X41.424 Y574.880 Z-0.000 F600.000
G3 X40.698 Y576.714 Z-0.000 I-2.479 J0.081 F600.000
G1 X40.698 Y576.714 Z-2.000 F90.000
G3 X36.480 Y575.241 Z-2.000 I-1.754 J-1.754 F600.000
G1 X36.460 Y574.880 Z-2.000 F600.000
G1 X36.460 Y60.085 Z-2.000 F600.000
G3 X41.403 Y59.724 Z-2.000 I2.479 J-0.081 F600.000
G1 X41.424 Y60.085 Z-2.000 F600.000
G1 X41.424 Y574.880 Z-2.000 F600.000
G3 X40.698 Y576.714 Z-2.000 I-2.479 J0.081 F600.000
G1 X40.698 Y576.714 Z-4.000 F90.000
G3 X36.480 Y575.241 Z-4.000 I-1.754 J-1.754 F600.000
G1 X36.460 Y574.880 Z-4.000 F600.000
G1 X36.460 Y60.085 Z-4.000 F600.000
G3 X41.403 Y59.724 Z-4.000 I2.479 J-0.081 F600.000
G1 X41.424 Y60.085 Z-4.000 F600.000
G1 X41.424 Y574.880 Z-4.000 F600.000
G3 X40.698 Y576.714 Z-4.000 I-2.479 J0.081 F600.000
G1 X40.698 Y576.714 Z-6.000 F90.000
G3 X36.480 Y575.241 Z-6.000 I-1.754 J-1.754 F600.000
G1 X36.460 Y574.880 Z-6.000 F600.000
G1 X36.460 Y60.085 Z-6.000 F600.000
G3 X41.403 Y59.724 Z-6.000 I2.479 J-0.081 F600.000
G1 X41.424 Y60.085 Z-6.000 F600.000
G1 X41.424 Y574.880 Z-6.000 F600.000
G3 X40.698 Y576.714 Z-6.000 I-2.479 J0.081 F600.000
G1 X40.698 Y576.714 Z-8.000 F90.000
G3 X36.480 Y575.241 Z-8.000 I-1.754 J-1.754 F600.000
G1 X36.460 Y574.880 Z-8.000 F600.000
G1 X36.460 Y60.085 Z-8.000 F600.000
G3 X41.403 Y59.724 Z-8.000 I2.479 J-0.081 F600.000
G1 X41.424 Y60.085 Z-8.000 F600.000
G1 X41.424 Y574.880 Z-8.000 F600.000
G3 X40.698 Y576.714 Z-8.000 I-2.479 J0.081 F600.000
G1 X40.698 Y576.714 Z-10.000 F90.000
G3 X36.480 Y575.241 Z-10.000 I-1.754 J-1.754 F600.000
G1 X36.460 Y574.880 Z-10.000 F600.000
G1 X36.460 Y60.085 Z-10.000 F600.000
G3 X41.403 Y59.724 Z-10.000 I2.479 J-0.081 F600.000
G1 X41.424 Y60.085 Z-10.000 F600.000
G1 X41.424 Y574.880 Z-10.000 F600.000
G3 X40.698 Y576.714 Z-10.000 I-2.479 J0.081 F600.000
G1 X40.698 Y576.714 Z-12.000 F90.000
G3 X36.480 Y575.241 Z-12.000 I-1.754 J-1.754 F600.000
G1 X36.460 Y574.880 Z-12.000 F600.000
G1 X36.460 Y60.085 Z-12.000 F600.000
G3 X41.403 Y59.724 Z-12.000 I2.479 J-0.081 F600.000
G1 X41.424 Y60.085 Z-12.000 F600.000
G1 X41.424 Y574.880 Z-12.000 F600.000
G3 X40.698 Y576.714 Z-12.000 I-2.479 J0.081 F600.000
G1 X40.698 Y576.714 Z-14.000 F90.000
G3 X36.480 Y575.241 Z-14.000 I-1.754 J-1.754 F600.000
G1 X36.460 Y574.880 Z-14.000 F600.000
G1 X36.460 Y60.085 Z-14.000 F600.000
G3 X41.403 Y59.724 Z-14.000 I2.479 J-0.081 F600.000
G1 X41.424 Y60.085 Z-14.000 F600.000
G1 X41.424 Y574.880 Z-14.000 F600.000
G3 X40.698 Y576.714 Z-14.000 I-2.479 J0.081 F600.000
G1 X40.698 Y576.714 Z-16.000 F90.000
G3 X36.480 Y575.241 Z-16.000 I-1.754 J-1.754 F600.000
G1 X36.460 Y574.880 Z-16.000 F600.000
G1 X36.460 Y60.085 Z-16.000 F600.000
G3 X41.403 Y59.724 Z-16.000 I2.479 J-0.081 F600.000
G1 X41.424 Y60.085 Z-16.000 F600.000
G1 X41.424 Y574.880 Z-16.000 F600.000
G3 X40.698 Y576.714 Z-16.000 I-2.479 J0.081 F600.000
G1 X40.698 Y576.714 Z-18.000 F90.000
G3 X36.480 Y575.241 Z-18.000 I-1.754 J-1.754 F600.000
G1 X36.460 Y574.880 Z-18.000 F600.000
G1 X36.460 Y60.085 Z-18.000 F600.000
G3 X41.403 Y59.724 Z-18.000 I2.479 J-0.081 F600.000
G1 X41.424 Y60.085 Z-18.000 F600.000
G1 X41.424 Y574.880 Z-18.000 F600.000
G3 X40.698 Y576.714 Z-18.000 I-2.479 J0.081 F600.000
G1 X40.698 Y576.714 Z-20.000 F90.000
G3 X36.480 Y575.241 Z-20.000 I-1.754 J-1.754 F600.000
G1 X36.460 Y574.880 Z-20.000 F600.000
G1 X36.460 Y60.085 Z-20.000 F600.000
G3 X41.403 Y59.724 Z-20.000 I2.479 J-0.081 F600.000
G1 X41.424 Y60.085 Z-20.000 F600.000
G1 X41.424 Y574.880 Z-20.000 F600.000
G3 X40.698 Y576.714 Z-20.000 I-2.479 J0.081 F600.000
G1 X40.698 Y576.714 Z-22.000 F90.000
G3 X36.480 Y575.241 Z-22.000 I-1.754 J-1.754 F600.000
G1 X36.460 Y574.880 Z-22.000 F600.000
G1 X36.460 Y60.085 Z-22.000 F600.000
G3 X41.403 Y59.724 Z-22.000 I2.479 J-0.081 F600.000
G1 X41.424 Y60.085 Z-22.000 F600.000
G1 X41.424 Y574.880 Z-22.000 F600.000
G3 X40.698 Y576.714 Z-22.000 I-2.479 J0.081 F600.000
G1 X40.698 Y576.714 Z-24.000 F90.000
G3 X36.480 Y575.241 Z-24.000 I-1.754 J-1.754 F600.000
G1 X36.460 Y574.880 Z-24.000 F600.000
G1 X36.460 Y60.085 Z-24.000 F600.000
G3 X41.403 Y59.724 Z-24.000 I2.479 J-0.081 F600.000
G1 X41.424 Y60.085 Z-24.000 F600.000
G1 X41.424 Y574.880 Z-24.000 F600.000
G3 X40.698 Y576.714 Z-24.000 I-2.479 J0.081 F600.000
G1 X40.698 Y576.714 Z-26.000 F90.000
G3 X36.480 Y575.241 Z-26.000 I-1.754 J-1.754 F600.000
G1 X36.460 Y574.880 Z-26.000 F600.000
G1 X36.460 Y60.085 Z-26.000 F600.000
G3 X41.403 Y59.724 Z-26.000 I2.479 J-0.081 F600.000
G1 X41.424 Y60.085 Z-26.000 F600.000
G1 X41.424 Y574.880 Z-26.000 F600.000
G3 X40.698 Y576.714 Z-26.000 I-2.479 J0.081 F600.000
G1 X40.698 Y576.714 Z-28.000 F90.000
G3 X36.480 Y575.241 Z-28.000 I-1.754 J-1.754 F600.000
G1 X36.460 Y574.880 Z-28.000 F600.000
G1 X36.460 Y60.085 Z-28.000 F600.000
G3 X41.403 Y59.724 Z-28.000 I2.479 J-0.081 F600.000
G1 X41.424 Y60.085 Z-28.000 F600.000
G1 X41.424 Y574.880 Z-28.000 F600.000
G3 X40.698 Y576.714 Z-28.000 I-2.479 J0.081 F600.000
G0 Z20.000
G0 X40.815 Y1361.714
G0 Z15.000
G1 X40.815 Y1361.714 Z-0.000 F90.000
G3 X36.597 Y1360.241 Z-0.000 I-1.754 J-1.754 F600.000
G1 X36.576 Y1359.879 Z-0.000 F600.000
G1 X36.576 Y845.085 Z0.000 F600.000
G3 X39.609 Y842.586 Z0.000 I2.484 J-0.076 F600.000
G3 X41.540 Y845.085 Z0.000 I-0.559 J2.427 F600.000
G1 X41.540 Y1359.879 Z-0.000 F600.000
G3 X40.815 Y1361.714 Z-0.000 I-2.479 J0.081 F600.000
G1 X40.815 Y1361.714 Z-2.000 F90.000
G3 X36.597 Y1360.241 Z-2.000 I-1.754 J-1.754 F600.000
G1 X36.576 Y1359.879 Z-2.000 F600.000
G1 X36.576 Y845.085 Z-2.000 F600.000
G3 X39.609 Y842.586 Z-2.000 I2.484 J-0.076 F600.000
G3 X41.540 Y845.085 Z-2.000 I-0.559 J2.427 F600.000
G1 X41.540 Y1359.879 Z-2.000 F600.000
G3 X40.815 Y1361.714 Z-2.000 I-2.479 J0.081 F600.000
G1 X40.815 Y1361.714 Z-4.000 F90.000
G3 X36.597 Y1360.241 Z-4.000 I-1.754 J-1.754 F600.000
G1 X36.576 Y1359.879 Z-4.000 F600.000
G1 X36.576 Y845.085 Z-4.000 F600.000
G3 X39.609 Y842.586 Z-4.000 I2.484 J-0.076 F600.000
G3 X41.540 Y845.085 Z-4.000 I-0.559 J2.427 F600.000
G1 X41.540 Y1359.879 Z-4.000 F600.000
G3 X40.815 Y1361.714 Z-4.000 I-2.479 J0.081 F600.000
G1 X40.815 Y1361.714 Z-6.000 F90.000
G3 X36.597 Y1360.241 Z-6.000 I-1.754 J-1.754 F600.000
G1 X36.576 Y1359.879 Z-6.000 F600.000
G1 X36.576 Y845.085 Z-6.000 F600.000
G3 X39.609 Y842.586 Z-6.000 I2.484 J-0.076 F600.000
G3 X41.540 Y845.085 Z-6.000 I-0.559 J2.427 F600.000
G1 X41.540 Y1359.879 Z-6.000 F600.000
G3 X40.815 Y1361.714 Z-6.000 I-2.479 J0.081 F600.000
G1 X40.815 Y1361.714 Z-8.000 F90.000
G3 X36.597 Y1360.241 Z-8.000 I-1.754 J-1.754 F600.000
G1 X36.576 Y1359.879 Z-8.000 F600.000
G1 X36.576 Y845.085 Z-8.000 F600.000
G3 X39.609 Y842.586 Z-8.000 I2.484 J-0.076 F600.000
G3 X41.540 Y845.085 Z-8.000 I-0.559 J2.427 F600.000
G1 X41.540 Y1359.879 Z-8.000 F600.000
G3 X40.815 Y1361.714 Z-8.000 I-2.479 J0.081 F600.000
G1 X40.815 Y1361.714 Z-10.000 F90.000
G3 X36.597 Y1360.241 Z-10.000 I-1.754 J-1.754 F600.000
G1 X36.576 Y1359.879 Z-10.000 F600.000
G1 X36.576 Y845.085 Z-10.000 F600.000
G3 X39.609 Y842.586 Z-10.000 I2.484 J-0.076 F600.000
G3 X41.540 Y845.085 Z-10.000 I-0.559 J2.427 F600.000
G1 X41.540 Y1359.879 Z-10.000 F600.000
G3 X40.815 Y1361.714 Z-10.000 I-2.479 J0.081 F600.000
G1 X40.815 Y1361.714 Z-12.000 F90.000
G3 X36.597 Y1360.241 Z-12.000 I-1.754 J-1.754 F600.000
G1 X36.576 Y1359.879 Z-12.000 F600.000
G1 X36.576 Y845.085 Z-12.000 F600.000
G3 X39.609 Y842.586 Z-12.000 I2.484 J-0.076 F600.000
G3 X41.540 Y845.085 Z-12.000 I-0.559 J2.427 F600.000
G1 X41.540 Y1359.879 Z-12.000 F600.000
G3 X40.815 Y1361.714 Z-12.000 I-2.479 J0.081 F600.000
G1 X40.815 Y1361.714 Z-14.000 F90.000
G3 X36.597 Y1360.241 Z-14.000 I-1.754 J-1.754 F600.000
G1 X36.576 Y1359.879 Z-14.000 F600.000
G1 X36.576 Y845.085 Z-14.000 F600.000
G3 X39.609 Y842.586 Z-14.000 I2.484 J-0.076 F600.000
G3 X41.540 Y845.085 Z-14.000 I-0.559 J2.427 F600.000
G1 X41.540 Y1359.879 Z-14.000 F600.000
G3 X40.815 Y1361.714 Z-14.000 I-2.479 J0.081 F600.000
G1 X40.815 Y1361.714 Z-16.000 F90.000
G3 X36.597 Y1360.241 Z-16.000 I-1.754 J-1.754 F600.000
G1 X36.576 Y1359.879 Z-16.000 F600.000
G1 X36.576 Y845.085 Z-16.000 F600.000
G3 X39.609 Y842.586 Z-16.000 I2.484 J-0.076 F600.000
G3 X41.540 Y845.085 Z-16.000 I-0.559 J2.427 F600.000
G1 X41.540 Y1359.879 Z-16.000 F600.000
G3 X40.815 Y1361.714 Z-16.000 I-2.479 J0.081 F600.000
G1 X40.815 Y1361.714 Z-18.000 F90.000
G3 X36.597 Y1360.241 Z-18.000 I-1.754 J-1.754 F600.000
G1 X36.576 Y1359.879 Z-18.000 F600.000
G1 X36.576 Y845.085 Z-18.000 F600.000
G3 X39.609 Y842.586 Z-18.000 I2.484 J-0.076 F600.000
G3 X41.540 Y845.085 Z-18.000 I-0.559 J2.427 F600.000
G1 X41.540 Y1359.879 Z-18.000 F600.000
G3 X40.815 Y1361.714 Z-18.000 I-2.479 J0.081 F600.000
G1 X40.815 Y1361.714 Z-20.000 F90.000
G3 X36.597 Y1360.241 Z-20.000 I-1.754 J-1.754 F600.000
G1 X36.576 Y1359.879 Z-20.000 F600.000
G1 X36.576 Y845.085 Z-20.000 F600.000
G3 X39.609 Y842.586 Z-20.000 I2.484 J-0.076 F600.000
G3 X41.540 Y845.085 Z-20.000 I-0.559 J2.427 F600.000
G1 X41.540 Y1359.879 Z-20.000 F600.000
G3 X40.815 Y1361.714 Z-20.000 I-2.479 J0.081 F600.000
G1 X40.815 Y1361.714 Z-22.000 F90.000
G3 X36.597 Y1360.241 Z-22.000 I-1.754 J-1.754 F600.000
G1 X36.576 Y1359.879 Z-22.000 F600.000
G1 X36.576 Y845.085 Z-22.000 F600.000
G3 X39.609 Y842.586 Z-22.000 I2.484 J-0.076 F600.000
G3 X41.540 Y845.085 Z-22.000 I-0.559 J2.427 F600.000
G1 X41.540 Y1359.879 Z-22.000 F600.000
G3 X40.815 Y1361.714 Z-22.000 I-2.479 J0.081 F600.000
G1 X40.815 Y1361.714 Z-24.000 F90.000
G3 X36.597 Y1360.241 Z-24.000 I-1.754 J-1.754 F600.000
G1 X36.576 Y1359.879 Z-24.000 F600.000
G1 X36.576 Y845.085 Z-24.000 F600.000
G3 X39.609 Y842.586 Z-24.000 I2.484 J-0.076 F600.000
G3 X41.540 Y845.085 Z-24.000 I-0.559 J2.427 F600.000
G1 X41.540 Y1359.879 Z-24.000 F600.000
G3 X40.815 Y1361.714 Z-24.000 I-2.479 J0.081 F600.000
G1 X40.815 Y1361.714 Z-26.000 F90.000
G3 X36.597 Y1360.241 Z-26.000 I-1.754 J-1.754 F600.000
G1 X36.576 Y1359.879 Z-26.000 F600.000
G1 X36.576 Y845.085 Z-26.000 F600.000
G3 X39.609 Y842.586 Z-26.000 I2.484 J-0.076 F600.000
G3 X41.540 Y845.085 Z-26.000 I-0.559 J2.427 F600.000
G1 X41.540 Y1359.879 Z-26.000 F600.000
G3 X40.815 Y1361.714 Z-26.000 I-2.479 J0.081 F600.000
G1 X40.815 Y1361.714 Z-28.000 F90.000
G3 X36.597 Y1360.241 Z-28.000 I-1.754 J-1.754 F600.000
G1 X36.576 Y1359.879 Z-28.000 F600.000
G1 X36.576 Y845.085 Z-28.000 F600.000
G3 X39.609 Y842.586 Z-28.000 I2.484 J-0.076 F600.000
G3 X41.540 Y845.085 Z-28.000 I-0.559 J2.427 F600.000
G1 X41.540 Y1359.879 Z-28.000 F600.000
G3 X40.815 Y1361.714 Z-28.000 I-2.479 J0.081 F600.000
G0 Z20.000
(finish operation: Profile_Edges)
(begin postamble)
M05
G17 G54 G90 G80 G40
M2
