%
(ADAPTIVE_CLEARING)
(T1  D=6. CR=0. - ZMIN=-19.997 - FLAT END MILL)
N10 G90 G94 G17 G91.1
N15 G21
N20 G53 G0 Z0.
(ADAPTIVE2)
N25 M9
N30 T1 M6
N35 S22000 M3
N40 G54
N45 G0 X65.871 Y77.245
N50 G43 Z15. H1
N55 G0 Z5.
N60 Z2.503
N65 G3 X64.104 Y71.825 Z2.19 I-0.884 J-2.71 F200.
N70 X65.871 Y77.245 Z1.878 I0.884 J2.71
N75 X64.104 Y71.825 Z1.565 I-0.884 J-2.71
N80 X65.871 Y77.245 Z1.252 I0.884 J2.71
N85 X64.104 Y71.825 Z0.94 I-0.884 J-2.71
N90 X65.871 Y77.245 Z0.627 I0.884 J2.71
N95 X64.104 Y71.825 Z0.314 I-0.884 J-2.71
N100 X65.871 Y77.245 Z0.002 I0.884 J2.71
N105 X64.104 Y71.825 Z-0.311 I-0.884 J-2.71
N110 X65.871 Y77.245 Z-0.624 I0.884 J2.71
N115 X64.104 Y71.825 Z-0.936 I-0.884 J-2.71
N120 X65.871 Y77.245 Z-1.249 I0.884 J2.71
N125 X64.104 Y71.825 Z-1.562 I-0.884 J-2.71
N130 X65.871 Y77.245 Z-1.874 I0.884 J2.71
N135 X64.104 Y71.825 Z-2.187 I-0.884 J-2.71
N140 X65.871 Y77.245 Z-2.5 I0.884 J2.71
N145 X64.104 Y71.825 Z-2.812 I-0.884 J-2.71
N150 X67.838 Y74.535 Z-3. I0.884 J2.71
N155 X62.138 I-2.85 J0.
N160 X67.838 I2.85 J0.
N165 G1 X67.851 Y75.493 F1000.
N170 X67.894 Y75.605
N175 X67.929 Y75.751
N180 X67.945 Y75.9
N185 Y76.05
N190 X67.931 Y76.199
N195 X67.904 Y76.347
N200 X67.866 Y76.492
N205 X67.818 Y76.634
N210 X67.759 Y76.772
N215 X67.69 Y76.91
N220 X67.609 Y77.05
N225 X67.515 Y77.19
N230 X67.409 Y77.328
N235 X67.289 Y77.464
N240 X67.158 Y77.596
N245 X67.014 Y77.723
N250 X66.857 Y77.844
N255 X66.69 Y77.958
N260 X66.511 Y78.063
N265 X66.322 Y78.158
N270 X66.123 Y78.243
N275 X65.916 Y78.316
N280 X65.701 Y78.376
N285 X65.479 Y78.424
N290 X65.252 Y78.457
N295 X65.02 Y78.477
N300 X64.785 Y78.481
N305 X64.548 Y78.47
N310 X64.31 Y78.444
N315 X64.073 Y78.403
N320 X63.836 Y78.345
N325 X63.603 Y78.273
N330 X63.373 Y78.185
N335 X63.148 Y78.082
N340 X62.929 Y77.964
N345 X62.717 Y77.832
N350 X62.514 Y77.686
N355 X62.319 Y77.527
N360 X62.135 Y77.356
N365 X61.961 Y77.172
N370 X61.799 Y76.977
N375 X61.65 Y76.772
N380 X61.514 Y76.557
N385 X61.392 Y76.334
N390 X61.284 Y76.103
N395 X61.191 Y75.865
N400 X61.113 Y75.621
N405 X61.051 Y75.373
N410 X61.005 Y75.121
N415 X60.975 Y74.866
N420 X60.961 Y74.61
N425 X60.964 Y74.353
N430 X60.983 Y74.097
N435 X61.019 Y73.842
N440 X61.071 Y73.59
N445 X61.139 Y73.342
N450 X61.222 Y73.099
N455 X61.322 Y72.861
N460 X61.436 Y72.63
N465 X61.564 Y72.407
N470 X61.707 Y72.193
N475 X61.863 Y71.988
N480 X62.033 Y71.793
N485 X62.214 Y71.61
N490 X62.406 Y71.439
N495 X62.61 Y71.28
N500 X62.822 Y71.134
N505 X63.044 Y71.003
N510 X63.274 Y70.886
N515 X63.511 Y70.783
N520 X63.754 Y70.697
N525 X64.002 Y70.625
N530 X64.254 Y70.57
N535 X64.509 Y70.532
N540 X64.766 Y70.509
N545 X65.024 Y70.503
N550 X65.282 Y70.514
N555 X65.539 Y70.541
N560 X65.793 Y70.584
N565 X66.044 Y70.644
N570 X66.291 Y70.719
N575 X66.532 Y70.81
N580 X66.768 Y70.917
N585 X66.995 Y71.038
N590 X67.215 Y71.174
N595 X67.425 Y71.323
N600 X67.626 Y71.486
N605 X67.816 Y71.661
N610 X67.994 Y71.848
N615 X68.16 Y72.045
N620 X68.312 Y72.253
N625 X68.451 Y72.471
N630 X68.58 Y72.704
N635 X68.741 Y73.043
N640 X68.955 Y73.584
N645 X69.088 Y73.993
N650 X69.179 Y74.352
N655 X69.241 Y74.682
N660 X69.279 Y74.991
N665 X69.295 Y75.286
N670 X69.294 Y75.569
N675 X69.274 Y75.845
N680 X69.237 Y76.115
N685 X69.184 Y76.38
N690 X69.114 Y76.639
N695 X69.028 Y76.892
N700 X68.926 Y77.14
N705 X68.808 Y77.381
N710 X68.674 Y77.616
N715 X68.525 Y77.843
N720 X68.359 Y78.062
N725 X68.179 Y78.271
N730 X67.984 Y78.471
N735 X67.774 Y78.659
N740 X67.55 Y78.835
N745 X67.314 Y78.998
N750 X67.065 Y79.147
N755 X66.805 Y79.281
N760 X66.534 Y79.399
N765 X66.253 Y79.501
N770 X65.964 Y79.585
N775 X65.668 Y79.651
N780 X65.365 Y79.699
N785 X65.057 Y79.727
N790 X64.745 Y79.736
N795 X64.431 Y79.724
N800 X64.116 Y79.692
N805 X63.801 Y79.64
N810 X63.489 Y79.567
N815 X63.18 Y79.474
N820 X62.876 Y79.361
N825 X62.579 Y79.228
N830 X62.289 Y79.076
N835 X62.009 Y78.904
N840 X61.739 Y78.714
N845 X61.481 Y78.507
N850 X61.236 Y78.283
N855 X61.005 Y78.043
N860 X60.79 Y77.788
N865 X60.591 Y77.519
N870 X60.409 Y77.238
N875 X60.245 Y76.945
N880 X60.1 Y76.641
N885 X59.974 Y76.328
N890 X59.869 Y76.007
N895 X59.784 Y75.68
N900 X59.72 Y75.348
N905 X59.678 Y75.012
N910 X59.657 Y74.673
N915 Y74.334
N920 X59.68 Y73.995
N925 X59.724 Y73.658
N930 X59.79 Y73.324
N935 X59.877 Y72.995
N940 X59.985 Y72.672
N945 X60.113 Y72.356
N950 X60.262 Y72.05
N955 X60.43 Y71.753
N960 X60.616 Y71.467
N965 X60.821 Y71.194
N970 X61.042 Y70.935
N975 X61.28 Y70.69
N980 X61.533 Y70.461
N985 X61.8 Y70.248
N990 X62.081 Y70.053
N995 X62.373 Y69.876
N1000 X62.676 Y69.718
N1005 X62.989 Y69.58
N1010 X63.31 Y69.462
N1015 X63.637 Y69.365
N1020 X63.971 Y69.289
N1025 X64.308 Y69.235
N1030 X64.649 Y69.202
N1035 X64.99 Y69.192
N1040 X65.332 Y69.203
N1045 X65.672 Y69.235
N1050 X66.01 Y69.29
N1055 X66.343 Y69.366
N1060 X66.671 Y69.463
N1065 X66.992 Y69.581
N1070 X67.305 Y69.72
N1075 X67.608 Y69.878
N1080 X67.901 Y70.055
N1085 X68.182 Y70.251
N1090 X68.45 Y70.464
N1095 X68.714 Y70.704
N1100 X68.967 Y70.965
N1105 X69.234 Y71.278
N1110 X69.491 Y71.622
N1115 X69.729 Y71.986
N1120 X69.942 Y72.363
N1125 X70.128 Y72.748
N1130 X70.286 Y73.138
N1135 X70.417 Y73.529
N1140 X70.52 Y73.921
N1145 X70.597 Y74.311
N1150 X70.648 Y74.698
N1155 X70.673 Y75.083
N1160 X70.674 Y75.463
N1165 X70.65 Y75.838
N1170 X70.604 Y76.207
N1175 X70.534 Y76.569
N1180 X70.441 Y76.925
N1185 X70.327 Y77.273
N1190 X70.19 Y77.612
N1195 X70.032 Y77.942
N1200 X69.853 Y78.262
N1205 X69.654 Y78.57
N1210 X69.435 Y78.866
N1215 X69.196 Y79.148
N1220 X68.939 Y79.415
N1225 X68.664 Y79.666
N1230 X68.371 Y79.901
N1235 X68.063 Y80.118
N1240 X67.74 Y80.315
N1245 X67.402 Y80.493
N1250 X67.052 Y80.649
N1255 X66.689 Y80.784
N1260 X66.317 Y80.896
N1265 X65.936 Y80.985
N1270 X65.547 Y81.049
N1275 X65.152 Y81.089
N1280 X64.754 Y81.103
N1285 X64.353 Y81.092
N1290 X63.952 Y81.055
N1295 X63.551 Y80.992
N1300 X63.154 Y80.903
N1305 X62.761 Y80.788
N1310 X62.375 Y80.648
N1315 X61.997 Y80.483
N1320 X61.629 Y80.293
N1325 X61.273 Y80.079
N1330 X60.93 Y79.843
N1335 X60.601 Y79.584
N1340 X60.29 Y79.303
N1345 X59.996 Y79.003
N1350 X59.721 Y78.683
N1355 X59.466 Y78.346
N1360 X59.233 Y77.993
N1365 X59.023 Y77.624
N1370 X58.837 Y77.243
N1375 X58.675 Y76.849
N1380 X58.538 Y76.446
N1385 X58.428 Y76.034
N1390 X58.344 Y75.615
N1395 X58.286 Y75.191
N1400 X58.256 Y74.764
N1405 X58.254 Y74.336
N1410 X58.278 Y73.908
N1415 X58.33 Y73.482
N1420 X58.41 Y73.06
N1425 X58.516 Y72.643
N1430 X58.649 Y72.234
N1435 X58.808 Y71.834
N1440 X58.992 Y71.445
N1445 X59.2 Y71.069
N1450 X59.433 Y70.706
N1455 X59.688 Y70.359
N1460 X59.965 Y70.029
N1465 X60.263 Y69.717
N1470 X60.58 Y69.424
N1475 X60.915 Y69.153
N1480 X61.267 Y68.904
N1485 X61.634 Y68.677
N1490 X62.015 Y68.474
N1495 X62.409 Y68.297
N1500 X62.813 Y68.144
N1505 X63.226 Y68.018
N1510 X63.646 Y67.919
N1515 X64.072 Y67.846
N1520 X64.501 Y67.801
N1525 X64.933 Y67.784
N1530 X65.365 Y67.794
N1535 X65.795 Y67.832
N1540 X66.222 Y67.897
N1545 X66.644 Y67.989
N1550 X67.06 Y68.109
N1555 X67.467 Y68.254
N1560 X67.866 Y68.427
N1565 X68.255 Y68.626
N1570 X68.639 Y68.853
N1575 X69.014 Y69.11
N1580 X69.379 Y69.395
N1585 X69.733 Y69.711
N1590 X70.074 Y70.056
N1595 X70.396 Y70.428
N1600 X70.697 Y70.823
N1605 X70.973 Y71.238
N1610 X71.222 Y71.669
N1615 X71.442 Y72.115
N1620 X71.632 Y72.571
N1625 X71.791 Y73.036
N1630 X71.92 Y73.506
N1635 X72.017 Y73.98
N1640 X72.084 Y74.455
N1645 X72.119 Y74.931
N1650 X72.124 Y75.404
N1655 X72.099 Y75.873
N1660 X72.044 Y76.338
N1665 X71.96 Y76.796
N1670 X71.847 Y77.246
N1675 X71.706 Y77.688
N1680 X71.537 Y78.118
N1685 X71.341 Y78.537
N1690 X71.119 Y78.943
N1695 X70.871 Y79.334
N1700 X70.597 Y79.709
N1705 X70.3 Y80.066
N1710 X69.98 Y80.405
N1715 X69.638 Y80.723
N1720 X69.274 Y81.02
N1725 X68.891 Y81.294
N1730 X68.49 Y81.544
N1735 X68.071 Y81.768
N1740 X67.637 Y81.967
N1745 X67.189 Y82.138
N1750 X66.729 Y82.281
N1755 X66.258 Y82.395
N1760 X65.779 Y82.478
N1765 X65.293 Y82.531
N1770 X64.802 Y82.553
N1775 X64.309 Y82.544
N1780 X63.815 Y82.503
N1785 X63.323 Y82.43
N1790 X62.835 Y82.325
N1795 X62.352 Y82.188
N1800 X61.878 Y82.021
N1805 X61.414 Y81.823
N1810 X60.961 Y81.594
N1815 X60.523 Y81.337
N1820 X60.102 Y81.051
N1825 X59.698 Y80.738
N1830 X59.314 Y80.399
N1835 X58.952 Y80.035
N1840 X58.613 Y79.648
N1845 X58.299 Y79.24
N1850 X58.011 Y78.811
N1855 X57.751 Y78.364
N1860 X57.52 Y77.901
N1865 X57.318 Y77.422
N1870 X57.147 Y76.932
N1875 X57.008 Y76.431
N1880 X56.901 Y75.921
N1885 X56.827 Y75.405
N1890 X56.786 Y74.885
N1895 X56.778 Y74.363
N1900 X56.804 Y73.84
N1905 X56.863 Y73.321
N1910 X56.955 Y72.805
N1915 X57.08 Y72.297
N1920 X57.238 Y71.797
N1925 X57.427 Y71.308
N1930 X57.647 Y70.832
N1935 X57.897 Y70.371
N1940 X58.177 Y69.926
N1945 X58.484 Y69.5
N1950 X58.818 Y69.095
N1955 X59.178 Y68.712
N1960 X59.561 Y68.352
N1965 X59.967 Y68.018
N1970 X60.393 Y67.71
N1975 X60.839 Y67.43
N1980 X61.301 Y67.179
N1985 X61.779 Y66.958
N1990 X62.269 Y66.768
N1995 X62.771 Y66.61
N2000 X63.283 Y66.484
N2005 X63.801 Y66.392
N2010 X64.324 Y66.332
N2015 X64.85 Y66.306
N2020 X65.376 Y66.314
N2025 X65.901 Y66.356
N2030 X66.423 Y66.431
N2035 X66.94 Y66.539
N2040 X67.451 Y66.682
N2045 X67.956 Y66.857
N2050 X68.453 Y67.067
N2055 X68.94 Y67.31
N2060 X69.418 Y67.588
N2065 X69.882 Y67.9
N2070 X70.33 Y68.244
N2075 X70.76 Y68.621
N2080 X71.168 Y69.027
N2085 X71.551 Y69.46
N2090 X71.907 Y69.92
N2095 X72.234 Y70.403
N2100 X72.53 Y70.906
N2105 X72.793 Y71.427
N2110 X73.022 Y71.963
N2115 X73.215 Y72.51
N2120 X73.372 Y73.067
N2125 X73.493 Y73.631
N2130 X73.578 Y74.198
N2135 X73.625 Y74.768
N2140 X73.636 Y75.337
N2145 X73.611 Y75.904
N2150 X73.549 Y76.466
N2155 X73.452 Y77.022
N2160 X73.32 Y77.57
N2165 X73.153 Y78.107
N2170 X72.953 Y78.632
N2175 X72.719 Y79.142
N2180 X72.453 Y79.637
N2185 X72.156 Y80.115
N2190 X71.829 Y80.572
N2195 X71.472 Y81.009
N2200 X71.088 Y81.422
N2205 X70.676 Y81.811
N2210 X70.24 Y82.174
N2215 X69.78 Y82.509
N2220 X69.298 Y82.815
N2225 X68.796 Y83.091
N2230 X68.275 Y83.334
N2235 X67.738 Y83.545
N2240 X67.187 Y83.721
N2245 X66.623 Y83.862
N2250 X66.05 Y83.967
N2255 X65.468 Y84.036
N2260 X64.882 Y84.067
N2265 X64.292 Y84.061
N2270 X63.702 Y84.017
N2275 X63.114 Y83.935
N2280 X62.53 Y83.815
N2285 X61.954 Y83.658
N2290 X61.387 Y83.463
N2295 X60.832 Y83.232
N2300 X60.291 Y82.965
N2305 X59.768 Y82.663
N2310 X59.263 Y82.327
N2315 X58.78 Y81.959
N2320 X58.32 Y81.56
N2325 X57.886 Y81.132
N2330 X57.479 Y80.675
N2335 X57.102 Y80.193
N2340 X56.755 Y79.686
N2345 X56.442 Y79.158
N2350 X56.162 Y78.61
N2355 X55.918 Y78.044
N2360 X55.71 Y77.463
N2365 X55.539 Y76.869
N2370 X55.407 Y76.265
N2375 X55.314 Y75.654
N2380 X55.259 Y75.037
N2385 X55.245 Y74.417
N2390 X55.27 Y73.797
N2395 X55.335 Y73.179
N2400 X55.439 Y72.567
N2405 X55.582 Y71.962
N2410 X55.764 Y71.367
N2415 X55.983 Y70.785
N2420 X56.24 Y70.218
N2425 X56.532 Y69.668
N2430 X56.859 Y69.137
N2435 X57.22 Y68.629
N2440 X57.612 Y68.145
N2445 X58.035 Y67.686
N2450 X58.486 Y67.255
N2455 X58.964 Y66.854
N2460 X59.466 Y66.485
N2465 X59.992 Y66.148
N2470 X60.538 Y65.846
N2475 X61.102 Y65.579
N2480 X61.683 Y65.348
N2485 X62.277 Y65.155
N2490 X62.882 Y65.001
N2495 X63.496 Y64.886
N2500 X64.116 Y64.81
N2505 X64.74 Y64.774
N2510 X65.365 Y64.778
N2515 X65.989 Y64.822
N2520 X66.611 Y64.906
N2525 X67.229 Y65.03
N2530 X67.841 Y65.194
N2535 X68.445 Y65.398
N2540 X69.039 Y65.643
N2545 X69.621 Y65.927
N2550 X70.189 Y66.251
N2555 X70.738 Y66.613
N2560 X71.268 Y67.013
N2565 X71.774 Y67.448
N2570 X72.253 Y67.918
N2575 X72.704 Y68.419
N2580 X73.123 Y68.95
N2585 X73.508 Y69.508
N2590 X73.857 Y70.09
N2595 X74.168 Y70.693
N2600 X74.439 Y71.314
N2605 X74.67 Y71.95
N2610 X74.859 Y72.598
N2615 X75.006 Y73.256
N2620 X75.111 Y73.92
N2625 X75.172 Y74.587
N2630 X75.191 Y75.256
N2635 X75.167 Y75.923
N2640 X75.1 Y76.585
N2645 X74.992 Y77.241
N2650 X74.842 Y77.888
N2655 X74.65 Y78.523
N2660 X74.419 Y79.144
N2665 X74.149 Y79.749
N2670 X73.84 Y80.335
N2675 X73.495 Y80.901
N2680 X73.114 Y81.444
N2685 X72.698 Y81.962
N2690 X72.249 Y82.453
N2695 X71.769 Y82.915
N2700 X71.259 Y83.347
N2705 X70.721 Y83.746
N2710 X70.158 Y84.11
N2715 X69.571 Y84.439
N2720 X68.962 Y84.73
N2725 X68.334 Y84.983
N2730 X67.689 Y85.195
N2735 X67.03 Y85.366
N2740 X66.36 Y85.495
N2745 X65.68 Y85.581
N2750 X64.995 Y85.624
N2755 X64.305 Y85.623
N2760 X63.616 Y85.577
N2765 X62.928 Y85.487
N2770 X62.246 Y85.353
N2775 X61.572 Y85.175
N2780 X60.909 Y84.954
N2785 X60.26 Y84.69
N2790 X59.627 Y84.385
N2795 X59.014 Y84.038
N2800 X58.423 Y83.653
N2805 X57.857 Y83.229
N2810 X57.318 Y82.769
N2815 X56.809 Y82.275
N2820 X56.331 Y81.748
N2825 X55.887 Y81.191
N2830 X55.479 Y80.606
N2835 X55.109 Y79.995
N2840 X54.779 Y79.36
N2845 X54.489 Y78.705
N2850 X54.242 Y78.032
N2855 X54.038 Y77.344
N2860 X53.878 Y76.643
N2865 X53.763 Y75.933
N2870 X53.694 Y75.217
N2875 X53.671 Y74.497
N2880 X53.693 Y73.777
N2885 X53.762 Y73.059
N2890 X53.877 Y72.346
N2895 X54.038 Y71.642
N2900 X54.243 Y70.949
N2905 X54.492 Y70.271
N2910 X54.784 Y69.609
N2915 X55.118 Y68.967
N2920 X55.493 Y68.348
N2925 X55.906 Y67.754
N2930 X56.357 Y67.187
N2935 X56.843 Y66.651
N2940 X57.363 Y66.146
N2945 X57.914 Y65.675
N2950 X58.494 Y65.241
N2955 X59.101 Y64.845
N2960 X59.732 Y64.488
N2965 X60.385 Y64.172
N2970 X61.057 Y63.899
N2975 X61.745 Y63.669
N2980 X62.446 Y63.483
N2985 X63.158 Y63.343
N2990 X63.878 Y63.249
N2995 X64.603 Y63.2
N3000 X65.33 Y63.199
N3005 X66.058 Y63.244
N3010 X66.784 Y63.335
N3015 X67.506 Y63.474
N3020 X68.22 Y63.659
N3025 X68.925 Y63.891
N3030 X69.618 Y64.169
N3035 X70.295 Y64.493
N3040 X70.954 Y64.861
N3045 X71.592 Y65.274
N3050 X72.206 Y65.728
N3055 X72.792 Y66.224
N3060 X73.347 Y66.758
N3065 X73.868 Y67.328
N3070 X74.354 Y67.932
N3075 X74.8 Y68.567
N3080 X75.205 Y69.229
N3085 X75.567 Y69.917
N3090 X75.884 Y70.626
N3095 X76.155 Y71.353
N3100 X76.379 Y72.095
N3105 X76.555 Y72.85
N3110 X76.681 Y73.612
N3115 X76.759 Y74.38
N3120 X76.787 Y75.15
N3125 X76.766 Y75.92
N3130 X76.696 Y76.685
N3135 X76.577 Y77.443
N3140 X76.41 Y78.192
N3145 X76.195 Y78.927
N3150 X75.935 Y79.647
N3155 X75.628 Y80.349
N3160 X75.277 Y81.03
N3165 X74.884 Y81.688
N3170 X74.448 Y82.319
N3175 X73.973 Y82.922
N3180 X73.46 Y83.494
N3185 X72.91 Y84.032
N3190 X72.326 Y84.535
N3195 X71.709 Y85.001
N3200 X71.063 Y85.427
N3205 X70.39 Y85.812
N3210 X69.691 Y86.153
N3215 X68.971 Y86.45
N3220 X68.231 Y86.701
N3225 X67.475 Y86.905
N3230 X66.705 Y87.06
N3235 X65.925 Y87.165
N3240 X65.137 Y87.221
N3245 X64.346 Y87.226
N3250 X63.554 Y87.181
N3255 X62.765 Y87.085
N3260 X61.981 Y86.938
N3265 X61.207 Y86.741
N3270 X60.445 Y86.494
N3275 X59.698 Y86.198
N3280 X58.971 Y85.854
N3285 X58.266 Y85.464
N3290 X57.585 Y85.028
N3295 X56.933 Y84.549
N3300 X56.311 Y84.028
N3305 X55.724 Y83.468
N3310 X55.172 Y82.87
N3315 X54.659 Y82.237
N3320 X54.187 Y81.571
N3325 X53.758 Y80.876
N3330 X53.373 Y80.154
N3335 X53.036 Y79.408
N3340 X52.746 Y78.641
N3345 X52.506 Y77.857
N3350 X52.316 Y77.057
N3355 X52.178 Y76.247
N3360 X52.092 Y75.429
N3365 X52.058 Y74.606
N3370 X52.077 Y73.783
N3375 X52.149 Y72.962
N3380 X52.273 Y72.146
N3385 X52.449 Y71.34
N3390 X52.677 Y70.546
N3395 X52.955 Y69.769
N3400 X53.282 Y69.01
N3405 X53.657 Y68.274
N3410 X54.079 Y67.562
N3415 X54.546 Y66.88
N3420 X55.055 Y66.228
N3425 X55.605 Y65.61
N3430 X56.194 Y65.028
N3435 X56.819 Y64.485
N3440 X57.478 Y63.983
N3445 X58.167 Y63.524
N3450 X58.884 Y63.11
N3455 X59.627 Y62.743
N3460 X60.392 Y62.424
N3465 X61.175 Y62.155
N3470 X61.975 Y61.936
N3475 X62.787 Y61.768
N3480 X63.609 Y61.653
N3485 X64.437 Y61.591
N3490 X65.269 Y61.582
N3495 X66.102 Y61.626
N3500 X66.933 Y61.724
N3505 X67.758 Y61.875
N3510 X68.576 Y62.079
N3515 X69.382 Y62.337
N3520 X70.174 Y62.647
N3525 X70.948 Y63.008
N3530 X71.701 Y63.421
N3535 X72.43 Y63.883
N3540 X73.13 Y64.393
N3545 X73.799 Y64.948
N3550 X74.433 Y65.548
N3555 X75.029 Y66.188
N3560 X75.584 Y66.867
N3565 X76.096 Y67.581
N3570 X76.561 Y68.327
N3575 X76.977 Y69.101
N3580 X77.343 Y69.901
N3585 X77.657 Y70.722
N3590 X77.918 Y71.56
N3595 X78.124 Y72.413
N3600 X78.275 Y73.277
N3605 X78.371 Y74.147
N3610 X78.411 Y75.021
N3615 X78.394 Y75.895
N3620 X78.322 Y76.764
N3625 X78.194 Y77.627
N3630 X78.012 Y78.479
N3635 X77.776 Y79.317
N3640 X77.486 Y80.138
N3645 X77.145 Y80.939
N3650 X76.753 Y81.716
N3655 X76.312 Y82.467
N3660 X75.824 Y83.189
N3665 X75.29 Y83.878
N3670 X74.712 Y84.533
N3675 X74.093 Y85.15
N3680 X73.435 Y85.727
N3685 X72.74 Y86.261
N3690 X72.011 Y86.751
N3695 X71.25 Y87.194
N3700 X70.462 Y87.588
N3705 X69.648 Y87.932
N3710 X68.812 Y88.223
N3715 X67.957 Y88.461
N3720 X67.087 Y88.645
N3725 X66.205 Y88.772
N3730 X65.315 Y88.843
N3735 X64.42 Y88.857
N3740 X63.523 Y88.813
N3745 X62.63 Y88.712
N3750 X61.743 Y88.553
N3755 X60.866 Y88.338
N3760 X60.002 Y88.067
N3765 X59.157 Y87.74
N3770 X58.332 Y87.359
N3775 X57.532 Y86.925
N3780 X56.759 Y86.44
N3785 X56.019 Y85.906
N3790 X55.312 Y85.324
N3795 X54.644 Y84.697
N3800 X54.016 Y84.028
N3805 X53.431 Y83.32
N3810 X52.892 Y82.574
N3815 X52.401 Y81.794
N3820 X51.961 Y80.984
N3825 X51.573 Y80.146
N3830 X51.239 Y79.285
N3835 X50.961 Y78.403
N3840 X50.739 Y77.504
N3845 X50.575 Y76.592
N3850 X50.47 Y75.671
N3855 X50.424 Y74.744
N3860 X50.438 Y73.816
N3865 X50.511 Y72.89
N3870 X50.643 Y71.97
N3875 X50.833 Y71.06
N3880 X51.082 Y70.164
N3885 X51.387 Y69.285
N3890 X51.749 Y68.427
N3895 X52.164 Y67.594
N3900 X52.632 Y66.789
N3905 X53.151 Y66.015
N3910 X53.719 Y65.276
N3915 X54.332 Y64.574
N3920 X54.99 Y63.913
N3925 X55.689 Y63.296
N3930 X56.425 Y62.724
N3935 X57.198 Y62.2
N3940 X58.002 Y61.727
N3945 X58.834 Y61.306
N3950 X59.693 Y60.939
N3955 X60.573 Y60.628
N3960 X61.471 Y60.374
N3965 X62.385 Y60.177
N3970 X63.31 Y60.039
N3975 X64.243 Y59.961
N3980 X65.181 Y59.943
N3985 X66.12 Y59.984
N3990 X67.057 Y60.086
N3995 X67.988 Y60.248
N4000 X68.91 Y60.47
N4005 X69.819 Y60.752
N4010 X70.712 Y61.093
N4015 X71.584 Y61.491
N4020 X72.428 Y61.943
N4025 X73.241 Y62.449
N4030 X74.021 Y63.005
N4035 X74.764 Y63.608
N4040 X75.468 Y64.258
N4045 X76.13 Y64.95
N4050 X76.747 Y65.682
N4055 X77.317 Y66.452
N4060 X77.839 Y67.255
N4065 X78.309 Y68.089
N4070 X78.726 Y68.951
N4075 X79.089 Y69.838
N4080 X79.396 Y70.745
N4085 X79.646 Y71.669
N4090 X79.838 Y72.608
N4095 X79.971 Y73.556
N4100 X80.045 Y74.511
N4105 X80.058 Y75.468
N4110 X80.012 Y76.425
N4115 X79.906 Y77.377
N4120 X79.74 Y78.32
N4125 X79.516 Y79.251
N4130 X79.234 Y80.166
N4135 X78.894 Y81.062
N4140 X78.499 Y81.934
N4145 X78.05 Y82.78
N4150 X77.549 Y83.596
N4155 X76.997 Y84.379
N4160 X76.397 Y85.126
N4165 X75.752 Y85.833
N4170 X75.064 Y86.499
N4175 X74.335 Y87.121
N4180 X73.569 Y87.695
N4185 X72.769 Y88.221
N4190 X71.937 Y88.696
N4195 X71.078 Y89.119
N4200 X70.194 Y89.488
N4205 X69.289 Y89.801
N4210 X68.366 Y90.057
N4215 X67.429 Y90.257
N4220 X66.482 Y90.398
N4225 X65.528 Y90.481
N4230 X64.571 Y90.506
N4235 X63.614 Y90.472
N4240 X62.66 Y90.38
N4245 X61.715 Y90.23
N4250 X60.779 Y90.023
N4255 X59.859 Y89.759
N4260 X58.955 Y89.441
N4265 X58.073 Y89.069
N4270 X57.215 Y88.644
N4275 X56.384 Y88.167
N4280 X55.584 Y87.641
N4285 X54.817 Y87.067
N4290 X54.087 Y86.448
N4295 X53.395 Y85.786
N4300 X52.743 Y85.084
N4305 X52.135 Y84.344
N4310 X51.572 Y83.569
N4315 X51.056 Y82.763
N4320 X50.588 Y81.927
N4325 X50.171 Y81.065
N4330 X49.806 Y80.179
N4335 X49.494 Y79.274
N4340 X49.235 Y78.352
N4345 X49.033 Y77.416
N4350 X48.887 Y76.469
N4355 X48.798 Y75.516
N4360 X48.766 Y74.559
N4365 X48.792 Y73.601
N4370 X48.874 Y72.647
N4375 X49.012 Y71.699
N4380 X49.205 Y70.761
N4385 X49.454 Y69.837
N4390 X49.756 Y68.928
N4395 X50.112 Y68.038
N4400 X50.518 Y67.171
N4405 X50.975 Y66.33
N4410 X51.481 Y65.517
N4415 X52.035 Y64.735
N4420 X52.635 Y63.989
N4425 X53.278 Y63.279
N4430 X53.962 Y62.608
N4435 X54.684 Y61.98
N4440 X55.442 Y61.394
N4445 X56.233 Y60.854
N4450 X57.054 Y60.362
N4455 X57.903 Y59.918
N4460 X58.776 Y59.525
N4465 X59.671 Y59.184
N4470 X60.584 Y58.896
N4475 X61.513 Y58.662
N4480 X62.454 Y58.484
N4485 X63.404 Y58.362
N4490 X64.36 Y58.298
N4495 X65.317 Y58.289
N4500 X66.274 Y58.336
N4505 X67.226 Y58.439
N4510 X68.171 Y58.597
N4515 X69.104 Y58.81
N4520 X70.025 Y59.075
N4525 X70.928 Y59.393
N4530 X71.812 Y59.762
N4535 X72.672 Y60.182
N4540 X73.507 Y60.652
N4545 X74.313 Y61.17
N4550 X75.088 Y61.732
N4555 X75.83 Y62.338
N4560 X76.537 Y62.984
N4565 X77.206 Y63.669
N4570 X77.836 Y64.39
N4575 X78.425 Y65.145
N4580 X78.971 Y65.932
N4585 X79.471 Y66.749
N4590 X79.923 Y67.593
N4595 X80.327 Y68.462
N4600 X80.68 Y69.352
N4605 X80.984 Y70.26
N4610 X81.236 Y71.184
N4615 X81.437 Y72.12
N4620 X81.585 Y73.066
N4625 X81.68 Y74.019
N4630 X81.721 Y74.976
N4635 X81.708 Y75.934
N4640 X81.64 Y76.889
N4645 X81.517 Y77.839
N4650 X81.34 Y78.78
N4655 X81.111 Y79.71
N4660 X80.829 Y80.625
N4665 X80.497 Y81.524
N4670 X80.115 Y82.402
N4675 X79.684 Y83.257
N4680 X79.206 Y84.087
N4685 X78.681 Y84.888
N4690 X78.111 Y85.657
N4695 X77.498 Y86.393
N4700 X76.843 Y87.092
N4705 X76.151 Y87.754
N4710 X75.422 Y88.375
N4715 X74.66 Y88.955
N4720 X73.867 Y89.492
N4725 X73.045 Y89.984
N4730 X72.197 Y90.429
N4735 X71.326 Y90.826
N4740 X70.433 Y91.173
N4745 X69.522 Y91.468
N4750 X68.596 Y91.712
N4755 X67.658 Y91.904
N4760 X66.71 Y92.044
N4765 X65.757 Y92.132
N4770 X64.8 Y92.167
N4775 X63.842 Y92.15
N4780 X62.887 Y92.08
N4785 X61.937 Y91.959
N4790 X60.995 Y91.784
N4795 X60.065 Y91.558
N4800 X59.148 Y91.28
N4805 X58.248 Y90.952
N4810 X57.368 Y90.575
N4815 X56.509 Y90.151
N4820 X55.675 Y89.681
N4825 X54.867 Y89.166
N4830 X54.089 Y88.608
N4835 X53.342 Y88.009
N4840 X52.629 Y87.37
N4845 X51.952 Y86.692
N4850 X51.313 Y85.978
N4855 X50.715 Y85.231
N4860 X50.157 Y84.452
N4865 X49.643 Y83.644
N4870 X49.172 Y82.81
N4875 X48.746 Y81.953
N4880 X48.366 Y81.073
N4885 X48.034 Y80.175
N4890 X47.75 Y79.26
N4895 X47.517 Y78.332
N4900 X47.335 Y77.391
N4905 X47.205 Y76.442
N4910 X47.127 Y75.488
N4915 X47.101 Y74.531
N4920 X47.126 Y73.573
N4925 X47.201 Y72.619
N4930 X47.328 Y71.669
N4935 X47.504 Y70.728
N4940 X47.73 Y69.797
N4945 X48.005 Y68.88
N4950 X48.33 Y67.979
N4955 X48.703 Y67.097
N4960 X49.123 Y66.236
N4965 X49.588 Y65.399
N4970 X50.098 Y64.589
N4975 X50.651 Y63.806
N4980 X51.245 Y63.055
N4985 X51.877 Y62.336
N4990 X52.548 Y61.652
N4995 X53.253 Y61.004
N5000 X53.992 Y60.395
N5005 X54.764 Y59.828
N5010 X55.564 Y59.302
N5015 X56.392 Y58.821
N5020 X57.245 Y58.384
N5025 X58.119 Y57.993
N5030 X59.013 Y57.649
N5035 X59.923 Y57.353
N5040 X60.848 Y57.105
N5045 X61.785 Y56.907
N5050 X62.732 Y56.76
N5055 X63.685 Y56.663
N5060 X64.641 Y56.619
N5065 X65.599 Y56.627
N5070 X66.555 Y56.685
N5075 X67.506 Y56.794
N5080 X68.451 Y56.953
N5085 X69.386 Y57.16
N5090 X70.309 Y57.416
N5095 X71.217 Y57.719
N5100 X72.108 Y58.07
N5105 X72.98 Y58.466
N5110 X73.83 Y58.908
N5115 X74.654 Y59.395
N5120 X75.452 Y59.925
N5125 X76.221 Y60.496
N5130 X76.96 Y61.105
N5135 X77.666 Y61.752
N5140 X78.339 Y62.433
N5145 X78.976 Y63.148
N5150 X79.577 Y63.894
N5155 X80.138 Y64.67
N5160 X80.66 Y65.474
N5165 X81.138 Y66.303
N5170 X81.573 Y67.157
N5175 X81.962 Y68.032
N5180 X82.306 Y68.926
N5185 X82.603 Y69.836
N5190 X82.854 Y70.76
N5195 X83.058 Y71.696
N5200 X83.214 Y72.641
N5205 X83.323 Y73.592
N5210 X83.383 Y74.548
N5215 X83.394 Y75.506
N5220 X83.355 Y76.463
N5225 X83.265 Y77.416
N5230 X83.126 Y78.364
N5235 X82.938 Y79.303
N5240 X82.701 Y80.231
N5245 X82.418 Y81.145
N5250 X82.088 Y82.045
N5255 X81.713 Y82.926
N5260 X81.294 Y83.787
N5265 X80.832 Y84.626
N5270 X80.327 Y85.439
N5275 X79.78 Y86.226
N5280 X79.193 Y86.982
N5285 X78.567 Y87.707
N5290 X77.904 Y88.398
N5295 X77.206 Y89.054
N5300 X76.476 Y89.674
N5305 X75.715 Y90.255
N5310 X74.926 Y90.798
N5315 X74.111 Y91.301
N5320 X73.271 Y91.761
N5325 X72.409 Y92.178
N5330 X71.527 Y92.551
N5335 X70.626 Y92.877
N5340 X69.71 Y93.156
N5345 X68.781 Y93.387
N5350 X67.841 Y93.571
N5355 X66.893 Y93.708
N5360 X65.939 Y93.797
N5365 X64.983 Y93.838
N5370 X64.025 Y93.832
N5375 X63.069 Y93.778
N5380 X62.116 Y93.677
N5385 X61.17 Y93.528
N5390 X60.233 Y93.331
N5395 X59.307 Y93.086
N5400 X58.395 Y92.794
N5405 X57.499 Y92.457
N5410 X56.62 Y92.075
N5415 X55.762 Y91.65
N5420 X54.926 Y91.184
N5425 X54.114 Y90.676
N5430 X53.327 Y90.13
N5435 X52.569 Y89.545
N5440 X51.84 Y88.923
N5445 X51.144 Y88.266
N5450 X50.482 Y87.574
N5455 X49.855 Y86.849
N5460 X49.266 Y86.095
N5465 X48.714 Y85.312
N5470 X48.202 Y84.502
N5475 X47.73 Y83.669
N5480 X47.298 Y82.814
N5485 X46.909 Y81.939
N5490 X46.562 Y81.047
N5495 X46.26 Y80.138
N5500 X46.002 Y79.216
N5505 X45.791 Y78.281
N5510 X45.628 Y77.338
N5515 X45.513 Y76.387
N5520 X45.445 Y75.432
N5525 X45.424 Y74.474
N5530 X45.45 Y73.517
N5535 X45.522 Y72.562
N5540 X45.64 Y71.611
N5545 X45.804 Y70.668
N5550 X46.013 Y69.733
N5555 X46.267 Y68.81
N5560 X46.567 Y67.9
N5565 X46.911 Y67.007
N5570 X47.299 Y66.131
N5575 X47.731 Y65.276
N5580 X48.204 Y64.444
N5585 X48.718 Y63.635
N5590 X49.27 Y62.853
N5595 X49.86 Y62.098
N5600 X50.485 Y61.373
N5605 X51.145 Y60.679
N5610 X51.838 Y60.018
N5615 X52.562 Y59.391
N5620 X53.316 Y58.8
N5625 X54.099 Y58.248
N5630 X54.908 Y57.736
N5635 X55.741 Y57.264
N5640 X56.597 Y56.834
N5645 X57.472 Y56.445
N5650 X58.365 Y56.099
N5655 X59.274 Y55.797
N5660 X60.196 Y55.539
N5665 X61.13 Y55.326
N5670 X62.073 Y55.158
N5675 X63.022 Y55.037
N5680 X63.977 Y54.963
N5685 X64.935 Y54.936
N5690 X65.892 Y54.958
N5695 X66.847 Y55.026
N5700 X67.798 Y55.14
N5705 X68.743 Y55.299
N5710 X69.678 Y55.503
N5715 X70.603 Y55.751
N5720 X71.515 Y56.043
N5725 X72.413 Y56.378
N5730 X73.293 Y56.756
N5735 X74.154 Y57.175
N5740 X74.993 Y57.636
N5745 X75.809 Y58.137
N5750 X76.6 Y58.678
N5755 X77.364 Y59.255
N5760 X78.1 Y59.868
N5765 X78.806 Y60.515
N5770 X79.481 Y61.194
N5775 X80.125 Y61.904
N5780 X80.734 Y62.642
N5785 X81.309 Y63.409
N5790 X81.847 Y64.201
N5795 X82.347 Y65.018
N5800 X82.807 Y65.858
N5805 X83.226 Y66.719
N5810 X83.603 Y67.599
N5815 X83.938 Y68.496
N5820 X84.231 Y69.408
N5825 X84.481 Y70.332
N5830 X84.688 Y71.267
N5835 X84.852 Y72.211
N5840 X84.971 Y73.161
N5845 X85.047 Y74.116
N5850 X85.077 Y75.073
N5855 X85.063 Y76.031
N5860 X85.002 Y76.987
N5865 X84.895 Y77.938
N5870 X84.742 Y78.884
N5875 X84.545 Y79.821
N5880 X84.303 Y80.748
N5885 X84.018 Y81.662
N5890 X83.692 Y82.562
N5895 X83.323 Y83.446
N5900 X82.914 Y84.312
N5905 X82.465 Y85.158
N5910 X81.977 Y85.982
N5915 X81.45 Y86.782
N5920 X80.886 Y87.556
N5925 X80.285 Y88.301
N5930 X79.648 Y89.016
N5935 X78.978 Y89.701
N5940 X78.277 Y90.353
N5945 X77.546 Y90.972
N5950 X76.787 Y91.556
N5955 X76.002 Y92.104
N5960 X75.192 Y92.616
N5965 X74.36 Y93.089
N5970 X73.506 Y93.524
N5975 X72.633 Y93.918
N5980 X71.743 Y94.27
N5985 X70.836 Y94.579
N5990 X69.916 Y94.845
N5995 X68.984 Y95.066
N6000 X68.043 Y95.245
N6005 X67.095 Y95.379
N6010 X66.142 Y95.47
N6015 X65.185 Y95.517
N6020 X64.228 Y95.521
N6025 X63.271 Y95.481
N6030 X62.317 Y95.398
N6035 X61.367 Y95.271
N6040 X60.425 Y95.099
N6045 X59.492 Y94.884
N6050 X58.57 Y94.624
N6055 X57.661 Y94.322
N6060 X56.768 Y93.978
N6065 X55.891 Y93.593
N6070 X55.032 Y93.169
N6075 X54.193 Y92.707
N6080 X53.377 Y92.207
N6085 X52.583 Y91.67
N6090 X51.815 Y91.098
N6095 X51.073 Y90.492
N6100 X50.36 Y89.853
N6105 X49.678 Y89.181
N6110 X49.027 Y88.478
N6115 X48.411 Y87.746
N6120 X47.828 Y86.986
N6125 X47.28 Y86.2
N6130 X46.769 Y85.39
N6135 X46.294 Y84.559
N6140 X45.857 Y83.707
N6145 X45.458 Y82.836
N6150 X45.098 Y81.948
N6155 X44.778 Y81.046
N6160 X44.5 Y80.129
N6165 X44.263 Y79.201
N6170 X44.071 Y78.263
N6175 X43.922 Y77.317
N6180 X43.817 Y76.365
N6185 X43.756 Y75.409
N6190 X43.738 Y74.452
N6195 X43.763 Y73.494
N6200 X43.83 Y72.539
N6205 X43.94 Y71.588
N6210 X44.092 Y70.642
N6215 X44.285 Y69.704
N6220 X44.52 Y68.776
N6225 X44.797 Y67.859
N6230 X45.115 Y66.956
N6235 X45.475 Y66.068
N6240 X45.876 Y65.198
N6245 X46.316 Y64.348
N6250 X46.794 Y63.518
N6255 X47.308 Y62.71
N6260 X47.859 Y61.926
N6265 X48.443 Y61.168
N6270 X49.061 Y60.436
N6275 X49.711 Y59.732
N6280 X50.391 Y59.058
N6285 X51.101 Y58.415
N6290 X51.839 Y57.805
N6295 X52.604 Y57.23
N6300 X53.396 Y56.69
N6305 X54.211 Y56.187
N6310 X55.048 Y55.722
N6315 X55.905 Y55.295
N6320 X56.78 Y54.906
N6325 X57.672 Y54.557
N6330 X58.578 Y54.247
N6335 X59.497 Y53.978
N6340 X60.428 Y53.75
N6345 X61.367 Y53.564
N6350 X62.314 Y53.419
N6355 X63.266 Y53.319
N6360 X64.222 Y53.262
N6365 X65.18 Y53.249
N6370 X66.137 Y53.28
N6375 X67.092 Y53.354
N6380 X68.042 Y53.47
N6385 X68.987 Y53.627
N6390 X69.924 Y53.826
N6395 X70.851 Y54.066
N6400 X71.767 Y54.346
N6405 X72.67 Y54.666
N6410 X73.557 Y55.025
N6415 X74.429 Y55.423
N6420 X75.281 Y55.859
N6425 X76.112 Y56.334
N6430 X76.922 Y56.847
N6435 X77.708 Y57.394
N6440 X78.469 Y57.975
N6445 X79.204 Y58.589
N6450 X79.912 Y59.234
N6455 X80.591 Y59.909
N6460 X81.241 Y60.613
N6465 X81.86 Y61.343
N6470 X82.447 Y62.1
N6475 X83.001 Y62.881
N6480 X83.521 Y63.685
N6485 X84.005 Y64.512
N6490 X84.451 Y65.359
N6495 X84.859 Y66.226
N6500 X85.228 Y67.11
N6505 X85.559 Y68.008
N6510 X85.85 Y68.921
N6515 X86.102 Y69.845
N6520 X86.314 Y70.779
N6525 X86.486 Y71.721
N6530 X86.618 Y72.669
N6535 X86.709 Y73.623
N6540 X86.759 Y74.579
N6545 X86.768 Y75.537
N6550 X86.734 Y76.494
N6555 X86.657 Y77.448
N6560 X86.537 Y78.399
N6565 X86.376 Y79.343
N6570 X86.173 Y80.279
N6575 X85.93 Y81.205
N6580 X85.647 Y82.12
N6585 X85.326 Y83.022
N6590 X84.965 Y83.909
N6595 X84.568 Y84.78
N6600 X84.133 Y85.634
N6605 X83.662 Y86.467
N6610 X83.155 Y87.28
N6615 X82.612 Y88.069
N6620 X82.034 Y88.833
N6625 X81.423 Y89.57
N6630 X80.78 Y90.28
N6635 X80.107 Y90.961
N6640 X79.404 Y91.612
N6645 X78.675 Y92.232
N6650 X77.919 Y92.821
N6655 X77.139 Y93.377
N6660 X76.336 Y93.899
N6665 X75.512 Y94.386
N6670 X74.667 Y94.838
N6675 X73.804 Y95.252
N6680 X72.924 Y95.629
N6685 X72.027 Y95.966
N6690 X71.117 Y96.263
N6695 X70.194 Y96.52
N6700 X69.261 Y96.737
N6705 X68.32 Y96.913
N6710 X67.372 Y97.049
N6715 X66.419 Y97.145
N6720 X65.463 Y97.201
N6725 X64.505 Y97.217
N6730 X63.548 Y97.192
N6735 X62.593 Y97.127
N6740 X61.641 Y97.022
N6745 X60.694 Y96.876
N6750 X59.755 Y96.688
N6755 X58.825 Y96.459
N6760 X57.906 Y96.19
N6765 X56.999 Y95.882
N6770 X56.106 Y95.536
N6775 X55.229 Y95.152
N6780 X54.368 Y94.732
N6785 X53.526 Y94.275
N6790 X52.704 Y93.785
N6795 X51.903 Y93.26
N6800 X51.124 Y92.702
N6805 X50.369 Y92.113
N6810 X49.64 Y91.492
N6815 X48.939 Y90.84
N6820 X48.267 Y90.157
N6825 X47.624 Y89.447
N6830 X47.013 Y88.71
N6835 X46.433 Y87.948
N6840 X45.886 Y87.162
N6845 X45.372 Y86.354
N6850 X44.892 Y85.525
N6855 X44.446 Y84.677
N6860 X44.036 Y83.812
N6865 X43.662 Y82.93
N6870 X43.324 Y82.034
N6875 X43.024 Y81.125
N6880 X42.763 Y80.203
N6885 X42.543 Y79.271
N6890 X42.362 Y78.331
N6895 X42.223 Y77.383
N6900 X42.123 Y76.431
N6905 X42.064 Y75.475
N6910 X42.044 Y74.517
N6915 X42.064 Y73.56
N6920 X42.124 Y72.604
N6925 X42.222 Y71.651
N6930 X42.36 Y70.704
N6935 X42.536 Y69.762
N6940 X42.751 Y68.829
N6945 X43.005 Y67.906
N6950 X43.298 Y66.994
N6955 X43.63 Y66.095
N6960 X44. Y65.212
N6965 X44.407 Y64.345
N6970 X44.85 Y63.496
N6975 X45.329 Y62.667
N6980 X45.841 Y61.858
N6985 X46.386 Y61.07
N6990 X46.964 Y60.306
N6995 X47.572 Y59.566
N7000 X48.21 Y58.852
N7005 X48.876 Y58.165
N7010 X49.571 Y57.505
N7015 X50.293 Y56.876
N7020 X51.041 Y56.278
N7025 X51.814 Y55.712
N7030 X52.61 Y55.18
N7035 X53.428 Y54.682
N7040 X54.266 Y54.219
N7045 X55.123 Y53.79
N7050 X55.996 Y53.398
N7055 X56.885 Y53.041
N7060 X57.788 Y52.722
N7065 X58.703 Y52.439
N7070 X59.629 Y52.195
N7075 X60.564 Y51.988
N7080 X61.507 Y51.821
N7085 X62.456 Y51.693
N7090 X63.41 Y51.607
N7095 X64.367 Y51.561
N7100 X65.324 Y51.556
N7105 X66.281 Y51.591
N7110 X67.236 Y51.665
N7115 X68.187 Y51.778
N7120 X69.133 Y51.93
N7125 X70.071 Y52.12
N7130 X71.001 Y52.349
N7135 X71.922 Y52.614
N7140 X72.83 Y52.917
N7145 X73.726 Y53.256
N7150 X74.607 Y53.631
N7155 X75.471 Y54.044
N7160 X76.317 Y54.492
N7165 X77.144 Y54.976
N7170 X77.95 Y55.493
N7175 X78.734 Y56.043
N7180 X79.495 Y56.624
N7185 X80.233 Y57.236
N7190 X80.945 Y57.876
N7195 X81.631 Y58.544
N7200 X82.289 Y59.239
N7205 X82.92 Y59.96
N7210 X83.522 Y60.705
N7215 X84.093 Y61.474
N7220 X84.633 Y62.265
N7225 X85.14 Y63.077
N7230 X85.612 Y63.91
N7235 X86.05 Y64.762
N7240 X86.452 Y65.632
N7245 X86.819 Y66.516
N7250 X87.149 Y67.415
N7255 X87.444 Y68.326
N7260 X87.702 Y69.248
N7265 X87.923 Y70.18
N7270 X88.108 Y71.12
N7275 X88.254 Y72.066
N7280 X88.364 Y73.018
N7285 X88.435 Y73.973
N7290 X88.468 Y74.93
N7295 X88.46 Y75.888
N7300 X88.413 Y76.844
N7305 X88.327 Y77.798
N7310 X88.201 Y78.747
N7315 X88.037 Y79.691
N7320 X87.835 Y80.627
N7325 X87.595 Y81.554
N7330 X87.318 Y82.471
N7335 X87.006 Y83.376
N7340 X86.657 Y84.268
N7345 X86.273 Y85.146
N7350 X85.855 Y86.007
N7355 X85.403 Y86.852
N7360 X84.917 Y87.677
N7365 X84.397 Y88.481
N7370 X83.843 Y89.263
N7375 X83.258 Y90.021
N7380 X82.643 Y90.754
N7385 X81.998 Y91.462
N7390 X81.325 Y92.144
N7395 X80.625 Y92.798
N7400 X79.9 Y93.423
N7405 X79.15 Y94.019
N7410 X78.377 Y94.585
N7415 X77.583 Y95.12
N7420 X76.768 Y95.623
N7425 X75.934 Y96.094
N7430 X75.082 Y96.531
N7435 X74.212 Y96.932
N7440 X73.327 Y97.297
N7445 X72.427 Y97.625
N7450 X71.515 Y97.916
N7455 X70.592 Y98.171
N7460 X69.659 Y98.388
N7465 X68.718 Y98.568
N7470 X67.771 Y98.711
N7475 X66.819 Y98.816
N7480 X65.864 Y98.884
N7485 X64.907 Y98.915
N7490 X63.949 Y98.909
N7495 X62.993 Y98.865
N7500 X62.038 Y98.783
N7505 X61.088 Y98.663
N7510 X60.144 Y98.504
N7515 X59.207 Y98.306
N7520 X58.278 Y98.071
N7525 X57.36 Y97.799
N7530 X56.453 Y97.491
N7535 X55.559 Y97.148
N7540 X54.679 Y96.769
N7545 X53.815 Y96.357
N7550 X52.968 Y95.911
N7555 X52.138 Y95.433
N7560 X51.327 Y94.923
N7565 X50.537 Y94.382
N7570 X49.768 Y93.81
N7575 X49.023 Y93.209
N7580 X48.303 Y92.577
N7585 X47.609 Y91.917
N7590 X46.942 Y91.23
N7595 X46.303 Y90.517
N7600 X45.692 Y89.779
N7605 X45.111 Y89.018
N7610 X44.559 Y88.235
N7615 X44.039 Y87.432
N7620 X43.549 Y86.608
N7625 X43.092 Y85.767
N7630 X42.667 Y84.909
N7635 X42.275 Y84.035
N7640 X41.918 Y83.146
N7645 X41.595 Y82.245
N7650 X41.308 Y81.331
N7655 X41.059 Y80.406
N7660 X40.847 Y79.472
N7665 X40.672 Y78.531
N7670 X40.534 Y77.583
N7675 X40.434 Y76.63
N7680 X40.371 Y75.675
N7685 X40.344 Y74.718
N7690 X40.355 Y73.76
N7695 X40.402 Y72.803
N7700 X40.486 Y71.849
N7705 X40.606 Y70.899
N7710 X40.762 Y69.954
N7715 X40.955 Y69.016
N7720 X41.184 Y68.086
N7725 X41.45 Y67.166
N7730 X41.753 Y66.258
N7735 X42.091 Y65.362
N7740 X42.465 Y64.48
N7745 X42.872 Y63.613
N7750 X43.313 Y62.763
N7755 X43.787 Y61.931
N7760 X44.293 Y61.118
N7765 X44.829 Y60.324
N7770 X45.395 Y59.552
N7775 X45.99 Y58.801
N7780 X46.614 Y58.075
N7785 X47.265 Y57.372
N7790 X47.942 Y56.695
N7795 X48.646 Y56.046
N7800 X49.375 Y55.425
N7805 X50.129 Y54.834
N7810 X50.905 Y54.273
N7815 X51.702 Y53.742
N7820 X52.52 Y53.243
N7825 X53.356 Y52.776
N7830 X54.209 Y52.342
N7835 X55.079 Y51.941
N7840 X55.963 Y51.573
N7845 X56.861 Y51.239
N7850 X57.771 Y50.94
N7855 X58.691 Y50.675
N7860 X59.621 Y50.446
N7865 X60.559 Y50.253
N7870 X61.504 Y50.099
N7875 X62.455 Y49.981
N7880 X63.409 Y49.902
N7885 X64.366 Y49.86
N7890 X65.323 Y49.855
N7895 X66.281 Y49.887
N7900 X67.236 Y49.956
N7905 X68.188 Y50.061
N7910 X69.135 Y50.202
N7915 X70.076 Y50.38
N7920 X71.01 Y50.592
N7925 X71.935 Y50.839
N7930 X72.85 Y51.121
N7935 X73.754 Y51.438
N7940 X74.645 Y51.789
N7945 X75.521 Y52.176
N7950 X76.382 Y52.596
N7955 X77.226 Y53.05
N7960 X78.051 Y53.535
N7965 X78.857 Y54.052
N7970 X79.643 Y54.599
N7975 X80.408 Y55.175
N7980 X81.151 Y55.78
N7985 X81.871 Y56.412
N7990 X82.566 Y57.07
N7995 X83.237 Y57.754
N8000 X83.882 Y58.462
N8005 X84.5 Y59.193
N8010 X85.091 Y59.947
N8015 X85.652 Y60.723
N8020 X86.183 Y61.52
N8025 X86.682 Y62.337
N8030 X87.15 Y63.173
N8035 X87.585 Y64.026
N8040 X87.988 Y64.895
N8045 X88.358 Y65.778
N8050 X88.695 Y66.675
N8055 X88.998 Y67.583
N8060 X89.267 Y68.502
N8065 X89.502 Y69.431
N8070 X89.703 Y70.367
N8075 X89.869 Y71.31
N8080 X89.999 Y72.259
N8085 X90.095 Y73.212
N8090 X90.153 Y74.168
N8095 X90.175 Y75.125
N8100 X90.159 Y76.083
N8105 X90.107 Y77.039
N8110 X90.019 Y77.993
N8115 X89.894 Y78.942
N8120 X89.733 Y79.886
N8125 X89.537 Y80.824
N8130 X89.307 Y81.753
N8135 X89.041 Y82.674
N8140 X88.742 Y83.583
N8145 X88.41 Y84.481
N8150 X88.044 Y85.367
N8155 X87.646 Y86.238
N8160 X87.215 Y87.093
N8165 X86.752 Y87.931
N8170 X86.256 Y88.751
N8175 X85.73 Y89.551
N8180 X85.173 Y90.33
N8185 X84.586 Y91.087
N8190 X83.972 Y91.821
N8195 X83.33 Y92.532
N8200 X82.662 Y93.218
N8205 X81.968 Y93.879
N8210 X81.251 Y94.513
N8215 X80.511 Y95.121
N8220 X79.749 Y95.701
N8225 X78.965 Y96.252
N8230 X78.163 Y96.774
N8235 X77.341 Y97.266
N8240 X76.501 Y97.726
N8245 X75.644 Y98.153
N8250 X74.771 Y98.548
N8255 X73.884 Y98.908
N8260 X72.984 Y99.235
N8265 X72.072 Y99.528
N8270 X71.15 Y99.786
N8275 X70.218 Y100.01
N8280 X69.28 Y100.2
N8285 X68.335 Y100.354
N8290 X67.384 Y100.474
N8295 X66.431 Y100.56
N8300 X65.474 Y100.61
N8305 X64.517 Y100.625
N8310 X63.559 Y100.606
N8315 X62.603 Y100.55
N8320 X61.65 Y100.458
N8325 X60.701 Y100.33
N8330 X59.757 Y100.166
N8335 X58.82 Y99.967
N8340 X57.892 Y99.733
N8345 X56.972 Y99.464
N8350 X56.063 Y99.162
N8355 X55.166 Y98.827
N8360 X54.282 Y98.459
N8365 X53.412 Y98.06
N8370 X52.556 Y97.629
N8375 X51.717 Y97.167
N8380 X50.896 Y96.675
N8385 X50.092 Y96.154
N8390 X49.309 Y95.603
N8395 X48.547 Y95.023
N8400 X47.807 Y94.415
N8405 X47.09 Y93.78
N8410 X46.398 Y93.118
N8415 X45.73 Y92.431
N8420 X45.089 Y91.72
N8425 X44.474 Y90.986
N8430 X43.886 Y90.23
N8435 X43.325 Y89.454
N8440 X42.794 Y88.657
N8445 X42.291 Y87.842
N8450 X41.817 Y87.01
N8455 X41.374 Y86.161
N8460 X40.962 Y85.296
N8465 X40.581 Y84.417
N8470 X40.234 Y83.525
N8475 X39.92 Y82.62
N8480 X39.64 Y81.704
N8485 X39.394 Y80.779
N8490 X39.182 Y79.845
N8495 X39.005 Y78.904
N8500 X38.863 Y77.957
N8505 X38.755 Y77.005
N8510 X38.682 Y76.05
N8515 X38.643 Y75.093
N8520 X38.639 Y74.135
N8525 X38.669 Y73.178
N8530 X38.733 Y72.223
N8535 X38.831 Y71.27
N8540 X38.963 Y70.322
N8545 X39.131 Y69.379
N8550 X39.333 Y68.442
N8555 X39.569 Y67.514
N8560 X39.84 Y66.596
N8565 X40.144 Y65.688
N8570 X40.482 Y64.791
N8575 X40.852 Y63.908
N8580 X41.254 Y63.039
N8585 X41.687 Y62.185
N8590 X42.151 Y61.347
N8595 X42.645 Y60.526
N8600 X43.167 Y59.724
N8605 X43.718 Y58.941
N8610 X44.297 Y58.177
N8615 X44.903 Y57.435
N8620 X45.535 Y56.716
N8625 X46.193 Y56.021
N8630 X46.877 Y55.35
N8635 X47.585 Y54.705
N8640 X48.316 Y54.087
N8645 X49.07 Y53.495
N8650 X49.844 Y52.932
N8655 X50.639 Y52.398
N8660 X51.452 Y51.892
N8665 X52.283 Y51.416
N8670 X53.131 Y50.97
N8675 X53.994 Y50.555
N8680 X54.871 Y50.171
N8685 X55.762 Y49.819
N8690 X56.664 Y49.498
N8695 X57.578 Y49.211
N8700 X58.501 Y48.956
N8705 X59.433 Y48.737
N8710 X60.373 Y48.551
N8715 X61.319 Y48.401
N8720 X62.269 Y48.285
N8725 X63.224 Y48.204
N8730 X64.18 Y48.158
N8735 X65.138 Y48.146
N8740 X66.095 Y48.169
N8745 X67.051 Y48.227
N8750 X68.004 Y48.318
N8755 X68.954 Y48.443
N8760 X69.898 Y48.602
N8765 X70.837 Y48.793
N8770 X71.768 Y49.018
N8775 X72.69 Y49.276
N8780 X73.602 Y49.568
N8785 X74.503 Y49.893
N8790 X75.392 Y50.25
N8795 X76.267 Y50.639
N8800 X77.127 Y51.059
N8805 X77.972 Y51.511
N8810 X78.8 Y51.992
N8815 X79.61 Y52.502
N8820 X80.402 Y53.041
N8825 X81.174 Y53.608
N8830 X81.926 Y54.201
N8835 X82.657 Y54.82
N8840 X83.365 Y55.464
N8845 X84.051 Y56.133
N8850 X84.713 Y56.824
N8855 X85.351 Y57.539
N8860 X85.962 Y58.277
N8865 X86.546 Y59.036
N8870 X87.103 Y59.815
N8875 X87.631 Y60.614
N8880 X88.131 Y61.431
N8885 X88.601 Y62.265
N8890 X89.042 Y63.115
N8895 X89.452 Y63.981
N8900 X89.831 Y64.86
N8905 X90.179 Y65.752
N8910 X90.496 Y66.656
N8915 X90.782 Y67.57
N8920 X91.036 Y68.494
N8925 X91.257 Y69.425
N8930 X91.446 Y70.364
N8935 X91.602 Y71.309
N8940 X91.723 Y72.259
N8945 X91.811 Y73.213
N8950 X91.865 Y74.169
N8955 X91.884 Y75.126
N8960 X91.869 Y76.084
N8965 X91.82 Y77.04
N8970 X91.737 Y77.995
N8975 X91.62 Y78.945
N8980 X91.47 Y79.891
N8985 X91.287 Y80.831
N8990 X91.071 Y81.764
N8995 X90.822 Y82.689
N9000 X90.542 Y83.605
N9005 X90.23 Y84.51
N9010 X89.887 Y85.404
N9015 X89.511 Y86.285
N9020 X89.105 Y87.153
N9025 X88.668 Y88.005
N9030 X88.201 Y88.841
N9035 X87.704 Y89.659
N9040 X87.178 Y90.46
N9045 X86.624 Y91.241
N9050 X86.042 Y92.002
N9055 X85.434 Y92.741
N9060 X84.8 Y93.459
N9065 X84.142 Y94.155
N9070 X83.459 Y94.827
N9075 X82.754 Y95.475
N9080 X82.027 Y96.098
N9085 X81.278 Y96.695
N9090 X80.509 Y97.266
N9095 X79.72 Y97.809
N9100 X78.913 Y98.324
N9105 X78.088 Y98.81
N9110 X77.246 Y99.266
N9115 X76.388 Y99.692
N9120 X75.516 Y100.088
N9125 X74.63 Y100.452
N9130 X73.732 Y100.785
N9135 X72.823 Y101.086
N9140 X71.904 Y101.355
N9145 X70.976 Y101.592
N9150 X70.04 Y101.796
N9155 X69.098 Y101.969
N9160 X68.151 Y102.108
N9165 X67.199 Y102.216
N9170 X66.244 Y102.29
N9175 X65.287 Y102.331
N9180 X64.33 Y102.338
N9185 X63.372 Y102.312
N9190 X62.416 Y102.252
N9195 X61.463 Y102.158
N9200 X60.514 Y102.031
N9205 X59.57 Y101.87
N9210 X58.632 Y101.677
N9215 X57.701 Y101.451
N9220 X56.779 Y101.194
N9225 X55.866 Y100.904
N9230 X54.964 Y100.583
N9235 X54.073 Y100.232
N9240 X53.194 Y99.85
N9245 X52.33 Y99.439
N9250 X51.479 Y98.998
N9255 X50.645 Y98.528
N9260 X49.827 Y98.029
N9265 X49.028 Y97.502
N9270 X48.247 Y96.948
N9275 X47.486 Y96.366
N9280 X46.746 Y95.758
N9285 X46.027 Y95.125
N9290 X45.331 Y94.468
N9295 X44.658 Y93.787
N9300 X44.009 Y93.082
N9305 X43.384 Y92.357
N9310 X42.784 Y91.61
N9315 X42.21 Y90.843
N9320 X41.663 Y90.057
N9325 X41.142 Y89.254
N9330 X40.649 Y88.433
N9335 X40.184 Y87.595
N9340 X39.748 Y86.743
N9345 X39.342 Y85.875
N9350 X38.966 Y84.994
N9355 X38.621 Y84.101
N9360 X38.308 Y83.196
N9365 X38.025 Y82.281
N9370 X37.775 Y81.357
N9375 X37.556 Y80.424
N9380 X37.37 Y79.485
N9385 X37.216 Y78.54
N9390 X37.094 Y77.59
N9395 X37.004 Y76.636
N9400 X36.947 Y75.68
N9405 X36.922 Y74.723
N9410 X36.93 Y73.765
N9415 X36.97 Y72.808
N9420 X37.043 Y71.853
N9425 X37.148 Y70.902
N9430 X37.286 Y69.954
N9435 X37.457 Y69.011
N9440 X37.66 Y68.076
N9445 X37.895 Y67.147
N9450 X38.162 Y66.227
N9455 X38.461 Y65.317
N9460 X38.79 Y64.418
N9465 X39.15 Y63.531
N9470 X39.54 Y62.656
N9475 X39.96 Y61.795
N9480 X40.408 Y60.949
N9485 X40.885 Y60.118
N9490 X41.389 Y59.304
N9495 X41.921 Y58.507
N9500 X42.479 Y57.729
N9505 X43.064 Y56.971
N9510 X43.674 Y56.233
N9515 X44.31 Y55.517
N9520 X44.97 Y54.823
N9525 X45.653 Y54.151
N9530 X46.359 Y53.504
N9535 X47.087 Y52.882
N9540 X47.835 Y52.285
N9545 X48.604 Y51.713
N9550 X49.392 Y51.168
N9555 X50.197 Y50.651
N9560 X51.02 Y50.16
N9565 X51.859 Y49.698
N9570 X52.712 Y49.264
N9575 X53.58 Y48.859
N9580 X54.462 Y48.484
N9585 X55.355 Y48.139
N9590 X56.26 Y47.825
N9595 X57.175 Y47.543
N9600 X58.099 Y47.291
N9605 X59.031 Y47.072
N9610 X59.97 Y46.885
N9615 X60.915 Y46.73
N9620 X61.865 Y46.607
N9625 X62.819 Y46.517
N9630 X63.775 Y46.46
N9635 X64.732 Y46.434
N9640 X65.69 Y46.442
N9645 X66.647 Y46.481
N9650 X67.602 Y46.552
N9655 X68.554 Y46.655
N9660 X69.502 Y46.791
N9665 X70.445 Y46.958
N9670 X71.382 Y47.157
N9675 X72.311 Y47.387
N9680 X73.232 Y47.649
N9685 X74.144 Y47.942
N9690 X75.045 Y48.266
N9695 X75.935 Y48.62
N9700 X76.812 Y49.005
N9705 X77.676 Y49.418
N9710 X78.526 Y49.86
N9715 X79.36 Y50.331
N9720 X80.178 Y50.829
N9725 X80.979 Y51.354
N9730 X81.762 Y51.906
N9735 X82.526 Y52.483
N9740 X83.271 Y53.084
N9745 X83.995 Y53.711
N9750 X84.699 Y54.361
N9755 X85.38 Y55.034
N9760 X86.038 Y55.73
N9765 X86.673 Y56.447
N9770 X87.284 Y57.184
N9775 X87.869 Y57.942
N9780 X88.429 Y58.719
N9785 X88.962 Y59.515
N9790 X89.469 Y60.328
N9795 X89.948 Y61.157
N9800 X90.4 Y62.001
N9805 X90.823 Y62.86
N9810 X91.218 Y63.733
N9815 X91.583 Y64.618
N9820 X91.92 Y65.515
N9825 X92.227 Y66.422
N9830 X92.504 Y67.339
N9835 X92.75 Y68.264
N9840 X92.965 Y69.197
N9845 X93.149 Y70.137
N9850 X93.302 Y71.083
N9855 X93.424 Y72.033
N9860 X93.513 Y72.986
N9865 X93.57 Y73.942
N9870 X93.596 Y74.899
N9875 X93.59 Y75.857
N9880 X93.551 Y76.814
N9885 X93.481 Y77.769
N9890 X93.379 Y78.721
N9895 X93.246 Y79.67
N9900 X93.082 Y80.613
N9905 X92.887 Y81.551
N9910 X92.66 Y82.482
N9915 X92.403 Y83.404
N9920 X92.116 Y84.318
N9925 X91.798 Y85.221
N9930 X91.451 Y86.114
N9935 X91.074 Y86.994
N9940 X90.667 Y87.861
N9945 X90.232 Y88.714
N9950 X89.769 Y89.552
N9955 X89.277 Y90.374
N9960 X88.759 Y91.18
N9965 X88.214 Y91.967
N9970 X87.643 Y92.736
N9975 X87.047 Y93.486
N9980 X86.427 Y94.215
N9985 X85.783 Y94.924
N9990 X85.116 Y95.611
N9995 X84.426 Y96.276
N10000 X83.715 Y96.918
N10005 X82.983 Y97.535
N10010 X82.231 Y98.128
N10015 X81.46 Y98.696
N10020 X80.67 Y99.238
N10025 X79.863 Y99.753
N10030 X79.039 Y100.241
N10035 X78.199 Y100.702
N10040 X77.345 Y101.134
N10045 X76.476 Y101.538
N10050 X75.595 Y101.913
N10055 X74.702 Y102.258
N10060 X73.798 Y102.574
N10065 X72.884 Y102.86
N10070 X71.961 Y103.116
N10075 X71.03 Y103.342
N10080 X70.093 Y103.537
N10085 X69.149 Y103.701
N10090 X68.201 Y103.835
N10095 X67.249 Y103.936
N10100 X66.293 Y104.007
N10105 X65.337 Y104.046
N10110 X64.379 Y104.054
N10115 X63.422 Y104.031
N10120 X62.465 Y103.975
N10125 X61.512 Y103.889
N10130 X60.561 Y103.771
N10135 X59.615 Y103.622
N10140 X58.675 Y103.442
N10145 X57.74 Y103.231
N10150 X56.813 Y102.99
N10155 X55.895 Y102.719
N10160 X54.985 Y102.419
N10165 X54.086 Y102.089
N10170 X53.199 Y101.73
N10175 X52.323 Y101.342
N10180 X51.461 Y100.926
N10185 X50.612 Y100.482
N10190 X49.778 Y100.01
N10195 X48.961 Y99.512
N10200 X48.16 Y98.987
N10205 X47.376 Y98.436
N10210 X46.611 Y97.86
N10215 X45.865 Y97.259
N10220 X45.139 Y96.635
N10225 X44.434 Y95.987
N10230 X43.75 Y95.316
N10235 X43.088 Y94.624
N10240 X42.449 Y93.911
N10245 X41.833 Y93.177
N10250 X41.241 Y92.424
N10255 X40.674 Y91.653
N10260 X40.132 Y90.863
N10265 X39.616 Y90.056
N10270 X39.126 Y89.233
N10275 X38.663 Y88.395
N10280 X38.228 Y87.542
N10285 X37.82 Y86.676
N10290 X37.44 Y85.796
N10295 X37.089 Y84.905
N10300 X36.768 Y84.003
N10305 X36.475 Y83.091
N10310 X36.213 Y82.17
N10315 X35.98 Y81.241
N10320 X35.778 Y80.305
N10325 X35.605 Y79.363
N10330 X35.463 Y78.416
N10335 X35.351 Y77.465
N10340 X35.271 Y76.511
N10345 X35.221 Y75.554
N10350 X35.202 Y74.597
N10355 X35.214 Y73.639
N10360 X35.256 Y72.682
N10365 X35.329 Y71.727
N10370 X35.433 Y70.775
N10375 X35.568 Y69.827
N10380 X35.733 Y68.884
N10385 X35.929 Y67.946
N10390 X36.154 Y67.016
N10395 X36.41 Y66.093
N10400 X36.695 Y65.178
N10405 X37.01 Y64.274
N10410 X37.353 Y63.38
N10415 X37.725 Y62.497
N10420 X38.125 Y61.627
N10425 X38.552 Y60.77
N10430 X39.008 Y59.928
N10435 X39.49 Y59.1
N10440 X39.998 Y58.288
N10445 X40.532 Y57.493
N10450 X41.092 Y56.716
N10455 X41.676 Y55.957
N10460 X42.284 Y55.218
N10465 X42.916 Y54.498
N10470 X43.571 Y53.799
N10475 X44.247 Y53.121
N10480 X44.946 Y52.466
N10485 X45.665 Y51.833
N10490 X46.404 Y51.224
N10495 X47.162 Y50.639
N10500 X47.939 Y50.079
N10505 X48.733 Y49.543
N10510 X49.543 Y49.034
N10515 X50.37 Y48.551
N10520 X51.212 Y48.094
N10525 X52.069 Y47.665
N10530 X52.938 Y47.264
N10535 X53.82 Y46.89
N10540 X54.713 Y46.545
N10545 X55.617 Y46.229
N10550 X56.531 Y45.942
N10555 X57.454 Y45.685
N10560 X58.384 Y45.457
N10565 X59.321 Y45.26
N10570 X60.264 Y45.093
N10575 X61.212 Y44.956
N10580 X62.164 Y44.849
N10585 X63.118 Y44.773
N10590 X64.075 Y44.728
N10595 X65.032 Y44.713
N10600 X65.99 Y44.729
N10605 X66.947 Y44.775
N10610 X67.901 Y44.852
N10615 X68.853 Y44.96
N10620 X69.801 Y45.097
N10625 X70.743 Y45.265
N10630 X71.681 Y45.463
N10635 X72.611 Y45.69
N10640 X73.534 Y45.947
N10645 X74.448 Y46.233
N10650 X75.352 Y46.548
N10655 X76.246 Y46.891
N10660 X77.128 Y47.263
N10665 X77.999 Y47.663
N10670 X78.856 Y48.09
N10675 X79.699 Y48.543
N10680 X80.528 Y49.024
N10685 X81.341 Y49.53
N10690 X82.138 Y50.062
N10695 X82.917 Y50.618
N10700 X83.678 Y51.199
N10705 X84.421 Y51.804
N10710 X85.145 Y52.431
N10715 X85.848 Y53.081
N10720 X86.531 Y53.752
N10725 X87.192 Y54.445
N10730 X87.832 Y55.158
N10735 X88.448 Y55.891
N10740 X89.041 Y56.643
N10745 X89.611 Y57.413
N10750 X90.155 Y58.201
N10755 X90.675 Y59.005
N10760 X91.17 Y59.825
N10765 X91.638 Y60.66
N10770 X92.081 Y61.51
N10775 X92.496 Y62.373
N10780 X92.884 Y63.249
N10785 X93.244 Y64.136
N10790 X93.576 Y65.034
N10795 X93.88 Y65.942
N10800 X94.156 Y66.859
N10805 X94.403 Y67.785
N10810 X94.621 Y68.717
N10815 X94.809 Y69.656
N10820 X94.968 Y70.601
N10825 X95.098 Y71.55
N10830 X95.197 Y72.502
N10835 X95.267 Y73.457
N10840 X95.307 Y74.414
N10845 X95.316 Y75.372
N10850 X95.296 Y76.329
N10855 X95.246 Y77.286
N10860 X95.166 Y78.24
N10865 X95.055 Y79.191
N10870 X94.915 Y80.139
N10875 X94.745 Y81.081
N10880 X94.545 Y82.018
N10885 X94.317 Y82.948
N10890 X94.059 Y83.87
N10895 X93.773 Y84.784
N10900 X93.458 Y85.689
N10905 X93.115 Y86.583
N10910 X92.744 Y87.466
N10915 X92.346 Y88.337
N10920 X91.921 Y89.195
N10925 X91.468 Y90.039
N10930 X90.99 Y90.868
N10935 X90.485 Y91.683
N10940 X89.956 Y92.48
N10945 X89.401 Y93.261
N10950 X88.823 Y94.025
N10955 X88.22 Y94.769
N10960 X87.595 Y95.494
N10965 X86.947 Y96.199
N10970 X86.277 Y96.884
N10975 X85.586 Y97.547
N10980 X84.875 Y98.188
N10985 X84.144 Y98.807
N10990 X83.394 Y99.403
N10995 X82.626 Y99.975
N11000 X81.841 Y100.523
N11005 X81.038 Y101.046
N11010 X80.22 Y101.544
N11015 X79.387 Y102.016
N11020 X78.539 Y102.462
N11025 X77.678 Y102.881
N11030 X76.804 Y103.273
N11035 X75.919 Y103.637
N11040 X75.022 Y103.974
N11045 X74.116 Y104.282
N11050 X73.2 Y104.562
N11055 X72.275 Y104.814
N11060 X71.344 Y105.036
N11065 X70.406 Y105.229
N11070 X69.463 Y105.394
N11075 X68.514 Y105.529
N11080 X67.563 Y105.635
N11085 X66.608 Y105.711
N11090 X65.651 Y105.758
N11095 X64.694 Y105.775
N11100 X63.736 Y105.762
N11105 X62.779 Y105.72
N11110 X61.824 Y105.649
N11115 X60.872 Y105.547
N11120 X59.923 Y105.417
N11125 X58.979 Y105.257
N11130 X58.04 Y105.068
N11135 X57.108 Y104.85
N11140 X56.182 Y104.603
N11145 X55.265 Y104.327
N11150 X54.357 Y104.023
N11155 X53.459 Y103.692
N11160 X52.571 Y103.333
N11165 X51.694 Y102.947
N11170 X50.83 Y102.534
N11175 X49.979 Y102.095
N11180 X49.142 Y101.63
N11185 X48.319 Y101.139
N11190 X47.512 Y100.624
N11195 X46.721 Y100.084
N11200 X45.947 Y99.519
N11205 X45.191 Y98.932
N11210 X44.453 Y98.321
N11215 X43.735 Y97.688
N11220 X43.036 Y97.034
N11225 X42.357 Y96.357
N11230 X41.7 Y95.661
N11235 X41.065 Y94.944
N11240 X40.452 Y94.208
N11245 X39.861 Y93.454
N11250 X39.294 Y92.683
N11255 X38.751 Y91.894
N11260 X38.232 Y91.089
N11265 X37.737 Y90.269
N11270 X37.268 Y89.434
N11275 X36.825 Y88.585
N11280 X36.407 Y87.724
N11285 X36.016 Y86.849
N11290 X35.652 Y85.964
N11295 X35.315 Y85.067
N11300 X35.006 Y84.161
N11305 X34.724 Y83.245
N11310 X34.471 Y82.322
N11315 X34.246 Y81.391
N11320 X34.05 Y80.453
N11325 X33.883 Y79.51
N11330 X33.744 Y78.563
N11335 X33.635 Y77.611
N11340 X33.555 Y76.657
N11345 X33.504 Y75.701
N11350 X33.481 Y74.743
N11355 X33.488 Y73.786
N11360 X33.524 Y72.828
N11365 X33.589 Y71.873
N11370 X33.683 Y70.92
N11375 X33.805 Y69.97
N11380 X33.957 Y69.024
N11385 X34.137 Y68.084
N11390 X34.346 Y67.149
N11395 X34.583 Y66.221
N11400 X34.848 Y65.301
N11405 X35.141 Y64.389
N11410 X35.462 Y63.487
N11415 X35.811 Y62.595
N11420 X36.187 Y61.714
N11425 X36.589 Y60.845
N11430 X37.018 Y59.989
N11435 X37.472 Y59.146
N11440 X37.952 Y58.317
N11445 X38.456 Y57.503
N11450 X38.985 Y56.704
N11455 X39.538 Y55.923
N11460 X40.115 Y55.158
N11465 X40.714 Y54.411
N11470 X41.336 Y53.682
N11475 X41.979 Y52.973
N11480 X42.644 Y52.284
N11485 X43.329 Y51.615
N11490 X44.035 Y50.967
N11495 X44.76 Y50.341
N11500 X45.504 Y49.738
N11505 X46.266 Y49.158
N11510 X47.045 Y48.601
N11515 X47.841 Y48.068
N11520 X48.652 Y47.56
N11525 X49.479 Y47.076
N11530 X50.32 Y46.618
N11535 X51.174 Y46.185
N11540 X52.041 Y45.779
N11545 X52.92 Y45.398
N11550 X53.81 Y45.045
N11555 X54.711 Y44.718
N11560 X55.62 Y44.419
N11565 X56.539 Y44.148
N11570 X57.465 Y43.905
N11575 X58.398 Y43.69
N11580 X59.338 Y43.503
N11585 X60.282 Y43.345
N11590 X61.231 Y43.216
N11595 X62.184 Y43.116
N11600 X63.139 Y43.045
N11605 X64.096 Y43.003
N11610 X65.053 Y42.99
N11615 X66.011 Y43.006
N11620 X66.967 Y43.051
N11625 X67.922 Y43.125
N11630 X68.874 Y43.227
N11635 X69.823 Y43.358
N11640 X70.768 Y43.517
N11645 X71.707 Y43.705
N11650 X72.64 Y43.92
N11655 X73.566 Y44.164
N11660 X74.485 Y44.435
N11665 X75.395 Y44.734
N11670 X76.295 Y45.059
N11675 X77.185 Y45.412
N11680 X78.065 Y45.792
N11685 X78.932 Y46.198
N11690 X79.787 Y46.63
N11695 X80.628 Y47.087
N11700 X81.455 Y47.57
N11705 X82.268 Y48.077
N11710 X83.065 Y48.608
N11715 X83.846 Y49.162
N11720 X84.61 Y49.74
N11725 X85.356 Y50.34
N11730 X86.085 Y50.962
N11735 X86.794 Y51.605
N11740 X87.485 Y52.269
N11745 X88.155 Y52.952
N11750 X88.805 Y53.656
N11755 X89.433 Y54.378
N11760 X90.04 Y55.119
N11765 X90.625 Y55.878
N11770 X91.187 Y56.653
N11775 X91.725 Y57.445
N11780 X92.24 Y58.253
N11785 X92.73 Y59.076
N11790 X93.195 Y59.913
N11795 X93.635 Y60.764
N11800 X94.05 Y61.627
N11805 X94.439 Y62.502
N11810 X94.802 Y63.388
N11815 X95.139 Y64.285
N11820 X95.449 Y65.191
N11825 X95.732 Y66.106
N11830 X95.988 Y67.029
N11835 X96.217 Y67.958
N11840 X96.418 Y68.895
N11845 X96.592 Y69.837
N11850 X96.737 Y70.783
N11855 X96.855 Y71.734
N11860 X96.944 Y72.687
N11865 X97.005 Y73.643
N11870 X97.037 Y74.6
N11875 X97.041 Y75.558
N11880 X97.015 Y76.515
N11885 X96.962 Y77.471
N11890 X96.88 Y78.426
N11895 X96.769 Y79.377
N11900 X96.631 Y80.324
N11905 X96.464 Y81.268
N11910 X96.27 Y82.205
N11915 X96.048 Y83.137
N11920 X95.798 Y84.062
N11925 X95.521 Y84.978
N11930 X95.218 Y85.887
N11935 X94.888 Y86.786
N11940 X94.531 Y87.674
N11945 X94.148 Y88.552
N11950 X93.739 Y89.418
N11955 X93.305 Y90.272
N11960 X92.845 Y91.112
N11965 X92.36 Y91.938
N11970 X91.851 Y92.749
N11975 X91.318 Y93.544
N11980 X90.761 Y94.324
N11985 X90.181 Y95.086
N11990 X89.579 Y95.831
N11995 X88.955 Y96.557
N12000 X88.31 Y97.265
N12005 X87.644 Y97.954
N12010 X86.959 Y98.622
N12015 X86.253 Y99.27
N12020 X85.529 Y99.897
N12025 X84.787 Y100.502
N12030 X84.028 Y101.086
N12035 X83.251 Y101.646
N12040 X82.459 Y102.184
N12045 X81.65 Y102.698
N12050 X80.827 Y103.187
N12055 X79.99 Y103.652
N12060 X79.139 Y104.092
N12065 X78.276 Y104.506
N12070 X77.4 Y104.894
N12075 X76.514 Y105.257
N12080 X75.617 Y105.593
N12085 X74.711 Y105.902
N12090 X73.795 Y106.184
N12095 X72.872 Y106.44
N12100 X71.942 Y106.668
N12105 X71.006 Y106.869
N12110 X70.064 Y107.042
N12115 X69.118 Y107.188
N12120 X68.167 Y107.306
N12125 X67.214 Y107.397
N12130 X66.258 Y107.459
N12135 X65.301 Y107.493
N12140 X64.343 Y107.5
N12145 X63.386 Y107.478
N12150 X62.429 Y107.428
N12155 X61.475 Y107.35
N12160 X60.523 Y107.244
N12165 X59.575 Y107.109
N12170 X58.631 Y106.947
N12175 X57.692 Y106.757
N12180 X56.76 Y106.54
N12185 X55.834 Y106.296
N12190 X54.915 Y106.024
N12195 X54.005 Y105.726
N12200 X53.104 Y105.402
N12205 X52.213 Y105.052
N12210 X51.332 Y104.675
N12215 X50.463 Y104.274
N12220 X49.605 Y103.847
N12225 X48.76 Y103.396
N12230 X47.929 Y102.92
N12235 X47.112 Y102.421
N12240 X46.31 Y101.898
N12245 X45.523 Y101.351
N12250 X44.753 Y100.782
N12255 X44. Y100.19
N12260 X43.265 Y99.576
N12265 X42.548 Y98.942
N12270 X41.85 Y98.286
N12275 X41.171 Y97.611
N12280 X40.512 Y96.916
N12285 X39.873 Y96.202
N12290 X39.255 Y95.471
N12295 X38.659 Y94.721
N12300 X38.085 Y93.955
N12305 X37.532 Y93.172
N12310 X37.003 Y92.374
N12315 X36.497 Y91.561
N12320 X36.014 Y90.734
N12325 X35.556 Y89.893
N12330 X35.122 Y89.039
N12335 X34.993 Y88.802
N12340 X34.923 Y88.67
N12345 X34.854 Y88.537
N12350 X34.719 Y88.269
N12355 X34.586 Y88.
N12360 X34.457 Y87.729
N12365 X34.328 Y87.449
N12370 X34.199 Y87.158
N12375 X34.08 Y86.883
N12380 X33.955 Y86.584
N12385 X33.888 Y86.419
N12390 X33.77 Y86.123
N12395 X33.656 Y85.825
N12400 X33.594 Y85.661
N12405 X33.529 Y85.485
N12410 X33.418 Y85.175
N12415 X33.31 Y84.86
N12420 X33.252 Y84.686
N12425 X33.19 Y84.499
N12430 X33.089 Y84.181
N12435 X33.039 Y84.02
N12440 X32.987 Y83.848
N12445 X32.903 Y83.563
N12450 X32.833 Y83.315
N12455 X32.743 Y82.987
N12460 X32.694 Y82.804
N12465 X32.643 Y82.607
N12470 X32.595 Y82.417
N12475 X32.516 Y82.091
N12480 X32.473 Y81.911
N12485 X32.429 Y81.717
N12490 X32.382 Y81.507
N12495 X32.312 Y81.176
N12500 X32.275 Y80.998
N12505 X32.237 Y80.806
N12510 X32.198 Y80.599
N12515 X32.162 Y80.41
N12520 X32.133 Y80.245
N12525 X32.102 Y80.068
N12530 X32.07 Y79.879
N12535 X32.037 Y79.674
N12540 X32.004 Y79.465
N12545 X31.955 Y79.126
N12550 X31.929 Y78.939
N12555 X31.902 Y78.737
N12560 X31.874 Y78.518
N12565 X31.854 Y78.346
N12570 X31.834 Y78.174
N12575 X31.814 Y77.989
N12580 X31.793 Y77.789
N12585 X31.772 Y77.574
N12590 X31.755 Y77.384
N12595 X31.741 Y77.213
N12600 X31.726 Y77.03
N12605 X31.712 Y76.834
N12610 X31.697 Y76.621
N12615 X31.684 Y76.415
N12620 X31.675 Y76.246
N12625 X31.666 Y76.066
N12630 X31.657 Y75.872
N12635 X31.649 Y75.663
N12640 X31.642 Y75.444
N12645 X31.638 Y75.276
N12650 X31.634 Y75.098
N12655 X31.631 Y74.907
N12660 X31.629 Y74.701
N12665 X31.628 Y74.479
N12670 Y74.302
N12675 X31.63 Y74.127
N12680 X31.632 Y73.939
N12685 X31.636 Y73.737
N12690 X31.642 Y73.518
N12695 X31.648 Y73.328
N12700 X31.654 Y73.155
N12705 X31.662 Y72.97
N12710 X31.672 Y72.772
N12715 X31.684 Y72.557
N12720 X31.696 Y72.353
N12725 X31.707 Y72.183
N12730 X31.72 Y72.002
N12735 X31.735 Y71.807
N12740 X31.753 Y71.597
N12745 X31.772 Y71.38
N12750 X31.788 Y71.213
N12755 X31.807 Y71.035
N12760 X31.827 Y70.844
N12765 X31.863 Y70.527
N12770 X31.897 Y70.253
N12775 X31.92 Y70.079
N12780 X31.945 Y69.893
N12785 X31.974 Y69.692
N12790 X32.006 Y69.476
N12795 X32.035 Y69.289
N12800 X32.062 Y69.118
N12805 X32.092 Y68.935
N12810 X32.126 Y68.739
N12815 X32.164 Y68.527
N12820 X32.201 Y68.327
N12825 X32.232 Y68.16
N12830 X32.267 Y67.982
N12835 X32.306 Y67.79
N12840 X32.349 Y67.583
N12845 X32.394 Y67.372
N12850 X32.43 Y67.209
N12855 X32.47 Y67.035
N12860 X32.513 Y66.849
N12865 X32.561 Y66.648
N12870 X32.614 Y66.432
N12875 X32.656 Y66.265
N12880 X32.699 Y66.096
N12885 X32.747 Y65.915
N12890 X32.8 Y65.72
N12895 X32.858 Y65.509
N12900 X32.909 Y65.328
N12905 X32.956 Y65.163
N12910 X33.008 Y64.987
N12915 X33.065 Y64.797
N12920 X33.128 Y64.593
N12925 X33.189 Y64.398
N12930 X33.241 Y64.237
N12935 X33.297 Y64.065
N12940 X33.358 Y63.881
N12945 X33.426 Y63.682
N12950 X33.497 Y63.477
N12955 X33.553 Y63.319
N12960 X33.613 Y63.151
N12965 X33.678 Y62.972
N12970 X33.75 Y62.779
N12975 X33.829 Y62.571
N12980 X33.892 Y62.408
N12985 X33.956 Y62.245
N12990 X34.025 Y62.071
N12995 X34.101 Y61.884
N13000 X34.185 Y61.681
N13005 X34.258 Y61.507
N13010 X34.325 Y61.348
N13015 X34.399 Y61.178
N13020 X34.479 Y60.996
N13025 X34.567 Y60.8
N13030 X34.651 Y60.615
N13035 X34.722 Y60.46
N13040 X34.799 Y60.295
N13045 X34.883 Y60.119
N13050 X34.975 Y59.928
N13055 X35.07 Y59.734
N13060 X35.145 Y59.583
N13065 X35.226 Y59.423
N13070 X35.313 Y59.251
N13075 X35.409 Y59.067
N13080 X35.513 Y58.869
N13085 X35.594 Y58.717
N13090 X35.678 Y58.562
N13095 X35.769 Y58.396
N13100 X35.869 Y58.217
N13105 X35.977 Y58.024
N13110 X36.069 Y57.864
N13115 X36.156 Y57.713
N13120 X36.251 Y57.552
N13125 X36.354 Y57.379
N13130 X36.466 Y57.193
N13135 X36.569 Y57.024
N13140 X36.66 Y56.878
N13145 X36.757 Y56.722
N13150 X36.863 Y56.555
N13155 X36.979 Y56.375
N13160 X37.094 Y56.198
N13165 X37.187 Y56.057
N13170 X37.288 Y55.906
N13175 X37.397 Y55.745
N13180 X37.516 Y55.572
N13185 X37.641 Y55.39
N13190 X37.739 Y55.252
N13195 X37.842 Y55.106
N13200 X37.954 Y54.951
N13205 X38.076 Y54.784
N13210 X38.208 Y54.604
N13215 X38.314 Y54.463
N13220 X38.42 Y54.322
N13225 X38.534 Y54.173
N13230 X38.658 Y54.012
N13235 X38.794 Y53.839
N13240 X38.912 Y53.69
N13245 X39.02 Y53.555
N13250 X39.137 Y53.411
N13255 X39.264 Y53.257
N13260 X39.402 Y53.091
N13265 X39.533 Y52.935
N13270 X39.643 Y52.805
N13275 X39.763 Y52.667
N13280 X39.892 Y52.519
N13285 X40.032 Y52.36
N13290 X40.175 Y52.199
N13295 X40.288 Y52.074
N13300 X40.41 Y51.941
N13305 X40.541 Y51.799
N13310 X40.683 Y51.647
N13315 X40.836 Y51.485
N13320 X40.954 Y51.362
N13325 X41.077 Y51.235
N13330 X41.209 Y51.1
N13335 X41.352 Y50.955
N13340 X41.509 Y50.799
N13345 X41.639 Y50.671
N13350 X41.763 Y50.55
N13355 X41.896 Y50.421
N13360 X42.041 Y50.284
N13365 X42.198 Y50.136
N13370 X42.343 Y50.001
N13375 X42.469 Y49.885
N13380 X42.603 Y49.763
N13385 X42.749 Y49.632
N13390 X42.907 Y49.492
N13395 X43.067 Y49.351
N13400 X43.194 Y49.241
N13405 X43.33 Y49.125
N13410 X43.477 Y49.
N13415 X43.636 Y48.867
N13420 X43.807 Y48.726
N13425 X43.939 Y48.618
N13430 X44.076 Y48.507
N13435 X44.224 Y48.389
N13440 X44.383 Y48.263
N13445 X44.557 Y48.127
N13450 X44.703 Y48.015
N13455 X44.841 Y47.91
N13460 X44.99 Y47.798
N13465 X45.15 Y47.679
N13470 X45.325 Y47.551
N13475 X45.486 Y47.434
N13480 X45.625 Y47.335
N13485 X45.774 Y47.229
N13490 X45.936 Y47.116
N13495 X46.111 Y46.995
N13500 X46.286 Y46.876
N13505 X46.426 Y46.782
N13510 X46.576 Y46.682
N13515 X46.738 Y46.575
N13520 X46.914 Y46.462
N13525 X47.101 Y46.342
N13530 X47.244 Y46.251
N13535 X47.395 Y46.157
N13540 X47.558 Y46.057
N13545 X47.734 Y45.95
N13550 X47.925 Y45.835
N13555 X48.079 Y45.744
N13560 X48.231 Y45.656
N13565 X48.394 Y45.562
N13570 X48.57 Y45.462
N13575 X48.762 Y45.354
N13580 X48.93 Y45.261
N13585 X49.082 Y45.178
N13590 X49.246 Y45.09
N13595 X49.422 Y44.997
N13600 X49.613 Y44.897
N13605 X49.795 Y44.803
N13610 X49.948 Y44.725
N13615 X50.111 Y44.643
N13620 X50.288 Y44.556
N13625 X50.479 Y44.463
N13630 X50.674 Y44.37
N13635 X50.827 Y44.297
N13640 X50.99 Y44.221
N13645 X51.166 Y44.141
N13650 X51.357 Y44.055
N13655 X51.561 Y43.964
N13660 X51.718 Y43.895
N13665 X51.881 Y43.825
N13670 X52.057 Y43.751
N13675 X52.247 Y43.672
N13680 X52.453 Y43.587
N13685 X52.621 Y43.519
N13690 X52.784 Y43.455
N13695 X52.959 Y43.386
N13700 X53.148 Y43.314
N13705 X53.353 Y43.237
N13710 X53.536 Y43.17
N13715 X53.698 Y43.111
N13720 X53.872 Y43.048
N13725 X54.06 Y42.983
N13730 X54.264 Y42.913
N13735 X54.46 Y42.847
N13740 X54.622 Y42.793
N13745 X54.795 Y42.737
N13750 X54.982 Y42.678
N13755 X55.184 Y42.615
N13760 X55.392 Y42.551
N13765 X55.554 Y42.503
N13770 X55.727 Y42.453
N13775 X55.912 Y42.4
N13780 X56.113 Y42.343
N13785 X56.329 Y42.284
N13790 X56.495 Y42.24
N13795 X56.666 Y42.195
N13800 X56.849 Y42.149
N13805 X57.047 Y42.099
N13810 X57.262 Y42.047
N13815 X57.442 Y42.005
N13820 X57.611 Y41.966
N13825 X57.792 Y41.925
N13830 X57.987 Y41.883
N13835 X58.198 Y41.838
N13840 X58.394 Y41.798
N13845 X58.561 Y41.765
N13850 X58.74 Y41.73
N13855 X58.932 Y41.694
N13860 X59.14 Y41.656
N13865 X59.351 Y41.619
N13870 X59.516 Y41.591
N13875 X59.694 Y41.562
N13880 X59.884 Y41.532
N13885 X60.089 Y41.501
N13890 X60.309 Y41.469
N13895 X60.478 Y41.445
N13900 X60.654 Y41.422
N13905 X60.842 Y41.397
N13910 X61.044 Y41.373
N13915 X61.264 Y41.347
N13920 X61.446 Y41.327
N13925 X61.619 Y41.309
N13930 X61.805 Y41.291
N13935 X62.005 Y41.272
N13940 X62.221 Y41.253
N13945 X62.418 Y41.237
N13950 X62.589 Y41.225
N13955 X62.773 Y41.212
N13960 X62.97 Y41.199
N13965 X63.184 Y41.187
N13970 X63.394 Y41.176
N13975 X63.563 Y41.168
N13980 X63.745 Y41.161
N13985 X63.94 Y41.154
N13990 X64.151 Y41.148
N13995 X64.371 Y41.143
N14000 X64.541 Y41.14
N14005 X64.72 Y41.138
N14010 X64.913 Y41.137
N14015 X65.12
N14020 X65.345 Y41.139
N14025 X65.52 Y41.141
N14030 X65.697 Y41.144
N14035 X65.888 Y41.149
N14040 X66.093 Y41.155
N14045 X66.315 Y41.163
N14050 X66.501 Y41.17
N14055 X66.676 Y41.179
N14060 X66.864 Y41.189
N14065 X67.066 Y41.2
N14070 X67.285 Y41.215
N14075 X67.482 Y41.228
N14080 X67.656 Y41.242
N14085 X67.841 Y41.257
N14090 X68.04 Y41.274
N14095 X68.256 Y41.295
N14100 X68.463 Y41.315
N14105 X68.634 Y41.333
N14110 X68.816 Y41.354
N14115 X69.013 Y41.377
N14120 X69.225 Y41.403
N14125 X69.441 Y41.431
N14130 X69.61 Y41.453
N14135 X69.789 Y41.479
N14140 X69.983 Y41.507
N14145 X70.191 Y41.539
N14150 X70.413 Y41.574
N14155 X70.582 Y41.602
N14160 X70.759 Y41.632
N14165 X70.949 Y41.666
N14170 X71.154 Y41.703
N14175 X71.376 Y41.745
N14180 X71.551 Y41.779
N14185 X71.725 Y41.814
N14190 X71.912 Y41.853
N14195 X72.113 Y41.896
N14200 X72.33 Y41.943
N14205 X72.514 Y41.985
N14210 X72.685 Y42.024
N14215 X72.869 Y42.068
N14220 X73.066 Y42.116
N14225 X73.279 Y42.169
N14230 X73.472 Y42.219
N14235 X73.64 Y42.263
N14240 X73.82 Y42.311
N14245 X74.013 Y42.364
N14250 X74.222 Y42.423
N14255 X74.423 Y42.48
N14260 X74.588 Y42.529
N14265 X74.764 Y42.581
N14270 X74.953 Y42.639
N14275 X75.157 Y42.703
N14280 X75.365 Y42.769
N14285 X75.526 Y42.822
N14290 X75.698 Y42.879
N14295 X75.882 Y42.941
N14300 X76.081 Y43.009
N14305 X76.292 Y43.084
N14310 X76.453 Y43.141
N14315 X76.621 Y43.202
N14320 X76.801 Y43.269
N14325 X76.994 Y43.342
N14330 X77.203 Y43.422
N14335 X77.371 Y43.488
N14340 X77.534 Y43.553
N14345 X77.71 Y43.624
N14350 X77.898 Y43.701
N14355 X78.102 Y43.786
N14360 X78.279 Y43.861
N14365 X78.439 Y43.931
N14370 X78.61 Y44.006
N14375 X78.793 Y44.087
N14380 X78.992 Y44.177
N14385 X79.176 Y44.262
N14390 X79.333 Y44.335
N14395 X79.5 Y44.414
N14400 X79.679 Y44.5
N14405 X79.872 Y44.594
N14410 X80.063 Y44.689
N14415 X80.216 Y44.766
N14420 X80.379 Y44.849
N14425 X80.553 Y44.939
N14430 X80.741 Y45.038
N14435 X80.937 Y45.142
N14440 X81.088 Y45.223
N14445 X81.246 Y45.31
N14450 X81.417 Y45.404
N14455 X81.6 Y45.507
N14460 X81.796 Y45.619
N14465 X81.947 Y45.706
N14470 X82.102 Y45.797
N14475 X82.268 Y45.895
N14480 X82.446 Y46.002
N14485 X82.639 Y46.12
N14490 X82.794 Y46.215
N14495 X82.945 Y46.31
N14500 X83.107 Y46.412
N14505 X83.28 Y46.524
N14510 X83.468 Y46.645
N14515 X83.627 Y46.75
N14520 X83.775 Y46.848
N14525 X83.932 Y46.955
N14530 X84.101 Y47.07
N14535 X84.283 Y47.196
N14540 X84.446 Y47.31
N14545 X84.59 Y47.412
N14550 X84.743 Y47.522
N14555 X84.907 Y47.641
N14560 X85.084 Y47.771
N14565 X85.249 Y47.894
N14570 X85.389 Y48.
N14575 X85.538 Y48.113
N14580 X85.697 Y48.236
N14585 X85.869 Y48.371
N14590 X86.036 Y48.502
N14595 X86.172 Y48.611
N14600 X86.316 Y48.728
N14605 X86.471 Y48.855
N14610 X86.638 Y48.993
N14615 X86.805 Y49.134
N14620 X86.937 Y49.245
N14625 X87.077 Y49.366
N14630 X87.227 Y49.496
N14635 X87.388 Y49.638
N14640 X87.555 Y49.787
N14645 X87.684 Y49.902
N14650 X87.819 Y50.026
N14655 X87.964 Y50.159
N14660 X88.12 Y50.305
N14665 X88.285 Y50.461
N14670 X88.411 Y50.581
N14675 X88.542 Y50.707
N14680 X88.682 Y50.844
N14685 X88.833 Y50.993
N14690 X88.994 Y51.154
N14695 X89.119 Y51.28
N14700 X89.245 Y51.41
N14705 X89.38 Y51.549
N14710 X89.525 Y51.701
N14715 X89.682 Y51.867
N14720 X89.806 Y52.
N14725 X89.928 Y52.132
N14730 X90.058 Y52.275
N14735 X90.197 Y52.43
N14740 X90.347 Y52.599
N14745 X90.472 Y52.74
N14750 X90.589 Y52.875
N14755 X90.713 Y53.019
N14760 X90.847 Y53.176
N14765 X90.99 Y53.347
N14770 X91.115 Y53.498
N14775 X91.226 Y53.634
N14780 X91.345 Y53.78
N14785 X91.472 Y53.939
N14790 X91.608 Y54.111
N14795 X91.734 Y54.271
N14800 X91.84 Y54.409
N14805 X91.953 Y54.558
N14810 X92.074 Y54.718
N14815 X92.204 Y54.892
N14820 X92.329 Y55.062
N14825 X92.431 Y55.202
N14830 X92.539 Y55.352
N14835 X92.654 Y55.515
N14840 X92.777 Y55.691
N14845 X92.902 Y55.871
N14850 X92.998 Y56.013
N14855 X93.101 Y56.165
N14860 X93.21 Y56.329
N14865 X93.327 Y56.507
N14870 X93.45 Y56.695
N14875 X93.543 Y56.84
N14880 X93.64 Y56.993
N14885 X93.744 Y57.159
N14890 X93.854 Y57.339
N14895 X93.973 Y57.533
N14900 X94.063 Y57.683
N14905 X94.155 Y57.838
N14910 X94.253 Y58.006
N14915 X94.358 Y58.187
N14920 X94.47 Y58.384
N14925 X94.559 Y58.542
N14930 X94.646 Y58.699
N14935 X94.739 Y58.868
N14940 X94.837 Y59.051
N14945 X94.943 Y59.25
N14950 X95.031 Y59.417
N14955 X95.113 Y59.575
N14960 X95.2 Y59.746
N14965 X95.292 Y59.93
N14970 X95.392 Y60.131
N14975 X95.477 Y60.306
N14980 X95.554 Y60.466
N14985 X95.636 Y60.638
N14990 X95.722 Y60.824
N14995 X95.815 Y61.026
N15000 X95.898 Y61.209
N15005 X95.97 Y61.37
N15010 X96.046 Y61.544
N15015 X96.127 Y61.731
N15020 X96.213 Y61.934
N15025 X96.293 Y62.125
N15030 X96.36 Y62.288
N15035 X96.431 Y62.462
N15040 X96.506 Y62.651
N15045 X96.586 Y62.855
N15050 X96.662 Y63.053
N15055 X96.723 Y63.217
N15060 X96.789 Y63.392
N15065 X96.858 Y63.582
N15070 X96.931 Y63.787
N15075 X97.003 Y63.992
N15080 X97.06 Y64.156
N15085 X97.119 Y64.333
N15090 X97.183 Y64.523
N15095 X97.25 Y64.729
N15100 X97.317 Y64.94
N15105 X97.369 Y65.106
N15110 X97.423 Y65.283
N15115 X97.48 Y65.474
N15120 X97.541 Y65.681
N15125 X97.603 Y65.897
N15130 X97.65 Y66.064
N15135 X97.699 Y66.241
N15140 X97.75 Y66.433
N15145 X97.804 Y66.64
N15150 X97.861 Y66.86
N15155 X97.903 Y67.029
N15160 X97.947 Y67.207
N15165 X97.992 Y67.399
N15170 X98.04 Y67.606
N15175 X98.09 Y67.83
N15180 X98.128 Y68.002
N15185 X98.166 Y68.18
N15190 X98.206 Y68.371
N15195 X98.247 Y68.579
N15200 X98.291 Y68.803
N15205 X98.325 Y68.98
N15210 X98.357 Y69.158
N15215 X98.391 Y69.349
N15220 X98.426 Y69.556
N15225 X98.463 Y69.781
N15230 X98.51 Y70.082
N15235 G0 Z5.
N15240 X34.136 Y82.934
N15245 Z-1.8
N15250 G1 Z-2.4 F300.
N15255 X34.129 Y82.938 Z-2.494
N15260 X34.11 Y82.949 Z-2.585
N15265 X34.079 Y82.967 Z-2.672
N15270 X34.037 Y82.992 Z-2.753
N15275 X33.984 Y83.024 Z-2.824
N15280 X33.923 Y83.06 Z-2.885
N15285 X33.854 Y83.101 Z-2.935
N15290 X33.779 Y83.145 Z-2.971
N15295 X33.7 Y83.191 Z-2.993
N15300 X33.619 Y83.239 Z-3.
N15305 G3 X32.903 Y83.563 I-1.853 J-3.14
N15310 G1 X32.825 Y83.586 F1000.
N15315 X31.871 Y83.5
N15320 X31.783 Y83.378
N15325 X31.699 Y83.254
N15330 X31.618 Y83.128
N15335 X31.54 Y82.999
N15340 X31.465 Y82.869
N15345 X31.393 Y82.738
N15350 X31.324 Y82.605
N15355 X31.257 Y82.471
N15360 X31.192 Y82.335
N15365 X31.13 Y82.198
N15370 X31.071 Y82.061
N15375 X31.013 Y81.922
N15380 X30.957 Y81.783
N15385 X30.904 Y81.643
N15390 X30.852 Y81.502
N15395 X30.802 Y81.361
N15400 X30.754 Y81.219
N15405 X30.707 Y81.076
N15410 X30.662 Y80.933
N15415 X30.619 Y80.789
N15420 X30.577 Y80.645
N15425 X30.537 Y80.501
N15430 X30.498 Y80.356
N15435 X30.461 Y80.211
N15440 X30.424 Y80.065
N15445 X30.39 Y79.919
N15450 X30.356 Y79.773
N15455 X30.323 Y79.627
N15460 X30.292 Y79.48
N15465 X30.262 Y79.333
N15470 X30.233 Y79.186
N15475 X30.205 Y79.038
N15480 X30.179 Y78.891
N15485 X30.153 Y78.743
N15490 X30.128 Y78.595
N15495 X30.105 Y78.447
N15500 X30.06 Y78.15
N15505 X30.02 Y77.853
N15510 X29.983 Y77.555
N15515 X29.949 Y77.257
N15520 X29.918 Y76.948
N15525 X29.891 Y76.633
N15530 X29.866 Y76.31
N15535 X29.844 Y75.975
N15540 X29.826 Y75.636
N15545 X29.818 Y75.465
N15550 X29.812 Y75.291
N15555 X29.806 Y75.114
N15560 X29.801 Y74.934
N15565 X29.797 Y74.755
N15570 X29.794 Y74.574
N15575 X29.793 Y74.393
N15580 X29.792 Y74.211
N15585 Y74.026
N15590 X29.794 Y73.839
N15595 X29.796 Y73.652
N15600 X29.8 Y73.464
N15605 X29.805 Y73.276
N15610 X29.811 Y73.086
N15615 X29.818 Y72.897
N15620 X29.826 Y72.704
N15625 X29.835 Y72.511
N15630 X29.846 Y72.319
N15635 X29.857 Y72.125
N15640 X29.87 Y71.93
N15645 X29.884 Y71.733
N15650 X29.903 Y71.495
N15655 X29.89 Y71.255
N15660 X29.845 Y71.02
N15665 X29.769 Y70.793
N15670 X29.559 Y70.363
N15675 X28.927 Y69.643
N15680 X28.133 Y69.107
N15685 X27.256 Y68.724
N15690 X26.337 Y68.455
N15695 X25.397 Y68.27
N15700 X24.447 Y68.145
N15705 X23.493 Y68.06
N15710 X22.537 Y68.004
N15715 X21.58 Y67.966
N15720 X20.623 Y67.942
N15725 X19.666 Y67.925
N15730 X18.708 Y67.914
N15735 X17.75 Y67.907
N15740 X17.511 Y67.909
N15745 X17.274 Y67.942
N15750 X16.813 Y68.072
N15755 X15.991 Y68.563
N15760 X15.363 Y69.287
N15765 X14.906 Y70.128
N15770 X14.582 Y71.029
N15775 X14.357 Y71.96
N15780 X14.203 Y72.905
N15785 X14.1 Y73.857
N15790 X14.03 Y74.813
N15795 X13.984 Y75.769
N15800 X13.953 Y76.726
N15805 X13.932 Y77.684
N15810 X13.919 Y78.641
N15815 X14.049 Y79.102
N15820 X14.511 Y79.941
N15825 X15.219 Y80.586
N15830 X16.053 Y81.057
N15835 X16.95 Y81.392
N15840 X17.879 Y81.625
N15845 X18.823 Y81.784
N15850 X19.775 Y81.892
N15855 X20.73 Y81.964
N15860 X21.686 Y82.012
N15865 X22.644 Y82.045
N15870 X23.601 Y82.066
N15875 X24.319 Y82.077
N15880 X24.796 Y82.114
N15885 X25.036
N15890 X25.273 Y82.081
N15895 X25.504 Y82.017
N15900 X25.724 Y81.923
N15905 X25.93 Y81.801
N15910 X26.306 Y81.504
N15915 X26.906 Y80.758
N15920 X27.313 Y79.891
N15925 X27.573 Y78.969
N15930 X27.731 Y78.025
N15935 X27.825 Y77.072
N15940 X27.882 Y76.116
N15945 X27.924 Y75.159
N15950 X27.964 Y74.202
N15955 X27.839 Y73.252
N15960 X27.403 Y72.4
N15965 X26.752 Y71.697
N15970 X25.968 Y71.147
N15975 X25.106 Y70.731
N15980 X24.198 Y70.425
N15985 X23.266 Y70.204
N15990 X22.322 Y70.047
N15995 X21.37 Y69.937
N16000 X20.416 Y69.86
N16005 X19.937 Y69.886
N16010 X19.005 Y70.105
N16015 X18.19 Y70.608
N16020 X17.53 Y71.302
N16025 X17.019 Y72.112
N16030 X16.636 Y72.99
N16035 X16.356 Y73.905
N16040 X16.154 Y74.842
N16045 X16.012 Y75.789
N16050 X16.063 Y76.265
N16055 X16.335 Y77.183
N16060 X16.882 Y77.969
N16065 X17.605 Y78.598
N16070 X18.432 Y79.08
N16075 X19.32 Y79.438
N16080 X20.242 Y79.698
N16085 X21.182 Y79.885
N16090 X22.13 Y80.016
N16095 X22.602 Y79.932
N16100 X23.494 Y79.583
N16105 X24.227 Y78.968
N16110 X24.792 Y78.194
N16115 X25.212 Y77.334
N16120 X25.519 Y76.426
N16125 X25.518 Y75.948
N16130 X25.341 Y75.006
N16135 X24.867 Y74.174
N16140 X24.197 Y73.49
N16145 X23.404 Y72.953
N16150 X22.97 Y72.749
N16155 X22.513 Y72.606
N16160 X22.037 Y72.562
N16165 X21.561 Y72.617
N16170 X20.646 Y72.9
N16175 X20.255 Y73.176
N16180 X20.085 Y73.345
N16185 X19.939 Y73.535
N16190 X19.82 Y73.742
N16195 X19.729 Y73.964
N16200 X19.668 Y74.195
N16205 X19.638 Y74.433
N16210 X19.641 Y74.672
N16215 X19.675 Y74.909
N16220 X19.708 Y75.024
N16225 G3 X19.414 Y75.693 I-0.583 J0.143 F300.
N16230 X18.836 Y74.642 I-0.289 J-0.526 F1000.
N16235 X19.422 Y74.646 I0.289 J0.526
N16240 G1 X32.989 Y82.381
N16245 G3 X33.291 Y82.871 I-0.297 J0.521
N16250 X32.878 Y83.473 I-0.599 J0.031 F300.
N16255 G1 X32.187 Y83.671 F1000.
N16260 X31.31 Y84.055
N16265 X30.602 Y84.7
N16270 X30.077 Y85.501
N16275 X29.701 Y86.382
N16280 X29.439 Y87.303
N16285 X29.258 Y88.243
N16290 X29.136 Y89.193
N16295 X29.054 Y90.147
N16300 X28.999 Y91.104
N16305 X28.962 Y92.061
N16310 X28.938 Y93.018
N16315 X28.922 Y93.975
N16320 X28.911 Y94.933
N16325 X28.904 Y95.891
N16330 X28.899 Y96.848
N16335 X28.896 Y97.806
N16340 X28.893 Y99.722
N16345 X28.891 Y103.552
N16350 X28.892 Y132.283
N16355 Y133.241
N16360 X28.836 Y134.197
N16365 X28.799 Y135.154
N16370 X28.775 Y136.111
N16375 X28.76 Y137.069
N16380 X28.755 Y138.027
N16385 X28.765 Y138.984
N16390 X28.788 Y139.942
N16395 X28.821 Y140.899
N16400 X28.867 Y141.855
N16405 X28.948 Y142.81
N16410 X29.052 Y143.762
N16415 X29.172 Y144.712
N16420 X29.31 Y145.66
N16425 X29.485 Y146.601
N16430 X29.685 Y147.538
N16435 X29.902 Y148.471
N16440 X30.138 Y149.399
N16445 X30.411 Y150.317
N16450 X30.708 Y151.227
N16455 X31.021 Y152.132
N16460 X31.355 Y153.03
N16465 X31.724 Y153.914
N16470 X32.115 Y154.788
N16475 X32.521 Y155.655
N16480 X32.948 Y156.513
N16485 X33.407 Y157.353
N16490 X33.888 Y158.181
N16495 X34.383 Y159.001
N16500 X34.9 Y159.807
N16505 X35.445 Y160.594
N16510 X36.011 Y161.367
N16515 X36.589 Y162.131
N16520 X37.189 Y162.877
N16525 X37.815 Y163.602
N16530 X38.459 Y164.311
N16535 X39.115 Y165.009
N16540 X39.791 Y165.687
N16545 X40.49 Y166.341
N16550 X41.205 Y166.978
N16555 X41.931 Y167.604
N16560 X42.674 Y168.207
N16565 X43.439 Y168.784
N16570 X44.217 Y169.342
N16575 X45.004 Y169.888
N16580 X45.808 Y170.409
N16585 X46.629 Y170.901
N16590 X47.462 Y171.374
N16595 X48.302 Y171.834
N16600 X49.157 Y172.266
N16605 X50.026 Y172.668
N16610 X50.904 Y173.051
N16615 X51.788 Y173.42
N16620 X52.683 Y173.759
N16625 X53.59 Y174.067
N16630 X54.503 Y174.355
N16635 X55.421 Y174.629
N16640 X56.348 Y174.87
N16645 X57.282 Y175.08
N16650 X58.221 Y175.27
N16655 X59.162 Y175.446
N16660 X60.11 Y175.587
N16665 X61.061 Y175.698
N16670 X62.014 Y175.788
N16675 X62.969 Y175.865
N16680 X63.926 Y175.904
N16685 X64.883 Y175.914
N16690 X65.841 Y175.903
N16695 X66.799 Y175.878
N16700 X67.754 Y175.815
N16705 X68.707 Y175.723
N16710 X69.659 Y175.611
N16715 X70.608 Y175.487
N16720 X71.552 Y175.322
N16725 X72.49 Y175.13
N16730 X73.424 Y174.918
N16735 X74.355 Y174.694
N16740 X75.276 Y174.431
N16745 X76.188 Y174.14
N16750 X77.095 Y173.831
N16755 X77.997 Y173.51
N16760 X78.884 Y173.15
N16765 X79.761 Y172.764
N16770 X80.63 Y172.361
N16775 X81.492 Y171.945
N16780 X82.337 Y171.494
N16785 X83.168 Y171.018
N16790 X83.99 Y170.526
N16795 X84.804 Y170.022
N16800 X85.596 Y169.483
N16805 X86.372 Y168.922
N16810 X87.138 Y168.347
N16815 X87.893 Y167.758
N16820 X88.623 Y167.138
N16825 X89.336 Y166.498
N16830 X90.037 Y165.846
N16835 X90.725 Y165.18
N16840 X91.386 Y164.487
N16845 X92.028 Y163.776
N16850 X92.656 Y163.053
N16855 X93.269 Y162.318
N16860 X93.853 Y161.558
N16865 X94.416 Y160.783
N16870 X94.965 Y159.999
N16875 X95.496 Y159.202
N16880 X95.996 Y158.385
N16885 X96.474 Y157.555
N16890 X96.937 Y156.717
N16895 X97.381 Y155.868
N16900 X97.791 Y155.003
N16905 X98.18 Y154.128
N16910 X98.553 Y153.246
N16915 X98.903 Y152.354
N16920 X99.22 Y151.451
N16925 X99.513 Y150.539
N16930 X99.791 Y149.622
N16935 X100.046 Y148.699
N16940 X100.265 Y147.767
N16945 X100.461 Y146.829
N16950 X100.641 Y145.889
N16955 X100.795 Y144.944
N16960 X100.915 Y143.993
N16965 X101.011 Y143.041
N16970 X101.091 Y142.086
N16975 X101.152 Y141.13
N16980 X101.193 Y140.174
N16985 X101.22 Y139.216
N16990 X101.237 Y138.259
N16995 X101.249 Y137.301
N17000 X101.256 Y136.343
N17005 X101.261 Y135.386
N17010 X101.264 Y134.428
N17015 X101.267 Y132.513
N17020 X101.27 Y128.682
N17025 Y108.57
N17030 Y107.613
N17035 X101.256 Y107.374
N17040 X101.24 Y107.072
N17045 X101.224 Y106.733
N17050 X101.208 Y106.345
N17055 X101.192 Y105.893
N17060 X101.175 Y105.351
N17065 X101.159 Y104.677
N17070 X101.143 Y103.787
N17075 X101.131 Y102.83
N17080 X101.123 Y101.872
N17085 X101.118 Y100.914
N17090 X101.115 Y99.957
N17095 X101.111 Y98.041
N17100 X101.109 Y94.21
N17105 X101.108 Y77.57
N17110 X101.105 Y77.092
N17115 X101.1 Y76.732
N17120 G3 X101.556 Y76.162 I0.6 J0.012 F300.
N17125 G1 X101.647 Y76.139 Z-2.993
N17130 X101.736 Y76.117 Z-2.971
N17135 X101.82 Y76.096 Z-2.935
N17140 X101.898 Y76.077 Z-2.885
N17145 X101.968 Y76.06 Z-2.824
N17150 X102.027 Y76.045 Z-2.753
N17155 X102.075 Y76.034 Z-2.672
N17160 X102.11 Y76.025 Z-2.585
N17165 X102.131 Y76.02 Z-2.494
N17170 X102.138 Y76.018 Z-2.4
N17175 G0 Z5.
N17180 X27.875 Y88.243
N17185 Z-1.8
N17190 G1 Z-2.4 F300.
N17195 X27.882 Z-2.494
N17200 X27.904 Y88.242 Z-2.585
N17205 X27.94 Y88.239 Z-2.672
N17210 X27.989 Y88.236 Z-2.753
N17215 X28.05 Y88.233 Z-2.824
N17220 X28.122 Y88.228 Z-2.885
N17225 X28.202 Y88.223 Z-2.935
N17230 X28.289 Y88.218 Z-2.971
N17235 X28.38 Y88.213 Z-2.993
N17240 X28.474 Y88.207 Z-3.
N17245 G3 X29.258 Y88.243 I0.223 J3.639
N17250 G1 X29.494 Y88.289 F1000.
N17255 X29.59 Y88.404
N17260 X29.677 Y88.526
N17265 X29.756 Y88.653
N17270 X29.829 Y88.784
N17275 X29.896 Y88.918
N17280 X29.959 Y89.055
N17285 X30.016 Y89.193
N17290 X30.069 Y89.333
N17295 X30.119 Y89.475
N17300 X30.165 Y89.618
N17305 X30.208 Y89.761
N17310 X30.248 Y89.906
N17315 X30.285 Y90.051
N17320 X30.32 Y90.197
N17325 X30.353 Y90.344
N17330 X30.384 Y90.49
N17335 X30.412 Y90.638
N17340 X30.439 Y90.785
N17345 X30.464 Y90.933
N17350 X30.487 Y91.081
N17355 X30.509 Y91.23
N17360 X30.53 Y91.378
N17365 X30.549 Y91.527
N17370 X30.567 Y91.676
N17375 X30.584 Y91.825
N17380 X30.615 Y92.123
N17385 X30.644 Y92.438
N17390 X30.658 Y92.614
N17395 X30.673 Y92.803
N17400 X30.687 Y93.006
N17405 X30.701 Y93.229
N17410 X30.716 Y93.479
N17415 X30.731 Y93.755
N17420 X30.745 Y94.062
N17425 X30.76 Y94.422
N17430 X30.775 Y94.837
N17435 X30.79 Y95.336
N17440 X30.805 Y95.957
N17445 X30.82 Y96.786
N17450 X30.832 Y97.743
N17455 X30.84 Y98.701
N17460 X30.844 Y99.659
N17465 X30.847 Y100.616
N17470 X30.851 Y102.532
N17475 X30.852 Y107.32
N17480 X30.854 Y130.784
N17485 X30.852 Y131.09
N17490 X30.848 Y131.434
N17495 X30.836 Y132.137
N17500 X30.814 Y133.094
N17505 X30.79 Y134.051
N17510 X30.768 Y135.009
N17515 X30.751 Y135.966
N17520 X30.742 Y136.924
N17525 X30.743 Y137.882
N17530 X30.755 Y138.839
N17535 X30.722 Y139.796
N17540 X30.727 Y140.754
N17545 X30.766 Y141.711
N17550 X30.832 Y142.666
N17555 X30.925 Y143.62
N17560 X31.047 Y144.57
N17565 X31.197 Y145.515
N17570 X31.371 Y146.457
N17575 X31.571 Y147.394
N17580 X31.799 Y148.324
N17585 X32.053 Y149.247
N17590 X32.331 Y150.164
N17595 X32.634 Y151.072
N17600 X32.964 Y151.971
N17605 X33.319 Y152.861
N17610 X33.696 Y153.741
N17615 X34.098 Y154.61
N17620 X34.526 Y155.467
N17625 X34.977 Y156.312
N17630 X35.449 Y157.145
N17635 X35.946 Y157.964
N17640 X36.467 Y158.767
N17645 X37.009 Y159.557
N17650 X37.572 Y160.332
N17655 X38.159 Y161.089
N17660 X38.766 Y161.829
N17665 X39.392 Y162.554
N17670 X40.039 Y163.26
N17675 X40.707 Y163.947
N17680 X41.392 Y164.615
N17685 X42.095 Y165.266
N17690 X42.817 Y165.896
N17695 X43.556 Y166.504
N17700 X44.312 Y167.093
N17705 X45.082 Y167.661
N17710 X45.87 Y168.207
N17715 X46.672 Y168.729
N17720 X47.488 Y169.231
N17725 X48.317 Y169.71
N17730 X49.161 Y170.163
N17735 X50.017 Y170.592
N17740 X50.884 Y171.
N17745 X51.762 Y171.383
N17750 X52.651 Y171.738
N17755 X53.549 Y172.07
N17760 X54.456 Y172.379
N17765 X55.371 Y172.66
N17770 X56.294 Y172.915
N17775 X57.224 Y173.145
N17780 X58.16 Y173.35
N17785 X59.101 Y173.528
N17790 X60.047 Y173.678
N17795 X60.996 Y173.804
N17800 X61.948 Y173.905
N17805 X62.903 Y173.976
N17810 X63.86 Y174.02
N17815 X64.817 Y174.041
N17820 X65.775 Y174.034
N17825 X66.732 Y173.997
N17830 X67.688 Y173.935
N17835 X68.642 Y173.848
N17840 X69.592 Y173.733
N17845 X70.539 Y173.59
N17850 X71.482 Y173.422
N17855 X72.42 Y173.229
N17860 X73.352 Y173.009
N17865 X74.277 Y172.761
N17870 X75.196 Y172.49
N17875 X76.106 Y172.194
N17880 X77.008 Y171.87
N17885 X77.899 Y171.52
N17890 X78.782 Y171.15
N17895 X79.654 Y170.753
N17900 X80.514 Y170.331
N17905 X81.361 Y169.885
N17910 X82.198 Y169.419
N17915 X83.02 Y168.927
N17920 X83.826 Y168.411
N17925 X84.619 Y167.874
N17930 X85.398 Y167.316
N17935 X86.159 Y166.735
N17940 X86.903 Y166.132
N17945 X87.631 Y165.51
N17950 X88.343 Y164.869
N17955 X89.035 Y164.206
N17960 X89.707 Y163.525
N17965 X90.363 Y162.826
N17970 X90.998 Y162.11
N17975 X91.611 Y161.374
N17980 X92.204 Y160.622
N17985 X92.778 Y159.855
N17990 X93.329 Y159.072
N17995 X93.856 Y158.272
N18000 X94.362 Y157.459
N18005 X94.847 Y156.633
N18010 X95.306 Y155.793
N18015 X95.741 Y154.94
N18020 X96.153 Y154.075
N18025 X96.542 Y153.2
N18030 X96.904 Y152.313
N18035 X97.241 Y151.417
N18040 X97.555 Y150.512
N18045 X97.844 Y149.599
N18050 X98.105 Y148.678
N18055 X98.341 Y147.75
N18060 X98.553 Y146.816
N18065 X98.737 Y145.876
N18070 X98.894 Y144.931
N18075 X99.026 Y143.982
N18080 X99.135 Y143.031
N18085 X99.222 Y142.077
N18090 X99.289 Y141.122
N18095 X99.34 Y140.166
N18100 X99.377 Y139.209
N18105 X99.404 Y138.251
N18110 X99.424 Y137.294
N18115 X99.437 Y136.336
N18120 X99.447 Y135.379
N18125 X99.454 Y134.421
N18130 X99.459 Y133.463
N18135 X99.463 Y132.505
N18140 X99.466 Y130.59
N18145 X99.469 Y126.759
N18150 X99.47 Y109.521
N18155 X99.454 Y108.563
N18160 X99.407 Y106.648
N18165 X99.386 Y105.691
N18170 X99.367 Y104.733
N18175 X99.352 Y103.776
N18180 X99.34 Y102.818
N18185 X99.332 Y101.861
N18190 X99.325 Y100.903
N18195 X99.32 Y99.945
N18200 X99.314 Y98.03
N18205 X99.312 Y97.072
N18210 X99.309 Y94.199
N18215 X99.308 Y89.411
N18220 G3 X99.773 Y88.847 I0.6 J0.021 F300.
N18225 G1 X99.864 Y88.826 Z-2.993
N18230 X99.954 Y88.805 Z-2.971
N18235 X100.038 Y88.786 Z-2.935
N18240 X100.116 Y88.767 Z-2.885
N18245 X100.186 Y88.751 Z-2.824
N18250 X100.246 Y88.738 Z-2.753
N18255 X100.294 Y88.727 Z-2.672
N18260 X100.329 Y88.718 Z-2.585
N18265 X100.35 Y88.713 Z-2.494
N18270 X100.357 Y88.712 Z-2.4
N18275 G0 Z5.
N18280 X29.313 Y92.817
N18285 Z-1.8
N18290 G1 Z-2.4 F300.
N18295 X29.32 Y92.815 Z-2.494
N18300 X29.341 Y92.807 Z-2.585
N18305 X29.375 Y92.795 Z-2.672
N18310 X29.421 Y92.779 Z-2.753
N18315 X29.479 Y92.759 Z-2.824
N18320 X29.547 Y92.735 Z-2.885
N18325 X29.622 Y92.708 Z-2.935
N18330 X29.704 Y92.679 Z-2.971
N18335 X29.791 Y92.649 Z-2.993
N18340 X29.879 Y92.618 Z-3.
N18345 G3 X30.644 Y92.438 I1.212 J3.438
N18350 G1 X30.763 Y92.427 F1000.
N18355 X30.89 Y92.508
N18360 X31.005 Y92.603
N18365 X31.112 Y92.708
N18370 X31.211 Y92.821
N18375 X31.304 Y92.939
N18380 X31.39 Y93.062
N18385 X31.47 Y93.188
N18390 X31.546 Y93.318
N18395 X31.617 Y93.45
N18400 X31.683 Y93.585
N18405 X31.746 Y93.721
N18410 X31.805 Y93.859
N18415 X31.86 Y93.998
N18420 X31.912 Y94.139
N18425 X31.961 Y94.281
N18430 X32.008 Y94.424
N18435 X32.051 Y94.567
N18440 X32.093 Y94.711
N18445 X32.131 Y94.856
N18450 X32.168 Y95.002
N18455 X32.203 Y95.147
N18460 X32.236 Y95.294
N18465 X32.267 Y95.441
N18470 X32.296 Y95.588
N18475 X32.324 Y95.735
N18480 X32.35 Y95.883
N18485 X32.375 Y96.031
N18490 X32.398 Y96.179
N18495 X32.42 Y96.327
N18500 X32.441 Y96.476
N18505 X32.461 Y96.625
N18510 X32.48 Y96.773
N18515 X32.514 Y97.071
N18520 X32.547 Y97.384
N18525 X32.563 Y97.556
N18530 X32.579 Y97.74
N18535 X32.596 Y97.937
N18540 X32.612 Y98.148
N18545 X32.628 Y98.378
N18550 X32.645 Y98.629
N18555 X32.661 Y98.904
N18560 X32.678 Y99.209
N18565 X32.694 Y99.552
N18570 X32.711 Y99.943
N18575 X32.727 Y100.396
N18580 X32.744 Y100.937
N18585 X32.76 Y101.604
N18590 X32.777 Y102.476
N18595 X32.79 Y103.434
N18600 X32.798 Y104.391
N18605 X32.804 Y105.349
N18610 X32.807 Y106.307
N18615 X32.812 Y108.222
N18620 X32.814 Y111.095
N18625 X32.815 Y124.503
N18630 X32.816 Y128.334
N18635 X32.815 Y129.291
N18640 X32.809 Y130.249
N18645 X32.798 Y131.207
N18650 X32.783 Y132.164
N18655 X32.748 Y134.079
N18660 X32.733 Y135.037
N18665 X32.724 Y135.995
N18670 X32.722 Y136.473
N18675 X32.716 Y137.431
N18680 X32.706 Y138.389
N18685 X32.707 Y139.346
N18690 X32.727 Y140.304
N18695 X32.768 Y141.261
N18700 X32.834 Y142.216
N18705 X32.927 Y143.169
N18710 X32.991 Y144.125
N18715 X33.099 Y145.076
N18720 X33.249 Y146.022
N18725 X33.434 Y146.962
N18730 X33.651 Y147.895
N18735 X33.9 Y148.82
N18740 X34.178 Y149.736
N18745 X34.485 Y150.643
N18750 X34.818 Y151.541
N18755 X35.179 Y152.428
N18760 X35.566 Y153.304
N18765 X35.979 Y154.168
N18770 X36.417 Y155.02
N18775 X36.88 Y155.858
N18780 X37.368 Y156.682
N18785 X37.88 Y157.492
N18790 X38.415 Y158.286
N18795 X38.975 Y159.063
N18800 X39.557 Y159.824
N18805 X40.16 Y160.567
N18810 X40.787 Y161.292
N18815 X41.434 Y161.997
N18820 X42.102 Y162.684
N18825 X42.79 Y163.35
N18830 X43.497 Y163.995
N18835 X44.223 Y164.62
N18840 X44.967 Y165.223
N18845 X45.729 Y165.804
N18850 X46.507 Y166.362
N18855 X47.301 Y166.897
N18860 X48.111 Y167.409
N18865 X48.935 Y167.896
N18870 X49.774 Y168.359
N18875 X50.626 Y168.796
N18880 X51.49 Y169.209
N18885 X52.366 Y169.595
N18890 X53.254 Y169.956
N18895 X54.151 Y170.29
N18900 X55.058 Y170.597
N18905 X55.974 Y170.876
N18910 X56.898 Y171.129
N18915 X57.829 Y171.355
N18920 X58.766 Y171.552
N18925 X59.708 Y171.722
N18930 X60.655 Y171.865
N18935 X61.606 Y171.979
N18940 X62.56 Y172.066
N18945 X63.516 Y172.125
N18950 X64.473 Y172.155
N18955 X65.431 Y172.156
N18960 X66.388 Y172.13
N18965 X67.344 Y172.075
N18970 X68.298 Y171.992
N18975 X69.25 Y171.88
N18980 X70.197 Y171.741
N18985 X71.14 Y171.574
N18990 X72.077 Y171.378
N18995 X73.009 Y171.155
N19000 X73.933 Y170.905
N19005 X74.85 Y170.627
N19010 X75.757 Y170.322
N19015 X76.656 Y169.99
N19020 X77.545 Y169.633
N19025 X78.422 Y169.249
N19030 X79.288 Y168.84
N19035 X80.141 Y168.405
N19040 X80.981 Y167.946
N19045 X81.807 Y167.461
N19050 X82.619 Y166.953
N19055 X83.415 Y166.42
N19060 X84.195 Y165.864
N19065 X84.958 Y165.286
N19070 X85.704 Y164.685
N19075 X86.432 Y164.062
N19080 X87.14 Y163.418
N19085 X87.83 Y162.753
N19090 X88.499 Y162.068
N19095 X89.148 Y161.364
N19100 X89.776 Y160.641
N19105 X90.382 Y159.9
N19110 X90.967 Y159.141
N19115 X91.528 Y158.365
N19120 X92.067 Y157.573
N19125 X92.582 Y156.766
N19130 X93.072 Y155.943
N19135 X93.539 Y155.107
N19140 X93.98 Y154.257
N19145 X94.396 Y153.394
N19150 X94.787 Y152.52
N19155 X95.151 Y151.634
N19160 X95.489 Y150.738
N19165 X95.799 Y149.832
N19170 X96.083 Y148.917
N19175 X96.341 Y147.995
N19180 X96.57 Y147.065
N19185 X96.772 Y146.129
N19190 X96.947 Y145.187
N19195 X97.097 Y144.241
N19200 X97.221 Y143.292
N19205 X97.324 Y142.34
N19210 X97.405 Y141.385
N19215 X97.47 Y140.43
N19220 X97.52 Y139.474
N19225 X97.559 Y138.517
N19230 X97.588 Y137.559
N19235 X97.61 Y136.602
N19240 X97.627 Y135.644
N19245 X97.639 Y134.687
N19250 X97.647 Y133.729
N19255 X97.654 Y132.771
N19260 X97.658 Y131.814
N19265 X97.664 Y129.898
N19270 X97.668 Y127.025
N19275 X97.67 Y121.279
N19280 Y111.702
N19285 X97.667 Y110.744
N19290 X97.657 Y109.787
N19295 X97.643 Y108.829
N19300 X97.59 Y105.957
N19305 X97.575 Y104.999
N19310 X97.561 Y104.041
N19315 X97.549 Y103.084
N19320 X97.54 Y102.126
N19325 X97.532 Y101.169
N19330 X97.526 Y100.211
N19335 X97.522 Y99.253
N19340 X97.515 Y97.338
N19345 X97.511 Y94.944
N19350 X97.51 Y93.627
N19355 G3 X97.974 Y93.063 I0.6 J0.021 F300.
N19360 G1 X98.066 Y93.042 Z-2.993
N19365 X98.155 Y93.021 Z-2.971
N19370 X98.24 Y93.001 Z-2.935
N19375 X98.318 Y92.983 Z-2.885
N19380 X98.388 Y92.967 Z-2.824
N19385 X98.447 Y92.953 Z-2.753
N19390 X98.495 Y92.942 Z-2.672
N19395 X98.53 Y92.934 Z-2.585
N19400 X98.552 Y92.929 Z-2.494
N19405 X98.559 Y92.927 Z-2.4
N19410 G0 Z5.
N19415 X30.967 Y95.845
N19420 Z-1.8
N19425 G1 Z-2.4 F300.
N19430 X30.974 Y95.842 Z-2.494
N19435 X30.993 Y95.832 Z-2.585
N19440 X31.025 Y95.816 Z-2.672
N19445 X31.069 Y95.793 Z-2.753
N19450 X31.124 Y95.766 Z-2.824
N19455 X31.187 Y95.733 Z-2.885
N19460 X31.259 Y95.697 Z-2.935
N19465 X31.336 Y95.657 Z-2.971
N19470 X31.418 Y95.616 Z-2.993
N19475 X31.502 Y95.573 Z-3.
N19480 G3 X32.236 Y95.294 I1.655 J3.248
N19485 G1 X32.353 Y95.268 F1000.
N19490 X32.487 Y95.333
N19495 X32.612 Y95.416
N19500 X32.729 Y95.51
N19505 X32.838 Y95.613
N19510 X32.941 Y95.723
N19515 X33.037 Y95.838
N19520 X33.128 Y95.957
N19525 X33.213 Y96.081
N19530 X33.294 Y96.207
N19535 X33.37 Y96.336
N19540 X33.442 Y96.468
N19545 X33.51 Y96.602
N19550 X33.574 Y96.737
N19555 X33.635 Y96.874
N19560 X33.693 Y97.013
N19565 X33.747 Y97.152
N19570 X33.799 Y97.293
N19575 X33.848 Y97.435
N19580 X33.894 Y97.578
N19585 X33.938 Y97.721
N19590 X33.98 Y97.865
N19595 X34.02 Y98.01
N19600 X34.058 Y98.155
N19605 X34.093 Y98.301
N19610 X34.127 Y98.447
N19615 X34.16 Y98.593
N19620 X34.19 Y98.74
N19625 X34.219 Y98.887
N19630 X34.247 Y99.035
N19635 X34.273 Y99.182
N19640 X34.298 Y99.33
N19645 X34.322 Y99.478
N19650 X34.344 Y99.627
N19655 X34.366 Y99.775
N19660 X34.386 Y99.924
N19665 X34.424 Y100.221
N19670 X34.459 Y100.532
N19675 X34.477 Y100.702
N19680 X34.495 Y100.876
N19685 X34.512 Y101.062
N19690 X34.53 Y101.262
N19695 X34.547 Y101.478
N19700 X34.565 Y101.711
N19705 X34.583 Y101.958
N19710 X34.6 Y102.23
N19715 X34.618 Y102.533
N19720 X34.635 Y102.862
N19725 X34.653 Y103.235
N19730 X34.671 Y103.662
N19735 X34.688 Y104.153
N19740 X34.706 Y104.744
N19745 X34.723 Y105.477
N19750 X34.74 Y106.435
N19755 X34.752 Y107.392
N19760 X34.76 Y108.35
N19765 X34.765 Y109.308
N19770 X34.769 Y110.265
N19775 X34.773 Y112.181
N19780 X34.776 Y115.054
N19785 X34.777 Y125.589
N19790 Y127.504
N19795 X34.775 Y128.462
N19800 X34.77 Y129.419
N19805 X34.761 Y130.377
N19810 X34.749 Y131.335
N19815 X34.721 Y133.25
N19820 X34.709 Y134.207
N19825 X34.69 Y136.123
N19830 X34.683 Y137.08
N19835 X34.682 Y138.038
N19840 X34.693 Y138.996
N19845 X34.721 Y139.953
N19850 X34.768 Y140.91
N19855 X34.823 Y141.866
N19860 X34.893 Y142.821
N19865 X34.989 Y143.774
N19870 X35.115 Y144.723
N19875 X35.274 Y145.667
N19880 X35.41 Y146.615
N19885 X35.597 Y147.555
N19890 X35.827 Y148.484
N19895 X36.095 Y149.404
N19900 X36.399 Y150.312
N19905 X36.736 Y151.208
N19910 X37.103 Y152.093
N19915 X37.5 Y152.964
N19920 X37.925 Y153.823
N19925 X38.378 Y154.667
N19930 X38.857 Y155.496
N19935 X39.363 Y156.309
N19940 X39.894 Y157.106
N19945 X40.45 Y157.886
N19950 X41.031 Y158.647
N19955 X41.636 Y159.39
N19960 X42.263 Y160.113
N19965 X42.914 Y160.816
N19970 X43.586 Y161.498
N19975 X44.279 Y162.159
N19980 X44.993 Y162.798
N19985 X45.726 Y163.414
N19990 X46.478 Y164.007
N19995 X47.248 Y164.576
N20000 X48.036 Y165.121
N20005 X48.84 Y165.641
N20010 X49.66 Y166.136
N20015 X50.495 Y166.605
N20020 X51.344 Y167.047
N20025 X52.207 Y167.463
N20030 X53.083 Y167.851
N20035 X53.97 Y168.211
N20040 X54.869 Y168.543
N20045 X55.777 Y168.846
N20050 X56.695 Y169.12
N20055 X57.62 Y169.366
N20060 X58.553 Y169.582
N20065 X59.492 Y169.77
N20070 X60.437 Y169.927
N20075 X61.386 Y170.056
N20080 X62.339 Y170.155
N20085 X63.294 Y170.224
N20090 X64.251 Y170.263
N20095 X65.208 Y170.272
N20100 X66.166 Y170.251
N20105 X67.122 Y170.2
N20110 X68.076 Y170.119
N20115 X69.028 Y170.008
N20120 X69.975 Y169.866
N20125 X70.917 Y169.695
N20130 X71.853 Y169.494
N20135 X72.783 Y169.264
N20140 X73.705 Y169.005
N20145 X74.618 Y168.717
N20150 X75.522 Y168.401
N20155 X76.416 Y168.056
N20160 X77.299 Y167.684
N20165 X78.169 Y167.285
N20170 X79.027 Y166.859
N20175 X79.87 Y166.406
N20180 X80.7 Y165.927
N20185 X81.513 Y165.422
N20190 X82.311 Y164.891
N20195 X83.091 Y164.336
N20200 X83.853 Y163.756
N20205 X84.597 Y163.152
N20210 X85.321 Y162.525
N20215 X86.025 Y161.876
N20220 X86.708 Y161.205
N20225 X87.37 Y160.513
N20230 X88.01 Y159.801
N20235 X88.628 Y159.069
N20240 X89.222 Y158.318
N20245 X89.793 Y157.549
N20250 X90.34 Y156.763
N20255 X90.861 Y155.96
N20260 X91.357 Y155.14
N20265 X91.828 Y154.306
N20270 X92.272 Y153.458
N20275 X92.688 Y152.595
N20280 X93.077 Y151.72
N20285 X93.439 Y150.833
N20290 X93.772 Y149.935
N20295 X94.077 Y149.027
N20300 X94.353 Y148.11
N20305 X94.6 Y147.185
N20310 X94.819 Y146.253
N20315 X95.01 Y145.314
N20320 X95.175 Y144.371
N20325 X95.314 Y143.423
N20330 X95.43 Y142.473
N20335 X95.525 Y141.52
N20340 X95.602 Y140.565
N20345 X95.663 Y139.61
N20350 X95.712 Y138.653
N20355 X95.75 Y137.696
N20360 X95.78 Y136.739
N20365 X95.802 Y135.781
N20370 X95.82 Y134.824
N20375 X95.833 Y133.866
N20380 X95.843 Y132.909
N20385 X95.85 Y131.951
N20390 X95.855 Y130.993
N20395 X95.859 Y130.036
N20400 X95.862 Y129.078
N20405 X95.864 Y128.12
N20410 X95.851 Y127.881
N20415 X95.835 Y127.572
N20420 X95.819 Y127.224
N20425 X95.803 Y126.824
N20430 X95.787 Y126.354
N20435 X95.771 Y125.787
N20440 X95.755 Y125.072
N20445 X95.739 Y124.114
N20450 X95.728 Y123.156
N20455 X95.721 Y122.199
N20460 X95.717 Y121.241
N20465 X95.714 Y120.283
N20470 X95.71 Y118.368
N20475 X95.708 Y114.537
N20480 Y113.579
N20485 X95.707 Y112.622
N20490 X95.703 Y111.664
N20495 X95.696 Y110.706
N20500 X95.685 Y109.749
N20505 X95.672 Y108.791
N20510 X95.627 Y105.918
N20515 X95.614 Y104.961
N20520 X95.602 Y104.003
N20525 X95.591 Y103.046
N20530 X95.582 Y102.088
N20535 X95.574 Y101.13
N20540 X95.568 Y100.173
N20545 X95.563 Y99.215
N20550 X95.557 Y97.419
N20555 X95.555 Y96.94
N20560 X95.523 Y96.703
N20565 X95.459 Y96.472
N20570 X95.366 Y96.252
N20575 X95.244 Y96.046
N20580 X95.095 Y95.858
N20585 X94.923 Y95.691
N20590 X94.731 Y95.549
N20595 X94.521 Y95.434
N20600 X94.298 Y95.347
N20605 X94.065 Y95.291
N20610 X93.827 Y95.266
N20615 X93.588 Y95.273
N20620 X93.351 Y95.312
N20625 X93.122 Y95.381
N20630 X92.905 Y95.481
N20635 X92.094 Y95.991
N20640 X91.455 Y96.704
N20645 X91.123 Y97.071
N20650 X90.821 Y97.4
N20655 X90.605 Y97.633
N20660 X90.359 Y97.896
N20665 X90.135 Y98.132
N20670 X89.958 Y98.316
N20675 X89.761 Y98.518
N20680 X89.541 Y98.743
N20685 X89.375 Y98.91
N20690 X89.21 Y99.073
N20695 X89.029 Y99.251
N20700 X88.829 Y99.446
N20705 X88.667 Y99.601
N20710 X88.513 Y99.747
N20715 X88.345 Y99.905
N20720 X88.161 Y100.076
N20725 X87.982 Y100.239
N20730 X87.838 Y100.37
N20735 X87.68 Y100.511
N20740 X87.509 Y100.663
N20745 X87.32 Y100.828
N20750 X87.167 Y100.96
N20755 X87.02 Y101.086
N20760 X86.86 Y101.221
N20765 X86.685 Y101.367
N20770 X86.497 Y101.522
N20775 X86.355 Y101.638
N20780 X86.204 Y101.759
N20785 X86.041 Y101.889
N20790 X85.863 Y102.029
N20795 X85.68 Y102.171
N20800 X85.537 Y102.281
N20805 X85.384 Y102.397
N20810 X85.218 Y102.521
N20815 X85.037 Y102.655
N20820 X84.856 Y102.787
N20825 X84.712 Y102.891
N20830 X84.557 Y103.002
N20835 X84.389 Y103.121
N20840 X84.206 Y103.248
N20845 X84.024 Y103.373
N20850 X83.878 Y103.472
N20855 X83.722 Y103.577
N20860 X83.552 Y103.689
N20865 X83.368 Y103.81
N20870 X83.183 Y103.929
N20875 X83.036 Y104.023
N20880 X82.878 Y104.122
N20885 X82.707 Y104.229
N20890 X82.521 Y104.342
N20895 X82.331 Y104.457
N20900 X82.182 Y104.546
N20905 X82.022 Y104.641
N20910 X81.85 Y104.741
N20915 X81.663 Y104.848
N20920 X81.467 Y104.959
N20925 X81.316 Y105.044
N20930 X81.154 Y105.133
N20935 X80.98 Y105.227
N20940 X80.791 Y105.328
N20945 X80.59 Y105.434
N20950 X80.436 Y105.515
N20955 X80.273 Y105.598
N20960 X80.098 Y105.687
N20965 X79.908 Y105.782
N20970 X79.702 Y105.883
N20975 X79.543 Y105.96
N20980 X79.379 Y106.038
N20985 X79.203 Y106.121
N20990 X79.011 Y106.21
N20995 X78.803 Y106.305
N21000 X78.638 Y106.379
N21005 X78.473 Y106.452
N21010 X78.295 Y106.53
N21015 X78.102 Y106.612
N21020 X77.893 Y106.7
N21025 X77.721 Y106.772
N21030 X77.554 Y106.84
N21035 X77.375 Y106.912
N21040 X77.181 Y106.988
N21045 X76.97 Y107.07
N21050 X76.792 Y107.138
N21055 X76.624 Y107.201
N21060 X76.443 Y107.267
N21065 X76.248 Y107.338
N21070 X76.036 Y107.413
N21075 X75.851 Y107.477
N21080 X75.682 Y107.535
