%
(BORE)
(T1  D=6. CR=0. - ZMIN=-20. - FLAT END MILL)
N10 G90 G94 G17 G91.1
N15 G21
N20 G53 G0 Z0.
(BORE1)
N25 M9
N30 T1 M6
N35 S22000 M3
N40 G54
N45 G0 X85. Y74.4
N50 G43 Z15. H1
N55 G0 Z-4.
N60 G1 Z-5.4 F300.
N65 G18 G2 X85.6 Z-6. I0.6 K0.
N70 G1 X85.9
N75 G17 G3 X86.5 Y75. I0. J0.6
N80 X43.5 Z-6.5 I-21.5 J0. F1000.
N85 X86.5 Z-7. I21.5 J0.
N90 X43.5 Z-7.5 I-21.5 J0.
N95 X86.5 Z-8. I21.5 J0.
N100 X43.5 Z-8.5 I-21.5 J0.
N105 X86.5 Z-9. I21.5 J0.
N110 X43.5 Z-9.5 I-21.5 J0.
N115 X86.5 Z-10. I21.5 J0.
N120 X43.5 Z-10.5 I-21.5 J0.
N125 X86.5 Z-11. I21.5 J0.
N130 X43.5 Z-11.5 I-21.5 J0.
N135 X86.5 Z-12. I21.5 J0.
N140 X43.5 Z-12.5 I-21.5 J0.
N145 X86.5 Z-13. I21.5 J0.
N150 X43.5 Z-13.5 I-21.5 J0.
N155 X86.5 Z-14. I21.5 J0.
N160 X43.5 Z-14.5 I-21.5 J0.
N165 X86.5 Z-15. I21.5 J0.
N170 X43.5 Z-15.5 I-21.5 J0.
N175 X86.5 Z-16. I21.5 J0.
N180 X43.5 Z-16.5 I-21.5 J0.
N185 X86.5 Z-17. I21.5 J0.
N190 X43.5 Z-17.5 I-21.5 J0.
N195 X86.5 Z-18. I21.5 J0.
N200 X43.5 Z-18.5 I-21.5 J0.
N205 X86.5 Z-19. I21.5 J0.
N210 X43.5 Z-19.5 I-21.5 J0.
N215 X86.5 Z-20. I21.5 J0.
N220 X43.5 I-21.5 J0.
N225 X86.5 I21.5 J0.
N230 X85.9 Y75.6 I-0.6 J0. F300.
N235 G1 X85.6
N240 G18 G3 X85. Z-19.4 I0. K0.6
N245 G0 Z5.
N250 X81.158 Y135.297
N255 Z2.
N260 G1 Z0.6 F300.
N265 X81.166 Y135.295 Z0.506
N270 X81.187 Y135.29 Z0.415
N275 X81.222 Y135.282 Z0.328
N280 X81.27 Y135.27 Z0.247
N285 X81.329 Y135.256 Z0.176
N290 X81.399 Y135.24 Z0.115
N295 X81.477 Y135.221 Z0.065
N300 X81.562 Y135.201 Z0.029
N305 X81.651 Y135.18 Z0.007
N310 X81.742 Y135.158 Z0.
N315 X82.034 Y135.089
N320 G17 G3 X82.756 Y135.534 I0.139 J0.584
N325 X47.244 Y143.966 Z-0.5 I-17.756 J4.216 F1000.
N330 X82.756 Y135.534 Z-1. I17.756 J-4.216
N335 X47.244 Y143.966 Z-1.5 I-17.756 J4.216
N340 X82.756 Y135.534 Z-2. I17.756 J-4.216
N345 X47.244 Y143.966 Z-2.5 I-17.756 J4.216
N350 X82.756 Y135.534 Z-3. I17.756 J-4.216
N355 X47.244 Y143.966 Z-3.5 I-17.756 J4.216
N360 X82.756 Y135.534 Z-4. I17.756 J-4.216
N365 X47.244 Y143.966 Z-4.5 I-17.756 J4.216
N370 X82.756 Y135.534 Z-5. I17.756 J-4.216
N375 X47.244 Y143.966 Z-5.5 I-17.756 J4.216
N380 X82.756 Y135.534 Z-6. I17.756 J-4.216
N385 X47.244 Y143.966 I-17.756 J4.216
N390 X82.756 Y135.534 I17.756 J-4.216
N395 X82.311 Y136.257 I-0.584 J0.139 F300.
N400 G1 X82.019 Y136.326
N405 X81.928 Y136.348 Z-5.993
N410 X81.839 Y136.369 Z-5.971
N415 X81.754 Y136.389 Z-5.935
N420 X81.676 Y136.407 Z-5.885
N425 X81.607 Y136.424 Z-5.824
N430 X81.547 Y136.438 Z-5.753
N435 X81.499 Y136.449 Z-5.672
N440 X81.464 Y136.458 Z-5.585
N445 X81.443 Y136.463 Z-5.494
N450 X81.436 Y136.465 Z-5.4
N455 G0 Z5.
N460 X93.111 Y133.693
N465 Z2.
N470 G1 Z0.6 F300.
N475 X93.104 Y133.694 Z0.506
N480 X93.082 Y133.699 Z0.415
N485 X93.047 Y133.708 Z0.328
N490 X93. Y133.719 Z0.247
N495 X92.94 Y133.733 Z0.176
N500 X92.87 Y133.75 Z0.115
N505 X92.792 Y133.768 Z0.065
N510 X92.708 Y133.788 Z0.029
N515 X92.619 Y133.809 Z0.007
N520 X92.527 Y133.831 Z0.
N525 X92.235 Y133.9
N530 G3 X91.513 Y133.455 I-0.139 J-0.584
N535 G2 X38.487 Y146.045 Z-0.5 I-26.513 J6.295 F1000.
N540 X91.513 Y133.455 Z-1. I26.513 J-6.295
N545 X38.487 Y146.045 Z-1.5 I-26.513 J6.295
N550 X91.513 Y133.455 Z-2. I26.513 J-6.295
N555 X38.487 Y146.045 Z-2.5 I-26.513 J6.295
N560 X91.513 Y133.455 Z-3. I26.513 J-6.295
N565 X38.487 Y146.045 Z-3.5 I-26.513 J6.295
N570 X91.513 Y133.455 Z-4. I26.513 J-6.295
N575 X38.487 Y146.045 Z-4.5 I-26.513 J6.295
N580 X91.513 Y133.455 Z-5. I26.513 J-6.295
N585 X38.487 Y146.045 Z-5.5 I-26.513 J6.295
N590 X91.513 Y133.455 Z-6. I26.513 J-6.295
N595 X38.487 Y146.045 I-26.513 J6.295
N600 X91.513 Y133.455 I26.513 J-6.295
N605 G3 X91.958 Y132.733 I0.584 J-0.139 F300.
N610 G1 X92.25 Y132.664
N615 X92.341 Y132.642 Z-5.993
N620 X92.43 Y132.621 Z-5.971
N625 X92.515 Y132.601 Z-5.935
N630 X92.593 Y132.582 Z-5.885
N635 X92.663 Y132.566 Z-5.824
N640 X92.722 Y132.551 Z-5.753
N645 X92.77 Y132.54 Z-5.672
N650 X92.805 Y132.532 Z-5.585
N655 X92.827 Y132.527 Z-5.494
N660 X92.834 Y132.525 Z-5.4
N665 G0 Z15.
N670 G53 Z0.
N675 M30
%
