%
(1001)
(T1  D=6. CR=0. - ZMIN=-3. - FLAT END MILL)
N10 G90 G94 G17 G91.1
N15 G21
N20 G53 G0 Z0.
(2D CONTOUR2)
N25 M9
N30 T1 M6
N35 S22000 M3
N40 G54
N45 G0 X122.03 Y528.818
N50 G43 Z15. H1
N55 G0 Z5.
N60 G1 Z3. F150.
N65 Z-0.9
N70 X122.035 Y528.813 Z-0.994
N75 X122.051 Y528.798 Z-1.085
N80 X122.076 Y528.772 Z-1.172
N85 X122.111 Y528.737 Z-1.253
N90 X122.154 Y528.694 Z-1.324
N95 X122.205 Y528.643 Z-1.385
N100 X122.262 Y528.587 Z-1.435
N105 X122.323 Y528.525 Z-1.471
N110 X122.388 Y528.46 Z-1.493
N115 X122.454 Y528.394 Z-1.5
N120 X122.879 Y527.97 F300.
N125 G2 Y527.121 I-0.424 J-0.424
N130 G3 X122. Y525. I2.121 J-2.121 F1200.
N135 G1 Y475.
N140 G3 X125. Y472. I3. J0.
N145 G1 X175.
N150 G3 X178. Y475. I0. J3.
N155 G1 Y525.
N160 G3 X175. Y528. I-3. J0.
N165 G1 X125.
N170 G3 X122.879 Y527.121 I0. J-3.
N175 G2 X122.03 I-0.424 J0.424 F300.
N180 G1 X121.606 Y527.546
N185 X121.54 Y527.612 Z-1.493
N190 X121.475 Y527.677 Z-1.471
N195 X121.413 Y527.738 Z-1.435
N200 X121.357 Y527.795 Z-1.385
N205 X121.306 Y527.846 Z-1.324
N210 X121.263 Y527.889 Z-1.253
N215 X121.228 Y527.924 Z-1.172
N220 X121.202 Y527.949 Z-1.085
N225 X121.187 Y527.965 Z-0.994
N230 X121.182 Y527.97 Z-0.9
N235 G0 Z5.
N240 X122.03 Y528.818
N245 G1 Z1.5 F150.
N250 Z-2.4
N255 X122.035 Y528.813 Z-2.494
N260 X122.051 Y528.798 Z-2.585
N265 X122.076 Y528.772 Z-2.672
N270 X122.111 Y528.737 Z-2.753
N275 X122.154 Y528.694 Z-2.824
N280 X122.205 Y528.643 Z-2.885
N285 X122.262 Y528.587 Z-2.935
N290 X122.323 Y528.525 Z-2.971
N295 X122.388 Y528.46 Z-2.993
N300 X122.454 Y528.394 Z-3.
N305 X122.879 Y527.97 F300.
N310 G2 Y527.121 I-0.424 J-0.424
N315 G3 X122. Y525. I2.121 J-2.121 F1200.
N320 G1 Y475.
N325 G3 X125. Y472. I3. J0.
N330 G1 X175.
N335 G3 X178. Y475. I0. J3.
N340 G1 Y525.
N345 G3 X175. Y528. I-3. J0.
N350 G1 X125.
N355 G3 X122.879 Y527.121 I0. J-3.
N360 G2 X122.03 I-0.424 J0.424 F300.
N365 G1 X121.606 Y527.546
N370 X121.54 Y527.612 Z-2.993
N375 X121.475 Y527.677 Z-2.971
N380 X121.413 Y527.738 Z-2.935
N385 X121.357 Y527.795 Z-2.885
N390 X121.306 Y527.846 Z-2.824
N395 X121.263 Y527.889 Z-2.753
N400 X121.228 Y527.924 Z-2.672
N405 X121.202 Y527.949 Z-2.585
N410 X121.187 Y527.965 Z-2.494
N415 X121.182 Y527.97 Z-2.4
N420 G0 Z5.
N425 X114.045 Y545.2
N430 G1 Z3. F150.
N435 Z-0.9
N440 G19 G3 Y545.8 Z-1.5 J0.6 K0.
N445 G1 Y546.4 F300.
N450 G17 G2 X114.645 Y547. I0.6 J0.
N455 G1 X197. F1200.
N460 Y453.
N465 X103.
N470 Y547.
N475 X114.645
N480 G2 X115.245 Y546.4 I0. J-0.6 F300.
N485 G1 Y545.8
N490 G19 G2 Y545.2 Z-0.9 J0. K0.6
N495 G0 Z5.
N500 X114.045
N505 G1 Z1.5 F150.
N510 Z-2.4
N515 G3 Y545.8 Z-3. J0.6 K0.
N520 G1 Y546.4 F300.
N525 G17 G2 X114.645 Y547. I0.6 J0.
N530 G1 X197. F1200.
N535 Y453.
N540 X103.
N545 Y547.
N550 X114.645
N555 G2 X115.245 Y546.4 I0. J-0.6 F300.
N560 G1 Y545.8
N565 G19 G2 Y545.2 Z-2.4 J0. K0.6
N570 G0 Z5.
N575 X72.03 Y578.818
N580 G1 Z3. F150.
N585 Z-0.9
N590 X72.035 Y578.813 Z-0.994
N595 X72.051 Y578.798 Z-1.085
N600 X72.076 Y578.772 Z-1.172
N605 X72.111 Y578.737 Z-1.253
N610 X72.154 Y578.694 Z-1.324
N615 X72.205 Y578.643 Z-1.385
N620 X72.262 Y578.587 Z-1.435
N625 X72.323 Y578.525 Z-1.471
N630 X72.388 Y578.46 Z-1.493
N635 X72.454 Y578.394 Z-1.5
N640 X72.879 Y577.97 F300.
N645 G17 G2 Y577.121 I-0.424 J-0.424
N650 G3 X72. Y575. I2.121 J-2.121 F1200.
N655 G1 Y425.
N660 G3 X75. Y422. I3. J0.
N665 G1 X225.
N670 G3 X228. Y425. I0. J3.
N675 G1 Y575.
N680 G3 X225. Y578. I-3. J0.
N685 G1 X75.
N690 G3 X72.879 Y577.121 I0. J-3.
N695 G2 X72.03 I-0.424 J0.424 F300.
N700 G1 X71.606 Y577.546
N705 X71.54 Y577.612 Z-1.493
N710 X71.475 Y577.677 Z-1.471
N715 X71.413 Y577.738 Z-1.435
N720 X71.357 Y577.795 Z-1.385
N725 X71.306 Y577.846 Z-1.324
N730 X71.263 Y577.889 Z-1.253
N735 X71.228 Y577.924 Z-1.172
N740 X71.202 Y577.949 Z-1.085
N745 X71.187 Y577.965 Z-0.994
N750 X71.182 Y577.97 Z-0.9
N755 G0 Z5.
N760 X72.03 Y578.818
N765 G1 Z1.5 F150.
N770 Z-2.4
N775 X72.035 Y578.813 Z-2.494
N780 X72.051 Y578.798 Z-2.585
N785 X72.076 Y578.772 Z-2.672
N790 X72.111 Y578.737 Z-2.753
N795 X72.154 Y578.694 Z-2.824
N800 X72.205 Y578.643 Z-2.885
N805 X72.262 Y578.587 Z-2.935
N810 X72.323 Y578.525 Z-2.971
N815 X72.388 Y578.46 Z-2.993
N820 X72.454 Y578.394 Z-3.
N825 X72.879 Y577.97 F300.
N830 G2 Y577.121 I-0.424 J-0.424
N835 G3 X72. Y575. I2.121 J-2.121 F1200.
N840 G1 Y425.
N845 G3 X75. Y422. I3. J0.
N850 G1 X225.
N855 G3 X228. Y425. I0. J3.
N860 G1 Y575.
N865 G3 X225. Y578. I-3. J0.
N870 G1 X75.
N875 G3 X72.879 Y577.121 I0. J-3.
N880 G2 X72.03 I-0.424 J0.424 F300.
N885 G1 X71.606 Y577.546
N890 X71.54 Y577.612 Z-2.993
N895 X71.475 Y577.677 Z-2.971
N900 X71.413 Y577.738 Z-2.935
N905 X71.357 Y577.795 Z-2.885
N910 X71.306 Y577.846 Z-2.824
N915 X71.263 Y577.889 Z-2.753
N920 X71.228 Y577.924 Z-2.672
N925 X71.202 Y577.949 Z-2.585
N930 X71.187 Y577.965 Z-2.494
N935 X71.182 Y577.97 Z-2.4
N940 G0 Z5.
N945 X64.045 Y595.2
N950 G1 Z3. F150.
N955 Z-0.9
N960 G19 G3 Y595.8 Z-1.5 J0.6 K0.
N965 G1 Y596.4 F300.
N970 G17 G2 X64.645 Y597. I0.6 J0.
N975 G1 X247. F1200.
N980 Y403.
N985 X53.
N990 Y597.
N995 X64.645
N1000 G2 X65.245 Y596.4 I0. J-0.6 F300.
N1005 G1 Y595.8
N1010 G19 G2 Y595.2 Z-0.9 J0. K0.6
N1015 G0 Z5.
N1020 X64.045
N1025 G1 Z1.5 F150.
N1030 Z-2.4
N1035 G3 Y595.8 Z-3. J0.6 K0.
N1040 G1 Y596.4 F300.
N1045 G17 G2 X64.645 Y597. I0.6 J0.
N1050 G1 X247. F1200.
N1055 Y403.
N1060 X53.
N1065 Y597.
N1070 X64.645
N1075 G2 X65.245 Y596.4 I0. J-0.6 F300.
N1080 G1 Y595.8
N1085 G19 G2 Y595.2 Z-2.4 J0. K0.6
N1090 G0 Z5.
N1095 X22.03 Y628.818
N1100 G1 Z3. F150.
N1105 Z-0.9
N1110 X22.035 Y628.813 Z-0.994
N1115 X22.051 Y628.798 Z-1.085
N1120 X22.076 Y628.772 Z-1.172
N1125 X22.111 Y628.737 Z-1.253
N1130 X22.154 Y628.694 Z-1.324
N1135 X22.205 Y628.643 Z-1.385
N1140 X22.262 Y628.587 Z-1.435
N1145 X22.323 Y628.525 Z-1.471
N1150 X22.388 Y628.46 Z-1.493
N1155 X22.454 Y628.394 Z-1.5
N1160 X22.879 Y627.97 F300.
N1165 G17 G2 Y627.121 I-0.424 J-0.424
N1170 G3 X22. Y625. I2.121 J-2.121 F1200.
N1175 G1 Y375.
N1180 G3 X25. Y372. I3. J0.
N1185 G1 X275.
N1190 G3 X278. Y375. I0. J3.
N1195 G1 Y625.
N1200 G3 X275. Y628. I-3. J0.
N1205 G1 X25.
N1210 G3 X22.879 Y627.121 I0. J-3.
N1215 G2 X22.03 I-0.424 J0.424 F300.
N1220 G1 X21.606 Y627.546
N1225 X21.54 Y627.612 Z-1.493
N1230 X21.475 Y627.677 Z-1.471
N1235 X21.413 Y627.738 Z-1.435
N1240 X21.357 Y627.795 Z-1.385
N1245 X21.306 Y627.846 Z-1.324
N1250 X21.263 Y627.889 Z-1.253
N1255 X21.228 Y627.924 Z-1.172
N1260 X21.202 Y627.949 Z-1.085
N1265 X21.187 Y627.965 Z-0.994
N1270 X21.182 Y627.97 Z-0.9
N1275 G0 Z5.
N1280 X22.03 Y628.818
N1285 G1 Z1.5 F150.
N1290 Z-2.4
N1295 X22.035 Y628.813 Z-2.494
N1300 X22.051 Y628.798 Z-2.585
N1305 X22.076 Y628.772 Z-2.672
N1310 X22.111 Y628.737 Z-2.753
N1315 X22.154 Y628.694 Z-2.824
N1320 X22.205 Y628.643 Z-2.885
N1325 X22.262 Y628.587 Z-2.935
N1330 X22.323 Y628.525 Z-2.971
N1335 X22.388 Y628.46 Z-2.993
N1340 X22.454 Y628.394 Z-3.
N1345 X22.879 Y627.97 F300.
N1350 G2 Y627.121 I-0.424 J-0.424
N1355 G3 X22. Y625. I2.121 J-2.121 F1200.
N1360 G1 Y375.
N1365 G3 X25. Y372. I3. J0.
N1370 G1 X275.
N1375 G3 X278. Y375. I0. J3.
N1380 G1 Y625.
N1385 G3 X275. Y628. I-3. J0.
N1390 G1 X25.
N1395 G3 X22.879 Y627.121 I0. J-3.
N1400 G2 X22.03 I-0.424 J0.424 F300.
N1405 G1 X21.606 Y627.546
N1410 X21.54 Y627.612 Z-2.993
N1415 X21.475 Y627.677 Z-2.971
N1420 X21.413 Y627.738 Z-2.935
N1425 X21.357 Y627.795 Z-2.885
N1430 X21.306 Y627.846 Z-2.824
N1435 X21.263 Y627.889 Z-2.753
N1440 X21.228 Y627.924 Z-2.672
N1445 X21.202 Y627.949 Z-2.585
N1450 X21.187 Y627.965 Z-2.494
N1455 X21.182 Y627.97 Z-2.4
N1460 G0 Z5.
N1465 X-4.8 Y650.6
N1470 G1 Z3. F150.
N1475 Z-0.9
N1480 G18 G2 X-4.2 Z-1.5 I0.6 K0.
N1485 G1 X-3.6 F300.
N1490 G17 G2 X-3. Y650. I0. J-0.6
N1495 G1 Y350. F1200.
N1500 G2 X-3.6 Y349.4 I-0.6 J0. F300.
N1505 G1 X-4.2
N1510 G18 G3 X-4.8 Z-0.9 I0. K0.6
N1515 G0 Z5.
N1520 X86.299 Y246.949
N1525 G1 Z3. F150.
N1530 Z-0.9
N1535 X86.294 Y246.954 Z-0.994
N1540 X86.279 Y246.971 Z-1.085
N1545 X86.255 Y246.998 Z-1.172
N1550 X86.223 Y247.035 Z-1.253
N1555 X86.182 Y247.08 Z-1.324
N1560 X86.134 Y247.134 Z-1.385
N1565 X86.081 Y247.194 Z-1.435
N1570 X86.023 Y247.259 Z-1.471
N1575 X85.962 Y247.327 Z-1.493
N1580 X85.9 Y247.397 Z-1.5
N1585 X85.501 Y247.846 F300.
N1590 G17 G2 X85.551 Y248.693 I0.448 J0.399
N1595 X214.449 Y103.705 I64.449 J-72.494 F1200.
N1600 X150. Y79.199 I-64.449 J72.494
N1605 X149.61 I-0.195 J97.
N1610 X53. Y176.199 I0.391 J97.
N1615 X85.551 Y248.693 I97. J0.
N1620 X86.398 Y248.643 I0.399 J-0.448 F300.
N1625 G1 X86.797 Y248.195
N1630 X86.859 Y248.124 Z-1.493
N1635 X86.92 Y248.056 Z-1.471
N1640 X86.978 Y247.991 Z-1.435
N1645 X87.031 Y247.931 Z-1.385
N1650 X87.079 Y247.878 Z-1.324
N1655 X87.119 Y247.832 Z-1.253
N1660 X87.152 Y247.795 Z-1.172
N1665 X87.176 Y247.768 Z-1.085
N1670 X87.191 Y247.752 Z-0.994
N1675 X87.196 Y247.746 Z-0.9
N1680 G0 Z5.
N1685 X86.94 Y247.521
N1690 G1 Z1.5 F150.
N1695 Z-2.4
N1700 X86.935 Y247.527 Z-2.494
N1705 X86.921 Y247.543 Z-2.585
N1710 X86.897 Y247.57 Z-2.672
N1715 X86.865 Y247.607 Z-2.753
N1720 X86.824 Y247.653 Z-2.824
N1725 X86.777 Y247.707 Z-2.885
N1730 X86.725 Y247.768 Z-2.935
N1735 X86.667 Y247.833 Z-2.971
N1740 X86.607 Y247.902 Z-2.993
N1745 X86.545 Y247.973 Z-3.
N1750 X86.151 Y248.425 F300.
N1755 G2 X86.208 Y249.272 I0.452 J0.395
N1760 X213.792 Y103.126 I63.792 J-73.073 F1200.
N1765 X150. Y79.199 I-63.792 J73.073
N1770 X149.61 I-0.195 J97.
N1775 X53. Y176.199 I0.391 J97.
N1780 X86.208 Y249.272 I97. J0.
N1785 X87.055 Y249.214 I0.395 J-0.452 F300.
N1790 G1 X87.449 Y248.762
N1795 X87.511 Y248.692 Z-2.993
N1800 X87.571 Y248.623 Z-2.971
N1805 X87.629 Y248.557 Z-2.935
N1810 X87.681 Y248.497 Z-2.885
N1815 X87.728 Y248.443 Z-2.824
N1820 X87.769 Y248.397 Z-2.753
N1825 X87.801 Y248.359 Z-2.672
N1830 X87.825 Y248.332 Z-2.585
N1835 X87.839 Y248.316 Z-2.494
N1840 X87.844 Y248.31 Z-2.4
N1845 G0 Z5.
N1850 X98.52 Y237.177
N1855 G1 Z3. F150.
N1860 Z-0.9
N1865 X98.525 Y237.171 Z-0.994
N1870 X98.539 Y237.154 Z-1.085
N1875 X98.562 Y237.127 Z-1.172
N1880 X98.594 Y237.09 Z-1.253
N1885 X98.634 Y237.043 Z-1.324
N1890 X98.681 Y236.989 Z-1.385
N1895 X98.733 Y236.928 Z-1.435
N1900 X98.79 Y236.862 Z-1.471
N1905 X98.849 Y236.792 Z-1.493
N1910 X98.91 Y236.721 Z-1.5
N1915 X99.301 Y236.266 F300.
N1920 G2 X99.236 Y235.42 I-0.456 J-0.39
N1925 G3 X72. Y176.199 I50.765 J-59.22 F1200.
N1930 X228. I78. J0.
N1935 X150. Y254.199 I-78. J0.
N1940 X149.61 I-0.195 J-78.
N1945 X99.236 Y235.42 I0.391 J-78.
N1950 G2 X98.39 Y235.485 I-0.39 J0.456 F300.
N1955 G1 X97.999 Y235.94
N1960 X97.938 Y236.011 Z-1.493
N1965 X97.879 Y236.081 Z-1.471
N1970 X97.822 Y236.147 Z-1.435
N1975 X97.77 Y236.208 Z-1.385
N1980 X97.723 Y236.262 Z-1.324
N1985 X97.683 Y236.309 Z-1.253
N1990 X97.651 Y236.346 Z-1.172
N1995 X97.628 Y236.373 Z-1.085
N2000 X97.614 Y236.39 Z-0.994
N2005 X97.609 Y236.396 Z-0.9
N2010 G0 Z5.
N2015 X97.971 Y236.709
N2020 G1 Z1.5 F150.
N2025 Z-2.4
N2030 X97.976 Y236.704 Z-2.494
N2035 X97.991 Y236.687 Z-2.585
N2040 X98.014 Y236.66 Z-2.672
N2045 X98.047 Y236.623 Z-2.753
N2050 X98.087 Y236.577 Z-2.824
N2055 X98.134 Y236.523 Z-2.885
N2060 X98.187 Y236.463 Z-2.935
N2065 X98.244 Y236.397 Z-2.971
N2070 X98.304 Y236.328 Z-2.993
N2075 X98.366 Y236.257 Z-3.
N2080 X98.761 Y235.805 F300.
N2085 G2 X98.703 Y234.959 I-0.452 J-0.395
N2090 G3 X72. Y176.199 I51.297 J-58.759 F1200.
N2095 X228. I78. J0.
N2100 X150. Y254.199 I-78. J0.
N2105 X149.61 I-0.195 J-78.
N2110 X98.703 Y234.959 I0.391 J-78.
N2115 G2 X97.857 Y235.016 I-0.395 J0.452 F300.
N2120 G1 X97.462 Y235.468
N2125 X97.4 Y235.539 Z-2.993
N2130 X97.34 Y235.608 Z-2.971
N2135 X97.283 Y235.673 Z-2.935
N2140 X97.23 Y235.734 Z-2.885
N2145 X97.183 Y235.788 Z-2.824
N2150 X97.143 Y235.834 Z-2.753
N2155 X97.11 Y235.871 Z-2.672
N2160 X97.087 Y235.898 Z-2.585
N2165 X97.072 Y235.915 Z-2.494
N2170 X97.067 Y235.92 Z-2.4
N2175 G0 Z5.
N2180 X119.693 Y209.738
N2185 G1 Z3. F150.
N2190 Z-0.9
N2195 X119.688 Y209.744 Z-0.994
N2200 X119.673 Y209.76 Z-1.085
N2205 X119.65 Y209.787 Z-1.172
N2210 X119.617 Y209.824 Z-1.253
N2215 X119.577 Y209.87 Z-1.324
N2220 X119.53 Y209.924 Z-1.385
N2225 X119.476 Y209.984 Z-1.435
N2230 X119.419 Y210.049 Z-1.471
N2235 X119.359 Y210.118 Z-1.493
N2240 X119.297 Y210.189 Z-1.5
N2245 X118.9 Y210.639 F300.
N2250 G2 X118.954 Y211.486 I0.45 J0.396
N2255 X150. Y223.199 I31.046 J-35.287 F1200.
N2260 X150.507 Y223.196 I0.009 J-47.
N2265 X197. Y176.199 I-0.507 J-46.997
N2270 X103. I-47. J0.
N2275 X118.954 Y211.486 I47. J0.
N2280 X119.801 Y211.432 I0.396 J-0.45 F300.
N2285 G1 X120.198 Y210.981
N2290 X120.26 Y210.911 Z-1.493
N2295 X120.32 Y210.842 Z-1.471
N2300 X120.377 Y210.777 Z-1.435
N2305 X120.43 Y210.717 Z-1.385
N2310 X120.478 Y210.663 Z-1.324
N2315 X120.518 Y210.617 Z-1.253
N2320 X120.551 Y210.58 Z-1.172
N2325 X120.574 Y210.553 Z-1.085
N2330 X120.589 Y210.536 Z-0.994
N2335 X120.594 Y210.531 Z-0.9
N2340 G0 Z5.
N2345 X120.124 Y210.123
N2350 G1 Z1.5 F150.
N2355 Z-2.4
N2360 X120.119 Y210.128 Z-2.494
N2365 X120.105 Y210.145 Z-2.585
N2370 X120.081 Y210.172 Z-2.672
N2375 X120.049 Y210.21 Z-2.753
N2380 X120.009 Y210.256 Z-2.824
N2385 X119.963 Y210.31 Z-2.885
N2390 X119.91 Y210.371 Z-2.935
N2395 X119.854 Y210.437 Z-2.971
N2400 X119.794 Y210.507 Z-2.993
N2405 X119.733 Y210.578 Z-3.
N2410 X119.343 Y211.034 F300.
N2415 G2 X119.408 Y211.88 I0.455 J0.391
N2420 X150. Y223.199 I30.592 J-35.681 F1200.
N2425 X150.507 Y223.196 I0.009 J-47.
N2430 X197. Y176.199 I-0.507 J-46.997
N2435 X103. I-47. J0.
N2440 X119.408 Y211.88 I47. J0.
N2445 X120.254 Y211.815 I0.391 J-0.456 F300.
N2450 G1 X120.644 Y211.359
N2455 X120.705 Y211.288 Z-2.993
N2460 X120.765 Y211.218 Z-2.971
N2465 X120.821 Y211.152 Z-2.935
N2470 X120.874 Y211.091 Z-2.885
N2475 X120.92 Y211.037 Z-2.824
N2480 X120.96 Y210.991 Z-2.753
N2485 X120.992 Y210.953 Z-2.672
N2490 X121.016 Y210.926 Z-2.585
N2495 X121.03 Y210.909 Z-2.494
N2500 X121.035 Y210.904 Z-2.4
N2505 G0 Z5.
N2510 X131.652 Y199.689
N2515 G1 Z3. F150.
N2520 Z-0.9
N2525 X131.657 Y199.683 Z-0.994
N2530 X131.671 Y199.666 Z-1.085
N2535 X131.694 Y199.638 Z-1.172
N2540 X131.725 Y199.6 Z-1.253
N2545 X131.763 Y199.552 Z-1.324
N2550 X131.809 Y199.497 Z-1.385
N2555 X131.859 Y199.435 Z-1.435
N2560 X131.914 Y199.367 Z-1.471
N2565 X131.972 Y199.296 Z-1.493
N2570 X132.031 Y199.223 Z-1.5
N2575 X132.41 Y198.758 F300.
N2580 G2 X132.324 Y197.914 I-0.465 J-0.379
N2585 G3 X150. Y148.199 I17.676 J-21.715 F1200.
N2590 G1 X150.226
N2595 G3 X178. Y176.199 I-0.226 J28.
N2600 X132.324 Y197.914 I-28. J0.
N2605 G2 X131.479 Y198.001 I-0.379 J0.465 F300.
N2610 G1 X131.101 Y198.466
N2615 X131.041 Y198.539 Z-1.493
N2620 X130.984 Y198.61 Z-1.471
N2625 X130.929 Y198.677 Z-1.435
N2630 X130.878 Y198.739 Z-1.385
N2635 X130.833 Y198.795 Z-1.324
N2640 X130.794 Y198.842 Z-1.253
N2645 X130.763 Y198.88 Z-1.172
N2650 X130.74 Y198.908 Z-1.085
N2655 X130.727 Y198.925 Z-0.994
N2660 X130.722 Y198.931 Z-0.9
N2665 G0 Z5.
N2670 X131.059 Y199.213
N2675 G1 Z1.5 F150.
N2680 Z-2.4
N2685 X131.063 Y199.207 Z-2.494
N2690 X131.078 Y199.19 Z-2.585
N2695 X131.101 Y199.163 Z-2.672
N2700 X131.133 Y199.126 Z-2.753
N2705 X131.173 Y199.079 Z-2.824
N2710 X131.22 Y199.025 Z-2.885
N2715 X131.272 Y198.964 Z-2.935
N2720 X131.328 Y198.898 Z-2.971
N2725 X131.388 Y198.828 Z-2.993
N2730 X131.449 Y198.757 Z-3.
N2735 X131.84 Y198.302 F300.
N2740 G2 X131.775 Y197.455 I-0.456 J-0.391
N2745 G3 X150. Y148.199 I18.225 J-21.256 F1200.
N2750 G1 X150.226
N2755 G3 X178. Y176.199 I-0.226 J28.
N2760 X131.775 Y197.455 I-28. J0.
N2765 G2 X130.929 Y197.52 I-0.391 J0.456 F300.
N2770 G1 X130.538 Y197.976
N2775 X130.477 Y198.047 Z-2.993
N2780 X130.417 Y198.117 Z-2.971
N2785 X130.361 Y198.183 Z-2.935
N2790 X130.309 Y198.244 Z-2.885
N2795 X130.262 Y198.298 Z-2.824
N2800 X130.222 Y198.344 Z-2.753
N2805 X130.19 Y198.382 Z-2.672
N2810 X130.167 Y198.409 Z-2.585
N2815 X130.152 Y198.426 Z-2.494
N2820 X130.148 Y198.431 Z-2.4
N2825 G0 Z5.
N2830 X304.8 Y349.4
N2835 G1 Z3. F150.
N2840 Z-0.9
N2845 G18 G3 X304.2 Z-1.5 I-0.6 K0.
N2850 G1 X303.6 F300.
N2855 G17 G2 X303. Y350. I0. J0.6
N2860 G1 Y650. F1200.
N2865 G2 X303.6 Y650.6 I0.6 J0. F300.
N2870 G1 X304.2
N2875 G18 G2 X304.8 Z-0.9 I0. K0.6
N2880 G0 Z5.
N2885 X150.957 Y838.452
N2890 G1 Z3. F150.
N2895 Z-0.9
N2900 G2 X151.557 Z-1.5 I0.6 K0.
N2905 G1 X152.157 F300.
N2910 G17 G2 X152.757 Y837.852 I0. J-0.6
N2915 X150.707 Y832.902 I-7. J0. F1200.
N2920 G1 X60.905 Y743.099
N2925 G2 X55.248 Y748.757 I-2.828 J2.829
N2930 G1 X135.15 Y828.66
N2935 G3 Y847.044 I-9.192 J9.192
N2940 G1 X55.248 Y926.947
N2945 G2 X55.247 Y932.604 I2.828 J2.829
N2950 X60.905 Y932.605 I2.829 J-2.828
N2955 G1 X150.707 Y842.802
N2960 G2 X152.757 Y837.852 I-4.95 J-4.95
N2965 X152.157 Y837.252 I-0.6 J0. F300.
N2970 G1 X151.557
N2975 G18 G3 X150.957 Z-0.9 I0. K0.6
N2980 G0 Z5.
N2985 Y838.452
N2990 G1 Z1.5 F150.
N2995 Z-2.4
N3000 G2 X151.557 Z-3. I0.6 K0.
N3005 G1 X152.157 F300.
N3010 G17 G2 X152.757 Y837.852 I0. J-0.6
N3015 X150.707 Y832.902 I-7. J0. F1200.
N3020 G1 X60.905 Y743.099
N3025 G2 X55.248 Y748.757 I-2.828 J2.829
N3030 G1 X135.15 Y828.66
N3035 G3 Y847.044 I-9.192 J9.192
N3040 G1 X55.248 Y926.947
N3045 G2 X55.247 Y932.604 I2.828 J2.829
N3050 X60.905 Y932.605 I2.829 J-2.828
N3055 G1 X150.707 Y842.802
N3060 G2 X152.757 Y837.852 I-4.95 J-4.95
N3065 X152.157 Y837.252 I-0.6 J0. F300.
N3070 G1 X151.557
N3075 G18 G3 X150.957 Z-2.4 I0. K0.6
N3080 G0 Z15.
N3085 G17
N3090 G53 G0 Z0.
N3095 M30
%
