%
(CONTOUR_TEST_2)
(T1  D=6. CR=0. - ZMIN=-3. - FLAT END MILL)
N10 G90 G94 G17 G91.1
N15 G21
N20 G53 G0 Z0.
(2D CONTOUR2)
N25 M9
N30 T1 M6
N35 S22000 M3
N40 G54
N45 G0 X471.182 Y277.97
N50 G43 Z15. H1
N55 G0 Z5.
N60 G1 Z2.5 F150.
N65 Z-0.9
N70 X471.187 Y277.965 Z-0.994
N75 X471.202 Y277.949 Z-1.085
N80 X471.228 Y277.924 Z-1.172
N85 X471.263 Y277.889 Z-1.253
N90 X471.306 Y277.846 Z-1.324
N95 X471.357 Y277.795 Z-1.385
N100 X471.413 Y277.738 Z-1.435
N105 X471.475 Y277.677 Z-1.471
N110 X471.54 Y277.612 Z-1.493
N115 X471.606 Y277.546 Z-1.5
N120 X472.03 Y277.121 F300.
N125 G3 X472.879 I0.424 J0.424
N130 G2 X475. Y278. I2.121 J-2.121 F1200.
N135 G1 X525.
N140 G2 X528. Y275. I0. J-3.
N145 G1 Y225.
N150 G2 X525. Y222. I-3. J0.
N155 G1 X475.
N160 G2 X472. Y225. I0. J3.
N165 G1 Y275.
N170 G2 X472.879 Y277.121 I3. J0.
N175 G3 Y277.97 I-0.424 J0.424 F300.
N180 G1 X472.454 Y278.394
N185 X472.388 Y278.46 Z-1.493
N190 X472.323 Y278.525 Z-1.471
N195 X472.262 Y278.587 Z-1.435
N200 X472.205 Y278.643 Z-1.385
N205 X472.154 Y278.694 Z-1.324
N210 X472.111 Y278.737 Z-1.253
N215 X472.076 Y278.772 Z-1.172
N220 X472.051 Y278.798 Z-1.085
N225 X472.035 Y278.813 Z-0.994
N230 X472.03 Y278.818 Z-0.9
N235 G0 Z5.
N240 X471.182 Y277.97
N245 G1 Z1. F150.
N250 Z-2.4
N255 X471.187 Y277.965 Z-2.494
N260 X471.202 Y277.949 Z-2.585
N265 X471.228 Y277.924 Z-2.672
N270 X471.263 Y277.889 Z-2.753
N275 X471.306 Y277.846 Z-2.824
N280 X471.357 Y277.795 Z-2.885
N285 X471.413 Y277.738 Z-2.935
N290 X471.475 Y277.677 Z-2.971
N295 X471.54 Y277.612 Z-2.993
N300 X471.606 Y277.546 Z-3.
N305 X472.03 Y277.121 F300.
N310 G3 X472.879 I0.424 J0.424
N315 G2 X475. Y278. I2.121 J-2.121 F1200.
N320 G1 X525.
N325 G2 X528. Y275. I0. J-3.
N330 G1 Y225.
N335 G2 X525. Y222. I-3. J0.
N340 G1 X475.
N345 G2 X472. Y225. I0. J3.
N350 G1 Y275.
N355 G2 X472.879 Y277.121 I3. J0.
N360 G3 Y277.97 I-0.424 J0.424 F300.
N365 G1 X472.454 Y278.394
N370 X472.388 Y278.46 Z-2.993
N375 X472.323 Y278.525 Z-2.971
N380 X472.262 Y278.587 Z-2.935
N385 X472.205 Y278.643 Z-2.885
N390 X472.154 Y278.694 Z-2.824
N395 X472.111 Y278.737 Z-2.753
N400 X472.076 Y278.772 Z-2.672
N405 X472.051 Y278.798 Z-2.585
N410 X472.035 Y278.813 Z-2.494
N415 X472.03 Y278.818 Z-2.4
N420 G0 Z5.
N425 X465.245 Y295.2
N430 G1 Z2.5 F150.
N435 Z-0.9
N440 G19 G3 Y295.8 Z-1.5 J0.6 K0.
N445 G1 Y296.4 F300.
N450 G17 G3 X464.645 Y297. I-0.6 J0.
N455 G1 X453. F1200.
N460 Y203.
N465 X547.
N470 Y297.
N475 X464.645
N480 G3 X464.045 Y296.4 I0. J-0.6 F300.
N485 G1 Y295.8
N490 G19 G2 Y295.2 Z-0.9 J0. K0.6
N495 G0 Z5.
N500 X465.245
N505 G1 Z1. F150.
N510 Z-2.4
N515 G3 Y295.8 Z-3. J0.6 K0.
N520 G1 Y296.4 F300.
N525 G17 G3 X464.645 Y297. I-0.6 J0.
N530 G1 X453. F1200.
N535 Y203.
N540 X547.
N545 Y297.
N550 X464.645
N555 G3 X464.045 Y296.4 I0. J-0.6 F300.
N560 G1 Y295.8
N565 G19 G2 Y295.2 Z-2.4 J0. K0.6
N570 G0 Z5.
N575 X421.182 Y327.97
N580 G1 Z2.5 F150.
N585 Z-0.9
N590 X421.187 Y327.965 Z-0.994
N595 X421.202 Y327.949 Z-1.085
N600 X421.228 Y327.924 Z-1.172
N605 X421.263 Y327.889 Z-1.253
N610 X421.306 Y327.846 Z-1.324
N615 X421.357 Y327.795 Z-1.385
N620 X421.413 Y327.738 Z-1.435
N625 X421.475 Y327.677 Z-1.471
N630 X421.54 Y327.612 Z-1.493
N635 X421.606 Y327.546 Z-1.5
N640 X422.03 Y327.121 F300.
N645 G17 G3 X422.879 I0.424 J0.424
N650 G2 X425. Y328. I2.121 J-2.121 F1200.
N655 G1 X575.
N660 G2 X578. Y325. I0. J-3.
N665 G1 Y175.
N670 G2 X575. Y172. I-3. J0.
N675 G1 X425.
N680 G2 X422. Y175. I0. J3.
N685 G1 Y325.
N690 G2 X422.879 Y327.121 I3. J0.
N695 G3 Y327.97 I-0.424 J0.424 F300.
N700 G1 X422.454 Y328.394
N705 X422.388 Y328.46 Z-1.493
N710 X422.323 Y328.525 Z-1.471
N715 X422.262 Y328.587 Z-1.435
N720 X422.205 Y328.643 Z-1.385
N725 X422.154 Y328.694 Z-1.324
N730 X422.111 Y328.737 Z-1.253
N735 X422.076 Y328.772 Z-1.172
N740 X422.051 Y328.798 Z-1.085
N745 X422.035 Y328.813 Z-0.994
N750 X422.03 Y328.818 Z-0.9
N755 G0 Z5.
N760 X421.182 Y327.97
N765 G1 Z1. F150.
N770 Z-2.4
N775 X421.187 Y327.965 Z-2.494
N780 X421.202 Y327.949 Z-2.585
N785 X421.228 Y327.924 Z-2.672
N790 X421.263 Y327.889 Z-2.753
N795 X421.306 Y327.846 Z-2.824
N800 X421.357 Y327.795 Z-2.885
N805 X421.413 Y327.738 Z-2.935
N810 X421.475 Y327.677 Z-2.971
N815 X421.54 Y327.612 Z-2.993
N820 X421.606 Y327.546 Z-3.
N825 X422.03 Y327.121 F300.
N830 G3 X422.879 I0.424 J0.424
N835 G2 X425. Y328. I2.121 J-2.121 F1200.
N840 G1 X575.
N845 G2 X578. Y325. I0. J-3.
N850 G1 Y175.
N855 G2 X575. Y172. I-3. J0.
N860 G1 X425.
N865 G2 X422. Y175. I0. J3.
N870 G1 Y325.
N875 G2 X422.879 Y327.121 I3. J0.
N880 G3 Y327.97 I-0.424 J0.424 F300.
N885 G1 X422.454 Y328.394
N890 X422.388 Y328.46 Z-2.993
N895 X422.323 Y328.525 Z-2.971
N900 X422.262 Y328.587 Z-2.935
N905 X422.205 Y328.643 Z-2.885
N910 X422.154 Y328.694 Z-2.824
N915 X422.111 Y328.737 Z-2.753
N920 X422.076 Y328.772 Z-2.672
N925 X422.051 Y328.798 Z-2.585
N930 X422.035 Y328.813 Z-2.494
N935 X422.03 Y328.818 Z-2.4
N940 G0 Z5.
N945 X415.245 Y345.2
N950 G1 Z2.5 F150.
N955 Z-0.9
N960 G19 G3 Y345.8 Z-1.5 J0.6 K0.
N965 G1 Y346.4 F300.
N970 G17 G3 X414.645 Y347. I-0.6 J0.
N975 G1 X403. F1200.
N980 Y153.
N985 X597.
N990 Y347.
N995 X414.645
N1000 G3 X414.045 Y346.4 I0. J-0.6 F300.
N1005 G1 Y345.8
N1010 G19 G2 Y345.2 Z-0.9 J0. K0.6
N1015 G0 Z5.
N1020 X415.245
N1025 G1 Z1. F150.
N1030 Z-2.4
N1035 G3 Y345.8 Z-3. J0.6 K0.
N1040 G1 Y346.4 F300.
N1045 G17 G3 X414.645 Y347. I-0.6 J0.
N1050 G1 X403. F1200.
N1055 Y153.
N1060 X597.
N1065 Y347.
N1070 X414.645
N1075 G3 X414.045 Y346.4 I0. J-0.6 F300.
N1080 G1 Y345.8
N1085 G19 G2 Y345.2 Z-2.4 J0. K0.6
N1090 G0 Z5.
N1095 X371.182 Y377.97
N1100 G1 Z2.5 F150.
N1105 Z-0.9
N1110 X371.187 Y377.965 Z-0.994
N1115 X371.202 Y377.949 Z-1.085
N1120 X371.228 Y377.924 Z-1.172
N1125 X371.263 Y377.889 Z-1.253
N1130 X371.306 Y377.846 Z-1.324
N1135 X371.357 Y377.795 Z-1.385
N1140 X371.413 Y377.738 Z-1.435
N1145 X371.475 Y377.677 Z-1.471
N1150 X371.54 Y377.612 Z-1.493
N1155 X371.606 Y377.546 Z-1.5
N1160 X372.03 Y377.121 F300.
N1165 G17 G3 X372.879 I0.424 J0.424
N1170 G2 X375. Y378. I2.121 J-2.121 F1200.
N1175 G1 X625.
N1180 G2 X628. Y375. I0. J-3.
N1185 G1 Y125.
N1190 G2 X625. Y122. I-3. J0.
N1195 G1 X375.
N1200 G2 X372. Y125. I0. J3.
N1205 G1 Y375.
N1210 G2 X372.879 Y377.121 I3. J0.
N1215 G3 Y377.97 I-0.424 J0.424 F300.
N1220 G1 X372.454 Y378.394
N1225 X372.388 Y378.46 Z-1.493
N1230 X372.323 Y378.525 Z-1.471
N1235 X372.262 Y378.587 Z-1.435
N1240 X372.205 Y378.643 Z-1.385
N1245 X372.154 Y378.694 Z-1.324
N1250 X372.111 Y378.737 Z-1.253
N1255 X372.076 Y378.772 Z-1.172
N1260 X372.051 Y378.798 Z-1.085
N1265 X372.035 Y378.813 Z-0.994
N1270 X372.03 Y378.818 Z-0.9
N1275 G0 Z5.
N1280 X371.182 Y377.97
N1285 G1 Z1. F150.
N1290 Z-2.4
N1295 X371.187 Y377.965 Z-2.494
N1300 X371.202 Y377.949 Z-2.585
N1305 X371.228 Y377.924 Z-2.672
N1310 X371.263 Y377.889 Z-2.753
N1315 X371.306 Y377.846 Z-2.824
N1320 X371.357 Y377.795 Z-2.885
N1325 X371.413 Y377.738 Z-2.935
N1330 X371.475 Y377.677 Z-2.971
N1335 X371.54 Y377.612 Z-2.993
N1340 X371.606 Y377.546 Z-3.
N1345 X372.03 Y377.121 F300.
N1350 G3 X372.879 I0.424 J0.424
N1355 G2 X375. Y378. I2.121 J-2.121 F1200.
N1360 G1 X625.
N1365 G2 X628. Y375. I0. J-3.
N1370 G1 Y125.
N1375 G2 X625. Y122. I-3. J0.
N1380 G1 X375.
N1385 G2 X372. Y125. I0. J3.
N1390 G1 Y375.
N1395 G2 X372.879 Y377.121 I3. J0.
N1400 G3 Y377.97 I-0.424 J0.424 F300.
N1405 G1 X372.454 Y378.394
N1410 X372.388 Y378.46 Z-2.993
N1415 X372.323 Y378.525 Z-2.971
N1420 X372.262 Y378.587 Z-2.935
N1425 X372.205 Y378.643 Z-2.885
N1430 X372.154 Y378.694 Z-2.824
N1435 X372.111 Y378.737 Z-2.753
N1440 X372.076 Y378.772 Z-2.672
N1445 X372.051 Y378.798 Z-2.585
N1450 X372.035 Y378.813 Z-2.494
N1455 X372.03 Y378.818 Z-2.4
N1460 G0 Z5.
N1465 X365.245 Y395.2
N1470 G1 Z2.5 F150.
N1475 Z-0.9
N1480 G19 G3 Y395.8 Z-1.5 J0.6 K0.
N1485 G1 Y396.4 F300.
N1490 G17 G3 X364.645 Y397. I-0.6 J0.
N1495 G1 X353. F1200.
N1500 Y103.
N1505 X647.
N1510 Y397.
N1515 X364.645
N1520 G3 X364.045 Y396.4 I0. J-0.6 F300.
N1525 G1 Y395.8
N1530 G19 G2 Y395.2 Z-0.9 J0. K0.6
N1535 G0 Z5.
N1540 X365.245
N1545 G1 Z1. F150.
N1550 Z-2.4
N1555 G3 Y395.8 Z-3. J0.6 K0.
N1560 G1 Y396.4 F300.
N1565 G17 G3 X364.645 Y397. I-0.6 J0.
N1570 G1 X353. F1200.
N1575 Y103.
N1580 X647.
N1585 Y397.
N1590 X364.645
N1595 G3 X364.045 Y396.4 I0. J-0.6 F300.
N1600 G1 Y395.8
N1605 G19 G2 Y395.2 Z-2.4 J0. K0.6
N1610 G0 Z5.
N1615 X290.722 Y337.703
N1620 G1 Z2.5 F150.
N1625 Z-0.9
N1630 X290.728 Y337.708 Z-0.994
N1635 X290.746 Y337.721 Z-1.085
N1640 X290.774 Y337.743 Z-1.172
N1645 X290.813 Y337.773 Z-1.253
N1650 X290.862 Y337.81 Z-1.324
N1655 X290.919 Y337.853 Z-1.385
N1660 X290.983 Y337.902 Z-1.435
N1665 X291.052 Y337.955 Z-1.471
N1670 X291.125 Y338.011 Z-1.493
N1675 X291.199 Y338.068 Z-1.5
N1680 X291.676 Y338.432 F300.
N1685 G17 G3 X291.788 Y339.273 I-0.364 J0.477
N1690 X175. Y397. I-116.788 J-89.274 F1200.
N1695 Y103. I0. J-147.
N1700 X322. Y250. I0. J147.
N1705 Y250.503 I-147. J0.252
N1710 X291.788 Y339.273 I-147. J-0.504
N1715 X290.947 Y339.385 I-0.477 J-0.364 F300.
N1720 G1 X290.47 Y339.021
N1725 X290.396 Y338.964 Z-1.493
N1730 X290.323 Y338.908 Z-1.471
N1735 X290.254 Y338.856 Z-1.435
N1740 X290.19 Y338.807 Z-1.385
N1745 X290.133 Y338.763 Z-1.324
N1750 X290.085 Y338.726 Z-1.253
N1755 X290.046 Y338.696 Z-1.172
N1760 X290.017 Y338.674 Z-1.085
N1765 X290. Y338.661 Z-0.994
N1770 X289.994 Y338.657 Z-0.9
N1775 G0 Z5.
N1780 X290.073 Y338.554
N1785 G1 Z1. F150.
N1790 Z-2.4
N1795 X290.078 Y338.559 Z-2.494
N1800 X290.096 Y338.572 Z-2.585
N1805 X290.124 Y338.594 Z-2.672
N1810 X290.163 Y338.625 Z-2.753
N1815 X290.211 Y338.662 Z-2.824
N1820 X290.268 Y338.706 Z-2.885
N1825 X290.331 Y338.755 Z-2.935
N1830 X290.4 Y338.808 Z-2.971
N1835 X290.472 Y338.865 Z-2.993
N1840 X290.547 Y338.922 Z-3.
N1845 X291.02 Y339.29 F300.
N1850 G3 X291.127 Y340.132 I-0.368 J0.474
N1855 X175. Y397. I-116.126 J-90.132 F1200.
N1860 Y103. I0. J-147.
N1865 X322. Y250. I0. J147.
N1870 Y250.503 I-147. J0.252
N1875 X291.127 Y340.132 I-147. J-0.504
N1880 X290.285 Y340.238 I-0.474 J-0.368 F300.
N1885 G1 X289.811 Y339.87
N1890 X289.737 Y339.813 Z-2.993
N1895 X289.664 Y339.756 Z-2.971
N1900 X289.596 Y339.703 Z-2.935
N1905 X289.532 Y339.654 Z-2.885
N1910 X289.476 Y339.61 Z-2.824
N1915 X289.427 Y339.573 Z-2.753
N1920 X289.388 Y339.542 Z-2.672
N1925 X289.36 Y339.52 Z-2.585
N1930 X289.343 Y339.507 Z-2.494
N1935 X289.337 Y339.502 Z-2.4
N1940 G0 Z5.
N1945 X276.578 Y330.811
N1950 G1 Z2.5 F150.
N1955 Z-0.9
N1960 X276.572 Y330.806 Z-0.994
N1965 X276.555 Y330.793 Z-1.085
N1970 X276.526 Y330.77 Z-1.172
N1975 X276.488 Y330.74 Z-1.253
N1980 X276.44 Y330.702 Z-1.324
N1985 X276.383 Y330.658 Z-1.385
N1990 X276.32 Y330.608 Z-1.435
N1995 X276.252 Y330.554 Z-1.471
N2000 X276.18 Y330.498 Z-1.493
N2005 X276.106 Y330.439 Z-1.5
N2010 X275.635 Y330.068 F300.
N2015 G3 X275.535 Y329.225 I0.371 J-0.471
N2020 G2 X303. Y250. I-100.535 J-79.225 F1200.
N2025 Y249.497 I-128. J-0.252
N2030 X175. Y122. I-127.999 J0.504
N2035 Y378. I0. J128.
N2040 X275.535 Y329.225 I0. J-128.
N2045 G3 X276.378 Y329.126 I0.471 J0.371 F300.
N2050 G1 X276.849 Y329.497
N2055 X276.923 Y329.555 Z-1.493
N2060 X276.995 Y329.612 Z-1.471
N2065 X277.063 Y329.666 Z-1.435
N2070 X277.126 Y329.715 Z-1.385
N2075 X277.182 Y329.76 Z-1.324
N2080 X277.23 Y329.797 Z-1.253
N2085 X277.269 Y329.828 Z-1.172
N2090 X277.297 Y329.85 Z-1.085
N2095 X277.315 Y329.864 Z-0.994
N2100 X277.32 Y329.868 Z-0.9
N2105 G0 Z5.
N2110 X277.171 Y330.06
N2115 G1 Z1. F150.
N2120 Z-2.4
N2125 X277.165 Y330.055 Z-2.494
N2130 X277.148 Y330.042 Z-2.585
N2135 X277.119 Y330.019 Z-2.672
N2140 X277.08 Y329.989 Z-2.753
N2145 X277.032 Y329.952 Z-2.824
N2150 X276.975 Y329.908 Z-2.885
N2155 X276.912 Y329.859 Z-2.935
N2160 X276.843 Y329.805 Z-2.971
N2165 X276.771 Y329.749 Z-2.993
N2170 X276.697 Y329.692 Z-3.
N2175 X276.223 Y329.324 F300.
N2180 G3 X276.117 Y328.482 I0.368 J-0.474
N2185 G2 X303. Y250. I-101.117 J-78.482 F1200.
N2190 Y249.497 I-128. J-0.252
N2195 X175. Y122. I-127.999 J0.504
N2200 Y378. I0. J128.
N2205 X276.117 Y328.482 I0. J-128.
N2210 G3 X276.959 Y328.376 I0.474 J0.368 F300.
N2215 G1 X277.433 Y328.744
N2220 X277.507 Y328.801 Z-2.993
N2225 X277.579 Y328.857 Z-2.971
N2230 X277.648 Y328.911 Z-2.935
N2235 X277.711 Y328.96 Z-2.885
N2240 X277.768 Y329.004 Z-2.824
N2245 X277.816 Y329.041 Z-2.753
N2250 X277.855 Y329.072 Z-2.672
N2255 X277.883 Y329.094 Z-2.585
N2260 X277.901 Y329.107 Z-2.494
N2265 X277.907 Y329.112 Z-2.4
N2270 G0 Z5.
N2275 X250.893 Y307.478
N2280 G1 Z2.5 F150.
N2285 Z-0.9
N2290 X250.898 Y307.483 Z-0.994
N2295 X250.916 Y307.496 Z-1.085
N2300 X250.944 Y307.518 Z-1.172
N2305 X250.983 Y307.548 Z-1.253
N2310 X251.032 Y307.585 Z-1.324
N2315 X251.089 Y307.629 Z-1.385
N2320 X251.152 Y307.678 Z-1.435
N2325 X251.221 Y307.73 Z-1.471
N2330 X251.294 Y307.786 Z-1.493
N2335 X251.368 Y307.843 Z-1.5
N2340 X251.845 Y308.209 F300.
N2345 G3 X251.955 Y309.05 I-0.365 J0.476
N2350 X98.045 Y190.95 I-76.955 J-59.05 F1200.
N2355 X175. Y153. I76.955 J59.05
N2360 X175.589 Y153.001 I0.07 J97.
N2365 X272. Y250. I-0.589 J96.998
N2370 X251.955 Y309.05 I-97. J0.
N2375 X251.114 Y309.161 I-0.476 J-0.365 F300.
N2380 G1 X250.638 Y308.795
N2385 X250.564 Y308.738 Z-1.493
N2390 X250.491 Y308.682 Z-1.471
N2395 X250.422 Y308.63 Z-1.435
N2400 X250.358 Y308.581 Z-1.385
N2405 X250.301 Y308.537 Z-1.324
N2410 X250.253 Y308.5 Z-1.253
N2415 X250.214 Y308.47 Z-1.172
N2420 X250.185 Y308.448 Z-1.085
N2425 X250.168 Y308.435 Z-0.994
N2430 X250.162 Y308.43 Z-0.9
N2435 G0 Z5.
N2440 X250.371 Y308.161
N2445 G1 Z1. F150.
N2450 Z-2.4
N2455 X250.376 Y308.165 Z-2.494
N2460 X250.394 Y308.179 Z-2.585
N2465 X250.422 Y308.201 Z-2.672
N2470 X250.461 Y308.231 Z-2.753
N2475 X250.509 Y308.269 Z-2.824
N2480 X250.565 Y308.313 Z-2.885
N2485 X250.629 Y308.363 Z-2.935
N2490 X250.697 Y308.416 Z-2.971
N2495 X250.769 Y308.473 Z-2.993
N2500 X250.843 Y308.53 Z-3.
N2505 X251.316 Y308.9 F300.
N2510 G3 X251.419 Y309.742 I-0.37 J0.473
N2515 X98.581 Y190.258 I-76.419 J-59.742 F1200.
N2520 X175. Y153. I76.419 J59.742
N2525 X175.589 Y153.001 I0.07 J97.
N2530 X272. Y250. I-0.589 J96.998
N2535 X251.419 Y309.742 I-97. J0.
N2540 X250.577 Y309.845 I-0.473 J-0.37 F300.
N2545 G1 X250.104 Y309.476
N2550 X250.03 Y309.418 Z-2.993
N2555 X249.958 Y309.362 Z-2.971
N2560 X249.89 Y309.308 Z-2.935
N2565 X249.826 Y309.259 Z-2.885
N2570 X249.77 Y309.214 Z-2.824
N2575 X249.722 Y309.177 Z-2.753
N2580 X249.683 Y309.147 Z-2.672
N2585 X249.655 Y309.124 Z-2.585
N2590 X249.637 Y309.111 Z-2.494
N2595 X249.631 Y309.106 Z-2.4
N2600 G0 Z5.
N2605 X237.048 Y300.184
N2610 G1 Z2.5 F150.
N2615 Z-0.9
N2620 X237.043 Y300.179 Z-0.994
N2625 X237.025 Y300.165 Z-1.085
N2630 X236.997 Y300.143 Z-1.172
N2635 X236.959 Y300.112 Z-1.253
N2640 X236.911 Y300.074 Z-1.324
N2645 X236.855 Y300.029 Z-1.385
N2650 X236.792 Y299.979 Z-1.435
N2655 X236.724 Y299.925 Z-1.471
N2660 X236.653 Y299.868 Z-1.493
N2665 X236.579 Y299.81 Z-1.5
N2670 X236.11 Y299.436 F300.
N2675 G3 X236.014 Y298.593 I0.374 J-0.469
N2680 G2 X113.986 Y201.407 I-61.014 J-48.593 F1200.
N2685 X97. Y250. I61.014 J48.593
N2690 Y250.39 I78. J0.195
N2695 X175. Y328. I78. J-0.391
N2700 X236.014 Y298.593 I0. J-78.
N2705 G3 X236.857 Y298.497 I0.469 J0.374 F300.
N2710 G1 X237.327 Y298.871
N2715 X237.4 Y298.93 Z-1.493
N2720 X237.472 Y298.987 Z-1.471
N2725 X237.54 Y299.041 Z-1.435
N2730 X237.603 Y299.091 Z-1.385
N2735 X237.659 Y299.135 Z-1.324
N2740 X237.706 Y299.174 Z-1.253
N2745 X237.745 Y299.204 Z-1.172
N2750 X237.773 Y299.227 Z-1.085
N2755 X237.79 Y299.24 Z-0.994
N2760 X237.796 Y299.245 Z-0.9
N2765 G0 Z5.
N2770 X237.499 Y299.621
N2775 G1 Z1. F150.
N2780 Z-2.4
N2785 X237.493 Y299.617 Z-2.494
N2790 X237.476 Y299.603 Z-2.585
N2795 X237.447 Y299.581 Z-2.672
N2800 X237.409 Y299.551 Z-2.753
N2805 X237.36 Y299.513 Z-2.824
N2810 X237.304 Y299.469 Z-2.885
N2815 X237.241 Y299.42 Z-2.935
N2820 X237.172 Y299.366 Z-2.971
N2825 X237.1 Y299.31 Z-2.993
N2830 X237.026 Y299.252 Z-3.
N2835 X236.554 Y298.882 F300.
N2840 G3 X236.45 Y298.04 I0.37 J-0.473
N2845 G2 X113.55 Y201.96 I-61.45 J-48.04 F1200.
N2850 X97. Y250. I61.45 J48.04
N2855 Y250.39 I78. J0.195
N2860 X175. Y328. I78. J-0.391
N2865 X236.45 Y298.04 I0. J-78.
N2870 G3 X237.293 Y297.937 I0.473 J0.37 F300.
N2875 G1 X237.765 Y298.306
N2880 X237.839 Y298.364 Z-2.993
N2885 X237.911 Y298.421 Z-2.971
N2890 X237.98 Y298.474 Z-2.935
N2895 X238.043 Y298.524 Z-2.885
N2900 X238.1 Y298.568 Z-2.824
N2905 X238.148 Y298.605 Z-2.753
N2910 X238.186 Y298.636 Z-2.672
N2915 X238.215 Y298.658 Z-2.585
N2920 X238.232 Y298.671 Z-2.494
N2925 X238.238 Y298.676 Z-2.4
N2930 G0 Z5.
N2935 X211.482 Y276.692
N2940 G1 Z2.5 F150.
N2945 Z-0.9
N2950 X211.488 Y276.696 Z-0.994
N2955 X211.506 Y276.709 Z-1.085
N2960 X211.534 Y276.731 Z-1.172
N2965 X211.574 Y276.761 Z-1.253
N2970 X211.623 Y276.797 Z-1.324
N2975 X211.68 Y276.84 Z-1.385
N2980 X211.744 Y276.889 Z-1.435
N2985 X211.813 Y276.941 Z-1.471
N2990 X211.887 Y276.996 Z-1.493
N2995 X211.962 Y277.052 Z-1.5
N3000 X212.441 Y277.413 F300.
N3005 G3 X212.56 Y278.253 I-0.361 J0.479
N3010 X175. Y297. I-37.56 J-28.253 F1200.
N3015 G1 X174.774
N3020 G3 X128. Y250. I0.226 J-47.
N3025 X222. I47. J0.
N3030 X212.56 Y278.253 I-47. J0.
N3035 X211.72 Y278.372 I-0.479 J-0.361 F300.
N3040 G1 X211.24 Y278.011
N3045 X211.165 Y277.955 Z-1.493
N3050 X211.092 Y277.9 Z-1.471
N3055 X211.023 Y277.848 Z-1.435
N3060 X210.958 Y277.799 Z-1.385
N3065 X210.901 Y277.756 Z-1.324
N3070 X210.852 Y277.72 Z-1.253
N3075 X210.813 Y277.69 Z-1.172
N3080 X210.784 Y277.668 Z-1.085
N3085 X210.767 Y277.655 Z-0.994
N3090 X210.761 Y277.651 Z-0.9
N3095 G0 Z5.
N3100 X210.789 Y277.615
N3105 G1 Z1. F150.
N3110 Z-2.4
N3115 X210.794 Y277.619 Z-2.494
N3120 X210.812 Y277.633 Z-2.585
N3125 X210.84 Y277.655 Z-2.672
N3130 X210.878 Y277.686 Z-2.753
N3135 X210.926 Y277.724 Z-2.824
N3140 X210.982 Y277.768 Z-2.885
N3145 X211.045 Y277.818 Z-2.935
N3150 X211.113 Y277.872 Z-2.971
N3155 X211.185 Y277.929 Z-2.993
N3160 X211.259 Y277.988 Z-3.
N3165 X211.729 Y278.36 F300.
N3170 G3 X211.826 Y279.203 I-0.373 J0.47
N3175 X175. Y297. I-36.826 J-29.203 F1200.
N3180 G1 X174.774
N3185 G3 X128. Y250. I0.226 J-47.
N3190 X222. I47. J0.
N3195 X211.826 Y279.203 I-47. J0.
N3200 X210.983 Y279.301 I-0.47 J-0.373 F300.
N3205 G1 X210.513 Y278.928
N3210 X210.44 Y278.87 Z-2.993
N3215 X210.368 Y278.813 Z-2.971
N3220 X210.3 Y278.759 Z-2.935
N3225 X210.237 Y278.709 Z-2.885
N3230 X210.181 Y278.664 Z-2.824
N3235 X210.133 Y278.626 Z-2.753
N3240 X210.094 Y278.596 Z-2.672
N3245 X210.066 Y278.573 Z-2.585
N3250 X210.049 Y278.56 Z-2.494
N3255 X210.043 Y278.555 Z-2.4
N3260 G0 Z5.
N3265 X197.732 Y269.279
N3270 G1 Z2.5 F150.
N3275 Z-0.9
N3280 X197.727 Y269.274 Z-0.994
N3285 X197.71 Y269.26 Z-1.085
N3290 X197.682 Y269.237 Z-1.172
N3295 X197.644 Y269.206 Z-1.253
N3300 X197.596 Y269.168 Z-1.324
N3305 X197.541 Y269.122 Z-1.385
N3310 X197.478 Y269.072 Z-1.435
N3315 X197.411 Y269.017 Z-1.471
N3320 X197.34 Y268.959 Z-1.493
N3325 X197.267 Y268.9 Z-1.5
N3330 X196.802 Y268.521 F300.
N3335 G3 X196.715 Y267.677 I0.379 J-0.465
N3340 G2 X203. Y250. I-21.716 J-17.676 F1200.
N3345 X147. I-28. J0.
N3350 X175. Y278. I28. J0.
N3355 G1 X175.226
N3360 G2 X196.715 Y267.677 I-0.226 J-28.
N3365 G3 X197.559 Y267.59 I0.465 J0.379 F300.
N3370 G1 X198.025 Y267.969
N3375 X198.097 Y268.028 Z-1.493
N3380 X198.168 Y268.086 Z-1.471
N3385 X198.236 Y268.141 Z-1.435
N3390 X198.298 Y268.192 Z-1.385
N3395 X198.354 Y268.237 Z-1.324
N3400 X198.401 Y268.276 Z-1.253
N3405 X198.439 Y268.307 Z-1.172
N3410 X198.467 Y268.329 Z-1.085
N3415 X198.484 Y268.343 Z-0.994
N3420 X198.49 Y268.348 Z-0.9
N3425 G0 Z5.
N3430 X197.977 Y268.987
N3435 G1 Z1. F150.
N3440 Z-2.4
N3445 X197.971 Y268.982 Z-2.494
N3450 X197.954 Y268.968 Z-2.585
N3455 X197.926 Y268.946 Z-2.672
N3460 X197.887 Y268.915 Z-2.753
N3465 X197.839 Y268.877 Z-2.824
N3470 X197.783 Y268.833 Z-2.885
N3475 X197.72 Y268.783 Z-2.935
N3480 X197.652 Y268.729 Z-2.971
N3485 X197.58 Y268.672 Z-2.993
N3490 X197.507 Y268.614 Z-3.
N3495 X197.036 Y268.241 F300.
N3500 G3 X196.939 Y267.398 I0.373 J-0.47
N3505 G2 X203. Y250. I-21.94 J-17.398 F1200.
N3510 X147. I-28. J0.
N3515 X175. Y278. I28. J0.
N3520 G1 X175.226
N3525 G2 X196.939 Y267.398 I-0.226 J-28.
N3530 G3 X197.782 Y267.301 I0.47 J0.373 F300.
N3535 G1 X198.252 Y267.674
N3540 X198.326 Y267.732 Z-2.993
N3545 X198.398 Y267.789 Z-2.971
N3550 X198.466 Y267.843 Z-2.935
N3555 X198.529 Y267.893 Z-2.885
N3560 X198.585 Y267.937 Z-2.824
N3565 X198.633 Y267.975 Z-2.753
N3570 X198.671 Y268.006 Z-2.672
N3575 X198.699 Y268.028 Z-2.585
N3580 X198.717 Y268.042 Z-2.494
N3585 X198.722 Y268.046 Z-2.4
N3590 G0 Z5.
N3595 X710.302 Y359.319
N3600 G1 Z2.5 F150.
N3605 Z-0.9
N3610 X710.307 Y359.324 Z-0.994
N3615 X710.323 Y359.339 Z-1.085
N3620 X710.348 Y359.365 Z-1.172
N3625 X710.383 Y359.4 Z-1.253
N3630 X710.426 Y359.443 Z-1.324
N3635 X710.477 Y359.494 Z-1.385
N3640 X710.534 Y359.55 Z-1.435
N3645 X710.595 Y359.612 Z-1.471
N3650 X710.66 Y359.677 Z-1.493
N3655 X710.726 Y359.743 Z-1.5
N3660 X711.151 Y360.167 F300.
N3665 G3 Y361.016 I-0.424 J0.424
N3670 X701.251 I-4.95 J-4.95 F1200.
N3675 Y351.116 I4.95 J-4.95
N3680 G1 X800.246 Y252.121
N3685 G2 Y247.879 I-2.121 J-2.121
N3690 G1 X701.251 Y148.884
N3695 G3 Y138.984 I4.95 J-4.95
N3700 X711.151 I4.95 J4.95
N3705 G1 X810.146 Y237.979
N3710 G2 X814.388 I2.121 J-2.121
N3715 G1 X913.383 Y138.984
N3720 G3 X923.283 I4.95 J4.95
N3725 Y148.884 I-4.95 J4.95
N3730 G1 X824.288 Y247.879
N3735 G2 Y252.121 I2.121 J2.121
N3740 G1 X923.283 Y351.116
N3745 G3 Y361.016 I-4.95 J4.95
N3750 X913.383 I-4.95 J-4.95
N3755 G1 X814.388 Y262.021
N3760 G2 X810.146 I-2.121 J2.121
N3765 G1 X711.151 Y361.016
N3770 G3 X710.302 I-0.424 J-0.424 F300.
N3775 G1 X709.878 Y360.591
N3780 X709.812 Y360.525 Z-1.493
N3785 X709.747 Y360.46 Z-1.471
N3790 X709.685 Y360.399 Z-1.435
N3795 X709.628 Y360.342 Z-1.385
N3800 X709.578 Y360.291 Z-1.324
N3805 X709.535 Y360.248 Z-1.253
N3810 X709.5 Y360.213 Z-1.172
N3815 X709.474 Y360.188 Z-1.085
N3820 X709.459 Y360.172 Z-0.994
N3825 X709.454 Y360.167 Z-0.9
N3830 G0 Z5.
N3835 X710.302 Y359.319
N3840 G1 Z1. F150.
N3845 Z-2.4
N3850 X710.307 Y359.324 Z-2.494
N3855 X710.323 Y359.339 Z-2.585
N3860 X710.348 Y359.365 Z-2.672
N3865 X710.383 Y359.4 Z-2.753
N3870 X710.426 Y359.443 Z-2.824
N3875 X710.477 Y359.494 Z-2.885
N3880 X710.534 Y359.55 Z-2.935
N3885 X710.595 Y359.612 Z-2.971
N3890 X710.66 Y359.677 Z-2.993
N3895 X710.726 Y359.743 Z-3.
N3900 X711.151 Y360.167 F300.
N3905 G3 Y361.016 I-0.424 J0.424
N3910 X701.251 I-4.95 J-4.95 F1200.
N3915 Y351.116 I4.95 J-4.95
N3920 G1 X800.246 Y252.121
N3925 G2 Y247.879 I-2.121 J-2.121
N3930 G1 X701.251 Y148.884
N3935 G3 Y138.984 I4.95 J-4.95
N3940 X711.151 I4.95 J4.95
N3945 G1 X810.146 Y237.979
N3950 G2 X814.388 I2.121 J-2.121
N3955 G1 X913.383 Y138.984
N3960 G3 X923.283 I4.95 J4.95
N3965 Y148.884 I-4.95 J4.95
N3970 G1 X824.288 Y247.879
N3975 G2 Y252.121 I2.121 J2.121
N3980 G1 X923.283 Y351.116
N3985 G3 Y361.016 I-4.95 J4.95
N3990 X913.383 I-4.95 J-4.95
N3995 G1 X814.388 Y262.021
N4000 G2 X810.146 I-2.121 J2.121
N4005 G1 X711.151 Y361.016
N4010 G3 X710.302 I-0.424 J-0.424 F300.
N4015 G1 X709.878 Y360.591
N4020 X709.812 Y360.525 Z-2.993
N4025 X709.747 Y360.46 Z-2.971
N4030 X709.685 Y360.399 Z-2.935
N4035 X709.628 Y360.342 Z-2.885
N4040 X709.578 Y360.291 Z-2.824
N4045 X709.535 Y360.248 Z-2.753
N4050 X709.5 Y360.213 Z-2.672
N4055 X709.474 Y360.188 Z-2.585
N4060 X709.459 Y360.172 Z-2.494
N4065 X709.454 Y360.167 Z-2.4
N4070 G0 Z15.
N4075 G53 Z0.
N4080 M30
%
