%
(CONTOUR_2)
(T1  D=6. CR=0. - ZMIN=-22.5 - FLAT END MILL)
N10 G90 G94 G17 G91.1
N15 G21
N20 G53 G0 Z0.
(2D CONTOUR1 2)
N25 M9
N30 T1 M6
N35 S22000 M3
N40 G54
N45 G0 X31.047 Y345.186
N50 G43 Z15. H1
N55 G0 Z5.
N60 G1 Z2.5 F150.33
N65 Z1.6
N70 X31.044 Y345.193 Z1.506
N75 X31.034 Y345.212 Z1.415
N80 X31.017 Y345.244 Z1.328
N85 X30.995 Y345.288 Z1.247
N90 X30.967 Y345.342 Z1.176
N95 X30.934 Y345.406 Z1.115
N100 X30.897 Y345.477 Z1.065
N105 X30.857 Y345.555 Z1.029
N110 X30.815 Y345.636 Z1.007
N115 X30.772 Y345.719 Z1.
N120 X30.497 Y346.252 F300.
N125 G2 X30.754 Y347.061 I0.533 J0.275
N130 X52.18 Y334.766 Z-0.024 I6.746 J-13.061 F150.
N135 G3 X56.674 Y330.5 Z-0.263 I4.494 J0.234
N140 G1 X75. Z-0.903
N145 G3 X79.5 Y335. Z-1.15 I0. J4.5
N150 G1 Y344. Z-1.464
N155 G3 X79.383 Y345.02 Z-1.5 I-4.5 J0.
N160 X75. Y348.5 I-4.383 J-1.02 F650.
N165 G1 X64.75
N170 Y419.5
N175 X75.
N180 G3 X79.5 Y424. I0. J4.5
N185 G1 Y433.
N190 G3 X75. Y437.5 I-4.5 J0.
N195 G1 X52.6
N200 G3 X48.1 Y433. I0. J-4.5
N205 G1 Y423.4
N210 X26.9
N215 Y433.
N220 G3 X22.4 Y437.5 I-4.5 J0.
N225 G1 X0.
N230 G3 X-4.5 Y433. I0. J-4.5
N235 G1 Y424.
N240 G3 X0. Y419.5 I4.5 J0.
N245 G1 X10.25
N250 Y348.5
N255 X0.
N260 G3 X-4.5 Y344. I0. J-4.5
N265 G1 Y335.
N270 G3 X0. Y330.5 I4.5 J0.
N275 G1 X18.326
N280 G3 X22.82 Y334.766 I0. J4.5
N285 G2 X52.18 I14.68 J-0.766
N290 G3 X56.674 Y330.5 I4.494 J0.234
N295 G1 X75.
N300 G3 X79.5 Y335. I0. J4.5
N305 G1 Y344.
N310 G3 X79.383 Y345.02 I-4.5 J0.
N315 X78.168 Y346.012 I-1.249 J-0.291
N320 G2 X76.674 Y346.489 I0.076 J2.811
N325 G3 X75. Y347. I-1.674 J-2.489
N330 G1 X63.25
N335 Y421.
N340 X75.
N345 G3 X78. Y424. I0. J3.
N350 G1 Y433.
N355 G3 X75. Y436. I-3. J0.
N360 G1 X52.6
N365 G3 X49.6 Y433. I0. J-3.
N370 G1 Y421.9
N375 X25.4
N380 Y433.
N385 G3 X22.4 Y436. I-3. J0.
N390 G1 X0.
N395 G3 X-3. Y433. I0. J-3.
N400 G1 Y424.
N405 G3 X0. Y421. I3. J0.
N410 G1 X11.75
N415 Y347.
N420 X0.
N425 G3 X-3. Y344. I0. J-3.
N430 G1 Y335.
N435 G3 X0. Y332. I3. J0.
N440 G1 X18.326
N445 G3 X21.322 Y334.844 I0. J3.
N450 G2 X53.678 I16.178 J-0.844
N455 G3 X56.674 Y332. I2.996 J0.156
N460 G1 X75.
N465 G3 X78. Y335. I0. J3.
N470 G1 Y344.
N475 G3 X76.674 Y346.489 I-3. J0.
N480 G2 X76.511 Y347.322 I0.335 J0.498 F300.
N485 G1 X76.846 Y347.82
N490 X76.899 Y347.898 Z-1.493
N495 X76.95 Y347.974 Z-1.471
N500 X76.998 Y348.046 Z-1.435
N505 X77.043 Y348.113 Z-1.385
N510 X77.083 Y348.172 Z-1.324
N515 X77.117 Y348.223 Z-1.253
N520 X77.145 Y348.263 Z-1.172
N525 X77.165 Y348.293 Z-1.085
N530 X77.177 Y348.312 Z-0.994
N535 X77.181 Y348.318 Z-0.9
N540 G0 Z5.
N545 X31.047 Y345.186
N550 G1 Z1. F150.33
N555 Z0.1
N560 X31.044 Y345.193 Z0.006
N565 X31.034 Y345.212 Z-0.085
N570 X31.017 Y345.244 Z-0.172
N575 X30.995 Y345.288 Z-0.253
N580 X30.967 Y345.342 Z-0.324
N585 X30.934 Y345.406 Z-0.385
N590 X30.897 Y345.477 Z-0.435
N595 X30.857 Y345.555 Z-0.471
N600 X30.815 Y345.636 Z-0.493
N605 X30.772 Y345.719 Z-0.5
N610 X30.497 Y346.252 F300.
N615 G2 X30.754 Y347.061 I0.533 J0.275
N620 X52.18 Y334.766 Z-1.524 I6.746 J-13.061 F150.
N625 G3 X56.674 Y330.5 Z-1.763 I4.494 J0.234
N630 G1 X75. Z-2.403
N635 G3 X79.5 Y335. Z-2.65 I0. J4.5
N640 G1 Y344. Z-2.964
N645 G3 X79.383 Y345.02 Z-3. I-4.5 J0.
N650 X75. Y348.5 I-4.383 J-1.02 F650.
N655 G1 X64.75
N660 Y419.5
N665 X75.
N670 G3 X79.5 Y424. I0. J4.5
N675 G1 Y433.
N680 G3 X75. Y437.5 I-4.5 J0.
N685 G1 X52.6
N690 G3 X48.1 Y433. I0. J-4.5
N695 G1 Y423.4
N700 X26.9
N705 Y433.
N710 G3 X22.4 Y437.5 I-4.5 J0.
N715 G1 X0.
N720 G3 X-4.5 Y433. I0. J-4.5
N725 G1 Y424.
N730 G3 X0. Y419.5 I4.5 J0.
N735 G1 X10.25
N740 Y348.5
N745 X0.
N750 G3 X-4.5 Y344. I0. J-4.5
N755 G1 Y335.
N760 G3 X0. Y330.5 I4.5 J0.
N765 G1 X18.326
N770 G3 X22.82 Y334.766 I0. J4.5
N775 G2 X52.18 I14.68 J-0.766
N780 G3 X56.674 Y330.5 I4.494 J0.234
N785 G1 X75.
N790 G3 X79.5 Y335. I0. J4.5
N795 G1 Y344.
N800 G3 X79.383 Y345.02 I-4.5 J0.
N805 X78.168 Y346.012 I-1.249 J-0.291
N810 G2 X76.674 Y346.489 I0.076 J2.811
N815 G3 X75. Y347. I-1.674 J-2.489
N820 G1 X63.25
N825 Y421.
N830 X75.
N835 G3 X78. Y424. I0. J3.
N840 G1 Y433.
N845 G3 X75. Y436. I-3. J0.
N850 G1 X52.6
N855 G3 X49.6 Y433. I0. J-3.
N860 G1 Y421.9
N865 X25.4
N870 Y433.
N875 G3 X22.4 Y436. I-3. J0.
N880 G1 X0.
N885 G3 X-3. Y433. I0. J-3.
N890 G1 Y424.
N895 G3 X0. Y421. I3. J0.
N900 G1 X11.75
N905 Y347.
N910 X0.
N915 G3 X-3. Y344. I0. J-3.
N920 G1 Y335.
N925 G3 X0. Y332. I3. J0.
N930 G1 X18.326
N935 G3 X21.322 Y334.844 I0. J3.
N940 G2 X53.678 I16.178 J-0.844
N945 G3 X56.674 Y332. I2.996 J0.156
N950 G1 X75.
N955 G3 X78. Y335. I0. J3.
N960 G1 Y344.
N965 G3 X76.674 Y346.489 I-3. J0.
N970 G2 X76.511 Y347.322 I0.335 J0.498 F300.
N975 G1 X76.846 Y347.82
N980 X76.899 Y347.898 Z-2.993
N985 X76.95 Y347.974 Z-2.971
N990 X76.998 Y348.046 Z-2.935
N995 X77.043 Y348.113 Z-2.885
N1000 X77.083 Y348.172 Z-2.824
N1005 X77.117 Y348.223 Z-2.753
N1010 X77.145 Y348.263 Z-2.672
N1015 X77.165 Y348.293 Z-2.585
N1020 X77.177 Y348.312 Z-2.494
N1025 X77.181 Y348.318 Z-2.4
N1030 G0 Z5.
N1035 X31.047 Y345.186
N1040 G1 Z-0.5 F150.33
N1045 Z-1.4
N1050 X31.044 Y345.193 Z-1.494
N1055 X31.034 Y345.212 Z-1.585
N1060 X31.017 Y345.244 Z-1.672
N1065 X30.995 Y345.288 Z-1.753
N1070 X30.967 Y345.342 Z-1.824
N1075 X30.934 Y345.406 Z-1.885
N1080 X30.897 Y345.477 Z-1.935
N1085 X30.857 Y345.555 Z-1.971
N1090 X30.815 Y345.636 Z-1.993
N1095 X30.772 Y345.719 Z-2.
N1100 X30.497 Y346.252 F300.
N1105 G2 X30.754 Y347.061 I0.533 J0.275
N1110 X52.18 Y334.766 Z-3.024 I6.746 J-13.061 F150.
N1115 G3 X56.674 Y330.5 Z-3.263 I4.494 J0.234
N1120 G1 X75. Z-3.903
N1125 G3 X79.5 Y335. Z-4.15 I0. J4.5
N1130 G1 Y344. Z-4.464
N1135 G3 X79.383 Y345.02 Z-4.5 I-4.5 J0.
N1140 X75. Y348.5 I-4.383 J-1.02 F650.
N1145 G1 X64.75
N1150 Y419.5
N1155 X75.
N1160 G3 X79.5 Y424. I0. J4.5
N1165 G1 Y433.
N1170 G3 X75. Y437.5 I-4.5 J0.
N1175 G1 X52.6
N1180 G3 X48.1 Y433. I0. J-4.5
N1185 G1 Y423.4
N1190 X26.9
N1195 Y433.
N1200 G3 X22.4 Y437.5 I-4.5 J0.
N1205 G1 X0.
N1210 G3 X-4.5 Y433. I0. J-4.5
N1215 G1 Y424.
N1220 G3 X0. Y419.5 I4.5 J0.
N1225 G1 X10.25
N1230 Y348.5
N1235 X0.
N1240 G3 X-4.5 Y344. I0. J-4.5
N1245 G1 Y335.
N1250 G3 X0. Y330.5 I4.5 J0.
N1255 G1 X18.326
N1260 G3 X22.82 Y334.766 I0. J4.5
N1265 G2 X52.18 I14.68 J-0.766
N1270 G3 X56.674 Y330.5 I4.494 J0.234
N1275 G1 X75.
N1280 G3 X79.5 Y335. I0. J4.5
N1285 G1 Y344.
N1290 G3 X79.383 Y345.02 I-4.5 J0.
N1295 X78.168 Y346.012 I-1.249 J-0.291
N1300 G2 X76.674 Y346.489 I0.076 J2.811
N1305 G3 X75. Y347. I-1.674 J-2.489
N1310 G1 X63.25
N1315 Y421.
N1320 X75.
N1325 G3 X78. Y424. I0. J3.
N1330 G1 Y433.
N1335 G3 X75. Y436. I-3. J0.
N1340 G1 X52.6
N1345 G3 X49.6 Y433. I0. J-3.
N1350 G1 Y421.9
N1355 X25.4
N1360 Y433.
N1365 G3 X22.4 Y436. I-3. J0.
N1370 G1 X0.
N1375 G3 X-3. Y433. I0. J-3.
N1380 G1 Y424.
N1385 G3 X0. Y421. I3. J0.
N1390 G1 X11.75
N1395 Y347.
N1400 X0.
N1405 G3 X-3. Y344. I0. J-3.
N1410 G1 Y335.
N1415 G3 X0. Y332. I3. J0.
N1420 G1 X18.326
N1425 G3 X21.322 Y334.844 I0. J3.
N1430 G2 X53.678 I16.178 J-0.844
N1435 G3 X56.674 Y332. I2.996 J0.156
N1440 G1 X75.
N1445 G3 X78. Y335. I0. J3.
N1450 G1 Y344.
N1455 G3 X76.674 Y346.489 I-3. J0.
N1460 G2 X76.511 Y347.322 I0.335 J0.498 F300.
N1465 G1 X76.846 Y347.82
N1470 X76.899 Y347.898 Z-4.493
N1475 X76.95 Y347.974 Z-4.471
N1480 X76.998 Y348.046 Z-4.435
N1485 X77.043 Y348.113 Z-4.385
N1490 X77.083 Y348.172 Z-4.324
N1495 X77.117 Y348.223 Z-4.253
N1500 X77.145 Y348.263 Z-4.172
N1505 X77.165 Y348.293 Z-4.085
N1510 X77.177 Y348.312 Z-3.994
N1515 X77.181 Y348.318 Z-3.9
N1520 G0 Z5.
N1525 X31.047 Y345.186
N1530 G1 Z-2. F150.33
N1535 Z-2.9
N1540 X31.044 Y345.193 Z-2.994
N1545 X31.034 Y345.212 Z-3.085
N1550 X31.017 Y345.244 Z-3.172
N1555 X30.995 Y345.288 Z-3.253
N1560 X30.967 Y345.342 Z-3.324
N1565 X30.934 Y345.406 Z-3.385
N1570 X30.897 Y345.477 Z-3.435
N1575 X30.857 Y345.555 Z-3.471
N1580 X30.815 Y345.636 Z-3.493
N1585 X30.772 Y345.719 Z-3.5
N1590 X30.497 Y346.252 F300.
N1595 G2 X30.754 Y347.061 I0.533 J0.275
N1600 X52.18 Y334.766 Z-4.524 I6.746 J-13.061 F150.
N1605 G3 X56.674 Y330.5 Z-4.763 I4.494 J0.234
N1610 G1 X75. Z-5.403
N1615 G3 X79.5 Y335. Z-5.65 I0. J4.5
N1620 G1 Y344. Z-5.964
N1625 G3 X79.383 Y345.02 Z-6. I-4.5 J0.
N1630 X75. Y348.5 I-4.383 J-1.02 F650.
N1635 G1 X64.75
N1640 Y419.5
N1645 X75.
N1650 G3 X79.5 Y424. I0. J4.5
N1655 G1 Y433.
N1660 G3 X75. Y437.5 I-4.5 J0.
N1665 G1 X52.6
N1670 G3 X48.1 Y433. I0. J-4.5
N1675 G1 Y423.4
N1680 X26.9
N1685 Y433.
N1690 G3 X22.4 Y437.5 I-4.5 J0.
N1695 G1 X0.
N1700 G3 X-4.5 Y433. I0. J-4.5
N1705 G1 Y424.
N1710 G3 X0. Y419.5 I4.5 J0.
N1715 G1 X10.25
N1720 Y348.5
N1725 X0.
N1730 G3 X-4.5 Y344. I0. J-4.5
N1735 G1 Y335.
N1740 G3 X0. Y330.5 I4.5 J0.
N1745 G1 X18.326
N1750 G3 X22.82 Y334.766 I0. J4.5
N1755 G2 X52.18 I14.68 J-0.766
N1760 G3 X56.674 Y330.5 I4.494 J0.234
N1765 G1 X75.
N1770 G3 X79.5 Y335. I0. J4.5
N1775 G1 Y344.
N1780 G3 X79.383 Y345.02 I-4.5 J0.
N1785 X78.168 Y346.012 I-1.249 J-0.291
N1790 G2 X76.674 Y346.489 I0.076 J2.811
N1795 G3 X75. Y347. I-1.674 J-2.489
N1800 G1 X63.25
N1805 Y421.
N1810 X75.
N1815 G3 X78. Y424. I0. J3.
N1820 G1 Y433.
N1825 G3 X75. Y436. I-3. J0.
N1830 G1 X52.6
N1835 G3 X49.6 Y433. I0. J-3.
N1840 G1 Y421.9
N1845 X25.4
N1850 Y433.
N1855 G3 X22.4 Y436. I-3. J0.
N1860 G1 X0.
N1865 G3 X-3. Y433. I0. J-3.
N1870 G1 Y424.
N1875 G3 X0. Y421. I3. J0.
N1880 G1 X11.75
N1885 Y347.
N1890 X0.
N1895 G3 X-3. Y344. I0. J-3.
N1900 G1 Y335.
N1905 G3 X0. Y332. I3. J0.
N1910 G1 X18.326
N1915 G3 X21.322 Y334.844 I0. J3.
N1920 G2 X53.678 I16.178 J-0.844
N1925 G3 X56.674 Y332. I2.996 J0.156
N1930 G1 X75.
N1935 G3 X78. Y335. I0. J3.
N1940 G1 Y344.
N1945 G3 X76.674 Y346.489 I-3. J0.
N1950 G2 X76.511 Y347.322 I0.335 J0.498 F300.
N1955 G1 X76.846 Y347.82
N1960 X76.899 Y347.898 Z-5.993
N1965 X76.95 Y347.974 Z-5.971
N1970 X76.998 Y348.046 Z-5.935
N1975 X77.043 Y348.113 Z-5.885
N1980 X77.083 Y348.172 Z-5.824
N1985 X77.117 Y348.223 Z-5.753
N1990 X77.145 Y348.263 Z-5.672
N1995 X77.165 Y348.293 Z-5.585
N2000 X77.177 Y348.312 Z-5.494
N2005 X77.181 Y348.318 Z-5.4
N2010 G0 Z5.
N2015 X31.047 Y345.186
N2020 G1 Z-3.5 F150.33
N2025 Z-4.4
N2030 X31.044 Y345.193 Z-4.494
N2035 X31.034 Y345.212 Z-4.585
N2040 X31.017 Y345.244 Z-4.672
N2045 X30.995 Y345.288 Z-4.753
N2050 X30.967 Y345.342 Z-4.824
N2055 X30.934 Y345.406 Z-4.885
N2060 X30.897 Y345.477 Z-4.935
N2065 X30.857 Y345.555 Z-4.971
N2070 X30.815 Y345.636 Z-4.993
N2075 X30.772 Y345.719 Z-5.
N2080 X30.497 Y346.252 F300.
N2085 G2 X30.754 Y347.061 I0.533 J0.275
N2090 X52.18 Y334.766 Z-6.024 I6.746 J-13.061 F150.
N2095 G3 X56.674 Y330.5 Z-6.263 I4.494 J0.234
N2100 G1 X75. Z-6.903
N2105 G3 X79.5 Y335. Z-7.15 I0. J4.5
N2110 G1 Y344. Z-7.464
N2115 G3 X79.383 Y345.02 Z-7.5 I-4.5 J0.
N2120 X75. Y348.5 I-4.383 J-1.02 F650.
N2125 G1 X64.75
N2130 Y419.5
N2135 X75.
N2140 G3 X79.5 Y424. I0. J4.5
N2145 G1 Y433.
N2150 G3 X75. Y437.5 I-4.5 J0.
N2155 G1 X52.6
N2160 G3 X48.1 Y433. I0. J-4.5
N2165 G1 Y423.4
N2170 X26.9
N2175 Y433.
N2180 G3 X22.4 Y437.5 I-4.5 J0.
N2185 G1 X0.
N2190 G3 X-4.5 Y433. I0. J-4.5
N2195 G1 Y424.
N2200 G3 X0. Y419.5 I4.5 J0.
N2205 G1 X10.25
N2210 Y348.5
N2215 X0.
N2220 G3 X-4.5 Y344. I0. J-4.5
N2225 G1 Y335.
N2230 G3 X0. Y330.5 I4.5 J0.
N2235 G1 X18.326
N2240 G3 X22.82 Y334.766 I0. J4.5
N2245 G2 X52.18 I14.68 J-0.766
N2250 G3 X56.674 Y330.5 I4.494 J0.234
N2255 G1 X75.
N2260 G3 X79.5 Y335. I0. J4.5
N2265 G1 Y344.
N2270 G3 X79.383 Y345.02 I-4.5 J0.
N2275 X78.168 Y346.012 I-1.249 J-0.291
N2280 G2 X76.674 Y346.489 I0.076 J2.811
N2285 G3 X75. Y347. I-1.674 J-2.489
N2290 G1 X63.25
N2295 Y421.
N2300 X75.
N2305 G3 X78. Y424. I0. J3.
N2310 G1 Y433.
N2315 G3 X75. Y436. I-3. J0.
N2320 G1 X52.6
N2325 G3 X49.6 Y433. I0. J-3.
N2330 G1 Y421.9
N2335 X25.4
N2340 Y433.
N2345 G3 X22.4 Y436. I-3. J0.
N2350 G1 X0.
N2355 G3 X-3. Y433. I0. J-3.
N2360 G1 Y424.
N2365 G3 X0. Y421. I3. J0.
N2370 G1 X11.75
N2375 Y347.
N2380 X0.
N2385 G3 X-3. Y344. I0. J-3.
N2390 G1 Y335.
N2395 G3 X0. Y332. I3. J0.
N2400 G1 X18.326
N2405 G3 X21.322 Y334.844 I0. J3.
N2410 G2 X53.678 I16.178 J-0.844
N2415 G3 X56.674 Y332. I2.996 J0.156
N2420 G1 X75.
N2425 G3 X78. Y335. I0. J3.
N2430 G1 Y344.
N2435 G3 X76.674 Y346.489 I-3. J0.
N2440 G2 X76.511 Y347.322 I0.335 J0.498 F300.
N2445 G1 X76.846 Y347.82
N2450 X76.899 Y347.898 Z-7.493
N2455 X76.95 Y347.974 Z-7.471
N2460 X76.998 Y348.046 Z-7.435
N2465 X77.043 Y348.113 Z-7.385
N2470 X77.083 Y348.172 Z-7.324
N2475 X77.117 Y348.223 Z-7.253
N2480 X77.145 Y348.263 Z-7.172
N2485 X77.165 Y348.293 Z-7.085
N2490 X77.177 Y348.312 Z-6.994
N2495 X77.181 Y348.318 Z-6.9
N2500 G0 Z5.
N2505 X31.047 Y345.186
N2510 G1 Z-5. F150.33
N2515 Z-5.9
N2520 X31.044 Y345.193 Z-5.994
N2525 X31.034 Y345.212 Z-6.085
N2530 X31.017 Y345.244 Z-6.172
N2535 X30.995 Y345.288 Z-6.253
N2540 X30.967 Y345.342 Z-6.324
N2545 X30.934 Y345.406 Z-6.385
N2550 X30.897 Y345.477 Z-6.435
N2555 X30.857 Y345.555 Z-6.471
N2560 X30.815 Y345.636 Z-6.493
N2565 X30.772 Y345.719 Z-6.5
N2570 X30.497 Y346.252 F300.
N2575 G2 X30.754 Y347.061 I0.533 J0.275
N2580 X52.18 Y334.766 Z-7.524 I6.746 J-13.061 F150.
N2585 G3 X56.674 Y330.5 Z-7.763 I4.494 J0.234
N2590 G1 X75. Z-8.403
N2595 G3 X79.5 Y335. Z-8.65 I0. J4.5
N2600 G1 Y344. Z-8.964
N2605 G3 X79.383 Y345.02 Z-9. I-4.5 J0.
N2610 X75. Y348.5 I-4.383 J-1.02 F650.
N2615 G1 X64.75
N2620 Y419.5
N2625 X75.
N2630 G3 X79.5 Y424. I0. J4.5
N2635 G1 Y433.
N2640 G3 X75. Y437.5 I-4.5 J0.
N2645 G1 X52.6
N2650 G3 X48.1 Y433. I0. J-4.5
N2655 G1 Y423.4
N2660 X26.9
N2665 Y433.
N2670 G3 X22.4 Y437.5 I-4.5 J0.
N2675 G1 X0.
N2680 G3 X-4.5 Y433. I0. J-4.5
N2685 G1 Y424.
N2690 G3 X0. Y419.5 I4.5 J0.
N2695 G1 X10.25
N2700 Y348.5
N2705 X0.
N2710 G3 X-4.5 Y344. I0. J-4.5
N2715 G1 Y335.
N2720 G3 X0. Y330.5 I4.5 J0.
N2725 G1 X18.326
N2730 G3 X22.82 Y334.766 I0. J4.5
N2735 G2 X52.18 I14.68 J-0.766
N2740 G3 X56.674 Y330.5 I4.494 J0.234
N2745 G1 X75.
N2750 G3 X79.5 Y335. I0. J4.5
N2755 G1 Y344.
N2760 G3 X79.383 Y345.02 I-4.5 J0.
N2765 X78.168 Y346.012 I-1.249 J-0.291
N2770 G2 X76.674 Y346.489 I0.076 J2.811
N2775 G3 X75. Y347. I-1.674 J-2.489
N2780 G1 X63.25
N2785 Y421.
N2790 X75.
N2795 G3 X78. Y424. I0. J3.
N2800 G1 Y433.
N2805 G3 X75. Y436. I-3. J0.
N2810 G1 X52.6
N2815 G3 X49.6 Y433. I0. J-3.
N2820 G1 Y421.9
N2825 X25.4
N2830 Y433.
N2835 G3 X22.4 Y436. I-3. J0.
N2840 G1 X0.
N2845 G3 X-3. Y433. I0. J-3.
N2850 G1 Y424.
N2855 G3 X0. Y421. I3. J0.
N2860 G1 X11.75
N2865 Y347.
N2870 X0.
N2875 G3 X-3. Y344. I0. J-3.
N2880 G1 Y335.
N2885 G3 X0. Y332. I3. J0.
N2890 G1 X18.326
N2895 G3 X21.322 Y334.844 I0. J3.
N2900 G2 X53.678 I16.178 J-0.844
N2905 G3 X56.674 Y332. I2.996 J0.156
N2910 G1 X75.
N2915 G3 X78. Y335. I0. J3.
N2920 G1 Y344.
N2925 G3 X76.674 Y346.489 I-3. J0.
N2930 G2 X76.511 Y347.322 I0.335 J0.498 F300.
N2935 G1 X76.846 Y347.82
N2940 X76.899 Y347.898 Z-8.993
N2945 X76.95 Y347.974 Z-8.971
N2950 X76.998 Y348.046 Z-8.935
N2955 X77.043 Y348.113 Z-8.885
N2960 X77.083 Y348.172 Z-8.824
N2965 X77.117 Y348.223 Z-8.753
N2970 X77.145 Y348.263 Z-8.672
N2975 X77.165 Y348.293 Z-8.585
N2980 X77.177 Y348.312 Z-8.494
N2985 X77.181 Y348.318 Z-8.4
N2990 G0 Z5.
N2995 X31.047 Y345.186
N3000 G1 Z-6.5 F150.33
N3005 Z-7.4
N3010 X31.044 Y345.193 Z-7.494
N3015 X31.034 Y345.212 Z-7.585
N3020 X31.017 Y345.244 Z-7.672
N3025 X30.995 Y345.288 Z-7.753
N3030 X30.967 Y345.342 Z-7.824
N3035 X30.934 Y345.406 Z-7.885
N3040 X30.897 Y345.477 Z-7.935
N3045 X30.857 Y345.555 Z-7.971
N3050 X30.815 Y345.636 Z-7.993
N3055 X30.772 Y345.719 Z-8.
N3060 X30.497 Y346.252 F300.
N3065 G2 X30.754 Y347.061 I0.533 J0.275
N3070 X52.18 Y334.766 Z-9.024 I6.746 J-13.061 F150.
N3075 G3 X56.674 Y330.5 Z-9.263 I4.494 J0.234
N3080 G1 X75. Z-9.903
N3085 G3 X79.5 Y335. Z-10.15 I0. J4.5
N3090 G1 Y344. Z-10.464
N3095 G3 X79.383 Y345.02 Z-10.5 I-4.5 J0.
N3100 X75. Y348.5 I-4.383 J-1.02 F650.
N3105 G1 X64.75
N3110 Y419.5
N3115 X75.
N3120 G3 X79.5 Y424. I0. J4.5
N3125 G1 Y433.
N3130 G3 X75. Y437.5 I-4.5 J0.
N3135 G1 X52.6
N3140 G3 X48.1 Y433. I0. J-4.5
N3145 G1 Y423.4
N3150 X26.9
N3155 Y433.
N3160 G3 X22.4 Y437.5 I-4.5 J0.
N3165 G1 X0.
N3170 G3 X-4.5 Y433. I0. J-4.5
N3175 G1 Y424.
N3180 G3 X0. Y419.5 I4.5 J0.
N3185 G1 X10.25
N3190 Y348.5
N3195 X0.
N3200 G3 X-4.5 Y344. I0. J-4.5
N3205 G1 Y335.
N3210 G3 X0. Y330.5 I4.5 J0.
N3215 G1 X18.326
N3220 G3 X22.82 Y334.766 I0. J4.5
N3225 G2 X52.18 I14.68 J-0.766
N3230 G3 X56.674 Y330.5 I4.494 J0.234
N3235 G1 X75.
N3240 G3 X79.5 Y335. I0. J4.5
N3245 G1 Y344.
N3250 G3 X79.383 Y345.02 I-4.5 J0.
N3255 X78.168 Y346.012 I-1.249 J-0.291
N3260 G2 X76.674 Y346.489 I0.076 J2.811
N3265 G3 X75. Y347. I-1.674 J-2.489
N3270 G1 X63.25
N3275 Y421.
N3280 X75.
N3285 G3 X78. Y424. I0. J3.
N3290 G1 Y433.
N3295 G3 X75. Y436. I-3. J0.
N3300 G1 X52.6
N3305 G3 X49.6 Y433. I0. J-3.
N3310 G1 Y421.9
N3315 X25.4
N3320 Y433.
N3325 G3 X22.4 Y436. I-3. J0.
N3330 G1 X0.
N3335 G3 X-3. Y433. I0. J-3.
N3340 G1 Y424.
N3345 G3 X0. Y421. I3. J0.
N3350 G1 X11.75
N3355 Y347.
N3360 X0.
N3365 G3 X-3. Y344. I0. J-3.
N3370 G1 Y335.
N3375 G3 X0. Y332. I3. J0.
N3380 G1 X18.326
N3385 G3 X21.322 Y334.844 I0. J3.
N3390 G2 X53.678 I16.178 J-0.844
N3395 G3 X56.674 Y332. I2.996 J0.156
N3400 G1 X75.
N3405 G3 X78. Y335. I0. J3.
N3410 G1 Y344.
N3415 G3 X76.674 Y346.489 I-3. J0.
N3420 G2 X76.511 Y347.322 I0.335 J0.498 F300.
N3425 G1 X76.846 Y347.82
N3430 X76.899 Y347.898 Z-10.493
N3435 X76.95 Y347.974 Z-10.471
N3440 X76.998 Y348.046 Z-10.435
N3445 X77.043 Y348.113 Z-10.385
N3450 X77.083 Y348.172 Z-10.324
N3455 X77.117 Y348.223 Z-10.253
N3460 X77.145 Y348.263 Z-10.172
N3465 X77.165 Y348.293 Z-10.085
N3470 X77.177 Y348.312 Z-9.994
N3475 X77.181 Y348.318 Z-9.9
N3480 G0 Z5.
N3485 X31.047 Y345.186
N3490 G1 Z-8. F150.33
N3495 Z-8.9
N3500 X31.044 Y345.193 Z-8.994
N3505 X31.034 Y345.212 Z-9.085
N3510 X31.017 Y345.244 Z-9.172
N3515 X30.995 Y345.288 Z-9.253
N3520 X30.967 Y345.342 Z-9.324
N3525 X30.934 Y345.406 Z-9.385
N3530 X30.897 Y345.477 Z-9.435
N3535 X30.857 Y345.555 Z-9.471
N3540 X30.815 Y345.636 Z-9.493
N3545 X30.772 Y345.719 Z-9.5
N3550 X30.497 Y346.252 F300.
N3555 G2 X30.754 Y347.061 I0.533 J0.275
N3560 X52.18 Y334.766 Z-10.524 I6.746 J-13.061 F150.
N3565 G3 X56.674 Y330.5 Z-10.763 I4.494 J0.234
N3570 G1 X75. Z-11.403
N3575 G3 X79.5 Y335. Z-11.65 I0. J4.5
N3580 G1 Y344. Z-11.964
N3585 G3 X79.383 Y345.02 Z-12. I-4.5 J0.
N3590 X75. Y348.5 I-4.383 J-1.02 F650.
N3595 G1 X64.75
N3600 Y419.5
N3605 X75.
N3610 G3 X79.5 Y424. I0. J4.5
N3615 G1 Y433.
N3620 G3 X75. Y437.5 I-4.5 J0.
N3625 G1 X52.6
N3630 G3 X48.1 Y433. I0. J-4.5
N3635 G1 Y423.4
N3640 X26.9
N3645 Y433.
N3650 G3 X22.4 Y437.5 I-4.5 J0.
N3655 G1 X0.
N3660 G3 X-4.5 Y433. I0. J-4.5
N3665 G1 Y424.
N3670 G3 X0. Y419.5 I4.5 J0.
N3675 G1 X10.25
N3680 Y348.5
N3685 X0.
N3690 G3 X-4.5 Y344. I0. J-4.5
N3695 G1 Y335.
N3700 G3 X0. Y330.5 I4.5 J0.
N3705 G1 X18.326
N3710 G3 X22.82 Y334.766 I0. J4.5
N3715 G2 X52.18 I14.68 J-0.766
N3720 G3 X56.674 Y330.5 I4.494 J0.234
N3725 G1 X75.
N3730 G3 X79.5 Y335. I0. J4.5
N3735 G1 Y344.
N3740 G3 X79.383 Y345.02 I-4.5 J0.
N3745 X78.168 Y346.012 I-1.249 J-0.291
N3750 G2 X76.674 Y346.489 I0.076 J2.811
N3755 G3 X75. Y347. I-1.674 J-2.489
N3760 G1 X63.25
N3765 Y421.
N3770 X75.
N3775 G3 X78. Y424. I0. J3.
N3780 G1 Y433.
N3785 G3 X75. Y436. I-3. J0.
N3790 G1 X52.6
N3795 G3 X49.6 Y433. I0. J-3.
N3800 G1 Y421.9
N3805 X25.4
N3810 Y433.
N3815 G3 X22.4 Y436. I-3. J0.
N3820 G1 X0.
N3825 G3 X-3. Y433. I0. J-3.
N3830 G1 Y424.
N3835 G3 X0. Y421. I3. J0.
N3840 G1 X11.75
N3845 Y347.
N3850 X0.
N3855 G3 X-3. Y344. I0. J-3.
N3860 G1 Y335.
N3865 G3 X0. Y332. I3. J0.
N3870 G1 X18.326
N3875 G3 X21.322 Y334.844 I0. J3.
N3880 G2 X53.678 I16.178 J-0.844
N3885 G3 X56.674 Y332. I2.996 J0.156
N3890 G1 X75.
N3895 G3 X78. Y335. I0. J3.
N3900 G1 Y344.
N3905 G3 X76.674 Y346.489 I-3. J0.
N3910 G2 X76.511 Y347.322 I0.335 J0.498 F300.
N3915 G1 X76.846 Y347.82
N3920 X76.899 Y347.898 Z-11.993
N3925 X76.95 Y347.974 Z-11.971
N3930 X76.998 Y348.046 Z-11.935
N3935 X77.043 Y348.113 Z-11.885
N3940 X77.083 Y348.172 Z-11.824
N3945 X77.117 Y348.223 Z-11.753
N3950 X77.145 Y348.263 Z-11.672
N3955 X77.165 Y348.293 Z-11.585
N3960 X77.177 Y348.312 Z-11.494
N3965 X77.181 Y348.318 Z-11.4
N3970 G0 Z5.
N3975 X31.047 Y345.186
N3980 G1 Z-9.5 F150.33
N3985 Z-10.4
N3990 X31.044 Y345.193 Z-10.494
N3995 X31.034 Y345.212 Z-10.585
N4000 X31.017 Y345.244 Z-10.672
N4005 X30.995 Y345.288 Z-10.753
N4010 X30.967 Y345.342 Z-10.824
N4015 X30.934 Y345.406 Z-10.885
N4020 X30.897 Y345.477 Z-10.935
N4025 X30.857 Y345.555 Z-10.971
N4030 X30.815 Y345.636 Z-10.993
N4035 X30.772 Y345.719 Z-11.
N4040 X30.497 Y346.252 F300.
N4045 G2 X30.754 Y347.061 I0.533 J0.275
N4050 X52.18 Y334.766 Z-12.024 I6.746 J-13.061 F150.
N4055 G3 X56.674 Y330.5 Z-12.263 I4.494 J0.234
N4060 G1 X75. Z-12.903
N4065 G3 X79.5 Y335. Z-13.15 I0. J4.5
N4070 G1 Y344. Z-13.464
N4075 G3 X79.383 Y345.02 Z-13.5 I-4.5 J0.
N4080 X75. Y348.5 I-4.383 J-1.02 F650.
N4085 G1 X64.75
N4090 Y419.5
N4095 X75.
N4100 G3 X79.5 Y424. I0. J4.5
N4105 G1 Y433.
N4110 G3 X75. Y437.5 I-4.5 J0.
N4115 G1 X52.6
N4120 G3 X48.1 Y433. I0. J-4.5
N4125 G1 Y423.4
N4130 X26.9
N4135 Y433.
N4140 G3 X22.4 Y437.5 I-4.5 J0.
N4145 G1 X0.
N4150 G3 X-4.5 Y433. I0. J-4.5
N4155 G1 Y424.
N4160 G3 X0. Y419.5 I4.5 J0.
N4165 G1 X10.25
N4170 Y348.5
N4175 X0.
N4180 G3 X-4.5 Y344. I0. J-4.5
N4185 G1 Y335.
N4190 G3 X0. Y330.5 I4.5 J0.
N4195 G1 X18.326
N4200 G3 X22.82 Y334.766 I0. J4.5
N4205 G2 X52.18 I14.68 J-0.766
N4210 G3 X56.674 Y330.5 I4.494 J0.234
N4215 G1 X75.
N4220 G3 X79.5 Y335. I0. J4.5
N4225 G1 Y344.
N4230 G3 X79.383 Y345.02 I-4.5 J0.
N4235 X78.168 Y346.012 I-1.249 J-0.291
N4240 G2 X76.674 Y346.489 I0.076 J2.811
N4245 G3 X75. Y347. I-1.674 J-2.489
N4250 G1 X63.25
N4255 Y421.
N4260 X75.
N4265 G3 X78. Y424. I0. J3.
N4270 G1 Y433.
N4275 G3 X75. Y436. I-3. J0.
N4280 G1 X52.6
N4285 G3 X49.6 Y433. I0. J-3.
N4290 G1 Y421.9
N4295 X25.4
N4300 Y433.
N4305 G3 X22.4 Y436. I-3. J0.
N4310 G1 X0.
N4315 G3 X-3. Y433. I0. J-3.
N4320 G1 Y424.
N4325 G3 X0. Y421. I3. J0.
N4330 G1 X11.75
N4335 Y347.
N4340 X0.
N4345 G3 X-3. Y344. I0. J-3.
N4350 G1 Y335.
N4355 G3 X0. Y332. I3. J0.
N4360 G1 X18.326
N4365 G3 X21.322 Y334.844 I0. J3.
N4370 G2 X53.678 I16.178 J-0.844
N4375 G3 X56.674 Y332. I2.996 J0.156
N4380 G1 X75.
N4385 G3 X78. Y335. I0. J3.
N4390 G1 Y344.
N4395 G3 X76.674 Y346.489 I-3. J0.
N4400 G2 X76.511 Y347.322 I0.335 J0.498 F300.
N4405 G1 X76.846 Y347.82
N4410 X76.899 Y347.898 Z-13.493
N4415 X76.95 Y347.974 Z-13.471
N4420 X76.998 Y348.046 Z-13.435
N4425 X77.043 Y348.113 Z-13.385
N4430 X77.083 Y348.172 Z-13.324
N4435 X77.117 Y348.223 Z-13.253
N4440 X77.145 Y348.263 Z-13.172
N4445 X77.165 Y348.293 Z-13.085
N4450 X77.177 Y348.312 Z-12.994
N4455 X77.181 Y348.318 Z-12.9
N4460 G0 Z5.
N4465 X31.047 Y345.186
N4470 G1 Z-11. F150.33
N4475 Z-11.9
N4480 X31.044 Y345.193 Z-11.994
N4485 X31.034 Y345.212 Z-12.085
N4490 X31.017 Y345.244 Z-12.172
N4495 X30.995 Y345.288 Z-12.253
N4500 X30.967 Y345.342 Z-12.324
N4505 X30.934 Y345.406 Z-12.385
N4510 X30.897 Y345.477 Z-12.435
N4515 X30.857 Y345.555 Z-12.471
N4520 X30.815 Y345.636 Z-12.493
N4525 X30.772 Y345.719 Z-12.5
N4530 X30.497 Y346.252 F300.
N4535 G2 X30.754 Y347.061 I0.533 J0.275
N4540 X52.18 Y334.766 Z-13.524 I6.746 J-13.061 F150.
N4545 G3 X56.674 Y330.5 Z-13.763 I4.494 J0.234
N4550 G1 X75. Z-14.403
N4555 G3 X79.5 Y335. Z-14.65 I0. J4.5
N4560 G1 Y344. Z-14.964
N4565 G3 X79.383 Y345.02 Z-15. I-4.5 J0.
N4570 X75. Y348.5 I-4.383 J-1.02 F650.
N4575 G1 X64.75
N4580 Y419.5
N4585 X75.
N4590 G3 X79.5 Y424. I0. J4.5
N4595 G1 Y433.
N4600 G3 X75. Y437.5 I-4.5 J0.
N4605 G1 X52.6
N4610 G3 X48.1 Y433. I0. J-4.5
N4615 G1 Y423.4
N4620 X26.9
N4625 Y433.
N4630 G3 X22.4 Y437.5 I-4.5 J0.
N4635 G1 X0.
N4640 G3 X-4.5 Y433. I0. J-4.5
N4645 G1 Y424.
N4650 G3 X0. Y419.5 I4.5 J0.
N4655 G1 X10.25
N4660 Y348.5
N4665 X0.
N4670 G3 X-4.5 Y344. I0. J-4.5
N4675 G1 Y335.
N4680 G3 X0. Y330.5 I4.5 J0.
N4685 G1 X18.326
N4690 G3 X22.82 Y334.766 I0. J4.5
N4695 G2 X52.18 I14.68 J-0.766
N4700 G3 X56.674 Y330.5 I4.494 J0.234
N4705 G1 X75.
N4710 G3 X79.5 Y335. I0. J4.5
N4715 G1 Y344.
N4720 G3 X79.383 Y345.02 I-4.5 J0.
N4725 X78.168 Y346.012 I-1.249 J-0.291
N4730 G2 X76.674 Y346.489 I0.076 J2.811
N4735 G3 X75. Y347. I-1.674 J-2.489
N4740 G1 X63.25
N4745 Y421.
N4750 X75.
N4755 G3 X78. Y424. I0. J3.
N4760 G1 Y433.
N4765 G3 X75. Y436. I-3. J0.
N4770 G1 X52.6
N4775 G3 X49.6 Y433. I0. J-3.
N4780 G1 Y421.9
N4785 X25.4
N4790 Y433.
N4795 G3 X22.4 Y436. I-3. J0.
N4800 G1 X0.
N4805 G3 X-3. Y433. I0. J-3.
N4810 G1 Y424.
N4815 G3 X0. Y421. I3. J0.
N4820 G1 X11.75
N4825 Y347.
N4830 X0.
N4835 G3 X-3. Y344. I0. J-3.
N4840 G1 Y335.
N4845 G3 X0. Y332. I3. J0.
N4850 G1 X18.326
N4855 G3 X21.322 Y334.844 I0. J3.
N4860 G2 X53.678 I16.178 J-0.844
N4865 G3 X56.674 Y332. I2.996 J0.156
N4870 G1 X75.
N4875 G3 X78. Y335. I0. J3.
N4880 G1 Y344.
N4885 G3 X76.674 Y346.489 I-3. J0.
N4890 G2 X76.511 Y347.322 I0.335 J0.498 F300.
N4895 G1 X76.846 Y347.82
N4900 X76.899 Y347.898 Z-14.993
N4905 X76.95 Y347.974 Z-14.971
N4910 X76.998 Y348.046 Z-14.935
N4915 X77.043 Y348.113 Z-14.885
N4920 X77.083 Y348.172 Z-14.824
N4925 X77.117 Y348.223 Z-14.753
N4930 X77.145 Y348.263 Z-14.672
N4935 X77.165 Y348.293 Z-14.585
N4940 X77.177 Y348.312 Z-14.494
N4945 X77.181 Y348.318 Z-14.4
N4950 G0 Z5.
N4955 X31.047 Y345.186
N4960 G1 Z-12.5 F150.33
N4965 Z-13.4
N4970 X31.044 Y345.193 Z-13.494
N4975 X31.034 Y345.212 Z-13.585
N4980 X31.017 Y345.244 Z-13.672
N4985 X30.995 Y345.288 Z-13.753
N4990 X30.967 Y345.342 Z-13.824
N4995 X30.934 Y345.406 Z-13.885
N5000 X30.897 Y345.477 Z-13.935
N5005 X30.857 Y345.555 Z-13.971
N5010 X30.815 Y345.636 Z-13.993
N5015 X30.772 Y345.719 Z-14.
N5020 X30.497 Y346.252 F300.
N5025 G2 X30.754 Y347.061 I0.533 J0.275
N5030 X52.18 Y334.766 Z-15.024 I6.746 J-13.061 F150.
N5035 G3 X56.674 Y330.5 Z-15.263 I4.494 J0.234
N5040 G1 X75. Z-15.903
N5045 G3 X79.5 Y335. Z-16.15 I0. J4.5
N5050 G1 Y344. Z-16.464
N5055 G3 X79.383 Y345.02 Z-16.5 I-4.5 J0.
N5060 X75. Y348.5 I-4.383 J-1.02 F650.
N5065 G1 X64.75
N5070 Y419.5
N5075 X75.
N5080 G3 X79.5 Y424. I0. J4.5
N5085 G1 Y433.
N5090 G3 X75. Y437.5 I-4.5 J0.
N5095 G1 X52.6
N5100 G3 X48.1 Y433. I0. J-4.5
N5105 G1 Y423.4
N5110 X26.9
N5115 Y433.
N5120 G3 X22.4 Y437.5 I-4.5 J0.
N5125 G1 X0.
N5130 G3 X-4.5 Y433. I0. J-4.5
N5135 G1 Y424.
N5140 G3 X0. Y419.5 I4.5 J0.
N5145 G1 X10.25
N5150 Y348.5
N5155 X0.
N5160 G3 X-4.5 Y344. I0. J-4.5
N5165 G1 Y335.
N5170 G3 X0. Y330.5 I4.5 J0.
N5175 G1 X18.326
N5180 G3 X22.82 Y334.766 I0. J4.5
N5185 G2 X52.18 I14.68 J-0.766
N5190 G3 X56.674 Y330.5 I4.494 J0.234
N5195 G1 X75.
N5200 G3 X79.5 Y335. I0. J4.5
N5205 G1 Y344.
N5210 G3 X79.383 Y345.02 I-4.5 J0.
N5215 X78.168 Y346.012 I-1.249 J-0.291
N5220 G2 X76.674 Y346.489 I0.076 J2.811
N5225 G3 X75. Y347. I-1.674 J-2.489
N5230 G1 X63.25
N5235 Y421.
N5240 X75.
N5245 G3 X78. Y424. I0. J3.
N5250 G1 Y433.
N5255 G3 X75. Y436. I-3. J0.
N5260 G1 X52.6
N5265 G3 X49.6 Y433. I0. J-3.
N5270 G1 Y421.9
N5275 X25.4
N5280 Y433.
N5285 G3 X22.4 Y436. I-3. J0.
N5290 G1 X0.
N5295 G3 X-3. Y433. I0. J-3.
N5300 G1 Y424.
N5305 G3 X0. Y421. I3. J0.
N5310 G1 X11.75
N5315 Y347.
N5320 X0.
N5325 G3 X-3. Y344. I0. J-3.
N5330 G1 Y335.
N5335 G3 X0. Y332. I3. J0.
N5340 G1 X18.326
N5345 G3 X21.322 Y334.844 I0. J3.
N5350 G2 X53.678 I16.178 J-0.844
N5355 G3 X56.674 Y332. I2.996 J0.156
N5360 G1 X75.
N5365 G3 X78. Y335. I0. J3.
N5370 G1 Y344.
N5375 G3 X76.674 Y346.489 I-3. J0.
N5380 G2 X76.511 Y347.322 I0.335 J0.498 F300.
N5385 G1 X76.846 Y347.82
N5390 X76.899 Y347.898 Z-16.493
N5395 X76.95 Y347.974 Z-16.471
N5400 X76.998 Y348.046 Z-16.435
N5405 X77.043 Y348.113 Z-16.385
N5410 X77.083 Y348.172 Z-16.324
N5415 X77.117 Y348.223 Z-16.253
N5420 X77.145 Y348.263 Z-16.172
N5425 X77.165 Y348.293 Z-16.085
N5430 X77.177 Y348.312 Z-15.994
N5435 X77.181 Y348.318 Z-15.9
N5440 G0 Z5.
N5445 X31.047 Y345.186
N5450 G1 Z-14. F150.33
N5455 Z-14.9
N5460 X31.044 Y345.193 Z-14.994
N5465 X31.034 Y345.212 Z-15.085
N5470 X31.017 Y345.244 Z-15.172
N5475 X30.995 Y345.288 Z-15.253
N5480 X30.967 Y345.342 Z-15.324
N5485 X30.934 Y345.406 Z-15.385
N5490 X30.897 Y345.477 Z-15.435
N5495 X30.857 Y345.555 Z-15.471
N5500 X30.815 Y345.636 Z-15.493
N5505 X30.772 Y345.719 Z-15.5
N5510 X30.497 Y346.252 F300.
N5515 G2 X30.754 Y347.061 I0.533 J0.275
N5520 X52.18 Y334.766 Z-16.524 I6.746 J-13.061 F150.
N5525 G3 X56.674 Y330.5 Z-16.763 I4.494 J0.234
N5530 G1 X75. Z-17.403
N5535 G3 X79.5 Y335. Z-17.65 I0. J4.5
N5540 G1 Y344. Z-17.964
N5545 G3 X79.383 Y345.02 Z-18. I-4.5 J0.
N5550 X75. Y348.5 I-4.383 J-1.02 F650.
N5555 G1 X64.75
N5560 Y419.5
N5565 X75.
N5570 G3 X79.5 Y424. I0. J4.5
N5575 G1 Y433.
N5580 G3 X75. Y437.5 I-4.5 J0.
N5585 G1 X52.6
N5590 G3 X48.1 Y433. I0. J-4.5
N5595 G1 Y423.4
N5600 X26.9
N5605 Y433.
N5610 G3 X22.4 Y437.5 I-4.5 J0.
N5615 G1 X0.
N5620 G3 X-4.5 Y433. I0. J-4.5
N5625 G1 Y424.
N5630 G3 X0. Y419.5 I4.5 J0.
N5635 G1 X10.25
N5640 Y348.5
N5645 X0.
N5650 G3 X-4.5 Y344. I0. J-4.5
N5655 G1 Y335.
N5660 G3 X0. Y330.5 I4.5 J0.
N5665 G1 X18.326
N5670 G3 X22.82 Y334.766 I0. J4.5
N5675 G2 X52.18 I14.68 J-0.766
N5680 G3 X56.674 Y330.5 I4.494 J0.234
N5685 G1 X75.
N5690 G3 X79.5 Y335. I0. J4.5
N5695 G1 Y344.
N5700 G3 X79.383 Y345.02 I-4.5 J0.
N5705 X78.168 Y346.012 I-1.249 J-0.291
N5710 G2 X76.674 Y346.489 I0.076 J2.811
N5715 G3 X75. Y347. I-1.674 J-2.489
N5720 G1 X63.25
N5725 Y421.
N5730 X75.
N5735 G3 X78. Y424. I0. J3.
N5740 G1 Y433.
N5745 G3 X75. Y436. I-3. J0.
N5750 G1 X52.6
N5755 G3 X49.6 Y433. I0. J-3.
N5760 G1 Y421.9
N5765 X25.4
N5770 Y433.
N5775 G3 X22.4 Y436. I-3. J0.
N5780 G1 X0.
N5785 G3 X-3. Y433. I0. J-3.
N5790 G1 Y424.
N5795 G3 X0. Y421. I3. J0.
N5800 G1 X11.75
N5805 Y347.
N5810 X0.
N5815 G3 X-3. Y344. I0. J-3.
N5820 G1 Y335.
N5825 G3 X0. Y332. I3. J0.
N5830 G1 X18.326
N5835 G3 X21.322 Y334.844 I0. J3.
N5840 G2 X53.678 I16.178 J-0.844
N5845 G3 X56.674 Y332. I2.996 J0.156
N5850 G1 X75.
N5855 G3 X78. Y335. I0. J3.
N5860 G1 Y344.
N5865 G3 X76.674 Y346.489 I-3. J0.
N5870 G2 X76.511 Y347.322 I0.335 J0.498 F300.
N5875 G1 X76.846 Y347.82
N5880 X76.899 Y347.898 Z-17.993
N5885 X76.95 Y347.974 Z-17.971
N5890 X76.998 Y348.046 Z-17.935
N5895 X77.043 Y348.113 Z-17.885
N5900 X77.083 Y348.172 Z-17.824
N5905 X77.117 Y348.223 Z-17.753
N5910 X77.145 Y348.263 Z-17.672
N5915 X77.165 Y348.293 Z-17.585
N5920 X77.177 Y348.312 Z-17.494
N5925 X77.181 Y348.318 Z-17.4
N5930 G0 Z5.
N5935 X31.047 Y345.186
N5940 G1 Z-15.5 F150.33
N5945 Z-16.4
N5950 X31.044 Y345.193 Z-16.494
N5955 X31.034 Y345.212 Z-16.585
N5960 X31.017 Y345.244 Z-16.672
N5965 X30.995 Y345.288 Z-16.753
N5970 X30.967 Y345.342 Z-16.824
N5975 X30.934 Y345.406 Z-16.885
N5980 X30.897 Y345.477 Z-16.935
N5985 X30.857 Y345.555 Z-16.971
N5990 X30.815 Y345.636 Z-16.993
N5995 X30.772 Y345.719 Z-17.
N6000 X30.497 Y346.252 F300.
N6005 G2 X30.754 Y347.061 I0.533 J0.275
N6010 X52.18 Y334.766 Z-18.024 I6.746 J-13.061 F150.
N6015 G3 X56.674 Y330.5 Z-18.263 I4.494 J0.234
N6020 G1 X75. Z-18.903
N6025 G3 X79.5 Y335. Z-19.15 I0. J4.5
N6030 G1 Y344. Z-19.464
N6035 G3 X79.383 Y345.02 Z-19.5 I-4.5 J0.
N6040 X75. Y348.5 I-4.383 J-1.02 F650.
N6045 G1 X64.75
N6050 Y419.5
N6055 X75.
N6060 G3 X79.5 Y424. I0. J4.5
N6065 G1 Y433.
N6070 G3 X75. Y437.5 I-4.5 J0.
N6075 G1 X52.6
N6080 G3 X48.1 Y433. I0. J-4.5
N6085 G1 Y423.4
N6090 X26.9
N6095 Y433.
N6100 G3 X22.4 Y437.5 I-4.5 J0.
N6105 G1 X0.
N6110 G3 X-4.5 Y433. I0. J-4.5
N6115 G1 Y424.
N6120 G3 X0. Y419.5 I4.5 J0.
N6125 G1 X10.25
N6130 Y348.5
N6135 X0.
N6140 G3 X-4.5 Y344. I0. J-4.5
N6145 G1 Y335.
N6150 G3 X0. Y330.5 I4.5 J0.
N6155 G1 X18.326
N6160 G3 X22.82 Y334.766 I0. J4.5
N6165 G2 X52.18 I14.68 J-0.766
N6170 G3 X56.674 Y330.5 I4.494 J0.234
N6175 G1 X75.
N6180 G3 X79.5 Y335. I0. J4.5
N6185 G1 Y344.
N6190 G3 X79.383 Y345.02 I-4.5 J0.
N6195 X78.168 Y346.012 I-1.249 J-0.291
N6200 G2 X76.674 Y346.489 I0.076 J2.811
N6205 G3 X75. Y347. I-1.674 J-2.489
N6210 G1 X63.25
N6215 Y421.
N6220 X75.
N6225 G3 X78. Y424. I0. J3.
N6230 G1 Y433.
N6235 G3 X75. Y436. I-3. J0.
N6240 G1 X52.6
N6245 G3 X49.6 Y433. I0. J-3.
N6250 G1 Y421.9
N6255 X25.4
N6260 Y433.
N6265 G3 X22.4 Y436. I-3. J0.
N6270 G1 X0.
N6275 G3 X-3. Y433. I0. J-3.
N6280 G1 Y424.
N6285 G3 X0. Y421. I3. J0.
N6290 G1 X11.75
N6295 Y347.
N6300 X0.
N6305 G3 X-3. Y344. I0. J-3.
N6310 G1 Y335.
N6315 G3 X0. Y332. I3. J0.
N6320 G1 X18.326
N6325 G3 X21.322 Y334.844 I0. J3.
N6330 G2 X53.678 I16.178 J-0.844
N6335 G3 X56.674 Y332. I2.996 J0.156
N6340 G1 X75.
N6345 G3 X78. Y335. I0. J3.
N6350 G1 Y344.
N6355 G3 X76.674 Y346.489 I-3. J0.
N6360 G2 X76.511 Y347.322 I0.335 J0.498 F300.
N6365 G1 X76.846 Y347.82
N6370 X76.899 Y347.898 Z-19.493
N6375 X76.95 Y347.974 Z-19.471
N6380 X76.998 Y348.046 Z-19.435
N6385 X77.043 Y348.113 Z-19.385
N6390 X77.083 Y348.172 Z-19.324
N6395 X77.117 Y348.223 Z-19.253
N6400 X77.145 Y348.263 Z-19.172
N6405 X77.165 Y348.293 Z-19.085
N6410 X77.177 Y348.312 Z-18.994
N6415 X77.181 Y348.318 Z-18.9
N6420 G0 Z5.
N6425 X31.047 Y345.186
N6430 G1 Z-17. F150.33
N6435 Z-17.9
N6440 X31.044 Y345.193 Z-17.994
N6445 X31.034 Y345.212 Z-18.085
N6450 X31.017 Y345.244 Z-18.172
N6455 X30.995 Y345.288 Z-18.253
N6460 X30.967 Y345.342 Z-18.324
N6465 X30.934 Y345.406 Z-18.385
N6470 X30.897 Y345.477 Z-18.435
N6475 X30.857 Y345.555 Z-18.471
N6480 X30.815 Y345.636 Z-18.493
N6485 X30.772 Y345.719 Z-18.5
N6490 X30.497 Y346.252 F300.
N6495 G2 X30.754 Y347.061 I0.533 J0.275
N6500 X52.18 Y334.766 Z-19.524 I6.746 J-13.061 F150.
N6505 G3 X56.674 Y330.5 Z-19.763 I4.494 J0.234
N6510 G1 X75. Z-20.403
N6515 G3 X79.5 Y335. Z-20.65 I0. J4.5
N6520 G1 Y344. Z-20.964
N6525 G3 X79.383 Y345.02 Z-21. I-4.5 J0.
N6530 X75. Y348.5 I-4.383 J-1.02 F650.
N6535 G1 X64.75
N6540 Y362.917
N6545 Z-20.5
N6550 Y373.917
N6555 Z-21. F150.33
N6560 Y397.464 F650.
N6565 Z-20.5
N6570 Y408.464
N6575 Z-21. F150.33
N6580 Y419.5 F650.
N6585 X75.
N6590 G3 X79.5 Y424. I0. J4.5
N6595 G1 Y433.
N6600 G3 X75. Y437.5 I-4.5 J0.
N6605 G1 X67.872
N6610 Z-20.5
N6615 X56.872
N6620 Z-21. F150.33
N6625 X52.6 F650.
N6630 G3 X48.1 Y433. I0. J-4.5
N6635 G1 Y423.4
N6640 X40.279
N6645 Z-20.5
N6650 X29.279
N6655 Z-21. F150.33
N6660 X26.9 F650.
N6665 Y433.
N6670 G3 X22.4 Y437.5 I-4.5 J0.
N6675 G1 X15.375
N6680 Z-20.5
N6685 X4.375
N6690 Z-21. F150.33
N6695 X0. F650.
N6700 G3 X-4.5 Y433. I0. J-4.5
N6705 G1 Y424.
N6710 G3 X0. Y419.5 I4.5 J0.
N6715 G1 X10.25
N6720 Y402.845
N6725 Z-20.5
N6730 Y391.845
N6735 Z-21. F150.33
N6740 Y374.653 F650.
N6745 Z-20.5
N6750 Y363.653
N6755 Z-21. F150.33
N6760 Y348.5 F650.
N6765 X0.
N6770 G3 X-4.5 Y344. I0. J-4.5
N6775 G1 Y335.
N6780 G3 X0. Y330.5 I4.5 J0.
N6785 G1 X3.172
N6790 Z-20.5
N6795 X14.172
N6800 Z-21. F150.33
N6805 X18.326 F650.
N6810 G3 X22.82 Y334.766 I0. J4.5
N6815 G2 X52.18 I14.68 J-0.766
N6820 G3 X56.674 Y330.5 I4.494 J0.234
N6825 G1 X62.449
N6830 Z-20.5
N6835 X73.449
N6840 Z-21. F150.33
N6845 X75. F650.
N6850 G3 X79.5 Y335. I0. J4.5
N6855 G1 Y344.
N6860 G3 X79.383 Y345.02 I-4.5 J0.
N6865 X78.168 Y346.012 I-1.249 J-0.291
N6870 G2 X76.674 Y346.489 I0.076 J2.811
N6875 G3 X75. Y347. I-1.674 J-2.489
N6880 G1 X63.25
N6885 Y362.917
N6890 Z-20.5
N6895 Y373.917
N6900 Z-21. F150.33
N6905 Y397.464 F650.
N6910 Z-20.5
N6915 Y408.464
N6920 Z-21. F150.33
N6925 Y421. F650.
N6930 X75.
N6935 G3 X78. Y424. I0. J3.
N6940 G1 Y433.
N6945 G3 X75. Y436. I-3. J0.
N6950 G1 X67.872
N6955 Z-20.5
N6960 X56.872
N6965 Z-21. F150.33
N6970 X52.6 F650.
N6975 G3 X49.6 Y433. I0. J-3.
N6980 G1 Y421.9
N6985 X40.279
N6990 Z-20.5
N6995 X29.279
N7000 Z-21. F150.33
N7005 X25.4 F650.
N7010 Y433.
N7015 G3 X22.4 Y436. I-3. J0.
N7020 G1 X15.375
N7025 Z-20.5
N7030 X4.375
N7035 Z-21. F150.33
N7040 X0. F650.
N7045 G3 X-3. Y433. I0. J-3.
N7050 G1 Y424.
N7055 G3 X0. Y421. I3. J0.
N7060 G1 X11.75
N7065 Y402.845
N7070 Z-20.5
N7075 Y391.845
N7080 Z-21. F150.33
N7085 Y374.653 F650.
N7090 Z-20.5
N7095 Y363.653
N7100 Z-21. F150.33
N7105 Y347. F650.
N7110 X0.
N7115 G3 X-3. Y344. I0. J-3.
N7120 G1 Y335.
N7125 G3 X0. Y332. I3. J0.
N7130 G1 X3.172
N7135 Z-20.5
N7140 X14.172
N7145 Z-21. F150.33
N7150 X18.326 F650.
N7155 G3 X21.322 Y334.844 I0. J3.
N7160 G2 X53.678 I16.178 J-0.844
N7165 G3 X56.674 Y332. I2.996 J0.156
N7170 G1 X62.449
N7175 Z-20.5
N7180 X73.449
N7185 Z-21. F150.33
N7190 X75. F650.
N7195 G3 X78. Y335. I0. J3.
N7200 G1 Y344.
N7205 G3 X76.674 Y346.489 I-3. J0.
N7210 G2 X76.511 Y347.322 I0.335 J0.498 F300.
N7215 G1 X76.846 Y347.82
N7220 X76.899 Y347.898 Z-20.993
N7225 X76.95 Y347.974 Z-20.971
N7230 X76.998 Y348.046 Z-20.935
N7235 X77.043 Y348.113 Z-20.885
N7240 X77.083 Y348.172 Z-20.824
N7245 X77.117 Y348.223 Z-20.753
N7250 X77.145 Y348.263 Z-20.672
N7255 X77.165 Y348.293 Z-20.585
N7260 X77.177 Y348.312 Z-20.494
N7265 X77.181 Y348.318 Z-20.4
N7270 G0 Z5.
N7275 X28.883 Y345.553
N7280 G1 Z-18.5 F150.33
N7285 Z-19.4
N7290 X28.879 Y345.559 Z-19.494
N7295 X28.866 Y345.577 Z-19.585
N7300 X28.846 Y345.607 Z-19.672
N7305 X28.818 Y345.647 Z-19.753
N7310 X28.784 Y345.698 Z-19.824
N7315 X28.743 Y345.757 Z-19.885
N7320 X28.698 Y345.823 Z-19.935
N7325 X28.649 Y345.895 Z-19.971
N7330 X28.598 Y345.971 Z-19.993
N7335 X28.545 Y346.048 Z-20.
N7340 X28.206 Y346.544 F300.
N7345 G2 X28.363 Y347.378 I0.495 J0.338
N7350 X53.678 Y334.844 Z-21.198 I9.137 J-13.378 F150.
N7355 G3 X56.674 Y332. Z-21.357 I2.996 J0.156
N7360 G1 X62.449 Z-21.559
N7365 Z-20.5
N7370 X73.449
N7375 Z-21.943 F150.33
N7380 X75. Z-21.997 F150.
N7385 G3 X78. Y335. Z-22.162 I0. J3.
N7390 G1 Y344. Z-22.476
N7395 G3 X77.922 Y344.68 Z-22.5 I-3. J0.
N7400 X75. Y347. I-2.922 J-0.68 F650.
N7405 G1 X63.25
N7410 Y362.917
N7415 Z-20.5
N7420 Y373.917
N7425 Z-22.5 F150.33
N7430 Y397.464 F650.
N7435 Z-20.5
N7440 Y408.464
N7445 Z-22.5 F150.33
N7450 Y421. F650.
N7455 X75.
N7460 G3 X78. Y424. I0. J3.
N7465 G1 Y433.
N7470 G3 X75. Y436. I-3. J0.
N7475 G1 X67.872
N7480 Z-20.5
N7485 X56.872
N7490 Z-22.5 F150.33
N7495 X52.6 F650.
N7500 G3 X49.6 Y433. I0. J-3.
N7505 G1 Y421.9
N7510 X40.279
N7515 Z-20.5
N7520 X29.279
N7525 Z-22.5 F150.33
N7530 X25.4 F650.
N7535 Y433.
N7540 G3 X22.4 Y436. I-3. J0.
N7545 G1 X15.375
N7550 Z-20.5
N7555 X4.375
N7560 Z-22.5 F150.33
N7565 X0. F650.
N7570 G3 X-3. Y433. I0. J-3.
N7575 G1 Y424.
N7580 G3 X0. Y421. I3. J0.
N7585 G1 X11.75
N7590 Y402.845
N7595 Z-20.5
N7600 Y391.845
N7605 Z-22.5 F150.33
N7610 Y374.653 F650.
N7615 Z-20.5
N7620 Y363.653
N7625 Z-22.5 F150.33
N7630 Y347. F650.
N7635 X0.
N7640 G3 X-3. Y344. I0. J-3.
N7645 G1 Y335.
N7650 G3 X0. Y332. I3. J0.
N7655 G1 X3.172
N7660 Z-20.5
N7665 X14.172
N7670 Z-22.5 F150.33
N7675 X18.326 F650.
N7680 G3 X21.322 Y334.844 I0. J3.
N7685 G2 X53.678 I16.178 J-0.844
N7690 G3 X56.674 Y332. I2.996 J0.156
N7695 G1 X62.449
N7700 Z-20.5
N7705 X73.449
N7710 Z-22.5 F150.33
N7715 X75. F650.
N7720 G3 X78. Y335. I0. J3.
N7725 G1 Y344.
N7730 G3 X77.922 Y344.68 I-3. J0.
N7735 G2 X78.37 Y345.4 I0.584 J0.136 F300.
N7740 G1 X78.955 Y345.536
N7745 X79.046 Y345.558 Z-22.493
N7750 X79.135 Y345.579 Z-22.471
N7755 X79.22 Y345.598 Z-22.435
N7760 X79.298 Y345.616 Z-22.385
N7765 X79.368 Y345.633 Z-22.324
N7770 X79.427 Y345.647 Z-22.253
N7775 X79.475 Y345.658 Z-22.172
N7780 X79.51 Y345.666 Z-22.085
N7785 X79.532 Y345.671 Z-21.994
N7790 X79.539 Y345.673 Z-21.9
N7795 G0 Z15.
N7800 G53 Z0.
N7805 M30
%
