%
(1001)
(T1  D=6. CR=0. - ZMIN=-19. - FLAT END MILL)
N10 G90 G94 G17 G91.1
N15 G21
N20 G53 G0 Z0.
(2D CONTOUR1)
N25 M9
N30 T1 M6
N35 S22000 M3
N40 G54
N45 M8
N50 G0 X755.4 Y64.4
N55 G43 Z15. H1
N60 G0 Z5.
N65 G1 Z4.5 F333.33
N70 Z-2.9
N75 G18 G3 X754.8 Z-3.5 I-0.6 K0.
N80 G1 X754.2 F500.
N85 G17 G2 X753.6 Y65. I0. J0.6
N90 G1 Y100. F1500.
N95 Y103.6
N100 X750.
N105 G2 X728.6 Y125. I0. J21.4
N110 G1 Y128.6
N115 X75.
N120 X71.4
N125 Y125.
N130 G2 X50. Y103.6 I-21.4 J0.
N135 G1 X46.4
N140 Y26.4
N145 X50.
N150 G2 X71.4 Y5. I0. J-21.4
N155 G1 Y1.4
N160 X725.
N165 X728.6
N170 Y5.
N175 G2 X750. Y26.4 I21.4 J0.
N180 G1 X753.6
N185 Y65.
N190 G3 X753.3 Y65.45 I-0.487 J0.
N195 G2 X753. Y65.9 I0.188 J0.45
N200 G1 Y100.
N205 Y103.
N210 X750.
N215 G2 X728. Y125. I0. J22.
N220 G1 Y128.
N225 X72.
N230 Y125.
N235 G2 X50. Y103. I-22. J0.
N240 G1 X47.
N245 Y27.
N250 X50.
N255 G2 X72. Y5. I0. J-22.
N260 G1 Y2.
N265 X725.
N270 X728.
N275 Y5.
N280 G2 X750. Y27. I22. J0.
N285 G1 X753.
N290 Y65.9
N295 G2 X753.6 Y66.5 I0.6 J0. F500.
N300 G1 X754.2
N305 G18 G2 X754.8 Z-2.9 I0. K0.6
N310 G0 Z5.
N315 X755.4 Y64.4
N320 G1 Z1. F333.33
N325 Z-6.4
N330 G3 X754.8 Z-7. I-0.6 K0.
N335 G1 X754.2 F500.
N340 G17 G2 X753.6 Y65. I0. J0.6
N345 G1 Y100. F1500.
N350 Y103.6
N355 X750.
N360 G2 X728.6 Y125. I0. J21.4
N365 G1 Y128.6
N370 X75.
N375 X71.4
N380 Y125.
N385 G2 X50. Y103.6 I-21.4 J0.
N390 G1 X46.4
N395 Y26.4
N400 X50.
N405 G2 X71.4 Y5. I0. J-21.4
N410 G1 Y1.4
N415 X725.
N420 X728.6
N425 Y5.
N430 G2 X750. Y26.4 I21.4 J0.
N435 G1 X753.6
N440 Y65.
N445 G3 X753.3 Y65.45 I-0.487 J0.
N450 G2 X753. Y65.9 I0.188 J0.45
N455 G1 Y100.
N460 Y103.
N465 X750.
N470 G2 X728. Y125. I0. J22.
N475 G1 Y128.
N480 X72.
N485 Y125.
N490 G2 X50. Y103. I-22. J0.
N495 G1 X47.
N500 Y27.
N505 X50.
N510 G2 X72. Y5. I0. J-22.
N515 G1 Y2.
N520 X725.
N525 X728.
N530 Y5.
N535 G2 X750. Y27. I22. J0.
N540 G1 X753.
N545 Y65.9
N550 G2 X753.6 Y66.5 I0.6 J0. F500.
N555 G1 X754.2
N560 G18 G2 X754.8 Z-6.4 I0. K0.6
N565 G0 Z5.
N570 X755.4 Y64.4
N575 G1 Z-2.5 F333.33
N580 Z-9.9
N585 G3 X754.8 Z-10.5 I-0.6 K0.
N590 G1 X754.2 F500.
N595 G17 G2 X753.6 Y65. I0. J0.6
N600 G1 Y100. F1500.
N605 Y103.6
N610 X750.
N615 G2 X728.6 Y125. I0. J21.4
N620 G1 Y128.6
N625 X75.
N630 X71.4
N635 Y125.
N640 G2 X50. Y103.6 I-21.4 J0.
N645 G1 X46.4
N650 Y26.4
N655 X50.
N660 G2 X71.4 Y5. I0. J-21.4
N665 G1 Y1.4
N670 X725.
N675 X728.6
N680 Y5.
N685 G2 X750. Y26.4 I21.4 J0.
N690 G1 X753.6
N695 Y65.
N700 G3 X753.3 Y65.45 I-0.487 J0.
N705 G2 X753. Y65.9 I0.188 J0.45
N710 G1 Y100.
N715 Y103.
N720 X750.
N725 G2 X728. Y125. I0. J22.
N730 G1 Y128.
N735 X72.
N740 Y125.
N745 G2 X50. Y103. I-22. J0.
N750 G1 X47.
N755 Y27.
N760 X50.
N765 G2 X72. Y5. I0. J-22.
N770 G1 Y2.
N775 X725.
N780 X728.
N785 Y5.
N790 G2 X750. Y27. I22. J0.
N795 G1 X753.
N800 Y65.9
N805 G2 X753.6 Y66.5 I0.6 J0. F500.
N810 G1 X754.2
N815 G18 G2 X754.8 Z-9.9 I0. K0.6
N820 G0 Z5.
N825 X755.4 Y64.4
N830 G1 Z-6. F333.33
N835 Z-13.4
N840 G3 X754.8 Z-14. I-0.6 K0.
N845 G1 X754.2 F500.
N850 G17 G2 X753.6 Y65. I0. J0.6
N855 G1 Y100. F1500.
N860 Y103.6
N865 X750.
N870 G2 X728.6 Y125. I0. J21.4
N875 G1 Y128.6
N880 X75.
N885 X71.4
N890 Y125.
N895 G2 X50. Y103.6 I-21.4 J0.
N900 G1 X46.4
N905 Y26.4
N910 X50.
N915 G2 X71.4 Y5. I0. J-21.4
N920 G1 Y1.4
N925 X725.
N930 X728.6
N935 Y5.
N940 G2 X750. Y26.4 I21.4 J0.
N945 G1 X753.6
N950 Y65.
N955 G3 X753.3 Y65.45 I-0.487 J0.
N960 G2 X753. Y65.9 I0.188 J0.45
N965 G1 Y100.
N970 Y103.
N975 X750.
N980 G2 X728. Y125. I0. J22.
N985 G1 Y128.
N990 X72.
N995 Y125.
N1000 G2 X50. Y103. I-22. J0.
N1005 G1 X47.
N1010 Y27.
N1015 X50.
N1020 G2 X72. Y5. I0. J-22.
N1025 G1 Y2.
N1030 X725.
N1035 X728.
N1040 Y5.
N1045 G2 X750. Y27. I22. J0.
N1050 G1 X753.
N1055 Y65.9
N1060 G2 X753.6 Y66.5 I0.6 J0. F500.
N1065 G1 X754.2
N1070 G18 G2 X754.8 Z-13.4 I0. K0.6
N1075 G0 Z5.
N1080 X755.4 Y64.4
N1085 G1 Z-9.5 F333.33
N1090 Z-16.5
N1095 X754.8
N1100 X754.2 F500.
N1105 G17 G2 X753.6 Y65. I0. J0.6
N1110 G1 Y80.662 F1500.
N1115 Z-17.5 F333.33
N1120 Y103.6 F1500.
N1125 X750.
N1130 G2 X728.6 Y125. I0. J21.4
N1135 G1 Y128.6
N1140 X71.4
N1145 Y125.
N1150 G2 X50. Y103.6 I-21.4 J0.
N1155 G1 X46.4
N1160 Y79.306
N1165 Z-16.5
N1170 Y53.306
N1175 Z-17.5 F333.33
N1180 Y26.4 F1500.
N1185 X50.
N1190 G2 X71.4 Y5. I0. J-21.4
N1195 G1 Y1.4
N1200 X728.6
N1205 Y5.
N1210 G2 X750. Y26.4 I21.4 J0.
N1215 G1 X753.6
N1220 Y54.662
N1225 Z-16.5
N1230 Y65.
N1235 G3 X753.3 Y65.45 I-0.487 J0.
N1240 G2 X753. Y65.9 I0.188 J0.45
N1245 G1 Y80.662
N1250 Z-17.5 F333.33
N1255 Y103. F1500.
N1260 X750.
N1265 G2 X728. Y125. I0. J22.
N1270 G1 Y128.
N1275 X72.
N1280 Y125.
N1285 G2 X50. Y103. I-22. J0.
N1290 G1 X47.
N1295 Y79.306
N1300 Z-16.5
N1305 Y53.306
N1310 Z-17.5 F333.33
N1315 Y27. F1500.
N1320 X50.
N1325 G2 X72. Y5. I0. J-22.
N1330 G1 Y2.
N1335 X728.
N1340 Y5.
N1345 G2 X750. Y27. I22. J0.
N1350 G1 X753.
N1355 Y54.662
N1360 Z-16.5
N1365 Y65.9
N1370 G2 X753.6 Y66.5 I0.6 J0. F500.
N1375 G1 X754.8
N1380 G0 Z5.
N1385 X755.4 Y64.4
N1390 G1 Z-13. F333.33
N1395 Z-16.5
N1400 X754.8
N1405 X754.2 F500.
N1410 G2 X753.6 Y65. I0. J0.6
N1415 G1 Y80.662 F1500.
N1420 Z-19. F333.33
N1425 Y103.6 F1500.
N1430 X750.
N1435 G2 X728.6 Y125. I0. J21.4
N1440 G1 Y128.6
N1445 X71.4
N1450 Y125.
N1455 G2 X50. Y103.6 I-21.4 J0.
N1460 G1 X46.4
N1465 Y79.306
N1470 Z-16.5
N1475 Y53.306
N1480 Z-19. F333.33
N1485 Y26.4 F1500.
N1490 X50.
N1495 G2 X71.4 Y5. I0. J-21.4
N1500 G1 Y1.4
N1505 X728.6
N1510 Y5.
N1515 G2 X750. Y26.4 I21.4 J0.
N1520 G1 X753.6
N1525 Y54.662
N1530 Z-16.5
N1535 Y65.
N1540 G3 X753.3 Y65.45 I-0.487 J0.
N1545 G2 X753. Y65.9 I0.188 J0.45
N1550 G1 Y80.662
N1555 Z-19. F333.33
N1560 Y103. F1500.
N1565 X750.
N1570 G2 X728. Y125. I0. J22.
N1575 G1 Y128.
N1580 X72.
N1585 Y125.
N1590 G2 X50. Y103. I-22. J0.
N1595 G1 X47.
N1600 Y79.306
N1605 Z-16.5
N1610 Y53.306
N1615 Z-19. F333.33
N1620 Y27. F1500.
N1625 X50.
N1630 G2 X72. Y5. I0. J-22.
N1635 G1 Y2.
N1640 X728.
N1645 Y5.
N1650 G2 X750. Y27. I22. J0.
N1655 G1 X753.
N1660 Y54.662
N1665 Z-16.5
N1670 Y65.9
N1675 G2 X753.6 Y66.5 I0.6 J0. F500.
N1680 G1 X754.8
N1685 G0 Z15.
N1690 M9
N1695 G53 Z0.
N1700 M30
%
