%
(1001)
(T1  D=6. CR=0. - ZMIN=-5. - FLAT END MILL)
N10 G90 G94 G17 G91.1
N15 G21
N20 G53 G0 Z0.
(2D POCKET1)
N25 M9
N30 T1 M6
N35 S22000 M3
N40 G54
N45 M8
N50 G0 X408.355 Y66.374
N55 G43 Z15. H1
N60 G0 Z5.
N65 G1 Z1.6 F500.
N70 X408.38 Y66.361 Z1.418 F333.33
N75 X408.453 Y66.323 Z1.254
N80 X408.563 Y66.26 Z1.122
N85 X408.699 Y66.172 Z1.034
N90 X408.844 Y66.065 Z1.
N95 G2 X405.324 Y61.582 Z0.687 I-1.76 J-2.242
N100 X408.844 Y66.065 Z0.375 I1.76 J2.242
N105 X405.324 Y61.582 Z0.062 I-1.76 J-2.242
N110 X408.844 Y66.065 Z-0.251 I1.76 J2.242
N115 X405.324 Y61.582 Z-0.563 I-1.76 J-2.242
N120 X408.844 Y66.065 Z-0.876 I1.76 J2.242
N125 X405.324 Y61.582 Z-1.189 I-1.76 J-2.242
N130 X408.844 Y66.065 Z-1.501 I1.76 J2.242
N135 X405.324 Y61.582 Z-1.814 I-1.76 J-2.242
N140 X408.844 Y66.065 Z-2.127 I1.76 J2.242
N145 X405.324 Y61.582 Z-2.439 I-1.76 J-2.242
N150 X404.357 Y62.994 Z-2.5 I1.76 J2.242
N155 G1 X403.995 Y64.183 F1500.
N160 G2 X404.215 Y64.48 I0.22 J0.067
N165 G1 X406.29
N170 G2 X406.61 Y64.161 I0. J-0.319
N175 G1 Y56.306
N180 X406.603 Y56.269
N185 X406.584 Y56.237
N190 X406.555 Y56.213
N195 X406.519 Y56.201
N200 X406.481 Y56.202
N205 X406.446 Y56.216
N210 X406.419 Y56.242
N215 X406.401 Y56.275
N220 X404.357 Y62.994
N225 G3 X401.972 Y64.951 I-2.659 J-0.809
N230 G2 X399.586 Y66.907 I0.275 J2.769
N235 G1 X399.113 Y68.458
N240 G2 X399.323 Y68.648 I0.15 J0.046
N245 G3 X402.875 Y67.9 I3.754 J9.027
N250 X406.505 Y67.863 I3.63 J175.912
N255 X408.155 Y68.026 I0. J8.4
N260 X409.752 Y68.469 I-2.246 J11.216
N265 G2 X410.036 Y68.268 I0.072 J-0.2
N270 G1 Y51.678
N275 G2 X409.701 Y51.079 I-0.704 J0.
N280 G3 X407.715 Y49.458 I5.061 J-8.231
N285 G2 X407.302 I-0.206 J0.193
N290 G3 X404.685 Y51.435 I-7.047 J-6.611
N295 G2 X404.094 Y52.129 I0.55 J1.065
N300 G1 X399.586 Y66.907
N305 X399.566 Y66.998 Z-2.485 F500.
N310 X399.56 Y67.09 Z-2.471
N315 X399.567 Y67.173 Z-2.428
N320 X399.585 Y67.255 Z-2.385
N325 X399.608 Y67.317 Z-2.319
N330 X399.637 Y67.377 Z-2.253
N335 X399.684 Y67.448 Z-2.085
N340 X399.703 Y67.471 Z-1.9
N345 G0 Z5.
N350 X394.912 Y97.001
N355 G1 Z1.6 F500.
N360 X394.893 Y96.981 Z1.418 F333.33
N365 X394.835 Y96.923 Z1.254
N370 X394.742 Y96.836 Z1.122
N375 X394.619 Y96.732 Z1.034
N380 X394.474 Y96.624 Z1.
N385 G2 X391.21 Y101.296 Z0.687 I-1.632 J2.336
N390 X394.474 Y96.624 Z0.375 I1.632 J-2.336
N395 X391.21 Y101.296 Z0.062 I-1.632 J2.336
N400 X394.474 Y96.624 Z-0.251 I1.632 J-2.336
N405 X391.21 Y101.296 Z-0.563 I-1.632 J2.336
N410 X394.474 Y96.624 Z-0.876 I1.632 J-2.336
N415 X391.21 Y101.296 Z-1.189 I-1.632 J2.336
N420 X394.474 Y96.624 Z-1.501 I1.632 J-2.336
N425 X391.21 Y101.296 Z-1.814 I-1.632 J2.336
N430 X394.474 Y96.624 Z-2.127 I1.632 J-2.336
N435 X391.21 Y101.296 Z-2.439 I-1.632 J2.336
N440 X392.842 Y101.81 Z-2.5 I1.632 J-2.336
N445 G1 X395.399 F1500.
N450 X395.44 Y101.804
N455 X395.476 Y101.785
N460 X395.505 Y101.756
N465 X395.523 Y101.719
N470 X395.529 Y101.678
N475 X395.522 Y101.638
N480 X395.503 Y101.601
N485 X395.474 Y101.573
N490 G3 X392.985 Y99.309 I7.559 J-10.809
N495 G2 X392.605 Y99.321 I-0.185 J0.157
N500 G3 X390.491 Y101.565 I-10.59 J-7.863
N505 G2 X390.58 Y101.81 I0.089 J0.106
N510 G1 X392.842
N515 X392.934 Y101.803 Z-2.485 F500.
N520 X393.025 Y101.782 Z-2.471
N525 X393.102 Y101.751 Z-2.428
N530 X393.175 Y101.709 Z-2.385
N535 X393.228 Y101.67 Z-2.319
N540 X393.276 Y101.624 Z-2.253
N545 X393.331 Y101.559 Z-2.085
N550 X393.347 Y101.534 Z-1.9
N555 G0 Z5.
N560 X359.761 Y99.175
N565 G1 Z1.6 F500.
N570 X359.754 Y99.202 Z1.418 F333.33
N575 X359.736 Y99.282 Z1.254
N580 X359.711 Y99.407 Z1.122
N585 X359.688 Y99.567 Z1.034
N590 X359.674 Y99.747 Z1.
N595 G2 X365.367 Y100.032 Z0.687 I2.846 J0.143
N600 X359.674 Y99.747 Z0.375 I-2.846 J-0.143
N605 X365.367 Y100.032 Z0.062 I2.846 J0.143
N610 X359.674 Y99.747 Z-0.251 I-2.846 J-0.143
N615 X365.367 Y100.032 Z-0.563 I2.846 J0.143
N620 X359.674 Y99.747 Z-0.876 I-2.846 J-0.143
N625 X365.367 Y100.032 Z-1.189 I2.846 J0.143
N630 X359.674 Y99.747 Z-1.501 I-2.846 J-0.143
N635 X365.367 Y100.032 Z-1.814 I2.846 J0.143
N640 X359.674 Y99.747 Z-2.127 I-2.846 J-0.143
N645 X365.367 Y100.032 Z-2.439 I2.846 J0.143
N650 X364.935 Y98.376 Z-2.5 I-2.846 J-0.143
N655 G3 X363.819 Y96.12 I10.679 J-6.69 F1500.
N660 X363.546 Y95.332 I14.76 J-5.548
N665 G2 X363.273 Y94.544 I-15.033 J4.76
N670 G1 X363.253 Y94.509
N675 X363.223 Y94.481
N680 X363.186 Y94.464
N685 X363.146 Y94.459
N690 X363.106 Y94.467
N695 X363.07 Y94.486
N700 X363.042 Y94.516
N705 X363.024 Y94.553
N710 G3 X357.976 Y101.562 I-12.65 J-3.789
N715 G1 X357.947 Y101.59
N720 X357.928 Y101.626
N725 X357.922 Y101.665
N730 X357.928 Y101.705
N735 X357.946 Y101.741
N740 X357.974 Y101.77
N745 X358.01 Y101.788
N750 X358.05 Y101.795
N755 X367.621
N760 G2 X367.708 Y101.554 I0. J-0.136
N765 G3 X365.415 Y99.087 I8.973 J-10.642
N770 X364.935 Y98.376 I10.199 J-7.4
N775 G1 X364.881 Y98.301 Z-2.485 F500.
N780 X364.816 Y98.236 Z-2.471
N785 X364.749 Y98.186 Z-2.428
N790 X364.676 Y98.145 Z-2.385
N795 X364.614 Y98.121 Z-2.319
N800 X364.55 Y98.103 Z-2.253
N805 X364.466 Y98.091 Z-2.085
N810 X364.436 Y98.09 Z-1.9
N815 G0 Z5.
N820 X323.567 Y102.81
N825 G1 Z1.6 F500.
N830 X323.568 Y102.838 Z1.418 F333.33
N835 X323.572 Y102.919 Z1.254
N840 X323.584 Y103.046 Z1.122
N845 X323.606 Y103.206 Z1.034
N850 X323.642 Y103.383 Z1.
N855 G2 X329.19 Y102.078 Z0.687 I2.774 J-0.653
N860 X323.642 Y103.383 Z0.375 I-2.774 J0.653
N865 X329.19 Y102.078 Z0.062 I2.774 J-0.653
N870 X323.642 Y103.383 Z-0.251 I-2.774 J0.653
N875 X329.19 Y102.078 Z-0.563 I2.774 J-0.653
N880 X323.642 Y103.383 Z-0.876 I-2.774 J0.653
N885 X329.19 Y102.078 Z-1.189 I2.774 J-0.653
N890 X323.642 Y103.383 Z-1.501 I-2.774 J0.653
N895 X329.19 Y102.078 Z-1.814 I2.774 J-0.653
N900 X323.642 Y103.383 Z-2.127 I-2.774 J0.653
N905 X329.19 Y102.078 Z-2.439 I2.774 J-0.653
N910 X328.317 Y100.607 Z-2.5 I-2.774 J0.653
N915 G3 X328.091 Y100.4 I8.808 J-9.843 F1500.
N920 G2 X327.637 I-0.227 J0.242
N925 G3 X326.215 Y101.559 I-9.034 J-9.636
N930 G1 X326.186 Y101.587
N935 X326.167 Y101.622
N940 X326.16 Y101.662
N945 X326.166 Y101.702
N950 X326.185 Y101.738
N955 X326.213 Y101.767
N960 X326.249 Y101.785
N965 X326.289 Y101.791
N970 X329.439
N975 X329.479 Y101.785
N980 X329.515 Y101.767
N985 X329.543 Y101.738
N990 X329.562 Y101.702
N995 X329.568 Y101.662
N1000 X329.561 Y101.622
N1005 X329.542 Y101.587
N1010 X329.513 Y101.559
N1015 G3 X328.317 Y100.607 I7.612 J-10.795
N1020 G1 X328.199 Y100.5 Z-2.479 F500.
N1025 X328.091 Y100.4 Z-2.416
N1030 X328.05 Y100.367 Z-2.371
N1035 X328.005 Y100.342 Z-2.327
N1040 X327.956 Y100.323 Z-2.282
N1045 X327.906 Y100.313 Z-2.193
N1050 X327.855 Y100.31 Z-2.103
N1055 X327.82 Y100.313 Z-1.9
N1060 G0 Z5.
N1065 X297.161 Y104.951
N1070 G1 Z1.6 F500.
N1075 X297.188 Y104.958 Z1.418 F333.33
N1080 X297.268 Y104.977 Z1.254
N1085 X297.393 Y105.002 Z1.122
N1090 X297.553 Y105.025 Z1.034
N1095 X297.732 Y105.041 Z1.
N1100 G2 X298.047 Y99.35 Z0.687 I0.158 J-2.846
N1105 X297.732 Y105.041 Z0.375 I-0.158 J2.846
N1110 X298.047 Y99.35 Z0.062 I0.158 J-2.846
N1115 X297.732 Y105.041 Z-0.251 I-0.158 J2.846
N1120 X298.047 Y99.35 Z-0.563 I0.158 J-2.846
N1125 X297.732 Y105.041 Z-0.876 I-0.158 J2.846
N1130 X298.047 Y99.35 Z-1.189 I0.158 J-2.846
N1135 X297.732 Y105.041 Z-1.501 I-0.158 J2.846
N1140 X298.047 Y99.35 Z-1.814 I0.158 J-2.846
N1145 X297.732 Y105.041 Z-2.127 I-0.158 J2.846
N1150 X298.047 Y99.35 Z-2.439 I0.158 J-2.846
N1155 X296.389 Y99.772 Z-2.5 I-0.158 J2.846
N1160 G3 X295.242 Y100.454 I-19.215 J-31.026 F1500.
N1165 X293.48 Y101.379 I-14.224 J-24.96
N1170 X293. Y101.581 I-2.298 J-4.774
N1175 G2 X292.517 Y101.776 I2.799 J7.66
N1180 G1 X292.485 Y101.797
N1185 X292.462 Y101.827
N1190 X292.451 Y101.863
N1195 X292.452 Y101.901
N1200 X292.466 Y101.937
N1205 X292.491 Y101.965
N1210 X292.524 Y101.984
N1215 X292.562 Y101.99
N1220 X300.065
N1225 X300.104 Y101.984
N1230 X300.139 Y101.965
N1235 X300.166 Y101.937
N1240 X300.183 Y101.901
N1245 X300.188 Y101.862
N1250 X300.18 Y101.823
N1255 X300.16 Y101.788
N1260 X300.131 Y101.762
N1265 G3 X297.427 Y99.486 I6.949 J-10.998
N1270 G2 X296.944 Y99.422 I-0.279 J0.253
N1275 G3 X296.389 Y99.772 I-19.77 J-30.676
N1280 G1 X296.315 Y99.827 Z-2.485 F500.
N1285 X296.249 Y99.893 Z-2.471
N1290 X296.2 Y99.96 Z-2.428
N1295 X296.16 Y100.034 Z-2.385
N1300 X296.136 Y100.096 Z-2.319
N1305 X296.119 Y100.16 Z-2.253
N1310 X296.107 Y100.244 Z-2.085
N1315 X296.106 Y100.273 Z-1.9
N1320 Z1.6
N1325 X255.935 Y103.011 F1500.
N1330 X255.963 Y103.013 Z1.418 F333.33
N1335 X256.044 Y103.016 Z1.254
N1340 X256.172 Z1.122
N1345 X256.333 Y103.008 Z1.034
N1350 X256.512 Y102.989 Z1.
N1355 G2 X255.717 Y97.345 Z0.687 I-0.398 J-2.822
N1360 X256.512 Y102.989 Z0.375 I0.398 J2.822
N1365 X255.717 Y97.345 Z0.062 I-0.398 J-2.822
N1370 X256.512 Y102.989 Z-0.251 I0.398 J2.822
N1375 X255.717 Y97.345 Z-0.563 I-0.398 J-2.822
N1380 X256.512 Y102.989 Z-0.876 I0.398 J2.822
N1385 X255.717 Y97.345 Z-1.189 I-0.398 J-2.822
N1390 X256.512 Y102.989 Z-1.501 I0.398 J2.822
N1395 X255.717 Y97.345 Z-1.814 I-0.398 J-2.822
N1400 X256.512 Y102.989 Z-2.127 I0.398 J2.822
N1405 X255.717 Y97.345 Z-2.439 I-0.398 J-2.822
N1410 X254.172 Y98.081 Z-2.5 I0.398 J2.822
N1415 G3 X253.85 Y98.379 I-36.923 J-39.649 F1500.
N1420 X253.017 Y99.101 I-13.513 J-14.748
N1425 X252.602 Y99.408 I-3.251 J-3.966
N1430 G2 X252.179 Y99.705 I5.367 J8.088
N1435 X252.259 Y99.945 I0.08 J0.107
N1440 G1 X257.53
N1445 G2 X257.611 Y99.705 I0. J-0.134
N1450 G3 X256.341 Y98.692 I18.051 J-23.946
N1455 X255.121 Y97.621 I25.746 J-30.561
N1460 G2 X254.655 Y97.626 I-0.23 J0.252
N1465 G3 X254.172 Y98.081 I-37.406 J-39.194
N1470 X252.169 Y98.362 I-1.203 J-1.291
N1475 G2 X250.15 Y98.491 I-0.9 J1.768
N1480 G3 X248.557 Y99.499 I-15.198 J-22.273
N1485 X244.719 Y101.322 I-12.581 J-21.528
N1490 X243.818 Y101.631 I-5.864 J-15.663
N1495 X242.908 Y101.91 I-35.056 J-112.801
N1500 G1 X242.855 Y101.924
N1505 X242.801 Y101.938
N1510 X242.768 Y101.955
N1515 X242.743 Y101.982
N1520 X242.729 Y102.016
N1525 X242.728 Y102.053
N1530 X242.74 Y102.088
N1535 X242.763 Y102.117
N1540 X242.795 Y102.135
N1545 X242.831 Y102.142
N1550 X265.91
N1555 X265.947 Y102.135
N1560 X265.98 Y102.117
N1565 X266.005 Y102.088
N1570 X266.019 Y102.053
N1575 Y102.015
N1580 X266.008 Y101.979
N1585 X265.984 Y101.949
N1590 X265.952 Y101.929
N1595 G3 X264.07 Y101.115 I24.164 J-58.457
N1600 X262.246 Y100.179 I8.464 J-18.732
N1605 X255.04 Y94.451 I15.689 J-27.137
N1610 G2 X254.633 Y94.458 I-0.2 J0.188
N1615 G3 X253.392 Y95.818 I-38.307 J-33.705
N1620 X252.045 Y97.073 I-10.578 J-10.007
N1625 X250.15 Y98.491 I-17.093 J-20.854
N1630 G1 X250.078 Y98.549 Z-2.485 F500.
N1635 X250.015 Y98.617 Z-2.471
N1640 X249.968 Y98.686 Z-2.428
N1645 X249.931 Y98.761 Z-2.385
N1650 X249.909 Y98.824 Z-2.319
N1655 X249.895 Y98.889 Z-2.253
N1660 X249.887 Y98.973 Z-2.085
N1665 Y99.003 Z-1.9
N1670 G0 Z5.
N1675 X246.584 Y59.96
N1680 G1 Z1.6 F500.
N1685 X246.563 Y59.979 Z1.418 F333.33
N1690 X246.503 Y60.034 Z1.254
N1695 X246.412 Y60.124 Z1.122
N1700 X246.303 Y60.243 Z1.034
N1705 X246.189 Y60.382 Z1.
N1710 G2 X250.724 Y63.836 Z0.687 I2.267 J1.727
N1715 X246.189 Y60.382 Z0.375 I-2.267 J-1.727
N1720 X250.724 Y63.836 Z0.062 I2.267 J1.727
N1725 X246.189 Y60.382 Z-0.251 I-2.267 J-1.727
N1730 X250.724 Y63.836 Z-0.563 I2.267 J1.727
N1735 X246.189 Y60.382 Z-0.876 I-2.267 J-1.727
N1740 X250.724 Y63.836 Z-1.189 I2.267 J1.727
N1745 X246.189 Y60.382 Z-1.501 I-2.267 J-1.727
N1750 X250.724 Y63.836 Z-1.814 I2.267 J1.727
N1755 X246.189 Y60.382 Z-2.127 I-2.267 J-1.727
N1760 X250.724 Y63.836 Z-2.439 I2.267 J1.727
N1765 X251.304 Y62.226 Z-2.5 I-2.267 J-1.727
N1770 G3 X251.429 Y60.055 I66.865 J2.751 F1500.
N1775 X252.563 Y53.352 I36.107 J2.663
N1780 X252.65 Y53.065 I4.642 J1.243
N1785 G2 X252.737 Y52.777 I-4.556 J-1.531
N1790 G1 X252.739 Y52.741
N1795 X252.729 Y52.706
N1800 X252.707 Y52.677
N1805 X252.677 Y52.658
N1810 X252.641 Y52.651
N1815 X252.605 Y52.657
N1820 X252.574 Y52.676
N1825 X252.552 Y52.704
N1830 G2 X250.052 Y57.509 I269.451 J143.24
N1835 G3 X247.347 Y62.202 I-46.444 J-23.642
N1840 G2 X247.414 Y62.692 I0.318 J0.206
N1845 G3 X249.146 Y64.386 I-15.901 J17.997
N1850 X250.653 Y66.283 I-11.844 J10.951
N1855 X250.853 Y66.601 I-4.711 J3.195
N1860 G2 X251.049 Y66.921 I8.825 J-5.17
N1865 G1 X251.075 Y66.95
N1870 X251.11 Y66.97
N1875 X251.149 Y66.977
N1880 X251.188 Y66.972
N1885 X251.223 Y66.955
N1890 X251.251 Y66.927
N1895 X251.269 Y66.891
N1900 X251.274 Y66.852
N1905 G3 X251.304 Y62.226 I66.896 J-1.875
N1910 G1 X251.301 Y62.134 Z-2.485 F500.
N1915 X251.284 Y62.043 Z-2.471
N1920 X251.256 Y61.964 Z-2.428
N1925 X251.218 Y61.89 Z-2.385
N1930 X251.181 Y61.835 Z-2.319
N1935 X251.138 Y61.785 Z-2.253
N1940 X251.074 Y61.727 Z-2.085
N1945 X251.051 Y61.71 Z-1.9
N1950 G0 Z5.
N1955 X204.896 Y28.044
N1960 G1 Z1.6 F500.
N1965 X204.89 Y28.016 Z1.418 F333.33
N1970 X204.872 Y27.937 Z1.254
N1975 X204.84 Y27.813 Z1.122
N1980 X204.792 Y27.659 Z1.034
N1985 X204.727 Y27.491 Z1.
N1990 G2 X199.47 Y29.693 Z0.687 I-2.629 J1.101
N1995 X204.727 Y27.491 Z0.375 I2.629 J-1.101
N2000 X199.47 Y29.693 Z0.062 I-2.629 J1.101
N2005 X204.727 Y27.491 Z-0.251 I2.629 J-1.101
N2010 X199.47 Y29.693 Z-0.563 I-2.629 J1.101
N2015 X204.727 Y27.491 Z-0.876 I2.629 J-1.101
N2020 X199.47 Y29.693 Z-1.189 I-2.629 J1.101
N2025 X204.727 Y27.491 Z-1.501 I2.629 J-1.101
N2030 X199.47 Y29.693 Z-1.814 I-2.629 J1.101
N2035 X204.727 Y27.491 Z-2.127 I2.629 J-1.101
N2040 X199.47 Y29.693 Z-2.439 I-2.629 J1.101
N2045 X200.574 Y31. Z-2.5 I2.629 J-1.101
N2050 G3 X200.988 Y31.267 I-15.281 J24.139 F1500.
N2055 G2 X201.488 Y31.204 I0.213 J-0.325
N2060 G3 X203.477 Y29.405 I10.453 J9.56
N2065 G2 X203.398 Y29.165 I-0.08 J-0.107
N2070 G1 X197.716
N2075 X197.678 Y29.172
N2080 X197.643 Y29.191
N2085 X197.617 Y29.22
N2090 X197.602 Y29.256
N2095 X197.6 Y29.295
N2100 X197.611 Y29.333
N2105 X197.634 Y29.365
N2110 X197.666 Y29.387
N2115 G3 X200.574 Y31. I-12.373 J25.752
N2120 G1 X200.657 Y31.042 Z-2.485 F500.
N2125 X200.745 Y31.071 Z-2.471
N2130 X200.827 Y31.086 Z-2.428
N2135 X200.91 Y31.089 Z-2.385
N2140 X200.976 Y31.083 Z-2.319
N2145 X201.041 Y31.069 Z-2.253
N2150 X201.122 Y31.042 Z-2.085
N2155 X201.149 Y31.03 Z-1.9
N2160 G0 Z5.
N2165 X161.054 Y33.935
N2170 G1 Z1.6 F500.
N2175 X161.073 Y33.955 Z1.418 F333.33
N2180 X161.131 Y34.013 Z1.254
N2185 X161.224 Y34.1 Z1.122
N2190 X161.347 Y34.205 Z1.034
N2195 X161.492 Y34.313 Z1.
N2200 G2 X164.756 Y29.64 Z0.687 I1.632 J-2.336
N2205 X161.492 Y34.313 Z0.375 I-1.632 J2.336
N2210 X164.756 Y29.64 Z0.062 I1.632 J-2.336
N2215 X161.492 Y34.313 Z-0.251 I-1.632 J2.336
N2220 X164.756 Y29.64 Z-0.563 I1.632 J-2.336
N2225 X161.492 Y34.313 Z-0.876 I-1.632 J2.336
N2230 X164.756 Y29.64 Z-1.189 I1.632 J-2.336
N2235 X161.492 Y34.313 Z-1.501 I-1.632 J2.336
N2240 X164.756 Y29.64 Z-1.814 I1.632 J-2.336
N2245 X161.492 Y34.313 Z-2.127 I-1.632 J2.336
N2250 X164.756 Y29.64 Z-2.439 I1.632 J-2.336
N2255 X163.124 Y29.126 Z-2.5 I-1.632 J2.336
N2260 G1 X160.218 F1500.
N2265 X160.179 Y29.133
N2270 X160.145 Y29.152
N2275 X160.118 Y29.181
N2280 X160.103 Y29.217
N2285 X160.1 Y29.256
N2290 X160.11 Y29.295
N2295 X160.132 Y29.327
N2300 X160.164 Y29.351
N2305 G3 X162.79 Y31.09 I-6.437 J12.574
N2310 G2 X163.349 Y31.122 I0.301 J-0.36
N2315 G3 X164.421 Y30.43 I40.374 J61.368
N2320 X165.528 Y29.796 I7.683 J12.132
N2325 X165.999 Y29.57 I4.127 J8.012
N2330 G2 X166.471 Y29.349 I-5.232 J-11.786
N2335 G1 X166.503 Y29.326
N2340 X166.525 Y29.294
N2345 X166.536 Y29.256
N2350 X166.533 Y29.217
N2355 X166.518 Y29.181
N2360 X166.492 Y29.152
N2365 X166.458 Y29.133
N2370 X166.419 Y29.126
N2375 X163.124
N2380 X163.032 Y29.133 Z-2.485 F500.
N2385 X162.942 Y29.155 Z-2.471
N2390 X162.864 Y29.186 Z-2.428
N2395 X162.791 Y29.227 Z-2.385
N2400 X162.738 Y29.267 Z-2.319
N2405 X162.69 Y29.312 Z-2.253
N2410 X162.636 Y29.378 Z-2.085
N2415 X162.619 Y29.402 Z-1.9
N2420 G0 Z5.
N2425 X142.585 Y61.432
N2430 G1 Z1.6 F500.
N2435 X142.558 Y61.424 Z1.418 F333.33
N2440 X142.48 Y61.401 Z1.254
N2445 X142.356 Y61.369 Z1.122
N2450 X142.198 Y61.337 Z1.034
N2455 X142.019 Y61.313 Z1.
N2460 G2 X141.413 Y66.98 Z0.687 I-0.303 J2.834
N2465 X142.019 Y61.313 Z0.375 I0.303 J-2.834
N2470 X141.413 Y66.98 Z0.062 I-0.303 J2.834
N2475 X142.019 Y61.313 Z-0.251 I0.303 J-2.834
N2480 X141.413 Y66.98 Z-0.563 I-0.303 J2.834
N2485 X142.019 Y61.313 Z-0.876 I0.303 J-2.834
N2490 X141.413 Y66.98 Z-1.189 I-0.303 J2.834
N2495 X142.019 Y61.313 Z-1.501 I0.303 J-2.834
N2500 X141.413 Y66.98 Z-1.814 I-0.303 J2.834
N2505 X142.019 Y61.313 Z-2.127 I0.303 J-2.834
N2510 X141.413 Y66.98 Z-2.439 I-0.303 J2.834
N2515 X143.091 Y66.643 Z-2.5 I0.303 J-2.834
N2520 G3 X143.843 Y66.256 I7.164 J13.01 F1500.
N2525 G2 Y65.966 I-0.069 J-0.145
N2530 G3 X142.477 Y65.222 I6.412 J-13.397
N2535 G2 X142.2 Y65.374 I-0.095 J0.155
N2540 X142.196 Y66.007 I31.772 J0.483
N2545 X142.201 Y66.639 I87.565 J-0.412
N2550 G1 X142.2 Y66.744
N2555 X142.198 Y66.848
N2560 G2 X142.476 Y67.001 I0.182 J-0.003
N2565 G3 X143.091 Y66.643 I7.779 J12.652
N2570 X146.875 Y67.127 I1.561 J2.834
N2575 G2 X150.396 Y68.596 I3.698 J-3.909
N2580 G1 X150.524 Y68.602
N2585 G2 X150.792 Y68.61 I0.269 J-4.295
N2590 X151.091 Y68.297 I0. J-0.299
N2595 G1 X151.005 Y66.504
N2600 G3 X150.974 Y65.505 I30.091 J-1.445
N2605 X151. Y64.717 I8.23 J-0.122
N2610 G2 X151.039 Y63.93 I-12.646 J-1.026
N2615 X150.727 Y63.612 I-0.312 J-0.006
N2620 G1 X150.491 Y63.619
N2625 X150.255 Y63.627
N2630 G3 X139.796 Y56.112 I0. J-11.036
N2635 G2 X139.542 Y56.114 I-0.127 J0.043
N2640 X139.067 Y58.053 I13.159 J4.256
N2645 X138.766 Y60.026 I57.825 J9.827
N2650 X138.41 Y64.77 I39.665 J5.36
N2655 X138.583 Y69.525 I46.058 J0.708
N2660 X138.885 Y71.915 I31.602 J-2.787
N2665 X139.461 Y74.254 I15.368 J-2.542
N2670 G3 X139.629 Y74.793 I-15.907 J5.249
N2675 G2 X139.819 Y75.323 I4.572 J-1.34
N2680 X140.097 I0.139 J-0.059
N2685 G3 X150.255 Y68.594 I10.184 J4.34
N2690 G1 X150.396 Y68.596
N2695 G3 X152.617 Y69.823 I-0.092 J2.79
N2700 G2 X155.015 Y68.992 I1.088 J-0.735
N2705 G3 X155.154 Y59.866 I51.796 J-3.77
N2710 G2 X154.889 Y59.617 I-0.228 J-0.023
N2715 G3 X152.575 Y59.781 I-2.043 J-12.388
N2720 G2 X150.255 Y59.756 I-2.32 J107.262
N2725 G3 X143.451 Y54.883 I0. J-7.186
N2730 G2 X142.862 Y53.228 I-58.218 J19.797
N2735 X142.122 Y51.634 I-10.539 J3.923
N2740 X141.854 Y51.199 I-5.668 J3.191
N2745 X141.436 Y50.905 I-0.593 J0.398
N2750 X139.01 Y50.771 I-1.556 J6.171
N2755 X137.923 Y51.262 I0.294 J2.1
N2760 X137.129 Y52.152 I2.937 J3.421
N2765 X135.934 Y54.658 I7.632 J5.177
N2770 X135.26 Y57.35 I27.371 J8.285
N2775 X134.59 Y62.586 I37.244 J7.426
N2780 X134.561 Y67.864 I50.514 J2.919
N2785 X134.985 Y72.207 I43.026 J-2.008
N2790 X136.104 Y76.426 I19.429 J-2.897
N2795 X137.279 Y78.826 I14.752 J-5.732
N2800 X139.288 Y80.587 I3.741 J-2.241
N2805 X140.178 Y80.812 I1.134 J-2.622
N2810 X141.095 Y80.819 I0.508 J-5.915
N2815 G1 X141.184 Y80.814
N2820 X141.273 Y80.807
N2825 G2 X142.46 Y80.024 I-0.194 J-1.586
N2830 X143.003 Y78.783 I-5.167 J-3.
N2835 G1 X143.387 Y77.536
N2840 G3 X150.255 Y72.466 I6.868 J2.116
N2845 G2 X152.694 Y72.437 I0. J-102.986
N2850 G3 X155.124 Y72.648 I0.262 J11.08
N2855 G2 X155.377 Y72.409 I0.042 J-0.21
N2860 G3 X155.015 Y68.992 I51.433 J-7.187
N2865 G1 X155.001 Y68.901 Z-2.485 F500.
N2870 X154.974 Y68.812 Z-2.471
N2875 X154.937 Y68.737 Z-2.428
N2880 X154.891 Y68.667 Z-2.385
N2885 X154.848 Y68.617 Z-2.319
N2890 X154.799 Y68.572 Z-2.253
N2895 X154.73 Y68.522 Z-2.085
N2900 X154.704 Y68.508 Z-1.9
N2905 G0 Z5.
N2910 X160.182 Y101.864
N2915 G1 Z1.6 F500.
N2920 X160.186 Y101.892 Z1.418 F333.33
N2925 X160.201 Y101.972 Z1.254
N2930 X160.229 Y102.096 Z1.122
N2935 X160.272 Y102.252 Z1.034
N2940 X160.33 Y102.423 Z1.
N2945 G2 X165.663 Y100.411 Z0.687 I2.667 J-1.006
N2950 X160.33 Y102.423 Z0.375 I-2.667 J1.006
N2955 X165.663 Y100.411 Z0.062 I2.667 J-1.006
N2960 X160.33 Y102.423 Z-0.251 I-2.667 J1.006
N2965 X165.663 Y100.411 Z-0.563 I2.667 J-1.006
N2970 X160.33 Y102.423 Z-0.876 I-2.667 J1.006
N2975 X165.663 Y100.411 Z-1.189 I2.667 J-1.006
N2980 X160.33 Y102.423 Z-1.501 I-2.667 J1.006
N2985 X165.663 Y100.411 Z-1.814 I2.667 J-1.006
N2990 X160.33 Y102.423 Z-2.127 I-2.667 J1.006
N2995 X165.663 Y100.411 Z-2.439 I2.667 J-1.006
N3000 X164.606 Y99.065 Z-2.5 I-2.667 J1.006
N3005 G3 X163.72 Y98.438 I19.441 J-28.4 F1500.
N3010 G2 X163.25 Y98.485 I-0.209 J0.286
N3015 G3 X158.148 Y101.909 I-9.523 J-8.676
N3020 G1 X158.116 Y101.928
N3025 X158.092 Y101.956
N3030 X158.079 Y101.991
N3035 Y102.029
N3040 X158.092 Y102.064
N3045 X158.116 Y102.093
N3050 X158.148 Y102.111
N3055 X158.185 Y102.118
N3060 X169.954
N3065 X169.991 Y102.111
N3070 X170.024 Y102.093
N3075 X170.049 Y102.064
N3080 X170.063 Y102.028
N3085 Y101.991
N3090 X170.052 Y101.955
N3095 X170.028 Y101.925
N3100 X169.996 Y101.905
N3105 G3 X168.165 Y101.11 I21.602 J-52.259
N3110 X166.391 Y100.195 I8.468 J-18.597
N3115 X165.032 Y99.352 I13.281 J-22.928
N3120 X164.606 Y99.065 I19.016 J-28.687
N3125 G1 X164.526 Y99.019 Z-2.485 F500.
N3130 X164.439 Y98.986 Z-2.471
N3135 X164.358 Y98.968 Z-2.428
N3140 X164.274 Y98.962 Z-2.385
N3145 X164.208 Y98.965 Z-2.319
N3150 X164.143 Y98.976 Z-2.253
N3155 X164.061 Y99. Z-2.085
N3160 X164.034 Y99.011 Z-1.9
N3165 G0 Z5.
N3170 X201.769 Y104.73
N3175 G1 Z1.6 F500.
N3180 X201.796 Y104.736 Z1.418 F333.33
N3185 X201.876 Y104.754 Z1.254
N3190 X202.002 Y104.776 Z1.122
N3195 X202.162 Y104.796 Z1.034
N3200 X202.342 Y104.808 Z1.
N3205 G2 X202.531 Y99.111 Z0.687 I0.095 J-2.848
N3210 X202.342 Y104.808 Z0.375 I-0.095 J2.848
N3215 X202.531 Y99.111 Z0.062 I0.095 J-2.848
N3220 X202.342 Y104.808 Z-0.251 I-0.095 J2.848
N3225 X202.531 Y99.111 Z-0.563 I0.095 J-2.848
N3230 X202.342 Y104.808 Z-0.876 I-0.095 J2.848
N3235 X202.531 Y99.111 Z-1.189 I0.095 J-2.848
N3240 X202.342 Y104.808 Z-1.501 I-0.095 J2.848
N3245 X202.531 Y99.111 Z-1.814 I0.095 J-2.848
N3250 X202.342 Y104.808 Z-2.127 I-0.095 J2.848
N3255 X202.531 Y99.111 Z-2.439 I0.095 J-2.848
N3260 X200.883 Y99.57 Z-2.5 I-0.095 J2.848
N3265 G3 X199.903 Y100.191 I-27.942 J-42.971 F1500.
N3270 X198.177 Y101.137 I-9.775 J-15.804
N3275 X197.433 Y101.462 I-5.021 J-10.448
N3280 G2 X196.684 Y101.776 I8.251 J20.787
N3285 G1 X196.652 Y101.797
N3290 X196.629 Y101.827
N3295 X196.618 Y101.863
N3300 X196.619 Y101.901
N3305 X196.633 Y101.937
N3310 X196.658 Y101.965
N3315 X196.691 Y101.984
N3320 X196.729 Y101.99
N3325 X201.594
N3330 X204.926
N3335 X204.965 Y101.984
N3340 X205. Y101.965
N3345 X205.027 Y101.937
N3350 X205.044 Y101.901
N3355 X205.049 Y101.862
N3360 X205.041 Y101.823
N3365 X205.021 Y101.788
N3370 X204.992 Y101.762
N3375 G3 X202.028 Y99.189 I6.949 J-10.998
N3380 G2 X201.557 Y99.124 I-0.272 J0.231
N3385 G3 X200.883 Y99.57 I-28.616 J-42.525
N3390 G1 X200.808 Y99.625 Z-2.485 F500.
N3395 X200.743 Y99.691 Z-2.471
N3400 X200.694 Y99.758 Z-2.428
N3405 X200.654 Y99.832 Z-2.385
N3410 X200.63 Y99.893 Z-2.319
N3415 X200.613 Y99.957 Z-2.253
N3420 X200.602 Y100.042 Z-2.085
N3425 X200.6 Y100.071 Z-1.9
N3430 G0 Z5.
N3435 X96.906 Y91.127
N3440 G1 Z1.6 F500.
N3445 X96.897 Y91.154 Z1.418 F333.33
N3450 X96.87 Y91.231 Z1.254
N3455 X96.834 Y91.353 Z1.122
N3460 X96.796 Y91.51 Z1.034
N3465 X96.764 Y91.688 Z1.
N3470 G2 X102.402 Y92.525 Z0.687 I2.819 J0.419
N3475 X96.764 Y91.688 Z0.375 I-2.819 J-0.419
N3480 X102.402 Y92.525 Z0.062 I2.819 J0.419
N3485 X96.764 Y91.688 Z-0.251 I-2.819 J-0.419
N3490 X102.402 Y92.525 Z-0.563 I2.819 J0.419
N3495 X96.764 Y91.688 Z-0.876 I-2.819 J-0.419
N3500 X102.402 Y92.525 Z-1.189 I2.819 J0.419
N3505 X96.764 Y91.688 Z-1.501 I-2.819 J-0.419
N3510 X102.402 Y92.525 Z-1.814 I2.819 J0.419
N3515 X96.764 Y91.688 Z-2.127 I-2.819 J-0.419
N3520 X102.402 Y92.525 Z-2.439 I2.819 J0.419
N3525 X102.133 Y90.835 Z-2.5 I-2.819 J-0.419
N3530 G3 X101.881 Y90.32 I37.309 J-18.597 F1500.
N3535 G2 X101.514 Y90.243 I-0.213 J0.103
N3540 G3 X99.822 Y91.593 I-20.036 J-23.384
N3545 G2 X99.901 Y91.833 I0.08 J0.107
N3550 G1 X102.331
N3555 G2 X102.5 Y91.553 I0. J-0.191
N3560 G3 X102.133 Y90.835 I36.942 J-19.315
N3565 X102.645 Y87.3 I2.805 J-1.398
N3570 G2 X103.381 Y83.806 I-2.531 J-2.358
N3575 G3 X103.208 Y83.303 I58.512 J-20.359
N3580 G2 X102.903 Y83.249 I-0.168 J0.057
N3585 G3 X92.925 Y91.276 I-22.965 J-18.331
N3590 G2 X92.836 Y91.657 I0.111 J0.226
N3595 G3 X95.479 Y95.364 I-46.757 J36.128
N3600 G2 X96.132 Y95.717 I0.652 J-0.427
N3605 G1 X109.406
N3610 G2 X109.54 Y95.451 I0. J-0.167
N3615 G3 X107.677 Y92.781 I43.435 J-32.297
N3620 X106.013 Y89.983 I31.973 J-20.912
N3625 X104.47 Y86.702 I29.251 J-15.752
N3630 X103.381 Y83.806 I57.422 J-23.255
N3635 X104.315 Y80.362 I2.986 J-1.039
N3640 G2 X105.469 Y76.984 I-2.268 J-2.66
N3645 G3 X105.156 Y75.353 I45.959 J-9.639
N3650 X104.664 Y71.84 I54.334 J-9.404
N3655 G1 X104.654 Y71.804
N3660 X104.632 Y71.773
N3665 X104.601 Y71.752
N3670 X104.564 Y71.743
N3675 X104.527 Y71.746
N3680 X104.493 Y71.762
N3685 X104.466 Y71.788
N3690 X104.45 Y71.822
N3695 G3 X86.236 Y89.606 I-24.467 J-6.84
N3700 G2 X86.152 Y89.906 I0.045 J0.175
N3705 G3 X93.319 Y99.272 I-35.82 J34.835
N3710 G2 X93.924 Y99.617 I0.606 J-0.358
N3715 G1 X118.698
N3720 G2 X118.782 Y99.378 I0. J-0.134
N3725 G3 X115.499 Y96.453 I26.077 J-32.571
N3730 X112.619 Y93.13 I20.31 J-20.507
N3735 X108.555 Y86.306 I31.787 J-23.555
N3740 X105.893 Y78.823 I37.992 J-17.731
N3745 X105.469 Y76.984 I45.534 J-11.479
N3750 G1 X105.443 Y76.895 Z-2.485 F500.
N3755 X105.404 Y76.811 Z-2.471
N3760 X105.358 Y76.742 Z-2.428
N3765 X105.302 Y76.679 Z-2.385
N3770 X105.253 Y76.635 Z-2.319
N3775 X105.198 Y76.597 Z-2.253
N3780 X105.123 Y76.557 Z-2.085
N3785 X105.096 Y76.546 Z-1.9
N3790 G0 Z5.
N3795 X105.592 Y36.866
N3800 G1 Z1.6 F500.
N3805 X105.589 Y36.838 Z1.418 F333.33
N3810 X105.581 Y36.756 Z1.254
N3815 X105.564 Y36.63 Z1.122
N3820 X105.535 Y36.471 Z1.034
N3825 X105.491 Y36.297 Z1.
N3830 G2 X100.008 Y37.855 Z0.687 I-2.741 J0.779
N3835 X105.491 Y36.297 Z0.375 I2.741 J-0.779
N3840 X100.008 Y37.855 Z0.062 I-2.741 J0.779
N3845 X105.491 Y36.297 Z-0.251 I2.741 J-0.779
N3850 X100.008 Y37.855 Z-0.563 I-2.741 J0.779
N3855 X105.491 Y36.297 Z-0.876 I2.741 J-0.779
N3860 X100.008 Y37.855 Z-1.189 I-2.741 J0.779
N3865 X105.491 Y36.297 Z-1.501 I2.741 J-0.779
N3870 X100.008 Y37.855 Z-1.814 I-2.741 J0.779
N3875 X105.491 Y36.297 Z-2.127 I2.741 J-0.779
N3880 X100.008 Y37.855 Z-2.439 I-2.741 J0.779
N3885 X100.949 Y39.285 Z-2.5 I2.741 J-0.779
N3890 G3 X101.328 Y39.599 I-20.343 J24.951 F1500.
N3895 G2 X101.698 Y39.519 I0.154 J-0.184
N3900 G3 X101.96 Y38.981 I47.049 J22.585
N3905 X102.232 Y38.448 I20.603 J10.183
N3910 G2 X102.063 Y38.167 I-0.169 J-0.089
N3915 G1 X99.901
N3920 G2 X99.822 Y38.407 I0. J0.133
N3925 G3 X100.949 Y39.285 I-19.216 J25.829
N3930 X101.959 Y42.8 I-2.027 J2.486
N3935 G2 X102.617 Y46.399 I3.564 J1.208
N3940 G1 X102.768 Y46.584
N3945 G2 X103.072 Y46.527 I0.137 J-0.111
N3950 G3 X105.146 Y41.22 I44.172 J14.207
N3955 X107.975 Y36.273 I30.307 J14.048
N3960 X108.614 Y35.404 I15.186 J10.498
N3965 G2 X109.274 Y34.549 I-69.571 J-54.364
N3970 X109.142 Y34.283 I-0.132 J-0.1
N3975 G1 X96.132
N3980 G2 X95.479 Y34.636 I0. J0.78
N3985 G3 X92.836 Y38.343 I-47.879 J-31.336
N3990 G2 X92.925 Y38.724 I0.2 J0.154
N3995 G3 X102.617 Y46.399 I-12.912 J26.263
N4000 X102.906 Y50.085 I-2.493 J2.05
N4005 G2 X102.769 Y53.78 I3.356 J1.974
N4010 G3 X104.45 Y58.177 I-22.769 J11.22
N4015 G1 X104.466 Y58.211
N4020 X104.493 Y58.237
N4025 X104.527 Y58.253
N4030 X104.564 Y58.257
N4035 X104.6 Y58.247
N4040 X104.631 Y58.226
N4045 X104.653 Y58.196
N4050 X104.664 Y58.159
N4055 G3 X105.044 Y55.089 I97.847 J10.554
N4060 X105.573 Y52.041 I46.259 J6.466
N4065 X109.205 Y41.857 I38.651 J8.042
N4070 X115.674 Y33.193 I29.824 J15.522
N4075 X117.231 Y31.84 I13.652 J14.137
N4080 X118.891 Y30.616 I23.026 J29.49
N4085 G1 X118.92 Y30.588
N4090 X118.939 Y30.552
N4095 X118.946 Y30.512
N4100 X118.94 Y30.473
N4105 X118.922 Y30.436
N4110 X118.893 Y30.408
N4115 X118.858 Y30.389
N4120 X118.818 Y30.383
N4125 X93.924
N4130 G2 X93.319 Y30.728 I0. J0.703
N4135 G3 X86.152 Y40.094 I-42.611 J-25.182
N4140 G2 X86.236 Y40.394 I0.129 J0.126
N4145 G3 X89.024 Y41.274 I-6.739 J26.198
N4150 X102.769 Y53.78 I-9.023 J23.726
N4155 G1 X102.817 Y53.859 Z-2.485 F500.
N4160 X102.876 Y53.931 Z-2.471
N4165 X102.938 Y53.987 Z-2.428
N4170 X103.007 Y54.034 Z-2.385
N4175 X103.066 Y54.064 Z-2.319
N4180 X103.128 Y54.087 Z-2.253
N4185 X103.211 Y54.107 Z-2.085
N4190 X103.24 Y54.111 Z-1.9
N4195 G0 Z5.
N4200 X442.628 Y60.079
N4205 G1 Z1.6 F500.
N4210 X442.609 Y60.059 Z1.418 F333.33
N4215 X442.552 Y60.001 Z1.254
N4220 X442.459 Y59.913 Z1.122
N4225 X442.337 Y59.808 Z1.034
N4230 X442.193 Y59.699 Z1.
N4235 G2 X438.901 Y64.353 Z0.687 I-1.646 J2.327
N4240 X442.193 Y59.699 Z0.375 I1.646 J-2.327
N4245 X438.901 Y64.353 Z0.062 I-1.646 J2.327
N4250 X442.193 Y59.699 Z-0.251 I1.646 J-2.327
N4255 X438.901 Y64.353 Z-0.563 I-1.646 J2.327
N4260 X442.193 Y59.699 Z-0.876 I1.646 J-2.327
N4265 X438.901 Y64.353 Z-1.189 I-1.646 J2.327
N4270 X442.193 Y59.699 Z-1.501 I1.646 J-2.327
N4275 X438.901 Y64.353 Z-1.814 I-1.646 J2.327
N4280 X442.193 Y59.699 Z-2.127 I1.646 J-2.327
N4285 X438.901 Y64.353 Z-2.439 I-1.646 J2.327
N4290 X440.53 Y64.876 Z-2.5 I1.646 J-2.327
N4295 X441.411 Y64.879 I0.88 J-151.048 F1500.
N4300 X441.73 Y64.559 I0. J-0.319
N4305 G1 Y52.69
N4310 G2 X441.49 Y52.138 I-0.754 J0.
N4315 G3 X441.076 Y51.735 I8.645 J-9.291
N4320 G2 X440.64 I-0.218 J0.214
N4325 G3 X439.683 Y52.616 I-9.059 J-8.888
N4330 G2 X439.335 Y53.356 I0.614 J0.74
N4335 G1 Y64.57
N4340 G2 X439.65 Y64.88 I0.31 J0.
N4345 G3 X440.53 Y64.876 I0.632 J42.623
N4350 X442.21 Y65.972 I-0.011 J1.851
N4355 G2 X444.172 Y65.554 I0.936 J-0.418
N4360 G1 Y51.623
N4365 G2 X443.834 Y50.931 I-0.878 J0.
N4370 G3 X441.004 Y47.502 I6.301 J-8.083
N4375 G2 X440.712 I-0.146 J0.074
N4380 G3 X437.23 Y51.399 I-9.131 J-4.655
N4385 G2 X436.893 Y52.025 I0.413 J0.626
N4390 G1 Y67.447
N4395 G2 X437.184 Y67.67 I0.231 J0.
N4400 G3 X440.512 Y67.238 I3.28 J12.234
N4405 X443.866 Y67.335 I-0.251 J66.418
N4410 G2 X444.172 Y67.046 I0.016 J-0.289
N4415 G1 Y65.554
N4420 X444.165 Y65.462 Z-2.485 F500.
N4425 X444.143 Y65.372 Z-2.471
N4430 X444.112 Y65.294 Z-2.428
N4435 X444.071 Y65.221 Z-2.385
N4440 X444.031 Y65.168 Z-2.319
N4445 X443.986 Y65.12 Z-2.253
N4450 X443.92 Y65.066 Z-2.085
N4455 X443.896 Y65.049 Z-1.9
N4460 G0 Z5.
N4465 X472.384 Y102.241
N4470 G1 Z1.6 F500.
N4475 X472.388 Y102.269 Z1.418 F333.33
N4480 X472.402 Y102.35 Z1.254
N4485 X472.427 Y102.474 Z1.122
N4490 X472.467 Y102.631 Z1.034
N4495 X472.522 Y102.802 Z1.
N4500 G2 X477.89 Y100.886 Z0.687 I2.684 J-0.958
N4505 X472.522 Y102.802 Z0.375 I-2.684 J0.958
N4510 X477.89 Y100.886 Z0.062 I2.684 J-0.958
N4515 X472.522 Y102.802 Z-0.251 I-2.684 J0.958
N4520 X477.89 Y100.886 Z-0.563 I2.684 J-0.958
N4525 X472.522 Y102.802 Z-0.876 I-2.684 J0.958
N4530 X477.89 Y100.886 Z-1.189 I2.684 J-0.958
N4535 X472.522 Y102.802 Z-1.501 I-2.684 J0.958
N4540 X477.89 Y100.886 Z-1.814 I2.684 J-0.958
N4545 X472.522 Y102.802 Z-2.127 I-2.684 J0.958
N4550 X477.89 Y100.886 Z-2.439 I2.684 J-0.958
N4555 X476.858 Y99.521 Z-2.5 I-2.684 J0.958
N4560 X476.127 Y99.013 I-24.5 J34.463 F1500.
N4565 X475.661 Y99.079 I-0.196 J0.289
N4570 G3 X472.61 Y101.759 I-10.009 J-8.315
N4575 G1 X472.581 Y101.786
N4580 X472.561 Y101.82
N4585 X472.553 Y101.859
N4590 X472.558 Y101.898
N4595 X472.575 Y101.934
N4600 X472.602 Y101.963
N4605 X472.637 Y101.981
N4610 X472.677 Y101.988
N4615 X481.105
N4620 X481.143 Y101.981
N4625 X481.176 Y101.963
N4630 X481.201 Y101.934
N4635 X481.214 Y101.899
N4640 X481.216 Y101.861
N4645 X481.204 Y101.825
N4650 X481.181 Y101.795
N4655 X481.149 Y101.774
N4660 G3 X479.352 Y100.941 I14.6 J-33.849
N4665 X477.607 Y100.003 I13.76 J-27.707
N4670 X476.858 Y99.521 I4.801 J-8.289
N4675 G1 X476.776 Y99.478 Z-2.485 F500.
N4680 X476.688 Y99.449 Z-2.471
N4685 X476.606 Y99.434 Z-2.428
N4690 X476.522 Y99.43 Z-2.385
N4695 X476.456 Y99.436 Z-2.319
N4700 X476.391 Y99.449 Z-2.253
N4705 X476.31 Y99.476 Z-2.085
N4710 X476.283 Y99.488 Z-1.9
N4715 G0 Z5.
N4720 X513.128 Y104.953
N4725 G1 Z1.6 F500.
N4730 X513.155 Y104.96 Z1.418 F333.33
N4735 X513.235 Y104.979 Z1.254
N4740 X513.36 Y105.004 Z1.122
N4745 X513.52 Y105.028 Z1.034
N4750 X513.699 Y105.044 Z1.
N4755 G2 X514.015 Y99.353 Z0.687 I0.158 J-2.846
N4760 X513.699 Y105.044 Z0.375 I-0.158 J2.846
N4765 X514.015 Y99.353 Z0.062 I0.158 J-2.846
N4770 X513.699 Y105.044 Z-0.251 I-0.158 J2.846
N4775 X514.015 Y99.353 Z-0.563 I0.158 J-2.846
N4780 X513.699 Y105.044 Z-0.876 I-0.158 J2.846
N4785 X514.015 Y99.353 Z-1.189 I0.158 J-2.846
N4790 X513.699 Y105.044 Z-1.501 I-0.158 J2.846
N4795 X514.015 Y99.353 Z-1.814 I0.158 J-2.846
N4800 X513.699 Y105.044 Z-2.127 I-0.158 J2.846
N4805 X514.015 Y99.353 Z-2.439 I0.158 J-2.846
N4810 X512.357 Y99.775 Z-2.5 I-0.158 J2.846
N4815 G3 X511.214 Y100.454 I-19.211 J-31.029 F1500.
N4820 X509.452 Y101.379 I-14.224 J-24.96
N4825 X508.972 Y101.581 I-2.298 J-4.774
N4830 G2 X508.489 Y101.776 I2.799 J7.66
N4835 G1 X508.457 Y101.797
N4840 X508.434 Y101.827
N4845 X508.423 Y101.863
N4850 X508.424 Y101.901
N4855 X508.438 Y101.937
N4860 X508.463 Y101.965
N4865 X508.496 Y101.984
N4870 X508.534 Y101.99
N4875 X512.986
N4880 X516.037
N4885 X516.076 Y101.984
N4890 X516.111 Y101.965
N4895 X516.138 Y101.937
N4900 X516.155 Y101.901
N4905 X516.16 Y101.862
N4910 X516.152 Y101.823
N4915 X516.132 Y101.788
N4920 X516.103 Y101.762
N4925 G3 X513.399 Y99.486 I6.949 J-10.998
N4930 G2 X512.916 Y99.422 I-0.279 J0.253
N4935 G3 X512.357 Y99.775 I-19.77 J-30.676
N4940 G1 X512.282 Y99.83 Z-2.485 F500.
N4945 X512.217 Y99.896 Z-2.471
N4950 X512.167 Y99.963 Z-2.428
N4955 X512.128 Y100.036 Z-2.385
N4960 X512.104 Y100.098 Z-2.319
N4965 X512.086 Y100.162 Z-2.253
N4970 X512.075 Y100.247 Z-2.085
N4975 X512.074 Y100.276 Z-1.9
N4980 G0 Z5.
N4985 X545.907 Y96.983
N4990 G1 Z1.6 F500.
N4995 X545.887 Y96.962 Z1.418 F333.33
N5000 X545.83 Y96.904 Z1.254
N5005 X545.737 Y96.817 Z1.122
N5010 X545.613 Y96.713 Z1.034
N5015 X545.469 Y96.605 Z1.
N5020 G2 X542.204 Y101.278 Z0.687 I-1.632 J2.336
N5025 X545.469 Y96.605 Z0.375 I1.632 J-2.336
N5030 X542.204 Y101.278 Z0.062 I-1.632 J2.336
N5035 X545.469 Y96.605 Z-0.251 I1.632 J-2.336
N5040 X542.204 Y101.278 Z-0.563 I-1.632 J2.336
N5045 X545.469 Y96.605 Z-0.876 I1.632 J-2.336
N5050 X542.204 Y101.278 Z-1.189 I-1.632 J2.336
N5055 X545.469 Y96.605 Z-1.501 I1.632 J-2.336
N5060 X542.204 Y101.278 Z-1.814 I-1.632 J2.336
N5065 X545.469 Y96.605 Z-2.127 I1.632 J-2.336
N5070 X542.204 Y101.278 Z-2.439 I-1.632 J2.336
N5075 X543.837 Y101.791 Z-2.5 I1.632 J-2.336
N5080 G1 X545.412 F1500.
N5085 X545.452 Y101.785
N5090 X545.488 Y101.767
N5095 X545.517 Y101.738
N5100 X545.535 Y101.702
N5105 X545.541 Y101.662
N5110 X545.534 Y101.622
N5115 X545.515 Y101.587
N5120 X545.486 Y101.559
N5125 G3 X544.064 Y100.4 I7.612 J-10.795
N5130 G2 X543.61 I-0.227 J0.242
N5135 G3 X542.188 Y101.559 I-9.034 J-9.636
N5140 G1 X542.159 Y101.587
N5145 X542.14 Y101.622
N5150 X542.133 Y101.662
N5155 X542.139 Y101.702
N5160 X542.158 Y101.738
N5165 X542.186 Y101.767
N5170 X542.222 Y101.785
N5175 X542.262 Y101.791
N5180 X543.837
N5185 G18 G2 X544.437 Z-1.9 I0. K0.6 F500.
N5190 G0 Z5.
N5195 X577.869 Y98.619
N5200 G1 Z1.6 F500.
N5205 X577.866 Y98.647 Z1.418 F333.33
N5210 X577.859 Y98.728 Z1.254
N5215 X577.854 Y98.856 Z1.122
N5220 X577.855 Y99.017 Z1.034
N5225 X577.868 Y99.197 Z1.
N5230 G17 G2 X583.539 Y98.628 Z0.687 I2.836 J-0.284
N5235 X577.868 Y99.197 Z0.375 I-2.836 J0.284
N5240 X583.539 Y98.628 Z0.062 I2.836 J-0.284
N5245 X577.868 Y99.197 Z-0.251 I-2.836 J0.284
N5250 X583.539 Y98.628 Z-0.563 I2.836 J-0.284
N5255 X577.868 Y99.197 Z-0.876 I-2.836 J0.284
N5260 X583.539 Y98.628 Z-1.189 I2.836 J-0.284
N5265 X577.868 Y99.197 Z-1.501 I-2.836 J0.284
N5270 X583.539 Y98.628 Z-1.814 I2.836 J-0.284
N5275 X577.868 Y99.197 Z-2.127 I-2.836 J0.284
N5280 X583.539 Y98.628 Z-2.439 I2.836 J-0.284
N5285 X582.865 Y97.056 Z-2.5 I-2.836 J0.284
N5290 G3 X582.33 Y96.39 I9.991 J-8.583 F1500.
N5295 G2 X581.814 Y95.71 I-85.406 J64.239
N5300 X581.519 Y95.759 I-0.134 J0.103
N5305 G3 X580.178 Y98.755 I-15.173 J-4.996
N5310 G2 X580.335 Y99.025 I0.156 J0.09
N5315 G1 X584.486
N5320 G2 X584.583 Y98.779 I0. J-0.142
N5325 G3 X583.701 Y97.941 I57.022 J-60.891
N5330 X582.865 Y97.056 I9.005 J-9.339
N5335 G1 X582.8 Y96.99 Z-2.485 F500.
N5340 X582.725 Y96.936 Z-2.471
N5345 X582.651 Y96.897 Z-2.428
N5350 X582.572 Y96.869 Z-2.385
N5355 X582.507 Y96.854 Z-2.319
N5360 X582.441 Y96.847 Z-2.253
N5365 X582.356 Y96.849 Z-2.085
N5370 X582.327 Y96.852 Z-1.9
N5375 G0 Z5.
N5380 X577.092 Y60.449
N5385 G1 Z1.6 F500.
N5390 X577.065 Y60.455 Z1.418 F333.33
N5395 X576.986 Y60.475 Z1.254
N5400 X576.863 Y60.51 Z1.122
N5405 X576.711 Y60.563 Z1.034
N5410 X576.544 Y60.632 Z1.
N5415 G2 X578.891 Y65.827 Z0.687 I1.173 J2.597
N5420 X576.544 Y60.632 Z0.375 I-1.173 J-2.597
N5425 X578.891 Y65.827 Z0.062 I1.173 J2.597
N5430 X576.544 Y60.632 Z-0.251 I-1.173 J-2.597
N5435 X578.891 Y65.827 Z-0.563 I1.173 J2.597
N5440 X576.544 Y60.632 Z-0.876 I-1.173 J-2.597
N5445 X578.891 Y65.827 Z-1.189 I1.173 J2.597
N5450 X576.544 Y60.632 Z-1.501 I-1.173 J-2.597
N5455 X578.891 Y65.827 Z-1.814 I1.173 J2.597
N5460 X576.544 Y60.632 Z-2.127 I-1.173 J-2.597
N5465 X578.891 Y65.827 Z-2.439 I1.173 J2.597
N5470 X580.167 Y64.686 Z-2.5 I-1.173 J-2.597
N5475 G3 X580.611 Y63.954 I44.612 J26.538 F1500.
N5480 G2 X580.549 Y63.438 I-0.354 J-0.219
N5485 G3 X577.515 Y59.213 I10.678 J-10.869
N5490 G1 X577.492 Y59.182
N5495 X577.461 Y59.159
N5500 X577.424 Y59.149
N5505 X577.386 Y59.151
N5510 X577.35 Y59.166
N5515 X577.322 Y59.191
N5520 X577.303 Y59.225
N5525 X577.297 Y59.263
N5530 Y71.309
N5535 X577.303 Y71.345
N5540 X577.322 Y71.376
N5545 X577.351 Y71.398
N5550 X577.385 Y71.409
N5555 X577.422 Y71.407
N5560 X577.455 Y71.392
N5565 X577.48 Y71.366
N5570 X577.495 Y71.333
N5575 G3 X578.97 Y66.948 I26.855 J6.59
N5580 X579.738 Y65.422 I14.473 J6.325
N5585 X580.167 Y64.686 I45.042 J25.803
N5590 G1 X580.206 Y64.603 Z-2.485 F500.
N5595 X580.232 Y64.514 Z-2.471
N5600 X580.243 Y64.431 Z-2.428
N5605 Y64.347 Z-2.385
N5610 X580.234 Y64.281 Z-2.319
N5615 X580.218 Y64.217 Z-2.253
N5620 X580.188 Y64.138 Z-2.085
N5625 X580.175 Y64.111 Z-1.9
N5630 G0 Z5.
N5635 X580.842 Y32.487
N5640 G1 Z1.6 F500.
N5645 X580.85 Y32.46 Z1.418 F333.33
N5650 X580.872 Y32.382 Z1.254
N5655 X580.901 Y32.258 Z1.122
N5660 X580.931 Y32.099 Z1.034
N5665 X580.954 Y31.92 Z1.
N5670 G2 X575.279 Y31.387 Z0.687 I-2.838 J-0.267
N5675 X580.954 Y31.92 Z0.375 I2.838 J0.267
N5680 X575.279 Y31.387 Z0.062 I-2.838 J-0.267
N5685 X580.954 Y31.92 Z-0.251 I2.838 J0.267
N5690 X575.279 Y31.387 Z-0.563 I-2.838 J-0.267
N5695 X580.954 Y31.92 Z-0.876 I2.838 J0.267
N5700 X575.279 Y31.387 Z-1.189 I-2.838 J-0.267
N5705 X580.954 Y31.92 Z-1.501 I2.838 J0.267
N5710 X575.279 Y31.387 Z-1.814 I-2.838 J-0.267
N5715 X580.954 Y31.92 Z-2.127 I2.837 J0.267
N5720 X575.279 Y31.387 Z-2.439 I-2.837 J-0.267
N5725 X575.637 Y33.06 Z-2.5 I2.837 J0.267
N5730 G3 X576.779 Y35.563 I-13.577 J7.704 F1500.
N5735 G2 X577.044 Y35.575 I0.135 J-0.048
N5740 G3 X580.395 Y30.857 I14.183 J6.523
N5745 G2 X580.295 Y30.611 I-0.099 J-0.103
N5750 G1 X574.255
N5755 G2 X574.133 Y30.868 I0. J0.157
N5760 G3 X575.637 Y33.06 I-12.073 J9.896
N5765 G1 X575.689 Y33.137 Z-2.485 F500.
N5770 X575.752 Y33.205 Z-2.471
N5775 X575.817 Y33.257 Z-2.428
N5780 X575.889 Y33.3 Z-2.385
N5785 X575.95 Y33.326 Z-2.319
N5790 X576.013 Y33.346 Z-2.253
N5795 X576.097 Y33.361 Z-2.085
N5800 X576.127 Y33.363 Z-1.9
N5805 G0 Z5.
N5810 X630.027 Y29.216
N5815 G1 Z1.6 F500.
N5820 X630.024 Y29.188 Z1.418 F333.33
N5825 X630.015 Y29.107 Z1.254
N5830 X629.996 Y28.981 Z1.122
N5835 X629.963 Y28.823 Z1.034
N5840 X629.917 Y28.649 Z1.
N5845 G2 X624.46 Y30.296 Z0.687 I-2.728 J0.824
N5850 X629.917 Y28.649 Z0.375 I2.728 J-0.824
N5855 X624.46 Y30.296 Z0.062 I-2.728 J0.824
N5860 X629.917 Y28.649 Z-0.251 I2.728 J-0.824
N5865 X624.46 Y30.296 Z-0.563 I-2.728 J0.824
N5870 X629.917 Y28.649 Z-0.876 I2.728 J-0.824
N5875 X624.46 Y30.296 Z-1.189 I-2.728 J0.824
N5880 X629.917 Y28.649 Z-1.501 I2.728 J-0.824
N5885 X624.46 Y30.296 Z-1.814 I-2.728 J0.824
N5890 X629.917 Y28.649 Z-2.127 I2.728 J-0.824
N5895 X624.46 Y30.296 Z-2.439 I-2.728 J0.824
N5900 X625.423 Y31.71 Z-2.5 I2.728 J-0.824
N5905 G1 X625.489 Y31.762 F1500.
N5910 G3 X625.805 Y32.029 I-4.331 J5.439
N5915 G2 X626.118 Y32.299 I6.978 J-7.765
N5920 X626.537 Y32.246 I0.185 J-0.223
N5925 G3 X628.724 Y29.83 I11.836 J8.518
N5930 G2 X628.63 Y29.583 I-0.094 J-0.106
N5935 G1 X622.636
N5940 X622.597 Y29.589
N5945 X622.561 Y29.608
N5950 X622.533 Y29.637
N5955 X622.517 Y29.674
N5960 X622.512 Y29.714
N5965 X622.521 Y29.753
N5970 X622.542 Y29.788
N5975 X622.573 Y29.814
N5980 G3 X624.064 Y30.739 I-25.767 J43.195
N5985 X625.423 Y31.71 I-9.531 J14.78
N5990 G1 X625.5 Y31.761 Z-2.485 F500.
N5995 X625.584 Y31.8 Z-2.471
N6000 X625.664 Y31.824 Z-2.428
N6005 X625.747 Y31.837 Z-2.385
N6010 X625.813 Y31.838 Z-2.319
N6015 X625.88 Y31.832 Z-2.253
N6020 X625.963 Y31.814 Z-2.085
N6025 X625.991 Y31.805 Z-1.9
N6030 G0 Z5.
N6035 X636.094 Y53.919
N6040 G1 Z1.6 F500.
N6045 X636.113 Y53.899 Z1.418 F333.33
N6050 X636.167 Y53.837 Z1.254
N6055 X636.248 Y53.739 Z1.122
N6060 X636.343 Y53.609 Z1.034
N6065 X636.442 Y53.458 Z1.
N6070 G2 X631.564 Y50.509 Z0.687 I-2.439 J-1.474
N6075 X636.442 Y53.458 Z0.375 I2.439 J1.474
N6080 X631.564 Y50.509 Z0.062 I-2.439 J-1.474
N6085 X636.442 Y53.458 Z-0.251 I2.439 J1.474
N6090 X631.564 Y50.509 Z-0.563 I-2.439 J-1.474
N6095 X636.442 Y53.458 Z-0.876 I2.439 J1.474
N6100 X631.564 Y50.509 Z-1.189 I-2.439 J-1.474
N6105 X636.442 Y53.458 Z-1.501 I2.439 J1.474
N6110 X631.564 Y50.509 Z-1.814 I-2.439 J-1.474
N6115 X636.442 Y53.458 Z-2.127 I2.439 J1.474
N6120 X631.564 Y50.509 Z-2.439 I-2.439 J-1.474
N6125 X631.159 Y52.171 Z-2.5 I2.439 J1.474
N6130 G3 X631.074 Y57.131 I-29.763 J1.969 F1500.
N6135 X629.119 Y63.944 I-19.805 J-1.996
N6140 X628.207 Y65.609 I-20.03 J-9.885
N6145 X627.168 Y67.196 I-22.283 J-13.461
N6150 G2 X627.304 Y67.458 I0.136 J0.096
N6155 G1 X630.116
N6160 G3 X632.91 Y67.852 I0. J10.111
N6165 G2 X633.199 Y67.634 I0.063 J-0.218
N6170 G1 Y51.945
N6175 G2 X632.863 Y51.325 I-0.739 J0.
N6180 G3 X631.162 Y49.935 I5.51 J-8.478
N6185 G1 X631.13 Y49.911
N6190 X631.091 Y49.898
N6195 X631.051
N6200 X631.012 Y49.91
N6205 X630.979 Y49.933
N6210 X630.955 Y49.965
N6215 X630.942 Y50.003
N6220 X630.941 Y50.044
N6225 G3 X631.159 Y52.171 I-29.545 J4.097
N6230 G1 X631.171 Y52.263 Z-2.485 F500.
N6235 X631.197 Y52.352 Z-2.471
N6240 X631.232 Y52.428 Z-2.428
N6245 X631.277 Y52.498 Z-2.385
N6250 X631.319 Y52.549 Z-2.319
N6255 X631.367 Y52.595 Z-2.253
N6260 X631.435 Y52.646 Z-2.085
N6265 X631.461 Y52.661 Z-1.9
N6270 G0 Z5.
N6275 X608.23 Y83.047
N6280 G1 Z1.6 F500.
N6285 X608.257 Y83.051 Z1.418 F333.33
N6290 X608.338 Y83.061 Z1.254
N6295 X608.465 Y83.072 Z1.122
N6300 X608.627 Y83.078 Z1.034
N6305 X608.807 Y83.074 Z1.
N6310 G2 X608.493 Y77.383 Z0.687 I-0.157 J-2.846
N6315 X608.807 Y83.074 Z0.375 I0.157 J2.846
N6320 X608.493 Y77.383 Z0.062 I-0.157 J-2.846
N6325 X608.807 Y83.074 Z-0.251 I0.157 J2.846
N6330 X608.493 Y77.383 Z-0.563 I-0.157 J-2.846
N6335 X608.807 Y83.074 Z-0.876 I0.157 J2.846
N6340 X608.493 Y77.383 Z-1.189 I-0.157 J-2.846
N6345 X608.807 Y83.074 Z-1.501 I0.157 J2.846
N6350 X608.493 Y77.383 Z-1.814 I-0.157 J-2.846
N6355 X608.807 Y83.074 Z-2.127 I0.157 J2.846
N6360 X608.493 Y77.383 Z-2.439 I-0.157 J-2.846
N6365 X606.892 Y77.985 Z-2.5 I0.157 J2.846
N6370 X606.265 Y78.51 I7.757 J9.895 F1500.
N6375 X605.799 Y79.304 I1.006 J1.125
N6380 X605.709 Y79.853 I4.592 J1.032
N6385 X605.692 Y80.409 I3.841 J0.396
N6390 X606.173 Y81.035 I0.686 J-0.028
N6395 X606.972 Y81.152 I0.765 J-2.44
N6400 X607.78 Y81.133 I-0.552 J-41.047
N6405 G3 X608.131 Y81.125 I0.669 J20.167
N6410 G2 X608.482 Y81.099 I-0.049 J-3.104
N6415 X609.414 Y80.458 I-0.159 J-1.229
N6420 X609.938 Y79.146 I-5.495 J-2.958
N6425 G3 X610.316 Y77.786 I159.689 J43.673
N6430 X610.808 Y76.582 I5.603 J1.584
N6435 X611.518 Y75.492 I7.284 J3.973
N6440 G1 X611.536 Y75.458
N6445 X611.541 Y75.421
N6450 X611.534 Y75.383
N6455 X611.515 Y75.35
N6460 X611.486 Y75.325
N6465 X611.451 Y75.311
N6470 X611.413 Y75.309
N6475 X611.376 Y75.32
N6480 G2 X609.112 Y76.515 I26.443 J52.856
N6485 X606.973 Y77.922 I8.325 J14.982
N6490 G1 X606.892 Y77.985
N6495 X606.824 Y78.048 Z-2.485 F500.
N6500 X606.766 Y78.121 Z-2.471
N6505 X606.725 Y78.193 Z-2.428
N6510 X606.693 Y78.271 Z-2.385
N6515 X606.676 Y78.335 Z-2.319
N6520 X606.667 Y78.4 Z-2.253
N6525 X606.665 Y78.486 Z-2.085
N6530 X606.667 Y78.515 Z-1.9
N6535 G0 Z5.
N6540 X667.583 Y58.163
N6545 G1 Z1.6 F500.
N6550 X667.563 Y58.143 Z1.418 F333.33
N6555 X667.506 Y58.085 Z1.254
N6560 X667.412 Y57.998 Z1.122
N6565 X667.289 Y57.894 Z1.034
N6570 X667.144 Y57.786 Z1.
N6575 G2 X663.887 Y62.464 Z0.687 I-1.628 J2.339
N6580 X667.144 Y57.786 Z0.375 I1.628 J-2.339
N6585 X663.887 Y62.464 Z0.062 I-1.628 J2.339
N6590 X667.144 Y57.786 Z-0.251 I1.628 J-2.339
N6595 X663.887 Y62.464 Z-0.563 I-1.628 J2.339
N6600 X667.144 Y57.786 Z-0.876 I1.628 J-2.339
N6605 X663.887 Y62.464 Z-1.189 I-1.628 J2.339
N6610 X667.144 Y57.786 Z-1.501 I1.628 J-2.339
N6615 X663.887 Y62.464 Z-1.814 I-1.628 J2.339
N6620 X667.144 Y57.786 Z-2.127 I1.628 J-2.339
N6625 X663.887 Y62.464 Z-2.439 I-1.628 J2.339
N6630 X665.52 Y62.975 Z-2.5 I1.628 J-2.339
N6635 X666.678 Y62.97 I-0.352 J-216.045 F1500.
N6640 G3 X668.186 Y63.03 I0.112 J16.098
N6645 G1 X668.223 Y63.027
N6650 X668.257 Y63.011
N6655 X668.282 Y62.984
N6660 X668.297 Y62.949
N6665 X668.298 Y62.912
N6670 X668.286 Y62.877
N6675 X668.263 Y62.848
N6680 X668.231 Y62.83
N6685 G3 X665.12 Y61.27 I4.94 J-13.732
N6690 G2 X664.849 Y61.415 I-0.096 J0.146
N6695 G1 Y62.656
N6700 G2 X665.168 Y62.975 I0.319 J0.
N6705 X665.514 I0. J-216.045
N6710 G1 X665.518
N6715 X665.52
N6720 X665.706 Z-2.471 F500.
N6725 X665.873 Y62.974 Z-2.385
N6730 X666.006 Z-2.253
N6735 X666.091 Y62.973 Z-2.085
N6740 X666.12 Z-1.9
N6745 G0 Z5.
N6750 X696.817 Y90.994
N6755 G1 Z1.6 F500.
N6760 X696.837 Y90.975 Z1.418 F333.33
N6765 X696.895 Y90.917 Z1.254
N6770 X696.982 Y90.824 Z1.122
N6775 X697.086 Y90.701 Z1.034
N6780 X697.194 Y90.556 Z1.
N6785 G2 X692.522 Y87.292 Z0.687 I-2.336 J-1.632
N6790 X697.194 Y90.556 Z0.375 I2.336 J1.632
N6795 X692.522 Y87.292 Z0.062 I-2.336 J-1.632
N6800 X697.194 Y90.556 Z-0.251 I2.336 J1.632
N6805 X692.522 Y87.292 Z-0.563 I-2.336 J-1.632
N6810 X697.194 Y90.556 Z-0.876 I2.336 J1.632
N6815 X692.522 Y87.292 Z-1.189 I-2.336 J-1.632
N6820 X697.194 Y90.556 Z-1.501 I2.336 J1.632
N6825 X692.522 Y87.292 Z-1.814 I-2.336 J-1.632
N6830 X697.194 Y90.556 Z-2.127 I2.336 J1.632
N6835 X692.522 Y87.292 Z-2.439 I-2.336 J-1.632
N6840 X692.008 Y88.924 Z-2.5 I2.336 J1.632
N6845 G1 Y89.594 F1500.
N6850 G2 X692.327 Y89.913 I0.319 J0.
N6855 G1 X694.932
N6860 G2 X695.038 Y89.659 I0. J-0.15
N6865 G3 X692.25 Y86.472 I25.997 J-25.556
N6870 G2 X692.008 Y86.554 I-0.107 J0.083
N6875 G1 Y88.924
N6880 G3 X691.139 Y90.326 I-1.565 J0.
N6885 G2 X691.515 Y91.931 I0.376 J0.759
N6890 G1 X700.409
N6895 X700.449 Y91.925
N6900 X700.485 Y91.907
N6905 X700.514 Y91.878
N6910 X700.532 Y91.842
N6915 X700.539 Y91.802
N6920 X700.532 Y91.761
N6925 X700.514 Y91.725
N6930 X700.485 Y91.697
N6935 G3 X694.586 Y86.158 I18.992 J-26.142
N6940 X690.208 Y79.353 I25.429 J-21.169
N6945 G1 X690.185 Y79.322
N6950 X690.154 Y79.299
N6955 X690.117 Y79.289
N6960 X690.079 Y79.291
N6965 X690.043 Y79.306
N6970 X690.015 Y79.331
N6975 X689.996 Y79.365
N6980 X689.99 Y79.403
N6985 G2 X690.038 Y85.513 I381.81 J0.
N6990 G3 X689.974 Y91.623 I-114.752 J1.837
N6995 G2 X690.271 Y91.931 I0.297 J0.011
N7000 G1 X691.515
N7005 G3 X694.063 Y93.63 I0. J2.76
N7010 G2 X696.611 Y95.329 I2.548 J-1.062
N7015 G1 X703.656
N7020 G2 X704.312 Y94.974 I0. J-0.784
N7025 G3 X706.564 Y91.798 I43.467 J28.448
N7030 G2 X706.478 Y91.412 I-0.204 J-0.157
N7035 G3 X696.64 Y83.35 I13.776 J-26.842
N7040 X691.096 Y71.903 I22.723 J-18.072
N7045 X690.62 Y69.274 I25.518 J-5.981
N7050 X690.372 Y66.613 I37.289 J-4.808
N7055 G2 X690.079 Y66.448 I-0.199 J0.011
N7060 G3 X684.654 Y68.389 I-9.269 J-17.351
N7065 G2 X684.491 Y68.724 I0.046 J0.229
N7070 G3 X686.083 Y73.021 I-18.344 J9.235
N7075 X686.638 Y77.57 I-18.363 J4.549
N7080 G1 Y90.764
N7085 G3 X686.498 Y92.91 I-16.544 J0.
N7090 X686.125 Y95.027 I-24.127 J-3.156
N7095 G2 X686.367 Y95.329 I0.242 J0.054
N7100 G1 X696.611
N7105 X696.703 Y95.321 Z-2.485 F500.
N7110 X696.793 Y95.3 Z-2.471
N7115 X696.871 Y95.269 Z-2.428
N7120 X696.943 Y95.228 Z-2.385
N7125 X696.997 Y95.188 Z-2.319
N7130 X697.045 Y95.143 Z-2.253
N7135 X697.099 Y95.077 Z-2.085
N7140 X697.116 Y95.053 Z-1.9
N7145 G0 Z5.
N7150 X705.384 Y39.324
N7155 G1 Z1.6 F500.
N7160 X705.401 Y39.301 Z1.418 F333.33
N7165 X705.45 Y39.236 Z1.254
N7170 X705.521 Y39.13 Z1.122
N7175 X705.605 Y38.992 Z1.034
N7180 X705.69 Y38.833 Z1.
N7185 G2 X700.571 Y36.325 Z0.687 I-2.559 J-1.254
N7190 X705.69 Y38.833 Z0.375 I2.559 J1.254
N7195 X700.571 Y36.325 Z0.062 I-2.559 J-1.254
N7200 X705.69 Y38.833 Z-0.251 I2.559 J1.254
N7205 X700.571 Y36.325 Z-0.563 I-2.559 J-1.254
N7210 X705.69 Y38.833 Z-0.876 I2.559 J1.254
N7215 X700.571 Y36.325 Z-1.189 I-2.559 J-1.254
N7220 X705.69 Y38.833 Z-1.501 I2.559 J1.254
N7225 X700.571 Y36.325 Z-1.814 I-2.559 J-1.254
N7230 X705.69 Y38.833 Z-2.127 I2.559 J1.254
N7235 X700.571 Y36.325 Z-2.439 I-2.559 J-1.254
N7240 X700.314 Y38.017 Z-2.5 I2.559 J1.254
N7245 G3 X700.526 Y40.764 I-17.673 J2.747 F1500.
N7250 X700.504 Y41.535 I-13.238 J0.
N7255 G2 X700.482 Y42.307 I13.215 J0.771
N7260 X700.742 Y42.426 I0.158 J0.
N7265 G3 X706.478 Y38.588 I18.804 J21.893
N7270 G2 X706.564 Y38.202 I-0.118 J-0.229
N7275 G3 X704.312 Y35.026 I39.796 J-30.617
N7280 G2 X703.656 Y34.671 I-0.656 J0.43
N7285 G1 X699.826
N7290 G2 X699.608 Y34.966 I0. J0.228
N7295 G3 X700.284 Y37.831 I-20.939 J6.458
N7300 G1 X700.314 Y38.017
N7305 G3 X698.594 Y41.297 I-3.076 J0.478
N7310 G2 X696.625 Y44.435 I1.517 J3.138
N7315 G1 Y49.097
N7320 G3 X680.81 Y64.913 I-15.815 J0.
N7325 X678.738 Y64.891 I0. J-97.362
N7330 G2 X676.666 Y64.869 I-2.072 J97.34
N7335 X676.585 Y65.106 I0. J0.132
N7340 G3 X681.105 Y70.625 I-9.798 J12.637
N7345 X682.737 Y77.57 I-13.971 J6.945
N7350 G1 Y90.764
N7355 G3 X682.129 Y95.023 I-15.242 J0.
N7360 X680.396 Y98.96 I-15.735 J-4.579
N7365 G2 X680.547 Y99.229 I0.151 J0.092
N7370 G1 X705.854
N7375 G2 X706.459 Y98.885 I0. J-0.704
N7380 G3 X713.107 Y90.118 I42.611 J25.411
N7385 G2 X713.023 Y89.81 I-0.135 J-0.129
N7390 G3 X701.396 Y82.883 I7.133 J-25.194
N7395 X694.894 Y71.013 I18.116 J-17.64
N7400 X696.078 Y55.292 I25.524 J-5.982
N7405 X702.804 Y45.781 I23.673 J9.605
N7410 X713.023 Y40.19 I17.341 J19.561
N7415 G2 X713.107 Y39.882 I-0.051 J-0.179
N7420 G3 X706.459 Y31.115 I35.075 J-33.504
N7425 G2 X705.854 Y30.771 I-0.605 J0.361
N7430 G1 X693.345
N7435 G2 X693.219 Y31.03 I0. J0.16
N7440 G3 X695.739 Y35.611 I-12.734 J9.988
N7445 X696.625 Y40.764 I-14.536 J5.153
N7450 G1 Y44.435
N7455 G3 X694.839 Y47.191 I-3.02 J0.
N7460 G2 X692.964 Y49.888 I1.299 J2.904
N7465 G3 X680.81 Y61.277 I-12.154 J-0.791
N7470 G1 X673.171
N7475 G3 X667.059 Y59.606 I0. J-12.015
N7480 X662.618 Y55.087 I6.258 J-10.591
N7485 G1 X662.593 Y55.055
N7490 X662.559 Y55.034
N7495 X662.52 Y55.025
N7500 X662.48 Y55.029
N7505 X662.444 Y55.045
N7510 X662.415 Y55.072
N7515 X662.396 Y55.107
N7520 X662.389 Y55.147
N7525 Y65.165
N7530 G2 X662.701 Y65.458 I0.294 J0.
N7535 G3 X664.908 Y65.39 I2.207 J35.725
N7540 G1 X666.921
N7545 G3 X679.1 Y77.57 I0. J12.179
N7550 G1 Y90.764
N7555 G3 X669.276 Y102.668 I-12.124 J0.
N7560 G1 X669.242 Y102.681
N7565 X669.215 Y102.706
N7570 X669.199 Y102.739
N7575 X669.196 Y102.775
N7580 X669.206 Y102.811
N7585 X669.228 Y102.84
N7590 X669.259 Y102.859
N7595 X669.295 Y102.866
N7600 X707.989
N7605 G2 X708.57 Y102.521 I0. J-0.663
N7610 G3 X711.186 Y98.257 I44.937 J24.632
N7615 X721.705 Y87.303 I38.798 J26.73
N7620 G1 X721.733 Y87.274
N7625 X721.75 Y87.238
N7630 X721.755 Y87.197
N7635 X721.747 Y87.158
N7640 X721.727 Y87.123
N7645 X721.697 Y87.096
N7650 X721.66 Y87.079
N7655 X721.62 Y87.076
N7660 G3 X699.447 Y56.66 I-1.654 J-22.084
N7665 X721.62 Y42.924 I20.492 J8.315
N7670 G1 X721.66 Y42.921
N7675 X721.697 Y42.904
N7680 X721.727 Y42.877
N7685 X721.747 Y42.842
N7690 X721.755 Y42.803
N7695 X721.75 Y42.762
N7700 X721.733 Y42.726
N7705 X721.705 Y42.697
N7710 G3 X714.317 Y35.796 I27.317 J-36.652
N7715 X708.57 Y27.479 I35.709 J-30.815
N7720 G2 X707.989 Y27.134 I-0.582 J0.319
N7725 G1 X92.011
N7730 G2 X91.43 Y27.479 I0. J0.663
N7735 G3 X88.814 Y31.743 I-44.937 J-24.632
N7740 X78.295 Y42.697 I-38.798 J-26.73
N7745 G1 X78.267 Y42.726
N7750 X78.25 Y42.762
N7755 X78.245 Y42.803
N7760 X78.252 Y42.842
N7765 X78.273 Y42.877
N7770 X78.303 Y42.904
N7775 X78.34 Y42.921
N7780 X78.38 Y42.924
N7785 G3 X102.179 Y65.193 I1.654 J22.084
N7790 X78.38 Y87.076 I-22.044 J-0.091
N7795 G1 X78.34 Y87.079
N7800 X78.303 Y87.096
N7805 X78.273 Y87.123
N7810 X78.252 Y87.158
N7815 X78.245 Y87.197
N7820 X78.25 Y87.238
N7825 X78.267 Y87.274
N7830 X78.295 Y87.303
N7835 G3 X85.683 Y94.204 I-27.317 J36.652
N7840 X91.43 Y102.521 I-35.709 J30.815
N7845 G2 X92.011 Y102.866 I0.582 J-0.319
N7850 G1 X132.918
N7855 X132.954 Y102.859
N7860 X132.986 Y102.84
N7865 X133.009 Y102.811
N7870 X133.019 Y102.775
N7875 X133.017 Y102.738
N7880 X133.002 Y102.705
N7885 X132.975 Y102.679
N7890 X132.941 Y102.664
N7895 G3 X118.84 Y95.203 I7.087 J-30.447
N7900 X112.136 Y86.262 I20.632 J-22.453
N7905 X108.509 Y75.692 I39.101 J-19.328
N7910 X107.674 Y69.554 I45.305 J-9.286
N7915 X107.55 Y63.36 I64.197 J-4.379
N7920 X108.284 Y55.061 I69.542 J1.961
N7925 X110.427 Y47.009 I36.819 J5.491
N7930 X114.098 Y39.97 I34.185 J13.351
N7935 X119.507 Y34.16 I20.633 J13.787
N7940 X126.457 Y30.123 I18.43 J23.724
N7945 X134.246 Y28.144 I10.754 J26.004
N7950 X140.592 Y27.893 I5.067 J47.832
N7955 X146.929 Y28.307 I-2.185 J82.134
N7960 X151.182 Y28.916 I-5.806 J55.674
N7965 X155.386 Y29.796 I-15.071 J82.508
N7970 G1 X156.599 Y30.089
N7975 G3 X159.873 Y31.436 I-2.752 J11.341
N7980 X162.62 Y33.67 I-6.551 J10.865
N7985 G2 X163.104 Y33.715 I0.267 J-0.248
N7990 G3 X165.32 Y32.204 I22.642 J30.829
N7995 X167.681 Y30.93 I10.484 J16.6
N8000 X180.221 Y27.909 I14.12 J31.068
N8005 X193.006 Y29.622 I1.671 J36.081
N8010 X197.415 Y31.488 I-8.423 J26.048
N8015 X201.454 Y34.056 I-14.292 J26.934
N8020 G2 X201.877 Y33.985 I0.178 J-0.236
N8025 G3 X206.235 Y30.029 I10.226 J6.887
N8030 X211.941 Y28.585 I5.706 J10.545
N8035 G1 X227.458
N8040 G3 X231.62 Y29.342 I0. J11.818
N8045 X235.27 Y31.479 I-4.408 J11.715
N8050 G2 X235.77 I0.25 J-0.297
N8055 G3 X239.42 Y29.342 I8.058 J9.578
N8060 X243.582 Y28.585 I4.162 J11.061
N8065 G1 X253.727
N8070 G3 X257.949 Y29.364 I0. J11.828
N8075 X261.637 Y31.562 I-4.464 J11.681
N8080 G2 X262.223 Y31.629 I0.342 J-0.398
N8085 G3 X263.828 Y30.82 I27.988 J53.533
N8090 X265.471 Y30.092 I11.299 J23.273
N8095 X272.024 Y28.31 I10.867 J27.013
N8100 X278.802 Y27.905 I5.651 J37.709
N8105 X286.576 Y28.95 I-1.118 J37.769
N8110 X293.875 Y31.82 I-6.752 J27.889
N8115 X295.368 Y32.729 I-12.1 J21.543
N8120 X296.812 Y33.714 I-29.845 J45.306
N8125 G2 X297.257 Y33.64 I0.185 J-0.262
N8130 G3 X301.561 Y29.932 I9.993 J7.246
N8135 X307.08 Y28.585 I5.519 J10.629
N8140 G1 X320.513
N8145 G3 X326.41 Y30.133 I0. J12.003
N8150 X330.814 Y34.35 I-6.051 J10.727
N8155 G2 X331.143 I0.165 J-0.103
N8160 G3 X335.547 Y30.133 I10.454 J6.51
N8165 X341.444 Y28.585 I5.897 J10.454
N8170 G1 X345.811
N8175 G3 X349.935 Y29.256 I0. J13.007
N8180 G2 X350.574 I0.319 J-0.956
N8185 G3 X352.47 Y28.765 I4.486 J13.42
N8190 X354.421 Y28.585 I1.951 J10.478
N8195 G1 X370.057
N8200 G3 X373.356 Y29.063 I0. J11.607
N8205 X376.4 Y30.42 I-3.627 J12.236
N8210 G2 X377.039 I0.319 J-0.52
N8215 G3 X380.083 Y29.063 I6.672 J10.879
N8220 X383.382 Y28.585 I3.299 J11.129
N8225 G1 X400.255
N8230 G3 X403.911 Y29.17 I0. J11.712
N8235 X407.221 Y30.828 I-3.945 J12.007
N8240 G2 X407.796 I0.287 J-0.41
N8245 G3 X411.106 Y29.17 I7.256 J10.348
N8250 X414.762 Y28.585 I3.656 J11.126
N8255 G1 X431.581
N8260 G3 X436.559 Y29.673 I0. J11.928
N8265 X440.654 Y32.707 I-5.173 J11.264
N8270 G2 X441.062 I0.204 J-0.181
N8275 G3 X445.157 Y29.673 I9.268 J8.23
N8280 X450.135 Y28.585 I4.978 J10.839
N8285 G1 X465.652
N8290 G3 X470.904 Y29.8 I0. J11.954
N8295 X475.114 Y33.166 I-5.433 J11.11
N8300 G2 X475.574 Y33.234 I0.266 J-0.214
N8305 G3 X484.365 Y29.125 I16.609 J24.076
N8310 X493.991 Y27.892 I9.09 J32.772
N8315 X501.671 Y28.749 I-0.64 J40.553
N8320 X508.949 Y31.346 I-5.839 J27.86
N8325 X510.907 Y32.465 I-12.888 J24.822
N8330 X512.784 Y33.714 I-21.698 J34.643
N8335 G2 X513.229 Y33.64 I0.185 J-0.262
N8340 G3 X517.533 Y29.932 I9.993 J7.246
N8345 X523.052 Y28.585 I5.519 J10.629
N8350 G1 X536.485
N8355 G3 X542.382 Y30.133 I0. J12.003
N8360 X546.786 Y34.35 I-6.051 J10.727
N8365 G2 X547.115 I0.165 J-0.103
N8370 G3 X551.519 Y30.133 I10.454 J6.51
N8375 X557.416 Y28.585 I5.897 J10.454
N8380 G1 X562.06
N8385 G3 X574.239 Y40.764 I0. J12.179
N8390 G1 X574.194 Y78.942
N8395 G2 X574.542 Y79.733 I1.072 J0.
N8400 G3 X577.475 Y83.788 I-8.379 J9.147
N8405 X578.525 Y88.681 I-10.868 J4.893
N8410 G1 Y90.764
N8415 G3 X568.701 Y102.668 I-12.124 J0.
N8420 G1 X568.667 Y102.681
N8425 X568.64 Y102.706
N8430 X568.624 Y102.739
N8435 X568.621 Y102.775
N8440 X568.631 Y102.811
N8445 X568.653 Y102.84
N8450 X568.684 Y102.859
N8455 X568.72 Y102.866
N8460 X599.907
N8465 X599.943 Y102.859
N8470 X599.975 Y102.84
N8475 X599.998 Y102.81
N8480 X600.008 Y102.775
N8485 X600.006 Y102.738
N8490 X599.99 Y102.705
N8495 X599.964 Y102.679
N8500 X599.93 Y102.664
N8505 G3 X591.635 Y99.41 I6.86 J-29.685
N8510 X584.932 Y93.54 I11.228 J-19.583
N8515 X579.776 Y76.804 I20.064 J-15.344
N8520 X580.889 Y70.6 I25.454 J1.365
N8525 X583.62 Y64.92 I20.581 J6.399
N8530 X584.304 Y63.984 I13.295 J8.997
N8535 G1 X584.868 Y63.268
N8540 G2 X584.797 Y62.86 I-0.218 J-0.172
N8545 G3 X580.592 Y58.458 I6.526 J-10.445
N8550 X579.048 Y52.569 I10.458 J-5.889
N8555 G1 Y42.099
N8560 G3 X588.17 Y30.309 I12.179 J0.
N8565 X596.994 Y28.499 I22.026 J84.936
N8570 X605.983 Y27.911 I7.912 J51.992
N8575 X612.672 Y28.646 I-0.776 J37.86
N8580 X619.08 Y30.701 I-5.941 J29.546
N8585 X622.787 Y32.806 I-9.276 J20.65
N8590 X626.073 Y35.521 I-15.305 J21.863
N8595 X626.432 Y35.911 I-3.387 J3.489
N8600 G2 X626.782 Y36.309 I7.032 J-5.817
N8605 X627.11 Y36.248 I0.145 J-0.135
N8610 G3 X631.568 Y30.69 I11.385 J4.565
N8615 X638.373 Y28.585 I6.805 J9.943
N8620 G1 X655.192
N8625 G3 X659.969 Y29.585 I0. J11.906
N8630 X663.968 Y32.383 I-4.983 J11.376
N8635 G2 X664.395 I0.214 J-0.204
N8640 G3 X668.394 Y29.585 I8.982 J8.577
N8645 X673.171 Y28.585 I4.777 J10.905
N8650 G1 X680.81
N8655 G3 X692.989 Y40.764 I0. J12.179
N8660 G1 Y49.097
N8665 G3 X692.964 Y49.888 I-12.179 J0.
N8670 X691.737 Y51.4 I-1.68 J-0.109
N8675 G2 X690.3 Y52.713 I0.583 J2.082
N8680 G3 X680.81 Y59.252 I-9.49 J-3.615
N8685 G1 X673.171
N8690 G3 X663.071 Y49.568 I0. J-10.109
N8695 G2 X662.822 Y49.482 I-0.142 J0.007
N8700 G3 X660.702 Y51.325 I-7.63 J-6.634
N8705 G2 X660.366 Y51.945 I0.403 J0.62
N8710 G1 Y67.634
N8715 G2 X660.655 Y67.852 I0.227 J0.
N8720 G3 X663.762 Y67.414 I3.107 J10.806
N8725 G1 X666.921
N8730 G3 X677.076 Y77.57 I0. J10.155
N8735 G1 Y90.764
N8740 G3 X666.921 Y100.919 I-10.155 J0.
N8745 G1 X626.644
N8750 G3 X624.574 Y100.683 I0. J-9.206
N8755 X622.596 Y100.029 I2.534 J-10.982
N8760 G2 X621.555 Y99.94 I-0.652 J1.491
N8765 G3 X617.153 Y100.885 I-17.775 J-72.098
N8770 X612.685 Y101.448 I-7.285 J-39.794
N8775 X606.935 Y101.568 I-4.091 J-58.584
N8780 X601.219 Y100.925 I0.973 J-34.415
N8785 X593.376 Y98.044 I5.206 J-26.288
N8790 X586.904 Y92.759 I11.604 J-20.814
N8795 X582.875 Y85.417 I15.39 J-13.221
N8800 X581.789 Y77.114 I24.568 J-7.439
N8805 X582.729 Y71.548 I21.174 J0.714
N8810 X585.066 Y66.411 I21.429 J6.65
N8815 X586.535 Y64.376 I14.814 J9.147
N8820 X588.216 Y62.511 I26.578 J22.27
N8825 G2 X588.137 Y62.197 I-0.137 J-0.133
N8830 G3 X583.036 Y58.535 I3.125 J-9.738
N8835 X581.072 Y52.569 I8.077 J-5.965
N8840 G1 Y42.099
N8845 G3 X588.678 Y32.269 I10.155 J0.
N8850 X597.23 Y30.509 I21.577 J83.206
N8855 X605.942 Y29.935 I7.675 J50.065
N8860 X615.974 Y31.673 I-0.693 J33.818
N8865 X624.671 Y36.965 I-7.266 J21.734
N8870 X626.51 Y39.075 I-11.74 J12.091
N8875 X628.037 Y41.42 I-19.831 J14.578
N8880 G1 X628.062 Y41.451
N8885 X628.095 Y41.472
N8890 X628.133 Y41.481
N8895 X628.173 Y41.477
N8900 X628.208 Y41.461
N8905 X628.237 Y41.434
N8910 X628.256 Y41.399
N8915 X628.262 Y41.361
N8920 G2 X628.253 Y41.062 I-4.778 J0.
N8925 G3 X628.243 Y40.764 I4.769 J-0.298
N8930 X638.373 Y30.609 I10.155 J0.
N8935 G1 X655.192
N8940 G3 X660.325 Y32.027 I0. J9.997
N8945 X664.03 Y35.852 I-5.274 J8.816
N8950 G2 X664.333 I0.152 J-0.084
N8955 G3 X668.038 Y32.027 I8.979 J4.991
N8960 X673.171 Y30.609 I5.133 J8.579
N8965 G1 X680.81
N8970 G3 X690.965 Y40.764 I0. J10.155
N8975 G1 Y49.097
N8980 G3 X690.3 Y52.713 I-10.155 J0.
N8985 X688. Y54.179 I-2.136 J-0.814
N8990 G2 X685.39 Y54.973 I-0.272 J3.793
N8995 G3 X680.81 Y56.547 I-4.58 J-5.876
N9000 G1 X673.171
N9005 G3 X665.721 Y49.097 I0. J-7.45
N9010 G1 Y40.764
N9015 G3 X673.171 Y33.314 I7.45 J0.
N9020 G1 X680.81
N9025 G3 X688.26 Y40.764 I0. J7.45
N9030 G1 Y49.097
N9035 G3 X685.39 Y54.973 I-7.45 J0.
N9040 X681.098 Y54.469 I-1.891 J-2.426
N9045 G2 X677.202 Y52.597 I-3.896 J3.118
N9050 G1 X673.171
N9055 G3 X669.671 Y49.097 I0. J-3.5
N9060 G1 Y40.764
N9065 G3 X673.171 Y37.264 I3.5 J0.
N9070 G1 X680.81
N9075 G3 X684.31 Y40.764 I0. J3.5
N9080 G1 Y49.097
N9085 G3 X680.81 Y52.597 I-3.5 J0.
N9090 G1 X677.202
N9095 X677.146 Y52.603
N9100 X677.092 Y52.618
N9105 X677.042 Y52.644
N9110 X676.997 Y52.678
N9115 X675.888 Y53.718
N9120 G3 X675.595 Y53.785 I-0.205 J-0.219
N9125 G1 X660.092 Y49.032
N9130 X660.041 Y49.009
N9135 X659.997 Y48.974
N9140 X659.355 Y48.316
N9145 G2 X659.067 Y48.289 I-0.16 J0.156
N9150 G3 X657.267 Y49.192 I-3.911 J-5.553
N9155 G2 X656.934 Y49.645 I0.15 J0.459
N9160 G1 X656.93 Y75.365
N9165 X656.937 Y75.401
N9170 X656.955 Y75.433
N9175 X656.984 Y75.457
N9180 X657.019 Y75.469
N9185 X657.056
N9190 X657.09 Y75.456
N9195 X657.118 Y75.432
N9200 X657.136 Y75.399
N9205 G3 X659.564 Y72.114 I6.426 J2.209
N9210 X663.449 Y70.85 I3.885 J5.338
N9215 G1 X666.921
N9220 G3 X673.64 Y77.57 I0. J6.719
N9225 G1 Y90.764
N9230 G3 X666.921 Y97.483 I-6.719 J0.
N9235 G1 X626.644
N9240 G3 X624.725 Y97.18 I0. J-6.231
N9245 X622.974 Y96.34 I2.23 J-6.889
N9250 G2 X622.232 Y96.226 I-0.495 J0.752
N9255 G3 X609.277 Y98.16 I-13.827 J-48.284
N9260 X603.351 Y97.821 I-0.834 J-37.439
N9265 X597.622 Y96.269 I3.158 J-23.011
N9270 X592.65 Y93.502 I9.468 J-22.863
N9275 X588.676 Y89.431 I9.566 J-13.312
N9280 X585.223 Y76.946 I16.555 J-11.298
N9285 X590.44 Y65.09 I18.585 J1.102
N9290 X594.269 Y61.831 I18.89 J18.311
N9295 X598.538 Y59.176 I27.07 J38.766
N9300 X602.104 Y57.329 I38.243 J69.476
N9305 G2 X605.57 Y55.3 I-11.409 J-23.466
N9310 X606.469 Y54.644 I-13.417 J-19.335
N9315 X607.191 Y53.797 I-1.619 J-2.113
N9320 X607.419 Y52.945 I-1.667 J-0.901
N9325 X607.421 Y52.063 I-18.778 J-0.489
N9330 X607.391 Y51.417 I-12.422 J0.26
N9335 X607.252 Y50.785 I-2.251 J0.165
N9340 X606.809 Y50.425 I-0.532 J0.201
N9345 G1 X606.255 Y50.336
N9350 G2 X604.71 Y50.236 I-1.304 J8.175
N9355 X603.176 Y50.448 I0.209 J7.182
N9360 X602.11 Y51.352 I0.384 J1.534
N9365 X601.618 Y52.66 I12.665 J5.502
N9370 X601.461 Y53.207 I9.542 J3.041
N9375 X601.324 Y53.758 I38.685 J9.952
N9380 G1 X601.234 Y54.134
N9385 G3 X594.699 Y59.289 I-6.535 J-1.564
N9390 G1 X591.227
N9395 G3 X584.508 Y52.569 I0. J-6.719
N9400 G1 Y42.099
N9405 G3 X589.54 Y35.594 I6.719 J0.
N9410 X597.63 Y33.922 I20.828 J80.318
N9415 X605.872 Y33.37 I7.272 J46.805
N9420 X614.65 Y34.843 I-0.627 J30.621
N9425 X622.278 Y39.43 I-6.014 J18.637
N9430 X625.913 Y44.588 I-11.875 J12.231
N9435 X627.602 Y50.669 I-18.364 J8.374
N9440 X627.759 Y55.169 I-28.367 J3.243
N9445 X627.083 Y59.62 I-21.098 J-0.929
N9450 X625.084 Y64.189 I-15.644 J-4.122
N9455 X622.001 Y68.109 I-21.22 J-13.515
N9460 X618.915 Y70.737 I-14.672 J-14.104
N9465 X615.5 Y72.92 I-31.261 J-45.145
N9470 G1 X615.472 Y72.944
N9475 X615.454 Y72.976
N9480 X615.448 Y73.013
N9485 X615.455 Y73.049
N9490 X615.474 Y73.081
N9495 X615.503 Y73.104
N9500 X615.538 Y73.116
N9505 X615.575 Y73.115
N9510 G3 X617.981 Y72.91 I2.066 J10.039
N9515 G2 X620.394 Y72.95 I2.413 J-72.935
N9520 G3 X620.871 Y72.982 I0. J3.58
N9525 G1 X621.284 Y73.037
N9530 G2 X621.963 Y72.811 I0.109 J-0.807
N9535 G3 X624.111 Y71.37 I4.897 J4.978
N9540 X626.644 Y70.85 I2.533 J5.915
N9545 G1 X630.116
N9550 G3 X634.001 Y72.114 I0. J6.602
N9555 X636.429 Y75.399 I-3.998 J5.494
N9560 G1 X636.447 Y75.432
N9565 X636.475 Y75.456
N9570 X636.509 Y75.469
N9575 X636.546
N9580 X636.581 Y75.457
N9585 X636.61 Y75.433
N9590 X636.628 Y75.401
N9595 X636.635 Y75.365
N9600 X636.632 Y49.648
N9605 G2 X636.297 Y49.192 I-0.486 J0.005
N9610 G3 X632.947 Y46.772 I2.112 J-6.456
N9615 X631.654 Y42.847 I5.312 J-3.925
N9620 G1 Y40.764
N9625 G3 X638.373 Y34.045 I6.719 J0.
N9630 G1 X655.192
N9635 G3 X661.911 Y40.764 I0. J6.719
N9640 G1 Y42.847
N9645 G3 X660.618 Y46.773 I-6.605 J0.
N9650 X659.067 Y48.289 I-5.462 J-4.037
N9655 X656.459 Y47.669 I-1.03 J-1.463
N9660 G2 X653.831 Y48.202 I-1.234 J0.659
N9665 G1 X653.814 Y48.389
N9670 X653.798 Y48.608
N9675 X653.784 Y48.828
N9680 X653.773 Y49.041
N9685 X653.766 Y49.261
N9690 X653.761 Y49.487
N9695 X653.758 Y49.727
N9700 X653.756 Y49.979
N9705 X653.755 Y50.232
N9710 Y83.792
N9715 X655.024
N9720 X655.328 Y83.789
N9725 X655.611 Y83.783
N9730 X655.86 Y83.773
N9735 X656.09 Y83.757
N9740 X656.314 Y83.734
N9745 X656.516 Y83.706
N9750 X656.664 Y83.679
N9755 X656.759 Y83.655
N9760 X656.831 Y83.632
N9765 X656.901 Y83.603
N9770 X656.979 Y83.563
N9775 X657.064 Y83.513
N9780 X657.153 Y83.451
N9785 X657.249 Y83.374
N9790 X657.351 Y83.283
N9795 X657.453 Y83.181
N9800 X657.558 Y83.064
N9805 X657.674 Y82.92
N9810 X657.799 Y82.753
N9815 X657.913 Y82.588
N9820 X658.016 Y82.426
N9825 X658.117 Y82.25
N9830 X658.228 Y82.039
N9835 X658.347 Y81.802
N9840 X658.463 Y81.558
N9845 X658.579 Y81.302
N9850 X658.689 Y81.047
N9855 X658.793 Y80.795
N9860 X658.894 Y80.537
N9865 X658.99 Y80.276
N9870 X659.083 Y80.012
N9875 X659.178 Y79.728
N9880 X659.274 Y79.431
N9885 X659.37 Y79.129
N9890 X659.464 Y78.826
N9895 X659.554 Y78.527
N9900 X659.643 Y78.228
N9905 X659.727 Y77.933
N9910 X659.81 Y77.632
N9915 X659.895 Y77.316
N9920 X659.98 Y76.999
N9925 X660.064 Y76.681
N9930 G3 X663.449 Y74.07 I3.385 J0.889
N9935 G1 X666.921
N9940 G3 X670.421 Y77.57 I0. J3.5
N9945 G1 Y90.764
N9950 G3 X666.921 Y94.264 I-3.5 J0.
N9955 G1 X626.644
N9960 G3 X623.292 Y91.771 I0. J-3.5
N9965 X621.246 Y93.204 I-2.898 J-1.962
N9970 G1 X620.784 Y93.32
N9975 X620.321 Y93.436
N9980 X620.309 Y93.439
N9985 X619.847 Y93.553
N9990 X619.833 Y93.556
N9995 X619.371 Y93.668
N10000 X619.35 Y93.673
N10005 X618.887 Y93.782
N10010 X618.86 Y93.788
N10015 X618.396 Y93.894
N10020 X618.364 Y93.901
N10025 X617.899 Y94.002
N10030 X617.86 Y94.01
N10035 X617.394 Y94.106
N10040 X617.351 Y94.115
N10045 X616.884 Y94.205
N10050 X616.84 Y94.213
N10055 X616.372 Y94.297
N10060 X616.328 Y94.304
N10065 X615.859 Y94.382
N10070 X615.816 Y94.389
N10075 X615.345 Y94.462
N10080 X615.305 Y94.468
N10085 X614.835 Y94.534
N10090 X614.793 Y94.54
N10095 X614.321 Y94.601
N10100 X614.279 Y94.606
N10105 X613.806 Y94.661
N10110 X613.766 Y94.666
N10115 X613.292 Y94.716
N10120 X613.251 Y94.72
N10125 X612.777 Y94.764
N10130 X612.737 Y94.768
N10135 X612.263 Y94.806
N10140 X612.222 Y94.809
N10145 X611.748 Y94.842
N10150 X611.707 Y94.845
N10155 X611.232 Y94.873
N10160 X611.191 Y94.875
N10165 X610.716 Y94.897
N10170 X610.681 Y94.898
N10175 X610.205 Y94.916
N10180 X610.177
N10185 X609.702 Y94.93
N10190 X609.681 Y94.931
N10195 X609.205 Y94.941
N10200 X609.19
N10205 X608.715 Y94.95
N10210 X608.233 Y94.958
N10215 X608.074 Y94.957
N10220 X607.447 Y94.939
N10225 X607.42 Y94.938
N10230 X606.793 Y94.915
N10235 X606.739 Y94.912
N10240 X606.113 Y94.879
N10245 X606.032 Y94.874
N10250 X605.407 Y94.827
N10255 X605.307 Y94.818
N10260 X604.684 Y94.753
N10265 X604.581 Y94.741
N10270 X603.959 Y94.657
N10275 X603.854 Y94.641
N10280 X603.235 Y94.538
N10285 X603.127 Y94.519
N10290 X602.512 Y94.397
N10295 X602.404 Y94.374
N10300 X601.793 Y94.233
N10305 X601.684 Y94.206
N10310 X601.078 Y94.045
N10315 X600.969 Y94.014
N10320 X600.368 Y93.834
N10325 X600.257 Y93.798
N10330 X599.663 Y93.598
N10335 X599.552 Y93.559
N10340 X598.965 Y93.339
N10345 X598.854 Y93.295
N10350 X598.274 Y93.055
N10355 X598.16 Y93.005
N10360 X597.589 Y92.745
N10365 X597.466 Y92.686
N10370 X596.906 Y92.403
N10375 X596.773 Y92.333
N10380 X596.226 Y92.027
N10385 X596.089 Y91.946
N10390 X595.556 Y91.615
N10395 X595.413 Y91.521
N10400 X594.897 Y91.165
N10405 X594.762 Y91.067
N10410 X594.263 Y90.686
N10415 X594.127 Y90.576
N10420 X593.648 Y90.172
N10425 X593.516 Y90.054
N10430 X593.058 Y89.625
N10435 X592.924 Y89.492
N10440 X592.49 Y89.04
N10445 X592.361 Y88.898
N10450 X591.952 Y88.422
N10455 X591.827 Y88.267
N10460 X591.446 Y87.769
N10465 X591.335 Y87.616
N10470 X590.981 Y87.097
N10475 X590.875 Y86.932
N10480 X590.551 Y86.394
N10485 X590.456 Y86.227
N10490 X590.162 Y85.673
N10495 X590.079 Y85.506
N10500 X589.815 Y84.937
N10505 X589.741 Y84.764
N10510 X589.508 Y84.182
N10515 X589.445 Y84.014
N10520 X589.242 Y83.421
N10525 X589.194 Y83.269
N10530 X589.018 Y82.666
N10535 X588.975 Y82.505
N10540 X588.828 Y81.895
N10545 X588.792 Y81.728
N10550 X588.675 Y81.112
N10555 X588.646 Y80.934
N10560 X588.561 Y80.313
N10565 X588.542 Y80.14
N10570 X588.488 Y79.515
N10575 X588.48 Y79.392
N10580 X588.448 Y78.766
N10585 X588.445 Y78.71
N10590 X588.423 Y78.083
N10595 X588.421 Y77.962
N10600 X588.423 Y77.842
N10605 X588.44 Y77.338
N10610 X588.443 Y77.268
N10615 X588.47 Y76.765
N10620 X588.48 Y76.633
N10625 X588.526 Y76.131
N10630 X588.545 Y75.965
N10635 X588.615 Y75.465
N10640 X588.644 Y75.292
N10645 X588.739 Y74.797
N10650 X588.771 Y74.644
N10655 X588.888 Y74.153
N10660 X588.925 Y74.013
N10665 X589.062 Y73.528
N10670 X589.108 Y73.376
N10675 X589.267 Y72.897
N10680 X589.322 Y72.745
N10685 X589.503 Y72.274
N10690 X589.563 Y72.128
N10695 X589.765 Y71.665
N10700 X589.836 Y71.512
N10705 X590.06 Y71.06
N10710 X590.14 Y70.909
N10715 X590.386 Y70.468
N10720 X590.464 Y70.336
N10725 X590.729 Y69.907
N10730 X590.808 Y69.784
N10735 X591.091 Y69.366
N10740 X591.162 Y69.265
N10745 X591.459 Y68.858
N10750 X591.538 Y68.755
N10755 X591.849 Y68.359
N10760 X591.932 Y68.257
N10765 X592.26 Y67.873
N10770 X592.335 Y67.787
N10775 X592.674 Y67.413
N10780 X592.752 Y67.33
N10785 X593.103 Y66.968
N10790 X593.179 Y66.892
N10795 X593.541 Y66.541
N10800 X593.615 Y66.471
N10805 X593.987 Y66.131
N10810 X594.058 Y66.068
N10815 X594.439 Y65.738
N10820 X594.51 Y65.678
N10825 X594.9 Y65.357
N10830 X594.964 Y65.306
N10835 X595.361 Y64.995
N10840 X595.43 Y64.943
N10845 X595.835 Y64.642
N10850 X595.897 Y64.597
N10855 X596.308 Y64.305
N10860 X596.369 Y64.263
N10865 X596.786 Y63.98
N10870 X596.841 Y63.942
N10875 X597.264 Y63.667
N10880 X597.304 Y63.641
N10885 X597.73 Y63.372
N10890 X597.769 Y63.348
N10895 X598.199 Y63.084
N10900 X598.23 Y63.066
N10905 X598.662 Y62.806
N10910 X598.7 Y62.784
N10915 X599.136 Y62.53
N10920 X599.169 Y62.511
N10925 X599.607 Y62.262
N10930 X599.648 Y62.239
N10935 X600.09 Y61.996
N10940 X600.122 Y61.978
N10945 X600.566 Y61.74
N10950 X600.592 Y61.726
N10955 X601.038 Y61.492
N10960 X601.057 Y61.481
N10965 X601.505 Y61.249
N10970 X601.96 Y61.015
N10975 X601.996 Y60.996
N10980 X602.394 Y60.797
N10985 X602.786 Y60.6
N10990 X603.171 Y60.405
N10995 X603.55 Y60.21
N11000 X603.92 Y60.016
N11005 X604.286 Y59.82
N11010 X604.65 Y59.621
N11015 X605.013 Y59.418
N11020 X605.376 Y59.21
N11025 X605.734 Y59.002
N11030 X606.086 Y58.792
N11035 X606.432 Y58.581
N11040 X606.766 Y58.371
N11045 X607.09 Y58.158
N11050 X607.406 Y57.945
N11055 X607.703 Y57.733
N11060 X607.989 Y57.519
N11065 X608.263 Y57.302
N11070 X608.523 Y57.084
N11075 X608.769 Y56.863
N11080 X609.003 Y56.639
N11085 X609.222 Y56.412
N11090 X609.426 Y56.184
N11095 X609.606 Y55.965
N11100 X609.762 Y55.754
N11105 X609.9 Y55.544
N11110 X610.024 Y55.329
N11115 X610.134 Y55.113
N11120 X610.228 Y54.893
N11125 X610.312 Y54.664
N11130 X610.385 Y54.419
N11135 X610.454 Y54.133
N11140 X610.518 Y53.823
N11145 X610.568 Y53.522
N11150 X610.602 Y53.238
N11155 X610.623 Y52.94
N11160 X610.636 Y52.583
N11165 X610.643 Y52.226
N11170 X610.64 Y51.996
N11175 X610.633 Y51.736
N11180 X610.623 Y51.505
N11185 X610.607 Y51.291
N11190 X610.587 Y51.084
N11195 X610.56 Y50.877
N11200 X610.527 Y50.672
N11205 X610.487 Y50.463
N11210 X610.442 Y50.255
N11215 X610.393 Y50.06
N11220 X610.342 Y49.88
N11225 X610.291 Y49.721
N11230 X610.239 Y49.582
N11235 X610.169 Y49.42
N11240 X610.082 Y49.234
N11245 X609.996 Y49.063
N11250 X609.922 Y48.929
N11255 X609.857 Y48.824
N11260 X609.787 Y48.725
N11265 X609.696 Y48.608
N11270 X609.588 Y48.481
N11275 X609.476 Y48.36
N11280 X609.363 Y48.248
N11285 X609.256 Y48.15
N11290 X609.155 Y48.067
N11295 X609.052 Y47.992
N11300 X608.93 Y47.911
N11305 X608.782 Y47.822
N11310 X608.62 Y47.732
N11315 X608.455 Y47.649
N11320 X608.292 Y47.573
N11325 X608.128 Y47.505
N11330 X607.964 Y47.444
N11335 X607.795 Y47.388
N11340 X607.614 Y47.336
N11345 X607.415 Y47.286
N11350 X607.204 Y47.238
N11355 X606.985 Y47.195
N11360 X606.763 Y47.157
N11365 X606.54 Y47.124
N11370 X606.319 Y47.097
N11375 X606.104 Y47.077
N11380 X605.889 Y47.062
N11385 X605.654 Y47.052
N11390 X605.389 Y47.046
N11395 X605.152 Y47.042
N11400 X604.823 Y47.048
N11405 X604.462 Y47.058
N11410 X604.132 Y47.072
N11415 X603.825 Y47.093
N11420 X603.53 Y47.122
N11425 X603.24 Y47.159
N11430 X602.951 Y47.206
N11435 X602.668 Y47.261
N11440 X602.395 Y47.324
N11445 X602.133 Y47.395
N11450 X601.888 Y47.472
N11455 X601.666 Y47.552
N11460 X601.471 Y47.634
N11465 X601.287 Y47.724
N11470 X601.096 Y47.832
N11475 X600.899 Y47.956
N11480 X600.711 Y48.087
N11485 X600.537 Y48.223
N11490 X600.371 Y48.367
N11495 X600.212 Y48.52
N11500 X600.059 Y48.683
N11505 X599.909 Y48.861
N11510 X599.764 Y49.05
N11515 X599.632 Y49.241
N11520 X599.503 Y49.448
N11525 X599.374 Y49.677
N11530 X599.249 Y49.92
N11535 X599.125 Y50.181
N11540 X599.002 Y50.464
N11545 X598.88 Y50.763
N11550 X598.761 Y51.075
N11555 X598.651 Y51.382
N11560 X598.551 Y51.683
N11565 X598.457 Y51.99
N11570 X598.37 Y52.301
N11575 X598.284 Y52.635
N11580 X598.195 Y53.
N11585 X598.103 Y53.384
N11590 G3 X594.699 Y56.069 I-3.404 J-0.815
N11595 G1 X591.227
N11600 G3 X587.727 Y52.569 I0. J-3.5
N11605 G1 Y42.099
N11610 G3 X590.348 Y38.711 I3.5 J0.
N11615 G1 X590.788 Y38.597
N11620 X591.231 Y38.482
N11625 X591.244 Y38.479
N11630 X591.684 Y38.367
N11635 X591.703 Y38.362
N11640 X592.144 Y38.253
N11645 X592.165 Y38.248
N11650 X592.606 Y38.141
N11655 X592.632 Y38.135
N11660 X593.075 Y38.031
N11665 X593.1 Y38.026
N11670 X593.543 Y37.926
N11675 X593.565 Y37.921
N11680 X594.008 Y37.824
N11685 X594.036 Y37.818
N11690 X594.481 Y37.724
N11695 X594.505 Y37.719
N11700 X594.95 Y37.629
N11705 X594.975 Y37.624
N11710 X595.42 Y37.537
N11715 X595.449 Y37.531
N11720 X595.896 Y37.448
N11725 X595.925 Y37.442
N11730 X596.372 Y37.363
N11735 X596.397 Y37.358
N11740 X596.844 Y37.282
N11745 X596.869 Y37.278
N11750 X597.317 Y37.205
N11755 X597.338 Y37.201
N11760 X597.787 Y37.131
N11765 X597.805 Y37.128
N11770 X598.254 Y37.06
N11775 X598.281 Y37.056
N11780 X598.731 Y36.991
N11785 X598.765 Y36.987
N11790 X599.215 Y36.926
N11795 X599.259 Y36.921
N11800 X599.709 Y36.866
N11805 X599.759 Y36.861
N11810 X600.211 Y36.813
N11815 X600.251 Y36.809
N11820 X600.703 Y36.766
N11825 X600.736 Y36.763
N11830 X601.189 Y36.724
N11835 X601.211 Y36.722
N11840 X601.663 Y36.687
N11845 X601.692 Y36.685
N11850 X602.145 Y36.653
N11855 X602.186 Y36.65
N11860 X602.64 Y36.623
N11865 X602.69 Y36.621
N11870 X603.143 Y36.601
N11875 X603.195 Y36.599
N11880 X603.65 Y36.586
N11885 X603.687 Y36.585
N11890 X604.141 Y36.576
N11895 X604.159
N11900 X604.613 Y36.57
N11905 X604.708
N11910 X605.245 Y36.577
N11915 X605.269 Y36.578
N11920 X605.806 Y36.589
N11925 X605.853 Y36.59
N11930 X606.389 Y36.608
N11935 X606.458 Y36.611
N11940 X606.994 Y36.64
N11945 X607.071 Y36.645
N11950 X607.606 Y36.686
N11955 X607.68 Y36.692
N11960 X608.214 Y36.744
N11965 X608.284 Y36.752
N11970 X608.818 Y36.814
N11975 X608.89 Y36.824
N11980 X609.421 Y36.897
N11985 X609.489 Y36.907
N11990 X610.018 Y36.991
N11995 X610.084 Y37.002
N12000 X610.613 Y37.097
N12005 X610.686 Y37.11
N12010 X611.212 Y37.216
N12015 X611.29 Y37.232
N12020 X611.814 Y37.35
N12025 X611.901 Y37.37
N12030 X612.422 Y37.501
N12035 X612.522 Y37.528
N12040 X613.039 Y37.674
N12045 X613.154 Y37.708
N12050 X613.665 Y37.872
N12055 X613.793 Y37.916
N12060 X614.297 Y38.099
N12065 X614.419 Y38.146
N12070 X614.917 Y38.348
N12075 X615.034 Y38.398
N12080 X615.524 Y38.618
N12085 X615.633 Y38.669
N12090 X616.115 Y38.906
N12095 X616.236 Y38.968
N12100 X616.708 Y39.223
N12105 X616.837 Y39.297
N12110 X617.298 Y39.572
N12115 X617.433 Y39.657
N12120 X617.881 Y39.953
N12125 X618.008 Y40.04
N12130 X618.443 Y40.356
N12135 X618.568 Y40.451
N12140 X618.988 Y40.786
N12145 X619.114 Y40.89
N12150 X619.518 Y41.244
N12155 X619.65 Y41.366
N12160 X620.035 Y41.74
N12165 X620.16 Y41.867
N12170 X620.526 Y42.261
N12175 X620.645 Y42.396
N12180 X620.99 Y42.807
N12185 X621.094 Y42.937
N12190 X621.419 Y43.364
N12195 X621.509 Y43.489
N12200 X621.815 Y43.931
N12205 X621.901 Y44.06
N12210 X622.187 Y44.514
N12215 X622.262 Y44.639
N12220 X622.529 Y45.106
N12225 X622.606 Y45.248
N12230 X622.851 Y45.725
N12235 X622.921 Y45.87
N12240 X623.144 Y46.358
N12245 X623.213 Y46.52
N12250 X623.411 Y47.019
N12255 X623.462 Y47.157
N12260 X623.639 Y47.664
N12265 X623.68 Y47.788
N12270 X623.838 Y48.302
N12275 X623.875 Y48.431
N12280 X624.013 Y48.95
N12285 X624.045 Y49.081
N12290 X624.163 Y49.604
N12295 X624.19 Y49.735
N12300 X624.288 Y50.262
N12305 X624.309 Y50.386
N12310 X624.388 Y50.918
N12315 X624.403 Y51.035
N12320 X624.464 Y51.568
N12325 X624.476 Y51.686
N12330 X624.519 Y52.221
N12335 X624.525 Y52.318
N12340 X624.553 Y52.854
N12345 X624.556 Y52.926
N12350 X624.573 Y53.463
N12355 X624.574 Y53.489
N12360 X624.587 Y54.026
N12365 X624.586 Y54.212
N12370 X624.57 Y54.761
N12375 X624.568 Y54.819
N12380 X624.543 Y55.367
N12385 X624.536 Y55.482
N12390 X624.493 Y56.029
N12395 X624.477 Y56.188
N12400 X624.409 Y56.733
N12405 X624.384 Y56.898
N12410 X624.29 Y57.439
N12415 X624.262 Y57.585
N12420 X624.145 Y58.122
N12425 X624.109 Y58.268
N12430 X623.97 Y58.8
N12435 X623.927 Y58.948
N12440 X623.764 Y59.472
N12445 X623.703 Y59.65
N12450 X623.512 Y60.165
N12455 X623.441 Y60.343
N12460 X623.222 Y60.846
N12465 X623.151 Y60.999
N12470 X622.908 Y61.492
N12475 X622.835 Y61.63
N12480 X622.57 Y62.112
N12485 X622.499 Y62.235
N12490 X622.215 Y62.704
N12495 X622.138 Y62.826
N12500 X621.835 Y63.284
N12505 X621.756 Y63.399
N12510 X621.435 Y63.844
N12515 X621.353 Y63.952
N12520 X621.015 Y64.385
N12525 X620.935 Y64.483
N12530 X620.581 Y64.903
N12535 X620.507 Y64.989
N12540 X620.14 Y65.397
N12545 X620.06 Y65.483
N12550 X619.68 Y65.878
N12555 X619.583 Y65.976
N12560 X619.187 Y66.356
N12565 X619.095 Y66.442
N12570 X618.686 Y66.808
N12575 X618.598 Y66.884
N12580 X618.177 Y67.236
N12585 X618.099 Y67.299
N12590 X617.668 Y67.639
N12595 X617.604 Y67.689
N12600 X617.166 Y68.018
N12605 X617.106 Y68.063
N12610 X616.66 Y68.383
N12615 X616.618 Y68.413
N12620 X616.168 Y68.727
N12625 X616.131 Y68.752
N12630 X615.677 Y69.06
N12635 X615.633 Y69.09
N12640 X615.174 Y69.391
N12645 X615.13 Y69.42
N12650 X614.667 Y69.714
N12655 X614.613 Y69.747
N12660 X614.144 Y70.033
N12665 X614.096 Y70.062
N12670 X613.623 Y70.34
N12675 X613.583 Y70.363
N12680 X613.108 Y70.635
N12685 X613.07 Y70.656
N12690 X612.59 Y70.922
N12695 X612.565 Y70.937
N12700 X612.083 Y71.199
N12705 X612.062 Y71.21
N12710 X611.578 Y71.469
N12715 X611.563 Y71.477
N12720 X611.078 Y71.733
N12725 X611.068 Y71.739
N12730 X610.582 Y71.994
N12735 X610.091 Y72.251
N12740 X610.035 Y72.279
N12745 X609.669 Y72.463
N12750 X609.313 Y72.642
N12755 X608.964 Y72.82
N12760 X608.623 Y72.996
N12765 X608.293 Y73.171
N12770 X607.965 Y73.351
N12775 X607.635 Y73.536
N12780 X607.301 Y73.726
N12785 X606.965 Y73.921
N12790 X606.633 Y74.118
N12795 X606.313 Y74.31
N12800 X606.01 Y74.499
N12805 X605.723 Y74.684
N12810 X605.45 Y74.87
N12815 X605.181 Y75.061
N12820 X604.92 Y75.258
N12825 X604.669 Y75.456
N12830 X604.434 Y75.653
N12835 X604.215 Y75.848
N12840 X604.01 Y76.046
N12845 X603.806 Y76.257
N12850 X603.604 Y76.48
N12855 X603.418 Y76.698
N12860 X603.266 Y76.893
N12865 X603.139 Y77.074
N12870 X603.027 Y77.255
N12875 X602.922 Y77.448
N12880 X602.824 Y77.656
N12885 X602.734 Y77.872
N12890 X602.655 Y78.095
N12895 X602.586 Y78.325
N12900 X602.526 Y78.568
N12905 X602.475 Y78.821
N12910 X602.436 Y79.072
N12915 X602.407 Y79.334
N12920 X602.387 Y79.622
N12925 X602.374 Y79.958
N12930 X602.367 Y80.256
N12935 X602.373 Y80.481
N12940 X602.384 Y80.742
N12945 X602.398 Y80.945
N12950 X602.417 Y81.105
N12955 X602.448 Y81.279
N12960 X602.49 Y81.477
N12965 X602.543 Y81.683
N12970 X602.601 Y81.884
N12975 X602.658 Y82.053
N12980 X602.713 Y82.192
N12985 X602.77 Y82.315
N12990 X602.842 Y82.45
N12995 X602.926 Y82.591
N13000 X603.025 Y82.738
N13005 X603.133 Y82.886
N13010 X603.247 Y83.028
N13015 X603.367 Y83.164
N13020 X603.487 Y83.287
N13025 X603.604 Y83.397
N13030 X603.719 Y83.494
N13035 X603.842 Y83.587
N13040 X603.973 Y83.675
N13045 X604.113 Y83.76
N13050 X604.269 Y83.844
N13055 X604.44 Y83.926
N13060 X604.624 Y84.006
N13065 X604.823 Y84.083
N13070 X605.032 Y84.156
N13075 X605.246 Y84.224
N13080 X605.457 Y84.282
N13085 X605.663 Y84.332
N13090 X605.867 Y84.373
N13095 X606.072 Y84.406
N13100 X606.285 Y84.433
N13105 X606.508 Y84.453
N13110 X606.757 Y84.467
N13115 X607.044 Y84.478
N13120 X607.287 Y84.485
N13125 X607.566 Y84.481
N13130 X607.891 Y84.473
N13135 X608.184 Y84.461
N13140 X608.454 Y84.442
N13145 X608.72 Y84.416
N13150 X608.988 Y84.381
N13155 X609.258 Y84.338
N13160 X609.517 Y84.29
N13165 X609.755 Y84.237
N13170 X609.971 Y84.18
N13175 X610.168 Y84.119
N13180 X610.347 Y84.053
N13185 X610.51 Y83.983
N13190 X610.663 Y83.907
N13195 X610.807 Y83.824
N13200 X610.946 Y83.733
N13205 X611.079 Y83.634
N13210 X611.208 Y83.526
N13215 X611.341 Y83.4
N13220 X611.484 Y83.252
N13225 X611.626 Y83.09
N13230 X611.768 Y82.914
N13235 X611.905 Y82.728
N13240 X612.038 Y82.533
N13245 X612.17 Y82.323
N13250 X612.299 Y82.101
N13255 X612.422 Y81.872
N13260 X612.541 Y81.634
N13265 X612.655 Y81.387
N13270 X612.766 Y81.131
N13275 X612.871 Y80.867
N13280 X612.973 Y80.594
N13285 X613.071 Y80.314
N13290 X613.167 Y80.017
N13295 X613.263 Y79.709
N13300 X613.357 Y79.391
N13305 X613.453 Y79.053
N13310 X613.553 Y78.701
N13315 G3 X616.921 Y76.153 I3.368 J0.952
N13320 G1 X620.394
N13325 G3 X623.145 Y77.489 I0. J3.5
N13330 X626.644 Y74.07 I3.499 J0.081
N13335 G1 X630.116
N13340 G3 X633.51 Y76.713 I0. J3.5
N13345 G1 X633.584 Y77.009
N13350 X633.66 Y77.305
N13355 X633.734 Y77.595
N13360 X633.81 Y77.884
N13365 X633.886 Y78.173
N13370 X633.96 Y78.445
N13375 X634.036 Y78.717
N13380 X634.115 Y78.992
N13385 X634.193 Y79.256
N13390 X634.271 Y79.509
N13395 X634.354 Y79.765
N13400 X634.442 Y80.026
N13405 X634.53 Y80.28
N13410 X634.622 Y80.532
N13415 X634.714 Y80.778
N13420 X634.804 Y81.006
N13425 X634.9 Y81.237
N13430 X634.999 Y81.464
N13435 X635.096 Y81.674
N13440 X635.197 Y81.88
N13445 X635.305 Y82.087
N13450 X635.414 Y82.288
N13455 X635.531 Y82.49
N13460 X635.644 Y82.676
N13465 X635.743 Y82.828
N13470 X635.832 Y82.953
N13475 X635.924 Y83.069
N13480 X636.028 Y83.19
N13485 X636.12 Y83.288
N13490 X636.19 Y83.354
N13495 X636.251 Y83.405
N13500 X636.328 Y83.461
N13505 X636.42 Y83.519
N13510 X636.487 Y83.557
N13515 X636.532 Y83.578
N13520 X636.595 Y83.602
N13525 X636.683 Y83.629
N13530 X636.789 Y83.654
N13535 X636.925 Y83.679
N13540 X637.112 Y83.705
N13545 X637.348 Y83.732
N13550 X637.591 Y83.755
N13555 X637.815 Y83.772
N13560 X638.038 Y83.782
N13565 X638.29 Y83.788
N13570 X638.559 Y83.792
N13575 X639.81
N13580 Y50.226
N13585 Y49.973
N13590 X639.808 Y49.726
N13595 X639.806 Y49.493
N13600 X639.8 Y49.273
N13605 X639.791 Y49.047
N13610 X639.78 Y48.821
N13615 X639.767 Y48.594
N13620 X639.75 Y48.368
N13625 X639.733 Y48.156
N13630 X639.712 Y47.957
N13635 X639.689 Y47.765
N13640 X639.663 Y47.581
N13645 X639.634 Y47.41
N13650 X639.603 Y47.254
N13655 X639.57 Y47.113
N13660 X639.538 Y46.994
N13665 X639.507 Y46.897
N13670 X639.483 Y46.834
N13675 X639.429 Y46.807
N13680 X639.327 Y46.763
N13685 X639.192 Y46.71
N13690 X639.03 Y46.652
N13695 X638.856 Y46.595
N13700 X638.671 Y46.538
N13705 X638.472 Y46.482
N13710 X638.263 Y46.425
N13715 X638.039 Y46.368
N13720 X637.803 Y46.31
N13725 X637.552 Y46.25
N13730 G3 X634.873 Y42.847 I0.821 J-3.402
N13735 G1 Y40.764
N13740 G3 X638.373 Y37.264 I3.5 J0.
N13745 G1 X655.192
N13750 G3 X658.692 Y40.764 I0. J3.5
N13755 G1 Y42.847
N13760 G3 X656.018 Y46.248 I-3.5 J0.
N13765 G1 X655.764 Y46.31
N13770 X655.517 Y46.371
N13775 X655.274 Y46.432
N13780 X655.046 Y46.49
N13785 X654.842 Y46.545
N13790 X654.66 Y46.597
N13795 X654.495 Y46.649
N13800 X654.342 Y46.702
N13805 X654.216 Y46.751
N13810 X654.148 Y46.78
N13815 X654.123 Y46.793
N13820 X654.112 Y46.8
N13825 X654.097 Y46.833
N13830 X654.064 Y46.92
N13835 X654.028 Y47.03
N13840 X653.992 Y47.155
N13845 X653.961 Y47.283
N13850 X653.932 Y47.425
N13855 X653.906 Y47.582
N13860 X653.881 Y47.76
N13865 X653.856 Y47.965
N13870 X653.833 Y48.177
N13875 X653.831 Y48.202
N13880 X653.83 Y48.294 Z-2.485 F500.
N13885 X653.843 Y48.386 Z-2.471
N13890 X653.867 Y48.466 Z-2.428
N13895 X653.901 Y48.542 Z-2.385
N13900 X653.936 Y48.598 Z-2.319
N13905 X653.977 Y48.651 Z-2.253
N13910 X654.038 Y48.711 Z-2.085
N13915 X654.06 Y48.729 Z-1.9
N13920 G0 Z5.
N13925 X350.254 Y27.734
N13930 G1 Z3.5 F500.
N13935 Z-1.9 F333.33
N13940 Y27.727 Z-1.994
N13945 Y27.705 Z-2.085
N13950 Y27.669 Z-2.172
N13955 Y27.62 Z-2.253
N13960 Y27.559 Z-2.324
N13965 Y27.487 Z-2.385
N13970 Y27.407 Z-2.435
N13975 Y27.32 Z-2.471
N13980 Y27.228 Z-2.493
N13985 Y27.134 Z-2.5
N13990 G2 X349.054 I-0.6 J0. F1500.
N13995 X350.035 Y27.598 I0.6 J0.
N14000 G1 X350.635 Y27.105
N14005 G2 X350.254 Y26.042 I-0.381 J-0.464
N14010 G1 X253.727 Y26.051
N14015 X91.325 Y26.006
N14020 G2 X90.753 Y26.35 I0. J0.647
N14025 G3 X89.977 Y27.766 I-52.833 J-28.045
N14030 X89.155 Y29.156 I-37.21 J-21.059
N14035 X72.246 Y45.27 I-39.151 J-24.154
N14040 G1 X72.218 Y45.293
N14045 X72.201 Y45.325
N14050 X72.196 Y45.361
N14055 X72.205 Y45.396
N14060 X72.226 Y45.425
N14065 X72.257 Y45.445
N14070 X72.292 Y45.452
N14075 X72.328 Y45.445
N14080 G3 X76.094 Y44.34 I8.303 J21.328
N14085 X80. Y43.949 I3.906 J19.312
N14090 Y86.051 I0. J21.051
N14095 X76.094 Y85.66 I0. J-19.703
N14100 X72.328 Y84.555 I4.537 J-22.433
N14105 G1 X72.292 Y84.548
N14110 X72.257 Y84.555
N14115 X72.226 Y84.575
N14120 X72.205 Y84.604
N14125 X72.196 Y84.639
N14130 X72.201 Y84.675
N14135 X72.218 Y84.707
N14140 X72.246 Y84.73
N14145 G3 X82.89 Y92.831 I-21.976 J39.917
N14150 X87.217 Y97.953 I-32.9 J32.18
N14155 X89.089 Y100.737 I-37.241 J27.064
N14160 X89.946 Y102.18 I-36.421 J22.607
N14165 X90.753 Y103.65 I-51.442 J29.206
N14170 G2 X91.325 Y103.994 I0.571 J-0.303
N14175 G1 X708.675
N14180 G2 X709.247 Y103.65 I0. J-0.647
N14185 G3 X710.023 Y102.234 I52.833 J28.045
N14190 X710.845 Y100.844 I37.21 J21.059
N14195 X727.754 Y84.73 I39.151 J24.154
N14200 G1 X727.782 Y84.707
N14205 X727.799 Y84.675
N14210 X727.804 Y84.639
N14215 X727.795 Y84.604
N14220 X727.774 Y84.575
N14225 X727.743 Y84.555
N14230 X727.708 Y84.548
N14235 X727.672 Y84.555
N14240 G3 X723.906 Y85.66 I-8.303 J-21.328
N14245 X720. Y86.051 I-3.906 J-19.312
N14250 X700.493 Y57.084 I0. J-21.052
N14255 X727.672 Y45.445 I19.464 J7.897
N14260 G1 X727.708 Y45.452
N14265 X727.743 Y45.445
N14270 X727.774 Y45.425
N14275 X727.795 Y45.396
N14280 X727.804 Y45.361
N14285 X727.799 Y45.325
N14290 X727.782 Y45.293
N14295 X727.754 Y45.27
N14300 G3 X717.11 Y37.169 I21.976 J-39.917
N14305 X712.783 Y32.047 I32.9 J-32.18
N14310 X710.911 Y29.263 I37.241 J-27.064
N14315 X710.054 Y27.82 I36.421 J-22.607
N14320 X709.247 Y26.35 I51.442 J-29.206
N14325 G2 X708.675 Y26.006 I-0.571 J0.303
N14330 G1 X350.254 Y26.042
N14335 G3 X347.479 Y24.192 I0. J-3.006
N14340 G2 X344.704 Y22.342 I-2.775 J1.157
N14345 G1 X253.727 Y22.351
N14350 X88.979 Y22.307
N14355 G2 X88.451 Y22.647 I0. J0.58
N14360 G3 X67.647 Y43.451 I-38.173 J-17.369
N14365 G2 X67.307 Y43.979 I0.24 J0.528
N14370 G1 Y52.873
N14375 G2 X67.554 Y52.974 I0.144 J0.
N14380 G3 X73.238 Y49.051 I12.747 J12.389
N14385 X80. Y47.649 I6.762 J15.615
N14390 Y82.351 I0. J17.351
N14395 X73.238 Y80.949 I0. J-17.016
N14400 X67.554 Y77.026 I7.064 J-16.312
N14405 G2 X67.307 Y77.127 I-0.103 J0.101
N14410 G1 Y86.021
N14415 G2 X67.647 Y86.549 I0.58 J0.
N14420 G3 X88.451 Y107.353 I-17.369 J38.173
N14425 G2 X88.979 Y107.693 I0.528 J-0.24
N14430 G1 X711.021
N14435 G2 X711.549 Y107.353 I0. J-0.58
N14440 G3 X732.353 Y86.549 I38.173 J17.369
N14445 G2 X732.693 Y86.021 I-0.24 J-0.528
N14450 G1 Y77.127
N14455 G2 X732.446 Y77.026 I-0.144 J0.
N14460 G3 X726.762 Y80.949 I-12.747 J-12.389
N14465 X720. Y82.351 I-6.762 J-15.615
N14470 X703.922 Y58.475 I0. J-17.352
N14475 X732.446 Y52.974 I16.048 J6.512
N14480 G2 X732.693 Y52.873 I0.103 J-0.101
N14485 G1 Y43.979
N14490 G2 X732.353 Y43.451 I-0.58 J0.
N14495 G3 X711.549 Y22.647 I17.369 J-38.173
N14500 G2 X711.021 Y22.307 I-0.528 J0.24
N14505 G1 X344.704 Y22.342
N14510 X344.703
N14515 G3 X341.822 Y20.421 I0. J-3.121
N14520 G2 X338.94 Y18.5 I-2.882 J1.201
N14525 G1 X86.057
N14530 G3 X63.5 Y41.057 I-36.057 J-13.5
N14535 G1 Y88.943
N14540 G3 X86.057 Y111.5 I-13.5 J36.057
N14545 G1 X713.943
N14550 G3 X736.5 Y88.943 I36.057 J13.5
N14555 G1 Y41.057
N14560 G3 X713.943 Y18.5 I13.5 J-36.057
N14565 G1 X338.94
N14570 G2 X338.653 Y18.713 I0. J0.3
N14575 G1 X334.178 Y33.506
N14580 G2 X334.674 Y33.808 I0.287 J0.087
N14585 G3 X341.444 Y31.057 I6.77 J6.956
N14590 G2 X345.682 Y31.039 I0. J-478.173
N14595 G3 X349.84 Y31.859 I0.093 J10.469
N14600 G2 X350.669 I0.415 J-0.984
N14605 G3 X352.505 Y31.271 I4.238 J10.059
N14610 X354.421 Y31.057 I1.916 J8.492
N14615 G1 X370.057
N14620 G3 X373.501 Y31.712 I0. J9.38
N14625 X376.486 Y33.551 I-3.675 J9.311
N14630 G2 X376.953 I0.234 J-0.262
N14635 G3 X379.938 Y31.712 I6.66 J7.473
N14640 X383.382 Y31.057 I3.444 J8.725
N14645 G1 X400.255
N14650 G3 X404.099 Y31.875 I0. J9.445
N14655 X407.302 Y34.153 I-4.045 J9.077
N14660 G2 X407.715 I0.206 J-0.193
N14665 G3 X410.918 Y31.875 I7.247 J6.798
N14670 X414.762 Y31.057 I3.844 J8.627
N14675 G1 X431.581
N14680 G3 X437.22 Y32.891 I0. J9.59
N14685 X440.734 Y37.668 I-5.752 J7.911
N14690 G1 X440.753 Y37.704
N14695 X440.782 Y37.732
N14700 X440.818 Y37.75
N14705 X440.858 Y37.757
N14710 X440.898 Y37.75
N14715 X440.934 Y37.732
N14720 X440.963 Y37.704
N14725 X440.982 Y37.668
N14730 G3 X444.496 Y32.891 I9.265 J3.134
N14735 X450.135 Y31.057 I5.639 J7.757
N14740 G1 X465.652
N14745 G3 X470.931 Y32.645 I0. J9.572
N14750 X474.489 Y36.856 I-5.405 J8.175
N14755 G2 X474.834 Y36.932 I0.201 J-0.089
N14760 G3 X478.932 Y34.041 I15.704 J17.907
N14765 X483.503 Y31.975 I14.486 J25.96
N14770 X488.006 Y30.836 I8.394 J23.726
N14775 X492.63 Y30.387 I6.148 J39.296
N14780 X503.18 Y31.673 I1.282 J33.415
N14785 X512.593 Y36.606 I-7.344 J25.461
N14790 X513.121 Y37.072 I-5.848 J7.163
N14795 G2 X513.64 Y37.547 I12.386 J-13.012
N14800 X513.971 Y37.462 I0.137 J-0.155
N14805 G3 X517.502 Y32.828 I9.197 J3.344
N14810 X523.052 Y31.057 I5.55 J7.815
N14815 G1 X536.438
N14820 G3 X546.134 Y40.253 I0. J9.709
N14825 G1 X546.142 Y40.292
N14830 X546.163 Y40.327
N14835 X546.193 Y40.353
N14840 X546.23 Y40.369
N14845 X546.269 Y40.372
N14850 X546.309 Y40.363
N14855 X546.343 Y40.343
N14860 X546.369 Y40.312
N14865 G2 X547.751 Y38.008 I-139.718 J-85.364
N14870 G3 X549.133 Y35.703 I141.1 J83.059
N14875 X557.416 Y31.057 I8.283 J5.061
N14880 G1 X562.06
N14885 G3 X571.767 Y40.764 I0. J9.707
N14890 G1 X571.723 Y80.223
N14895 G2 X572.06 Y80.888 I0.825 J0.
N14900 G3 X574.987 Y84.307 I-5.836 J7.96
N14905 X576.053 Y88.681 I-8.44 J4.373
N14910 G1 Y90.764
N14915 G3 X566.346 Y100.471 I-9.707 J0.
N14920 G1 X553.098
N14925 G3 X547.626 Y98.754 I0. J-9.582
N14930 X544.084 Y94.244 I5.59 J-8.036
N14935 G2 X543.796 Y94.218 I-0.151 J0.058
N14940 X543.319 Y95.034 I17.254 J10.616
N14945 G3 X542.843 Y95.851 I-17.73 J-9.8
N14950 X534.576 Y100.471 I-8.267 J-5.087
N14955 G1 X523.052
N14960 G3 X517.755 Y98.872 I0. J-9.573
N14965 X514.198 Y94.634 I5.422 J-8.162
N14970 G2 X513.849 Y94.554 I-0.204 J0.089
N14975 G3 X501.514 Y100.519 I-17.496 J-20.439
N14980 X487.813 Y100.457 I-6.696 J-34.257
N14985 X481.009 Y98.053 I5.282 J-25.781
N14990 X475.073 Y93.95 I13.004 J-25.153
N14995 G2 X474.745 Y94.032 I-0.136 J0.152
N15000 G3 X471.217 Y98.69 I-9.208 J-3.31
N15005 X465.652 Y100.471 I-5.565 J-7.806
N15010 G1 X450.135
N15015 G3 X448.668 Y100.337 I0. J-8.109
N15020 X447.238 Y99.982 I2.176 J-11.829
N15025 G2 X446.207 I-0.516 J1.642
N15030 G3 X444.777 Y100.337 I-3.605 J-11.474
N15035 X443.31 Y100.471 I-1.467 J-7.975
N15040 G1 X403.033
N15045 G3 X393.326 Y90.764 I0. J-9.707
N15050 X393.348 Y89.398 I42.311 J0.
N15055 G2 X393.37 Y88.032 I-42.289 J-1.366
N15060 G1 X393.364 Y87.996
N15065 X393.345 Y87.964
N15070 X393.317 Y87.941
N15075 X393.282 Y87.929
N15080 X393.245 Y87.93
N15085 X393.211 Y87.944
N15090 X393.183 Y87.969
N15095 X393.166 Y88.002
N15100 G2 X392.234 Y91.143 I232.885 J70.856
N15105 G3 X391.301 Y94.284 I-233.818 J-67.715
N15110 X382.015 Y101.165 I-9.286 J-2.825
N15115 G1 X376.221
N15120 G3 X367.135 Y94.874 I0. J-9.707
N15125 G1 X355.961 Y65.019
N15130 X355.941 Y64.986
N15135 X355.912 Y64.963
N15140 X355.877 Y64.95
N15145 X355.84
N15150 X355.804 Y64.963
N15155 X355.776 Y64.987
N15160 X355.757 Y65.02
N15165 X355.751 Y65.057
N15170 Y80.223
N15175 G2 X356.088 Y80.888 I0.825 J0.
N15180 G3 X359.015 Y84.307 I-5.836 J7.96
N15185 X360.081 Y88.681 I-8.44 J4.373
N15190 G1 Y90.764
N15195 G3 X350.374 Y100.471 I-9.707 J0.
N15200 G1 X337.125
N15205 G3 X331.653 Y98.754 I0. J-9.582
N15210 X328.111 Y94.244 I5.59 J-8.036
N15215 G2 X327.823 Y94.218 I-0.151 J0.058
N15220 X327.346 Y95.034 I17.257 J10.619
N15225 G3 X326.87 Y95.851 I-17.734 J-9.803
N15230 X318.603 Y100.471 I-8.267 J-5.087
N15235 G1 X307.08
N15240 G3 X301.783 Y98.871 I0. J-9.573
N15245 X298.226 Y94.633 I5.422 J-8.162
N15250 G2 X297.877 Y94.553 I-0.204 J0.089
N15255 G3 X285.543 Y100.523 I-17.466 J-20.358
N15260 X271.841 Y100.457 I-6.687 J-34.307
N15265 X262.226 Y96.416 I5.38 J-26.259
N15270 X254.795 Y89.097 I15.931 J-23.604
N15275 G2 X254.469 Y89.114 I-0.158 J0.11
N15280 G3 X249.526 Y94.961 I-17.067 J-9.413
N15285 X242.802 Y98.623 I-13.851 J-17.433
N15290 X237.185 Y99.985 I-10.543 J-31.209
N15295 X231.425 Y100.458 I-6.34 J-41.915
N15300 G1 X230.737 Y100.467
N15305 G3 X230.224 Y100.471 I-0.513 J-37.53
N15310 G1 X211.941
N15315 G3 X206.436 Y98.732 I0. J-9.584
N15320 X202.898 Y94.169 I5.622 J-8.012
N15325 G2 X202.568 Y94.091 I-0.192 J0.072
N15330 G3 X190.493 Y100.35 I-17.566 J-19.109
N15335 X176.895 Y100.635 I-7.529 J-34.784
N15340 X169.856 Y98.364 I4.496 J-25.976
N15345 X163.655 Y94.333 I13.142 J-27.008
N15350 X163.28 Y93.985 I3.383 J-4.018
N15355 G2 X162.912 Y93.629 I-6.725 J6.568
N15360 X162.571 Y93.7 I-0.145 J0.158
N15365 G3 X160.014 Y97.175 I-9.052 J-3.982
N15370 X156.202 Y99.195 I-6.232 J-7.155
N15375 X146.298 Y100.981 I-16.184 J-61.373
N15380 X136.235 Y100.816 I-4.32 J-43.448
N15385 X125.76 Y97.226 I3.697 J-27.86
N15390 X117.4 Y89.965 I15.046 J-25.768
N15395 X112.588 Y81.163 I23.429 J-18.524
N15400 X110.326 Y71.391 I45.632 J-15.71
N15405 X110.005 Y66.964 I43.24 J-5.361
N15410 X110.049 Y62.526 I71.064 J-1.524
N15415 X110.54 Y56.684 I68.332 J2.804
N15420 X111.736 Y50.946 I36.952 J4.709
N15425 X114.255 Y44.483 I38.143 J11.145
N15430 X118.201 Y38.778 I21.357 J10.556
N15435 X135.654 Y30.488 I19.223 J17.953
N15440 X144.303 Y30.533 I4.018 J59.73
N15445 X152.866 Y31.758 I-5.178 J66.73
N15450 X154.469 Y32.119 I-11.53 J54.964
N15455 G1 X155.427 Y32.349
N15460 X156.016 Y32.492
N15465 G3 X159.613 Y34.235 I-2.229 J9.187
N15470 X162.201 Y37.282 I-6.119 J7.818
N15475 G2 X162.569 Y37.344 I0.209 J-0.115
N15480 G3 X164.425 Y35.775 I27.302 J30.398
N15485 X166.431 Y34.401 I10.527 J13.226
N15490 X180.029 Y30.418 I14.821 J25.39
N15495 X185.318 Y30.551 I1.595 J41.615
N15500 X190.53 Y31.456 I-2.828 J31.76
N15505 X202.381 Y38.046 I-6.841 J26.255
N15510 G2 X202.693 Y37.963 I0.131 J-0.138
N15515 G3 X206.176 Y32.982 I9.356 J2.834
N15520 X211.941 Y31.057 I5.765 J7.671
N15525 G1 X227.458
N15530 G3 X231.905 Y32.161 I0. J9.513
N15535 X235.347 Y35.185 I-4.611 J8.719
N15540 G2 X235.693 I0.173 J-0.122
N15545 G3 X239.135 Y32.161 I8.053 J5.695
N15550 X243.582 Y31.057 I4.447 J8.409
N15555 G1 X253.727
N15560 G3 X257.912 Y32.03 I0. J9.487
N15565 X261.265 Y34.719 I-4.364 J8.876
N15570 G2 X261.727 Y34.792 I0.271 J-0.217
N15575 G3 X269.829 Y31.315 I13.836 J21.063
N15580 X278.595 Y30.374 I8.199 J35.088
N15585 X292.384 Y33.824 I-0.492 J31.244
N15590 X295.139 Y35.526 I-10.034 J19.324
N15595 X297.668 Y37.547 I-20.508 J28.261
N15600 G2 X297.999 Y37.462 I0.137 J-0.156
N15605 G3 X301.53 Y32.828 I9.196 J3.344
N15610 X307.08 Y31.057 I5.55 J7.815
N15615 G1 X320.466
N15620 G3 X330.162 Y40.253 I0. J9.709
N15625 G1 X330.17 Y40.292
N15630 X330.191 Y40.326
N15635 X330.221 Y40.353
N15640 X330.258 Y40.369
N15645 X330.297 Y40.372
N15650 X330.337 Y40.363
N15655 X330.371 Y40.343
N15660 X330.397 Y40.312
N15665 G2 X331.779 Y38.008 I-139.718 J-85.364
N15670 G3 X333.161 Y35.703 I141.1 J83.059
N15675 X334.674 Y33.808 I8.283 J5.061
N15680 X338.061 Y33.421 I1.943 J1.997
N15685 G2 X341.35 Y34.314 I3.2 J-5.282
N15690 G1 X341.444
N15695 G2 X345.836 Y34.293 I0. J-473.767
N15700 G3 X349.999 Y35.69 I0.062 J6.717
N15705 G2 X350.51 I0.255 J-0.331
N15710 G3 X352.351 Y34.678 I4.179 J5.421
N15715 X354.421 Y34.314 I2.07 J5.696
N15720 G1 X370.057
N15725 G3 X376.507 Y40.764 I0. J6.45
N15730 G1 Y42.847
N15735 G3 X375.403 Y46.417 I-6.322 J0.
