%
(DRILL_TEST)
(T3  D=5. CR=0. TAPER=118DEG - ZMIN=-16. - DRILL)
N10 G90 G94 G17 G91.1
N15 G21
N20 G53 G0 Z0.
(DRILL2)
N25 M9
N30 T3 M6
N35 S12000 M3
N40 G54
N45 G0 X918.333 Y356.066
N50 G43 Z15. H3
N55 G0 Z5.
N60 G98 G81 X918.333 Y356.066 Z-16. R5. F150.
N65 X1000. Y250.
N70 X918.333 Y143.934
N75 X350. Y100.
N80 X375. Y125.
N85 X400. Y150.
N90 X425. Y175.
N95 X450. Y200.
N100 X475. Y225.
N105 X525.
N110 X550. Y200.
N115 X575. Y175.
N120 X600. Y150.
N125 X625. Y125.
N130 X650. Y100.
N135 X706.201 Y143.934
N140 X812.267 Y250.
N145 X706.201 Y356.066
N150 X650. Y400.
N155 X625. Y375.
N160 X600. Y350.
N165 X575. Y325.
N170 X550. Y300.
N175 X525. Y275.
N180 X500. Y250.
N185 X475. Y275.
N190 X450. Y300.
N195 X425. Y325.
N200 X400. Y350.
N205 X375. Y375.
N210 X350. Y400.
N215 X175.
N220 Y375.
N225 Y350.
N230 Y325.
N235 Y300.
N240 Y275.
N245 Y250.
N250 X150.
N255 X125.
N260 X100.
N265 X75.
N270 X50.
N275 X25.
N280 G80
N285 G0 Z15.
N290 G53 Z0.
N295 M30
%
