%
(1001)
(T3  D=5. CR=0. TAPER=118DEG - ZMIN=-16. - DRILL)
N10 G90 G94 G17 G91.1
N15 G21
N20 G53 G0 Z0.
(DRILL2)
N25 M9
N30 T3 M6
N35 S12000 M3
N40 G54
N45 G0 X58.076 Y929.776
N50 G43 Z15. H3
N55 G0 Z5.
N60 G98 G81 X58.076 Y929.776 Z-16. R5. F150.
N65 X150. Y837.852
N70 X125.958
N75 X58.076 Y745.928
N80 X25. Y625.
N85 X50. Y600.
N90 X75. Y575.
N95 X100. Y550.
N100 X125. Y525.
N105 X150. Y500.
N110 X125. Y475.
N115 X100. Y450.
N120 X75. Y425.
N125 X50. Y400.
N130 X25. Y375.
N135 X0. Y175.908
N140 X25. Y175.956
N145 X50. Y176.005
N150 X75. Y176.053
N155 X100. Y176.102
N160 X125. Y176.15
N165 X150. Y176.199
N170 X150.037 Y151.199
N175 X150.073 Y126.199
N180 X150.11 Y101.199
N185 X150.146 Y76.199
N190 X275. Y375.
N195 X250. Y400.
N200 X225. Y425.
N205 X200. Y450.
N210 X175. Y475.
N215 Y525.
N220 X200. Y550.
N225 X225. Y575.
N230 X250. Y600.
N235 X275. Y625.
N240 G80
N245 G0 Z15.
N250 G53 Z0.
N255 M30
%
