%
(DRILL_TEST)
(T3  D=5. CR=0. TAPER=118DEG - ZMIN=-15. - DRILL)
N10 G90 G94 G17 G91.1
N15 G21
N20 G53 G0 Z0.
(DRILL2)
N25 M9
N30 T3 M6
N35 S12000 M3
N40 G54
N45 G0 X592.057 Y72.386
N50 G43 Z15. H3
N55 G0 Z5.
N60 G98 G81 X592.057 Y72.386 Z-15. R5. F150.
N65 X437.172 Y71.988
N70 X448.172 Y226.482
N75 X175. Y275.
N80 Y250.
N85 Y225.
N90 Y200.
N95 Y175.
N100 Y150.
N105 X150.
N110 X125.
N115 X100.
N120 X75.
N125 X50.
N130 X25.
N135 G80
N140 G0 Z15.
N145 G53 Z0.
N150 M30
%
