%
(FINAL)
(T1  D=6. CR=0. - ZMIN=-22.5 - FLAT END MILL)
N10 G90 G94 G17 G91.1
N15 G21
N20 G53 G0 Z0.
(XXX)
N25 M9
N30 T1 M6
N35 S22000 M3
N40 G54
N45 G0 X34.438 Y970.657
N50 G43 Z15. H1
N55 G0 Z5.
N60 G1 Z2.5 F150.33
N65 Z-0.9
N70 G18 G3 X33.838 Z-1.5 I-0.6 K0.
N75 G1 X33.238 F300.
N80 G17 G2 X32.638 Y971.257 I0. J0.6
N85 G1 Y992.468 F650.
N90 G3 X28.138 Y996.968 I-4.5 J0.
N95 G1 X18.538
N100 Y1018.17
N105 X28.138
N110 G3 X32.638 Y1022.67 I0. J4.5
N115 G1 Y1045.07
N120 G3 X28.138 Y1049.57 I-4.5 J0.
N125 G1 X19.138
N130 G3 X14.638 Y1045.07 I0. J-4.5
N135 G1 Y1034.82
N140 X7.038
N145 G3 X-0.462 Y1027.32 I0. J-7.5
N150 G1 Y987.818
N155 G3 X7.038 Y980.318 I7.5 J0.
N160 G1 X14.638
N165 Y970.068
N170 G3 X19.138 Y965.568 I4.5 J0.
N175 G1 X28.138
N180 G3 X32.638 Y970.068 I0. J4.5
N185 G1 Y971.257
N190 G3 X31.888 Y972.382 I-1.219 J0.
N195 G2 X31.138 Y973.507 I0.469 J1.125
N200 G1 Y992.468
N205 G3 X28.138 Y995.468 I-3. J0.
N210 G1 X17.038
N215 Y1019.67
N220 X28.138
N225 G3 X31.138 Y1022.67 I0. J3.
N230 G1 Y1045.07
N235 G3 X28.138 Y1048.07 I-3. J0.
N240 G1 X19.138
N245 G3 X16.138 Y1045.07 I0. J-3.
N250 G1 Y1033.32
N255 X7.038
N260 G3 X1.038 Y1027.32 I0. J-6.
N265 G1 Y987.818
N270 G3 X7.038 Y981.818 I6. J0.
N275 G1 X16.138
N280 Y970.068
N285 G3 X19.138 Y967.068 I3. J0.
N290 G1 X28.138
N295 G3 X31.138 Y970.068 I0. J3.
N300 G1 Y973.507
N305 G2 X31.738 Y974.107 I0.6 J0. F300.
N310 G1 X32.338
N315 G18 G2 X32.938 Z-0.9 I0. K0.6
N320 G0 Z5.
N325 X34.438 Y970.657
N330 G1 Z1. F150.33
N335 Z-2.4
N340 G3 X33.838 Z-3. I-0.6 K0.
N345 G1 X33.238 F300.
N350 G17 G2 X32.638 Y971.257 I0. J0.6
N355 G1 Y992.468 F650.
N360 G3 X28.138 Y996.968 I-4.5 J0.
N365 G1 X18.538
N370 Y1018.17
N375 X28.138
N380 G3 X32.638 Y1022.67 I0. J4.5
N385 G1 Y1045.07
N390 G3 X28.138 Y1049.57 I-4.5 J0.
N395 G1 X19.138
N400 G3 X14.638 Y1045.07 I0. J-4.5
N405 G1 Y1034.82
N410 X7.038
N415 G3 X-0.462 Y1027.32 I0. J-7.5
N420 G1 Y987.818
N425 G3 X7.038 Y980.318 I7.5 J0.
N430 G1 X14.638
N435 Y970.068
N440 G3 X19.138 Y965.568 I4.5 J0.
N445 G1 X28.138
N450 G3 X32.638 Y970.068 I0. J4.5
N455 G1 Y971.257
N460 G3 X31.888 Y972.382 I-1.219 J0.
N465 G2 X31.138 Y973.507 I0.469 J1.125
N470 G1 Y992.468
N475 G3 X28.138 Y995.468 I-3. J0.
N480 G1 X17.038
N485 Y1019.67
N490 X28.138
N495 G3 X31.138 Y1022.67 I0. J3.
N500 G1 Y1045.07
N505 G3 X28.138 Y1048.07 I-3. J0.
N510 G1 X19.138
N515 G3 X16.138 Y1045.07 I0. J-3.
N520 G1 Y1033.32
N525 X7.038
N530 G3 X1.038 Y1027.32 I0. J-6.
N535 G1 Y987.818
N540 G3 X7.038 Y981.818 I6. J0.
N545 G1 X16.138
N550 Y970.068
N555 G3 X19.138 Y967.068 I3. J0.
N560 G1 X28.138
N565 G3 X31.138 Y970.068 I0. J3.
N570 G1 Y973.507
N575 G2 X31.738 Y974.107 I0.6 J0. F300.
N580 G1 X32.338
N585 G18 G2 X32.938 Z-2.4 I0. K0.6
N590 G0 Z5.
N595 X34.438 Y970.657
N600 G1 Z-0.5 F150.33
N605 Z-3.9
N610 G3 X33.838 Z-4.5 I-0.6 K0.
N615 G1 X33.238 F300.
N620 G17 G2 X32.638 Y971.257 I0. J0.6
N625 G1 Y992.468 F650.
N630 G3 X28.138 Y996.968 I-4.5 J0.
N635 G1 X18.538
N640 Y1018.17
N645 X28.138
N650 G3 X32.638 Y1022.67 I0. J4.5
N655 G1 Y1045.07
N660 G3 X28.138 Y1049.57 I-4.5 J0.
N665 G1 X19.138
N670 G3 X14.638 Y1045.07 I0. J-4.5
N675 G1 Y1034.82
N680 X7.038
N685 G3 X-0.462 Y1027.32 I0. J-7.5
N690 G1 Y987.818
N695 G3 X7.038 Y980.318 I7.5 J0.
N700 G1 X14.638
N705 Y970.068
N710 G3 X19.138 Y965.568 I4.5 J0.
N715 G1 X28.138
N720 G3 X32.638 Y970.068 I0. J4.5
N725 G1 Y971.257
N730 G3 X31.888 Y972.382 I-1.219 J0.
N735 G2 X31.138 Y973.507 I0.469 J1.125
N740 G1 Y992.468
N745 G3 X28.138 Y995.468 I-3. J0.
N750 G1 X17.038
N755 Y1019.67
N760 X28.138
N765 G3 X31.138 Y1022.67 I0. J3.
N770 G1 Y1045.07
N775 G3 X28.138 Y1048.07 I-3. J0.
N780 G1 X19.138
N785 G3 X16.138 Y1045.07 I0. J-3.
N790 G1 Y1033.32
N795 X7.038
N800 G3 X1.038 Y1027.32 I0. J-6.
N805 G1 Y987.818
N810 G3 X7.038 Y981.818 I6. J0.
N815 G1 X16.138
N820 Y970.068
N825 G3 X19.138 Y967.068 I3. J0.
N830 G1 X28.138
N835 G3 X31.138 Y970.068 I0. J3.
N840 G1 Y973.507
N845 G2 X31.738 Y974.107 I0.6 J0. F300.
N850 G1 X32.338
N855 G18 G2 X32.938 Z-3.9 I0. K0.6
N860 G0 Z5.
N865 X34.438 Y970.657
N870 G1 Z-2. F150.33
N875 Z-5.4
N880 G3 X33.838 Z-6. I-0.6 K0.
N885 G1 X33.238 F300.
N890 G17 G2 X32.638 Y971.257 I0. J0.6
N895 G1 Y992.468 F650.
N900 G3 X28.138 Y996.968 I-4.5 J0.
N905 G1 X18.538
N910 Y1018.17
N915 X28.138
N920 G3 X32.638 Y1022.67 I0. J4.5
N925 G1 Y1045.07
N930 G3 X28.138 Y1049.57 I-4.5 J0.
N935 G1 X19.138
N940 G3 X14.638 Y1045.07 I0. J-4.5
N945 G1 Y1034.82
N950 X7.038
N955 G3 X-0.462 Y1027.32 I0. J-7.5
N960 G1 Y987.818
N965 G3 X7.038 Y980.318 I7.5 J0.
N970 G1 X14.638
N975 Y970.068
N980 G3 X19.138 Y965.568 I4.5 J0.
N985 G1 X28.138
N990 G3 X32.638 Y970.068 I0. J4.5
N995 G1 Y971.257
N1000 G3 X31.888 Y972.382 I-1.219 J0.
N1005 G2 X31.138 Y973.507 I0.469 J1.125
N1010 G1 Y992.468
N1015 G3 X28.138 Y995.468 I-3. J0.
N1020 G1 X17.038
N1025 Y1019.67
N1030 X28.138
N1035 G3 X31.138 Y1022.67 I0. J3.
N1040 G1 Y1045.07
N1045 G3 X28.138 Y1048.07 I-3. J0.
N1050 G1 X19.138
N1055 G3 X16.138 Y1045.07 I0. J-3.
N1060 G1 Y1033.32
N1065 X7.038
N1070 G3 X1.038 Y1027.32 I0. J-6.
N1075 G1 Y987.818
N1080 G3 X7.038 Y981.818 I6. J0.
N1085 G1 X16.138
N1090 Y970.068
N1095 G3 X19.138 Y967.068 I3. J0.
N1100 G1 X28.138
N1105 G3 X31.138 Y970.068 I0. J3.
N1110 G1 Y973.507
N1115 G2 X31.738 Y974.107 I0.6 J0. F300.
N1120 G1 X32.338
N1125 G18 G2 X32.938 Z-5.4 I0. K0.6
N1130 G0 Z5.
N1135 X34.438 Y970.657
N1140 G1 Z-3.5 F150.33
N1145 Z-6.9
N1150 G3 X33.838 Z-7.5 I-0.6 K0.
N1155 G1 X33.238 F300.
N1160 G17 G2 X32.638 Y971.257 I0. J0.6
N1165 G1 Y992.468 F650.
N1170 G3 X28.138 Y996.968 I-4.5 J0.
N1175 G1 X18.538
N1180 Y1018.17
N1185 X28.138
N1190 G3 X32.638 Y1022.67 I0. J4.5
N1195 G1 Y1045.07
N1200 G3 X28.138 Y1049.57 I-4.5 J0.
N1205 G1 X19.138
N1210 G3 X14.638 Y1045.07 I0. J-4.5
N1215 G1 Y1034.82
N1220 X7.038
N1225 G3 X-0.462 Y1027.32 I0. J-7.5
N1230 G1 Y987.818
N1235 G3 X7.038 Y980.318 I7.5 J0.
N1240 G1 X14.638
N1245 Y970.068
N1250 G3 X19.138 Y965.568 I4.5 J0.
N1255 G1 X28.138
N1260 G3 X32.638 Y970.068 I0. J4.5
N1265 G1 Y971.257
N1270 G3 X31.888 Y972.382 I-1.219 J0.
N1275 G2 X31.138 Y973.507 I0.469 J1.125
N1280 G1 Y992.468
N1285 G3 X28.138 Y995.468 I-3. J0.
N1290 G1 X17.038
N1295 Y1019.67
N1300 X28.138
N1305 G3 X31.138 Y1022.67 I0. J3.
N1310 G1 Y1045.07
N1315 G3 X28.138 Y1048.07 I-3. J0.
N1320 G1 X19.138
N1325 G3 X16.138 Y1045.07 I0. J-3.
N1330 G1 Y1033.32
N1335 X7.038
N1340 G3 X1.038 Y1027.32 I0. J-6.
N1345 G1 Y987.818
N1350 G3 X7.038 Y981.818 I6. J0.
N1355 G1 X16.138
N1360 Y970.068
N1365 G3 X19.138 Y967.068 I3. J0.
N1370 G1 X28.138
N1375 G3 X31.138 Y970.068 I0. J3.
N1380 G1 Y973.507
N1385 G2 X31.738 Y974.107 I0.6 J0. F300.
N1390 G1 X32.338
N1395 G18 G2 X32.938 Z-6.9 I0. K0.6
N1400 G0 Z5.
N1405 X34.438 Y970.657
N1410 G1 Z-5. F150.33
N1415 Z-8.4
N1420 G3 X33.838 Z-9. I-0.6 K0.
N1425 G1 X33.238 F300.
N1430 G17 G2 X32.638 Y971.257 I0. J0.6
N1435 G1 Y992.468 F650.
N1440 G3 X28.138 Y996.968 I-4.5 J0.
N1445 G1 X18.538
N1450 Y1018.17
N1455 X28.138
N1460 G3 X32.638 Y1022.67 I0. J4.5
N1465 G1 Y1045.07
N1470 G3 X28.138 Y1049.57 I-4.5 J0.
N1475 G1 X19.138
N1480 G3 X14.638 Y1045.07 I0. J-4.5
N1485 G1 Y1034.82
N1490 X7.038
N1495 G3 X-0.462 Y1027.32 I0. J-7.5
N1500 G1 Y987.818
N1505 G3 X7.038 Y980.318 I7.5 J0.
N1510 G1 X14.638
N1515 Y970.068
N1520 G3 X19.138 Y965.568 I4.5 J0.
N1525 G1 X28.138
N1530 G3 X32.638 Y970.068 I0. J4.5
N1535 G1 Y971.257
N1540 G3 X31.888 Y972.382 I-1.219 J0.
N1545 G2 X31.138 Y973.507 I0.469 J1.125
N1550 G1 Y992.468
N1555 G3 X28.138 Y995.468 I-3. J0.
N1560 G1 X17.038
N1565 Y1019.67
N1570 X28.138
N1575 G3 X31.138 Y1022.67 I0. J3.
N1580 G1 Y1045.07
N1585 G3 X28.138 Y1048.07 I-3. J0.
N1590 G1 X19.138
N1595 G3 X16.138 Y1045.07 I0. J-3.
N1600 G1 Y1033.32
N1605 X7.038
N1610 G3 X1.038 Y1027.32 I0. J-6.
N1615 G1 Y987.818
N1620 G3 X7.038 Y981.818 I6. J0.
N1625 G1 X16.138
N1630 Y970.068
N1635 G3 X19.138 Y967.068 I3. J0.
N1640 G1 X28.138
N1645 G3 X31.138 Y970.068 I0. J3.
N1650 G1 Y973.507
N1655 G2 X31.738 Y974.107 I0.6 J0. F300.
N1660 G1 X32.338
N1665 G18 G2 X32.938 Z-8.4 I0. K0.6
N1670 G0 Z5.
N1675 X34.438 Y970.657
N1680 G1 Z-6.5 F150.33
N1685 Z-9.9
N1690 G3 X33.838 Z-10.5 I-0.6 K0.
N1695 G1 X33.238 F300.
N1700 G17 G2 X32.638 Y971.257 I0. J0.6
N1705 G1 Y992.468 F650.
N1710 G3 X28.138 Y996.968 I-4.5 J0.
N1715 G1 X18.538
N1720 Y1018.17
N1725 X28.138
N1730 G3 X32.638 Y1022.67 I0. J4.5
N1735 G1 Y1045.07
N1740 G3 X28.138 Y1049.57 I-4.5 J0.
N1745 G1 X19.138
N1750 G3 X14.638 Y1045.07 I0. J-4.5
N1755 G1 Y1034.82
N1760 X7.038
N1765 G3 X-0.462 Y1027.32 I0. J-7.5
N1770 G1 Y987.818
N1775 G3 X7.038 Y980.318 I7.5 J0.
N1780 G1 X14.638
N1785 Y970.068
N1790 G3 X19.138 Y965.568 I4.5 J0.
N1795 G1 X28.138
N1800 G3 X32.638 Y970.068 I0. J4.5
N1805 G1 Y971.257
N1810 G3 X31.888 Y972.382 I-1.219 J0.
N1815 G2 X31.138 Y973.507 I0.469 J1.125
N1820 G1 Y992.468
N1825 G3 X28.138 Y995.468 I-3. J0.
N1830 G1 X17.038
N1835 Y1019.67
N1840 X28.138
N1845 G3 X31.138 Y1022.67 I0. J3.
N1850 G1 Y1045.07
N1855 G3 X28.138 Y1048.07 I-3. J0.
N1860 G1 X19.138
N1865 G3 X16.138 Y1045.07 I0. J-3.
N1870 G1 Y1033.32
N1875 X7.038
N1880 G3 X1.038 Y1027.32 I0. J-6.
N1885 G1 Y987.818
N1890 G3 X7.038 Y981.818 I6. J0.
N1895 G1 X16.138
N1900 Y970.068
N1905 G3 X19.138 Y967.068 I3. J0.
N1910 G1 X28.138
N1915 G3 X31.138 Y970.068 I0. J3.
N1920 G1 Y973.507
N1925 G2 X31.738 Y974.107 I0.6 J0. F300.
N1930 G1 X32.338
N1935 G18 G2 X32.938 Z-9.9 I0. K0.6
N1940 G0 Z5.
N1945 X34.438 Y970.657
N1950 G1 Z-8. F150.33
N1955 Z-11.4
N1960 G3 X33.838 Z-12. I-0.6 K0.
N1965 G1 X33.238 F300.
N1970 G17 G2 X32.638 Y971.257 I0. J0.6
N1975 G1 Y992.468 F650.
N1980 G3 X28.138 Y996.968 I-4.5 J0.
N1985 G1 X18.538
N1990 Y1018.17
N1995 X28.138
N2000 G3 X32.638 Y1022.67 I0. J4.5
N2005 G1 Y1045.07
N2010 G3 X28.138 Y1049.57 I-4.5 J0.
N2015 G1 X19.138
N2020 G3 X14.638 Y1045.07 I0. J-4.5
N2025 G1 Y1034.82
N2030 X7.038
N2035 G3 X-0.462 Y1027.32 I0. J-7.5
N2040 G1 Y987.818
N2045 G3 X7.038 Y980.318 I7.5 J0.
N2050 G1 X14.638
N2055 Y970.068
N2060 G3 X19.138 Y965.568 I4.5 J0.
N2065 G1 X28.138
N2070 G3 X32.638 Y970.068 I0. J4.5
N2075 G1 Y971.257
N2080 G3 X31.888 Y972.382 I-1.219 J0.
N2085 G2 X31.138 Y973.507 I0.469 J1.125
N2090 G1 Y992.468
N2095 G3 X28.138 Y995.468 I-3. J0.
N2100 G1 X17.038
N2105 Y1019.67
N2110 X28.138
N2115 G3 X31.138 Y1022.67 I0. J3.
N2120 G1 Y1045.07
N2125 G3 X28.138 Y1048.07 I-3. J0.
N2130 G1 X19.138
N2135 G3 X16.138 Y1045.07 I0. J-3.
N2140 G1 Y1033.32
N2145 X7.038
N2150 G3 X1.038 Y1027.32 I0. J-6.
N2155 G1 Y987.818
N2160 G3 X7.038 Y981.818 I6. J0.
N2165 G1 X16.138
N2170 Y970.068
N2175 G3 X19.138 Y967.068 I3. J0.
N2180 G1 X28.138
N2185 G3 X31.138 Y970.068 I0. J3.
N2190 G1 Y973.507
N2195 G2 X31.738 Y974.107 I0.6 J0. F300.
N2200 G1 X32.338
N2205 G18 G2 X32.938 Z-11.4 I0. K0.6
N2210 G0 Z5.
N2215 X34.438 Y970.657
N2220 G1 Z-9.5 F150.33
N2225 Z-12.9
N2230 G3 X33.838 Z-13.5 I-0.6 K0.
N2235 G1 X33.238 F300.
N2240 G17 G2 X32.638 Y971.257 I0. J0.6
N2245 G1 Y992.468 F650.
N2250 G3 X28.138 Y996.968 I-4.5 J0.
N2255 G1 X18.538
N2260 Y1018.17
N2265 X28.138
N2270 G3 X32.638 Y1022.67 I0. J4.5
N2275 G1 Y1045.07
N2280 G3 X28.138 Y1049.57 I-4.5 J0.
N2285 G1 X19.138
N2290 G3 X14.638 Y1045.07 I0. J-4.5
N2295 G1 Y1034.82
N2300 X7.038
N2305 G3 X-0.462 Y1027.32 I0. J-7.5
N2310 G1 Y987.818
N2315 G3 X7.038 Y980.318 I7.5 J0.
N2320 G1 X14.638
N2325 Y970.068
N2330 G3 X19.138 Y965.568 I4.5 J0.
N2335 G1 X28.138
N2340 G3 X32.638 Y970.068 I0. J4.5
N2345 G1 Y971.257
N2350 G3 X31.888 Y972.382 I-1.219 J0.
N2355 G2 X31.138 Y973.507 I0.469 J1.125
N2360 G1 Y992.468
N2365 G3 X28.138 Y995.468 I-3. J0.
N2370 G1 X17.038
N2375 Y1019.67
N2380 X28.138
N2385 G3 X31.138 Y1022.67 I0. J3.
N2390 G1 Y1045.07
N2395 G3 X28.138 Y1048.07 I-3. J0.
N2400 G1 X19.138
N2405 G3 X16.138 Y1045.07 I0. J-3.
N2410 G1 Y1033.32
N2415 X7.038
N2420 G3 X1.038 Y1027.32 I0. J-6.
N2425 G1 Y987.818
N2430 G3 X7.038 Y981.818 I6. J0.
N2435 G1 X16.138
N2440 Y970.068
N2445 G3 X19.138 Y967.068 I3. J0.
N2450 G1 X28.138
N2455 G3 X31.138 Y970.068 I0. J3.
N2460 G1 Y973.507
N2465 G2 X31.738 Y974.107 I0.6 J0. F300.
N2470 G1 X32.338
N2475 G18 G2 X32.938 Z-12.9 I0. K0.6
N2480 G0 Z5.
N2485 X34.438 Y970.657
N2490 G1 Z-11. F150.33
N2495 Z-14.4
N2500 G3 X33.838 Z-15. I-0.6 K0.
N2505 G1 X33.238 F300.
N2510 G17 G2 X32.638 Y971.257 I0. J0.6
N2515 G1 Y992.468 F650.
N2520 G3 X28.138 Y996.968 I-4.5 J0.
N2525 G1 X18.538
N2530 Y1018.17
N2535 X28.138
N2540 G3 X32.638 Y1022.67 I0. J4.5
N2545 G1 Y1045.07
N2550 G3 X28.138 Y1049.57 I-4.5 J0.
N2555 G1 X19.138
N2560 G3 X14.638 Y1045.07 I0. J-4.5
N2565 G1 Y1034.82
N2570 X7.038
N2575 G3 X-0.462 Y1027.32 I0. J-7.5
N2580 G1 Y987.818
N2585 G3 X7.038 Y980.318 I7.5 J0.
N2590 G1 X14.638
N2595 Y970.068
N2600 G3 X19.138 Y965.568 I4.5 J0.
N2605 G1 X28.138
N2610 G3 X32.638 Y970.068 I0. J4.5
N2615 G1 Y971.257
N2620 G3 X31.888 Y972.382 I-1.219 J0.
N2625 G2 X31.138 Y973.507 I0.469 J1.125
N2630 G1 Y992.468
N2635 G3 X28.138 Y995.468 I-3. J0.
N2640 G1 X17.038
N2645 Y1019.67
N2650 X28.138
N2655 G3 X31.138 Y1022.67 I0. J3.
N2660 G1 Y1045.07
N2665 G3 X28.138 Y1048.07 I-3. J0.
N2670 G1 X19.138
N2675 G3 X16.138 Y1045.07 I0. J-3.
N2680 G1 Y1033.32
N2685 X7.038
N2690 G3 X1.038 Y1027.32 I0. J-6.
N2695 G1 Y987.818
N2700 G3 X7.038 Y981.818 I6. J0.
N2705 G1 X16.138
N2710 Y970.068
N2715 G3 X19.138 Y967.068 I3. J0.
N2720 G1 X28.138
N2725 G3 X31.138 Y970.068 I0. J3.
N2730 G1 Y973.507
N2735 G2 X31.738 Y974.107 I0.6 J0. F300.
N2740 G1 X32.338
N2745 G18 G2 X32.938 Z-14.4 I0. K0.6
N2750 G0 Z5.
N2755 X34.438 Y970.657
N2760 G1 Z-12.5 F150.33
N2765 Z-15.9
N2770 G3 X33.838 Z-16.5 I-0.6 K0.
N2775 G1 X33.238 F300.
N2780 G17 G2 X32.638 Y971.257 I0. J0.6
N2785 G1 Y992.468 F650.
N2790 G3 X28.138 Y996.968 I-4.5 J0.
N2795 G1 X18.538
N2800 Y1018.17
N2805 X28.138
N2810 G3 X32.638 Y1022.67 I0. J4.5
N2815 G1 Y1045.07
N2820 G3 X28.138 Y1049.57 I-4.5 J0.
N2825 G1 X19.138
N2830 G3 X14.638 Y1045.07 I0. J-4.5
N2835 G1 Y1034.82
N2840 X7.038
N2845 G3 X-0.462 Y1027.32 I0. J-7.5
N2850 G1 Y987.818
N2855 G3 X7.038 Y980.318 I7.5 J0.
N2860 G1 X14.638
N2865 Y970.068
N2870 G3 X19.138 Y965.568 I4.5 J0.
N2875 G1 X28.138
N2880 G3 X32.638 Y970.068 I0. J4.5
N2885 G1 Y971.257
N2890 G3 X31.888 Y972.382 I-1.219 J0.
N2895 G2 X31.138 Y973.507 I0.469 J1.125
N2900 G1 Y992.468
N2905 G3 X28.138 Y995.468 I-3. J0.
N2910 G1 X17.038
N2915 Y1019.67
N2920 X28.138
N2925 G3 X31.138 Y1022.67 I0. J3.
N2930 G1 Y1045.07
N2935 G3 X28.138 Y1048.07 I-3. J0.
N2940 G1 X19.138
N2945 G3 X16.138 Y1045.07 I0. J-3.
N2950 G1 Y1033.32
N2955 X7.038
N2960 G3 X1.038 Y1027.32 I0. J-6.
N2965 G1 Y987.818
N2970 G3 X7.038 Y981.818 I6. J0.
N2975 G1 X16.138
N2980 Y970.068
N2985 G3 X19.138 Y967.068 I3. J0.
N2990 G1 X28.138
N2995 G3 X31.138 Y970.068 I0. J3.
N3000 G1 Y973.507
N3005 G2 X31.738 Y974.107 I0.6 J0. F300.
N3010 G1 X32.338
N3015 G18 G2 X32.938 Z-15.9 I0. K0.6
N3020 G0 Z5.
N3025 X34.438 Y970.657
N3030 G1 Z-14. F150.33
N3035 Z-17.4
N3040 G3 X33.838 Z-18. I-0.6 K0.
N3045 G1 X33.238 F300.
N3050 G17 G2 X32.638 Y971.257 I0. J0.6
N3055 G1 Y992.468 F650.
N3060 G3 X28.138 Y996.968 I-4.5 J0.
N3065 G1 X18.538
N3070 Y1018.17
N3075 X28.138
N3080 G3 X32.638 Y1022.67 I0. J4.5
N3085 G1 Y1045.07
N3090 G3 X28.138 Y1049.57 I-4.5 J0.
N3095 G1 X19.138
N3100 G3 X14.638 Y1045.07 I0. J-4.5
N3105 G1 Y1034.82
N3110 X7.038
N3115 G3 X-0.462 Y1027.32 I0. J-7.5
N3120 G1 Y987.818
N3125 G3 X7.038 Y980.318 I7.5 J0.
N3130 G1 X14.638
N3135 Y970.068
N3140 G3 X19.138 Y965.568 I4.5 J0.
N3145 G1 X28.138
N3150 G3 X32.638 Y970.068 I0. J4.5
N3155 G1 Y971.257
N3160 G3 X31.888 Y972.382 I-1.219 J0.
N3165 G2 X31.138 Y973.507 I0.469 J1.125
N3170 G1 Y992.468
N3175 G3 X28.138 Y995.468 I-3. J0.
N3180 G1 X17.038
N3185 Y1019.67
N3190 X28.138
N3195 G3 X31.138 Y1022.67 I0. J3.
N3200 G1 Y1045.07
N3205 G3 X28.138 Y1048.07 I-3. J0.
N3210 G1 X19.138
N3215 G3 X16.138 Y1045.07 I0. J-3.
N3220 G1 Y1033.32
N3225 X7.038
N3230 G3 X1.038 Y1027.32 I0. J-6.
N3235 G1 Y987.818
N3240 G3 X7.038 Y981.818 I6. J0.
N3245 G1 X16.138
N3250 Y970.068
N3255 G3 X19.138 Y967.068 I3. J0.
N3260 G1 X28.138
N3265 G3 X31.138 Y970.068 I0. J3.
N3270 G1 Y973.507
N3275 G2 X31.738 Y974.107 I0.6 J0. F300.
N3280 G1 X32.338
N3285 G18 G2 X32.938 Z-17.4 I0. K0.6
N3290 G0 Z5.
N3295 X34.438 Y970.657
N3300 G1 Z-15.5 F150.33
N3305 Z-18.9
N3310 G3 X33.838 Z-19.5 I-0.6 K0.
N3315 G1 X33.238 F300.
N3320 G17 G2 X32.638 Y971.257 I0. J0.6
N3325 G1 Y992.468 F650.
N3330 G3 X28.138 Y996.968 I-4.5 J0.
N3335 G1 X18.538
N3340 Y1018.17
N3345 X28.138
N3350 G3 X32.638 Y1022.67 I0. J4.5
N3355 G1 Y1045.07
N3360 G3 X28.138 Y1049.57 I-4.5 J0.
N3365 G1 X19.138
N3370 G3 X14.638 Y1045.07 I0. J-4.5
N3375 G1 Y1034.82
N3380 X7.038
N3385 G3 X-0.462 Y1027.32 I0. J-7.5
N3390 G1 Y987.818
N3395 G3 X7.038 Y980.318 I7.5 J0.
N3400 G1 X14.638
N3405 Y970.068
N3410 G3 X19.138 Y965.568 I4.5 J0.
N3415 G1 X28.138
N3420 G3 X32.638 Y970.068 I0. J4.5
N3425 G1 Y971.257
N3430 G3 X31.888 Y972.382 I-1.219 J0.
N3435 G2 X31.138 Y973.507 I0.469 J1.125
N3440 G1 Y992.468
N3445 G3 X28.138 Y995.468 I-3. J0.
N3450 G1 X17.038
N3455 Y1019.67
N3460 X28.138
N3465 G3 X31.138 Y1022.67 I0. J3.
N3470 G1 Y1045.07
N3475 G3 X28.138 Y1048.07 I-3. J0.
N3480 G1 X19.138
N3485 G3 X16.138 Y1045.07 I0. J-3.
N3490 G1 Y1033.32
N3495 X7.038
N3500 G3 X1.038 Y1027.32 I0. J-6.
N3505 G1 Y987.818
N3510 G3 X7.038 Y981.818 I6. J0.
N3515 G1 X16.138
N3520 Y970.068
N3525 G3 X19.138 Y967.068 I3. J0.
N3530 G1 X28.138
N3535 G3 X31.138 Y970.068 I0. J3.
N3540 G1 Y973.507
N3545 G2 X31.738 Y974.107 I0.6 J0. F300.
N3550 G1 X32.338
N3555 G18 G2 X32.938 Z-18.9 I0. K0.6
N3560 G0 Z5.
N3565 X34.438 Y970.657
N3570 G1 Z-17. F150.33
N3575 Z-20.4
N3580 G3 X33.838 Z-21. I-0.6 K0.
N3585 G1 X33.238 F300.
N3590 G17 G2 X32.638 Y971.257 I0. J0.6
N3595 G1 Y992.468 F650.
N3600 G3 X28.138 Y996.968 I-4.5 J0.
N3605 G1 X18.538
N3610 Y1002.23
N3615 Z-20.5
N3620 Y1014.23
N3625 Z-21. F150.33
N3630 Y1018.17 F650.
N3635 X28.138
N3640 G3 X32.638 Y1022.67 I0. J4.5
N3645 G1 Y1045.07
N3650 G3 X30.659 Y1048.798 I-4.5 J0.
N3655 G1 Z-20.5
N3660 G3 X28.138 Y1049.57 I-2.521 J-3.728
N3665 G1 X19.138
N3670 G3 X18.659 Y1049.544 I0. J-4.5
N3675 G1 Z-21. F150.33
N3680 G3 X14.638 Y1045.07 I0.479 J-4.474 F650.
N3685 G1 Y1034.82
N3690 X7.038
N3695 G3 X-0.462 Y1027.32 I0. J-7.5
N3700 G1 Y987.818
N3705 G3 X7.038 Y980.318 I7.5 J0.
N3710 G1 X14.638
N3715 Y970.068
N3720 G3 X17.693 Y965.806 I4.5 J0.
N3725 G1 Z-20.5
N3730 G3 X19.138 Y965.568 I1.445 J4.262
N3735 G1 X28.138
N3740 G3 X29.693 Y965.845 I0. J4.5
N3745 G1 Z-21. F150.33
N3750 G3 X32.638 Y970.068 I-1.555 J4.223 F650.
N3755 G1 Y971.257
N3760 G3 X31.888 Y972.382 I-1.219 J0.
N3765 G2 X31.138 Y973.507 I0.469 J1.125
N3770 G1 Y992.468
N3775 G3 X28.138 Y995.468 I-3. J0.
N3780 G1 X17.038
N3785 Y1002.23
N3790 Z-20.5
N3795 Y1014.23
N3800 Z-21. F150.33
N3805 Y1019.67 F650.
N3810 X28.138
N3815 G3 X31.138 Y1022.67 I0. J3.
N3820 G1 Y1045.07
N3825 G3 X30.659 Y1046.696 I-3. J0.
N3830 G1 Z-20.5
N3835 G3 X28.138 Y1048.07 I-2.521 J-1.626
N3840 G1 X19.138
N3845 G3 X18.659 Y1048.031 I0. J-3.
N3850 G1 Z-21. F150.33
N3855 G3 X16.138 Y1045.07 I0.479 J-2.962 F650.
N3860 G1 Y1033.32
N3865 X7.038
N3870 G3 X1.038 Y1027.32 I0. J-6.
N3875 G1 Y987.818
N3880 G3 X7.038 Y981.818 I6. J0.
N3885 G1 X16.138
N3890 Y970.068
N3895 G3 X17.693 Y967.439 I3. J0.
N3900 G1 Z-20.5
N3905 G3 X19.138 Y967.068 I1.445 J2.629
N3910 G1 X28.138
N3915 G3 X29.693 Y967.502 I0. J3.
N3920 G1 Z-21. F150.33
N3925 G3 X31.138 Y970.068 I-1.555 J2.566 F650.
N3930 G1 Y973.507
N3935 G2 X31.738 Y974.107 I0.6 J0. F300.
N3940 G1 X32.338
N3945 G18 G2 X32.938 Z-20.4 I0. K0.6
N3950 G0 Z5.
N3955 X34.438 Y970.657
N3960 G1 Z-18.5 F150.33
N3965 Z-21.9
N3970 G3 X33.838 Z-22.5 I-0.6 K0.
N3975 G1 X33.238 F300.
N3980 G17 G2 X32.638 Y971.257 I0. J0.6
N3985 G1 Y992.468 F650.
N3990 G3 X28.138 Y996.968 I-4.5 J0.
N3995 G1 X18.538
N4000 Y1002.23
N4005 Z-20.5
N4010 Y1014.23
N4015 Z-22.5 F150.33
N4020 Y1018.17 F650.
N4025 X28.138
N4030 G3 X32.638 Y1022.67 I0. J4.5
N4035 G1 Y1045.07
N4040 G3 X30.659 Y1048.798 I-4.5 J0.
N4045 G1 Z-20.5
N4050 G3 X28.138 Y1049.57 I-2.521 J-3.728
N4055 G1 X19.138
N4060 G3 X18.659 Y1049.544 I0. J-4.5
N4065 G1 Z-22.5 F150.33
N4070 G3 X14.638 Y1045.07 I0.479 J-4.474 F650.
N4075 G1 Y1034.82
N4080 X7.038
N4085 G3 X-0.462 Y1027.32 I0. J-7.5
N4090 G1 Y987.818
N4095 G3 X7.038 Y980.318 I7.5 J0.
N4100 G1 X14.638
N4105 Y970.068
N4110 G3 X17.693 Y965.806 I4.5 J0.
N4115 G1 Z-20.5
N4120 G3 X19.138 Y965.568 I1.445 J4.262
N4125 G1 X28.138
N4130 G3 X29.693 Y965.845 I0. J4.5
N4135 G1 Z-22.5 F150.33
N4140 G3 X32.638 Y970.068 I-1.555 J4.223 F650.
N4145 G1 Y971.257
N4150 G3 X31.888 Y972.382 I-1.219 J0.
N4155 G2 X31.138 Y973.507 I0.469 J1.125
N4160 G1 Y992.468
N4165 G3 X28.138 Y995.468 I-3. J0.
N4170 G1 X17.038
N4175 Y1002.23
N4180 Z-20.5
N4185 Y1014.23
N4190 Z-22.5 F150.33
N4195 Y1019.67 F650.
N4200 X28.138
N4205 G3 X31.138 Y1022.67 I0. J3.
N4210 G1 Y1045.07
N4215 G3 X30.659 Y1046.696 I-3. J0.
N4220 G1 Z-20.5
N4225 G3 X28.138 Y1048.07 I-2.521 J-1.626
N4230 G1 X19.138
N4235 G3 X18.659 Y1048.031 I0. J-3.
N4240 G1 Z-22.5 F150.33
N4245 G3 X16.138 Y1045.07 I0.479 J-2.962 F650.
N4250 G1 Y1033.32
N4255 X7.038
N4260 G3 X1.038 Y1027.32 I0. J-6.
N4265 G1 Y987.818
N4270 G3 X7.038 Y981.818 I6. J0.
N4275 G1 X16.138
N4280 Y970.068
N4285 G3 X17.693 Y967.439 I3. J0.
N4290 G1 Z-20.5
N4295 G3 X19.138 Y967.068 I1.445 J2.629
N4300 G1 X28.138
N4305 G3 X29.693 Y967.502 I0. J3.
N4310 G1 Z-22.5 F150.33
N4315 G3 X31.138 Y970.068 I-1.555 J2.566 F650.
N4320 G1 Y973.507
N4325 G2 X31.738 Y974.107 I0.6 J0. F300.
N4330 G1 X32.338
N4335 G18 G2 X32.938 Z-21.9 I0. K0.6
N4340 G0 Z5.
N4345 X42.417 Y978.632
N4350 G1 Z2.5 F150.33
N4355 Z-0.9
N4360 X42.418 Y978.64 Z-0.994
N4365 X42.422 Y978.661 Z-1.085
N4370 X42.428 Y978.697 Z-1.172
N4375 X42.436 Y978.746 Z-1.253
N4380 X42.446 Y978.806 Z-1.324
N4385 X42.457 Y978.877 Z-1.385
N4390 X42.47 Y978.956 Z-1.435
N4395 X42.484 Y979.042 Z-1.471
N4400 X42.499 Y979.132 Z-1.493
N4405 X42.514 Y979.225 Z-1.5
N4410 X42.612 Y979.817 F300.
N4415 G17 G2 X43.301 Y980.311 I0.592 J-0.097
N4420 G3 X44.03 Y980.252 I0.729 J4.441 F650.
N4425 G1 X53.03
N4430 G3 X57.53 Y984.752 I0. J4.5
N4435 G1 Y995.002
N4440 X65.129
N4445 G3 X72.63 Y1002.498 I0.002 J7.499
N4450 G1 Y1002.5
N4455 Y1042.
N4460 G3 X65.13 Y1049.5 I-7.5 J0.
N4465 G1 X57.53
N4470 Y1059.75
N4475 G3 X53.03 Y1064.25 I-4.5 J0.
N4480 G1 X44.03
N4485 G3 X39.53 Y1059.75 I0. J-4.5
N4490 G1 Y1037.35
N4495 G3 X44.03 Y1032.85 I4.5 J0.
N4500 G1 X53.63
N4505 Y1011.65
N4510 X44.03
N4515 G3 X39.53 Y1007.15 I0. J-4.5
N4520 G1 Y984.752
N4525 G3 X43.301 Y980.311 I4.5 J0.
N4530 X44.576 Y980.981 I0.194 J1.18
N4535 G2 X45.792 Y981.752 I1.216 J-0.574
N4540 G1 X53.03
N4545 G3 X56.03 Y984.752 I0. J3.
N4550 G1 Y996.502
N4555 X65.13
N4560 G3 X71.13 Y1002.499 I0.001 J5.999
N4565 G1 Y1002.5
N4570 Y1042.
N4575 G3 X65.13 Y1048. I-6. J0.
N4580 G1 X56.03
N4585 Y1059.75
N4590 G3 X53.03 Y1062.75 I-3. J0.
N4595 G1 X44.03
N4600 G3 X41.03 Y1059.75 I0. J-3.
N4605 G1 Y1045.07
N4610 Y1037.35
N4615 G3 X44.03 Y1034.35 I3. J0.
N4620 G1 X55.13
N4625 Y1010.15
N4630 X44.03
N4635 G3 X41.03 Y1007.15 I0. J-3.
N4640 G1 Y984.752
N4645 G3 X44.03 Y981.752 I3. J0.
N4650 G1 X45.792
N4655 G2 X46.392 Y981.152 I0. J-0.6 F300.
N4660 G1 Y980.552
N4665 G19 G2 Y979.952 Z-0.9 J0. K0.6
N4670 G0 Z5.
N4675 X42.417 Y978.632
N4680 G1 Z1. F150.33
N4685 Z-2.4
N4690 X42.418 Y978.64 Z-2.494
N4695 X42.422 Y978.661 Z-2.585
N4700 X42.428 Y978.697 Z-2.672
N4705 X42.436 Y978.746 Z-2.753
N4710 X42.446 Y978.806 Z-2.824
N4715 X42.457 Y978.877 Z-2.885
N4720 X42.47 Y978.956 Z-2.935
N4725 X42.484 Y979.042 Z-2.971
N4730 X42.499 Y979.132 Z-2.993
N4735 X42.514 Y979.225 Z-3.
N4740 X42.612 Y979.817 F300.
N4745 G17 G2 X43.301 Y980.311 I0.592 J-0.097
N4750 G3 X44.03 Y980.252 I0.729 J4.441 F650.
N4755 G1 X53.03
N4760 G3 X57.53 Y984.752 I0. J4.5
N4765 G1 Y995.002
N4770 X65.129
N4775 G3 X72.63 Y1002.498 I0.002 J7.499
N4780 G1 Y1002.5
N4785 Y1042.
N4790 G3 X65.13 Y1049.5 I-7.5 J0.
N4795 G1 X57.53
N4800 Y1059.75
N4805 G3 X53.03 Y1064.25 I-4.5 J0.
N4810 G1 X44.03
N4815 G3 X39.53 Y1059.75 I0. J-4.5
N4820 G1 Y1037.35
N4825 G3 X44.03 Y1032.85 I4.5 J0.
N4830 G1 X53.63
N4835 Y1011.65
N4840 X44.03
N4845 G3 X39.53 Y1007.15 I0. J-4.5
N4850 G1 Y984.752
N4855 G3 X43.301 Y980.311 I4.5 J0.
N4860 X44.576 Y980.981 I0.194 J1.18
N4865 G2 X45.792 Y981.752 I1.216 J-0.574
N4870 G1 X53.03
N4875 G3 X56.03 Y984.752 I0. J3.
N4880 G1 Y996.502
N4885 X65.13
N4890 G3 X71.13 Y1002.499 I0.001 J5.999
N4895 G1 Y1002.5
N4900 Y1042.
N4905 G3 X65.13 Y1048. I-6. J0.
N4910 G1 X56.03
N4915 Y1059.75
N4920 G3 X53.03 Y1062.75 I-3. J0.
N4925 G1 X44.03
N4930 G3 X41.03 Y1059.75 I0. J-3.
N4935 G1 Y1045.07
N4940 Y1037.35
N4945 G3 X44.03 Y1034.35 I3. J0.
N4950 G1 X55.13
N4955 Y1010.15
N4960 X44.03
N4965 G3 X41.03 Y1007.15 I0. J-3.
N4970 G1 Y984.752
N4975 G3 X44.03 Y981.752 I3. J0.
N4980 G1 X45.792
N4985 G2 X46.392 Y981.152 I0. J-0.6 F300.
N4990 G1 Y980.552
N4995 G19 G2 Y979.952 Z-2.4 J0. K0.6
N5000 G0 Z5.
N5005 X42.417 Y978.632
N5010 G1 Z-0.5 F150.33
N5015 Z-3.9
N5020 X42.418 Y978.64 Z-3.994
N5025 X42.422 Y978.661 Z-4.085
N5030 X42.428 Y978.697 Z-4.172
N5035 X42.436 Y978.746 Z-4.253
N5040 X42.446 Y978.806 Z-4.324
N5045 X42.457 Y978.877 Z-4.385
N5050 X42.47 Y978.956 Z-4.435
N5055 X42.484 Y979.042 Z-4.471
N5060 X42.499 Y979.132 Z-4.493
N5065 X42.514 Y979.225 Z-4.5
N5070 X42.612 Y979.817 F300.
N5075 G17 G2 X43.301 Y980.311 I0.592 J-0.097
N5080 G3 X44.03 Y980.252 I0.729 J4.441 F650.
N5085 G1 X53.03
N5090 G3 X57.53 Y984.752 I0. J4.5
N5095 G1 Y995.002
N5100 X65.129
N5105 G3 X72.63 Y1002.498 I0.002 J7.499
N5110 G1 Y1002.5
N5115 Y1042.
N5120 G3 X65.13 Y1049.5 I-7.5 J0.
N5125 G1 X57.53
N5130 Y1059.75
N5135 G3 X53.03 Y1064.25 I-4.5 J0.
N5140 G1 X44.03
N5145 G3 X39.53 Y1059.75 I0. J-4.5
N5150 G1 Y1037.35
N5155 G3 X44.03 Y1032.85 I4.5 J0.
N5160 G1 X53.63
N5165 Y1011.65
N5170 X44.03
N5175 G3 X39.53 Y1007.15 I0. J-4.5
N5180 G1 Y984.752
N5185 G3 X43.301 Y980.311 I4.5 J0.
N5190 X44.576 Y980.981 I0.194 J1.18
N5195 G2 X45.792 Y981.752 I1.216 J-0.574
N5200 G1 X53.03
N5205 G3 X56.03 Y984.752 I0. J3.
N5210 G1 Y996.502
N5215 X65.13
N5220 G3 X71.13 Y1002.499 I0.001 J5.999
N5225 G1 Y1002.5
N5230 Y1042.
N5235 G3 X65.13 Y1048. I-6. J0.
N5240 G1 X56.03
N5245 Y1059.75
N5250 G3 X53.03 Y1062.75 I-3. J0.
N5255 G1 X44.03
N5260 G3 X41.03 Y1059.75 I0. J-3.
N5265 G1 Y1045.07
N5270 Y1037.35
N5275 G3 X44.03 Y1034.35 I3. J0.
N5280 G1 X55.13
N5285 Y1010.15
N5290 X44.03
N5295 G3 X41.03 Y1007.15 I0. J-3.
N5300 G1 Y984.752
N5305 G3 X44.03 Y981.752 I3. J0.
N5310 G1 X45.792
N5315 G2 X46.392 Y981.152 I0. J-0.6 F300.
N5320 G1 Y980.552
N5325 G19 G2 Y979.952 Z-3.9 J0. K0.6
N5330 G0 Z5.
N5335 X42.417 Y978.632
N5340 G1 Z-2. F150.33
N5345 Z-5.4
N5350 X42.418 Y978.64 Z-5.494
N5355 X42.422 Y978.661 Z-5.585
N5360 X42.428 Y978.697 Z-5.672
N5365 X42.436 Y978.746 Z-5.753
N5370 X42.446 Y978.806 Z-5.824
N5375 X42.457 Y978.877 Z-5.885
N5380 X42.47 Y978.956 Z-5.935
N5385 X42.484 Y979.042 Z-5.971
N5390 X42.499 Y979.132 Z-5.993
N5395 X42.514 Y979.225 Z-6.
N5400 X42.612 Y979.817 F300.
N5405 G17 G2 X43.301 Y980.311 I0.592 J-0.097
N5410 G3 X44.03 Y980.252 I0.729 J4.441 F650.
N5415 G1 X53.03
N5420 G3 X57.53 Y984.752 I0. J4.5
N5425 G1 Y995.002
N5430 X65.129
N5435 G3 X72.63 Y1002.498 I0.002 J7.499
N5440 G1 Y1002.5
N5445 Y1042.
N5450 G3 X65.13 Y1049.5 I-7.5 J0.
N5455 G1 X57.53
N5460 Y1059.75
N5465 G3 X53.03 Y1064.25 I-4.5 J0.
N5470 G1 X44.03
N5475 G3 X39.53 Y1059.75 I0. J-4.5
N5480 G1 Y1037.35
N5485 G3 X44.03 Y1032.85 I4.5 J0.
N5490 G1 X53.63
N5495 Y1011.65
N5500 X44.03
N5505 G3 X39.53 Y1007.15 I0. J-4.5
N5510 G1 Y984.752
N5515 G3 X43.301 Y980.311 I4.5 J0.
N5520 X44.576 Y980.981 I0.194 J1.18
N5525 G2 X45.792 Y981.752 I1.216 J-0.574
N5530 G1 X53.03
N5535 G3 X56.03 Y984.752 I0. J3.
N5540 G1 Y996.502
N5545 X65.13
N5550 G3 X71.13 Y1002.499 I0.001 J5.999
N5555 G1 Y1002.5
N5560 Y1042.
N5565 G3 X65.13 Y1048. I-6. J0.
N5570 G1 X56.03
N5575 Y1059.75
N5580 G3 X53.03 Y1062.75 I-3. J0.
N5585 G1 X44.03
N5590 G3 X41.03 Y1059.75 I0. J-3.
N5595 G1 Y1045.07
N5600 Y1037.35
N5605 G3 X44.03 Y1034.35 I3. J0.
N5610 G1 X55.13
N5615 Y1010.15
N5620 X44.03
N5625 G3 X41.03 Y1007.15 I0. J-3.
N5630 G1 Y984.752
N5635 G3 X44.03 Y981.752 I3. J0.
N5640 G1 X45.792
N5645 G2 X46.392 Y981.152 I0. J-0.6 F300.
N5650 G1 Y980.552
N5655 G19 G2 Y979.952 Z-5.4 J0. K0.6
N5660 G0 Z5.
N5665 X42.417 Y978.632
N5670 G1 Z-3.5 F150.33
N5675 Z-6.9
N5680 X42.418 Y978.64 Z-6.994
N5685 X42.422 Y978.661 Z-7.085
N5690 X42.428 Y978.697 Z-7.172
N5695 X42.436 Y978.746 Z-7.253
N5700 X42.446 Y978.806 Z-7.324
N5705 X42.457 Y978.877 Z-7.385
N5710 X42.47 Y978.956 Z-7.435
N5715 X42.484 Y979.042 Z-7.471
N5720 X42.499 Y979.132 Z-7.493
N5725 X42.514 Y979.225 Z-7.5
N5730 X42.612 Y979.817 F300.
N5735 G17 G2 X43.301 Y980.311 I0.592 J-0.097
N5740 G3 X44.03 Y980.252 I0.729 J4.441 F650.
N5745 G1 X53.03
N5750 G3 X57.53 Y984.752 I0. J4.5
N5755 G1 Y995.002
N5760 X65.129
N5765 G3 X72.63 Y1002.498 I0.002 J7.499
N5770 G1 Y1002.5
N5775 Y1042.
N5780 G3 X65.13 Y1049.5 I-7.5 J0.
N5785 G1 X57.53
N5790 Y1059.75
N5795 G3 X53.03 Y1064.25 I-4.5 J0.
N5800 G1 X44.03
N5805 G3 X39.53 Y1059.75 I0. J-4.5
N5810 G1 Y1037.35
N5815 G3 X44.03 Y1032.85 I4.5 J0.
N5820 G1 X53.63
N5825 Y1011.65
N5830 X44.03
N5835 G3 X39.53 Y1007.15 I0. J-4.5
N5840 G1 Y984.752
N5845 G3 X43.301 Y980.311 I4.5 J0.
N5850 X44.576 Y980.981 I0.194 J1.18
N5855 G2 X45.792 Y981.752 I1.216 J-0.574
N5860 G1 X53.03
N5865 G3 X56.03 Y984.752 I0. J3.
N5870 G1 Y996.502
N5875 X65.13
N5880 G3 X71.13 Y1002.499 I0.001 J5.999
N5885 G1 Y1002.5
N5890 Y1042.
N5895 G3 X65.13 Y1048. I-6. J0.
N5900 G1 X56.03
N5905 Y1059.75
N5910 G3 X53.03 Y1062.75 I-3. J0.
N5915 G1 X44.03
N5920 G3 X41.03 Y1059.75 I0. J-3.
N5925 G1 Y1045.07
N5930 Y1037.35
N5935 G3 X44.03 Y1034.35 I3. J0.
N5940 G1 X55.13
N5945 Y1010.15
N5950 X44.03
N5955 G3 X41.03 Y1007.15 I0. J-3.
N5960 G1 Y984.752
N5965 G3 X44.03 Y981.752 I3. J0.
N5970 G1 X45.792
N5975 G2 X46.392 Y981.152 I0. J-0.6 F300.
N5980 G1 Y980.552
N5985 G19 G2 Y979.952 Z-6.9 J0. K0.6
N5990 G0 Z5.
N5995 X42.417 Y978.632
N6000 G1 Z-5. F150.33
N6005 Z-8.4
N6010 X42.418 Y978.64 Z-8.494
N6015 X42.422 Y978.661 Z-8.585
N6020 X42.428 Y978.697 Z-8.672
N6025 X42.436 Y978.746 Z-8.753
N6030 X42.446 Y978.806 Z-8.824
N6035 X42.457 Y978.877 Z-8.885
N6040 X42.47 Y978.956 Z-8.935
N6045 X42.484 Y979.042 Z-8.971
N6050 X42.499 Y979.132 Z-8.993
N6055 X42.514 Y979.225 Z-9.
N6060 X42.612 Y979.817 F300.
N6065 G17 G2 X43.301 Y980.311 I0.592 J-0.097
N6070 G3 X44.03 Y980.252 I0.729 J4.441 F650.
N6075 G1 X53.03
N6080 G3 X57.53 Y984.752 I0. J4.5
N6085 G1 Y995.002
N6090 X65.129
N6095 G3 X72.63 Y1002.498 I0.002 J7.499
N6100 G1 Y1002.5
N6105 Y1042.
N6110 G3 X65.13 Y1049.5 I-7.5 J0.
N6115 G1 X57.53
N6120 Y1059.75
N6125 G3 X53.03 Y1064.25 I-4.5 J0.
N6130 G1 X44.03
N6135 G3 X39.53 Y1059.75 I0. J-4.5
N6140 G1 Y1037.35
N6145 G3 X44.03 Y1032.85 I4.5 J0.
N6150 G1 X53.63
N6155 Y1011.65
N6160 X44.03
N6165 G3 X39.53 Y1007.15 I0. J-4.5
N6170 G1 Y984.752
N6175 G3 X43.301 Y980.311 I4.5 J0.
N6180 X44.576 Y980.981 I0.194 J1.18
N6185 G2 X45.792 Y981.752 I1.216 J-0.574
N6190 G1 X53.03
N6195 G3 X56.03 Y984.752 I0. J3.
N6200 G1 Y996.502
N6205 X65.13
N6210 G3 X71.13 Y1002.499 I0.001 J5.999
N6215 G1 Y1002.5
N6220 Y1042.
N6225 G3 X65.13 Y1048. I-6. J0.
N6230 G1 X56.03
N6235 Y1059.75
N6240 G3 X53.03 Y1062.75 I-3. J0.
N6245 G1 X44.03
N6250 G3 X41.03 Y1059.75 I0. J-3.
N6255 G1 Y1045.07
N6260 Y1037.35
N6265 G3 X44.03 Y1034.35 I3. J0.
N6270 G1 X55.13
N6275 Y1010.15
N6280 X44.03
N6285 G3 X41.03 Y1007.15 I0. J-3.
N6290 G1 Y984.752
N6295 G3 X44.03 Y981.752 I3. J0.
N6300 G1 X45.792
N6305 G2 X46.392 Y981.152 I0. J-0.6 F300.
N6310 G1 Y980.552
N6315 G19 G2 Y979.952 Z-8.4 J0. K0.6
N6320 G0 Z5.
N6325 X42.417 Y978.632
N6330 G1 Z-6.5 F150.33
N6335 Z-9.9
N6340 X42.418 Y978.64 Z-9.994
N6345 X42.422 Y978.661 Z-10.085
N6350 X42.428 Y978.697 Z-10.172
N6355 X42.436 Y978.746 Z-10.253
N6360 X42.446 Y978.806 Z-10.324
N6365 X42.457 Y978.877 Z-10.385
N6370 X42.47 Y978.956 Z-10.435
N6375 X42.484 Y979.042 Z-10.471
N6380 X42.499 Y979.132 Z-10.493
N6385 X42.514 Y979.225 Z-10.5
N6390 X42.612 Y979.817 F300.
N6395 G17 G2 X43.301 Y980.311 I0.592 J-0.097
N6400 G3 X44.03 Y980.252 I0.729 J4.441 F650.
N6405 G1 X53.03
N6410 G3 X57.53 Y984.752 I0. J4.5
N6415 G1 Y995.002
N6420 X65.129
N6425 G3 X72.63 Y1002.498 I0.002 J7.499
N6430 G1 Y1002.5
N6435 Y1042.
N6440 G3 X65.13 Y1049.5 I-7.5 J0.
N6445 G1 X57.53
N6450 Y1059.75
N6455 G3 X53.03 Y1064.25 I-4.5 J0.
N6460 G1 X44.03
N6465 G3 X39.53 Y1059.75 I0. J-4.5
N6470 G1 Y1037.35
N6475 G3 X44.03 Y1032.85 I4.5 J0.
N6480 G1 X53.63
N6485 Y1011.65
N6490 X44.03
N6495 G3 X39.53 Y1007.15 I0. J-4.5
N6500 G1 Y984.752
N6505 G3 X43.301 Y980.311 I4.5 J0.
N6510 X44.576 Y980.981 I0.194 J1.18
N6515 G2 X45.792 Y981.752 I1.216 J-0.574
N6520 G1 X53.03
N6525 G3 X56.03 Y984.752 I0. J3.
N6530 G1 Y996.502
N6535 X65.13
N6540 G3 X71.13 Y1002.499 I0.001 J5.999
N6545 G1 Y1002.5
N6550 Y1042.
N6555 G3 X65.13 Y1048. I-6. J0.
N6560 G1 X56.03
N6565 Y1059.75
N6570 G3 X53.03 Y1062.75 I-3. J0.
N6575 G1 X44.03
N6580 G3 X41.03 Y1059.75 I0. J-3.
N6585 G1 Y1045.07
N6590 Y1037.35
N6595 G3 X44.03 Y1034.35 I3. J0.
N6600 G1 X55.13
N6605 Y1010.15
N6610 X44.03
N6615 G3 X41.03 Y1007.15 I0. J-3.
N6620 G1 Y984.752
N6625 G3 X44.03 Y981.752 I3. J0.
N6630 G1 X45.792
N6635 G2 X46.392 Y981.152 I0. J-0.6 F300.
N6640 G1 Y980.552
N6645 G19 G2 Y979.952 Z-9.9 J0. K0.6
N6650 G0 Z5.
N6655 X42.417 Y978.632
N6660 G1 Z-8. F150.33
N6665 Z-11.4
N6670 X42.418 Y978.64 Z-11.494
N6675 X42.422 Y978.661 Z-11.585
N6680 X42.428 Y978.697 Z-11.672
N6685 X42.436 Y978.746 Z-11.753
N6690 X42.446 Y978.806 Z-11.824
N6695 X42.457 Y978.877 Z-11.885
N6700 X42.47 Y978.956 Z-11.935
N6705 X42.484 Y979.042 Z-11.971
N6710 X42.499 Y979.132 Z-11.993
N6715 X42.514 Y979.225 Z-12.
N6720 X42.612 Y979.817 F300.
N6725 G17 G2 X43.301 Y980.311 I0.592 J-0.097
N6730 G3 X44.03 Y980.252 I0.729 J4.441 F650.
N6735 G1 X53.03
N6740 G3 X57.53 Y984.752 I0. J4.5
N6745 G1 Y995.002
N6750 X65.129
N6755 G3 X72.63 Y1002.498 I0.002 J7.499
N6760 G1 Y1002.5
N6765 Y1042.
N6770 G3 X65.13 Y1049.5 I-7.5 J0.
N6775 G1 X57.53
N6780 Y1059.75
N6785 G3 X53.03 Y1064.25 I-4.5 J0.
N6790 G1 X44.03
N6795 G3 X39.53 Y1059.75 I0. J-4.5
N6800 G1 Y1037.35
N6805 G3 X44.03 Y1032.85 I4.5 J0.
N6810 G1 X53.63
N6815 Y1011.65
N6820 X44.03
N6825 G3 X39.53 Y1007.15 I0. J-4.5
N6830 G1 Y984.752
N6835 G3 X43.301 Y980.311 I4.5 J0.
N6840 X44.576 Y980.981 I0.194 J1.18
N6845 G2 X45.792 Y981.752 I1.216 J-0.574
N6850 G1 X53.03
N6855 G3 X56.03 Y984.752 I0. J3.
N6860 G1 Y996.502
N6865 X65.13
N6870 G3 X71.13 Y1002.499 I0.001 J5.999
N6875 G1 Y1002.5
N6880 Y1042.
N6885 G3 X65.13 Y1048. I-6. J0.
N6890 G1 X56.03
N6895 Y1059.75
N6900 G3 X53.03 Y1062.75 I-3. J0.
N6905 G1 X44.03
N6910 G3 X41.03 Y1059.75 I0. J-3.
N6915 G1 Y1045.07
N6920 Y1037.35
N6925 G3 X44.03 Y1034.35 I3. J0.
N6930 G1 X55.13
N6935 Y1010.15
N6940 X44.03
N6945 G3 X41.03 Y1007.15 I0. J-3.
N6950 G1 Y984.752
N6955 G3 X44.03 Y981.752 I3. J0.
N6960 G1 X45.792
N6965 G2 X46.392 Y981.152 I0. J-0.6 F300.
N6970 G1 Y980.552
N6975 G19 G2 Y979.952 Z-11.4 J0. K0.6
N6980 G0 Z5.
N6985 X42.417 Y978.632
N6990 G1 Z-9.5 F150.33
N6995 Z-12.9
N7000 X42.418 Y978.64 Z-12.994
N7005 X42.422 Y978.661 Z-13.085
N7010 X42.428 Y978.697 Z-13.172
N7015 X42.436 Y978.746 Z-13.253
N7020 X42.446 Y978.806 Z-13.324
N7025 X42.457 Y978.877 Z-13.385
N7030 X42.47 Y978.956 Z-13.435
N7035 X42.484 Y979.042 Z-13.471
N7040 X42.499 Y979.132 Z-13.493
N7045 X42.514 Y979.225 Z-13.5
N7050 X42.612 Y979.817 F300.
N7055 G17 G2 X43.301 Y980.311 I0.592 J-0.097
N7060 G3 X44.03 Y980.252 I0.729 J4.441 F650.
N7065 G1 X53.03
N7070 G3 X57.53 Y984.752 I0. J4.5
N7075 G1 Y995.002
N7080 X65.129
N7085 G3 X72.63 Y1002.498 I0.002 J7.499
N7090 G1 Y1002.5
N7095 Y1042.
N7100 G3 X65.13 Y1049.5 I-7.5 J0.
N7105 G1 X57.53
N7110 Y1059.75
N7115 G3 X53.03 Y1064.25 I-4.5 J0.
N7120 G1 X44.03
N7125 G3 X39.53 Y1059.75 I0. J-4.5
N7130 G1 Y1037.35
N7135 G3 X44.03 Y1032.85 I4.5 J0.
N7140 G1 X53.63
N7145 Y1011.65
N7150 X44.03
N7155 G3 X39.53 Y1007.15 I0. J-4.5
N7160 G1 Y984.752
N7165 G3 X43.301 Y980.311 I4.5 J0.
N7170 X44.576 Y980.981 I0.194 J1.18
N7175 G2 X45.792 Y981.752 I1.216 J-0.574
N7180 G1 X53.03
N7185 G3 X56.03 Y984.752 I0. J3.
N7190 G1 Y996.502
N7195 X65.13
N7200 G3 X71.13 Y1002.499 I0.001 J5.999
N7205 G1 Y1002.5
N7210 Y1042.
N7215 G3 X65.13 Y1048. I-6. J0.
N7220 G1 X56.03
N7225 Y1059.75
N7230 G3 X53.03 Y1062.75 I-3. J0.
N7235 G1 X44.03
N7240 G3 X41.03 Y1059.75 I0. J-3.
N7245 G1 Y1045.07
N7250 Y1037.35
N7255 G3 X44.03 Y1034.35 I3. J0.
N7260 G1 X55.13
N7265 Y1010.15
N7270 X44.03
N7275 G3 X41.03 Y1007.15 I0. J-3.
N7280 G1 Y984.752
N7285 G3 X44.03 Y981.752 I3. J0.
N7290 G1 X45.792
N7295 G2 X46.392 Y981.152 I0. J-0.6 F300.
N7300 G1 Y980.552
N7305 G19 G2 Y979.952 Z-12.9 J0. K0.6
N7310 G0 Z5.
N7315 X42.417 Y978.632
N7320 G1 Z-11. F150.33
N7325 Z-14.4
N7330 X42.418 Y978.64 Z-14.494
N7335 X42.422 Y978.661 Z-14.585
N7340 X42.428 Y978.697 Z-14.672
N7345 X42.436 Y978.746 Z-14.753
N7350 X42.446 Y978.806 Z-14.824
N7355 X42.457 Y978.877 Z-14.885
N7360 X42.47 Y978.956 Z-14.935
N7365 X42.484 Y979.042 Z-14.971
N7370 X42.499 Y979.132 Z-14.993
N7375 X42.514 Y979.225 Z-15.
N7380 X42.612 Y979.817 F300.
N7385 G17 G2 X43.301 Y980.311 I0.592 J-0.097
N7390 G3 X44.03 Y980.252 I0.729 J4.441 F650.
N7395 G1 X53.03
N7400 G3 X57.53 Y984.752 I0. J4.5
N7405 G1 Y995.002
N7410 X65.129
N7415 G3 X72.63 Y1002.498 I0.002 J7.499
N7420 G1 Y1002.5
N7425 Y1042.
N7430 G3 X65.13 Y1049.5 I-7.5 J0.
N7435 G1 X57.53
N7440 Y1059.75
N7445 G3 X53.03 Y1064.25 I-4.5 J0.
N7450 G1 X44.03
N7455 G3 X39.53 Y1059.75 I0. J-4.5
N7460 G1 Y1037.35
N7465 G3 X44.03 Y1032.85 I4.5 J0.
N7470 G1 X53.63
N7475 Y1011.65
N7480 X44.03
N7485 G3 X39.53 Y1007.15 I0. J-4.5
N7490 G1 Y984.752
N7495 G3 X43.301 Y980.311 I4.5 J0.
N7500 X44.576 Y980.981 I0.194 J1.18
N7505 G2 X45.792 Y981.752 I1.216 J-0.574
N7510 G1 X53.03
N7515 G3 X56.03 Y984.752 I0. J3.
N7520 G1 Y996.502
N7525 X65.13
N7530 G3 X71.13 Y1002.499 I0.001 J5.999
N7535 G1 Y1002.5
N7540 Y1042.
N7545 G3 X65.13 Y1048. I-6. J0.
N7550 G1 X56.03
N7555 Y1059.75
N7560 G3 X53.03 Y1062.75 I-3. J0.
N7565 G1 X44.03
N7570 G3 X41.03 Y1059.75 I0. J-3.
N7575 G1 Y1045.07
N7580 Y1037.35
N7585 G3 X44.03 Y1034.35 I3. J0.
N7590 G1 X55.13
N7595 Y1010.15
N7600 X44.03
N7605 G3 X41.03 Y1007.15 I0. J-3.
N7610 G1 Y984.752
N7615 G3 X44.03 Y981.752 I3. J0.
N7620 G1 X45.792
N7625 G2 X46.392 Y981.152 I0. J-0.6 F300.
N7630 G1 Y980.552
N7635 G19 G2 Y979.952 Z-14.4 J0. K0.6
N7640 G0 Z5.
N7645 X42.417 Y978.632
N7650 G1 Z-12.5 F150.33
N7655 Z-15.9
N7660 X42.418 Y978.64 Z-15.994
N7665 X42.422 Y978.661 Z-16.085
N7670 X42.428 Y978.697 Z-16.172
N7675 X42.436 Y978.746 Z-16.253
N7680 X42.446 Y978.806 Z-16.324
N7685 X42.457 Y978.877 Z-16.385
N7690 X42.47 Y978.956 Z-16.435
N7695 X42.484 Y979.042 Z-16.471
N7700 X42.499 Y979.132 Z-16.493
N7705 X42.514 Y979.225 Z-16.5
N7710 X42.612 Y979.817 F300.
N7715 G17 G2 X43.301 Y980.311 I0.592 J-0.097
N7720 G3 X44.03 Y980.252 I0.729 J4.441 F650.
N7725 G1 X53.03
N7730 G3 X57.53 Y984.752 I0. J4.5
N7735 G1 Y995.002
N7740 X65.129
N7745 G3 X72.63 Y1002.498 I0.002 J7.499
N7750 G1 Y1002.5
N7755 Y1042.
N7760 G3 X65.13 Y1049.5 I-7.5 J0.
N7765 G1 X57.53
N7770 Y1059.75
N7775 G3 X53.03 Y1064.25 I-4.5 J0.
N7780 G1 X44.03
N7785 G3 X39.53 Y1059.75 I0. J-4.5
N7790 G1 Y1037.35
N7795 G3 X44.03 Y1032.85 I4.5 J0.
N7800 G1 X53.63
N7805 Y1011.65
N7810 X44.03
N7815 G3 X39.53 Y1007.15 I0. J-4.5
N7820 G1 Y984.752
N7825 G3 X43.301 Y980.311 I4.5 J0.
N7830 X44.576 Y980.981 I0.194 J1.18
N7835 G2 X45.792 Y981.752 I1.216 J-0.574
N7840 G1 X53.03
N7845 G3 X56.03 Y984.752 I0. J3.
N7850 G1 Y996.502
N7855 X65.13
N7860 G3 X71.13 Y1002.499 I0.001 J5.999
N7865 G1 Y1002.5
N7870 Y1042.
N7875 G3 X65.13 Y1048. I-6. J0.
N7880 G1 X56.03
N7885 Y1059.75
N7890 G3 X53.03 Y1062.75 I-3. J0.
N7895 G1 X44.03
N7900 G3 X41.03 Y1059.75 I0. J-3.
N7905 G1 Y1045.07
N7910 Y1037.35
N7915 G3 X44.03 Y1034.35 I3. J0.
N7920 G1 X55.13
N7925 Y1010.15
N7930 X44.03
N7935 G3 X41.03 Y1007.15 I0. J-3.
N7940 G1 Y984.752
N7945 G3 X44.03 Y981.752 I3. J0.
N7950 G1 X45.792
N7955 G2 X46.392 Y981.152 I0. J-0.6 F300.
N7960 G1 Y980.552
N7965 G19 G2 Y979.952 Z-15.9 J0. K0.6
N7970 G0 Z5.
N7975 X42.417 Y978.632
N7980 G1 Z-14. F150.33
N7985 Z-17.4
N7990 X42.418 Y978.64 Z-17.494
N7995 X42.422 Y978.661 Z-17.585
N8000 X42.428 Y978.697 Z-17.672
N8005 X42.436 Y978.746 Z-17.753
N8010 X42.446 Y978.806 Z-17.824
N8015 X42.457 Y978.877 Z-17.885
N8020 X42.47 Y978.956 Z-17.935
N8025 X42.484 Y979.042 Z-17.971
N8030 X42.499 Y979.132 Z-17.993
N8035 X42.514 Y979.225 Z-18.
N8040 X42.612 Y979.817 F300.
N8045 G17 G2 X43.301 Y980.311 I0.592 J-0.097
N8050 G3 X44.03 Y980.252 I0.729 J4.441 F650.
N8055 G1 X53.03
N8060 G3 X57.53 Y984.752 I0. J4.5
N8065 G1 Y995.002
N8070 X65.129
N8075 G3 X72.63 Y1002.498 I0.002 J7.499
N8080 G1 Y1002.5
N8085 Y1042.
N8090 G3 X65.13 Y1049.5 I-7.5 J0.
N8095 G1 X57.53
N8100 Y1059.75
N8105 G3 X53.03 Y1064.25 I-4.5 J0.
N8110 G1 X44.03
N8115 G3 X39.53 Y1059.75 I0. J-4.5
N8120 G1 Y1037.35
N8125 G3 X44.03 Y1032.85 I4.5 J0.
N8130 G1 X53.63
N8135 Y1011.65
N8140 X44.03
N8145 G3 X39.53 Y1007.15 I0. J-4.5
N8150 G1 Y984.752
N8155 G3 X43.301 Y980.311 I4.5 J0.
N8160 X44.576 Y980.981 I0.194 J1.18
N8165 G2 X45.792 Y981.752 I1.216 J-0.574
N8170 G1 X53.03
N8175 G3 X56.03 Y984.752 I0. J3.
N8180 G1 Y996.502
N8185 X65.13
N8190 G3 X71.13 Y1002.499 I0.001 J5.999
N8195 G1 Y1002.5
N8200 Y1042.
N8205 G3 X65.13 Y1048. I-6. J0.
N8210 G1 X56.03
N8215 Y1059.75
N8220 G3 X53.03 Y1062.75 I-3. J0.
N8225 G1 X44.03
N8230 G3 X41.03 Y1059.75 I0. J-3.
N8235 G1 Y1045.07
N8240 Y1037.35
N8245 G3 X44.03 Y1034.35 I3. J0.
N8250 G1 X55.13
N8255 Y1010.15
N8260 X44.03
N8265 G3 X41.03 Y1007.15 I0. J-3.
N8270 G1 Y984.752
N8275 G3 X44.03 Y981.752 I3. J0.
N8280 G1 X45.792
N8285 G2 X46.392 Y981.152 I0. J-0.6 F300.
N8290 G1 Y980.552
N8295 G19 G2 Y979.952 Z-17.4 J0. K0.6
N8300 G0 Z5.
N8305 X42.417 Y978.632
N8310 G1 Z-15.5 F150.33
N8315 Z-18.9
N8320 X42.418 Y978.64 Z-18.994
N8325 X42.422 Y978.661 Z-19.085
N8330 X42.428 Y978.697 Z-19.172
N8335 X42.436 Y978.746 Z-19.253
N8340 X42.446 Y978.806 Z-19.324
N8345 X42.457 Y978.877 Z-19.385
N8350 X42.47 Y978.956 Z-19.435
N8355 X42.484 Y979.042 Z-19.471
N8360 X42.499 Y979.132 Z-19.493
N8365 X42.514 Y979.225 Z-19.5
N8370 X42.612 Y979.817 F300.
N8375 G17 G2 X43.301 Y980.311 I0.592 J-0.097
N8380 G3 X44.03 Y980.252 I0.729 J4.441 F650.
N8385 G1 X53.03
N8390 G3 X57.53 Y984.752 I0. J4.5
N8395 G1 Y995.002
N8400 X65.129
N8405 G3 X72.63 Y1002.498 I0.002 J7.499
N8410 G1 Y1002.5
N8415 Y1042.
N8420 G3 X65.13 Y1049.5 I-7.5 J0.
N8425 G1 X57.53
N8430 Y1059.75
N8435 G3 X53.03 Y1064.25 I-4.5 J0.
N8440 G1 X44.03
N8445 G3 X39.53 Y1059.75 I0. J-4.5
N8450 G1 Y1037.35
N8455 G3 X44.03 Y1032.85 I4.5 J0.
N8460 G1 X53.63
N8465 Y1011.65
N8470 X44.03
N8475 G3 X39.53 Y1007.15 I0. J-4.5
N8480 G1 Y984.752
N8485 G3 X43.301 Y980.311 I4.5 J0.
N8490 X44.576 Y980.981 I0.194 J1.18
N8495 G2 X45.792 Y981.752 I1.216 J-0.574
N8500 G1 X53.03
N8505 G3 X56.03 Y984.752 I0. J3.
N8510 G1 Y996.502
N8515 X65.13
N8520 G3 X71.13 Y1002.499 I0.001 J5.999
N8525 G1 Y1002.5
N8530 Y1042.
N8535 G3 X65.13 Y1048. I-6. J0.
N8540 G1 X56.03
N8545 Y1059.75
N8550 G3 X53.03 Y1062.75 I-3. J0.
N8555 G1 X44.03
N8560 G3 X41.03 Y1059.75 I0. J-3.
N8565 G1 Y1045.07
N8570 Y1037.35
N8575 G3 X44.03 Y1034.35 I3. J0.
N8580 G1 X55.13
N8585 Y1010.15
N8590 X44.03
N8595 G3 X41.03 Y1007.15 I0. J-3.
N8600 G1 Y984.752
N8605 G3 X44.03 Y981.752 I3. J0.
N8610 G1 X45.792
N8615 G2 X46.392 Y981.152 I0. J-0.6 F300.
N8620 G1 Y980.552
N8625 G19 G2 Y979.952 Z-18.9 J0. K0.6
N8630 G0 Z5.
N8635 X42.417 Y978.632
N8640 G1 Z-17. F150.33
N8645 Z-20.4
N8650 X42.418 Y978.64 Z-20.494
N8655 X42.422 Y978.661 Z-20.585
N8660 X42.428 Y978.697 Z-20.672
N8665 X42.436 Y978.746 Z-20.753
N8670 X42.446 Y978.806 Z-20.824
N8675 X42.457 Y978.877 Z-20.885
N8680 X42.47 Y978.956 Z-20.935
N8685 X42.484 Y979.042 Z-20.971
N8690 X42.499 Y979.132 Z-20.993
N8695 X42.514 Y979.225 Z-21.
N8700 X42.612 Y979.817 F300.
N8705 G17 G2 X43.301 Y980.311 I0.592 J-0.097
N8710 G3 X44.03 Y980.252 I0.729 J4.441 F650.
N8715 G1 X53.03
N8720 G3 X57.53 Y984.752 I0. J4.5
N8725 G1 Y995.002
N8730 X65.129
N8735 G3 X72.63 Y1002.498 I0.002 J7.499
N8740 G1 Y1002.5
N8745 Y1042.
N8750 G3 X65.13 Y1049.5 I-7.5 J0.
N8755 G1 X57.53
N8760 Y1059.75
N8765 G3 X54.562 Y1063.981 I-4.5 J0.
N8770 G1 Z-20.5
N8775 G3 X53.03 Y1064.25 I-1.532 J-4.231
N8780 G1 X44.03
N8785 G3 X42.562 Y1064.004 I0. J-4.5
N8790 G1 Z-21. F150.33
N8795 G3 X39.53 Y1059.75 I1.468 J-4.254 F650.
N8800 G1 Y1037.35
N8805 G3 X44.03 Y1032.85 I4.5 J0.
N8810 G1 X53.63
N8815 Y1031.18
N8820 Z-20.5
N8825 Y1019.18
N8830 Z-21. F150.33
N8835 Y1011.65 F650.
N8840 X44.03
N8845 G3 X39.53 Y1007.15 I0. J-4.5
N8850 G1 Y984.752
N8855 G3 X43.301 Y980.311 I4.5 J0.
N8860 X44.576 Y980.981 I0.194 J1.18
N8865 G2 X45.792 Y981.752 I1.216 J-0.574
N8870 G1 X53.03
N8875 G3 X56.03 Y984.752 I0. J3.
N8880 G1 Y996.502
N8885 X65.13
N8890 G3 X71.13 Y1002.499 I0.001 J5.999
N8895 G1 Y1002.5
N8900 Y1042.
N8905 G3 X65.13 Y1048. I-6. J0.
N8910 G1 X56.03
N8915 Y1059.75
N8920 G3 X54.562 Y1062.329 I-3. J0.
N8925 G1 Z-20.5
N8930 G3 X53.03 Y1062.75 I-1.532 J-2.579
N8935 G1 X44.03
N8940 G3 X42.562 Y1062.366 I0. J-3.
N8945 G1 Z-21. F150.33
N8950 G3 X41.03 Y1059.75 I1.468 J-2.616 F650.
N8955 G1 Y1037.35
N8960 G3 X44.03 Y1034.35 I3. J0.
N8965 G1 X55.13
N8970 Y1031.18
N8975 Z-20.5
N8980 Y1019.18
N8985 Z-21. F150.33
N8990 Y1010.15 F650.
N8995 X44.03
N9000 G3 X41.03 Y1007.15 I0. J-3.
N9005 G1 Y984.752
N9010 G3 X44.03 Y981.752 I3. J0.
N9015 G1 X45.792
N9020 G2 X46.392 Y981.152 I0. J-0.6 F300.
N9025 G1 Y980.552
N9030 G19 G2 Y979.952 Z-20.4 J0. K0.6
N9035 G0 Z5.
N9040 X42.417 Y978.632
N9045 G1 Z-18.5 F150.33
N9050 Z-21.9
N9055 X42.418 Y978.64 Z-21.994
N9060 X42.422 Y978.661 Z-22.085
N9065 X42.428 Y978.697 Z-22.172
N9070 X42.436 Y978.746 Z-22.253
N9075 X42.446 Y978.806 Z-22.324
N9080 X42.457 Y978.877 Z-22.385
N9085 X42.47 Y978.956 Z-22.435
N9090 X42.484 Y979.042 Z-22.471
N9095 X42.499 Y979.132 Z-22.493
N9100 X42.514 Y979.225 Z-22.5
N9105 X42.612 Y979.817 F300.
N9110 G17 G2 X43.301 Y980.311 I0.592 J-0.097
N9115 G3 X44.03 Y980.252 I0.729 J4.441 F650.
N9120 G1 X53.03
N9125 G3 X57.53 Y984.752 I0. J4.5
N9130 G1 Y995.002
N9135 X65.129
N9140 G3 X72.63 Y1002.498 I0.002 J7.499
N9145 G1 Y1002.5
N9150 Y1042.
N9155 G3 X65.13 Y1049.5 I-7.5 J0.
N9160 G1 X57.53
N9165 Y1059.75
N9170 G3 X54.562 Y1063.981 I-4.5 J0.
N9175 G1 Z-20.5
N9180 G3 X53.03 Y1064.25 I-1.532 J-4.231
N9185 G1 X44.03
N9190 G3 X42.562 Y1064.004 I0. J-4.5
N9195 G1 Z-22.5 F150.33
N9200 G3 X39.53 Y1059.75 I1.468 J-4.254 F650.
N9205 G1 Y1037.35
N9210 G3 X44.03 Y1032.85 I4.5 J0.
N9215 G1 X53.63
N9220 Y1031.18
N9225 Z-20.5
N9230 Y1019.18
N9235 Z-22.5 F150.33
N9240 Y1011.65 F650.
N9245 X44.03
N9250 G3 X39.53 Y1007.15 I0. J-4.5
N9255 G1 Y984.752
N9260 G3 X43.301 Y980.311 I4.5 J0.
N9265 X44.576 Y980.981 I0.194 J1.18
N9270 G2 X45.792 Y981.752 I1.216 J-0.574
N9275 G1 X53.03
N9280 G3 X56.03 Y984.752 I0. J3.
N9285 G1 Y996.502
N9290 X65.13
N9295 G3 X71.13 Y1002.499 I0.001 J5.999
N9300 G1 Y1002.5
N9305 Y1042.
N9310 G3 X65.13 Y1048. I-6. J0.
N9315 G1 X56.03
N9320 Y1059.75
N9325 G3 X54.562 Y1062.329 I-3. J0.
N9330 G1 Z-20.5
N9335 G3 X53.03 Y1062.75 I-1.532 J-2.579
N9340 G1 X44.03
N9345 G3 X42.562 Y1062.366 I0. J-3.
N9350 G1 Z-22.5 F150.33
N9355 G3 X41.03 Y1059.75 I1.468 J-2.616 F650.
N9360 G1 Y1037.35
N9365 G3 X44.03 Y1034.35 I3. J0.
N9370 G1 X55.13
N9375 Y1031.18
N9380 Z-20.5
N9385 Y1019.18
N9390 Z-22.5 F150.33
N9395 Y1010.15 F650.
N9400 X44.03
N9405 G3 X41.03 Y1007.15 I0. J-3.
N9410 G1 Y984.752
N9415 G3 X44.03 Y981.752 I3. J0.
N9420 G1 X45.792
N9425 G2 X46.392 Y981.152 I0. J-0.6 F300.
N9430 G1 Y980.552
N9435 G19 G2 Y979.952 Z-21.9 J0. K0.6
N9440 G0 Z5.
N9445 X44.686 Y964.437
N9450 G1 Z2.5 F150.33
N9455 Z-0.9
N9460 X44.688 Y964.43 Z-0.994
N9465 X44.695 Y964.409 Z-1.085
N9470 X44.706 Y964.374 Z-1.172
N9475 X44.722 Y964.328 Z-1.253
N9480 X44.741 Y964.27 Z-1.324
N9485 X44.763 Y964.202 Z-1.385
N9490 X44.788 Y964.125 Z-1.435
N9495 X44.815 Y964.043 Z-1.471
N9500 X44.844 Y963.956 Z-1.493
N9505 X44.873 Y963.867 Z-1.5
N9510 X45.061 Y963.297 F300.
N9515 G17 G2 X44.678 Y962.539 I-0.57 J-0.187
N9520 G3 X41.582 Y958.264 I1.404 J-4.275 F650.
N9525 G1 Y939.938
N9530 G3 X45.848 Y935.444 I4.5 J0.
N9535 G2 Y906.084 I-0.766 J-14.68
N9540 G3 X41.582 Y901.59 I0.234 J-4.494
N9545 G1 Y883.264
N9550 G3 X46.082 Y878.764 I4.5 J0.
N9555 G1 X55.082
N9560 G3 X59.582 Y883.264 I0. J4.5
N9565 G1 Y893.931
N9570 G3 Y947.597 I-14.5 J26.833
N9575 G1 Y958.264
N9580 G3 X55.082 Y962.764 I-4.5 J0.
N9585 G1 X46.082
N9590 G3 X44.678 Y962.539 I0. J-4.5
N9595 X43.798 Y961.241 I0.4 J-1.219
N9600 G2 X43.454 Y959.711 I-2.806 J-0.174
N9605 G3 X43.082 Y958.264 I2.628 J-1.447
N9610 G1 Y939.938
N9615 G3 X45.926 Y936.942 I3. J0.
N9620 G2 Y904.586 I-0.844 J-16.178
N9625 G3 X43.082 Y901.59 I0.156 J-2.996
N9630 G1 Y883.264
N9635 G3 X46.082 Y880.264 I3. J0.
N9640 G1 X55.082
N9645 G3 X58.082 Y883.264 I0. J3.
N9650 G1 Y894.841
N9655 G3 Y946.687 I-13. J25.923
N9660 G1 Y958.264
N9665 G3 X55.082 Y961.264 I-3. J0.
N9670 G1 X46.082
N9675 G3 X43.454 Y959.711 I0. J-3.
N9680 G2 X42.639 Y959.475 I-0.526 J0.289 F300.
N9685 G1 X42.114 Y959.765
N9690 X42.031 Y959.81 Z-1.493
N9695 X41.951 Y959.854 Z-1.471
N9700 X41.875 Y959.896 Z-1.435
N9705 X41.805 Y959.935 Z-1.385
N9710 X41.742 Y959.969 Z-1.324
N9715 X41.689 Y959.999 Z-1.253
N9720 X41.645 Y960.023 Z-1.172
N9725 X41.614 Y960.04 Z-1.085
N9730 X41.595 Y960.051 Z-0.994
N9735 X41.588 Y960.054 Z-0.9
N9740 G0 Z5.
N9745 X32.758 Y951.639
N9750 G1 Z2.5 F150.33
N9755 Z-0.9
N9760 X32.757 Y951.632 Z-0.994
N9765 X32.753 Y951.61 Z-1.085
N9770 X32.747 Y951.575 Z-1.172
N9775 X32.74 Y951.526 Z-1.253
N9780 X32.73 Y951.466 Z-1.324
N9785 X32.719 Y951.395 Z-1.385
N9790 X32.706 Y951.316 Z-1.435
N9795 X32.692 Y951.23 Z-1.471
N9800 X32.678 Y951.139 Z-1.493
N9805 X32.663 Y951.047 Z-1.5
N9810 X32.568 Y950.454 F300.
N9815 G2 X31.881 Y949.956 I-0.592 J0.095
N9820 G3 X31.17 Y950.013 I-0.711 J-4.443 F650.
N9825 G1 X22.17
N9830 G3 X17.67 Y945.513 I0. J-4.5
N9835 G1 Y934.846
N9840 G3 Y881.18 I14.5 J-26.833
N9845 G1 Y870.513
N9850 G3 X22.17 Y866.013 I4.5 J0.
N9855 G1 X31.17
N9860 G3 X35.67 Y870.513 I0. J4.5
N9865 G1 Y888.839
N9870 G3 X31.404 Y893.333 I-4.5 J0.
N9875 G2 Y922.693 I0.766 J14.68
N9880 G3 X35.67 Y927.187 I-0.234 J4.494
N9885 G1 Y945.513
N9890 G3 X31.881 Y949.956 I-4.5 J0.
N9895 X30.61 Y949.284 I-0.189 J-1.181
N9900 G2 X29.396 Y948.513 I-1.214 J0.57
N9905 G1 X22.17
N9910 G3 X19.17 Y945.513 I0. J-3.
N9915 G1 Y933.936
N9920 G3 Y882.09 I13. J-25.923
N9925 G1 Y870.513
N9930 G3 X22.17 Y867.513 I3. J0.
N9935 G1 X31.17
N9940 G3 X34.17 Y870.513 I0. J3.
N9945 G1 Y888.839
N9950 G3 X31.326 Y891.835 I-3. J0.
N9955 G2 Y924.191 I0.844 J16.178
N9960 G3 X34.17 Y927.187 I-0.156 J2.996
N9965 G1 Y945.513
N9970 G3 X31.17 Y948.513 I-3. J0.
N9975 G1 X29.396
N9980 G2 X28.796 Y949.113 I0. J0.6 F300.
N9985 G1 Y949.713
N9990 G19 G3 Y950.313 Z-0.9 J0. K0.6
N9995 G0 Z5.
N10000 X32.758 Y951.639
N10005 G1 Z1. F150.33
N10010 Z-2.4
N10015 X32.757 Y951.632 Z-2.494
N10020 X32.753 Y951.61 Z-2.585
N10025 X32.747 Y951.575 Z-2.672
N10030 X32.74 Y951.526 Z-2.753
N10035 X32.73 Y951.466 Z-2.824
N10040 X32.719 Y951.395 Z-2.885
N10045 X32.706 Y951.316 Z-2.935
N10050 X32.692 Y951.23 Z-2.971
N10055 X32.678 Y951.139 Z-2.993
N10060 X32.663 Y951.047 Z-3.
N10065 X32.568 Y950.454 F300.
N10070 G17 G2 X31.881 Y949.956 I-0.592 J0.095
N10075 G3 X31.17 Y950.013 I-0.711 J-4.443 F650.
N10080 G1 X22.17
N10085 G3 X17.67 Y945.513 I0. J-4.5
N10090 G1 Y934.846
N10095 G3 Y881.18 I14.5 J-26.833
N10100 G1 Y870.513
N10105 G3 X22.17 Y866.013 I4.5 J0.
N10110 G1 X31.17
N10115 G3 X35.67 Y870.513 I0. J4.5
N10120 G1 Y888.839
N10125 G3 X31.404 Y893.333 I-4.5 J0.
N10130 G2 Y922.693 I0.766 J14.68
N10135 G3 X35.67 Y927.187 I-0.234 J4.494
N10140 G1 Y945.513
N10145 G3 X31.881 Y949.956 I-4.5 J0.
N10150 X30.61 Y949.284 I-0.189 J-1.181
N10155 G2 X29.396 Y948.513 I-1.214 J0.57
N10160 G1 X22.17
N10165 G3 X19.17 Y945.513 I0. J-3.
N10170 G1 Y933.936
N10175 G3 Y882.09 I13. J-25.923
N10180 G1 Y870.513
N10185 G3 X22.17 Y867.513 I3. J0.
N10190 G1 X31.17
N10195 G3 X34.17 Y870.513 I0. J3.
N10200 G1 Y888.839
N10205 G3 X31.326 Y891.835 I-3. J0.
N10210 G2 Y924.191 I0.844 J16.178
N10215 G3 X34.17 Y927.187 I-0.156 J2.996
N10220 G1 Y945.513
N10225 G3 X31.17 Y948.513 I-3. J0.
N10230 G1 X29.396
N10235 G2 X28.796 Y949.113 I0. J0.6 F300.
N10240 G1 Y949.713
N10245 G19 G3 Y950.313 Z-2.4 J0. K0.6
N10250 G0 Z5.
N10255 X39.782 Y958.829
N10260 G1 Z1. F150.33
N10265 Z-2.4
N10270 G18 G2 X40.382 Z-3. I0.6 K0.
N10275 G1 X40.982 F300.
N10280 G17 G2 X41.582 Y958.229 I0. J-0.6
N10285 G1 Y939.938 F650.
N10290 G3 X45.848 Y935.444 I4.5 J0.
N10295 G2 Y906.084 I-0.766 J-14.68
N10300 G3 X41.582 Y901.59 I0.234 J-4.494
N10305 G1 Y883.264
N10310 G3 X46.082 Y878.764 I4.5 J0.
N10315 G1 X55.082
N10320 G3 X59.582 Y883.264 I0. J4.5
N10325 G1 Y893.931
N10330 G3 Y947.597 I-14.5 J26.833
N10335 G1 Y958.264
N10340 G3 X55.082 Y962.764 I-4.5 J0.
N10345 G1 X46.082
N10350 G3 X41.582 Y958.264 I0. J-4.5
N10355 G1 Y958.229
N10360 G3 X42.332 Y957.104 I1.219 J0.
N10365 G2 X43.082 Y955.979 I-0.469 J-1.125
N10370 G1 Y939.938
N10375 G3 X45.926 Y936.942 I3. J0.
N10380 G2 Y904.586 I-0.844 J-16.178
N10385 G3 X43.082 Y901.59 I0.156 J-2.996
N10390 G1 Y883.264
N10395 G3 X46.082 Y880.264 I3. J0.
N10400 G1 X55.082
N10405 G3 X58.082 Y883.264 I0. J3.
N10410 G1 Y894.841
N10415 G3 Y946.687 I-13. J25.923
N10420 G1 Y958.264
N10425 G3 X55.082 Y961.264 I-3. J0.
N10430 G1 X46.082
N10435 G3 X43.082 Y958.264 I0. J-3.
N10440 G1 Y955.979
N10445 G2 X42.482 Y955.379 I-0.6 J0. F300.
N10450 G1 X41.882
N10455 G18 G3 X41.282 Z-2.4 I0. K0.6
N10460 G0 Z5.
N10465 X39.782 Y958.829
N10470 G1 Z-0.5 F150.33
N10475 Z-3.9
N10480 G2 X40.382 Z-4.5 I0.6 K0.
N10485 G1 X40.982 F300.
N10490 G17 G2 X41.582 Y958.229 I0. J-0.6
N10495 G1 Y939.938 F650.
N10500 G3 X45.848 Y935.444 I4.5 J0.
N10505 G2 Y906.084 I-0.766 J-14.68
N10510 G3 X41.582 Y901.59 I0.234 J-4.494
N10515 G1 Y883.264
N10520 G3 X46.082 Y878.764 I4.5 J0.
N10525 G1 X55.082
N10530 G3 X59.582 Y883.264 I0. J4.5
N10535 G1 Y893.931
N10540 G3 Y947.597 I-14.5 J26.833
N10545 G1 Y958.264
N10550 G3 X55.082 Y962.764 I-4.5 J0.
N10555 G1 X46.082
N10560 G3 X41.582 Y958.264 I0. J-4.5
N10565 G1 Y958.229
N10570 G3 X42.332 Y957.104 I1.219 J0.
N10575 G2 X43.082 Y955.979 I-0.469 J-1.125
N10580 G1 Y939.938
N10585 G3 X45.926 Y936.942 I3. J0.
N10590 G2 Y904.586 I-0.844 J-16.178
N10595 G3 X43.082 Y901.59 I0.156 J-2.996
N10600 G1 Y883.264
N10605 G3 X46.082 Y880.264 I3. J0.
N10610 G1 X55.082
N10615 G3 X58.082 Y883.264 I0. J3.
N10620 G1 Y894.841
N10625 G3 Y946.687 I-13. J25.923
N10630 G1 Y958.264
N10635 G3 X55.082 Y961.264 I-3. J0.
N10640 G1 X46.082
N10645 G3 X43.082 Y958.264 I0. J-3.
N10650 G1 Y955.979
N10655 G2 X42.482 Y955.379 I-0.6 J0. F300.
N10660 G1 X41.882
N10665 G18 G3 X41.282 Z-3.9 I0. K0.6
N10670 G0 Z5.
N10675 X32.758 Y951.639
N10680 G1 Z-0.5 F150.33
N10685 Z-3.9
N10690 X32.757 Y951.632 Z-3.994
N10695 X32.753 Y951.61 Z-4.085
N10700 X32.747 Y951.575 Z-4.172
N10705 X32.74 Y951.526 Z-4.253
N10710 X32.73 Y951.466 Z-4.324
N10715 X32.719 Y951.395 Z-4.385
N10720 X32.706 Y951.316 Z-4.435
N10725 X32.692 Y951.23 Z-4.471
N10730 X32.678 Y951.139 Z-4.493
N10735 X32.663 Y951.047 Z-4.5
N10740 X32.568 Y950.454 F300.
N10745 G17 G2 X31.881 Y949.956 I-0.592 J0.095
N10750 G3 X31.17 Y950.013 I-0.711 J-4.443 F650.
N10755 G1 X22.17
N10760 G3 X17.67 Y945.513 I0. J-4.5
N10765 G1 Y934.846
N10770 G3 Y881.18 I14.5 J-26.833
N10775 G1 Y870.513
N10780 G3 X22.17 Y866.013 I4.5 J0.
N10785 G1 X31.17
N10790 G3 X35.67 Y870.513 I0. J4.5
N10795 G1 Y888.839
N10800 G3 X31.404 Y893.333 I-4.5 J0.
N10805 G2 Y922.693 I0.766 J14.68
N10810 G3 X35.67 Y927.187 I-0.234 J4.494
N10815 G1 Y945.513
N10820 G3 X31.881 Y949.956 I-4.5 J0.
N10825 X30.61 Y949.284 I-0.189 J-1.181
N10830 G2 X29.396 Y948.513 I-1.214 J0.57
N10835 G1 X22.17
N10840 G3 X19.17 Y945.513 I0. J-3.
N10845 G1 Y933.936
N10850 G3 Y882.09 I13. J-25.923
N10855 G1 Y870.513
N10860 G3 X22.17 Y867.513 I3. J0.
N10865 G1 X31.17
N10870 G3 X34.17 Y870.513 I0. J3.
N10875 G1 Y888.839
N10880 G3 X31.326 Y891.835 I-3. J0.
N10885 G2 Y924.191 I0.844 J16.178
N10890 G3 X34.17 Y927.187 I-0.156 J2.996
N10895 G1 Y945.513
N10900 G3 X31.17 Y948.513 I-3. J0.
N10905 G1 X29.396
N10910 G2 X28.796 Y949.113 I0. J0.6 F300.
N10915 G1 Y949.713
N10920 G19 G3 Y950.313 Z-3.9 J0. K0.6
N10925 G0 Z5.
N10930 X32.758 Y951.639
N10935 G1 Z-2. F150.33
N10940 Z-5.4
N10945 X32.757 Y951.632 Z-5.494
N10950 X32.753 Y951.61 Z-5.585
N10955 X32.747 Y951.575 Z-5.672
N10960 X32.74 Y951.526 Z-5.753
N10965 X32.73 Y951.466 Z-5.824
N10970 X32.719 Y951.395 Z-5.885
N10975 X32.706 Y951.316 Z-5.935
N10980 X32.692 Y951.23 Z-5.971
N10985 X32.678 Y951.139 Z-5.993
N10990 X32.663 Y951.047 Z-6.
N10995 X32.568 Y950.454 F300.
N11000 G17 G2 X31.881 Y949.956 I-0.592 J0.095
N11005 G3 X31.17 Y950.013 I-0.711 J-4.443 F650.
N11010 G1 X22.17
N11015 G3 X17.67 Y945.513 I0. J-4.5
N11020 G1 Y934.846
N11025 G3 Y881.18 I14.5 J-26.833
N11030 G1 Y870.513
N11035 G3 X22.17 Y866.013 I4.5 J0.
N11040 G1 X31.17
N11045 G3 X35.67 Y870.513 I0. J4.5
N11050 G1 Y888.839
N11055 G3 X31.404 Y893.333 I-4.5 J0.
N11060 G2 Y922.693 I0.766 J14.68
N11065 G3 X35.67 Y927.187 I-0.234 J4.494
N11070 G1 Y945.513
N11075 G3 X31.881 Y949.956 I-4.5 J0.
N11080 X30.61 Y949.284 I-0.189 J-1.181
N11085 G2 X29.396 Y948.513 I-1.214 J0.57
N11090 G1 X22.17
N11095 G3 X19.17 Y945.513 I0. J-3.
N11100 G1 Y933.936
N11105 G3 Y882.09 I13. J-25.923
N11110 G1 Y870.513
N11115 G3 X22.17 Y867.513 I3. J0.
N11120 G1 X31.17
N11125 G3 X34.17 Y870.513 I0. J3.
N11130 G1 Y888.839
N11135 G3 X31.326 Y891.835 I-3. J0.
N11140 G2 Y924.191 I0.844 J16.178
N11145 G3 X34.17 Y927.187 I-0.156 J2.996
N11150 G1 Y945.513
N11155 G3 X31.17 Y948.513 I-3. J0.
N11160 G1 X29.396
N11165 G2 X28.796 Y949.113 I0. J0.6 F300.
N11170 G1 Y949.713
N11175 G19 G3 Y950.313 Z-5.4 J0. K0.6
N11180 G0 Z5.
N11185 X39.782 Y958.829
N11190 G1 Z-2. F150.33
N11195 Z-5.4
N11200 G18 G2 X40.382 Z-6. I0.6 K0.
N11205 G1 X40.982 F300.
N11210 G17 G2 X41.582 Y958.229 I0. J-0.6
N11215 G1 Y939.938 F650.
N11220 G3 X45.848 Y935.444 I4.5 J0.
N11225 G2 Y906.084 I-0.766 J-14.68
N11230 G3 X41.582 Y901.59 I0.234 J-4.494
N11235 G1 Y883.264
N11240 G3 X46.082 Y878.764 I4.5 J0.
N11245 G1 X55.082
N11250 G3 X59.582 Y883.264 I0. J4.5
N11255 G1 Y893.931
N11260 G3 Y947.597 I-14.5 J26.833
N11265 G1 Y958.264
N11270 G3 X55.082 Y962.764 I-4.5 J0.
N11275 G1 X46.082
N11280 G3 X41.582 Y958.264 I0. J-4.5
N11285 G1 Y958.229
N11290 G3 X42.332 Y957.104 I1.219 J0.
N11295 G2 X43.082 Y955.979 I-0.469 J-1.125
N11300 G1 Y939.938
N11305 G3 X45.926 Y936.942 I3. J0.
N11310 G2 Y904.586 I-0.844 J-16.178
N11315 G3 X43.082 Y901.59 I0.156 J-2.996
N11320 G1 Y883.264
N11325 G3 X46.082 Y880.264 I3. J0.
N11330 G1 X55.082
N11335 G3 X58.082 Y883.264 I0. J3.
N11340 G1 Y894.841
N11345 G3 Y946.687 I-13. J25.923
N11350 G1 Y958.264
N11355 G3 X55.082 Y961.264 I-3. J0.
N11360 G1 X46.082
N11365 G3 X43.082 Y958.264 I0. J-3.
N11370 G1 Y955.979
N11375 G2 X42.482 Y955.379 I-0.6 J0. F300.
N11380 G1 X41.882
N11385 G18 G3 X41.282 Z-5.4 I0. K0.6
N11390 G0 Z5.
N11395 X39.782 Y958.829
N11400 G1 Z-3.5 F150.33
N11405 Z-6.9
N11410 G2 X40.382 Z-7.5 I0.6 K0.
N11415 G1 X40.982 F300.
N11420 G17 G2 X41.582 Y958.229 I0. J-0.6
N11425 G1 Y939.938 F650.
N11430 G3 X45.848 Y935.444 I4.5 J0.
N11435 G2 Y906.084 I-0.766 J-14.68
N11440 G3 X41.582 Y901.59 I0.234 J-4.494
N11445 G1 Y883.264
N11450 G3 X46.082 Y878.764 I4.5 J0.
N11455 G1 X55.082
N11460 G3 X59.582 Y883.264 I0. J4.5
N11465 G1 Y893.931
N11470 G3 Y947.597 I-14.5 J26.833
N11475 G1 Y958.264
N11480 G3 X55.082 Y962.764 I-4.5 J0.
N11485 G1 X46.082
N11490 G3 X41.582 Y958.264 I0. J-4.5
N11495 G1 Y958.229
N11500 G3 X42.332 Y957.104 I1.219 J0.
N11505 G2 X43.082 Y955.979 I-0.469 J-1.125
N11510 G1 Y939.938
N11515 G3 X45.926 Y936.942 I3. J0.
N11520 G2 Y904.586 I-0.844 J-16.178
N11525 G3 X43.082 Y901.59 I0.156 J-2.996
N11530 G1 Y883.264
N11535 G3 X46.082 Y880.264 I3. J0.
N11540 G1 X55.082
N11545 G3 X58.082 Y883.264 I0. J3.
N11550 G1 Y894.841
N11555 G3 Y946.687 I-13. J25.923
N11560 G1 Y958.264
N11565 G3 X55.082 Y961.264 I-3. J0.
N11570 G1 X46.082
N11575 G3 X43.082 Y958.264 I0. J-3.
N11580 G1 Y955.979
N11585 G2 X42.482 Y955.379 I-0.6 J0. F300.
N11590 G1 X41.882
N11595 G18 G3 X41.282 Z-6.9 I0. K0.6
N11600 G0 Z5.
N11605 X32.758 Y951.639
N11610 G1 Z-3.5 F150.33
N11615 Z-6.9
N11620 X32.757 Y951.632 Z-6.994
N11625 X32.753 Y951.61 Z-7.085
N11630 X32.747 Y951.575 Z-7.172
N11635 X32.74 Y951.526 Z-7.253
N11640 X32.73 Y951.466 Z-7.324
N11645 X32.719 Y951.395 Z-7.385
N11650 X32.706 Y951.316 Z-7.435
N11655 X32.692 Y951.23 Z-7.471
N11660 X32.678 Y951.139 Z-7.493
N11665 X32.663 Y951.047 Z-7.5
N11670 X32.568 Y950.454 F300.
N11675 G17 G2 X31.881 Y949.956 I-0.592 J0.095
N11680 G3 X31.17 Y950.013 I-0.711 J-4.443 F650.
N11685 G1 X22.17
N11690 G3 X17.67 Y945.513 I0. J-4.5
N11695 G1 Y934.846
N11700 G3 Y881.18 I14.5 J-26.833
N11705 G1 Y870.513
N11710 G3 X22.17 Y866.013 I4.5 J0.
N11715 G1 X31.17
N11720 G3 X35.67 Y870.513 I0. J4.5
N11725 G1 Y888.839
N11730 G3 X31.404 Y893.333 I-4.5 J0.
N11735 G2 Y922.693 I0.766 J14.68
N11740 G3 X35.67 Y927.187 I-0.234 J4.494
N11745 G1 Y945.513
N11750 G3 X31.881 Y949.956 I-4.5 J0.
N11755 X30.61 Y949.284 I-0.189 J-1.181
N11760 G2 X29.396 Y948.513 I-1.214 J0.57
N11765 G1 X22.17
N11770 G3 X19.17 Y945.513 I0. J-3.
N11775 G1 Y933.936
N11780 G3 Y882.09 I13. J-25.923
N11785 G1 Y870.513
N11790 G3 X22.17 Y867.513 I3. J0.
N11795 G1 X31.17
N11800 G3 X34.17 Y870.513 I0. J3.
N11805 G1 Y888.839
N11810 G3 X31.326 Y891.835 I-3. J0.
N11815 G2 Y924.191 I0.844 J16.178
N11820 G3 X34.17 Y927.187 I-0.156 J2.996
N11825 G1 Y945.513
N11830 G3 X31.17 Y948.513 I-3. J0.
N11835 G1 X29.396
N11840 G2 X28.796 Y949.113 I0. J0.6 F300.
N11845 G1 Y949.713
N11850 G19 G3 Y950.313 Z-6.9 J0. K0.6
N11855 G0 Z5.
N11860 X32.758 Y951.639
N11865 G1 Z-5. F150.33
N11870 Z-8.4
N11875 X32.757 Y951.632 Z-8.494
N11880 X32.753 Y951.61 Z-8.585
N11885 X32.747 Y951.575 Z-8.672
N11890 X32.74 Y951.526 Z-8.753
N11895 X32.73 Y951.466 Z-8.824
N11900 X32.719 Y951.395 Z-8.885
N11905 X32.706 Y951.316 Z-8.935
N11910 X32.692 Y951.23 Z-8.971
N11915 X32.678 Y951.139 Z-8.993
N11920 X32.663 Y951.047 Z-9.
N11925 X32.568 Y950.454 F300.
N11930 G17 G2 X31.881 Y949.956 I-0.592 J0.095
N11935 G3 X31.17 Y950.013 I-0.711 J-4.443 F650.
N11940 G1 X22.17
N11945 G3 X17.67 Y945.513 I0. J-4.5
N11950 G1 Y934.846
N11955 G3 Y881.18 I14.5 J-26.833
N11960 G1 Y870.513
N11965 G3 X22.17 Y866.013 I4.5 J0.
N11970 G1 X31.17
N11975 G3 X35.67 Y870.513 I0. J4.5
N11980 G1 Y888.839
N11985 G3 X31.404 Y893.333 I-4.5 J0.
N11990 G2 Y922.693 I0.766 J14.68
N11995 G3 X35.67 Y927.187 I-0.234 J4.494
N12000 G1 Y945.513
N12005 G3 X31.881 Y949.956 I-4.5 J0.
N12010 X30.61 Y949.284 I-0.189 J-1.181
N12015 G2 X29.396 Y948.513 I-1.214 J0.57
N12020 G1 X22.17
N12025 G3 X19.17 Y945.513 I0. J-3.
N12030 G1 Y933.936
N12035 G3 Y882.09 I13. J-25.923
N12040 G1 Y870.513
N12045 G3 X22.17 Y867.513 I3. J0.
N12050 G1 X31.17
N12055 G3 X34.17 Y870.513 I0. J3.
N12060 G1 Y888.839
N12065 G3 X31.326 Y891.835 I-3. J0.
N12070 G2 Y924.191 I0.844 J16.178
N12075 G3 X34.17 Y927.187 I-0.156 J2.996
N12080 G1 Y945.513
N12085 G3 X31.17 Y948.513 I-3. J0.
N12090 G1 X29.396
N12095 G2 X28.796 Y949.113 I0. J0.6 F300.
N12100 G1 Y949.713
N12105 G19 G3 Y950.313 Z-8.4 J0. K0.6
N12110 G0 Z5.
N12115 X39.782 Y958.829
N12120 G1 Z-5. F150.33
N12125 Z-8.4
N12130 G18 G2 X40.382 Z-9. I0.6 K0.
N12135 G1 X40.982 F300.
N12140 G17 G2 X41.582 Y958.229 I0. J-0.6
N12145 G1 Y939.938 F650.
N12150 G3 X45.848 Y935.444 I4.5 J0.
N12155 G2 Y906.084 I-0.766 J-14.68
N12160 G3 X41.582 Y901.59 I0.234 J-4.494
N12165 G1 Y883.264
N12170 G3 X46.082 Y878.764 I4.5 J0.
N12175 G1 X55.082
N12180 G3 X59.582 Y883.264 I0. J4.5
N12185 G1 Y893.931
N12190 G3 Y947.597 I-14.5 J26.833
N12195 G1 Y958.264
N12200 G3 X55.082 Y962.764 I-4.5 J0.
N12205 G1 X46.082
N12210 G3 X41.582 Y958.264 I0. J-4.5
N12215 G1 Y958.229
N12220 G3 X42.332 Y957.104 I1.219 J0.
N12225 G2 X43.082 Y955.979 I-0.469 J-1.125
N12230 G1 Y939.938
N12235 G3 X45.926 Y936.942 I3. J0.
N12240 G2 Y904.586 I-0.844 J-16.178
N12245 G3 X43.082 Y901.59 I0.156 J-2.996
N12250 G1 Y883.264
N12255 G3 X46.082 Y880.264 I3. J0.
N12260 G1 X55.082
N12265 G3 X58.082 Y883.264 I0. J3.
N12270 G1 Y894.841
N12275 G3 Y946.687 I-13. J25.923
N12280 G1 Y958.264
N12285 G3 X55.082 Y961.264 I-3. J0.
N12290 G1 X46.082
N12295 G3 X43.082 Y958.264 I0. J-3.
N12300 G1 Y955.979
N12305 G2 X42.482 Y955.379 I-0.6 J0. F300.
N12310 G1 X41.882
N12315 G18 G3 X41.282 Z-8.4 I0. K0.6
N12320 G0 Z5.
N12325 X39.782 Y958.829
N12330 G1 Z-6.5 F150.33
N12335 Z-9.9
N12340 G2 X40.382 Z-10.5 I0.6 K0.
N12345 G1 X40.982 F300.
N12350 G17 G2 X41.582 Y958.229 I0. J-0.6
N12355 G1 Y939.938 F650.
N12360 G3 X45.848 Y935.444 I4.5 J0.
N12365 G2 Y906.084 I-0.766 J-14.68
N12370 G3 X41.582 Y901.59 I0.234 J-4.494
N12375 G1 Y883.264
N12380 G3 X46.082 Y878.764 I4.5 J0.
N12385 G1 X55.082
N12390 G3 X59.582 Y883.264 I0. J4.5
N12395 G1 Y893.931
N12400 G3 Y947.597 I-14.5 J26.833
N12405 G1 Y958.264
N12410 G3 X55.082 Y962.764 I-4.5 J0.
N12415 G1 X46.082
N12420 G3 X41.582 Y958.264 I0. J-4.5
N12425 G1 Y958.229
N12430 G3 X42.332 Y957.104 I1.219 J0.
N12435 G2 X43.082 Y955.979 I-0.469 J-1.125
N12440 G1 Y939.938
N12445 G3 X45.926 Y936.942 I3. J0.
N12450 G2 Y904.586 I-0.844 J-16.178
N12455 G3 X43.082 Y901.59 I0.156 J-2.996
N12460 G1 Y883.264
N12465 G3 X46.082 Y880.264 I3. J0.
N12470 G1 X55.082
N12475 G3 X58.082 Y883.264 I0. J3.
N12480 G1 Y894.841
N12485 G3 Y946.687 I-13. J25.923
N12490 G1 Y958.264
N12495 G3 X55.082 Y961.264 I-3. J0.
N12500 G1 X46.082
N12505 G3 X43.082 Y958.264 I0. J-3.
N12510 G1 Y955.979
N12515 G2 X42.482 Y955.379 I-0.6 J0. F300.
N12520 G1 X41.882
N12525 G18 G3 X41.282 Z-9.9 I0. K0.6
N12530 G0 Z5.
N12535 X32.758 Y951.639
N12540 G1 Z-6.5 F150.33
N12545 Z-9.9
N12550 X32.757 Y951.632 Z-9.994
N12555 X32.753 Y951.61 Z-10.085
N12560 X32.747 Y951.575 Z-10.172
N12565 X32.74 Y951.526 Z-10.253
N12570 X32.73 Y951.466 Z-10.324
N12575 X32.719 Y951.395 Z-10.385
N12580 X32.706 Y951.316 Z-10.435
N12585 X32.692 Y951.23 Z-10.471
N12590 X32.678 Y951.139 Z-10.493
N12595 X32.663 Y951.047 Z-10.5
N12600 X32.568 Y950.454 F300.
N12605 G17 G2 X31.881 Y949.956 I-0.592 J0.095
N12610 G3 X31.17 Y950.013 I-0.711 J-4.443 F650.
N12615 G1 X22.17
N12620 G3 X17.67 Y945.513 I0. J-4.5
N12625 G1 Y934.846
N12630 G3 Y881.18 I14.5 J-26.833
N12635 G1 Y870.513
N12640 G3 X22.17 Y866.013 I4.5 J0.
N12645 G1 X31.17
N12650 G3 X35.67 Y870.513 I0. J4.5
N12655 G1 Y888.839
N12660 G3 X31.404 Y893.333 I-4.5 J0.
N12665 G2 Y922.693 I0.766 J14.68
N12670 G3 X35.67 Y927.187 I-0.234 J4.494
N12675 G1 Y945.513
N12680 G3 X31.881 Y949.956 I-4.5 J0.
N12685 X30.61 Y949.284 I-0.189 J-1.181
N12690 G2 X29.396 Y948.513 I-1.214 J0.57
N12695 G1 X22.17
N12700 G3 X19.17 Y945.513 I0. J-3.
N12705 G1 Y933.936
N12710 G3 Y882.09 I13. J-25.923
N12715 G1 Y870.513
N12720 G3 X22.17 Y867.513 I3. J0.
N12725 G1 X31.17
N12730 G3 X34.17 Y870.513 I0. J3.
N12735 G1 Y888.839
N12740 G3 X31.326 Y891.835 I-3. J0.
N12745 G2 Y924.191 I0.844 J16.178
N12750 G3 X34.17 Y927.187 I-0.156 J2.996
N12755 G1 Y945.513
N12760 G3 X31.17 Y948.513 I-3. J0.
N12765 G1 X29.396
N12770 G2 X28.796 Y949.113 I0. J0.6 F300.
N12775 G1 Y949.713
N12780 G19 G3 Y950.313 Z-9.9 J0. K0.6
N12785 G0 Z5.
N12790 X32.758 Y951.639
N12795 G1 Z-8. F150.33
N12800 Z-11.4
N12805 X32.757 Y951.632 Z-11.494
N12810 X32.753 Y951.61 Z-11.585
N12815 X32.747 Y951.575 Z-11.672
N12820 X32.74 Y951.526 Z-11.753
N12825 X32.73 Y951.466 Z-11.824
N12830 X32.719 Y951.395 Z-11.885
N12835 X32.706 Y951.316 Z-11.935
N12840 X32.692 Y951.23 Z-11.971
N12845 X32.678 Y951.139 Z-11.993
N12850 X32.663 Y951.047 Z-12.
N12855 X32.568 Y950.454 F300.
N12860 G17 G2 X31.881 Y949.956 I-0.592 J0.095
N12865 G3 X31.17 Y950.013 I-0.711 J-4.443 F650.
N12870 G1 X22.17
N12875 G3 X17.67 Y945.513 I0. J-4.5
N12880 G1 Y934.846
N12885 G3 Y881.18 I14.5 J-26.833
N12890 G1 Y870.513
N12895 G3 X22.17 Y866.013 I4.5 J0.
N12900 G1 X31.17
N12905 G3 X35.67 Y870.513 I0. J4.5
N12910 G1 Y888.839
N12915 G3 X31.404 Y893.333 I-4.5 J0.
N12920 G2 Y922.693 I0.766 J14.68
N12925 G3 X35.67 Y927.187 I-0.234 J4.494
N12930 G1 Y945.513
N12935 G3 X31.881 Y949.956 I-4.5 J0.
N12940 X30.61 Y949.284 I-0.189 J-1.181
N12945 G2 X29.396 Y948.513 I-1.214 J0.57
N12950 G1 X22.17
N12955 G3 X19.17 Y945.513 I0. J-3.
N12960 G1 Y933.936
N12965 G3 Y882.09 I13. J-25.923
N12970 G1 Y870.513
N12975 G3 X22.17 Y867.513 I3. J0.
N12980 G1 X31.17
N12985 G3 X34.17 Y870.513 I0. J3.
N12990 G1 Y888.839
N12995 G3 X31.326 Y891.835 I-3. J0.
N13000 G2 Y924.191 I0.844 J16.178
N13005 G3 X34.17 Y927.187 I-0.156 J2.996
N13010 G1 Y945.513
N13015 G3 X31.17 Y948.513 I-3. J0.
N13020 G1 X29.396
N13025 G2 X28.796 Y949.113 I0. J0.6 F300.
N13030 G1 Y949.713
N13035 G19 G3 Y950.313 Z-11.4 J0. K0.6
N13040 G0 Z5.
N13045 X39.782 Y958.829
N13050 G1 Z-8. F150.33
N13055 Z-11.4
N13060 G18 G2 X40.382 Z-12. I0.6 K0.
N13065 G1 X40.982 F300.
N13070 G17 G2 X41.582 Y958.229 I0. J-0.6
N13075 G1 Y939.938 F650.
N13080 G3 X45.848 Y935.444 I4.5 J0.
N13085 G2 Y906.084 I-0.766 J-14.68
N13090 G3 X41.582 Y901.59 I0.234 J-4.494
N13095 G1 Y883.264
N13100 G3 X46.082 Y878.764 I4.5 J0.
N13105 G1 X55.082
N13110 G3 X59.582 Y883.264 I0. J4.5
N13115 G1 Y893.931
N13120 G3 Y947.597 I-14.5 J26.833
N13125 G1 Y958.264
N13130 G3 X55.082 Y962.764 I-4.5 J0.
N13135 G1 X46.082
N13140 G3 X41.582 Y958.264 I0. J-4.5
N13145 G1 Y958.229
N13150 G3 X42.332 Y957.104 I1.219 J0.
N13155 G2 X43.082 Y955.979 I-0.469 J-1.125
N13160 G1 Y939.938
N13165 G3 X45.926 Y936.942 I3. J0.
N13170 G2 Y904.586 I-0.844 J-16.178
N13175 G3 X43.082 Y901.59 I0.156 J-2.996
N13180 G1 Y883.264
N13185 G3 X46.082 Y880.264 I3. J0.
N13190 G1 X55.082
N13195 G3 X58.082 Y883.264 I0. J3.
N13200 G1 Y894.841
N13205 G3 Y946.687 I-13. J25.923
N13210 G1 Y958.264
N13215 G3 X55.082 Y961.264 I-3. J0.
N13220 G1 X46.082
N13225 G3 X43.082 Y958.264 I0. J-3.
N13230 G1 Y955.979
N13235 G2 X42.482 Y955.379 I-0.6 J0. F300.
N13240 G1 X41.882
N13245 G18 G3 X41.282 Z-11.4 I0. K0.6
N13250 G0 Z5.
N13255 X39.782 Y958.829
N13260 G1 Z-9.5 F150.33
N13265 Z-12.9
N13270 G2 X40.382 Z-13.5 I0.6 K0.
N13275 G1 X40.982 F300.
N13280 G17 G2 X41.582 Y958.229 I0. J-0.6
N13285 G1 Y939.938 F650.
N13290 G3 X45.848 Y935.444 I4.5 J0.
N13295 G2 Y906.084 I-0.766 J-14.68
N13300 G3 X41.582 Y901.59 I0.234 J-4.494
N13305 G1 Y883.264
N13310 G3 X46.082 Y878.764 I4.5 J0.
N13315 G1 X55.082
N13320 G3 X59.582 Y883.264 I0. J4.5
N13325 G1 Y893.931
N13330 G3 Y947.597 I-14.5 J26.833
N13335 G1 Y958.264
N13340 G3 X55.082 Y962.764 I-4.5 J0.
N13345 G1 X46.082
N13350 G3 X41.582 Y958.264 I0. J-4.5
N13355 G1 Y958.229
N13360 G3 X42.332 Y957.104 I1.219 J0.
N13365 G2 X43.082 Y955.979 I-0.469 J-1.125
N13370 G1 Y939.938
N13375 G3 X45.926 Y936.942 I3. J0.
N13380 G2 Y904.586 I-0.844 J-16.178
N13385 G3 X43.082 Y901.59 I0.156 J-2.996
N13390 G1 Y883.264
N13395 G3 X46.082 Y880.264 I3. J0.
N13400 G1 X55.082
N13405 G3 X58.082 Y883.264 I0. J3.
N13410 G1 Y894.841
N13415 G3 Y946.687 I-13. J25.923
N13420 G1 Y958.264
N13425 G3 X55.082 Y961.264 I-3. J0.
N13430 G1 X46.082
N13435 G3 X43.082 Y958.264 I0. J-3.
N13440 G1 Y955.979
N13445 G2 X42.482 Y955.379 I-0.6 J0. F300.
N13450 G1 X41.882
N13455 G18 G3 X41.282 Z-12.9 I0. K0.6
N13460 G0 Z5.
N13465 X32.758 Y951.639
N13470 G1 Z-9.5 F150.33
N13475 Z-12.9
N13480 X32.757 Y951.632 Z-12.994
N13485 X32.753 Y951.61 Z-13.085
N13490 X32.747 Y951.575 Z-13.172
N13495 X32.74 Y951.526 Z-13.253
N13500 X32.73 Y951.466 Z-13.324
N13505 X32.719 Y951.395 Z-13.385
N13510 X32.706 Y951.316 Z-13.435
N13515 X32.692 Y951.23 Z-13.471
N13520 X32.678 Y951.139 Z-13.493
N13525 X32.663 Y951.047 Z-13.5
N13530 X32.568 Y950.454 F300.
N13535 G17 G2 X31.881 Y949.956 I-0.592 J0.095
N13540 G3 X31.17 Y950.013 I-0.711 J-4.443 F650.
N13545 G1 X22.17
N13550 G3 X17.67 Y945.513 I0. J-4.5
N13555 G1 Y934.846
N13560 G3 Y881.18 I14.5 J-26.833
N13565 G1 Y870.513
N13570 G3 X22.17 Y866.013 I4.5 J0.
N13575 G1 X31.17
N13580 G3 X35.67 Y870.513 I0. J4.5
N13585 G1 Y888.839
N13590 G3 X31.404 Y893.333 I-4.5 J0.
N13595 G2 Y922.693 I0.766 J14.68
N13600 G3 X35.67 Y927.187 I-0.234 J4.494
N13605 G1 Y945.513
N13610 G3 X31.881 Y949.956 I-4.5 J0.
N13615 X30.61 Y949.284 I-0.189 J-1.181
N13620 G2 X29.396 Y948.513 I-1.214 J0.57
N13625 G1 X22.17
N13630 G3 X19.17 Y945.513 I0. J-3.
N13635 G1 Y933.936
N13640 G3 Y882.09 I13. J-25.923
N13645 G1 Y870.513
N13650 G3 X22.17 Y867.513 I3. J0.
N13655 G1 X31.17
N13660 G3 X34.17 Y870.513 I0. J3.
N13665 G1 Y888.839
N13670 G3 X31.326 Y891.835 I-3. J0.
N13675 G2 Y924.191 I0.844 J16.178
N13680 G3 X34.17 Y927.187 I-0.156 J2.996
N13685 G1 Y945.513
N13690 G3 X31.17 Y948.513 I-3. J0.
N13695 G1 X29.396
N13700 G2 X28.796 Y949.113 I0. J0.6 F300.
N13705 G1 Y949.713
N13710 G19 G3 Y950.313 Z-12.9 J0. K0.6
N13715 G0 Z5.
N13720 X32.758 Y951.639
N13725 G1 Z-11. F150.33
N13730 Z-14.4
N13735 X32.757 Y951.632 Z-14.494
N13740 X32.753 Y951.61 Z-14.585
N13745 X32.747 Y951.575 Z-14.672
N13750 X32.74 Y951.526 Z-14.753
N13755 X32.73 Y951.466 Z-14.824
N13760 X32.719 Y951.395 Z-14.885
N13765 X32.706 Y951.316 Z-14.935
N13770 X32.692 Y951.23 Z-14.971
N13775 X32.678 Y951.139 Z-14.993
N13780 X32.663 Y951.047 Z-15.
N13785 X32.568 Y950.454 F300.
N13790 G17 G2 X31.881 Y949.956 I-0.592 J0.095
N13795 G3 X31.17 Y950.013 I-0.711 J-4.443 F650.
N13800 G1 X22.17
N13805 G3 X17.67 Y945.513 I0. J-4.5
N13810 G1 Y934.846
N13815 G3 Y881.18 I14.5 J-26.833
N13820 G1 Y870.513
N13825 G3 X22.17 Y866.013 I4.5 J0.
N13830 G1 X31.17
N13835 G3 X35.67 Y870.513 I0. J4.5
N13840 G1 Y888.839
N13845 G3 X31.404 Y893.333 I-4.5 J0.
N13850 G2 Y922.693 I0.766 J14.68
N13855 G3 X35.67 Y927.187 I-0.234 J4.494
N13860 G1 Y945.513
N13865 G3 X31.881 Y949.956 I-4.5 J0.
N13870 X30.61 Y949.284 I-0.189 J-1.181
N13875 G2 X29.396 Y948.513 I-1.214 J0.57
N13880 G1 X22.17
N13885 G3 X19.17 Y945.513 I0. J-3.
N13890 G1 Y933.936
N13895 G3 Y882.09 I13. J-25.923
N13900 G1 Y870.513
N13905 G3 X22.17 Y867.513 I3. J0.
N13910 G1 X31.17
N13915 G3 X34.17 Y870.513 I0. J3.
N13920 G1 Y888.839
N13925 G3 X31.326 Y891.835 I-3. J0.
N13930 G2 Y924.191 I0.844 J16.178
N13935 G3 X34.17 Y927.187 I-0.156 J2.996
N13940 G1 Y945.513
N13945 G3 X31.17 Y948.513 I-3. J0.
N13950 G1 X29.396
N13955 G2 X28.796 Y949.113 I0. J0.6 F300.
N13960 G1 Y949.713
N13965 G19 G3 Y950.313 Z-14.4 J0. K0.6
N13970 G0 Z5.
N13975 X39.782 Y958.829
N13980 G1 Z-11. F150.33
N13985 Z-14.4
N13990 G18 G2 X40.382 Z-15. I0.6 K0.
N13995 G1 X40.982 F300.
N14000 G17 G2 X41.582 Y958.229 I0. J-0.6
N14005 G1 Y939.938 F650.
N14010 G3 X45.848 Y935.444 I4.5 J0.
N14015 G2 Y906.084 I-0.766 J-14.68
N14020 G3 X41.582 Y901.59 I0.234 J-4.494
N14025 G1 Y883.264
N14030 G3 X46.082 Y878.764 I4.5 J0.
N14035 G1 X55.082
N14040 G3 X59.582 Y883.264 I0. J4.5
N14045 G1 Y893.931
N14050 G3 Y947.597 I-14.5 J26.833
N14055 G1 Y958.264
N14060 G3 X55.082 Y962.764 I-4.5 J0.
N14065 G1 X46.082
N14070 G3 X41.582 Y958.264 I0. J-4.5
N14075 G1 Y958.229
N14080 G3 X42.332 Y957.104 I1.219 J0.
N14085 G2 X43.082 Y955.979 I-0.469 J-1.125
N14090 G1 Y939.938
N14095 G3 X45.926 Y936.942 I3. J0.
N14100 G2 Y904.586 I-0.844 J-16.178
N14105 G3 X43.082 Y901.59 I0.156 J-2.996
N14110 G1 Y883.264
N14115 G3 X46.082 Y880.264 I3. J0.
N14120 G1 X55.082
N14125 G3 X58.082 Y883.264 I0. J3.
N14130 G1 Y894.841
N14135 G3 Y946.687 I-13. J25.923
N14140 G1 Y958.264
N14145 G3 X55.082 Y961.264 I-3. J0.
N14150 G1 X46.082
N14155 G3 X43.082 Y958.264 I0. J-3.
N14160 G1 Y955.979
N14165 G2 X42.482 Y955.379 I-0.6 J0. F300.
N14170 G1 X41.882
N14175 G18 G3 X41.282 Z-14.4 I0. K0.6
N14180 G0 Z5.
N14185 X39.782 Y958.829
N14190 G1 Z-12.5 F150.33
N14195 Z-15.9
N14200 G2 X40.382 Z-16.5 I0.6 K0.
N14205 G1 X40.982 F300.
N14210 G17 G2 X41.582 Y958.229 I0. J-0.6
N14215 G1 Y939.938 F650.
N14220 G3 X45.848 Y935.444 I4.5 J0.
N14225 G2 Y906.084 I-0.766 J-14.68
N14230 G3 X41.582 Y901.59 I0.234 J-4.494
N14235 G1 Y883.264
N14240 G3 X46.082 Y878.764 I4.5 J0.
N14245 G1 X55.082
N14250 G3 X59.582 Y883.264 I0. J4.5
N14255 G1 Y893.931
N14260 G3 Y947.597 I-14.5 J26.833
N14265 G1 Y958.264
N14270 G3 X55.082 Y962.764 I-4.5 J0.
N14275 G1 X46.082
N14280 G3 X41.582 Y958.264 I0. J-4.5
N14285 G1 Y958.229
N14290 G3 X42.332 Y957.104 I1.219 J0.
N14295 G2 X43.082 Y955.979 I-0.469 J-1.125
N14300 G1 Y939.938
N14305 G3 X45.926 Y936.942 I3. J0.
N14310 G2 Y904.586 I-0.844 J-16.178
N14315 G3 X43.082 Y901.59 I0.156 J-2.996
N14320 G1 Y883.264
N14325 G3 X46.082 Y880.264 I3. J0.
N14330 G1 X55.082
N14335 G3 X58.082 Y883.264 I0. J3.
N14340 G1 Y894.841
N14345 G3 Y946.687 I-13. J25.923
N14350 G1 Y958.264
N14355 G3 X55.082 Y961.264 I-3. J0.
N14360 G1 X46.082
N14365 G3 X43.082 Y958.264 I0. J-3.
N14370 G1 Y955.979
N14375 G2 X42.482 Y955.379 I-0.6 J0. F300.
N14380 G1 X41.882
N14385 G18 G3 X41.282 Z-15.9 I0. K0.6
N14390 G0 Z5.
N14395 X32.758 Y951.639
N14400 G1 Z-12.5 F150.33
N14405 Z-15.9
N14410 X32.757 Y951.632 Z-15.994
N14415 X32.753 Y951.61 Z-16.085
N14420 X32.747 Y951.575 Z-16.172
N14425 X32.74 Y951.526 Z-16.253
N14430 X32.73 Y951.466 Z-16.324
N14435 X32.719 Y951.395 Z-16.385
N14440 X32.706 Y951.316 Z-16.435
N14445 X32.692 Y951.23 Z-16.471
N14450 X32.678 Y951.139 Z-16.493
N14455 X32.663 Y951.047 Z-16.5
N14460 X32.568 Y950.454 F300.
N14465 G17 G2 X31.881 Y949.956 I-0.592 J0.095
N14470 G3 X31.17 Y950.013 I-0.711 J-4.443 F650.
N14475 G1 X22.17
N14480 G3 X17.67 Y945.513 I0. J-4.5
N14485 G1 Y934.846
N14490 G3 Y881.18 I14.5 J-26.833
N14495 G1 Y870.513
N14500 G3 X22.17 Y866.013 I4.5 J0.
N14505 G1 X31.17
N14510 G3 X35.67 Y870.513 I0. J4.5
N14515 G1 Y888.839
N14520 G3 X31.404 Y893.333 I-4.5 J0.
N14525 G2 Y922.693 I0.766 J14.68
N14530 G3 X35.67 Y927.187 I-0.234 J4.494
N14535 G1 Y945.513
N14540 G3 X31.881 Y949.956 I-4.5 J0.
N14545 X30.61 Y949.284 I-0.189 J-1.181
N14550 G2 X29.396 Y948.513 I-1.214 J0.57
N14555 G1 X22.17
N14560 G3 X19.17 Y945.513 I0. J-3.
N14565 G1 Y933.936
N14570 G3 Y882.09 I13. J-25.923
N14575 G1 Y870.513
N14580 G3 X22.17 Y867.513 I3. J0.
N14585 G1 X31.17
N14590 G3 X34.17 Y870.513 I0. J3.
N14595 G1 Y888.839
N14600 G3 X31.326 Y891.835 I-3. J0.
N14605 G2 Y924.191 I0.844 J16.178
N14610 G3 X34.17 Y927.187 I-0.156 J2.996
N14615 G1 Y945.513
N14620 G3 X31.17 Y948.513 I-3. J0.
N14625 G1 X29.396
N14630 G2 X28.796 Y949.113 I0. J0.6 F300.
N14635 G1 Y949.713
N14640 G19 G3 Y950.313 Z-15.9 J0. K0.6
N14645 G0 Z5.
N14650 X32.758 Y951.639
N14655 G1 Z-14. F150.33
N14660 Z-17.4
N14665 X32.757 Y951.632 Z-17.494
N14670 X32.753 Y951.61 Z-17.585
N14675 X32.747 Y951.575 Z-17.672
N14680 X32.74 Y951.526 Z-17.753
N14685 X32.73 Y951.466 Z-17.824
N14690 X32.719 Y951.395 Z-17.885
N14695 X32.706 Y951.316 Z-17.935
N14700 X32.692 Y951.23 Z-17.971
N14705 X32.678 Y951.139 Z-17.993
N14710 X32.663 Y951.047 Z-18.
N14715 X32.568 Y950.454 F300.
N14720 G17 G2 X31.881 Y949.956 I-0.592 J0.095
N14725 G3 X31.17 Y950.013 I-0.711 J-4.443 F650.
N14730 G1 X22.17
N14735 G3 X17.67 Y945.513 I0. J-4.5
N14740 G1 Y934.846
N14745 G3 Y881.18 I14.5 J-26.833
N14750 G1 Y870.513
N14755 G3 X22.17 Y866.013 I4.5 J0.
N14760 G1 X31.17
N14765 G3 X35.67 Y870.513 I0. J4.5
N14770 G1 Y888.839
N14775 G3 X31.404 Y893.333 I-4.5 J0.
N14780 G2 Y922.693 I0.766 J14.68
N14785 G3 X35.67 Y927.187 I-0.234 J4.494
N14790 G1 Y945.513
N14795 G3 X31.881 Y949.956 I-4.5 J0.
N14800 X30.61 Y949.284 I-0.189 J-1.181
N14805 G2 X29.396 Y948.513 I-1.214 J0.57
N14810 G1 X22.17
N14815 G3 X19.17 Y945.513 I0. J-3.
N14820 G1 Y933.936
N14825 G3 Y882.09 I13. J-25.923
N14830 G1 Y870.513
N14835 G3 X22.17 Y867.513 I3. J0.
N14840 G1 X31.17
N14845 G3 X34.17 Y870.513 I0. J3.
N14850 G1 Y888.839
N14855 G3 X31.326 Y891.835 I-3. J0.
N14860 G2 Y924.191 I0.844 J16.178
N14865 G3 X34.17 Y927.187 I-0.156 J2.996
N14870 G1 Y945.513
N14875 G3 X31.17 Y948.513 I-3. J0.
N14880 G1 X29.396
N14885 G2 X28.796 Y949.113 I0. J0.6 F300.
N14890 G1 Y949.713
N14895 G19 G3 Y950.313 Z-17.4 J0. K0.6
N14900 G0 Z5.
N14905 X39.782 Y958.829
N14910 G1 Z-14. F150.33
N14915 Z-17.4
N14920 G18 G2 X40.382 Z-18. I0.6 K0.
N14925 G1 X40.982 F300.
N14930 G17 G2 X41.582 Y958.229 I0. J-0.6
N14935 G1 Y939.938 F650.
N14940 G3 X45.848 Y935.444 I4.5 J0.
N14945 G2 Y906.084 I-0.766 J-14.68
N14950 G3 X41.582 Y901.59 I0.234 J-4.494
N14955 G1 Y883.264
N14960 G3 X46.082 Y878.764 I4.5 J0.
N14965 G1 X55.082
N14970 G3 X59.582 Y883.264 I0. J4.5
N14975 G1 Y893.931
N14980 G3 Y947.597 I-14.5 J26.833
N14985 G1 Y958.264
N14990 G3 X55.082 Y962.764 I-4.5 J0.
N14995 G1 X46.082
N15000 G3 X41.582 Y958.264 I0. J-4.5
N15005 G1 Y958.229
N15010 G3 X42.332 Y957.104 I1.219 J0.
N15015 G2 X43.082 Y955.979 I-0.469 J-1.125
N15020 G1 Y939.938
N15025 G3 X45.926 Y936.942 I3. J0.
N15030 G2 Y904.586 I-0.844 J-16.178
N15035 G3 X43.082 Y901.59 I0.156 J-2.996
N15040 G1 Y883.264
N15045 G3 X46.082 Y880.264 I3. J0.
N15050 G1 X55.082
N15055 G3 X58.082 Y883.264 I0. J3.
N15060 G1 Y894.841
N15065 G3 Y946.687 I-13. J25.923
N15070 G1 Y958.264
N15075 G3 X55.082 Y961.264 I-3. J0.
N15080 G1 X46.082
N15085 G3 X43.082 Y958.264 I0. J-3.
N15090 G1 Y955.979
N15095 G2 X42.482 Y955.379 I-0.6 J0. F300.
N15100 G1 X41.882
N15105 G18 G3 X41.282 Z-17.4 I0. K0.6
N15110 G0 Z5.
N15115 X39.782 Y958.829
N15120 G1 Z-15.5 F150.33
N15125 Z-18.9
N15130 G2 X40.382 Z-19.5 I0.6 K0.
N15135 G1 X40.982 F300.
N15140 G17 G2 X41.582 Y958.229 I0. J-0.6
N15145 G1 Y939.938 F650.
N15150 G3 X45.848 Y935.444 I4.5 J0.
N15155 G2 Y906.084 I-0.766 J-14.68
N15160 G3 X41.582 Y901.59 I0.234 J-4.494
N15165 G1 Y883.264
N15170 G3 X46.082 Y878.764 I4.5 J0.
N15175 G1 X55.082
N15180 G3 X59.582 Y883.264 I0. J4.5
N15185 G1 Y893.931
N15190 G3 Y947.597 I-14.5 J26.833
N15195 G1 Y958.264
N15200 G3 X55.082 Y962.764 I-4.5 J0.
N15205 G1 X46.082
N15210 G3 X41.582 Y958.264 I0. J-4.5
N15215 G1 Y958.229
N15220 G3 X42.332 Y957.104 I1.219 J0.
N15225 G2 X43.082 Y955.979 I-0.469 J-1.125
N15230 G1 Y939.938
N15235 G3 X45.926 Y936.942 I3. J0.
N15240 G2 Y904.586 I-0.844 J-16.178
N15245 G3 X43.082 Y901.59 I0.156 J-2.996
N15250 G1 Y883.264
N15255 G3 X46.082 Y880.264 I3. J0.
N15260 G1 X55.082
N15265 G3 X58.082 Y883.264 I0. J3.
N15270 G1 Y894.841
N15275 G3 Y946.687 I-13. J25.923
N15280 G1 Y958.264
N15285 G3 X55.082 Y961.264 I-3. J0.
N15290 G1 X46.082
N15295 G3 X43.082 Y958.264 I0. J-3.
N15300 G1 Y955.979
N15305 G2 X42.482 Y955.379 I-0.6 J0. F300.
N15310 G1 X41.882
N15315 G18 G3 X41.282 Z-18.9 I0. K0.6
N15320 G0 Z5.
N15325 X32.758 Y951.639
N15330 G1 Z-15.5 F150.33
N15335 Z-18.9
N15340 X32.757 Y951.632 Z-18.994
N15345 X32.753 Y951.61 Z-19.085
N15350 X32.747 Y951.575 Z-19.172
N15355 X32.74 Y951.526 Z-19.253
N15360 X32.73 Y951.466 Z-19.324
N15365 X32.719 Y951.395 Z-19.385
N15370 X32.706 Y951.316 Z-19.435
N15375 X32.692 Y951.23 Z-19.471
N15380 X32.678 Y951.139 Z-19.493
N15385 X32.663 Y951.047 Z-19.5
N15390 X32.568 Y950.454 F300.
N15395 G17 G2 X31.881 Y949.956 I-0.592 J0.095
N15400 G3 X31.17 Y950.013 I-0.711 J-4.443 F650.
N15405 G1 X22.17
N15410 G3 X17.67 Y945.513 I0. J-4.5
N15415 G1 Y934.846
N15420 G3 Y881.18 I14.5 J-26.833
N15425 G1 Y870.513
N15430 G3 X22.17 Y866.013 I4.5 J0.
N15435 G1 X31.17
N15440 G3 X35.67 Y870.513 I0. J4.5
N15445 G1 Y888.839
N15450 G3 X31.404 Y893.333 I-4.5 J0.
N15455 G2 Y922.693 I0.766 J14.68
N15460 G3 X35.67 Y927.187 I-0.234 J4.494
N15465 G1 Y945.513
N15470 G3 X31.881 Y949.956 I-4.5 J0.
N15475 X30.61 Y949.284 I-0.189 J-1.181
N15480 G2 X29.396 Y948.513 I-1.214 J0.57
N15485 G1 X22.17
N15490 G3 X19.17 Y945.513 I0. J-3.
N15495 G1 Y933.936
N15500 G3 Y882.09 I13. J-25.923
N15505 G1 Y870.513
N15510 G3 X22.17 Y867.513 I3. J0.
N15515 G1 X31.17
N15520 G3 X34.17 Y870.513 I0. J3.
N15525 G1 Y888.839
N15530 G3 X31.326 Y891.835 I-3. J0.
N15535 G2 Y924.191 I0.844 J16.178
N15540 G3 X34.17 Y927.187 I-0.156 J2.996
N15545 G1 Y945.513
N15550 G3 X31.17 Y948.513 I-3. J0.
N15555 G1 X29.396
N15560 G2 X28.796 Y949.113 I0. J0.6 F300.
N15565 G1 Y949.713
N15570 G19 G3 Y950.313 Z-18.9 J0. K0.6
N15575 G0 Z5.
N15580 X32.758 Y951.639
N15585 G1 Z-17. F150.33
N15590 Z-20.4
N15595 X32.757 Y951.632 Z-20.494
N15600 X32.753 Y951.61 Z-20.585
N15605 X32.747 Y951.575 Z-20.672
N15610 X32.74 Y951.526 Z-20.753
N15615 X32.73 Y951.466 Z-20.824
N15620 X32.719 Y951.395 Z-20.885
N15625 X32.706 Y951.316 Z-20.935
N15630 X32.692 Y951.23 Z-20.971
N15635 X32.678 Y951.139 Z-20.993
N15640 X32.663 Y951.047 Z-21.
N15645 X32.568 Y950.454 F300.
N15650 G17 G2 X31.881 Y949.956 I-0.592 J0.095
N15655 G3 X31.306 Y950.011 I-0.711 J-4.443 F650.
N15660 G1 Z-20.5
N15665 X31.17 Y950.013
N15670 X22.17
N15675 G3 X19.306 Y948.984 I0. J-4.5
N15680 G1 Z-21. F150.33
N15685 G3 X17.67 Y945.513 I2.864 J-3.471 F650.
N15690 G1 Y944.761
N15695 Z-20.5
N15700 Y934.846
N15705 G3 X14.343 Y932.761 I14.5 J-26.833
N15710 G1 Z-21. F150.33
N15715 G3 X17.67 Y881.18 I17.827 J-24.748 F650.
N15720 G1 Y880.325
N15725 Z-20.5
N15730 Y870.513
N15735 G3 X18.238 Y868.325 I4.5 J0.
N15740 G1 Z-21. F150.33
N15745 G3 X21.249 Y866.108 I3.932 J2.188 F650.
N15750 G1 Z-20.5
N15755 G3 X22.17 Y866.013 I0.921 J4.405
N15760 G1 X31.17
N15765 G3 X33.249 Y866.522 I0. J4.5
N15770 G1 Z-21. F150.33
N15775 G3 X35.67 Y870.513 I-2.079 J3.991 F650.
N15780 G1 Y874.04
N15785 Z-20.5
N15790 Y886.04
N15795 Z-21. F150.33
N15800 Y888.839 F650.
N15805 G3 X31.404 Y893.333 I-4.5 J0.
N15810 G2 Y922.693 I0.766 J14.68
N15815 G3 X35.67 Y927.187 I-0.234 J4.494
N15820 G1 Y940.832
N15825 Z-20.5
N15830 Y945.513
N15835 G3 X34.582 Y948.447 I-4.5 J0.
N15840 G1 Z-21. F150.33
N15845 G3 X31.881 Y949.956 I-3.412 J-2.934 F650.
N15850 X31.306 Y949.907 I-0.189 J-1.181
N15855 G1 Z-20.5
N15860 G3 X30.61 Y949.284 I0.386 J-1.132
N15865 G2 X29.396 Y948.513 I-1.214 J0.57
N15870 G1 X22.17
N15875 G3 X19.306 Y946.406 I0. J-3.
N15880 G1 Z-21. F150.33
N15885 G3 X19.17 Y945.513 I2.864 J-0.893 F650.
N15890 G1 Y944.761
N15895 Z-20.5
N15900 Y933.936
N15905 G3 X17.052 Y932.761 I13. J-25.923
N15910 G1 Z-21. F150.33
N15915 G3 X19.17 Y882.09 I15.117 J-24.748 F650.
N15920 G1 Y880.325
N15925 Z-20.5
N15930 Y870.513
N15935 G3 X20.117 Y868.325 I3. J0.
N15940 G1 Z-21. F150.33
N15945 G3 X21.249 Y867.658 I2.052 J2.188 F650.
N15950 G1 Z-20.5
N15955 G3 X22.17 Y867.513 I0.921 J2.855
N15960 G1 X31.17
N15965 G3 X33.249 Y868.35 I0. J3.
N15970 G1 Z-21. F150.33
N15975 G3 X34.17 Y870.513 I-2.079 J2.163 F650.
N15980 G1 Y874.04
N15985 Z-20.5
N15990 Y886.04
N15995 Z-21. F150.33
N16000 Y888.839 F650.
N16005 G3 X31.326 Y891.835 I-3. J0.
N16010 G2 Y924.191 I0.844 J16.178
N16015 G3 X34.17 Y927.187 I-0.156 J2.996
N16020 G1 Y945.513
N16025 G3 X31.306 Y948.51 I-3. J0.
N16030 G1 Z-20.5
N16035 X31.17 Y948.513
N16040 X29.396
N16045 G2 X28.796 Y949.113 I0. J0.6 F300.
N16050 G1 Y949.713
N16055 Y950.305 F150.33
N16060 Y950.311 Z-20.45 F300.
N16065 Y950.313 Z-20.4
N16070 G0 Z5.
N16075 X39.782 Y958.829
N16080 G1 Z-17. F150.33
N16085 Z-20.4
N16090 X39.784 Z-20.45
N16095 X39.79 Z-20.5
N16100 X40.382
N16105 X40.982 F300.
N16110 G2 X41.582 Y958.229 I0. J-0.6
N16115 G1 Y940.832 F650.
N16120 Z-21. F150.33
N16125 Y939.938 F650.
N16130 G3 X45.848 Y935.444 I4.5 J0.
N16135 G2 Y906.084 I-0.766 J-14.68
N16140 G3 X41.582 Y901.59 I0.234 J-4.494
N16145 G1 Y886.04
N16150 Z-20.5
N16155 Y883.264
N16160 G3 X42.67 Y880.33 I4.5 J0.
N16165 G1 Z-21. F150.33
N16170 G3 X43.82 Y879.374 I3.412 J2.934 F650.
N16175 G1 Z-20.5
N16180 G3 X46.082 Y878.764 I2.262 J3.89
N16185 G1 X55.082
N16190 G3 X55.82 Y878.825 I0. J4.5
N16195 G1 Z-21. F150.33
N16200 G3 X59.582 Y883.264 I-0.738 J4.439 F650.
N16205 G1 Y883.511
N16210 Z-20.5
N16215 Y893.931
N16220 G3 X62.186 Y895.511 I-14.5 J26.833
N16225 G1 Z-21. F150.33
N16230 G3 X62.582 Y945.744 I-17.104 J25.253 F650.
N16235 G1 Z-20.5
N16240 G3 X59.582 Y947.597 I-17.5 J-24.98
N16245 G1 Y957.744
N16250 Z-21. F150.33
N16255 Y958.264 F650.
N16260 G3 X55.283 Y962.76 I-4.5 J0.
N16265 G1 Z-20.5
N16270 X55.082 Y962.764
N16275 X46.082
N16280 G3 X41.582 Y958.264 I0. J-4.5
N16285 G1 Y958.229
N16290 G3 X42.332 Y957.104 I1.219 J0.
N16295 G2 X43.082 Y955.979 I-0.469 J-1.125
N16300 G1 Y940.832
N16305 Z-21. F150.33
N16310 Y939.938 F650.
N16315 G3 X45.926 Y936.942 I3. J0.
N16320 G2 Y904.586 I-0.844 J-16.178
N16325 G3 X43.082 Y901.59 I0.156 J-2.996
N16330 G1 Y883.264
N16335 G3 X43.82 Y881.293 I3. J0.
N16340 G1 Z-20.5
N16345 G3 X46.082 Y880.264 I2.262 J1.971
N16350 G1 X55.082
N16355 G3 X55.82 Y880.356 I0. J3.
N16360 G1 Z-21. F150.33
N16365 G3 X58.082 Y883.264 I-0.738 J2.908 F650.
N16370 G1 Y883.511
N16375 Z-20.5
N16380 Y894.841
N16385 G3 X59.34 Y895.511 I-13. J25.923
N16390 G1 Z-21. F150.33
N16395 G3 X59.813 Y945.744 I-14.258 J25.253 F650.
N16400 G1 Z-20.5
N16405 G3 X58.082 Y946.687 I-14.73 J-24.98
N16410 G1 Y957.744
N16415 Z-21. F150.33
N16420 Y958.264 F650.
N16425 G3 X55.283 Y961.257 I-3. J0.
N16430 G1 Z-20.5
N16435 X55.082 Y961.264
N16440 X46.082
N16445 G3 X43.082 Y958.264 I0. J-3.
N16450 G1 Y955.979
N16455 G2 X42.482 Y955.379 I-0.6 J0. F300.
N16460 G1 X41.882
N16465 X41.29 F150.33
N16470 X41.284 Z-20.45 F300.
N16475 X41.282 Z-20.4
N16480 G0 Z5.
N16485 X39.782 Y958.829
N16490 G1 Z-18.5 F150.33
N16495 Z-20.5
N16500 X40.382
N16505 X40.982 F300.
N16510 G2 X41.582 Y958.229 I0. J-0.6
N16515 G1 Y940.832 F650.
N16520 Z-22.5 F150.33
N16525 Y939.938 F650.
N16530 G3 X45.848 Y935.444 I4.5 J0.
N16535 G2 Y906.084 I-0.766 J-14.68
N16540 G3 X41.582 Y901.59 I0.234 J-4.494
N16545 G1 Y886.04
N16550 Z-20.5
N16555 Y883.264
N16560 G3 X42.67 Y880.33 I4.5 J0.
N16565 G1 Z-22.5 F150.33
N16570 G3 X43.82 Y879.374 I3.412 J2.934 F650.
N16575 G1 Z-20.5
N16580 G3 X46.082 Y878.764 I2.262 J3.89
N16585 G1 X55.082
N16590 G3 X55.82 Y878.825 I0. J4.5
N16595 G1 Z-22.5 F150.33
N16600 G3 X59.582 Y883.264 I-0.738 J4.439 F650.
N16605 G1 Y883.511
N16610 Z-20.5
N16615 Y893.931
N16620 G3 X62.186 Y895.511 I-14.5 J26.833
N16625 G1 Z-22.5 F150.33
N16630 G3 X62.582 Y945.744 I-17.104 J25.253 F650.
N16635 G1 Z-20.5
N16640 G3 X59.582 Y947.597 I-17.5 J-24.98
N16645 G1 Y957.744
N16650 Z-22.5 F150.33
N16655 Y958.264 F650.
N16660 G3 X55.283 Y962.76 I-4.5 J0.
N16665 G1 Z-20.5
N16670 X55.082 Y962.764
N16675 X46.082
N16680 G3 X41.582 Y958.264 I0. J-4.5
N16685 G1 Y958.229
N16690 G3 X42.332 Y957.104 I1.219 J0.
N16695 G2 X43.082 Y955.979 I-0.469 J-1.125
N16700 G1 Y940.832
N16705 Z-22.5 F150.33
N16710 Y939.938 F650.
N16715 G3 X45.926 Y936.942 I3. J0.
N16720 G2 Y904.586 I-0.844 J-16.178
N16725 G3 X43.082 Y901.59 I0.156 J-2.996
N16730 G1 Y883.264
N16735 G3 X43.82 Y881.293 I3. J0.
N16740 G1 Z-20.5
N16745 G3 X46.082 Y880.264 I2.262 J1.971
N16750 G1 X55.082
N16755 G3 X55.82 Y880.356 I0. J3.
N16760 G1 Z-22.5 F150.33
N16765 G3 X58.082 Y883.264 I-0.738 J2.908 F650.
N16770 G1 Y883.511
N16775 Z-20.5
N16780 Y894.841
N16785 G3 X59.34 Y895.511 I-13. J25.923
N16790 G1 Z-22.5 F150.33
N16795 G3 X59.813 Y945.744 I-14.258 J25.253 F650.
N16800 G1 Z-20.5
N16805 G3 X58.082 Y946.687 I-14.73 J-24.98
N16810 G1 Y957.744
N16815 Z-22.5 F150.33
N16820 Y958.264 F650.
N16825 G3 X55.283 Y961.257 I-3. J0.
N16830 G1 Z-20.5
N16835 X55.082 Y961.264
N16840 X46.082
N16845 G3 X43.082 Y958.264 I0. J-3.
N16850 G1 Y955.979
N16855 G2 X42.482 Y955.379 I-0.6 J0. F300.
N16860 G1 X41.282
N16865 G0 Z5.
N16870 X32.758 Y951.639
N16875 G1 Z-18.5 F150.33
N16880 Z-21.9
N16885 X32.757 Y951.632 Z-21.994
N16890 X32.753 Y951.61 Z-22.085
N16895 X32.747 Y951.575 Z-22.172
N16900 X32.74 Y951.526 Z-22.253
N16905 X32.73 Y951.466 Z-22.324
N16910 X32.719 Y951.395 Z-22.385
N16915 X32.706 Y951.316 Z-22.435
N16920 X32.692 Y951.23 Z-22.471
N16925 X32.678 Y951.139 Z-22.493
N16930 X32.663 Y951.047 Z-22.5
N16935 X32.568 Y950.454 F300.
N16940 G2 X31.881 Y949.956 I-0.592 J0.095
N16945 G3 X31.306 Y950.011 I-0.711 J-4.443 F650.
N16950 G1 Z-20.5
N16955 X31.17 Y950.013
N16960 X22.17
N16965 G3 X19.306 Y948.984 I0. J-4.5
N16970 G1 Z-22.5 F150.33
N16975 G3 X17.67 Y945.513 I2.864 J-3.471 F650.
N16980 G1 Y944.761
N16985 Z-20.5
N16990 Y934.846
N16995 G3 X14.343 Y932.761 I14.5 J-26.833
N17000 G1 Z-22.5 F150.33
N17005 G3 X17.67 Y881.18 I17.827 J-24.748 F650.
N17010 G1 Y880.325
N17015 Z-20.5
N17020 Y870.513
N17025 G3 X18.238 Y868.325 I4.5 J0.
N17030 G1 Z-22.5 F150.33
N17035 G3 X21.249 Y866.108 I3.932 J2.188 F650.
N17040 G1 Z-20.5
N17045 G3 X22.17 Y866.013 I0.921 J4.405
N17050 G1 X31.17
N17055 G3 X33.249 Y866.522 I0. J4.5
N17060 G1 Z-22.5 F150.33
N17065 G3 X35.67 Y870.513 I-2.079 J3.991 F650.
N17070 G1 Y874.04
N17075 Z-20.5
N17080 Y886.04
N17085 Z-22.5 F150.33
N17090 Y888.839 F650.
N17095 G3 X31.404 Y893.333 I-4.5 J0.
N17100 G2 Y922.693 I0.766 J14.68
N17105 G3 X35.67 Y927.187 I-0.234 J4.494
N17110 G1 Y940.832
N17115 Z-20.5
N17120 Y945.513
N17125 G3 X34.582 Y948.447 I-4.5 J0.
N17130 G1 Z-22.5 F150.33
N17135 G3 X31.881 Y949.956 I-3.412 J-2.934 F650.
N17140 X31.306 Y949.907 I-0.189 J-1.181
N17145 G1 Z-20.5
N17150 G3 X30.61 Y949.284 I0.386 J-1.132
N17155 G2 X29.396 Y948.513 I-1.214 J0.57
N17160 G1 X22.17
N17165 G3 X19.306 Y946.406 I0. J-3.
N17170 G1 Z-22.5 F150.33
N17175 G3 X19.17 Y945.513 I2.864 J-0.893 F650.
N17180 G1 Y944.761
N17185 Z-20.5
N17190 Y933.936
N17195 G3 X17.052 Y932.761 I13. J-25.923
N17200 G1 Z-22.5 F150.33
N17205 G3 X19.17 Y882.09 I15.117 J-24.748 F650.
N17210 G1 Y880.325
N17215 Z-20.5
N17220 Y870.513
N17225 G3 X20.117 Y868.325 I3. J0.
N17230 G1 Z-22.5 F150.33
N17235 G3 X21.249 Y867.658 I2.052 J2.188 F650.
N17240 G1 Z-20.5
N17245 G3 X22.17 Y867.513 I0.921 J2.855
N17250 G1 X31.17
N17255 G3 X33.249 Y868.35 I0. J3.
N17260 G1 Z-22.5 F150.33
N17265 G3 X34.17 Y870.513 I-2.079 J2.163 F650.
N17270 G1 Y874.04
N17275 Z-20.5
N17280 Y886.04
N17285 Z-22.5 F150.33
N17290 Y888.839 F650.
N17295 G3 X31.326 Y891.835 I-3. J0.
N17300 G2 Y924.191 I0.844 J16.178
N17305 G3 X34.17 Y927.187 I-0.156 J2.996
N17310 G1 Y945.513
N17315 G3 X31.306 Y948.51 I-3. J0.
N17320 G1 Z-20.5
N17325 X31.17 Y948.513
N17330 X29.396
N17335 G2 X28.796 Y949.113 I0. J0.6 F300.
N17340 G1 Y950.313
N17345 G0 Z15.
N17350 G53 Z0.
N17355 M30
%
