%
(1001)
(T1  D=6. CR=0. - ZMIN=-26. - FLAT END MILL)
N10 G90 G94 G17 G91.1
N15 G21
N20 G53 G0 Z0.
(2D POCKET1)
N25 M9
N30 T1 M6
N35 S22000 M3
N40 G54
N45 M8
N50 G0 X1.8 Y849.4
N55 G43 Z15. H1
N60 G0 Z5.
N65 G1 Z2.5 F500.
N70 Z-1.9 F50.
N75 G19 G3 Y850. Z-2.5 J0.6 K0.
N80 G17 G2 X3.9 I1.05 J0. F1000.
N85 X0. Y846.1 I-3.9 J0.
N90 X-3.9 Y850. I0. J3.9
N95 X9.6 I6.75 J0.
N100 X-9.6 I-9.6 J0.
N105 X15.3 I12.45 J0.
N110 X0. Y834.7 I-15.3 J0.
N115 X-15.3 Y850. I0. J15.3
N120 X21. I18.15 J0.
N125 X-21. I-21. J0.
N130 X21. I21. J0.
N135 G1 X20.993 Y849.908 Z-2.485 F500.
N140 X20.972 Y849.818 Z-2.471
N145 X20.941 Y849.74 Z-2.428
N150 X20.899 Y849.667 Z-2.385
N155 X20.86 Y849.614 Z-2.319
N160 X20.814 Y849.566 Z-2.253
N165 X20.748 Y849.512 Z-2.085
N170 X20.724 Y849.495 Z-1.9
N175 G0 Z5.
N180 X1.8 Y1099.4
N185 G1 Z2.5 F50.
N190 Z-1.9
N195 G19 G3 Y1100. Z-2.5 J0.6 K0.
N200 G17 G2 X3.9 I1.05 J0. F1000.
N205 X-3.9 I-3.9 J0.
N210 X9.6 I6.75 J0.
N215 X0. Y1090.4 I-9.6 J0.
N220 X-9.6 Y1100. I0. J9.6
N225 X15.3 I12.45 J0.
N230 X0. Y1084.7 I-15.3 J0.
N235 X-15.3 Y1100. I0. J15.3
N240 X21. I18.15 J0.
N245 X-21. I-21. J0.
N250 X21. I21. J0.
N255 G1 X20.993 Y1099.908 Z-2.485 F500.
N260 X20.972 Y1099.818 Z-2.471
N265 X20.941 Y1099.74 Z-2.428
N270 X20.899 Y1099.667 Z-2.385
N275 X20.86 Y1099.614 Z-2.319
N280 X20.814 Y1099.566 Z-2.253
N285 X20.748 Y1099.512 Z-2.085
N290 X20.724 Y1099.495 Z-1.9
N295 G0 Z5.
N300 X281.8 Y1099.4
N305 G1 Z2.5 F50.
N310 Z-1.9
N315 G19 G3 Y1100. Z-2.5 J0.6 K0.
N320 G17 G2 X283.9 I1.05 J0. F1000.
N325 X276.1 I-3.9 J0.
N330 X289.6 I6.75 J0.
N335 X270.4 I-9.6 J0.
N340 X295.3 I12.45 J0.
N345 X264.7 I-15.3 J0.
N350 X301. I18.15 J0.
N355 X259. I-21. J0.
N360 X301. I21. J0.
N365 G1 X300.993 Y1099.908 Z-2.485 F500.
N370 X300.972 Y1099.818 Z-2.471
N375 X300.941 Y1099.74 Z-2.428
N380 X300.899 Y1099.667 Z-2.385
N385 X300.86 Y1099.614 Z-2.319
N390 X300.814 Y1099.566 Z-2.253
N395 X300.749 Y1099.512 Z-2.085
N400 X300.724 Y1099.495 Z-1.9
N405 G0 Z5.
N410 X281.8 Y849.4
N415 G1 Z2.5 F50.
N420 Z-1.9
N425 G19 G3 Y850. Z-2.5 J0.6 K0.
N430 G17 G2 X283.9 I1.05 J0. F1000.
N435 X276.1 I-3.9 J0.
N440 X289.6 I6.75 J0.
N445 X270.4 I-9.6 J0.
N450 X295.3 I12.45 J0.
N455 X264.7 I-15.3 J0.
N460 X301. I18.15 J0.
N465 X259. I-21. J0.
N470 X301. I21. J0.
N475 G1 X300.993 Y849.908 Z-2.485 F500.
N480 X300.972 Y849.818 Z-2.471
N485 X300.941 Y849.74 Z-2.428
N490 X300.899 Y849.667 Z-2.385
N495 X300.86 Y849.614 Z-2.319
N500 X300.814 Y849.566 Z-2.253
N505 X300.749 Y849.512 Z-2.085
N510 X300.724 Y849.495 Z-1.9
N515 G0 Z5.
N520 X281.8 Y-0.6
N525 G1 Z2.5 F50.
N530 Z-1.9
N535 G19 G3 Y0. Z-2.5 J0.6 K0.
N540 G17 G2 X283.9 I1.05 J0. F1000.
N545 X276.1 I-3.9 J0.
N550 X289.6 I6.75 J0.
N555 X270.4 I-9.6 J0.
N560 X295.3 I12.45 J0.
N565 X264.7 I-15.3 J0.
N570 X301. I18.15 J0.
N575 X259. I-21. J0.
N580 X301. I21. J0.
N585 G1 X300.993 Y-0.092 Z-2.485 F500.
N590 X300.972 Y-0.182 Z-2.471
N595 X300.941 Y-0.26 Z-2.428
N600 X300.899 Y-0.333 Z-2.385
N605 X300.86 Y-0.386 Z-2.319
N610 X300.814 Y-0.434 Z-2.253
N615 X300.749 Y-0.488 Z-2.085
N620 X300.724 Y-0.505 Z-1.9
N625 G0 Z5.
N630 X1.8 Y-0.6
N635 G1 Z2.5 F50.
N640 Z-1.9
N645 G19 G3 Y0. Z-2.5 J0.6 K0.
N650 G17 G2 X3.9 I1.05 J0. F1000.
N655 X-3.9 I-3.9 J0.
N660 X9.6 I6.75 J0.
N665 X-9.6 I-9.6 J0.
N670 X15.3 I12.45 J0.
N675 X-15.3 I-15.3 J0.
N680 X21. I18.15 J0.
N685 X-21. I-21. J0.
N690 X21. I21. J0.
N695 G1 X20.993 Y-0.092 Z-2.485 F500.
N700 X20.972 Y-0.182 Z-2.471
N705 X20.941 Y-0.26 Z-2.428
N710 X20.899 Y-0.333 Z-2.385
N715 X20.86 Y-0.386 Z-2.319
N720 X20.814 Y-0.434 Z-2.253
N725 X20.748 Y-0.488 Z-2.085
N730 X20.724 Y-0.505 Z-1.9
N735 G0 Z15.
(2D POCKET2)
N740 G0 X2.799 Y849.465
N745 Z15.
N750 Z5.
N755 G1 Z3.1 F500.
N760 X2.794 Y849.438 Z2.918 F333.33
N765 X2.777 Y849.358 Z2.754
N770 X2.745 Y849.234 Z2.622
N775 X2.697 Y849.08 Z2.534
N780 X2.634 Y848.911 Z2.5
N785 G2 X-2.634 Y851.089 Z2.187 I-2.634 J1.089
N790 X2.634 Y848.911 Z1.875 I2.634 J-1.089
N795 X-2.634 Y851.089 Z1.562 I-2.634 J1.089
N800 X2.634 Y848.911 Z1.249 I2.634 J-1.089
N805 X-2.634 Y851.089 Z0.937 I-2.634 J1.089
N810 X2.634 Y848.911 Z0.624 I2.634 J-1.089
N815 X-2.634 Y851.089 Z0.311 I-2.634 J1.089
N820 X2.634 Y848.911 Z-0.001 I2.634 J-1.089
N825 X-2.634 Y851.089 Z-0.314 I-2.634 J1.089
N830 X2.634 Y848.911 Z-0.627 I2.634 J-1.089
N835 X-2.634 Y851.089 Z-0.939 I-2.634 J1.089
N840 X2.634 Y848.911 Z-1.252 I2.634 J-1.089
N845 X-2.634 Y851.089 Z-1.565 I-2.634 J1.089
N850 X2.634 Y848.911 Z-1.877 I2.634 J-1.089
N855 X-2.634 Y851.089 Z-2.19 I-2.634 J1.089
N860 X2.634 Y848.911 Z-2.503 I2.634 J-1.089
N865 X-2.634 Y851.089 Z-2.815 I-2.634 J1.089
N870 X2.634 Y848.911 Z-3.128 I2.634 J-1.089
N875 X-2.634 Y851.089 Z-3.441 I-2.634 J1.089
N880 X2.85 Y850. Z-3.714 I2.634 J-1.089
N885 X-2.85 I-2.85 J0. F1000.
N890 X8.55 I5.7 J0.
N895 X0. Y841.45 I-8.55 J0.
N900 X-8.55 Y850. I0. J8.55
N905 X14.25 I11.4 J0.
N910 X-14.25 I-14.25 J0.
N915 X14.25 I14.25 J0.
N920 X13.928 Y849.701 I-0.3 J0.
N925 G1 X3.023 Y850.513
N930 G3 X2.696 Y850.221 I-0.027 J-0.299
N935 G1 X2.669 Y849.05
N940 X2.663 Y848.997
N945 X2.648 Y848.946
N950 G2 X-2.648 Y851.054 Z-4.027 I-2.648 J1.054 F333.33
N955 X2.648 Y848.946 Z-4.34 I2.648 J-1.054
N960 X-2.648 Y851.054 Z-4.652 I-2.648 J1.054
N965 X2.648 Y848.946 Z-4.965 I2.648 J-1.054
N970 X-2.648 Y851.054 Z-5.278 I-2.648 J1.054
N975 X2.648 Y848.946 Z-5.59 I2.648 J-1.054
N980 X-2.648 Y851.054 Z-5.903 I-2.648 J1.054
N985 X2.648 Y848.946 Z-6.216 I2.648 J-1.054
N990 X-2.648 Y851.054 Z-6.528 I-2.648 J1.054
N995 X2.648 Y848.946 Z-6.841 I2.648 J-1.054
N1000 X-2.648 Y851.054 Z-7.154 I-2.648 J1.054
N1005 X2.85 Y850. Z-7.429 I2.648 J-1.054
N1010 X-2.85 I-2.85 J0. F1000.
N1015 X8.55 I5.7 J0.
N1020 X0. Y841.45 I-8.55 J0.
N1025 X-8.55 Y850. I0. J8.55
N1030 X14.25 I11.4 J0.
N1035 X-14.25 I-14.25 J0.
N1040 X14.25 I14.25 J0.
N1045 X13.928 Y849.701 I-0.3 J0.
N1050 G1 X3.023 Y850.513
N1055 G3 X2.696 Y850.221 I-0.027 J-0.299
N1060 G1 X2.669 Y849.05
N1065 X2.663 Y848.997
N1070 X2.648 Y848.946
N1075 G2 X-2.648 Y851.054 Z-7.741 I-2.648 J1.054 F333.33
N1080 X2.648 Y848.946 Z-8.054 I2.648 J-1.054
N1085 X-2.648 Y851.054 Z-8.367 I-2.648 J1.054
N1090 X2.648 Y848.946 Z-8.679 I2.648 J-1.054
N1095 X-2.648 Y851.054 Z-8.992 I-2.648 J1.054
N1100 X2.648 Y848.946 Z-9.305 I2.648 J-1.054
N1105 X-2.648 Y851.054 Z-9.617 I-2.648 J1.054
N1110 X2.648 Y848.946 Z-9.93 I2.648 J-1.054
N1115 X-2.648 Y851.054 Z-10.243 I-2.648 J1.054
N1120 X2.648 Y848.946 Z-10.555 I2.648 J-1.054
N1125 X-2.648 Y851.054 Z-10.868 I-2.648 J1.054
N1130 X2.85 Y850. Z-11.143 I2.648 J-1.054
N1135 X-2.85 I-2.85 J0. F1000.
N1140 X8.55 I5.7 J0.
N1145 X0. Y841.45 I-8.55 J0.
N1150 X-8.55 Y850. I0. J8.55
N1155 X14.25 I11.4 J0.
N1160 X-14.25 I-14.25 J0.
N1165 X14.25 I14.25 J0.
N1170 X13.928 Y849.701 I-0.3 J0.
N1175 G1 X3.023 Y850.513
N1180 G3 X2.696 Y850.221 I-0.027 J-0.299
N1185 G1 X2.669 Y849.05
N1190 X2.663 Y848.997
N1195 X2.648 Y848.946
N1200 G2 X-2.648 Y851.054 Z-11.456 I-2.648 J1.054 F333.33
N1205 X2.648 Y848.946 Z-11.768 I2.648 J-1.054
N1210 X-2.648 Y851.054 Z-12.081 I-2.648 J1.054
N1215 X2.648 Y848.946 Z-12.394 I2.648 J-1.054
N1220 X-2.648 Y851.054 Z-12.706 I-2.648 J1.054
N1225 X2.648 Y848.946 Z-13.019 I2.648 J-1.054
N1230 X-2.648 Y851.054 Z-13.332 I-2.648 J1.054
N1235 X2.648 Y848.946 Z-13.644 I2.648 J-1.054
N1240 X-2.648 Y851.054 Z-13.957 I-2.648 J1.054
N1245 X2.648 Y848.946 Z-14.27 I2.648 J-1.054
N1250 X-2.648 Y851.054 Z-14.582 I-2.648 J1.054
N1255 X2.85 Y850. Z-14.857 I2.648 J-1.054
N1260 X-2.85 I-2.85 J0. F1000.
N1265 X8.55 I5.7 J0.
N1270 X0. Y841.45 I-8.55 J0.
N1275 X-8.55 Y850. I0. J8.55
N1280 X14.25 I11.4 J0.
N1285 X-14.25 I-14.25 J0.
N1290 X14.25 I14.25 J0.
N1295 X13.928 Y849.701 I-0.3 J0.
N1300 G1 X3.023 Y850.513
N1305 G3 X2.696 Y850.221 I-0.027 J-0.299
N1310 G1 X2.669 Y849.05
N1315 X2.663 Y848.997
N1320 X2.648 Y848.946
N1325 G2 X-2.648 Y851.054 Z-15.17 I-2.648 J1.054 F333.33
N1330 X2.648 Y848.946 Z-15.482 I2.648 J-1.054
N1335 X-2.648 Y851.054 Z-15.795 I-2.648 J1.054
N1340 X2.648 Y848.946 Z-16.108 I2.648 J-1.054
N1345 X-2.648 Y851.054 Z-16.42 I-2.648 J1.054
N1350 X2.648 Y848.946 Z-16.733 I2.648 J-1.054
N1355 X-2.648 Y851.054 Z-17.046 I-2.648 J1.054
N1360 X2.648 Y848.946 Z-17.358 I2.648 J-1.054
N1365 X-2.648 Y851.054 Z-17.671 I-2.648 J1.054
N1370 X2.648 Y848.946 Z-17.984 I2.648 J-1.054
N1375 X-2.648 Y851.054 Z-18.296 I-2.648 J1.054
N1380 X2.85 Y850. Z-18.571 I2.648 J-1.054
N1385 X-2.85 I-2.85 J0. F1000.
N1390 X8.55 I5.7 J0.
N1395 X0. Y841.45 I-8.55 J0.
N1400 X-8.55 Y850. I0. J8.55
N1405 X14.25 I11.4 J0.
N1410 X-14.25 I-14.25 J0.
N1415 X14.25 I14.25 J0.
N1420 X13.928 Y849.701 I-0.3 J0.
N1425 G1 X3.023 Y850.513
N1430 G3 X2.696 Y850.221 I-0.027 J-0.299
N1435 G1 X2.669 Y849.05
N1440 X2.663 Y848.997
N1445 X2.648 Y848.946
N1450 G2 X-2.648 Y851.054 Z-18.884 I-2.648 J1.054 F333.33
N1455 X2.648 Y848.946 Z-19.197 I2.648 J-1.054
N1460 X-2.648 Y851.054 Z-19.509 I-2.648 J1.054
N1465 X2.648 Y848.946 Z-19.822 I2.648 J-1.054
N1470 X-2.648 Y851.054 Z-20.135 I-2.648 J1.054
N1475 X2.648 Y848.946 Z-20.447 I2.648 J-1.054
N1480 X-2.648 Y851.054 Z-20.76 I-2.648 J1.054
N1485 X2.648 Y848.946 Z-21.073 I2.648 J-1.054
N1490 X-2.648 Y851.054 Z-21.385 I-2.648 J1.054
N1495 X2.648 Y848.946 Z-21.698 I2.648 J-1.054
N1500 X-2.648 Y851.054 Z-22.011 I-2.648 J1.054
N1505 X2.85 Y850. Z-22.286 I2.648 J-1.054
N1510 X-2.85 I-2.85 J0. F1000.
N1515 X8.55 I5.7 J0.
N1520 X0. Y841.45 I-8.55 J0.
N1525 X-8.55 Y850. I0. J8.55
N1530 X14.25 I11.4 J0.
N1535 X-14.25 I-14.25 J0.
N1540 X14.25 I14.25 J0.
N1545 X13.928 Y849.701 I-0.3 J0.
N1550 G1 X3.023 Y850.513
N1555 G3 X2.696 Y850.221 I-0.027 J-0.299
N1560 G1 X2.669 Y849.05
N1565 X2.663 Y848.997
N1570 X2.648 Y848.946
N1575 G2 X-2.648 Y851.054 Z-22.598 I-2.648 J1.054 F333.33
N1580 X2.648 Y848.946 Z-22.911 I2.648 J-1.054
N1585 X-2.648 Y851.054 Z-23.224 I-2.648 J1.054
N1590 X2.648 Y848.946 Z-23.536 I2.648 J-1.054
N1595 X-2.648 Y851.054 Z-23.849 I-2.648 J1.054
N1600 X2.648 Y848.946 Z-24.162 I2.648 J-1.054
N1605 X-2.648 Y851.054 Z-24.474 I-2.648 J1.054
N1610 X2.648 Y848.946 Z-24.787 I2.648 J-1.054
N1615 X-2.648 Y851.054 Z-25.1 I-2.648 J1.054
N1620 X2.648 Y848.946 Z-25.412 I2.648 J-1.054
N1625 X-2.648 Y851.054 Z-25.725 I-2.648 J1.054
N1630 X2.85 Y850. Z-26. I2.648 J-1.054
N1635 X-2.85 I-2.85 J0. F1000.
N1640 X8.55 I5.7 J0.
N1645 X0. Y841.45 I-8.55 J0.
N1650 X-8.55 Y850. I0. J8.55
N1655 X14.25 I11.4 J0.
N1660 X-14.25 I-14.25 J0.
N1665 X14.25 I14.25 J0.
N1670 G1 X14.243 Y849.908 Z-25.985 F500.
N1675 X14.222 Y849.818 Z-25.971
N1680 X14.191 Y849.74 Z-25.928
N1685 X14.149 Y849.667 Z-25.885
N1690 X14.11 Y849.614 Z-25.819
N1695 X14.064 Y849.566 Z-25.753
N1700 X13.998 Y849.512 Z-25.585
N1705 X13.974 Y849.495 Z-25.4
N1710 G0 Z5.
N1715 X2.799 Y1099.465
N1720 G1 Z3.1 F500.
N1725 X2.794 Y1099.438 Z2.918 F333.33
N1730 X2.777 Y1099.358 Z2.754
N1735 X2.745 Y1099.234 Z2.622
N1740 X2.697 Y1099.08 Z2.534
N1745 X2.634 Y1098.911 Z2.5
N1750 G2 X-2.634 Y1101.089 Z2.187 I-2.634 J1.089
N1755 X2.634 Y1098.911 Z1.875 I2.634 J-1.089
N1760 X-2.634 Y1101.089 Z1.562 I-2.634 J1.089
N1765 X2.634 Y1098.911 Z1.249 I2.634 J-1.089
N1770 X-2.634 Y1101.089 Z0.937 I-2.634 J1.089
N1775 X2.634 Y1098.911 Z0.624 I2.634 J-1.089
N1780 X-2.634 Y1101.089 Z0.311 I-2.634 J1.089
N1785 X2.634 Y1098.911 Z-0.001 I2.634 J-1.089
N1790 X-2.634 Y1101.089 Z-0.314 I-2.634 J1.089
N1795 X2.634 Y1098.911 Z-0.627 I2.634 J-1.089
N1800 X-2.634 Y1101.089 Z-0.939 I-2.634 J1.089
N1805 X2.634 Y1098.911 Z-1.252 I2.634 J-1.089
N1810 X-2.634 Y1101.089 Z-1.565 I-2.634 J1.089
N1815 X2.634 Y1098.911 Z-1.877 I2.634 J-1.089
N1820 X-2.634 Y1101.089 Z-2.19 I-2.634 J1.089
N1825 X2.634 Y1098.911 Z-2.503 I2.634 J-1.089
N1830 X-2.634 Y1101.089 Z-2.815 I-2.634 J1.089
N1835 X2.634 Y1098.911 Z-3.128 I2.634 J-1.089
N1840 X-2.634 Y1101.089 Z-3.441 I-2.634 J1.089
N1845 X2.85 Y1100. Z-3.714 I2.634 J-1.089
N1850 X0. Y1097.15 I-2.85 J0. F1000.
N1855 X-2.85 Y1100. I0. J2.85
N1860 X8.55 I5.7 J0.
N1865 X0. Y1091.45 I-8.55 J0.
N1870 X-8.55 Y1100. I0. J8.55
N1875 X14.25 I11.4 J0.
N1880 X-14.25 I-14.25 J0.
N1885 X14.25 I14.25 J0.
N1890 X13.928 Y1099.701 I-0.3 J0.
N1895 G1 X3.023 Y1100.513
N1900 G3 X2.696 Y1100.221 I-0.027 J-0.299
N1905 G1 X2.669 Y1099.05
N1910 X2.663 Y1098.997
N1915 X2.648 Y1098.946
N1920 G2 X-2.648 Y1101.054 Z-4.027 I-2.648 J1.054 F333.33
N1925 X2.648 Y1098.946 Z-4.34 I2.648 J-1.054
N1930 X-2.648 Y1101.054 Z-4.652 I-2.648 J1.054
N1935 X2.648 Y1098.946 Z-4.965 I2.648 J-1.054
N1940 X-2.648 Y1101.054 Z-5.278 I-2.648 J1.054
N1945 X2.648 Y1098.946 Z-5.59 I2.648 J-1.054
N1950 X-2.648 Y1101.054 Z-5.903 I-2.648 J1.054
N1955 X2.648 Y1098.946 Z-6.216 I2.648 J-1.054
N1960 X-2.648 Y1101.054 Z-6.528 I-2.648 J1.054
N1965 X2.648 Y1098.946 Z-6.841 I2.648 J-1.054
N1970 X-2.648 Y1101.054 Z-7.154 I-2.648 J1.054
N1975 X2.85 Y1100. Z-7.429 I2.648 J-1.054
N1980 X0. Y1097.15 I-2.85 J0. F1000.
N1985 X-2.85 Y1100. I0. J2.85
N1990 X8.55 I5.7 J0.
N1995 X0. Y1091.45 I-8.55 J0.
N2000 X-8.55 Y1100. I0. J8.55
N2005 X14.25 I11.4 J0.
N2010 X-14.25 I-14.25 J0.
N2015 X14.25 I14.25 J0.
N2020 X13.928 Y1099.701 I-0.3 J0.
N2025 G1 X3.023 Y1100.513
N2030 G3 X2.696 Y1100.221 I-0.027 J-0.299
N2035 G1 X2.669 Y1099.05
N2040 X2.663 Y1098.997
N2045 X2.648 Y1098.946
N2050 G2 X-2.648 Y1101.054 Z-7.741 I-2.648 J1.054 F333.33
N2055 X2.648 Y1098.946 Z-8.054 I2.648 J-1.054
N2060 X-2.648 Y1101.054 Z-8.367 I-2.648 J1.054
N2065 X2.648 Y1098.946 Z-8.679 I2.648 J-1.054
N2070 X-2.648 Y1101.054 Z-8.992 I-2.648 J1.054
N2075 X2.648 Y1098.946 Z-9.305 I2.648 J-1.054
N2080 X-2.648 Y1101.054 Z-9.617 I-2.648 J1.054
N2085 X2.648 Y1098.946 Z-9.93 I2.648 J-1.054
N2090 X-2.648 Y1101.054 Z-10.243 I-2.648 J1.054
N2095 X2.648 Y1098.946 Z-10.555 I2.648 J-1.054
N2100 X-2.648 Y1101.054 Z-10.868 I-2.648 J1.054
N2105 X2.85 Y1100. Z-11.143 I2.648 J-1.054
N2110 X0. Y1097.15 I-2.85 J0. F1000.
N2115 X-2.85 Y1100. I0. J2.85
N2120 X8.55 I5.7 J0.
N2125 X0. Y1091.45 I-8.55 J0.
N2130 X-8.55 Y1100. I0. J8.55
N2135 X14.25 I11.4 J0.
N2140 X-14.25 I-14.25 J0.
N2145 X14.25 I14.25 J0.
N2150 X13.928 Y1099.701 I-0.3 J0.
N2155 G1 X3.023 Y1100.513
N2160 G3 X2.696 Y1100.221 I-0.027 J-0.299
N2165 G1 X2.669 Y1099.05
N2170 X2.663 Y1098.997
N2175 X2.648 Y1098.946
N2180 G2 X-2.648 Y1101.054 Z-11.456 I-2.648 J1.054 F333.33
N2185 X2.648 Y1098.946 Z-11.768 I2.648 J-1.054
N2190 X-2.648 Y1101.054 Z-12.081 I-2.648 J1.054
N2195 X2.648 Y1098.946 Z-12.394 I2.648 J-1.054
N2200 X-2.648 Y1101.054 Z-12.706 I-2.648 J1.054
N2205 X2.648 Y1098.946 Z-13.019 I2.648 J-1.054
N2210 X-2.648 Y1101.054 Z-13.332 I-2.648 J1.054
N2215 X2.648 Y1098.946 Z-13.644 I2.648 J-1.054
N2220 X-2.648 Y1101.054 Z-13.957 I-2.648 J1.054
N2225 X2.648 Y1098.946 Z-14.27 I2.648 J-1.054
N2230 X-2.648 Y1101.054 Z-14.582 I-2.648 J1.054
N2235 X2.85 Y1100. Z-14.857 I2.648 J-1.054
N2240 X0. Y1097.15 I-2.85 J0. F1000.
N2245 X-2.85 Y1100. I0. J2.85
N2250 X8.55 I5.7 J0.
N2255 X0. Y1091.45 I-8.55 J0.
N2260 X-8.55 Y1100. I0. J8.55
N2265 X14.25 I11.4 J0.
N2270 X-14.25 I-14.25 J0.
N2275 X14.25 I14.25 J0.
N2280 X13.928 Y1099.701 I-0.3 J0.
N2285 G1 X3.023 Y1100.513
N2290 G3 X2.696 Y1100.221 I-0.027 J-0.299
N2295 G1 X2.669 Y1099.05
N2300 X2.663 Y1098.997
N2305 X2.648 Y1098.946
N2310 G2 X-2.648 Y1101.054 Z-15.17 I-2.648 J1.054 F333.33
N2315 X2.648 Y1098.946 Z-15.482 I2.648 J-1.054
N2320 X-2.648 Y1101.054 Z-15.795 I-2.648 J1.054
N2325 X2.648 Y1098.946 Z-16.108 I2.648 J-1.054
N2330 X-2.648 Y1101.054 Z-16.42 I-2.648 J1.054
N2335 X2.648 Y1098.946 Z-16.733 I2.648 J-1.054
N2340 X-2.648 Y1101.054 Z-17.046 I-2.648 J1.054
N2345 X2.648 Y1098.946 Z-17.358 I2.648 J-1.054
N2350 X-2.648 Y1101.054 Z-17.671 I-2.648 J1.054
N2355 X2.648 Y1098.946 Z-17.984 I2.648 J-1.054
N2360 X-2.648 Y1101.054 Z-18.296 I-2.648 J1.054
N2365 X2.85 Y1100. Z-18.571 I2.648 J-1.054
N2370 X0. Y1097.15 I-2.85 J0. F1000.
N2375 X-2.85 Y1100. I0. J2.85
N2380 X8.55 I5.7 J0.
N2385 X0. Y1091.45 I-8.55 J0.
N2390 X-8.55 Y1100. I0. J8.55
N2395 X14.25 I11.4 J0.
N2400 X-14.25 I-14.25 J0.
N2405 X14.25 I14.25 J0.
N2410 X13.928 Y1099.701 I-0.3 J0.
N2415 G1 X3.023 Y1100.513
N2420 G3 X2.696 Y1100.221 I-0.027 J-0.299
N2425 G1 X2.669 Y1099.05
N2430 X2.663 Y1098.997
N2435 X2.648 Y1098.946
N2440 G2 X-2.648 Y1101.054 Z-18.884 I-2.648 J1.054 F333.33
N2445 X2.648 Y1098.946 Z-19.197 I2.648 J-1.054
N2450 X-2.648 Y1101.054 Z-19.509 I-2.648 J1.054
N2455 X2.648 Y1098.946 Z-19.822 I2.648 J-1.054
N2460 X-2.648 Y1101.054 Z-20.135 I-2.648 J1.054
N2465 X2.648 Y1098.946 Z-20.447 I2.648 J-1.054
N2470 X-2.648 Y1101.054 Z-20.76 I-2.648 J1.054
N2475 X2.648 Y1098.946 Z-21.073 I2.648 J-1.054
N2480 X-2.648 Y1101.054 Z-21.385 I-2.648 J1.054
N2485 X2.648 Y1098.946 Z-21.698 I2.648 J-1.054
N2490 X-2.648 Y1101.054 Z-22.011 I-2.648 J1.054
N2495 X2.85 Y1100. Z-22.286 I2.648 J-1.054
N2500 X0. Y1097.15 I-2.85 J0. F1000.
N2505 X-2.85 Y1100. I0. J2.85
N2510 X8.55 I5.7 J0.
N2515 X0. Y1091.45 I-8.55 J0.
N2520 X-8.55 Y1100. I0. J8.55
N2525 X14.25 I11.4 J0.
N2530 X-14.25 I-14.25 J0.
N2535 X14.25 I14.25 J0.
N2540 X13.928 Y1099.701 I-0.3 J0.
N2545 G1 X3.023 Y1100.513
N2550 G3 X2.696 Y1100.221 I-0.027 J-0.299
N2555 G1 X2.669 Y1099.05
N2560 X2.663 Y1098.997
N2565 X2.648 Y1098.946
N2570 G2 X-2.648 Y1101.054 Z-22.598 I-2.648 J1.054 F333.33
N2575 X2.648 Y1098.946 Z-22.911 I2.648 J-1.054
N2580 X-2.648 Y1101.054 Z-23.224 I-2.648 J1.054
N2585 X2.648 Y1098.946 Z-23.536 I2.648 J-1.054
N2590 X-2.648 Y1101.054 Z-23.849 I-2.648 J1.054
N2595 X2.648 Y1098.946 Z-24.162 I2.648 J-1.054
N2600 X-2.648 Y1101.054 Z-24.474 I-2.648 J1.054
N2605 X2.648 Y1098.946 Z-24.787 I2.648 J-1.054
N2610 X-2.648 Y1101.054 Z-25.1 I-2.648 J1.054
N2615 X2.648 Y1098.946 Z-25.412 I2.648 J-1.054
N2620 X-2.648 Y1101.054 Z-25.725 I-2.648 J1.054
N2625 X2.85 Y1100. Z-26. I2.648 J-1.054
N2630 X0. Y1097.15 I-2.85 J0. F1000.
N2635 X-2.85 Y1100. I0. J2.85
N2640 X8.55 I5.7 J0.
N2645 X0. Y1091.45 I-8.55 J0.
N2650 X-8.55 Y1100. I0. J8.55
N2655 X14.25 I11.4 J0.
N2660 X-14.25 I-14.25 J0.
N2665 X14.25 I14.25 J0.
N2670 G1 X14.243 Y1099.908 Z-25.985 F500.
N2675 X14.222 Y1099.818 Z-25.971
N2680 X14.191 Y1099.74 Z-25.928
N2685 X14.149 Y1099.667 Z-25.885
N2690 X14.11 Y1099.614 Z-25.819
N2695 X14.064 Y1099.566 Z-25.753
N2700 X13.998 Y1099.512 Z-25.585
N2705 X13.974 Y1099.495 Z-25.4
N2710 G0 Z5.
N2715 X282.799 Y1099.465
N2720 G1 Z3.1 F500.
N2725 X282.794 Y1099.438 Z2.918 F333.33
N2730 X282.777 Y1099.358 Z2.754
N2735 X282.745 Y1099.234 Z2.622
N2740 X282.697 Y1099.08 Z2.534
N2745 X282.634 Y1098.911 Z2.5
N2750 G2 X277.366 Y1101.089 Z2.187 I-2.634 J1.089
N2755 X282.634 Y1098.911 Z1.875 I2.634 J-1.089
N2760 X277.366 Y1101.089 Z1.562 I-2.634 J1.089
N2765 X282.634 Y1098.911 Z1.249 I2.634 J-1.089
N2770 X277.366 Y1101.089 Z0.937 I-2.634 J1.089
N2775 X282.634 Y1098.911 Z0.624 I2.634 J-1.089
N2780 X277.366 Y1101.089 Z0.311 I-2.634 J1.089
N2785 X282.634 Y1098.911 Z-0.001 I2.634 J-1.089
N2790 X277.366 Y1101.089 Z-0.314 I-2.634 J1.089
N2795 X282.634 Y1098.911 Z-0.627 I2.634 J-1.089
N2800 X277.366 Y1101.089 Z-0.939 I-2.634 J1.089
N2805 X282.634 Y1098.911 Z-1.252 I2.634 J-1.089
N2810 X277.366 Y1101.089 Z-1.565 I-2.634 J1.089
N2815 X282.634 Y1098.911 Z-1.877 I2.634 J-1.089
N2820 X277.366 Y1101.089 Z-2.19 I-2.634 J1.089
N2825 X282.634 Y1098.911 Z-2.503 I2.634 J-1.089
N2830 X277.366 Y1101.089 Z-2.815 I-2.634 J1.089
N2835 X282.634 Y1098.911 Z-3.128 I2.634 J-1.089
N2840 X277.366 Y1101.089 Z-3.441 I-2.634 J1.089
N2845 X282.85 Y1100. Z-3.714 I2.634 J-1.089
N2850 X277.15 I-2.85 J0. F1000.
N2855 X288.55 I5.7 J0.
N2860 X271.45 I-8.55 J0.
N2865 X294.25 I11.4 J0.
N2870 X265.75 I-14.25 J0.
N2875 X294.25 I14.25 J0.
N2880 X293.928 Y1099.701 I-0.3 J0.
N2885 G1 X283.023 Y1100.513
N2890 G3 X282.696 Y1100.221 I-0.027 J-0.299
N2895 G1 X282.669 Y1099.05
N2900 X282.663 Y1098.997
N2905 X282.648 Y1098.946
N2910 G2 X277.352 Y1101.054 Z-4.027 I-2.648 J1.054 F333.33
N2915 X282.648 Y1098.946 Z-4.34 I2.648 J-1.054
N2920 X277.352 Y1101.054 Z-4.652 I-2.648 J1.054
N2925 X282.648 Y1098.946 Z-4.965 I2.648 J-1.054
N2930 X277.352 Y1101.054 Z-5.278 I-2.648 J1.054
N2935 X282.648 Y1098.946 Z-5.59 I2.648 J-1.054
N2940 X277.352 Y1101.054 Z-5.903 I-2.648 J1.054
N2945 X282.648 Y1098.946 Z-6.216 I2.648 J-1.054
N2950 X277.352 Y1101.054 Z-6.528 I-2.648 J1.054
N2955 X282.648 Y1098.946 Z-6.841 I2.648 J-1.054
N2960 X277.352 Y1101.054 Z-7.154 I-2.648 J1.054
N2965 X282.85 Y1100. Z-7.429 I2.648 J-1.054
N2970 X277.15 I-2.85 J0. F1000.
N2975 X288.55 I5.7 J0.
N2980 X271.45 I-8.55 J0.
N2985 X294.25 I11.4 J0.
N2990 X265.75 I-14.25 J0.
N2995 X294.25 I14.25 J0.
N3000 X293.928 Y1099.701 I-0.3 J0.
N3005 G1 X283.023 Y1100.513
N3010 G3 X282.696 Y1100.221 I-0.027 J-0.299
N3015 G1 X282.669 Y1099.05
N3020 X282.663 Y1098.997
N3025 X282.648 Y1098.946
N3030 G2 X277.352 Y1101.054 Z-7.741 I-2.648 J1.054 F333.33
N3035 X282.648 Y1098.946 Z-8.054 I2.648 J-1.054
N3040 X277.352 Y1101.054 Z-8.367 I-2.648 J1.054
N3045 X282.648 Y1098.946 Z-8.679 I2.648 J-1.054
N3050 X277.352 Y1101.054 Z-8.992 I-2.648 J1.054
N3055 X282.648 Y1098.946 Z-9.305 I2.648 J-1.054
N3060 X277.352 Y1101.054 Z-9.617 I-2.648 J1.054
N3065 X282.648 Y1098.946 Z-9.93 I2.648 J-1.054
N3070 X277.352 Y1101.054 Z-10.243 I-2.648 J1.054
N3075 X282.648 Y1098.946 Z-10.555 I2.648 J-1.054
N3080 X277.352 Y1101.054 Z-10.868 I-2.648 J1.054
N3085 X282.85 Y1100. Z-11.143 I2.648 J-1.054
N3090 X277.15 I-2.85 J0. F1000.
N3095 X288.55 I5.7 J0.
N3100 X271.45 I-8.55 J0.
N3105 X294.25 I11.4 J0.
N3110 X265.75 I-14.25 J0.
N3115 X294.25 I14.25 J0.
N3120 X293.928 Y1099.701 I-0.3 J0.
N3125 G1 X283.023 Y1100.513
N3130 G3 X282.696 Y1100.221 I-0.027 J-0.299
N3135 G1 X282.669 Y1099.05
N3140 X282.663 Y1098.997
N3145 X282.648 Y1098.946
N3150 G2 X277.352 Y1101.054 Z-11.456 I-2.648 J1.054 F333.33
N3155 X282.648 Y1098.946 Z-11.768 I2.648 J-1.054
N3160 X277.352 Y1101.054 Z-12.081 I-2.648 J1.054
N3165 X282.648 Y1098.946 Z-12.394 I2.648 J-1.054
N3170 X277.352 Y1101.054 Z-12.706 I-2.648 J1.054
N3175 X282.648 Y1098.946 Z-13.019 I2.648 J-1.054
N3180 X277.352 Y1101.054 Z-13.332 I-2.648 J1.054
N3185 X282.648 Y1098.946 Z-13.644 I2.648 J-1.054
N3190 X277.352 Y1101.054 Z-13.957 I-2.648 J1.054
N3195 X282.648 Y1098.946 Z-14.27 I2.648 J-1.054
N3200 X277.352 Y1101.054 Z-14.582 I-2.648 J1.054
N3205 X282.85 Y1100. Z-14.857 I2.648 J-1.054
N3210 X277.15 I-2.85 J0. F1000.
N3215 X288.55 I5.7 J0.
N3220 X271.45 I-8.55 J0.
N3225 X294.25 I11.4 J0.
N3230 X265.75 I-14.25 J0.
N3235 X294.25 I14.25 J0.
N3240 X293.928 Y1099.701 I-0.3 J0.
N3245 G1 X283.023 Y1100.513
N3250 G3 X282.696 Y1100.221 I-0.027 J-0.299
N3255 G1 X282.669 Y1099.05
N3260 X282.663 Y1098.997
N3265 X282.648 Y1098.946
N3270 G2 X277.352 Y1101.054 Z-15.17 I-2.648 J1.054 F333.33
N3275 X282.648 Y1098.946 Z-15.482 I2.648 J-1.054
N3280 X277.352 Y1101.054 Z-15.795 I-2.648 J1.054
N3285 X282.648 Y1098.946 Z-16.108 I2.648 J-1.054
N3290 X277.352 Y1101.054 Z-16.42 I-2.648 J1.054
N3295 X282.648 Y1098.946 Z-16.733 I2.648 J-1.054
N3300 X277.352 Y1101.054 Z-17.046 I-2.648 J1.054
N3305 X282.648 Y1098.946 Z-17.358 I2.648 J-1.054
N3310 X277.352 Y1101.054 Z-17.671 I-2.648 J1.054
N3315 X282.648 Y1098.946 Z-17.984 I2.648 J-1.054
N3320 X277.352 Y1101.054 Z-18.296 I-2.648 J1.054
N3325 X282.85 Y1100. Z-18.571 I2.648 J-1.054
N3330 X277.15 I-2.85 J0. F1000.
N3335 X288.55 I5.7 J0.
N3340 X271.45 I-8.55 J0.
N3345 X294.25 I11.4 J0.
N3350 X265.75 I-14.25 J0.
N3355 X294.25 I14.25 J0.
N3360 X293.928 Y1099.701 I-0.3 J0.
N3365 G1 X283.023 Y1100.513
N3370 G3 X282.696 Y1100.221 I-0.027 J-0.299
N3375 G1 X282.669 Y1099.05
N3380 X282.663 Y1098.997
N3385 X282.648 Y1098.946
N3390 G2 X277.352 Y1101.054 Z-18.884 I-2.648 J1.054 F333.33
N3395 X282.648 Y1098.946 Z-19.197 I2.648 J-1.054
N3400 X277.352 Y1101.054 Z-19.509 I-2.648 J1.054
N3405 X282.648 Y1098.946 Z-19.822 I2.648 J-1.054
N3410 X277.352 Y1101.054 Z-20.135 I-2.648 J1.054
N3415 X282.648 Y1098.946 Z-20.447 I2.648 J-1.054
N3420 X277.352 Y1101.054 Z-20.76 I-2.648 J1.054
N3425 X282.648 Y1098.946 Z-21.073 I2.648 J-1.054
N3430 X277.352 Y1101.054 Z-21.385 I-2.648 J1.054
N3435 X282.648 Y1098.946 Z-21.698 I2.648 J-1.054
N3440 X277.352 Y1101.054 Z-22.011 I-2.648 J1.054
N3445 X282.85 Y1100. Z-22.286 I2.648 J-1.054
N3450 X277.15 I-2.85 J0. F1000.
N3455 X288.55 I5.7 J0.
N3460 X271.45 I-8.55 J0.
N3465 X294.25 I11.4 J0.
N3470 X265.75 I-14.25 J0.
N3475 X294.25 I14.25 J0.
N3480 X293.928 Y1099.701 I-0.3 J0.
N3485 G1 X283.023 Y1100.513
N3490 G3 X282.696 Y1100.221 I-0.027 J-0.299
N3495 G1 X282.669 Y1099.05
N3500 X282.663 Y1098.997
N3505 X282.648 Y1098.946
N3510 G2 X277.352 Y1101.054 Z-22.598 I-2.648 J1.054 F333.33
N3515 X282.648 Y1098.946 Z-22.911 I2.648 J-1.054
N3520 X277.352 Y1101.054 Z-23.224 I-2.648 J1.054
N3525 X282.648 Y1098.946 Z-23.536 I2.648 J-1.054
N3530 X277.352 Y1101.054 Z-23.849 I-2.648 J1.054
N3535 X282.648 Y1098.946 Z-24.162 I2.648 J-1.054
N3540 X277.352 Y1101.054 Z-24.474 I-2.648 J1.054
N3545 X282.648 Y1098.946 Z-24.787 I2.648 J-1.054
N3550 X277.352 Y1101.054 Z-25.1 I-2.648 J1.054
N3555 X282.648 Y1098.946 Z-25.412 I2.648 J-1.054
N3560 X277.352 Y1101.054 Z-25.725 I-2.648 J1.054
N3565 X282.85 Y1100. Z-26. I2.648 J-1.054
N3570 X277.15 I-2.85 J0. F1000.
N3575 X288.55 I5.7 J0.
N3580 X271.45 I-8.55 J0.
N3585 X294.25 I11.4 J0.
N3590 X265.75 I-14.25 J0.
N3595 X294.25 I14.25 J0.
N3600 G1 X294.243 Y1099.908 Z-25.985 F500.
N3605 X294.222 Y1099.818 Z-25.971
N3610 X294.191 Y1099.74 Z-25.928
N3615 X294.149 Y1099.667 Z-25.885
N3620 X294.11 Y1099.614 Z-25.819
N3625 X294.064 Y1099.566 Z-25.753
N3630 X293.999 Y1099.512 Z-25.585
N3635 X293.974 Y1099.495 Z-25.4
N3640 G0 Z5.
N3645 X282.799 Y849.465
N3650 G1 Z3.1 F500.
N3655 X282.794 Y849.438 Z2.918 F333.33
N3660 X282.777 Y849.358 Z2.754
N3665 X282.745 Y849.234 Z2.622
N3670 X282.697 Y849.08 Z2.534
N3675 X282.634 Y848.911 Z2.5
N3680 G2 X277.366 Y851.089 Z2.187 I-2.634 J1.089
N3685 X282.634 Y848.911 Z1.875 I2.634 J-1.089
N3690 X277.366 Y851.089 Z1.562 I-2.634 J1.089
N3695 X282.634 Y848.911 Z1.249 I2.634 J-1.089
N3700 X277.366 Y851.089 Z0.937 I-2.634 J1.089
N3705 X282.634 Y848.911 Z0.624 I2.634 J-1.089
N3710 X277.366 Y851.089 Z0.311 I-2.634 J1.089
N3715 X282.634 Y848.911 Z-0.001 I2.634 J-1.089
N3720 X277.366 Y851.089 Z-0.314 I-2.634 J1.089
N3725 X282.634 Y848.911 Z-0.627 I2.634 J-1.089
N3730 X277.366 Y851.089 Z-0.939 I-2.634 J1.089
N3735 X282.634 Y848.911 Z-1.252 I2.634 J-1.089
N3740 X277.366 Y851.089 Z-1.565 I-2.634 J1.089
N3745 X282.634 Y848.911 Z-1.877 I2.634 J-1.089
N3750 X277.366 Y851.089 Z-2.19 I-2.634 J1.089
N3755 X282.634 Y848.911 Z-2.503 I2.634 J-1.089
N3760 X277.366 Y851.089 Z-2.815 I-2.634 J1.089
N3765 X282.634 Y848.911 Z-3.128 I2.634 J-1.089
N3770 X277.366 Y851.089 Z-3.441 I-2.634 J1.089
N3775 X282.85 Y850. Z-3.714 I2.634 J-1.089
N3780 X277.15 I-2.85 J0. F1000.
N3785 X288.55 I5.7 J0.
N3790 X271.45 I-8.55 J0.
N3795 X294.25 I11.4 J0.
N3800 X265.75 I-14.25 J0.
N3805 X294.25 I14.25 J0.
N3810 X293.928 Y849.701 I-0.3 J0.
N3815 G1 X283.023 Y850.513
N3820 G3 X282.696 Y850.221 I-0.027 J-0.299
N3825 G1 X282.669 Y849.05
N3830 X282.663 Y848.997
N3835 X282.648 Y848.946
N3840 G2 X277.352 Y851.054 Z-4.027 I-2.648 J1.054 F333.33
N3845 X282.648 Y848.946 Z-4.34 I2.648 J-1.054
N3850 X277.352 Y851.054 Z-4.652 I-2.648 J1.054
N3855 X282.648 Y848.946 Z-4.965 I2.648 J-1.054
N3860 X277.352 Y851.054 Z-5.278 I-2.648 J1.054
N3865 X282.648 Y848.946 Z-5.59 I2.648 J-1.054
N3870 X277.352 Y851.054 Z-5.903 I-2.648 J1.054
N3875 X282.648 Y848.946 Z-6.216 I2.648 J-1.054
N3880 X277.352 Y851.054 Z-6.528 I-2.648 J1.054
N3885 X282.648 Y848.946 Z-6.841 I2.648 J-1.054
N3890 X277.352 Y851.054 Z-7.154 I-2.648 J1.054
N3895 X282.85 Y850. Z-7.429 I2.648 J-1.054
N3900 X277.15 I-2.85 J0. F1000.
N3905 X288.55 I5.7 J0.
N3910 X271.45 I-8.55 J0.
N3915 X294.25 I11.4 J0.
N3920 X265.75 I-14.25 J0.
N3925 X294.25 I14.25 J0.
N3930 X293.928 Y849.701 I-0.3 J0.
N3935 G1 X283.023 Y850.513
N3940 G3 X282.696 Y850.221 I-0.027 J-0.299
N3945 G1 X282.669 Y849.05
N3950 X282.663 Y848.997
N3955 X282.648 Y848.946
N3960 G2 X277.352 Y851.054 Z-7.741 I-2.648 J1.054 F333.33
N3965 X282.648 Y848.946 Z-8.054 I2.648 J-1.054
N3970 X277.352 Y851.054 Z-8.367 I-2.648 J1.054
N3975 X282.648 Y848.946 Z-8.679 I2.648 J-1.054
N3980 X277.352 Y851.054 Z-8.992 I-2.648 J1.054
N3985 X282.648 Y848.946 Z-9.305 I2.648 J-1.054
N3990 X277.352 Y851.054 Z-9.617 I-2.648 J1.054
N3995 X282.648 Y848.946 Z-9.93 I2.648 J-1.054
N4000 X277.352 Y851.054 Z-10.243 I-2.648 J1.054
N4005 X282.648 Y848.946 Z-10.555 I2.648 J-1.054
N4010 X277.352 Y851.054 Z-10.868 I-2.648 J1.054
N4015 X282.85 Y850. Z-11.143 I2.648 J-1.054
N4020 X277.15 I-2.85 J0. F1000.
N4025 X288.55 I5.7 J0.
N4030 X271.45 I-8.55 J0.
N4035 X294.25 I11.4 J0.
N4040 X265.75 I-14.25 J0.
N4045 X294.25 I14.25 J0.
N4050 X293.928 Y849.701 I-0.3 J0.
N4055 G1 X283.023 Y850.513
N4060 G3 X282.696 Y850.221 I-0.027 J-0.299
N4065 G1 X282.669 Y849.05
N4070 X282.663 Y848.997
N4075 X282.648 Y848.946
N4080 G2 X277.352 Y851.054 Z-11.456 I-2.648 J1.054 F333.33
N4085 X282.648 Y848.946 Z-11.768 I2.648 J-1.054
N4090 X277.352 Y851.054 Z-12.081 I-2.648 J1.054
N4095 X282.648 Y848.946 Z-12.394 I2.648 J-1.054
N4100 X277.352 Y851.054 Z-12.706 I-2.648 J1.054
N4105 X282.648 Y848.946 Z-13.019 I2.648 J-1.054
N4110 X277.352 Y851.054 Z-13.332 I-2.648 J1.054
N4115 X282.648 Y848.946 Z-13.644 I2.648 J-1.054
N4120 X277.352 Y851.054 Z-13.957 I-2.648 J1.054
N4125 X282.648 Y848.946 Z-14.27 I2.648 J-1.054
N4130 X277.352 Y851.054 Z-14.582 I-2.648 J1.054
N4135 X282.85 Y850. Z-14.857 I2.648 J-1.054
N4140 X277.15 I-2.85 J0. F1000.
N4145 X288.55 I5.7 J0.
N4150 X271.45 I-8.55 J0.
N4155 X294.25 I11.4 J0.
N4160 X265.75 I-14.25 J0.
N4165 X294.25 I14.25 J0.
N4170 X293.928 Y849.701 I-0.3 J0.
N4175 G1 X283.023 Y850.513
N4180 G3 X282.696 Y850.221 I-0.027 J-0.299
N4185 G1 X282.669 Y849.05
N4190 X282.663 Y848.997
N4195 X282.648 Y848.946
N4200 G2 X277.352 Y851.054 Z-15.17 I-2.648 J1.054 F333.33
N4205 X282.648 Y848.946 Z-15.482 I2.648 J-1.054
N4210 X277.352 Y851.054 Z-15.795 I-2.648 J1.054
N4215 X282.648 Y848.946 Z-16.108 I2.648 J-1.054
N4220 X277.352 Y851.054 Z-16.42 I-2.648 J1.054
N4225 X282.648 Y848.946 Z-16.733 I2.648 J-1.054
N4230 X277.352 Y851.054 Z-17.046 I-2.648 J1.054
N4235 X282.648 Y848.946 Z-17.358 I2.648 J-1.054
N4240 X277.352 Y851.054 Z-17.671 I-2.648 J1.054
N4245 X282.648 Y848.946 Z-17.984 I2.648 J-1.054
N4250 X277.352 Y851.054 Z-18.296 I-2.648 J1.054
N4255 X282.85 Y850. Z-18.571 I2.648 J-1.054
N4260 X277.15 I-2.85 J0. F1000.
N4265 X288.55 I5.7 J0.
N4270 X271.45 I-8.55 J0.
N4275 X294.25 I11.4 J0.
N4280 X265.75 I-14.25 J0.
N4285 X294.25 I14.25 J0.
N4290 X293.928 Y849.701 I-0.3 J0.
N4295 G1 X283.023 Y850.513
N4300 G3 X282.696 Y850.221 I-0.027 J-0.299
N4305 G1 X282.669 Y849.05
N4310 X282.663 Y848.997
N4315 X282.648 Y848.946
N4320 G2 X277.352 Y851.054 Z-18.884 I-2.648 J1.054 F333.33
N4325 X282.648 Y848.946 Z-19.197 I2.648 J-1.054
N4330 X277.352 Y851.054 Z-19.509 I-2.648 J1.054
N4335 X282.648 Y848.946 Z-19.822 I2.648 J-1.054
N4340 X277.352 Y851.054 Z-20.135 I-2.648 J1.054
N4345 X282.648 Y848.946 Z-20.447 I2.648 J-1.054
N4350 X277.352 Y851.054 Z-20.76 I-2.648 J1.054
N4355 X282.648 Y848.946 Z-21.073 I2.648 J-1.054
N4360 X277.352 Y851.054 Z-21.385 I-2.648 J1.054
N4365 X282.648 Y848.946 Z-21.698 I2.648 J-1.054
N4370 X277.352 Y851.054 Z-22.011 I-2.648 J1.054
N4375 X282.85 Y850. Z-22.286 I2.648 J-1.054
N4380 X277.15 I-2.85 J0. F1000.
N4385 X288.55 I5.7 J0.
N4390 X271.45 I-8.55 J0.
N4395 X294.25 I11.4 J0.
N4400 X265.75 I-14.25 J0.
N4405 X294.25 I14.25 J0.
N4410 X293.928 Y849.701 I-0.3 J0.
N4415 G1 X283.023 Y850.513
N4420 G3 X282.696 Y850.221 I-0.027 J-0.299
N4425 G1 X282.669 Y849.05
N4430 X282.663 Y848.997
N4435 X282.648 Y848.946
N4440 G2 X277.352 Y851.054 Z-22.598 I-2.648 J1.054 F333.33
N4445 X282.648 Y848.946 Z-22.911 I2.648 J-1.054
N4450 X277.352 Y851.054 Z-23.224 I-2.648 J1.054
N4455 X282.648 Y848.946 Z-23.536 I2.648 J-1.054
N4460 X277.352 Y851.054 Z-23.849 I-2.648 J1.054
N4465 X282.648 Y848.946 Z-24.162 I2.648 J-1.054
N4470 X277.352 Y851.054 Z-24.474 I-2.648 J1.054
N4475 X282.648 Y848.946 Z-24.787 I2.648 J-1.054
N4480 X277.352 Y851.054 Z-25.1 I-2.648 J1.054
N4485 X282.648 Y848.946 Z-25.412 I2.648 J-1.054
N4490 X277.352 Y851.054 Z-25.725 I-2.648 J1.054
N4495 X282.85 Y850. Z-26. I2.648 J-1.054
N4500 X277.15 I-2.85 J0. F1000.
N4505 X288.55 I5.7 J0.
N4510 X271.45 I-8.55 J0.
N4515 X294.25 I11.4 J0.
N4520 X265.75 I-14.25 J0.
N4525 X294.25 I14.25 J0.
N4530 G1 X294.243 Y849.908 Z-25.985 F500.
N4535 X294.222 Y849.818 Z-25.971
N4540 X294.191 Y849.74 Z-25.928
N4545 X294.149 Y849.667 Z-25.885
N4550 X294.11 Y849.614 Z-25.819
N4555 X294.064 Y849.566 Z-25.753
N4560 X293.999 Y849.512 Z-25.585
N4565 X293.974 Y849.495 Z-25.4
N4570 G0 Z5.
N4575 X282.799 Y-0.535
N4580 G1 Z3.1 F500.
N4585 X282.794 Y-0.562 Z2.918 F333.33
N4590 X282.777 Y-0.642 Z2.754
N4595 X282.745 Y-0.766 Z2.622
N4600 X282.697 Y-0.92 Z2.534
N4605 X282.634 Y-1.089 Z2.5
N4610 G2 X277.366 Y1.089 Z2.187 I-2.634 J1.089
N4615 X282.634 Y-1.089 Z1.875 I2.634 J-1.089
N4620 X277.366 Y1.089 Z1.562 I-2.634 J1.089
N4625 X282.634 Y-1.089 Z1.249 I2.634 J-1.089
N4630 X277.366 Y1.089 Z0.937 I-2.634 J1.089
N4635 X282.634 Y-1.089 Z0.624 I2.634 J-1.089
N4640 X277.366 Y1.089 Z0.311 I-2.634 J1.089
N4645 X282.634 Y-1.089 Z-0.001 I2.634 J-1.089
N4650 X277.366 Y1.089 Z-0.314 I-2.634 J1.089
N4655 X282.634 Y-1.089 Z-0.627 I2.634 J-1.089
N4660 X277.366 Y1.089 Z-0.939 I-2.634 J1.089
N4665 X282.634 Y-1.089 Z-1.252 I2.634 J-1.089
N4670 X277.366 Y1.089 Z-1.565 I-2.634 J1.089
N4675 X282.634 Y-1.089 Z-1.877 I2.634 J-1.089
N4680 X277.366 Y1.089 Z-2.19 I-2.634 J1.089
N4685 X282.634 Y-1.089 Z-2.503 I2.634 J-1.089
N4690 X277.366 Y1.089 Z-2.815 I-2.634 J1.089
N4695 X282.634 Y-1.089 Z-3.128 I2.634 J-1.089
N4700 X277.366 Y1.089 Z-3.441 I-2.634 J1.089
N4705 X282.85 Y0. Z-3.714 I2.634 J-1.089
N4710 X277.15 I-2.85 J0. F1000.
N4715 X288.55 I5.7 J0.
N4720 X271.45 I-8.55 J0.
N4725 X294.25 I11.4 J0.
N4730 X265.75 I-14.25 J0.
N4735 X294.25 I14.25 J0.
N4740 X293.928 Y-0.299 I-0.3 J0.
N4745 G1 X283.023 Y0.513
N4750 G3 X282.696 Y0.221 I-0.027 J-0.299
N4755 G1 X282.669 Y-0.95
N4760 X282.663 Y-1.003
N4765 X282.648 Y-1.054
N4770 G2 X277.352 Y1.054 Z-4.027 I-2.648 J1.054 F333.33
N4775 X282.648 Y-1.054 Z-4.34 I2.648 J-1.054
N4780 X277.352 Y1.054 Z-4.652 I-2.648 J1.054
N4785 X282.648 Y-1.054 Z-4.965 I2.648 J-1.054
N4790 X277.352 Y1.054 Z-5.278 I-2.648 J1.054
N4795 X282.648 Y-1.054 Z-5.59 I2.648 J-1.054
N4800 X277.352 Y1.054 Z-5.903 I-2.648 J1.054
N4805 X282.648 Y-1.054 Z-6.216 I2.648 J-1.054
N4810 X277.352 Y1.054 Z-6.528 I-2.648 J1.054
N4815 X282.648 Y-1.054 Z-6.841 I2.648 J-1.054
N4820 X277.352 Y1.054 Z-7.154 I-2.648 J1.054
N4825 X282.85 Y0. Z-7.429 I2.648 J-1.054
N4830 X277.15 I-2.85 J0. F1000.
N4835 X288.55 I5.7 J0.
N4840 X271.45 I-8.55 J0.
N4845 X294.25 I11.4 J0.
N4850 X265.75 I-14.25 J0.
N4855 X294.25 I14.25 J0.
N4860 X293.928 Y-0.299 I-0.3 J0.
N4865 G1 X283.023 Y0.513
N4870 G3 X282.696 Y0.221 I-0.027 J-0.299
N4875 G1 X282.669 Y-0.95
N4880 X282.663 Y-1.003
N4885 X282.648 Y-1.054
N4890 G2 X277.352 Y1.054 Z-7.741 I-2.648 J1.054 F333.33
N4895 X282.648 Y-1.054 Z-8.054 I2.648 J-1.054
N4900 X277.352 Y1.054 Z-8.367 I-2.648 J1.054
N4905 X282.648 Y-1.054 Z-8.679 I2.648 J-1.054
N4910 X277.352 Y1.054 Z-8.992 I-2.648 J1.054
N4915 X282.648 Y-1.054 Z-9.305 I2.648 J-1.054
N4920 X277.352 Y1.054 Z-9.617 I-2.648 J1.054
N4925 X282.648 Y-1.054 Z-9.93 I2.648 J-1.054
N4930 X277.352 Y1.054 Z-10.243 I-2.648 J1.054
N4935 X282.648 Y-1.054 Z-10.555 I2.648 J-1.054
N4940 X277.352 Y1.054 Z-10.868 I-2.648 J1.054
N4945 X282.85 Y0. Z-11.143 I2.648 J-1.054
N4950 X277.15 I-2.85 J0. F1000.
N4955 X288.55 I5.7 J0.
N4960 X271.45 I-8.55 J0.
N4965 X294.25 I11.4 J0.
N4970 X265.75 I-14.25 J0.
N4975 X294.25 I14.25 J0.
N4980 X293.928 Y-0.299 I-0.3 J0.
N4985 G1 X283.023 Y0.513
N4990 G3 X282.696 Y0.221 I-0.027 J-0.299
N4995 G1 X282.669 Y-0.95
N5000 X282.663 Y-1.003
N5005 X282.648 Y-1.054
N5010 G2 X277.352 Y1.054 Z-11.456 I-2.648 J1.054 F333.33
N5015 X282.648 Y-1.054 Z-11.768 I2.648 J-1.054
N5020 X277.352 Y1.054 Z-12.081 I-2.648 J1.054
N5025 X282.648 Y-1.054 Z-12.394 I2.648 J-1.054
N5030 X277.352 Y1.054 Z-12.706 I-2.648 J1.054
N5035 X282.648 Y-1.054 Z-13.019 I2.648 J-1.054
N5040 X277.352 Y1.054 Z-13.332 I-2.648 J1.054
N5045 X282.648 Y-1.054 Z-13.644 I2.648 J-1.054
N5050 X277.352 Y1.054 Z-13.957 I-2.648 J1.054
N5055 X282.648 Y-1.054 Z-14.27 I2.648 J-1.054
N5060 X277.352 Y1.054 Z-14.582 I-2.648 J1.054
N5065 X282.85 Y0. Z-14.857 I2.648 J-1.054
N5070 X277.15 I-2.85 J0. F1000.
N5075 X288.55 I5.7 J0.
N5080 X271.45 I-8.55 J0.
N5085 X294.25 I11.4 J0.
N5090 X265.75 I-14.25 J0.
N5095 X294.25 I14.25 J0.
N5100 X293.928 Y-0.299 I-0.3 J0.
N5105 G1 X283.023 Y0.513
N5110 G3 X282.696 Y0.221 I-0.027 J-0.299
N5115 G1 X282.669 Y-0.95
N5120 X282.663 Y-1.003
N5125 X282.648 Y-1.054
N5130 G2 X277.352 Y1.054 Z-15.17 I-2.648 J1.054 F333.33
N5135 X282.648 Y-1.054 Z-15.482 I2.648 J-1.054
N5140 X277.352 Y1.054 Z-15.795 I-2.648 J1.054
N5145 X282.648 Y-1.054 Z-16.108 I2.648 J-1.054
N5150 X277.352 Y1.054 Z-16.42 I-2.648 J1.054
N5155 X282.648 Y-1.054 Z-16.733 I2.648 J-1.054
N5160 X277.352 Y1.054 Z-17.046 I-2.648 J1.054
N5165 X282.648 Y-1.054 Z-17.358 I2.648 J-1.054
N5170 X277.352 Y1.054 Z-17.671 I-2.648 J1.054
N5175 X282.648 Y-1.054 Z-17.984 I2.648 J-1.054
N5180 X277.352 Y1.054 Z-18.296 I-2.648 J1.054
N5185 X282.85 Y0. Z-18.571 I2.648 J-1.054
N5190 X277.15 I-2.85 J0. F1000.
N5195 X288.55 I5.7 J0.
N5200 X271.45 I-8.55 J0.
N5205 X294.25 I11.4 J0.
N5210 X265.75 I-14.25 J0.
N5215 X294.25 I14.25 J0.
N5220 X293.928 Y-0.299 I-0.3 J0.
N5225 G1 X283.023 Y0.513
N5230 G3 X282.696 Y0.221 I-0.027 J-0.299
N5235 G1 X282.669 Y-0.95
N5240 X282.663 Y-1.003
N5245 X282.648 Y-1.054
N5250 G2 X277.352 Y1.054 Z-18.884 I-2.648 J1.054 F333.33
N5255 X282.648 Y-1.054 Z-19.197 I2.648 J-1.054
N5260 X277.352 Y1.054 Z-19.509 I-2.648 J1.054
N5265 X282.648 Y-1.054 Z-19.822 I2.648 J-1.054
N5270 X277.352 Y1.054 Z-20.135 I-2.648 J1.054
N5275 X282.648 Y-1.054 Z-20.447 I2.648 J-1.054
N5280 X277.352 Y1.054 Z-20.76 I-2.648 J1.054
N5285 X282.648 Y-1.054 Z-21.073 I2.648 J-1.054
N5290 X277.352 Y1.054 Z-21.385 I-2.648 J1.054
N5295 X282.648 Y-1.054 Z-21.698 I2.648 J-1.054
N5300 X277.352 Y1.054 Z-22.011 I-2.648 J1.054
N5305 X282.85 Y0. Z-22.286 I2.648 J-1.054
N5310 X277.15 I-2.85 J0. F1000.
N5315 X288.55 I5.7 J0.
N5320 X271.45 I-8.55 J0.
N5325 X294.25 I11.4 J0.
N5330 X265.75 I-14.25 J0.
N5335 X294.25 I14.25 J0.
N5340 X293.928 Y-0.299 I-0.3 J0.
N5345 G1 X283.023 Y0.513
N5350 G3 X282.696 Y0.221 I-0.027 J-0.299
N5355 G1 X282.669 Y-0.95
N5360 X282.663 Y-1.003
N5365 X282.648 Y-1.054
N5370 G2 X277.352 Y1.054 Z-22.598 I-2.648 J1.054 F333.33
N5375 X282.648 Y-1.054 Z-22.911 I2.648 J-1.054
N5380 X277.352 Y1.054 Z-23.224 I-2.648 J1.054
N5385 X282.648 Y-1.054 Z-23.536 I2.648 J-1.054
N5390 X277.352 Y1.054 Z-23.849 I-2.648 J1.054
N5395 X282.648 Y-1.054 Z-24.162 I2.648 J-1.054
N5400 X277.352 Y1.054 Z-24.474 I-2.648 J1.054
N5405 X282.648 Y-1.054 Z-24.787 I2.648 J-1.054
N5410 X277.352 Y1.054 Z-25.1 I-2.648 J1.054
N5415 X282.648 Y-1.054 Z-25.412 I2.648 J-1.054
N5420 X277.352 Y1.054 Z-25.725 I-2.648 J1.054
N5425 X282.85 Y0. Z-26. I2.648 J-1.054
N5430 X277.15 I-2.85 J0. F1000.
N5435 X288.55 I5.7 J0.
N5440 X271.45 I-8.55 J0.
N5445 X294.25 I11.4 J0.
N5450 X265.75 I-14.25 J0.
N5455 X294.25 I14.25 J0.
N5460 G1 X294.243 Y-0.092 Z-25.985 F500.
N5465 X294.222 Y-0.182 Z-25.971
N5470 X294.191 Y-0.26 Z-25.928
N5475 X294.149 Y-0.333 Z-25.885
N5480 X294.11 Y-0.386 Z-25.819
N5485 X294.064 Y-0.434 Z-25.753
N5490 X293.999 Y-0.488 Z-25.585
N5495 X293.974 Y-0.505 Z-25.4
N5500 G0 Z5.
N5505 X2.799 Y-0.535
N5510 G1 Z3.1 F500.
N5515 X2.794 Y-0.562 Z2.918 F333.33
N5520 X2.777 Y-0.642 Z2.754
N5525 X2.745 Y-0.766 Z2.622
N5530 X2.697 Y-0.92 Z2.534
N5535 X2.634 Y-1.089 Z2.5
N5540 G2 X-2.634 Y1.089 Z2.187 I-2.634 J1.089
N5545 X2.634 Y-1.089 Z1.875 I2.634 J-1.089
N5550 X-2.634 Y1.089 Z1.562 I-2.634 J1.089
N5555 X2.634 Y-1.089 Z1.249 I2.634 J-1.089
N5560 X-2.634 Y1.089 Z0.937 I-2.634 J1.089
N5565 X2.634 Y-1.089 Z0.624 I2.634 J-1.089
N5570 X-2.634 Y1.089 Z0.311 I-2.634 J1.089
N5575 X2.634 Y-1.089 Z-0.001 I2.634 J-1.089
N5580 X-2.634 Y1.089 Z-0.314 I-2.634 J1.089
N5585 X2.634 Y-1.089 Z-0.627 I2.634 J-1.089
N5590 X-2.634 Y1.089 Z-0.939 I-2.634 J1.089
N5595 X2.634 Y-1.089 Z-1.252 I2.634 J-1.089
N5600 X-2.634 Y1.089 Z-1.565 I-2.634 J1.089
N5605 X2.634 Y-1.089 Z-1.877 I2.634 J-1.089
N5610 X-2.634 Y1.089 Z-2.19 I-2.634 J1.089
N5615 X2.634 Y-1.089 Z-2.503 I2.634 J-1.089
N5620 X-2.634 Y1.089 Z-2.815 I-2.634 J1.089
N5625 X2.634 Y-1.089 Z-3.128 I2.634 J-1.089
N5630 X-2.634 Y1.089 Z-3.441 I-2.634 J1.089
N5635 X2.85 Y0. Z-3.714 I2.634 J-1.089
N5640 X-2.85 I-2.85 J0. F1000.
N5645 X8.55 I5.7 J0.
N5650 X-8.55 I-8.55 J0.
N5655 X14.25 I11.4 J0.
N5660 X-14.25 I-14.25 J0.
N5665 X14.25 I14.25 J0.
N5670 X13.928 Y-0.299 I-0.3 J0.
N5675 G1 X3.023 Y0.513
N5680 G3 X2.696 Y0.221 I-0.027 J-0.299
N5685 G1 X2.669 Y-0.95
N5690 X2.663 Y-1.003
N5695 X2.648 Y-1.054
N5700 G2 X-2.648 Y1.054 Z-4.027 I-2.648 J1.054 F333.33
N5705 X2.648 Y-1.054 Z-4.34 I2.648 J-1.054
N5710 X-2.648 Y1.054 Z-4.652 I-2.648 J1.054
N5715 X2.648 Y-1.054 Z-4.965 I2.648 J-1.054
N5720 X-2.648 Y1.054 Z-5.278 I-2.648 J1.054
N5725 X2.648 Y-1.054 Z-5.59 I2.648 J-1.054
N5730 X-2.648 Y1.054 Z-5.903 I-2.648 J1.054
N5735 X2.648 Y-1.054 Z-6.216 I2.648 J-1.054
N5740 X-2.648 Y1.054 Z-6.528 I-2.648 J1.054
N5745 X2.648 Y-1.054 Z-6.841 I2.648 J-1.054
N5750 X-2.648 Y1.054 Z-7.154 I-2.648 J1.054
N5755 X2.85 Y0. Z-7.429 I2.648 J-1.054
N5760 X-2.85 I-2.85 J0. F1000.
N5765 X8.55 I5.7 J0.
N5770 X-8.55 I-8.55 J0.
N5775 X14.25 I11.4 J0.
N5780 X-14.25 I-14.25 J0.
N5785 X14.25 I14.25 J0.
N5790 X13.928 Y-0.299 I-0.3 J0.
N5795 G1 X3.023 Y0.513
N5800 G3 X2.696 Y0.221 I-0.027 J-0.299
N5805 G1 X2.669 Y-0.95
N5810 X2.663 Y-1.003
N5815 X2.648 Y-1.054
N5820 G2 X-2.648 Y1.054 Z-7.741 I-2.648 J1.054 F333.33
N5825 X2.648 Y-1.054 Z-8.054 I2.648 J-1.054
N5830 X-2.648 Y1.054 Z-8.367 I-2.648 J1.054
N5835 X2.648 Y-1.054 Z-8.679 I2.648 J-1.054
N5840 X-2.648 Y1.054 Z-8.992 I-2.648 J1.054
N5845 X2.648 Y-1.054 Z-9.305 I2.648 J-1.054
N5850 X-2.648 Y1.054 Z-9.617 I-2.648 J1.054
N5855 X2.648 Y-1.054 Z-9.93 I2.648 J-1.054
N5860 X-2.648 Y1.054 Z-10.243 I-2.648 J1.054
N5865 X2.648 Y-1.054 Z-10.555 I2.648 J-1.054
N5870 X-2.648 Y1.054 Z-10.868 I-2.648 J1.054
N5875 X2.85 Y0. Z-11.143 I2.648 J-1.054
N5880 X-2.85 I-2.85 J0. F1000.
N5885 X8.55 I5.7 J0.
N5890 X-8.55 I-8.55 J0.
N5895 X14.25 I11.4 J0.
N5900 X-14.25 I-14.25 J0.
N5905 X14.25 I14.25 J0.
N5910 X13.928 Y-0.299 I-0.3 J0.
N5915 G1 X3.023 Y0.513
N5920 G3 X2.696 Y0.221 I-0.027 J-0.299
N5925 G1 X2.669 Y-0.95
N5930 X2.663 Y-1.003
N5935 X2.648 Y-1.054
N5940 G2 X-2.648 Y1.054 Z-11.456 I-2.648 J1.054 F333.33
N5945 X2.648 Y-1.054 Z-11.768 I2.648 J-1.054
N5950 X-2.648 Y1.054 Z-12.081 I-2.648 J1.054
N5955 X2.648 Y-1.054 Z-12.394 I2.648 J-1.054
N5960 X-2.648 Y1.054 Z-12.706 I-2.648 J1.054
N5965 X2.648 Y-1.054 Z-13.019 I2.648 J-1.054
N5970 X-2.648 Y1.054 Z-13.332 I-2.648 J1.054
N5975 X2.648 Y-1.054 Z-13.644 I2.648 J-1.054
N5980 X-2.648 Y1.054 Z-13.957 I-2.648 J1.054
N5985 X2.648 Y-1.054 Z-14.27 I2.648 J-1.054
N5990 X-2.648 Y1.054 Z-14.582 I-2.648 J1.054
N5995 X2.85 Y0. Z-14.857 I2.648 J-1.054
N6000 X-2.85 I-2.85 J0. F1000.
N6005 X8.55 I5.7 J0.
N6010 X-8.55 I-8.55 J0.
N6015 X14.25 I11.4 J0.
N6020 X-14.25 I-14.25 J0.
N6025 X14.25 I14.25 J0.
N6030 X13.928 Y-0.299 I-0.3 J0.
N6035 G1 X3.023 Y0.513
N6040 G3 X2.696 Y0.221 I-0.027 J-0.299
N6045 G1 X2.669 Y-0.95
N6050 X2.663 Y-1.003
N6055 X2.648 Y-1.054
N6060 G2 X-2.648 Y1.054 Z-15.17 I-2.648 J1.054 F333.33
N6065 X2.648 Y-1.054 Z-15.482 I2.648 J-1.054
N6070 X-2.648 Y1.054 Z-15.795 I-2.648 J1.054
N6075 X2.648 Y-1.054 Z-16.108 I2.648 J-1.054
N6080 X-2.648 Y1.054 Z-16.42 I-2.648 J1.054
N6085 X2.648 Y-1.054 Z-16.733 I2.648 J-1.054
N6090 X-2.648 Y1.054 Z-17.046 I-2.648 J1.054
N6095 X2.648 Y-1.054 Z-17.358 I2.648 J-1.054
N6100 X-2.648 Y1.054 Z-17.671 I-2.648 J1.054
N6105 X2.648 Y-1.054 Z-17.984 I2.648 J-1.054
N6110 X-2.648 Y1.054 Z-18.296 I-2.648 J1.054
N6115 X2.85 Y0. Z-18.571 I2.648 J-1.054
N6120 X-2.85 I-2.85 J0. F1000.
N6125 X8.55 I5.7 J0.
N6130 X-8.55 I-8.55 J0.
N6135 X14.25 I11.4 J0.
N6140 X-14.25 I-14.25 J0.
N6145 X14.25 I14.25 J0.
N6150 X13.928 Y-0.299 I-0.3 J0.
N6155 G1 X3.023 Y0.513
N6160 G3 X2.696 Y0.221 I-0.027 J-0.299
N6165 G1 X2.669 Y-0.95
N6170 X2.663 Y-1.003
N6175 X2.648 Y-1.054
N6180 G2 X-2.648 Y1.054 Z-18.884 I-2.648 J1.054 F333.33
N6185 X2.648 Y-1.054 Z-19.197 I2.648 J-1.054
N6190 X-2.648 Y1.054 Z-19.509 I-2.648 J1.054
N6195 X2.648 Y-1.054 Z-19.822 I2.648 J-1.054
N6200 X-2.648 Y1.054 Z-20.135 I-2.648 J1.054
N6205 X2.648 Y-1.054 Z-20.447 I2.648 J-1.054
N6210 X-2.648 Y1.054 Z-20.76 I-2.648 J1.054
N6215 X2.648 Y-1.054 Z-21.073 I2.648 J-1.054
N6220 X-2.648 Y1.054 Z-21.385 I-2.648 J1.054
N6225 X2.648 Y-1.054 Z-21.698 I2.648 J-1.054
N6230 X-2.648 Y1.054 Z-22.011 I-2.648 J1.054
N6235 X2.85 Y0. Z-22.286 I2.648 J-1.054
N6240 X-2.85 I-2.85 J0. F1000.
N6245 X8.55 I5.7 J0.
N6250 X-8.55 I-8.55 J0.
N6255 X14.25 I11.4 J0.
N6260 X-14.25 I-14.25 J0.
N6265 X14.25 I14.25 J0.
N6270 X13.928 Y-0.299 I-0.3 J0.
N6275 G1 X3.023 Y0.513
N6280 G3 X2.696 Y0.221 I-0.027 J-0.299
N6285 G1 X2.669 Y-0.95
N6290 X2.663 Y-1.003
N6295 X2.648 Y-1.054
N6300 G2 X-2.648 Y1.054 Z-22.598 I-2.648 J1.054 F333.33
N6305 X2.648 Y-1.054 Z-22.911 I2.648 J-1.054
N6310 X-2.648 Y1.054 Z-23.224 I-2.648 J1.054
N6315 X2.648 Y-1.054 Z-23.536 I2.648 J-1.054
N6320 X-2.648 Y1.054 Z-23.849 I-2.648 J1.054
N6325 X2.648 Y-1.054 Z-24.162 I2.648 J-1.054
N6330 X-2.648 Y1.054 Z-24.474 I-2.648 J1.054
N6335 X2.648 Y-1.054 Z-24.787 I2.648 J-1.054
N6340 X-2.648 Y1.054 Z-25.1 I-2.648 J1.054
N6345 X2.648 Y-1.054 Z-25.412 I2.648 J-1.054
N6350 X-2.648 Y1.054 Z-25.725 I-2.648 J1.054
N6355 X2.85 Y0. Z-26. I2.648 J-1.054
N6360 X-2.85 I-2.85 J0. F1000.
N6365 X8.55 I5.7 J0.
N6370 X-8.55 I-8.55 J0.
N6375 X14.25 I11.4 J0.
N6380 X-14.25 I-14.25 J0.
N6385 X14.25 I14.25 J0.
N6390 G1 X14.243 Y-0.092 Z-25.985 F500.
N6395 X14.222 Y-0.182 Z-25.971
N6400 X14.191 Y-0.26 Z-25.928
N6405 X14.149 Y-0.333 Z-25.885
N6410 X14.11 Y-0.386 Z-25.819
N6415 X14.064 Y-0.434 Z-25.753
N6420 X13.998 Y-0.488 Z-25.585
N6425 X13.974 Y-0.505 Z-25.4
N6430 G0 Z15.
(BORE1)
N6435 G0 X0.6 Y1086.75
N6440 Z15.
N6445 Z-0.5
N6450 G1 Z-1.9 F500.
N6455 G19 G2 Y1086.15 Z-2.5 J-0.6 K0.
N6460 G1 Y1085.85
N6465 G17 G2 X0. Y1085.25 I-0.6 J0.
N6470 Y1114.75 Z-3. I0. J14.75 F1000.
N6475 Y1085.25 Z-3.5 I0. J-14.75
N6480 Y1114.75 Z-4. I0. J14.75
N6485 Y1085.25 Z-4.5 I0. J-14.75
N6490 Y1114.75 Z-5. I0. J14.75
N6495 Y1085.25 Z-5.5 I0. J-14.75
N6500 Y1114.75 Z-6. I0. J14.75
N6505 Y1085.25 Z-6.5 I0. J-14.75
N6510 Y1114.75 Z-7. I0. J14.75
N6515 Y1085.25 Z-7.5 I0. J-14.75
N6520 Y1114.75 Z-8. I0. J14.75
N6525 Y1085.25 Z-8.5 I0. J-14.75
N6530 Y1114.75 Z-9. I0. J14.75
N6535 Y1085.25 Z-9.5 I0. J-14.75
N6540 Y1114.75 Z-10. I0. J14.75
N6545 Y1085.25 Z-10.5 I0. J-14.75
N6550 Y1114.75 Z-11. I0. J14.75
N6555 Y1085.25 Z-11.5 I0. J-14.75
N6560 Y1114.75 Z-12. I0. J14.75
N6565 Y1085.25 Z-12.5 I0. J-14.75
N6570 Y1114.75 Z-13. I0. J14.75
N6575 Y1085.25 Z-13.5 I0. J-14.75
N6580 Y1114.75 Z-14. I0. J14.75
N6585 Y1085.25 Z-14.5 I0. J-14.75
N6590 Y1114.75 Z-15. I0. J14.75
N6595 Y1085.25 Z-15.5 I0. J-14.75
N6600 Y1114.75 Z-16. I0. J14.75
N6605 Y1085.25 Z-16.5 I0. J-14.75
N6610 Y1114.75 Z-17. I0. J14.75
N6615 Y1085.25 Z-17.5 I0. J-14.75
N6620 Y1114.75 Z-18. I0. J14.75
N6625 Y1085.25 Z-18.5 I0. J-14.75
N6630 Y1114.75 Z-19. I0. J14.75
N6635 Y1085.25 Z-19.5 I0. J-14.75
N6640 Y1114.75 Z-20. I0. J14.75
N6645 Y1085.25 Z-20.5 I0. J-14.75
N6650 Y1114.75 Z-21. I0. J14.75
N6655 Y1085.25 Z-21.5 I0. J-14.75
N6660 Y1114.75 Z-22. I0. J14.75
N6665 Y1085.25 Z-22.5 I0. J-14.75
N6670 Y1114.75 Z-23. I0. J14.75
N6675 Y1085.25 Z-23.5 I0. J-14.75
N6680 Y1114.75 Z-24. I0. J14.75
N6685 Y1085.25 Z-24.5 I0. J-14.75
N6690 Y1114.75 Z-25. I0. J14.75
N6695 Y1085.25 Z-25.5 I0. J-14.75
N6700 Y1114.75 Z-26. I0. J14.75
N6705 Y1085.25 I0. J-14.75
N6710 Y1114.75 I0. J14.75
N6715 X0.6 Y1114.15 I0. J-0.6 F500.
N6720 G1 Y1113.85
N6725 G19 G2 Y1113.25 Z-25.4 J0. K0.6
N6730 G0 Z5.
N6735 Y836.75
N6740 Z-0.5
N6745 G1 Z-1.9 F500.
N6750 G2 Y836.15 Z-2.5 J-0.6 K0.
N6755 G1 Y835.85
N6760 G17 G2 X0. Y835.25 I-0.6 J0.
N6765 Y864.75 Z-3. I0. J14.75 F1000.
N6770 Y835.25 Z-3.5 I0. J-14.75
N6775 Y864.75 Z-4. I0. J14.75
N6780 Y835.25 Z-4.5 I0. J-14.75
N6785 Y864.75 Z-5. I0. J14.75
N6790 Y835.25 Z-5.5 I0. J-14.75
N6795 Y864.75 Z-6. I0. J14.75
N6800 Y835.25 Z-6.5 I0. J-14.75
N6805 Y864.75 Z-7. I0. J14.75
N6810 Y835.25 Z-7.5 I0. J-14.75
N6815 Y864.75 Z-8. I0. J14.75
N6820 Y835.25 Z-8.5 I0. J-14.75
N6825 Y864.75 Z-9. I0. J14.75
N6830 Y835.25 Z-9.5 I0. J-14.75
N6835 Y864.75 Z-10. I0. J14.75
N6840 Y835.25 Z-10.5 I0. J-14.75
N6845 Y864.75 Z-11. I0. J14.75
N6850 Y835.25 Z-11.5 I0. J-14.75
N6855 Y864.75 Z-12. I0. J14.75
N6860 Y835.25 Z-12.5 I0. J-14.75
N6865 Y864.75 Z-13. I0. J14.75
N6870 Y835.25 Z-13.5 I0. J-14.75
N6875 Y864.75 Z-14. I0. J14.75
N6880 Y835.25 Z-14.5 I0. J-14.75
N6885 Y864.75 Z-15. I0. J14.75
N6890 Y835.25 Z-15.5 I0. J-14.75
N6895 Y864.75 Z-16. I0. J14.75
N6900 Y835.25 Z-16.5 I0. J-14.75
N6905 Y864.75 Z-17. I0. J14.75
N6910 Y835.25 Z-17.5 I0. J-14.75
N6915 Y864.75 Z-18. I0. J14.75
N6920 Y835.25 Z-18.5 I0. J-14.75
N6925 Y864.75 Z-19. I0. J14.75
N6930 Y835.25 Z-19.5 I0. J-14.75
N6935 Y864.75 Z-20. I0. J14.75
N6940 Y835.25 Z-20.5 I0. J-14.75
N6945 Y864.75 Z-21. I0. J14.75
N6950 Y835.25 Z-21.5 I0. J-14.75
N6955 Y864.75 Z-22. I0. J14.75
N6960 Y835.25 Z-22.5 I0. J-14.75
N6965 Y864.75 Z-23. I0. J14.75
N6970 Y835.25 Z-23.5 I0. J-14.75
N6975 Y864.75 Z-24. I0. J14.75
N6980 Y835.25 Z-24.5 I0. J-14.75
N6985 Y864.75 Z-25. I0. J14.75
N6990 Y835.25 Z-25.5 I0. J-14.75
N6995 Y864.75 Z-26. I0. J14.75
N7000 Y835.25 I0. J-14.75
N7005 Y864.75 I0. J14.75
N7010 X0.6 Y864.15 I0. J-0.6 F500.
N7015 G1 Y863.85
N7020 G19 G2 Y863.25 Z-25.4 J0. K0.6
N7025 G0 Z5.
N7030 X280.6 Y836.75
N7035 Z-0.5
N7040 G1 Z-1.9 F500.
N7045 G2 Y836.15 Z-2.5 J-0.6 K0.
N7050 G1 Y835.85
N7055 G17 G2 X280. Y835.25 I-0.6 J0.
N7060 Y864.75 Z-3. I0. J14.75 F1000.
N7065 Y835.25 Z-3.5 I0. J-14.75
N7070 Y864.75 Z-4. I0. J14.75
N7075 Y835.25 Z-4.5 I0. J-14.75
N7080 Y864.75 Z-5. I0. J14.75
N7085 Y835.25 Z-5.5 I0. J-14.75
N7090 Y864.75 Z-6. I0. J14.75
N7095 Y835.25 Z-6.5 I0. J-14.75
N7100 Y864.75 Z-7. I0. J14.75
N7105 Y835.25 Z-7.5 I0. J-14.75
N7110 Y864.75 Z-8. I0. J14.75
N7115 Y835.25 Z-8.5 I0. J-14.75
N7120 Y864.75 Z-9. I0. J14.75
N7125 Y835.25 Z-9.5 I0. J-14.75
N7130 Y864.75 Z-10. I0. J14.75
N7135 Y835.25 Z-10.5 I0. J-14.75
N7140 Y864.75 Z-11. I0. J14.75
N7145 Y835.25 Z-11.5 I0. J-14.75
N7150 Y864.75 Z-12. I0. J14.75
N7155 Y835.25 Z-12.5 I0. J-14.75
N7160 Y864.75 Z-13. I0. J14.75
N7165 Y835.25 Z-13.5 I0. J-14.75
N7170 Y864.75 Z-14. I0. J14.75
N7175 Y835.25 Z-14.5 I0. J-14.75
N7180 Y864.75 Z-15. I0. J14.75
N7185 Y835.25 Z-15.5 I0. J-14.75
N7190 Y864.75 Z-16. I0. J14.75
N7195 Y835.25 Z-16.5 I0. J-14.75
N7200 Y864.75 Z-17. I0. J14.75
N7205 Y835.25 Z-17.5 I0. J-14.75
N7210 Y864.75 Z-18. I0. J14.75
N7215 Y835.25 Z-18.5 I0. J-14.75
N7220 Y864.75 Z-19. I0. J14.75
N7225 Y835.25 Z-19.5 I0. J-14.75
N7230 Y864.75 Z-20. I0. J14.75
N7235 Y835.25 Z-20.5 I0. J-14.75
N7240 Y864.75 Z-21. I0. J14.75
N7245 Y835.25 Z-21.5 I0. J-14.75
N7250 Y864.75 Z-22. I0. J14.75
N7255 Y835.25 Z-22.5 I0. J-14.75
N7260 Y864.75 Z-23. I0. J14.75
N7265 Y835.25 Z-23.5 I0. J-14.75
N7270 Y864.75 Z-24. I0. J14.75
N7275 Y835.25 Z-24.5 I0. J-14.75
N7280 Y864.75 Z-25. I0. J14.75
N7285 Y835.25 Z-25.5 I0. J-14.75
N7290 Y864.75 Z-26. I0. J14.75
N7295 Y835.25 I0. J-14.75
N7300 Y864.75 I0. J14.75
N7305 X280.6 Y864.15 I0. J-0.6 F500.
N7310 G1 Y863.85
N7315 G19 G2 Y863.25 Z-25.4 J0. K0.6
N7320 G0 Z5.
N7325 Y1086.75
N7330 Z-0.5
N7335 G1 Z-1.9 F500.
N7340 G2 Y1086.15 Z-2.5 J-0.6 K0.
N7345 G1 Y1085.85
N7350 G17 G2 X280. Y1085.25 I-0.6 J0.
N7355 Y1114.75 Z-3. I0. J14.75 F1000.
N7360 Y1085.25 Z-3.5 I0. J-14.75
N7365 Y1114.75 Z-4. I0. J14.75
N7370 Y1085.25 Z-4.5 I0. J-14.75
N7375 Y1114.75 Z-5. I0. J14.75
N7380 Y1085.25 Z-5.5 I0. J-14.75
N7385 Y1114.75 Z-6. I0. J14.75
N7390 Y1085.25 Z-6.5 I0. J-14.75
N7395 Y1114.75 Z-7. I0. J14.75
N7400 Y1085.25 Z-7.5 I0. J-14.75
N7405 Y1114.75 Z-8. I0. J14.75
N7410 Y1085.25 Z-8.5 I0. J-14.75
N7415 Y1114.75 Z-9. I0. J14.75
N7420 Y1085.25 Z-9.5 I0. J-14.75
N7425 Y1114.75 Z-10. I0. J14.75
N7430 Y1085.25 Z-10.5 I0. J-14.75
N7435 Y1114.75 Z-11. I0. J14.75
N7440 Y1085.25 Z-11.5 I0. J-14.75
N7445 Y1114.75 Z-12. I0. J14.75
N7450 Y1085.25 Z-12.5 I0. J-14.75
N7455 Y1114.75 Z-13. I0. J14.75
N7460 Y1085.25 Z-13.5 I0. J-14.75
N7465 Y1114.75 Z-14. I0. J14.75
N7470 Y1085.25 Z-14.5 I0. J-14.75
N7475 Y1114.75 Z-15. I0. J14.75
N7480 Y1085.25 Z-15.5 I0. J-14.75
N7485 Y1114.75 Z-16. I0. J14.75
N7490 Y1085.25 Z-16.5 I0. J-14.75
N7495 Y1114.75 Z-17. I0. J14.75
N7500 Y1085.25 Z-17.5 I0. J-14.75
N7505 Y1114.75 Z-18. I0. J14.75
N7510 Y1085.25 Z-18.5 I0. J-14.75
N7515 Y1114.75 Z-19. I0. J14.75
N7520 Y1085.25 Z-19.5 I0. J-14.75
N7525 Y1114.75 Z-20. I0. J14.75
N7530 Y1085.25 Z-20.5 I0. J-14.75
N7535 Y1114.75 Z-21. I0. J14.75
N7540 Y1085.25 Z-21.5 I0. J-14.75
N7545 Y1114.75 Z-22. I0. J14.75
N7550 Y1085.25 Z-22.5 I0. J-14.75
N7555 Y1114.75 Z-23. I0. J14.75
N7560 Y1085.25 Z-23.5 I0. J-14.75
N7565 Y1114.75 Z-24. I0. J14.75
N7570 Y1085.25 Z-24.5 I0. J-14.75
N7575 Y1114.75 Z-25. I0. J14.75
N7580 Y1085.25 Z-25.5 I0. J-14.75
N7585 Y1114.75 Z-26. I0. J14.75
N7590 Y1085.25 I0. J-14.75
N7595 Y1114.75 I0. J14.75
N7600 X280.6 Y1114.15 I0. J-0.6 F500.
N7605 G1 Y1113.85
N7610 G19 G2 Y1113.25 Z-25.4 J0. K0.6
N7615 G0 Z5.
N7620 Y-13.25
N7625 Z-0.5
N7630 G1 Z-1.9 F500.
N7635 G2 Y-13.85 Z-2.5 J-0.6 K0.
N7640 G1 Y-14.15
N7645 G17 G2 X280. Y-14.75 I-0.6 J0.
N7650 Y14.75 Z-3. I0. J14.75 F1000.
N7655 Y-14.75 Z-3.5 I0. J-14.75
N7660 Y14.75 Z-4. I0. J14.75
N7665 Y-14.75 Z-4.5 I0. J-14.75
N7670 Y14.75 Z-5. I0. J14.75
N7675 Y-14.75 Z-5.5 I0. J-14.75
N7680 Y14.75 Z-6. I0. J14.75
N7685 Y-14.75 Z-6.5 I0. J-14.75
N7690 Y14.75 Z-7. I0. J14.75
N7695 Y-14.75 Z-7.5 I0. J-14.75
N7700 Y14.75 Z-8. I0. J14.75
N7705 Y-14.75 Z-8.5 I0. J-14.75
N7710 Y14.75 Z-9. I0. J14.75
N7715 Y-14.75 Z-9.5 I0. J-14.75
N7720 Y14.75 Z-10. I0. J14.75
N7725 Y-14.75 Z-10.5 I0. J-14.75
N7730 Y14.75 Z-11. I0. J14.75
N7735 Y-14.75 Z-11.5 I0. J-14.75
N7740 Y14.75 Z-12. I0. J14.75
N7745 Y-14.75 Z-12.5 I0. J-14.75
N7750 Y14.75 Z-13. I0. J14.75
N7755 Y-14.75 Z-13.5 I0. J-14.75
N7760 Y14.75 Z-14. I0. J14.75
N7765 Y-14.75 Z-14.5 I0. J-14.75
N7770 Y14.75 Z-15. I0. J14.75
N7775 Y-14.75 Z-15.5 I0. J-14.75
N7780 Y14.75 Z-16. I0. J14.75
N7785 Y-14.75 Z-16.5 I0. J-14.75
N7790 Y14.75 Z-17. I0. J14.75
N7795 Y-14.75 Z-17.5 I0. J-14.75
N7800 Y14.75 Z-18. I0. J14.75
N7805 Y-14.75 Z-18.5 I0. J-14.75
N7810 Y14.75 Z-19. I0. J14.75
N7815 Y-14.75 Z-19.5 I0. J-14.75
N7820 Y14.75 Z-20. I0. J14.75
N7825 Y-14.75 Z-20.5 I0. J-14.75
N7830 Y14.75 Z-21. I0. J14.75
N7835 Y-14.75 Z-21.5 I0. J-14.75
N7840 Y14.75 Z-22. I0. J14.75
N7845 Y-14.75 Z-22.5 I0. J-14.75
N7850 Y14.75 Z-23. I0. J14.75
N7855 Y-14.75 Z-23.5 I0. J-14.75
N7860 Y14.75 Z-24. I0. J14.75
N7865 Y-14.75 Z-24.5 I0. J-14.75
N7870 Y14.75 Z-25. I0. J14.75
N7875 Y-14.75 Z-25.5 I0. J-14.75
N7880 Y14.75 Z-26. I0. J14.75
N7885 Y-14.75 I0. J-14.75
N7890 Y14.75 I0. J14.75
N7895 X280.6 Y14.15 I0. J-0.6 F500.
N7900 G1 Y13.85
N7905 G19 G2 Y13.25 Z-25.4 J0. K0.6
N7910 G0 Z5.
N7915 X0.6 Y-13.25
N7920 Z-0.5
N7925 G1 Z-1.9 F500.
N7930 G2 Y-13.85 Z-2.5 J-0.6 K0.
N7935 G1 Y-14.15
N7940 G17 G2 X0. Y-14.75 I-0.6 J0.
N7945 Y14.75 Z-3. I0. J14.75 F1000.
N7950 Y-14.75 Z-3.5 I0. J-14.75
N7955 Y14.75 Z-4. I0. J14.75
N7960 Y-14.75 Z-4.5 I0. J-14.75
N7965 Y14.75 Z-5. I0. J14.75
N7970 Y-14.75 Z-5.5 I0. J-14.75
N7975 Y14.75 Z-6. I0. J14.75
N7980 Y-14.75 Z-6.5 I0. J-14.75
N7985 Y14.75 Z-7. I0. J14.75
N7990 Y-14.75 Z-7.5 I0. J-14.75
N7995 Y14.75 Z-8. I0. J14.75
N8000 Y-14.75 Z-8.5 I0. J-14.75
N8005 Y14.75 Z-9. I0. J14.75
N8010 Y-14.75 Z-9.5 I0. J-14.75
N8015 Y14.75 Z-10. I0. J14.75
N8020 Y-14.75 Z-10.5 I0. J-14.75
N8025 Y14.75 Z-11. I0. J14.75
N8030 Y-14.75 Z-11.5 I0. J-14.75
N8035 Y14.75 Z-12. I0. J14.75
N8040 Y-14.75 Z-12.5 I0. J-14.75
N8045 Y14.75 Z-13. I0. J14.75
N8050 Y-14.75 Z-13.5 I0. J-14.75
N8055 Y14.75 Z-14. I0. J14.75
N8060 Y-14.75 Z-14.5 I0. J-14.75
N8065 Y14.75 Z-15. I0. J14.75
N8070 Y-14.75 Z-15.5 I0. J-14.75
N8075 Y14.75 Z-16. I0. J14.75
N8080 Y-14.75 Z-16.5 I0. J-14.75
N8085 Y14.75 Z-17. I0. J14.75
N8090 Y-14.75 Z-17.5 I0. J-14.75
N8095 Y14.75 Z-18. I0. J14.75
N8100 Y-14.75 Z-18.5 I0. J-14.75
N8105 Y14.75 Z-19. I0. J14.75
N8110 Y-14.75 Z-19.5 I0. J-14.75
N8115 Y14.75 Z-20. I0. J14.75
N8120 Y-14.75 Z-20.5 I0. J-14.75
N8125 Y14.75 Z-21. I0. J14.75
N8130 Y-14.75 Z-21.5 I0. J-14.75
N8135 Y14.75 Z-22. I0. J14.75
N8140 Y-14.75 Z-22.5 I0. J-14.75
N8145 Y14.75 Z-23. I0. J14.75
N8150 Y-14.75 Z-23.5 I0. J-14.75
N8155 Y14.75 Z-24. I0. J14.75
N8160 Y-14.75 Z-24.5 I0. J-14.75
N8165 Y14.75 Z-25. I0. J14.75
N8170 Y-14.75 Z-25.5 I0. J-14.75
N8175 Y14.75 Z-26. I0. J14.75
N8180 Y-14.75 I0. J-14.75
N8185 Y14.75 I0. J14.75
N8190 X0.6 Y14.15 I0. J-0.6 F500.
N8195 G1 Y13.85
N8200 G19 G2 Y13.25 Z-25.4 J0. K0.6
N8205 G0 Z15.
N8210 G17
N8215 M9
N8220 G53 G0 Z0.
N8225 M30
%
