(Exported by FreeCAD)
(Post Processor: linuxcnc_post)
(Output Time:2019-06-10 19:06:44.323878)
(begin preamble)
G17 G54 G40 G49 G80 G90
G21
(begin operation: T2: 3mm endmill001)
(machine: not set, mm/min)
(T2: 3mm endmill001)
M6 T2
M3 S20000
(finish operation: T2: 3mm endmill001)
(begin operation: Profile_Edges006)
(machine: not set, mm/min)
(Profile_Edges006)
(Compensated Tool Path. Diameter: 3.0)
G0 Z10.000
G0 X160.565 Y286.487
G0 Z3.000
G1 X160.565 Y286.487 Z-1.000 F180.000
G1 X138.742 Y286.487 Z-1.000 F900.000
G1 X138.742 Y265.479 Z-1.000 F900.000
G1 X160.565 Y265.479 Z-1.000 F900.000
G1 X160.565 Y286.487 Z-1.000 F900.000
G1 X160.565 Y286.487 Z-3.000 F180.000
G1 X138.742 Y286.487 Z-3.000 F900.000
G1 X138.742 Y265.479 Z-3.000 F900.000
G1 X160.565 Y265.479 Z-3.000 F900.000
G1 X160.565 Y286.487 Z-3.000 F900.000
G1 X160.565 Y286.487 Z-5.000 F180.000
G1 X138.742 Y286.487 Z-5.000 F900.000
G1 X138.742 Y265.479 Z-5.000 F900.000
G1 X160.565 Y265.479 Z-5.000 F900.000
G1 X160.565 Y286.487 Z-5.000 F900.000
G0 Z10.000
G0 X160.571 Y396.491
G0 Z3.000
G1 X160.571 Y396.491 Z-1.000 F180.000
G1 X138.373 Y396.491 Z-1.000 F900.000
G1 X138.373 Y375.334 Z-1.000 F900.000
G1 X160.571 Y375.334 Z-1.000 F900.000
G1 X160.571 Y396.491 Z-1.000 F900.000
G1 X160.571 Y396.491 Z-3.000 F180.000
G1 X138.373 Y396.491 Z-3.000 F900.000
G1 X138.373 Y375.334 Z-3.000 F900.000
G1 X160.571 Y375.334 Z-3.000 F900.000
G1 X160.571 Y396.491 Z-3.000 F900.000
G1 X160.571 Y396.491 Z-5.000 F180.000
G1 X138.373 Y396.491 Z-5.000 F900.000
G1 X138.373 Y375.334 Z-5.000 F900.000
G1 X160.571 Y375.334 Z-5.000 F900.000
G1 X160.571 Y396.491 Z-5.000 F900.000
G0 Z10.000
(finish operation: Profile_Edges006)
(begin postamble)
M05
G17 G54 G90 G80 G40
M2
