(Exported by FreeCAD)
(Post Processor: linuxcnc_post)
(Output Time:2019-06-11 18:40:37.833119)
(begin preamble)
G17 G54 G40 G49 G80 G90
G21
(begin operation: T1: 6mm end mill)
(machine: not set, mm/min)
(T1: 6mm end mill)
M6 T1
M3 S18000
(finish operation: T1: 6mm end mill)
(begin operation: Tag_big_in)
(machine: not set, mm/min)
G0 Z10.000
G0 X118.214 Y35.566 Z10.000
G0 X118.214 Y35.566 Z3.000
G1 X118.214 Y35.566 Z0.000 F900.000
G1 X19.935 Y80.943 Z0.000 F900.000
G1 X19.935 Y28.458 Z0.000 F900.000
G3 X23.734 Y24.659 Z0.000 I3.732 J-0.067 F900.000
G1 X138.319 Y24.659 Z0.000 F900.000
G3 X139.138 Y25.615 Z0.000 I0.090 J0.752 F900.000
G3 X138.643 Y26.133 Z0.000 I-0.765 J-0.236 F900.000
G1 X118.214 Y35.566 Z0.000 F900.000
G1 X118.214 Y35.566 Z-3.000 F900.000
G1 X19.935 Y80.943 Z-3.000 F900.000
G1 X19.935 Y28.458 Z-3.000 F900.000
G3 X23.734 Y24.659 Z-3.000 I3.732 J-0.067 F900.000
G1 X138.319 Y24.659 Z-3.000 F900.000
G3 X139.138 Y25.615 Z-3.000 I0.090 J0.752 F900.000
G3 X138.643 Y26.133 Z-3.000 I-0.765 J-0.236 F900.000
G1 X118.214 Y35.566 Z-3.000 F900.000
G1 X118.214 Y35.566 Z-6.000 F900.000
G1 X19.935 Y80.943 Z-6.000 F900.000
G1 X19.935 Y28.458 Z-6.000 F900.000
G3 X23.734 Y24.659 Z-6.000 I3.732 J-0.067 F900.000
G1 X138.319 Y24.659 Z-6.000 F900.000
G3 X139.138 Y25.615 Z-6.000 I0.090 J0.752 F900.000
G3 X138.643 Y26.133 Z-6.000 I-0.765 J-0.236 F900.000
G1 X118.214 Y35.566 Z-6.000 F900.000
G1 X118.214 Y35.566 Z-9.000 F900.000
G1 X19.935 Y80.943 Z-9.000 F900.000
G1 X19.935 Y28.458 Z-9.000 F900.000
G3 X23.734 Y24.659 Z-9.000 I3.732 J-0.067 F900.000
G1 X138.319 Y24.659 Z-9.000 F900.000
G3 X139.138 Y25.615 Z-9.000 I0.090 J0.752 F900.000
G3 X138.643 Y26.133 Z-9.000 I-0.765 J-0.236 F900.000
G1 X118.214 Y35.566 Z-9.000 F900.000
G1 X118.214 Y35.566 Z-12.000 F900.000
G1 X19.935 Y80.943 Z-12.000 F900.000
G1 X19.935 Y28.458 Z-12.000 F900.000
G3 X23.734 Y24.659 Z-12.000 I3.732 J-0.067 F900.000
G1 X138.319 Y24.659 Z-12.000 F900.000
G3 X139.138 Y25.615 Z-12.000 I0.090 J0.752 F900.000
G3 X138.643 Y26.133 Z-12.000 I-0.765 J-0.236 F900.000
G1 X118.214 Y35.566 Z-12.000 F900.000
G1 X118.214 Y35.566 Z-15.000 F900.000
G1 X19.935 Y80.943 Z-15.000 F900.000
G1 X19.935 Y28.458 Z-15.000 F900.000
G3 X23.734 Y24.659 Z-15.000 I3.732 J-0.067 F900.000
G1 X138.319 Y24.659 Z-15.000 F900.000
G3 X139.138 Y25.615 Z-15.000 I0.090 J0.752 F900.000
G3 X138.643 Y26.133 Z-15.000 I-0.765 J-0.236 F900.000
G1 X118.214 Y35.566 Z-15.000 F900.000
G1 X118.214 Y35.566 Z-18.000 F900.000
G1 X19.935 Y80.943 Z-18.000 F900.000
G1 X19.935 Y28.458 Z-18.000 F900.000
G3 X23.734 Y24.659 Z-18.000 I3.732 J-0.067 F900.000
G1 X138.319 Y24.659 Z-18.000 F900.000
G3 X139.138 Y25.615 Z-18.000 I0.090 J0.752 F900.000
G3 X138.643 Y26.133 Z-18.000 I-0.765 J-0.236 F900.000
G1 X118.214 Y35.566 Z-18.000 F900.000
G1 X118.214 Y35.566 Z-21.000 F900.000
G1 X75.139 Y55.454 Z-21.000 F900.000
G1 X74.503 Y55.748 Z-20.300 F900.000
G1 X63.645 Y60.761 Z-20.300 F900.000
G1 X63.010 Y61.055 Z-21.000 F900.000
G1 X19.935 Y80.943 Z-21.000 F900.000
G1 X19.935 Y28.458 Z-21.000 F900.000
G3 X23.734 Y24.659 Z-21.000 I3.732 J-0.067 F900.000
G1 X74.346 Y24.659 Z-21.000 F900.000
G1 X75.046 Y24.659 Z-20.300 F900.000
G1 X87.006 Y24.659 Z-20.300 F900.000
G1 X87.706 Y24.659 Z-21.000 F900.000
G1 X138.319 Y24.659 Z-21.000 F900.000
G3 X139.138 Y25.615 Z-21.000 I0.090 J0.752 F900.000
G3 X138.643 Y26.133 Z-21.000 I-0.765 J-0.236 F900.000
G1 X118.214 Y35.566 Z-21.000 F900.000
G1 X118.214 Y35.566 Z-22.300 F900.000
G1 X76.319 Y54.909 Z-22.300 F900.000
G1 X74.503 Y55.748 Z-20.300 F900.000
G1 X63.645 Y60.761 Z-20.300 F900.000
G1 X61.829 Y61.600 Z-22.300 F900.000
G1 X19.935 Y80.943 Z-22.300 F900.000
G1 X19.935 Y28.458 Z-22.300 F900.000
G3 X23.734 Y24.659 Z-22.300 I3.732 J-0.067 F900.000
G1 X73.046 Y24.659 Z-22.300 F900.000
G1 X75.046 Y24.659 Z-20.300 F900.000
G1 X87.006 Y24.659 Z-20.300 F900.000
G1 X89.006 Y24.659 Z-22.300 F900.000
G1 X138.319 Y24.659 Z-22.300 F900.000
G3 X139.138 Y25.615 Z-22.300 I0.090 J0.752 F900.000
G3 X138.643 Y26.133 Z-22.300 I-0.765 J-0.236 F900.000
G1 X118.214 Y35.566 Z-22.300 F900.000
G0 X118.214 Y35.566 Z10.000
(finish operation: Tag_big_in)
(begin operation: Tag_plate)
(machine: not set, mm/min)
G0 Z15.000
G0 X202.114 Y462.165 Z15.000
G0 X202.114 Y462.165 Z10.000
G1 X202.114 Y462.165 Z0.000 F900.000
G2 X202.993 Y460.044 Z0.000 I-2.121 J-2.121 F900.000
G1 X202.993 Y210.045 Z0.000 F900.000
G2 X199.993 Y207.045 Z0.000 I-3.000 J0.000 F900.000
G1 X100.021 Y207.045 Z0.000 F900.000
G2 X97.021 Y210.045 Z0.000 I0.000 J3.000 F900.000
G1 X97.021 Y460.044 Z0.000 F900.000
G2 X100.021 Y463.044 Z0.000 I3.000 J0.000 F900.000
G1 X199.993 Y463.044 Z0.000 F900.000
G2 X202.114 Y462.165 Z0.000 I0.000 J-3.000 F900.000
G1 X202.114 Y462.165 Z-3.000 F900.000
G2 X202.993 Y460.044 Z-3.000 I-2.121 J-2.121 F900.000
G1 X202.993 Y210.045 Z-3.000 F900.000
G2 X199.993 Y207.045 Z-3.000 I-3.000 J0.000 F900.000
G1 X100.021 Y207.045 Z-3.000 F900.000
G2 X97.021 Y210.045 Z-3.000 I0.000 J3.000 F900.000
G1 X97.021 Y460.044 Z-3.000 F900.000
G2 X100.021 Y463.044 Z-3.000 I3.000 J0.000 F900.000
G1 X199.993 Y463.044 Z-3.000 F900.000
G2 X202.114 Y462.165 Z-3.000 I0.000 J-3.000 F900.000
G1 X202.114 Y462.165 Z-6.000 F900.000
G2 X202.993 Y460.044 Z-6.000 I-2.121 J-2.121 F900.000
G1 X202.993 Y210.045 Z-6.000 F900.000
G2 X199.993 Y207.045 Z-6.000 I-3.000 J0.000 F900.000
G1 X100.021 Y207.045 Z-6.000 F900.000
G2 X97.021 Y210.045 Z-6.000 I0.000 J3.000 F900.000
G1 X97.021 Y460.044 Z-6.000 F900.000
G2 X100.021 Y463.044 Z-6.000 I3.000 J0.000 F900.000
G1 X199.993 Y463.044 Z-6.000 F900.000
G2 X202.114 Y462.165 Z-6.000 I0.000 J-3.000 F900.000
G1 X202.114 Y462.165 Z-9.000 F900.000
G2 X202.993 Y460.044 Z-9.000 I-2.121 J-2.121 F900.000
G1 X202.993 Y210.045 Z-9.000 F900.000
G2 X199.993 Y207.045 Z-9.000 I-3.000 J0.000 F900.000
G1 X100.021 Y207.045 Z-9.000 F900.000
G2 X97.021 Y210.045 Z-9.000 I0.000 J3.000 F900.000
G1 X97.021 Y460.044 Z-9.000 F900.000
G2 X100.021 Y463.044 Z-9.000 I3.000 J0.000 F900.000
G1 X199.993 Y463.044 Z-9.000 F900.000
G2 X202.114 Y462.165 Z-9.000 I0.000 J-3.000 F900.000
G1 X202.114 Y462.165 Z-12.000 F900.000
G2 X202.993 Y460.044 Z-12.000 I-2.121 J-2.121 F900.000
G1 X202.993 Y210.045 Z-12.000 F900.000
G2 X199.993 Y207.045 Z-12.000 I-3.000 J0.000 F900.000
G1 X100.021 Y207.045 Z-12.000 F900.000
G2 X97.021 Y210.045 Z-12.000 I0.000 J3.000 F900.000
G1 X97.021 Y460.044 Z-12.000 F900.000
G2 X100.021 Y463.044 Z-12.000 I3.000 J0.000 F900.000
G1 X199.993 Y463.044 Z-12.000 F900.000
G2 X202.114 Y462.165 Z-12.000 I0.000 J-3.000 F900.000
G1 X202.114 Y462.165 Z-15.000 F900.000
G2 X202.993 Y460.044 Z-15.000 I-2.121 J-2.121 F900.000
G1 X202.993 Y210.045 Z-15.000 F900.000
G2 X199.993 Y207.045 Z-15.000 I-3.000 J0.000 F900.000
G1 X100.021 Y207.045 Z-15.000 F900.000
G2 X97.021 Y210.045 Z-15.000 I0.000 J3.000 F900.000
G1 X97.021 Y460.044 Z-15.000 F900.000
G2 X100.021 Y463.044 Z-15.000 I3.000 J0.000 F900.000
G1 X199.993 Y463.044 Z-15.000 F900.000
G2 X202.114 Y462.165 Z-15.000 I0.000 J-3.000 F900.000
G1 X202.114 Y462.165 Z-18.000 F900.000
G2 X202.993 Y460.044 Z-18.000 I-2.121 J-2.121 F900.000
G1 X202.993 Y210.045 Z-18.000 F900.000
G2 X199.993 Y207.045 Z-18.000 I-3.000 J0.000 F900.000
G1 X100.021 Y207.045 Z-18.000 F900.000
G2 X97.021 Y210.045 Z-18.000 I0.000 J3.000 F900.000
G1 X97.021 Y460.044 Z-18.000 F900.000
G2 X100.021 Y463.044 Z-18.000 I3.000 J0.000 F900.000
G1 X199.993 Y463.044 Z-18.000 F900.000
G2 X202.114 Y462.165 Z-18.000 I0.000 J-3.000 F900.000
G1 X202.114 Y462.165 Z-21.000 F900.000
G2 X202.993 Y460.044 Z-21.000 I-2.121 J-2.121 F900.000
G1 X202.993 Y404.224 Z-21.000 F900.000
G1 X202.993 Y403.524 Z-20.300 F900.000
G1 X202.993 Y391.564 Z-20.300 F900.000
G1 X202.993 Y390.864 Z-21.000 F900.000
G1 X202.993 Y279.225 Z-21.000 F900.000
G1 X202.993 Y278.525 Z-20.300 F900.000
G1 X202.993 Y266.565 Z-20.300 F900.000
G1 X202.993 Y265.865 Z-21.000 F900.000
G1 X202.993 Y210.045 Z-21.000 F900.000
G2 X199.993 Y207.045 Z-21.000 I-3.000 J0.000 F900.000
G1 X100.021 Y207.045 Z-21.000 F900.000
G2 X97.021 Y210.045 Z-21.000 I0.000 J3.000 F900.000
G1 X97.021 Y265.865 Z-21.000 F900.000
G1 X97.021 Y266.565 Z-20.300 F900.000
G1 X97.021 Y278.525 Z-20.300 F900.000
G1 X97.021 Y279.225 Z-21.000 F900.000
G1 X97.021 Y390.864 Z-21.000 F900.000
G1 X97.021 Y391.564 Z-20.300 F900.000
G1 X97.021 Y403.524 Z-20.300 F900.000
G1 X97.021 Y404.224 Z-21.000 F900.000
G1 X97.021 Y460.044 Z-21.000 F900.000
G2 X100.021 Y463.044 Z-21.000 I3.000 J0.000 F900.000
G1 X199.993 Y463.044 Z-21.000 F900.000
G2 X202.114 Y462.165 Z-21.000 I0.000 J-3.000 F900.000
G1 X202.114 Y462.165 Z-22.300 F900.000
G2 X202.993 Y460.044 Z-22.300 I-2.121 J-2.121 F900.000
G1 X202.993 Y405.524 Z-22.300 F900.000
G1 X202.993 Y403.524 Z-20.300 F900.000
G1 X202.993 Y391.564 Z-20.300 F900.000
G1 X202.993 Y389.564 Z-22.300 F900.000
G1 X202.993 Y280.525 Z-22.300 F900.000
G1 X202.993 Y278.525 Z-20.300 F900.000
G1 X202.993 Y266.565 Z-20.300 F900.000
G1 X202.993 Y264.565 Z-22.300 F900.000
G1 X202.993 Y210.045 Z-22.300 F900.000
G2 X199.993 Y207.045 Z-22.300 I-3.000 J0.000 F900.000
G1 X100.021 Y207.045 Z-22.300 F900.000
G2 X97.021 Y210.045 Z-22.300 I0.000 J3.000 F900.000
G1 X97.021 Y264.565 Z-22.300 F900.000
G1 X97.021 Y266.565 Z-20.300 F900.000
G1 X97.021 Y278.525 Z-20.300 F900.000
G1 X97.021 Y280.525 Z-22.300 F900.000
G1 X97.021 Y389.564 Z-22.300 F900.000
G1 X97.021 Y391.564 Z-20.300 F900.000
G1 X97.021 Y403.524 Z-20.300 F900.000
G1 X97.021 Y405.524 Z-22.300 F900.000
G1 X97.021 Y460.044 Z-22.300 F900.000
G2 X100.021 Y463.044 Z-22.300 I3.000 J0.000 F900.000
G1 X199.993 Y463.044 Z-22.300 F900.000
G2 X202.114 Y462.165 Z-22.300 I0.000 J-3.000 F900.000
G0 X202.114 Y462.165 Z15.000
(finish operation: Tag_plate)
(begin operation: Tag_handle)
(machine: not set, mm/min)
G0 Z15.000
G0 X279.170 Y129.145 Z15.000
G0 X279.170 Y129.145 Z10.000
G1 X279.170 Y129.145 Z0.000 F900.000
G2 X282.998 Y120.033 Z0.000 I-9.246 J-9.244 F900.000
G1 X283.001 Y15.482 Z0.000 F900.000
G2 X264.644 Y-2.980 Z0.000 I-18.465 J0.003 F900.000
G1 X200.022 Y-2.982 Z0.000 F900.000
G2 X197.022 Y0.018 Z0.000 I0.000 J3.000 F900.000
G1 X197.022 Y19.998 Z0.000 F900.000
G2 X200.022 Y22.998 Z0.000 I3.000 J0.000 F900.000
G1 X248.266 Y22.998 Z0.000 F900.000
G3 X256.009 Y30.741 Z0.000 I0.055 J7.688 F900.000
G1 X256.009 Y98.618 Z0.000 F900.000
G3 X247.672 Y106.955 Z0.000 I-8.282 J0.055 F900.000
G1 X200.022 Y106.955 Z0.000 F900.000
G2 X197.022 Y109.955 Z0.000 I0.000 J3.000 F900.000
G1 X197.022 Y129.975 Z0.000 F900.000
G2 X200.022 Y132.975 Z0.000 I3.000 J0.000 F900.000
G1 X269.928 Y132.975 Z0.000 F900.000
G2 X279.170 Y129.145 Z0.000 I-0.004 J-13.074 F900.000
G1 X279.170 Y129.145 Z-3.000 F900.000
G2 X282.998 Y120.033 Z-3.000 I-9.246 J-9.244 F900.000
G1 X283.001 Y15.482 Z-3.000 F900.000
G2 X264.644 Y-2.980 Z-3.000 I-18.465 J0.003 F900.000
G1 X200.022 Y-2.982 Z-3.000 F900.000
G2 X197.022 Y0.018 Z-3.000 I0.000 J3.000 F900.000
G1 X197.022 Y19.998 Z-3.000 F900.000
G2 X200.022 Y22.998 Z-3.000 I3.000 J0.000 F900.000
G1 X248.266 Y22.998 Z-3.000 F900.000
G3 X256.009 Y30.741 Z-3.000 I0.055 J7.688 F900.000
G1 X256.009 Y98.618 Z-3.000 F900.000
G3 X247.672 Y106.955 Z-3.000 I-8.282 J0.055 F900.000
G1 X200.022 Y106.955 Z-3.000 F900.000
G2 X197.022 Y109.955 Z-3.000 I0.000 J3.000 F900.000
G1 X197.022 Y129.975 Z-3.000 F900.000
G2 X200.022 Y132.975 Z-3.000 I3.000 J0.000 F900.000
G1 X269.928 Y132.975 Z-3.000 F900.000
G2 X279.170 Y129.145 Z-3.000 I-0.004 J-13.074 F900.000
G1 X279.170 Y129.145 Z-6.000 F900.000
G2 X282.998 Y120.033 Z-6.000 I-9.246 J-9.244 F900.000
G1 X283.001 Y15.482 Z-6.000 F900.000
G2 X264.644 Y-2.980 Z-6.000 I-18.465 J0.003 F900.000
G1 X200.022 Y-2.982 Z-6.000 F900.000
G2 X197.022 Y0.018 Z-6.000 I0.000 J3.000 F900.000
G1 X197.022 Y19.998 Z-6.000 F900.000
G2 X200.022 Y22.998 Z-6.000 I3.000 J0.000 F900.000
G1 X248.266 Y22.998 Z-6.000 F900.000
G3 X256.009 Y30.741 Z-6.000 I0.055 J7.688 F900.000
G1 X256.009 Y98.618 Z-6.000 F900.000
G3 X247.672 Y106.955 Z-6.000 I-8.282 J0.055 F900.000
G1 X200.022 Y106.955 Z-6.000 F900.000
G2 X197.022 Y109.955 Z-6.000 I0.000 J3.000 F900.000
G1 X197.022 Y129.975 Z-6.000 F900.000
G2 X200.022 Y132.975 Z-6.000 I3.000 J0.000 F900.000
G1 X269.928 Y132.975 Z-6.000 F900.000
G2 X279.170 Y129.145 Z-6.000 I-0.004 J-13.074 F900.000
G1 X279.170 Y129.145 Z-9.000 F900.000
G2 X282.998 Y120.033 Z-9.000 I-9.246 J-9.244 F900.000
G1 X283.001 Y15.482 Z-9.000 F900.000
G2 X264.644 Y-2.980 Z-9.000 I-18.465 J0.003 F900.000
G1 X200.022 Y-2.982 Z-9.000 F900.000
G2 X197.022 Y0.018 Z-9.000 I0.000 J3.000 F900.000
G1 X197.022 Y19.998 Z-9.000 F900.000
G2 X200.022 Y22.998 Z-9.000 I3.000 J0.000 F900.000
G1 X248.266 Y22.998 Z-9.000 F900.000
G3 X256.009 Y30.741 Z-9.000 I0.055 J7.688 F900.000
G1 X256.009 Y98.618 Z-9.000 F900.000
G3 X247.672 Y106.955 Z-9.000 I-8.282 J0.055 F900.000
G1 X200.022 Y106.955 Z-9.000 F900.000
G2 X197.022 Y109.955 Z-9.000 I0.000 J3.000 F900.000
G1 X197.022 Y129.975 Z-9.000 F900.000
G2 X200.022 Y132.975 Z-9.000 I3.000 J0.000 F900.000
G1 X269.928 Y132.975 Z-9.000 F900.000
G2 X279.170 Y129.145 Z-9.000 I-0.004 J-13.074 F900.000
G1 X279.170 Y129.145 Z-12.000 F900.000
G2 X282.998 Y120.033 Z-12.000 I-9.246 J-9.244 F900.000
G1 X283.001 Y15.482 Z-12.000 F900.000
G2 X264.644 Y-2.980 Z-12.000 I-18.465 J0.003 F900.000
G1 X200.022 Y-2.982 Z-12.000 F900.000
G2 X197.022 Y0.018 Z-12.000 I0.000 J3.000 F900.000
G1 X197.022 Y19.998 Z-12.000 F900.000
G2 X200.022 Y22.998 Z-12.000 I3.000 J0.000 F900.000
G1 X248.266 Y22.998 Z-12.000 F900.000
G3 X256.009 Y30.741 Z-12.000 I0.055 J7.688 F900.000
G1 X256.009 Y98.618 Z-12.000 F900.000
G3 X247.672 Y106.955 Z-12.000 I-8.282 J0.055 F900.000
G1 X200.022 Y106.955 Z-12.000 F900.000
G2 X197.022 Y109.955 Z-12.000 I0.000 J3.000 F900.000
G1 X197.022 Y129.975 Z-12.000 F900.000
G2 X200.022 Y132.975 Z-12.000 I3.000 J0.000 F900.000
G1 X269.928 Y132.975 Z-12.000 F900.000
G2 X279.170 Y129.145 Z-12.000 I-0.004 J-13.074 F900.000
G1 X279.170 Y129.145 Z-15.000 F900.000
G2 X282.998 Y120.033 Z-15.000 I-9.246 J-9.244 F900.000
G1 X283.001 Y15.482 Z-15.000 F900.000
G2 X264.644 Y-2.980 Z-15.000 I-18.465 J0.003 F900.000
G1 X200.022 Y-2.982 Z-15.000 F900.000
G2 X197.022 Y0.018 Z-15.000 I0.000 J3.000 F900.000
G1 X197.022 Y19.998 Z-15.000 F900.000
G2 X200.022 Y22.998 Z-15.000 I3.000 J0.000 F900.000
G1 X248.266 Y22.998 Z-15.000 F900.000
G3 X256.009 Y30.741 Z-15.000 I0.055 J7.688 F900.000
G1 X256.009 Y98.618 Z-15.000 F900.000
G3 X247.672 Y106.955 Z-15.000 I-8.282 J0.055 F900.000
G1 X200.022 Y106.955 Z-15.000 F900.000
G2 X197.022 Y109.955 Z-15.000 I0.000 J3.000 F900.000
G1 X197.022 Y129.975 Z-15.000 F900.000
G2 X200.022 Y132.975 Z-15.000 I3.000 J0.000 F900.000
G1 X269.928 Y132.975 Z-15.000 F900.000
G2 X279.170 Y129.145 Z-15.000 I-0.004 J-13.074 F900.000
G1 X279.170 Y129.145 Z-18.000 F900.000
G2 X282.998 Y120.033 Z-18.000 I-9.246 J-9.244 F900.000
G1 X283.001 Y15.482 Z-18.000 F900.000
G2 X264.644 Y-2.980 Z-18.000 I-18.465 J0.003 F900.000
G1 X200.022 Y-2.982 Z-18.000 F900.000
G2 X197.022 Y0.018 Z-18.000 I0.000 J3.000 F900.000
G1 X197.022 Y19.998 Z-18.000 F900.000
G2 X200.022 Y22.998 Z-18.000 I3.000 J0.000 F900.000
G1 X248.266 Y22.998 Z-18.000 F900.000
G3 X256.009 Y30.741 Z-18.000 I0.055 J7.688 F900.000
G1 X256.009 Y98.618 Z-18.000 F900.000
G3 X247.672 Y106.955 Z-18.000 I-8.282 J0.055 F900.000
G1 X200.022 Y106.955 Z-18.000 F900.000
G2 X197.022 Y109.955 Z-18.000 I0.000 J3.000 F900.000
G1 X197.022 Y129.975 Z-18.000 F900.000
G2 X200.022 Y132.975 Z-18.000 I3.000 J0.000 F900.000
G1 X269.928 Y132.975 Z-18.000 F900.000
G2 X279.170 Y129.145 Z-18.000 I-0.004 J-13.074 F900.000
G1 X279.170 Y129.145 Z-21.000 F900.000
G2 X282.998 Y120.033 Z-21.000 I-9.246 J-9.244 F900.000
G1 X282.999 Y74.438 Z-21.000 F900.000
G1 X282.999 Y73.738 Z-20.300 F900.000
G1 X282.999 Y61.778 Z-20.300 F900.000
G1 X282.999 Y61.078 Z-21.000 F900.000
G1 X283.001 Y15.482 Z-21.000 F900.000
G2 X264.644 Y-2.980 Z-21.000 I-18.465 J0.003 F900.000
G1 X200.022 Y-2.982 Z-21.000 F900.000
G2 X197.022 Y0.018 Z-21.000 I0.000 J3.000 F900.000
G1 X197.022 Y19.998 Z-21.000 F900.000
G2 X200.022 Y22.998 Z-21.000 I3.000 J0.000 F900.000
G1 X217.464 Y22.998 Z-21.000 F900.000
G1 X218.164 Y22.998 Z-20.300 F900.000
G1 X230.124 Y22.998 Z-20.300 F900.000
G1 X230.824 Y22.998 Z-21.000 F900.000
G1 X248.266 Y22.998 Z-21.000 F900.000
G3 X256.009 Y30.741 Z-21.000 I0.055 J7.688 F900.000
G1 X256.009 Y98.618 Z-21.000 F900.000
G3 X247.672 Y106.955 Z-21.000 I-8.282 J0.055 F900.000
G1 X230.527 Y106.955 Z-21.000 F900.000
G1 X229.827 Y106.955 Z-20.300 F900.000
G1 X217.867 Y106.955 Z-20.300 F900.000
G1 X217.167 Y106.955 Z-21.000 F900.000
G1 X200.022 Y106.955 Z-21.000 F900.000
G2 X197.022 Y109.955 Z-21.000 I0.000 J3.000 F900.000
G1 X197.022 Y129.975 Z-21.000 F900.000
G2 X200.022 Y132.975 Z-21.000 I3.000 J0.000 F900.000
G1 X269.928 Y132.975 Z-21.000 F900.000
G2 X279.170 Y129.145 Z-21.000 I-0.004 J-13.074 F900.000
G1 X279.170 Y129.145 Z-22.300 F900.000
G2 X282.998 Y120.033 Z-22.300 I-9.246 J-9.244 F900.000
G1 X282.999 Y75.738 Z-22.300 F900.000
G1 X282.999 Y73.738 Z-20.300 F900.000
G1 X282.999 Y61.778 Z-20.300 F900.000
G1 X282.999 Y59.778 Z-22.300 F900.000
G1 X283.001 Y15.482 Z-22.300 F900.000
G2 X264.644 Y-2.980 Z-22.300 I-18.465 J0.003 F900.000
G1 X200.022 Y-2.982 Z-22.300 F900.000
G2 X197.022 Y0.018 Z-22.300 I0.000 J3.000 F900.000
G1 X197.022 Y19.998 Z-22.300 F900.000
G2 X200.022 Y22.998 Z-22.300 I3.000 J0.000 F900.000
G1 X216.164 Y22.998 Z-22.300 F900.000
G1 X218.164 Y22.998 Z-20.300 F900.000
G1 X230.124 Y22.998 Z-20.300 F900.000
G1 X232.124 Y22.998 Z-22.300 F900.000
G1 X248.266 Y22.998 Z-22.300 F900.000
G3 X256.009 Y30.741 Z-22.300 I0.055 J7.688 F900.000
G1 X256.009 Y98.618 Z-22.300 F900.000
G3 X247.672 Y106.955 Z-22.300 I-8.282 J0.055 F900.000
G1 X231.827 Y106.955 Z-22.300 F900.000
G1 X229.827 Y106.955 Z-20.300 F900.000
G1 X217.867 Y106.955 Z-20.300 F900.000
G1 X215.867 Y106.955 Z-22.300 F900.000
G1 X200.022 Y106.955 Z-22.300 F900.000
G2 X197.022 Y109.955 Z-22.300 I0.000 J3.000 F900.000
G1 X197.022 Y129.975 Z-22.300 F900.000
G2 X200.022 Y132.975 Z-22.300 I3.000 J0.000 F900.000
G1 X269.928 Y132.975 Z-22.300 F900.000
G2 X279.170 Y129.145 Z-22.300 I-0.004 J-13.074 F900.000
G0 X279.170 Y129.145 Z15.000
(finish operation: Tag_handle)
(begin operation: Tag_big_out)
(machine: not set, mm/min)
G0 Z15.000
G0 X171.322 Y190.524 Z15.000
G0 X171.322 Y190.524 Z10.000
G1 X171.322 Y190.524 Z0.000 F900.000
G2 X175.061 Y179.501 Z0.000 I-22.309 J-13.714 F900.000
G1 X191.638 Y13.743 Z0.000 F900.000
G2 X176.605 Y-2.998 Z0.000 I-15.154 J-1.512 F900.000
G1 X0.000 Y-3.000 Z0.000 F900.000
G2 X-3.000 Y0.000 Z0.000 I0.000 J3.000 F900.000
G1 X-3.000 Y200.058 Z0.000 F900.000
G2 X0.001 Y203.058 Z0.000 I3.000 J0.000 F900.000
G1 X149.026 Y202.997 Z0.000 F900.000
G2 X171.322 Y190.524 Z0.000 I-0.013 J-26.186 F900.000
G1 X171.322 Y190.524 Z-3.000 F900.000
G2 X175.061 Y179.501 Z-3.000 I-22.309 J-13.714 F900.000
G1 X191.638 Y13.743 Z-3.000 F900.000
G2 X176.605 Y-2.998 Z-3.000 I-15.154 J-1.512 F900.000
G1 X0.000 Y-3.000 Z-3.000 F900.000
G2 X-3.000 Y0.000 Z-3.000 I0.000 J3.000 F900.000
G1 X-3.000 Y200.058 Z-3.000 F900.000
G2 X0.001 Y203.058 Z-3.000 I3.000 J0.000 F900.000
G1 X149.026 Y202.997 Z-3.000 F900.000
G2 X171.322 Y190.524 Z-3.000 I-0.013 J-26.186 F900.000
G1 X171.322 Y190.524 Z-6.000 F900.000
G2 X175.061 Y179.501 Z-6.000 I-22.309 J-13.714 F900.000
G1 X191.638 Y13.743 Z-6.000 F900.000
G2 X176.605 Y-2.998 Z-6.000 I-15.154 J-1.512 F900.000
G1 X0.000 Y-3.000 Z-6.000 F900.000
G2 X-3.000 Y0.000 Z-6.000 I0.000 J3.000 F900.000
G1 X-3.000 Y200.058 Z-6.000 F900.000
G2 X0.001 Y203.058 Z-6.000 I3.000 J0.000 F900.000
G1 X149.026 Y202.997 Z-6.000 F900.000
G2 X171.322 Y190.524 Z-6.000 I-0.013 J-26.186 F900.000
G1 X171.322 Y190.524 Z-9.000 F900.000
G2 X175.061 Y179.501 Z-9.000 I-22.309 J-13.714 F900.000
G1 X191.638 Y13.743 Z-9.000 F900.000
G2 X176.605 Y-2.998 Z-9.000 I-15.154 J-1.512 F900.000
G1 X0.000 Y-3.000 Z-9.000 F900.000
G2 X-3.000 Y0.000 Z-9.000 I0.000 J3.000 F900.000
G1 X-3.000 Y200.058 Z-9.000 F900.000
G2 X0.001 Y203.058 Z-9.000 I3.000 J0.000 F900.000
G1 X149.026 Y202.997 Z-9.000 F900.000
G2 X171.322 Y190.524 Z-9.000 I-0.013 J-26.186 F900.000
G1 X171.322 Y190.524 Z-12.000 F900.000
G2 X175.061 Y179.501 Z-12.000 I-22.309 J-13.714 F900.000
G1 X191.638 Y13.743 Z-12.000 F900.000
G2 X176.605 Y-2.998 Z-12.000 I-15.154 J-1.512 F900.000
G1 X0.000 Y-3.000 Z-12.000 F900.000
G2 X-3.000 Y0.000 Z-12.000 I0.000 J3.000 F900.000
G1 X-3.000 Y200.058 Z-12.000 F900.000
G2 X0.001 Y203.058 Z-12.000 I3.000 J0.000 F900.000
G1 X149.026 Y202.997 Z-12.000 F900.000
G2 X171.322 Y190.524 Z-12.000 I-0.013 J-26.186 F900.000
G1 X171.322 Y190.524 Z-15.000 F900.000
G2 X175.061 Y179.501 Z-15.000 I-22.309 J-13.714 F900.000
G1 X191.638 Y13.743 Z-15.000 F900.000
G2 X176.605 Y-2.998 Z-15.000 I-15.154 J-1.512 F900.000
G1 X0.000 Y-3.000 Z-15.000 F900.000
G2 X-3.000 Y0.000 Z-15.000 I0.000 J3.000 F900.000
G1 X-3.000 Y200.058 Z-15.000 F900.000
G2 X0.001 Y203.058 Z-15.000 I3.000 J0.000 F900.000
G1 X149.026 Y202.997 Z-15.000 F900.000
G2 X171.322 Y190.524 Z-15.000 I-0.013 J-26.186 F900.000
G1 X171.322 Y190.524 Z-18.000 F900.000
G2 X175.061 Y179.501 Z-18.000 I-22.309 J-13.714 F900.000
G1 X191.638 Y13.743 Z-18.000 F900.000
G2 X176.605 Y-2.998 Z-18.000 I-15.154 J-1.512 F900.000
G1 X0.000 Y-3.000 Z-18.000 F900.000
G2 X-3.000 Y0.000 Z-18.000 I0.000 J3.000 F900.000
G1 X-3.000 Y200.058 Z-18.000 F900.000
G2 X0.001 Y203.058 Z-18.000 I3.000 J0.000 F900.000
G1 X149.026 Y202.997 Z-18.000 F900.000
G2 X171.322 Y190.524 Z-18.000 I-0.013 J-26.186 F900.000
G1 X171.322 Y190.524 Z-21.000 F900.000
G2 X175.061 Y179.501 Z-21.000 I-22.309 J-13.714 F900.000
G1 X176.711 Y163.006 Z-21.000 F900.000
G1 X176.781 Y162.310 Z-20.300 F900.000
G1 X177.971 Y150.409 Z-20.300 F900.000
G1 X178.040 Y149.713 Z-21.000 F900.000
G1 X187.548 Y54.637 Z-21.000 F900.000
G1 X187.618 Y53.941 Z-20.300 F900.000
G1 X188.808 Y42.040 Z-20.300 F900.000
G1 X188.878 Y41.343 Z-21.000 F900.000
G1 X191.638 Y13.743 Z-21.000 F900.000
G2 X176.605 Y-2.998 Z-21.000 I-15.154 J-1.512 F900.000
G1 X0.000 Y-3.000 Z-21.000 F900.000
G2 X-3.000 Y0.000 Z-21.000 I0.000 J3.000 F900.000
G1 X-3.000 Y200.058 Z-21.000 F900.000
G2 X0.001 Y203.058 Z-21.000 I3.000 J0.000 F900.000
G1 X60.480 Y203.033 Z-21.000 F900.000
G1 X61.180 Y203.033 Z-20.300 F900.000
G1 X73.140 Y203.028 Z-20.300 F900.000
G1 X73.840 Y203.028 Z-21.000 F900.000
G1 X149.026 Y202.997 Z-21.000 F900.000
G2 X171.322 Y190.524 Z-21.000 I-0.013 J-26.186 F900.000
G1 X171.322 Y190.524 Z-22.300 F900.000
G2 X175.061 Y179.501 Z-22.300 I-22.309 J-13.714 F900.000
G1 X176.582 Y164.300 Z-22.300 F900.000
G1 X176.781 Y162.310 Z-20.300 F900.000
G1 X177.971 Y150.409 Z-20.300 F900.000
G1 X178.170 Y148.419 Z-22.300 F900.000
G1 X187.419 Y55.931 Z-22.300 F900.000
G1 X187.618 Y53.941 Z-20.300 F900.000
G1 X188.808 Y42.040 Z-20.300 F900.000
G1 X189.007 Y40.050 Z-22.300 F900.000
G1 X191.638 Y13.743 Z-22.300 F900.000
G2 X176.605 Y-2.998 Z-22.300 I-15.154 J-1.512 F900.000
G1 X0.000 Y-3.000 Z-22.300 F900.000
G2 X-3.000 Y0.000 Z-22.300 I0.000 J3.000 F900.000
G1 X-3.000 Y200.058 Z-22.300 F900.000
G2 X0.001 Y203.058 Z-22.300 I3.000 J0.000 F900.000
G1 X59.180 Y203.034 Z-22.300 F900.000
G1 X61.180 Y203.033 Z-20.300 F900.000
G1 X73.140 Y203.028 Z-20.300 F900.000
G1 X75.140 Y203.027 Z-22.300 F900.000
G1 X149.026 Y202.997 Z-22.300 F900.000
G2 X171.322 Y190.524 Z-22.300 I-0.013 J-26.186 F900.000
G0 X171.322 Y190.524 Z15.000
(finish operation: Tag_big_out)
(begin operation: Tag_small_in)
(machine: not set, mm/min)
G0 Z15.000
G0 X271.117 Y206.386 Z15.000
G0 X271.117 Y206.386 Z10.000
G1 X271.117 Y206.386 Z-2.000 F900.000
G1 X238.548 Y227.517 Z-2.000 F900.000
G3 X236.560 Y226.440 Z-2.000 I-0.746 J-0.995 F900.000
G1 X236.428 Y172.913 Z-2.000 F900.000
G3 X236.715 Y172.892 Z-2.000 I0.231 J1.190 F900.000
G1 X281.529 Y173.055 Z-2.000 F900.000
G3 X284.962 Y176.874 Z-2.000 I0.059 J3.399 F900.000
G1 X282.703 Y198.798 Z-2.000 F900.000
G3 X282.631 Y198.915 Z-2.000 I-0.099 J0.020 F900.000
G1 X271.117 Y206.386 Z-2.000 F900.000
G1 X271.117 Y206.386 Z-5.000 F900.000
G1 X238.548 Y227.517 Z-5.000 F900.000
G3 X236.560 Y226.440 Z-5.000 I-0.746 J-0.995 F900.000
G1 X236.428 Y172.913 Z-5.000 F900.000
G3 X236.715 Y172.892 Z-5.000 I0.231 J1.190 F900.000
G1 X281.529 Y173.055 Z-5.000 F900.000
G3 X284.962 Y176.874 Z-5.000 I0.059 J3.399 F900.000
G1 X282.703 Y198.798 Z-5.000 F900.000
G3 X282.631 Y198.915 Z-5.000 I-0.099 J0.020 F900.000
G1 X271.117 Y206.386 Z-5.000 F900.000
G1 X271.117 Y206.386 Z-8.000 F900.000
G1 X238.548 Y227.517 Z-8.000 F900.000
G3 X236.560 Y226.440 Z-8.000 I-0.746 J-0.995 F900.000
G1 X236.428 Y172.913 Z-8.000 F900.000
G3 X236.715 Y172.892 Z-8.000 I0.231 J1.190 F900.000
G1 X281.529 Y173.055 Z-8.000 F900.000
G3 X284.962 Y176.874 Z-8.000 I0.059 J3.399 F900.000
G1 X282.703 Y198.798 Z-8.000 F900.000
G3 X282.631 Y198.915 Z-8.000 I-0.099 J0.020 F900.000
G1 X271.117 Y206.386 Z-8.000 F900.000
G1 X271.117 Y206.386 Z-11.000 F900.000
G1 X238.548 Y227.517 Z-11.000 F900.000
G3 X236.560 Y226.440 Z-11.000 I-0.746 J-0.995 F900.000
G1 X236.428 Y172.913 Z-11.000 F900.000
G3 X236.715 Y172.892 Z-11.000 I0.231 J1.190 F900.000
G1 X281.529 Y173.055 Z-11.000 F900.000
G3 X284.962 Y176.874 Z-11.000 I0.059 J3.399 F900.000
G1 X282.703 Y198.798 Z-11.000 F900.000
G3 X282.631 Y198.915 Z-11.000 I-0.099 J0.020 F900.000
G1 X271.117 Y206.386 Z-11.000 F900.000
G1 X271.117 Y206.386 Z-14.000 F900.000
G1 X238.548 Y227.517 Z-14.000 F900.000
G3 X236.560 Y226.440 Z-14.000 I-0.746 J-0.995 F900.000
G1 X236.428 Y172.913 Z-14.000 F900.000
G3 X236.715 Y172.892 Z-14.000 I0.231 J1.190 F900.000
G1 X281.529 Y173.055 Z-14.000 F900.000
G3 X284.962 Y176.874 Z-14.000 I0.059 J3.399 F900.000
G1 X282.703 Y198.798 Z-14.000 F900.000
G3 X282.631 Y198.915 Z-14.000 I-0.099 J0.020 F900.000
G1 X271.117 Y206.386 Z-14.000 F900.000
G1 X271.117 Y206.386 Z-17.000 F900.000
G1 X238.548 Y227.517 Z-17.000 F900.000
G3 X236.560 Y226.440 Z-17.000 I-0.746 J-0.995 F900.000
G1 X236.428 Y172.913 Z-17.000 F900.000
G3 X236.715 Y172.892 Z-17.000 I0.231 J1.190 F900.000
G1 X281.529 Y173.055 Z-17.000 F900.000
G3 X284.962 Y176.874 Z-17.000 I0.059 J3.399 F900.000
G1 X282.703 Y198.798 Z-17.000 F900.000
G3 X282.631 Y198.915 Z-17.000 I-0.099 J0.020 F900.000
G1 X271.117 Y206.386 Z-17.000 F900.000
G1 X271.117 Y206.386 Z-20.000 F900.000
G1 X238.548 Y227.517 Z-20.000 F900.000
G3 X236.560 Y226.440 Z-20.000 I-0.746 J-0.995 F900.000
G1 X236.428 Y172.913 Z-20.000 F900.000
G3 X236.715 Y172.892 Z-20.000 I0.231 J1.190 F900.000
G1 X281.529 Y173.055 Z-20.000 F900.000
G3 X284.962 Y176.874 Z-20.000 I0.059 J3.399 F900.000
G1 X282.703 Y198.798 Z-20.000 F900.000
G3 X282.631 Y198.915 Z-20.000 I-0.099 J0.020 F900.000
G1 X271.117 Y206.386 Z-20.000 F900.000
G1 X271.117 Y206.386 Z-22.300 F900.000
G1 X258.943 Y214.284 Z-22.300 F900.000
G1 X257.265 Y215.373 Z-20.300 F900.000
G1 X247.232 Y221.882 Z-20.300 F900.000
G1 X245.554 Y222.971 Z-22.300 F900.000
G1 X238.548 Y227.517 Z-22.300 F900.000
G3 X236.560 Y226.440 Z-22.300 I-0.746 J-0.995 F900.000
G1 X236.428 Y172.913 Z-22.300 F900.000
G3 X236.715 Y172.892 Z-22.300 I0.231 J1.190 F900.000
G1 X243.380 Y172.917 Z-22.300 F900.000
G1 X245.380 Y172.924 Z-20.300 F900.000
G1 X257.340 Y172.967 Z-20.300 F900.000
G1 X259.340 Y172.975 Z-22.300 F900.000
G1 X281.529 Y173.055 Z-22.300 F900.000
G3 X284.962 Y176.874 Z-22.300 I0.059 J3.399 F900.000
G1 X282.703 Y198.798 Z-22.300 F900.000
G3 X282.631 Y198.915 Z-22.300 I-0.099 J0.020 F900.000
G1 X271.117 Y206.386 Z-22.300 F900.000
G0 X271.117 Y206.386 Z15.000
G0 X270.401 Y318.169 Z15.000
G0 X270.401 Y318.169 Z10.000
G1 X270.401 Y318.169 Z-2.000 F900.000
G1 X270.319 Y318.969 Z-2.000 F900.000
G1 X237.179 Y285.588 Z-2.000 F900.000
G3 X236.703 Y284.437 Z-2.000 I1.019 J-1.095 F900.000
G1 X236.685 Y277.319 Z-2.000 F900.000
G3 X237.829 Y274.942 Z-2.000 I2.901 J-0.068 F900.000
G1 X278.158 Y242.896 Z-2.000 F900.000
G1 X270.401 Y318.169 Z-2.000 F900.000
G1 X270.401 Y318.169 Z-5.000 F900.000
G1 X270.319 Y318.969 Z-5.000 F900.000
G1 X237.179 Y285.588 Z-5.000 F900.000
G3 X236.703 Y284.437 Z-5.000 I1.019 J-1.095 F900.000
G1 X236.685 Y277.319 Z-5.000 F900.000
G3 X237.829 Y274.942 Z-5.000 I2.901 J-0.068 F900.000
G1 X278.158 Y242.896 Z-5.000 F900.000
G1 X270.401 Y318.169 Z-5.000 F900.000
G1 X270.401 Y318.169 Z-8.000 F900.000
G1 X270.319 Y318.969 Z-8.000 F900.000
G1 X237.179 Y285.588 Z-8.000 F900.000
G3 X236.703 Y284.437 Z-8.000 I1.019 J-1.095 F900.000
G1 X236.685 Y277.319 Z-8.000 F900.000
G3 X237.829 Y274.942 Z-8.000 I2.901 J-0.068 F900.000
G1 X278.158 Y242.896 Z-8.000 F900.000
G1 X270.401 Y318.169 Z-8.000 F900.000
G1 X270.401 Y318.169 Z-11.000 F900.000
G1 X270.319 Y318.969 Z-11.000 F900.000
G1 X237.179 Y285.588 Z-11.000 F900.000
G3 X236.703 Y284.437 Z-11.000 I1.019 J-1.095 F900.000
G1 X236.685 Y277.319 Z-11.000 F900.000
G3 X237.829 Y274.942 Z-11.000 I2.901 J-0.068 F900.000
G1 X278.158 Y242.896 Z-11.000 F900.000
G1 X270.401 Y318.169 Z-11.000 F900.000
G1 X270.401 Y318.169 Z-14.000 F900.000
G1 X270.319 Y318.969 Z-14.000 F900.000
G1 X237.179 Y285.588 Z-14.000 F900.000
G3 X236.703 Y284.437 Z-14.000 I1.019 J-1.095 F900.000
G1 X236.685 Y277.319 Z-14.000 F900.000
G3 X237.829 Y274.942 Z-14.000 I2.901 J-0.068 F900.000
G1 X278.158 Y242.896 Z-14.000 F900.000
G1 X270.401 Y318.169 Z-14.000 F900.000
G1 X270.401 Y318.169 Z-17.000 F900.000
G1 X270.319 Y318.969 Z-17.000 F900.000
G1 X237.179 Y285.588 Z-17.000 F900.000
G3 X236.703 Y284.437 Z-17.000 I1.019 J-1.095 F900.000
G1 X236.685 Y277.319 Z-17.000 F900.000
G3 X237.829 Y274.942 Z-17.000 I2.901 J-0.068 F900.000
G1 X278.158 Y242.896 Z-17.000 F900.000
G1 X270.401 Y318.169 Z-17.000 F900.000
G1 X270.401 Y318.169 Z-20.000 F900.000
G1 X270.319 Y318.969 Z-20.000 F900.000
G1 X237.179 Y285.588 Z-20.000 F900.000
G3 X236.703 Y284.437 Z-20.000 I1.019 J-1.095 F900.000
G1 X236.685 Y277.319 Z-20.000 F900.000
G3 X237.829 Y274.942 Z-20.000 I2.901 J-0.068 F900.000
G1 X278.158 Y242.896 Z-20.000 F900.000
G1 X270.401 Y318.169 Z-20.000 F900.000
G1 X270.401 Y318.169 Z-22.300 F900.000
G1 X270.319 Y318.969 Z-22.300 F900.000
G1 X254.555 Y303.090 Z-22.300 F900.000
G1 X253.146 Y301.671 Z-20.300 F900.000
G1 X244.719 Y293.184 Z-20.300 F900.000
G1 X243.310 Y291.764 Z-22.300 F900.000
G1 X237.179 Y285.588 Z-22.300 F900.000
G3 X236.703 Y284.437 Z-22.300 I1.019 J-1.095 F900.000
G1 X236.685 Y277.319 Z-22.300 F900.000
G3 X237.829 Y274.942 Z-22.300 I2.901 J-0.068 F900.000
G1 X253.699 Y262.331 Z-22.300 F900.000
G1 X255.265 Y261.087 Z-20.300 F900.000
G1 X264.629 Y253.646 Z-20.300 F900.000
G1 X266.195 Y252.402 Z-22.300 F900.000
G1 X278.158 Y242.896 Z-22.300 F900.000
G1 X270.401 Y318.169 Z-22.300 F900.000
G0 X270.401 Y318.169 Z15.000
G0 X263.472 Y382.550 Z15.000
G0 X263.472 Y382.550 Z10.000
G1 X263.472 Y382.550 Z-2.000 F900.000
G3 X260.691 Y383.774 Z-2.000 I-2.583 J-2.099 F900.000
G1 X236.946 Y382.866 Z-2.000 F900.000
G1 X236.815 Y330.084 Z-2.000 F900.000
G1 X263.627 Y366.312 Z-2.000 F900.000
G3 X264.944 Y371.123 Z-2.000 I-5.420 J4.070 F900.000
G1 X263.821 Y382.026 Z-2.000 F900.000
G3 X263.472 Y382.550 Z-2.000 I-2.932 J-1.574 F900.000
G1 X263.472 Y382.550 Z-5.000 F900.000
G3 X260.691 Y383.774 Z-5.000 I-2.583 J-2.099 F900.000
G1 X236.946 Y382.866 Z-5.000 F900.000
G1 X236.815 Y330.084 Z-5.000 F900.000
G1 X263.627 Y366.312 Z-5.000 F900.000
G3 X264.944 Y371.123 Z-5.000 I-5.420 J4.070 F900.000
G1 X263.821 Y382.026 Z-5.000 F900.000
G3 X263.472 Y382.550 Z-5.000 I-2.932 J-1.574 F900.000
G1 X263.472 Y382.550 Z-8.000 F900.000
G3 X260.691 Y383.774 Z-8.000 I-2.583 J-2.099 F900.000
G1 X236.946 Y382.866 Z-8.000 F900.000
G1 X236.815 Y330.084 Z-8.000 F900.000
G1 X263.627 Y366.312 Z-8.000 F900.000
G3 X264.944 Y371.123 Z-8.000 I-5.420 J4.070 F900.000
G1 X263.821 Y382.026 Z-8.000 F900.000
G3 X263.472 Y382.550 Z-8.000 I-2.932 J-1.574 F900.000
G1 X263.472 Y382.550 Z-11.000 F900.000
G3 X260.691 Y383.774 Z-11.000 I-2.583 J-2.099 F900.000
G1 X236.946 Y382.866 Z-11.000 F900.000
G1 X236.815 Y330.084 Z-11.000 F900.000
G1 X263.627 Y366.312 Z-11.000 F900.000
G3 X264.944 Y371.123 Z-11.000 I-5.420 J4.070 F900.000
G1 X263.821 Y382.026 Z-11.000 F900.000
G3 X263.472 Y382.550 Z-11.000 I-2.932 J-1.574 F900.000
G1 X263.472 Y382.550 Z-14.000 F900.000
G3 X260.691 Y383.774 Z-14.000 I-2.583 J-2.099 F900.000
G1 X236.946 Y382.866 Z-14.000 F900.000
G1 X236.815 Y330.084 Z-14.000 F900.000
G1 X263.627 Y366.312 Z-14.000 F900.000
G3 X264.944 Y371.123 Z-14.000 I-5.420 J4.070 F900.000
G1 X263.821 Y382.026 Z-14.000 F900.000
G3 X263.472 Y382.550 Z-14.000 I-2.932 J-1.574 F900.000
G1 X263.472 Y382.550 Z-17.000 F900.000
G3 X260.691 Y383.774 Z-17.000 I-2.583 J-2.099 F900.000
G1 X236.946 Y382.866 Z-17.000 F900.000
G1 X236.815 Y330.084 Z-17.000 F900.000
G1 X263.627 Y366.312 Z-17.000 F900.000
G3 X264.944 Y371.123 Z-17.000 I-5.420 J4.070 F900.000
G1 X263.821 Y382.026 Z-17.000 F900.000
G3 X263.472 Y382.550 Z-17.000 I-2.932 J-1.574 F900.000
G1 X263.472 Y382.550 Z-20.000 F900.000
G3 X260.691 Y383.774 Z-20.000 I-2.583 J-2.099 F900.000
G1 X236.946 Y382.866 Z-20.000 F900.000
G1 X236.815 Y330.084 Z-20.000 F900.000
G1 X263.627 Y366.312 Z-20.000 F900.000
G3 X264.944 Y371.123 Z-20.000 I-5.420 J4.070 F900.000
G1 X263.821 Y382.026 Z-20.000 F900.000
G3 X263.472 Y382.550 Z-20.000 I-2.932 J-1.574 F900.000
G1 X263.472 Y382.550 Z-22.300 F900.000
G3 X260.691 Y383.774 Z-22.300 I-2.583 J-2.099 F900.000
G1 X236.946 Y382.866 Z-22.300 F900.000
G1 X236.919 Y372.070 Z-22.300 F900.000
G1 X236.914 Y370.070 Z-20.300 F900.000
G1 X236.884 Y358.110 Z-20.300 F900.000
G1 X236.880 Y356.110 Z-22.300 F900.000
G1 X236.815 Y330.084 Z-22.300 F900.000
G1 X263.627 Y366.312 Z-22.300 F900.000
G3 X264.944 Y371.123 Z-22.300 I-5.420 J4.070 F900.000
G1 X263.821 Y382.026 Z-22.300 F900.000
G3 X263.472 Y382.550 Z-22.300 I-2.932 J-1.574 F900.000
G0 X263.472 Y382.550 Z15.000
(finish operation: Tag_small_in)
(begin operation: TagDressup005)
(machine: not set, mm/min)
G0 Z15.000
G0 X284.143 Y396.401 Z15.000
G0 X284.143 Y396.401 Z10.000
G1 X284.143 Y396.401 Z0.000 F900.000
G2 X284.850 Y393.362 Z0.000 I-12.355 J-4.477 F900.000
G1 X307.994 Y161.845 Z0.000 F900.000
G2 X296.508 Y149.003 Z0.000 I-11.627 J-1.158 F900.000
G1 X216.000 Y149.000 Z0.000 F900.000
G2 X213.000 Y152.000 Z0.000 I0.000 J3.000 F900.000
G1 X213.000 Y402.065 Z0.000 F900.000
G2 X216.000 Y405.065 Z0.000 I3.000 J0.000 F900.000
G1 X271.793 Y405.065 Z0.000 F900.000
G2 X284.143 Y396.401 Z0.000 I-0.004 J-13.141 F900.000
G1 X284.143 Y396.401 Z-3.000 F900.000
G2 X284.850 Y393.362 Z-3.000 I-12.355 J-4.477 F900.000
G1 X307.994 Y161.845 Z-3.000 F900.000
G2 X296.508 Y149.003 Z-3.000 I-11.627 J-1.158 F900.000
G1 X216.000 Y149.000 Z-3.000 F900.000
G2 X213.000 Y152.000 Z-3.000 I0.000 J3.000 F900.000
G1 X213.000 Y402.065 Z-3.000 F900.000
G2 X216.000 Y405.065 Z-3.000 I3.000 J0.000 F900.000
G1 X271.793 Y405.065 Z-3.000 F900.000
G2 X284.143 Y396.401 Z-3.000 I-0.004 J-13.141 F900.000
G1 X284.143 Y396.401 Z-6.000 F900.000
G2 X284.850 Y393.362 Z-6.000 I-12.355 J-4.477 F900.000
G1 X307.994 Y161.845 Z-6.000 F900.000
G2 X296.508 Y149.003 Z-6.000 I-11.627 J-1.158 F900.000
G1 X216.000 Y149.000 Z-6.000 F900.000
G2 X213.000 Y152.000 Z-6.000 I0.000 J3.000 F900.000
G1 X213.000 Y402.065 Z-6.000 F900.000
G2 X216.000 Y405.065 Z-6.000 I3.000 J0.000 F900.000
G1 X271.793 Y405.065 Z-6.000 F900.000
G2 X284.143 Y396.401 Z-6.000 I-0.004 J-13.141 F900.000
G1 X284.143 Y396.401 Z-9.000 F900.000
G2 X284.850 Y393.362 Z-9.000 I-12.355 J-4.477 F900.000
G1 X307.994 Y161.845 Z-9.000 F900.000
G2 X296.508 Y149.003 Z-9.000 I-11.627 J-1.158 F900.000
G1 X216.000 Y149.000 Z-9.000 F900.000
G2 X213.000 Y152.000 Z-9.000 I0.000 J3.000 F900.000
G1 X213.000 Y402.065 Z-9.000 F900.000
G2 X216.000 Y405.065 Z-9.000 I3.000 J0.000 F900.000
G1 X271.793 Y405.065 Z-9.000 F900.000
G2 X284.143 Y396.401 Z-9.000 I-0.004 J-13.141 F900.000
G1 X284.143 Y396.401 Z-12.000 F900.000
G2 X284.850 Y393.362 Z-12.000 I-12.355 J-4.477 F900.000
G1 X307.994 Y161.845 Z-12.000 F900.000
G2 X296.508 Y149.003 Z-12.000 I-11.627 J-1.158 F900.000
G1 X216.000 Y149.000 Z-12.000 F900.000
G2 X213.000 Y152.000 Z-12.000 I0.000 J3.000 F900.000
G1 X213.000 Y402.065 Z-12.000 F900.000
G2 X216.000 Y405.065 Z-12.000 I3.000 J0.000 F900.000
G1 X271.793 Y405.065 Z-12.000 F900.000
G2 X284.143 Y396.401 Z-12.000 I-0.004 J-13.141 F900.000
G1 X284.143 Y396.401 Z-15.000 F900.000
G2 X284.850 Y393.362 Z-15.000 I-12.355 J-4.477 F900.000
G1 X307.994 Y161.845 Z-15.000 F900.000
G2 X296.508 Y149.003 Z-15.000 I-11.627 J-1.158 F900.000
G1 X216.000 Y149.000 Z-15.000 F900.000
G2 X213.000 Y152.000 Z-15.000 I0.000 J3.000 F900.000
G1 X213.000 Y402.065 Z-15.000 F900.000
G2 X216.000 Y405.065 Z-15.000 I3.000 J0.000 F900.000
G1 X271.793 Y405.065 Z-15.000 F900.000
G2 X284.143 Y396.401 Z-15.000 I-0.004 J-13.141 F900.000
G1 X284.143 Y396.401 Z-18.000 F900.000
G2 X284.850 Y393.362 Z-18.000 I-12.355 J-4.477 F900.000
G1 X307.994 Y161.845 Z-18.000 F900.000
G2 X296.508 Y149.003 Z-18.000 I-11.627 J-1.158 F900.000
G1 X216.000 Y149.000 Z-18.000 F900.000
G2 X213.000 Y152.000 Z-18.000 I0.000 J3.000 F900.000
G1 X213.000 Y402.065 Z-18.000 F900.000
G2 X216.000 Y405.065 Z-18.000 I3.000 J0.000 F900.000
G1 X271.793 Y405.065 Z-18.000 F900.000
G2 X284.143 Y396.401 Z-18.000 I-0.004 J-13.141 F900.000
G1 X284.143 Y396.401 Z-21.000 F900.000
G2 X284.850 Y393.362 Z-21.000 I-12.355 J-4.477 F900.000
G1 X289.972 Y342.129 Z-21.000 F900.000
G1 X290.041 Y341.433 Z-20.300 F900.000
G1 X291.231 Y329.532 Z-20.300 F900.000
G1 X291.301 Y328.836 Z-21.000 F900.000
G1 X301.544 Y226.371 Z-21.000 F900.000
G1 X301.613 Y225.674 Z-20.300 F900.000
G1 X302.803 Y213.774 Z-20.300 F900.000
G1 X302.872 Y213.077 Z-21.000 F900.000
G1 X307.994 Y161.845 Z-21.000 F900.000
G2 X296.508 Y149.003 Z-21.000 I-11.627 J-1.158 F900.000
G1 X216.000 Y149.000 Z-21.000 F900.000
G2 X213.000 Y152.000 Z-21.000 I0.000 J3.000 F900.000
G1 X213.000 Y207.836 Z-21.000 F900.000
G1 X213.000 Y208.536 Z-20.300 F900.000
G1 X213.000 Y220.496 Z-20.300 F900.000
G1 X213.000 Y221.196 Z-21.000 F900.000
G1 X213.000 Y332.869 Z-21.000 F900.000
G1 X213.000 Y333.569 Z-20.300 F900.000
G1 X213.000 Y345.529 Z-20.300 F900.000
G1 X213.000 Y346.229 Z-21.000 F900.000
G1 X213.000 Y402.065 Z-21.000 F900.000
G2 X216.000 Y405.065 Z-21.000 I3.000 J0.000 F900.000
G1 X271.793 Y405.065 Z-21.000 F900.000
G2 X284.143 Y396.401 Z-21.000 I-0.004 J-13.141 F900.000
G1 X284.143 Y396.401 Z-22.300 F900.000
G2 X284.850 Y393.362 Z-22.300 I-12.355 J-4.477 F900.000
G1 X289.843 Y343.423 Z-22.300 F900.000
G1 X290.041 Y341.433 Z-20.300 F900.000
G1 X291.231 Y329.532 Z-20.300 F900.000
G1 X291.430 Y327.542 Z-22.300 F900.000
G1 X301.414 Y227.664 Z-22.300 F900.000
G1 X301.613 Y225.674 Z-20.300 F900.000
G1 X302.803 Y213.774 Z-20.300 F900.000
G1 X303.002 Y211.784 Z-22.300 F900.000
G1 X307.994 Y161.845 Z-22.300 F900.000
G2 X296.508 Y149.003 Z-22.300 I-11.627 J-1.158 F900.000
G1 X216.000 Y149.000 Z-22.300 F900.000
G2 X213.000 Y152.000 Z-22.300 I0.000 J3.000 F900.000
G1 X213.000 Y206.536 Z-22.300 F900.000
G1 X213.000 Y208.536 Z-20.300 F900.000
G1 X213.000 Y220.496 Z-20.300 F900.000
G1 X213.000 Y222.496 Z-22.300 F900.000
G1 X213.000 Y331.569 Z-22.300 F900.000
G1 X213.000 Y333.569 Z-20.300 F900.000
G1 X213.000 Y345.529 Z-20.300 F900.000
G1 X213.000 Y347.529 Z-22.300 F900.000
G1 X213.000 Y402.065 Z-22.300 F900.000
G2 X216.000 Y405.065 Z-22.300 I3.000 J0.000 F900.000
G1 X271.793 Y405.065 Z-22.300 F900.000
G2 X284.143 Y396.401 Z-22.300 I-0.004 J-13.141 F900.000
G0 X284.143 Y396.401 Z15.000
(finish operation: TagDressup005)
(begin postamble)
M05
G17 G54 G90 G80 G40
M2
