(Exported by FreeCAD)
(Post Processor: linuxcnc_post)
(Output Time:2019-06-11 21:55:00.159743)
(begin preamble)
G17 G54 G40 G49 G80 G90
G21
(begin operation: T1: 6mm end mill)
(machine: not set, mm/min)
(T1: 6mm end mill)
M6 T1
M3 S18000
(finish operation: T1: 6mm end mill)
(begin operation: Tag_plate)
(machine: not set, mm/min)
G0 Z15.000
G0 X202.114 Y462.165 Z15.000
G0 X202.114 Y462.165 Z10.000
G1 X202.114 Y462.165 Z-10.000 F600.000
G2 X202.993 Y460.044 Z-10.000 I-2.121 J-2.121 F600.000
G1 X202.993 Y210.045 Z-10.000 F600.000
G2 X199.993 Y207.045 Z-10.000 I-3.000 J0.000 F600.000
G1 X100.021 Y207.045 Z-10.000 F600.000
G2 X97.021 Y210.045 Z-10.000 I0.000 J3.000 F600.000
G1 X97.021 Y460.044 Z-10.000 F600.000
G2 X100.021 Y463.044 Z-10.000 I3.000 J-0.000 F600.000
G1 X199.993 Y463.044 Z-10.000 F600.000
G2 X202.114 Y462.165 Z-10.000 I-0.000 J-3.000 F600.000
G1 X202.114 Y462.165 Z-12.000 F600.000
G2 X202.993 Y460.044 Z-12.000 I-2.121 J-2.121 F600.000
G1 X202.993 Y210.045 Z-12.000 F600.000
G2 X199.993 Y207.045 Z-12.000 I-3.000 J0.000 F600.000
G1 X100.021 Y207.045 Z-12.000 F600.000
G2 X97.021 Y210.045 Z-12.000 I0.000 J3.000 F600.000
G1 X97.021 Y460.044 Z-12.000 F600.000
G2 X100.021 Y463.044 Z-12.000 I3.000 J-0.000 F600.000
G1 X199.993 Y463.044 Z-12.000 F600.000
G2 X202.114 Y462.165 Z-12.000 I-0.000 J-3.000 F600.000
G1 X202.114 Y462.165 Z-14.000 F600.000
G2 X202.993 Y460.044 Z-14.000 I-2.121 J-2.121 F600.000
G1 X202.993 Y210.045 Z-14.000 F600.000
G2 X199.993 Y207.045 Z-14.000 I-3.000 J0.000 F600.000
G1 X100.021 Y207.045 Z-14.000 F600.000
G2 X97.021 Y210.045 Z-14.000 I0.000 J3.000 F600.000
G1 X97.021 Y460.044 Z-14.000 F600.000
G2 X100.021 Y463.044 Z-14.000 I3.000 J-0.000 F600.000
G1 X199.993 Y463.044 Z-14.000 F600.000
G2 X202.114 Y462.165 Z-14.000 I-0.000 J-3.000 F600.000
G1 X202.114 Y462.165 Z-16.000 F600.000
G2 X202.993 Y460.044 Z-16.000 I-2.121 J-2.121 F600.000
G1 X202.993 Y210.045 Z-16.000 F600.000
G2 X199.993 Y207.045 Z-16.000 I-3.000 J0.000 F600.000
G1 X100.021 Y207.045 Z-16.000 F600.000
G2 X97.021 Y210.045 Z-16.000 I0.000 J3.000 F600.000
G1 X97.021 Y460.044 Z-16.000 F600.000
G2 X100.021 Y463.044 Z-16.000 I3.000 J-0.000 F600.000
G1 X199.993 Y463.044 Z-16.000 F600.000
G2 X202.114 Y462.165 Z-16.000 I-0.000 J-3.000 F600.000
G1 X202.114 Y462.165 Z-18.000 F600.000
G2 X202.993 Y460.044 Z-18.000 I-2.121 J-2.121 F600.000
G1 X202.993 Y210.045 Z-18.000 F600.000
G2 X199.993 Y207.045 Z-18.000 I-3.000 J0.000 F600.000
G1 X100.021 Y207.045 Z-18.000 F600.000
G2 X97.021 Y210.045 Z-18.000 I0.000 J3.000 F600.000
G1 X97.021 Y460.044 Z-18.000 F600.000
G2 X100.021 Y463.044 Z-18.000 I3.000 J-0.000 F600.000
G1 X199.993 Y463.044 Z-18.000 F600.000
G2 X202.114 Y462.165 Z-18.000 I-0.000 J-3.000 F600.000
G1 X202.114 Y462.165 Z-20.000 F600.000
G2 X202.993 Y460.044 Z-20.000 I-2.121 J-2.121 F600.000
G1 X202.993 Y408.214 Z-20.000 F600.000
G1 X202.993 Y407.514 Z-19.300 F600.000
G1 X202.993 Y387.574 Z-19.300 F600.000
G1 X202.993 Y386.874 Z-20.000 F600.000
G1 X202.993 Y283.215 Z-20.000 F600.000
G1 X202.993 Y282.515 Z-19.300 F600.000
G1 X202.993 Y262.575 Z-19.300 F600.000
G1 X202.993 Y261.875 Z-20.000 F600.000
G1 X202.993 Y210.045 Z-20.000 F600.000
G2 X199.993 Y207.045 Z-20.000 I-3.000 J0.000 F600.000
G1 X100.021 Y207.045 Z-20.000 F600.000
G2 X97.021 Y210.045 Z-20.000 I0.000 J3.000 F600.000
G1 X97.021 Y261.875 Z-20.000 F600.000
G1 X97.021 Y262.575 Z-19.300 F600.000
G1 X97.021 Y282.515 Z-19.300 F600.000
G1 X97.021 Y283.215 Z-20.000 F600.000
G1 X97.021 Y386.874 Z-20.000 F600.000
G1 X97.021 Y387.574 Z-19.300 F600.000
G1 X97.021 Y407.514 Z-19.300 F600.000
G1 X97.021 Y408.214 Z-20.000 F600.000
G1 X97.021 Y460.044 Z-20.000 F600.000
G2 X100.021 Y463.044 Z-20.000 I3.000 J-0.000 F600.000
G1 X199.993 Y463.044 Z-20.000 F600.000
G2 X202.114 Y462.165 Z-20.000 I-0.000 J-3.000 F600.000
G1 X202.114 Y462.165 Z-22.000 F600.000
G2 X202.993 Y460.044 Z-22.000 I-2.121 J-2.121 F600.000
G1 X202.993 Y410.214 Z-22.000 F600.000
G1 X202.993 Y407.514 Z-19.300 F600.000
G1 X202.993 Y387.574 Z-19.300 F600.000
G1 X202.993 Y384.874 Z-22.000 F600.000
G1 X202.993 Y285.215 Z-22.000 F600.000
G1 X202.993 Y282.515 Z-19.300 F600.000
G1 X202.993 Y262.575 Z-19.300 F600.000
G1 X202.993 Y259.875 Z-22.000 F600.000
G1 X202.993 Y210.045 Z-22.000 F600.000
G2 X199.993 Y207.045 Z-22.000 I-3.000 J0.000 F600.000
G1 X100.021 Y207.045 Z-22.000 F600.000
G2 X97.021 Y210.045 Z-22.000 I0.000 J3.000 F600.000
G1 X97.021 Y259.875 Z-22.000 F600.000
G1 X97.021 Y262.575 Z-19.300 F600.000
G1 X97.021 Y282.515 Z-19.300 F600.000
G1 X97.021 Y285.215 Z-22.000 F600.000
G1 X97.021 Y384.874 Z-22.000 F600.000
G1 X97.021 Y387.574 Z-19.300 F600.000
G1 X97.021 Y407.514 Z-19.300 F600.000
G1 X97.021 Y410.214 Z-22.000 F600.000
G1 X97.021 Y460.044 Z-22.000 F600.000
G2 X100.021 Y463.044 Z-22.000 I3.000 J-0.000 F600.000
G1 X199.993 Y463.044 Z-22.000 F600.000
G2 X202.114 Y462.165 Z-22.000 I-0.000 J-3.000 F600.000
G1 X202.114 Y462.165 Z-22.300 F600.000
G2 X202.993 Y460.044 Z-22.300 I-2.121 J-2.121 F600.000
G1 X202.993 Y410.514 Z-22.300 F600.000
G1 X202.993 Y407.514 Z-19.300 F600.000
G1 X202.993 Y387.574 Z-19.300 F600.000
G1 X202.993 Y384.574 Z-22.300 F600.000
G1 X202.993 Y285.515 Z-22.300 F600.000
G1 X202.993 Y282.515 Z-19.300 F600.000
G1 X202.993 Y262.575 Z-19.300 F600.000
G1 X202.993 Y259.575 Z-22.300 F600.000
G1 X202.993 Y210.045 Z-22.300 F600.000
G2 X199.993 Y207.045 Z-22.300 I-3.000 J0.000 F600.000
G1 X100.021 Y207.045 Z-22.300 F600.000
G2 X97.021 Y210.045 Z-22.300 I0.000 J3.000 F600.000
G1 X97.021 Y259.575 Z-22.300 F600.000
G1 X97.021 Y262.575 Z-19.300 F600.000
G1 X97.021 Y282.515 Z-19.300 F600.000
G1 X97.021 Y285.515 Z-22.300 F600.000
G1 X97.021 Y384.574 Z-22.300 F600.000
G1 X97.021 Y387.574 Z-19.300 F600.000
G1 X97.021 Y407.514 Z-19.300 F600.000
G1 X97.021 Y410.514 Z-22.300 F600.000
G1 X97.021 Y460.044 Z-22.300 F600.000
G2 X100.021 Y463.044 Z-22.300 I3.000 J-0.000 F600.000
G1 X199.993 Y463.044 Z-22.300 F600.000
G2 X202.114 Y462.165 Z-22.300 I-0.000 J-3.000 F600.000
G0 X202.114 Y462.165 Z15.000
(finish operation: Tag_plate)
(begin operation: Tag_handle)
(machine: not set, mm/min)
G0 Z15.000
G0 X279.170 Y129.145 Z15.000
G0 X279.170 Y129.145 Z10.000
G1 X279.170 Y129.145 Z0.000 F600.000
G2 X282.998 Y120.033 Z-0.000 I-9.246 J-9.244 F600.000
G1 X283.001 Y15.482 Z-0.000 F600.000
G2 X264.644 Y-2.980 Z-0.000 I-18.465 J0.003 F600.000
G1 X200.022 Y-2.982 Z0.000 F600.000
G2 X197.022 Y0.018 Z0.000 I0.000 J3.000 F600.000
G1 X197.022 Y19.998 Z0.000 F600.000
G2 X200.022 Y22.998 Z0.000 I3.000 J-0.000 F600.000
G1 X248.266 Y22.998 Z-0.000 F600.000
G3 X256.009 Y30.741 Z-0.000 I0.055 J7.688 F600.000
G1 X256.009 Y98.618 Z-0.000 F600.000
G3 X247.672 Y106.955 Z-0.000 I-8.282 J0.055 F600.000
G1 X200.022 Y106.955 Z0.000 F600.000
G2 X197.022 Y109.955 Z0.000 I0.000 J3.000 F600.000
G1 X197.022 Y129.975 Z0.000 F600.000
G2 X200.022 Y132.975 Z0.000 I3.000 J-0.000 F600.000
G1 X269.928 Y132.975 Z-0.000 F600.000
G2 X279.170 Y129.145 Z-0.000 I-0.004 J-13.074 F600.000
G1 X279.170 Y129.145 Z-2.000 F600.000
G2 X282.998 Y120.033 Z-2.000 I-9.246 J-9.244 F600.000
G1 X283.001 Y15.482 Z-2.000 F600.000
G2 X264.644 Y-2.980 Z-2.000 I-18.465 J0.003 F600.000
G1 X200.022 Y-2.982 Z-2.000 F600.000
G2 X197.022 Y0.018 Z-2.000 I0.000 J3.000 F600.000
G1 X197.022 Y19.998 Z-2.000 F600.000
G2 X200.022 Y22.998 Z-2.000 I3.000 J-0.000 F600.000
G1 X248.266 Y22.998 Z-2.000 F600.000
G3 X256.009 Y30.741 Z-2.000 I0.055 J7.688 F600.000
G1 X256.009 Y98.618 Z-2.000 F600.000
G3 X247.672 Y106.955 Z-2.000 I-8.282 J0.055 F600.000
G1 X200.022 Y106.955 Z-2.000 F600.000
G2 X197.022 Y109.955 Z-2.000 I0.000 J3.000 F600.000
G1 X197.022 Y129.975 Z-2.000 F600.000
G2 X200.022 Y132.975 Z-2.000 I3.000 J-0.000 F600.000
G1 X269.928 Y132.975 Z-2.000 F600.000
G2 X279.170 Y129.145 Z-2.000 I-0.004 J-13.074 F600.000
G1 X279.170 Y129.145 Z-4.000 F600.000
G2 X282.998 Y120.033 Z-4.000 I-9.246 J-9.244 F600.000
G1 X283.001 Y15.482 Z-4.000 F600.000
G2 X264.644 Y-2.980 Z-4.000 I-18.465 J0.003 F600.000
G1 X200.022 Y-2.982 Z-4.000 F600.000
G2 X197.022 Y0.018 Z-4.000 I0.000 J3.000 F600.000
G1 X197.022 Y19.998 Z-4.000 F600.000
G2 X200.022 Y22.998 Z-4.000 I3.000 J-0.000 F600.000
G1 X248.266 Y22.998 Z-4.000 F600.000
G3 X256.009 Y30.741 Z-4.000 I0.055 J7.688 F600.000
G1 X256.009 Y98.618 Z-4.000 F600.000
G3 X247.672 Y106.955 Z-4.000 I-8.282 J0.055 F600.000
G1 X200.022 Y106.955 Z-4.000 F600.000
G2 X197.022 Y109.955 Z-4.000 I0.000 J3.000 F600.000
G1 X197.022 Y129.975 Z-4.000 F600.000
G2 X200.022 Y132.975 Z-4.000 I3.000 J-0.000 F600.000
G1 X269.928 Y132.975 Z-4.000 F600.000
G2 X279.170 Y129.145 Z-4.000 I-0.004 J-13.074 F600.000
G1 X279.170 Y129.145 Z-6.000 F600.000
G2 X282.998 Y120.033 Z-6.000 I-9.246 J-9.244 F600.000
G1 X283.001 Y15.482 Z-6.000 F600.000
G2 X264.644 Y-2.980 Z-6.000 I-18.465 J0.003 F600.000
G1 X200.022 Y-2.982 Z-6.000 F600.000
G2 X197.022 Y0.018 Z-6.000 I0.000 J3.000 F600.000
G1 X197.022 Y19.998 Z-6.000 F600.000
G2 X200.022 Y22.998 Z-6.000 I3.000 J-0.000 F600.000
G1 X248.266 Y22.998 Z-6.000 F600.000
G3 X256.009 Y30.741 Z-6.000 I0.055 J7.688 F600.000
G1 X256.009 Y98.618 Z-6.000 F600.000
G3 X247.672 Y106.955 Z-6.000 I-8.282 J0.055 F600.000
G1 X200.022 Y106.955 Z-6.000 F600.000
G2 X197.022 Y109.955 Z-6.000 I0.000 J3.000 F600.000
G1 X197.022 Y129.975 Z-6.000 F600.000
G2 X200.022 Y132.975 Z-6.000 I3.000 J-0.000 F600.000
G1 X269.928 Y132.975 Z-6.000 F600.000
G2 X279.170 Y129.145 Z-6.000 I-0.004 J-13.074 F600.000
G1 X279.170 Y129.145 Z-8.000 F600.000
G2 X282.998 Y120.033 Z-8.000 I-9.246 J-9.244 F600.000
G1 X283.001 Y15.482 Z-8.000 F600.000
G2 X264.644 Y-2.980 Z-8.000 I-18.465 J0.003 F600.000
G1 X200.022 Y-2.982 Z-8.000 F600.000
G2 X197.022 Y0.018 Z-8.000 I0.000 J3.000 F600.000
G1 X197.022 Y19.998 Z-8.000 F600.000
G2 X200.022 Y22.998 Z-8.000 I3.000 J-0.000 F600.000
G1 X248.266 Y22.998 Z-8.000 F600.000
G3 X256.009 Y30.741 Z-8.000 I0.055 J7.688 F600.000
G1 X256.009 Y98.618 Z-8.000 F600.000
G3 X247.672 Y106.955 Z-8.000 I-8.282 J0.055 F600.000
G1 X200.022 Y106.955 Z-8.000 F600.000
G2 X197.022 Y109.955 Z-8.000 I0.000 J3.000 F600.000
G1 X197.022 Y129.975 Z-8.000 F600.000
G2 X200.022 Y132.975 Z-8.000 I3.000 J-0.000 F600.000
G1 X269.928 Y132.975 Z-8.000 F600.000
G2 X279.170 Y129.145 Z-8.000 I-0.004 J-13.074 F600.000
G1 X279.170 Y129.145 Z-10.000 F600.000
G2 X282.998 Y120.033 Z-10.000 I-9.246 J-9.244 F600.000
G1 X283.001 Y15.482 Z-10.000 F600.000
G2 X264.644 Y-2.980 Z-10.000 I-18.465 J0.003 F600.000
G1 X200.022 Y-2.982 Z-10.000 F600.000
G2 X197.022 Y0.018 Z-10.000 I0.000 J3.000 F600.000
G1 X197.022 Y19.998 Z-10.000 F600.000
G2 X200.022 Y22.998 Z-10.000 I3.000 J-0.000 F600.000
G1 X248.266 Y22.998 Z-10.000 F600.000
G3 X256.009 Y30.741 Z-10.000 I0.055 J7.688 F600.000
G1 X256.009 Y98.618 Z-10.000 F600.000
G3 X247.672 Y106.955 Z-10.000 I-8.282 J0.055 F600.000
G1 X200.022 Y106.955 Z-10.000 F600.000
G2 X197.022 Y109.955 Z-10.000 I0.000 J3.000 F600.000
G1 X197.022 Y129.975 Z-10.000 F600.000
G2 X200.022 Y132.975 Z-10.000 I3.000 J-0.000 F600.000
G1 X269.928 Y132.975 Z-10.000 F600.000
G2 X279.170 Y129.145 Z-10.000 I-0.004 J-13.074 F600.000
G1 X279.170 Y129.145 Z-12.000 F600.000
G2 X282.998 Y120.033 Z-12.000 I-9.246 J-9.244 F600.000
G1 X283.001 Y15.482 Z-12.000 F600.000
G2 X264.644 Y-2.980 Z-12.000 I-18.465 J0.003 F600.000
G1 X200.022 Y-2.982 Z-12.000 F600.000
G2 X197.022 Y0.018 Z-12.000 I0.000 J3.000 F600.000
G1 X197.022 Y19.998 Z-12.000 F600.000
G2 X200.022 Y22.998 Z-12.000 I3.000 J-0.000 F600.000
G1 X248.266 Y22.998 Z-12.000 F600.000
G3 X256.009 Y30.741 Z-12.000 I0.055 J7.688 F600.000
G1 X256.009 Y98.618 Z-12.000 F600.000
G3 X247.672 Y106.955 Z-12.000 I-8.282 J0.055 F600.000
G1 X200.022 Y106.955 Z-12.000 F600.000
G2 X197.022 Y109.955 Z-12.000 I0.000 J3.000 F600.000
G1 X197.022 Y129.975 Z-12.000 F600.000
G2 X200.022 Y132.975 Z-12.000 I3.000 J-0.000 F600.000
G1 X269.928 Y132.975 Z-12.000 F600.000
G2 X279.170 Y129.145 Z-12.000 I-0.004 J-13.074 F600.000
G1 X279.170 Y129.145 Z-14.000 F600.000
G2 X282.998 Y120.033 Z-14.000 I-9.246 J-9.244 F600.000
G1 X283.001 Y15.482 Z-14.000 F600.000
G2 X264.644 Y-2.980 Z-14.000 I-18.465 J0.003 F600.000
G1 X200.022 Y-2.982 Z-14.000 F600.000
G2 X197.022 Y0.018 Z-14.000 I0.000 J3.000 F600.000
G1 X197.022 Y19.998 Z-14.000 F600.000
G2 X200.022 Y22.998 Z-14.000 I3.000 J-0.000 F600.000
G1 X248.266 Y22.998 Z-14.000 F600.000
G3 X256.009 Y30.741 Z-14.000 I0.055 J7.688 F600.000
G1 X256.009 Y98.618 Z-14.000 F600.000
G3 X247.672 Y106.955 Z-14.000 I-8.282 J0.055 F600.000
G1 X200.022 Y106.955 Z-14.000 F600.000
G2 X197.022 Y109.955 Z-14.000 I0.000 J3.000 F600.000
G1 X197.022 Y129.975 Z-14.000 F600.000
G2 X200.022 Y132.975 Z-14.000 I3.000 J-0.000 F600.000
G1 X269.928 Y132.975 Z-14.000 F600.000
G2 X279.170 Y129.145 Z-14.000 I-0.004 J-13.074 F600.000
G1 X279.170 Y129.145 Z-16.000 F600.000
G2 X282.998 Y120.033 Z-16.000 I-9.246 J-9.244 F600.000
G1 X283.001 Y15.482 Z-16.000 F600.000
G2 X264.644 Y-2.980 Z-16.000 I-18.465 J0.003 F600.000
G1 X200.022 Y-2.982 Z-16.000 F600.000
G2 X197.022 Y0.018 Z-16.000 I0.000 J3.000 F600.000
G1 X197.022 Y19.998 Z-16.000 F600.000
G2 X200.022 Y22.998 Z-16.000 I3.000 J-0.000 F600.000
G1 X248.266 Y22.998 Z-16.000 F600.000
G3 X256.009 Y30.741 Z-16.000 I0.055 J7.688 F600.000
G1 X256.009 Y98.618 Z-16.000 F600.000
G3 X247.672 Y106.955 Z-16.000 I-8.282 J0.055 F600.000
G1 X200.022 Y106.955 Z-16.000 F600.000
G2 X197.022 Y109.955 Z-16.000 I0.000 J3.000 F600.000
G1 X197.022 Y129.975 Z-16.000 F600.000
G2 X200.022 Y132.975 Z-16.000 I3.000 J-0.000 F600.000
G1 X269.928 Y132.975 Z-16.000 F600.000
G2 X279.170 Y129.145 Z-16.000 I-0.004 J-13.074 F600.000
G1 X279.170 Y129.145 Z-18.000 F600.000
G2 X282.998 Y120.033 Z-18.000 I-9.246 J-9.244 F600.000
G1 X283.001 Y15.482 Z-18.000 F600.000
G2 X264.644 Y-2.980 Z-18.000 I-18.465 J0.003 F600.000
G1 X200.022 Y-2.982 Z-18.000 F600.000
G2 X197.022 Y0.018 Z-18.000 I0.000 J3.000 F600.000
G1 X197.022 Y19.998 Z-18.000 F600.000
G2 X200.022 Y22.998 Z-18.000 I3.000 J-0.000 F600.000
G1 X248.266 Y22.998 Z-18.000 F600.000
G3 X256.009 Y30.741 Z-18.000 I0.055 J7.688 F600.000
G1 X256.009 Y98.618 Z-18.000 F600.000
G3 X247.672 Y106.955 Z-18.000 I-8.282 J0.055 F600.000
G1 X200.022 Y106.955 Z-18.000 F600.000
G2 X197.022 Y109.955 Z-18.000 I0.000 J3.000 F600.000
G1 X197.022 Y129.975 Z-18.000 F600.000
G2 X200.022 Y132.975 Z-18.000 I3.000 J-0.000 F600.000
G1 X269.928 Y132.975 Z-18.000 F600.000
G2 X279.170 Y129.145 Z-18.000 I-0.004 J-13.074 F600.000
G1 X279.170 Y129.145 Z-20.000 F600.000
G2 X282.998 Y120.033 Z-20.000 I-9.246 J-9.244 F600.000
G1 X282.999 Y78.428 Z-20.000 F600.000
G1 X282.999 Y77.728 Z-19.300 F600.000
G1 X282.999 Y57.788 Z-19.300 F600.000
G1 X282.999 Y57.088 Z-20.000 F600.000
G1 X283.001 Y15.482 Z-20.000 F600.000
G2 X264.644 Y-2.980 Z-20.000 I-18.465 J0.003 F600.000
G1 X200.022 Y-2.982 Z-20.000 F600.000
G2 X197.022 Y0.018 Z-20.000 I0.000 J3.000 F600.000
G1 X197.022 Y19.998 Z-20.000 F600.000
G2 X200.022 Y22.998 Z-20.000 I3.000 J-0.000 F600.000
G1 X213.474 Y22.998 Z-20.000 F600.000
G1 X214.174 Y22.998 Z-19.300 F600.000
G1 X234.114 Y22.998 Z-19.300 F600.000
G1 X234.814 Y22.998 Z-20.000 F600.000
G1 X248.266 Y22.998 Z-20.000 F600.000
G3 X256.009 Y30.741 Z-20.000 I0.055 J7.688 F600.000
G1 X256.009 Y98.618 Z-20.000 F600.000
G3 X247.672 Y106.955 Z-20.000 I-8.282 J0.055 F600.000
G1 X234.517 Y106.955 Z-20.000 F600.000
G1 X233.817 Y106.955 Z-19.300 F600.000
G1 X213.877 Y106.955 Z-19.300 F600.000
G1 X213.177 Y106.955 Z-20.000 F600.000
G1 X200.022 Y106.955 Z-20.000 F600.000
G2 X197.022 Y109.955 Z-20.000 I0.000 J3.000 F600.000
G1 X197.022 Y129.975 Z-20.000 F600.000
G2 X200.022 Y132.975 Z-20.000 I3.000 J-0.000 F600.000
G1 X269.928 Y132.975 Z-20.000 F600.000
G2 X279.170 Y129.145 Z-20.000 I-0.004 J-13.074 F600.000
G1 X279.170 Y129.145 Z-22.000 F600.000
G2 X282.998 Y120.033 Z-22.000 I-9.246 J-9.244 F600.000
G1 X282.999 Y80.428 Z-22.000 F600.000
G1 X282.999 Y77.728 Z-19.300 F600.000
G1 X282.999 Y57.788 Z-19.300 F600.000
G1 X282.999 Y55.088 Z-22.000 F600.000
G1 X283.001 Y15.482 Z-22.000 F600.000
G2 X264.644 Y-2.980 Z-22.000 I-18.465 J0.003 F600.000
G1 X200.022 Y-2.982 Z-22.000 F600.000
G2 X197.022 Y0.018 Z-22.000 I0.000 J3.000 F600.000
G1 X197.022 Y19.998 Z-22.000 F600.000
G2 X200.022 Y22.998 Z-22.000 I3.000 J-0.000 F600.000
G1 X211.474 Y22.998 Z-22.000 F600.000
G1 X214.174 Y22.998 Z-19.300 F600.000
G1 X234.114 Y22.998 Z-19.300 F600.000
G1 X236.814 Y22.998 Z-22.000 F600.000
G1 X248.266 Y22.998 Z-22.000 F600.000
G3 X256.009 Y30.741 Z-22.000 I0.055 J7.688 F600.000
G1 X256.009 Y98.618 Z-22.000 F600.000
G3 X247.672 Y106.955 Z-22.000 I-8.282 J0.055 F600.000
G1 X236.517 Y106.955 Z-22.000 F600.000
G1 X233.817 Y106.955 Z-19.300 F600.000
G1 X213.877 Y106.955 Z-19.300 F600.000
G1 X211.177 Y106.955 Z-22.000 F600.000
G1 X200.022 Y106.955 Z-22.000 F600.000
G2 X197.022 Y109.955 Z-22.000 I0.000 J3.000 F600.000
G1 X197.022 Y129.975 Z-22.000 F600.000
G2 X200.022 Y132.975 Z-22.000 I3.000 J-0.000 F600.000
G1 X269.928 Y132.975 Z-22.000 F600.000
G2 X279.170 Y129.145 Z-22.000 I-0.004 J-13.074 F600.000
G1 X279.170 Y129.145 Z-22.300 F600.000
G2 X282.998 Y120.033 Z-22.300 I-9.246 J-9.244 F600.000
G1 X282.999 Y80.728 Z-22.300 F600.000
G1 X282.999 Y77.728 Z-19.300 F600.000
G1 X282.999 Y57.788 Z-19.300 F600.000
G1 X283.000 Y54.788 Z-22.300 F600.000
G1 X283.001 Y15.482 Z-22.300 F600.000
G2 X264.644 Y-2.980 Z-22.300 I-18.465 J0.003 F600.000
G1 X200.022 Y-2.982 Z-22.300 F600.000
G2 X197.022 Y0.018 Z-22.300 I0.000 J3.000 F600.000
G1 X197.022 Y19.998 Z-22.300 F600.000
G2 X200.022 Y22.998 Z-22.300 I3.000 J-0.000 F600.000
G1 X211.174 Y22.998 Z-22.300 F600.000
G1 X214.174 Y22.998 Z-19.300 F600.000
G1 X234.114 Y22.998 Z-19.300 F600.000
G1 X237.114 Y22.998 Z-22.300 F600.000
G1 X248.266 Y22.998 Z-22.300 F600.000
G3 X256.009 Y30.741 Z-22.300 I0.055 J7.688 F600.000
G1 X256.009 Y98.618 Z-22.300 F600.000
G3 X247.672 Y106.955 Z-22.300 I-8.282 J0.055 F600.000
G1 X236.817 Y106.955 Z-22.300 F600.000
G1 X233.817 Y106.955 Z-19.300 F600.000
G1 X213.877 Y106.955 Z-19.300 F600.000
G1 X210.877 Y106.955 Z-22.300 F600.000
G1 X200.022 Y106.955 Z-22.300 F600.000
G2 X197.022 Y109.955 Z-22.300 I0.000 J3.000 F600.000
G1 X197.022 Y129.975 Z-22.300 F600.000
G2 X200.022 Y132.975 Z-22.300 I3.000 J-0.000 F600.000
G1 X269.928 Y132.975 Z-22.300 F600.000
G2 X279.170 Y129.145 Z-22.300 I-0.004 J-13.074 F600.000
G0 X279.170 Y129.145 Z15.000
(finish operation: Tag_handle)
(begin operation: Tag_big_out)
(machine: not set, mm/min)
G0 Z15.000
G0 X171.322 Y190.524 Z15.000
G0 X171.322 Y190.524 Z10.000
G1 X171.322 Y190.524 Z0.000 F600.000
G2 X175.061 Y179.501 Z-0.000 I-22.309 J-13.714 F600.000
G1 X191.638 Y13.743 Z-0.000 F600.000
G2 X176.605 Y-2.998 Z-0.000 I-15.154 J-1.512 F600.000
G1 X0.000 Y-3.000 Z0.000 F600.000
G2 X-3.000 Y0.000 Z0.000 I0.000 J3.000 F600.000
G1 X-3.000 Y200.058 Z0.000 F600.000
G2 X0.001 Y203.058 Z0.000 I3.000 J0.000 F600.000
G1 X149.026 Y202.997 Z-0.000 F600.000
G2 X171.322 Y190.524 Z-0.000 I-0.013 J-26.186 F600.000
G1 X171.322 Y190.524 Z-2.000 F600.000
G2 X175.061 Y179.501 Z-2.000 I-22.309 J-13.714 F600.000
G1 X191.638 Y13.743 Z-2.000 F600.000
G2 X176.605 Y-2.998 Z-2.000 I-15.154 J-1.512 F600.000
G1 X0.000 Y-3.000 Z-2.000 F600.000
G2 X-3.000 Y0.000 Z-2.000 I0.000 J3.000 F600.000
G1 X-3.000 Y200.058 Z-2.000 F600.000
G2 X0.001 Y203.058 Z-2.000 I3.000 J0.000 F600.000
G1 X149.026 Y202.997 Z-2.000 F600.000
G2 X171.322 Y190.524 Z-2.000 I-0.013 J-26.186 F600.000
G1 X171.322 Y190.524 Z-4.000 F600.000
G2 X175.061 Y179.501 Z-4.000 I-22.309 J-13.714 F600.000
G1 X191.638 Y13.743 Z-4.000 F600.000
G2 X176.605 Y-2.998 Z-4.000 I-15.154 J-1.512 F600.000
G1 X0.000 Y-3.000 Z-4.000 F600.000
G2 X-3.000 Y0.000 Z-4.000 I0.000 J3.000 F600.000
G1 X-3.000 Y200.058 Z-4.000 F600.000
G2 X0.001 Y203.058 Z-4.000 I3.000 J0.000 F600.000
G1 X149.026 Y202.997 Z-4.000 F600.000
G2 X171.322 Y190.524 Z-4.000 I-0.013 J-26.186 F600.000
G1 X171.322 Y190.524 Z-6.000 F600.000
G2 X175.061 Y179.501 Z-6.000 I-22.309 J-13.714 F600.000
G1 X191.638 Y13.743 Z-6.000 F600.000
G2 X176.605 Y-2.998 Z-6.000 I-15.154 J-1.512 F600.000
G1 X0.000 Y-3.000 Z-6.000 F600.000
G2 X-3.000 Y0.000 Z-6.000 I0.000 J3.000 F600.000
G1 X-3.000 Y200.058 Z-6.000 F600.000
G2 X0.001 Y203.058 Z-6.000 I3.000 J0.000 F600.000
G1 X149.026 Y202.997 Z-6.000 F600.000
G2 X171.322 Y190.524 Z-6.000 I-0.013 J-26.186 F600.000
G1 X171.322 Y190.524 Z-8.000 F600.000
G2 X175.061 Y179.501 Z-8.000 I-22.309 J-13.714 F600.000
G1 X191.638 Y13.743 Z-8.000 F600.000
G2 X176.605 Y-2.998 Z-8.000 I-15.154 J-1.512 F600.000
G1 X0.000 Y-3.000 Z-8.000 F600.000
G2 X-3.000 Y0.000 Z-8.000 I0.000 J3.000 F600.000
G1 X-3.000 Y200.058 Z-8.000 F600.000
G2 X0.001 Y203.058 Z-8.000 I3.000 J0.000 F600.000
G1 X149.026 Y202.997 Z-8.000 F600.000
G2 X171.322 Y190.524 Z-8.000 I-0.013 J-26.186 F600.000
G1 X171.322 Y190.524 Z-10.000 F600.000
G2 X175.061 Y179.501 Z-10.000 I-22.309 J-13.714 F600.000
G1 X191.638 Y13.743 Z-10.000 F600.000
G2 X176.605 Y-2.998 Z-10.000 I-15.154 J-1.512 F600.000
G1 X0.000 Y-3.000 Z-10.000 F600.000
G2 X-3.000 Y0.000 Z-10.000 I0.000 J3.000 F600.000
G1 X-3.000 Y200.058 Z-10.000 F600.000
G2 X0.001 Y203.058 Z-10.000 I3.000 J0.000 F600.000
G1 X149.026 Y202.997 Z-10.000 F600.000
G2 X171.322 Y190.524 Z-10.000 I-0.013 J-26.186 F600.000
G1 X171.322 Y190.524 Z-12.000 F600.000
G2 X175.061 Y179.501 Z-12.000 I-22.309 J-13.714 F600.000
G1 X191.638 Y13.743 Z-12.000 F600.000
G2 X176.605 Y-2.998 Z-12.000 I-15.154 J-1.512 F600.000
G1 X0.000 Y-3.000 Z-12.000 F600.000
G2 X-3.000 Y0.000 Z-12.000 I0.000 J3.000 F600.000
G1 X-3.000 Y200.058 Z-12.000 F600.000
G2 X0.001 Y203.058 Z-12.000 I3.000 J0.000 F600.000
G1 X149.026 Y202.997 Z-12.000 F600.000
G2 X171.322 Y190.524 Z-12.000 I-0.013 J-26.186 F600.000
G1 X171.322 Y190.524 Z-14.000 F600.000
G2 X175.061 Y179.501 Z-14.000 I-22.309 J-13.714 F600.000
G1 X191.638 Y13.743 Z-14.000 F600.000
G2 X176.605 Y-2.998 Z-14.000 I-15.154 J-1.512 F600.000
G1 X0.000 Y-3.000 Z-14.000 F600.000
G2 X-3.000 Y0.000 Z-14.000 I0.000 J3.000 F600.000
G1 X-3.000 Y200.058 Z-14.000 F600.000
G2 X0.001 Y203.058 Z-14.000 I3.000 J0.000 F600.000
G1 X149.026 Y202.997 Z-14.000 F600.000
G2 X171.322 Y190.524 Z-14.000 I-0.013 J-26.186 F600.000
G1 X171.322 Y190.524 Z-16.000 F600.000
G2 X175.061 Y179.501 Z-16.000 I-22.309 J-13.714 F600.000
G1 X191.638 Y13.743 Z-16.000 F600.000
G2 X176.605 Y-2.998 Z-16.000 I-15.154 J-1.512 F600.000
G1 X0.000 Y-3.000 Z-16.000 F600.000
G2 X-3.000 Y0.000 Z-16.000 I0.000 J3.000 F600.000
G1 X-3.000 Y200.058 Z-16.000 F600.000
G2 X0.001 Y203.058 Z-16.000 I3.000 J0.000 F600.000
G1 X149.026 Y202.997 Z-16.000 F600.000
G2 X171.322 Y190.524 Z-16.000 I-0.013 J-26.186 F600.000
G1 X171.322 Y190.524 Z-18.000 F600.000
G2 X175.061 Y179.501 Z-18.000 I-22.309 J-13.714 F600.000
G1 X191.638 Y13.743 Z-18.000 F600.000
G2 X176.605 Y-2.998 Z-18.000 I-15.154 J-1.512 F600.000
G1 X0.000 Y-3.000 Z-18.000 F600.000
G2 X-3.000 Y0.000 Z-18.000 I0.000 J3.000 F600.000
G1 X-3.000 Y200.058 Z-18.000 F600.000
G2 X0.001 Y203.058 Z-18.000 I3.000 J0.000 F600.000
G1 X149.026 Y202.997 Z-18.000 F600.000
G2 X171.322 Y190.524 Z-18.000 I-0.013 J-26.186 F600.000
G1 X171.322 Y190.524 Z-20.000 F600.000
G2 X175.061 Y179.501 Z-20.000 I-22.309 J-13.714 F600.000
G1 X176.314 Y166.977 Z-20.000 F600.000
G1 X176.383 Y166.280 Z-19.300 F600.000
G1 X178.368 Y146.439 Z-19.300 F600.000
G1 X178.437 Y145.743 Z-20.000 F600.000
G1 X187.151 Y58.607 Z-20.000 F600.000
G1 X187.221 Y57.911 Z-19.300 F600.000
G1 X189.205 Y38.070 Z-19.300 F600.000
G1 X189.275 Y37.373 Z-20.000 F600.000
G1 X191.638 Y13.743 Z-20.000 F600.000
G2 X176.605 Y-2.998 Z-20.000 I-15.154 J-1.512 F600.000
G1 X0.000 Y-3.000 Z-20.000 F600.000
G2 X-3.000 Y0.000 Z-20.000 I0.000 J3.000 F600.000
G1 X-3.000 Y200.058 Z-20.000 F600.000
G2 X0.001 Y203.058 Z-20.000 I3.000 J0.000 F600.000
G1 X56.490 Y203.035 Z-20.000 F600.000
G1 X57.190 Y203.035 Z-19.300 F600.000
G1 X77.130 Y203.026 Z-19.300 F600.000
G1 X77.830 Y203.026 Z-20.000 F600.000
G1 X149.026 Y202.997 Z-20.000 F600.000
G2 X171.322 Y190.524 Z-20.000 I-0.013 J-26.186 F600.000
G1 X171.322 Y190.524 Z-22.000 F600.000
G2 X175.061 Y179.501 Z-22.000 I-22.309 J-13.714 F600.000
G1 X176.115 Y168.967 Z-22.000 F600.000
G1 X176.383 Y166.280 Z-19.300 F600.000
G1 X178.368 Y146.439 Z-19.300 F600.000
G1 X178.636 Y143.752 Z-22.000 F600.000
G1 X186.952 Y60.597 Z-22.000 F600.000
G1 X187.221 Y57.911 Z-19.300 F600.000
G1 X189.205 Y38.070 Z-19.300 F600.000
G1 X189.474 Y35.383 Z-22.000 F600.000
G1 X191.638 Y13.743 Z-22.000 F600.000
G2 X176.605 Y-2.998 Z-22.000 I-15.154 J-1.512 F600.000
G1 X0.000 Y-3.000 Z-22.000 F600.000
G2 X-3.000 Y0.000 Z-22.000 I0.000 J3.000 F600.000
G1 X-3.000 Y200.058 Z-22.000 F600.000
G2 X0.001 Y203.058 Z-22.000 I3.000 J0.000 F600.000
G1 X54.490 Y203.036 Z-22.000 F600.000
G1 X57.190 Y203.035 Z-19.300 F600.000
G1 X77.130 Y203.026 Z-19.300 F600.000
G1 X79.830 Y203.025 Z-22.000 F600.000
G1 X149.026 Y202.997 Z-22.000 F600.000
G2 X171.322 Y190.524 Z-22.000 I-0.013 J-26.186 F600.000
G1 X171.322 Y190.524 Z-22.300 F600.000
G2 X175.061 Y179.501 Z-22.300 I-22.309 J-13.714 F600.000
G1 X176.085 Y169.265 Z-22.300 F600.000
G1 X176.383 Y166.280 Z-19.300 F600.000
G1 X178.368 Y146.439 Z-19.300 F600.000
G1 X178.666 Y143.454 Z-22.300 F600.000
G1 X186.922 Y60.896 Z-22.300 F600.000
G1 X187.221 Y57.911 Z-19.300 F600.000
G1 X189.205 Y38.070 Z-19.300 F600.000
G1 X189.504 Y35.085 Z-22.300 F600.000
G1 X191.638 Y13.743 Z-22.300 F600.000
G2 X176.605 Y-2.998 Z-22.300 I-15.154 J-1.512 F600.000
G1 X0.000 Y-3.000 Z-22.300 F600.000
G2 X-3.000 Y0.000 Z-22.300 I0.000 J3.000 F600.000
G1 X-3.000 Y200.058 Z-22.300 F600.000
G2 X0.001 Y203.058 Z-22.300 I3.000 J0.000 F600.000
G1 X54.190 Y203.036 Z-22.300 F600.000
G1 X57.190 Y203.035 Z-19.300 F600.000
G1 X77.130 Y203.026 Z-19.300 F600.000
G1 X80.130 Y203.025 Z-22.300 F600.000
G1 X149.026 Y202.997 Z-22.300 F600.000
G2 X171.322 Y190.524 Z-22.300 I-0.013 J-26.186 F600.000
G0 X171.322 Y190.524 Z15.000
(finish operation: Tag_big_out)
(begin operation: Tag_small_in)
(machine: not set, mm/min)
G0 Z15.000
G0 X271.117 Y206.386 Z15.000
G0 X271.117 Y206.386 Z10.000
G1 X271.117 Y206.386 Z-1.000 F600.000
G1 X238.548 Y227.517 Z-1.000 F600.000
G3 X236.560 Y226.440 Z-1.000 I-0.746 J-0.995 F600.000
G1 X236.428 Y172.913 Z-1.000 F600.000
G3 X236.715 Y172.892 Z-1.000 I0.231 J1.190 F600.000
G1 X281.529 Y173.055 Z-1.000 F600.000
G3 X284.962 Y176.874 Z-1.000 I0.059 J3.399 F600.000
G1 X282.703 Y198.798 Z-1.000 F600.000
G3 X282.631 Y198.915 Z-1.000 I-0.099 J0.020 F600.000
G1 X271.117 Y206.386 Z-1.000 F600.000
G1 X271.117 Y206.386 Z-3.000 F600.000
G1 X238.548 Y227.517 Z-3.000 F600.000
G3 X236.560 Y226.440 Z-3.000 I-0.746 J-0.995 F600.000
G1 X236.428 Y172.913 Z-3.000 F600.000
G3 X236.715 Y172.892 Z-3.000 I0.231 J1.190 F600.000
G1 X281.529 Y173.055 Z-3.000 F600.000
G3 X284.962 Y176.874 Z-3.000 I0.059 J3.399 F600.000
G1 X282.703 Y198.798 Z-3.000 F600.000
G3 X282.631 Y198.915 Z-3.000 I-0.099 J0.020 F600.000
G1 X271.117 Y206.386 Z-3.000 F600.000
G1 X271.117 Y206.386 Z-5.000 F600.000
G1 X238.548 Y227.517 Z-5.000 F600.000
G3 X236.560 Y226.440 Z-5.000 I-0.746 J-0.995 F600.000
G1 X236.428 Y172.913 Z-5.000 F600.000
G3 X236.715 Y172.892 Z-5.000 I0.231 J1.190 F600.000
G1 X281.529 Y173.055 Z-5.000 F600.000
G3 X284.962 Y176.874 Z-5.000 I0.059 J3.399 F600.000
G1 X282.703 Y198.798 Z-5.000 F600.000
G3 X282.631 Y198.915 Z-5.000 I-0.099 J0.020 F600.000
G1 X271.117 Y206.386 Z-5.000 F600.000
G1 X271.117 Y206.386 Z-7.000 F600.000
G1 X238.548 Y227.517 Z-7.000 F600.000
G3 X236.560 Y226.440 Z-7.000 I-0.746 J-0.995 F600.000
G1 X236.428 Y172.913 Z-7.000 F600.000
G3 X236.715 Y172.892 Z-7.000 I0.231 J1.190 F600.000
G1 X281.529 Y173.055 Z-7.000 F600.000
G3 X284.962 Y176.874 Z-7.000 I0.059 J3.399 F600.000
G1 X282.703 Y198.798 Z-7.000 F600.000
G3 X282.631 Y198.915 Z-7.000 I-0.099 J0.020 F600.000
G1 X271.117 Y206.386 Z-7.000 F600.000
G1 X271.117 Y206.386 Z-9.000 F600.000
G1 X238.548 Y227.517 Z-9.000 F600.000
G3 X236.560 Y226.440 Z-9.000 I-0.746 J-0.995 F600.000
G1 X236.428 Y172.913 Z-9.000 F600.000
G3 X236.715 Y172.892 Z-9.000 I0.231 J1.190 F600.000
G1 X281.529 Y173.055 Z-9.000 F600.000
G3 X284.962 Y176.874 Z-9.000 I0.059 J3.399 F600.000
G1 X282.703 Y198.798 Z-9.000 F600.000
G3 X282.631 Y198.915 Z-9.000 I-0.099 J0.020 F600.000
G1 X271.117 Y206.386 Z-9.000 F600.000
G1 X271.117 Y206.386 Z-11.000 F600.000
G1 X238.548 Y227.517 Z-11.000 F600.000
G3 X236.560 Y226.440 Z-11.000 I-0.746 J-0.995 F600.000
G1 X236.428 Y172.913 Z-11.000 F600.000
G3 X236.715 Y172.892 Z-11.000 I0.231 J1.190 F600.000
G1 X281.529 Y173.055 Z-11.000 F600.000
G3 X284.962 Y176.874 Z-11.000 I0.059 J3.399 F600.000
G1 X282.703 Y198.798 Z-11.000 F600.000
G3 X282.631 Y198.915 Z-11.000 I-0.099 J0.020 F600.000
G1 X271.117 Y206.386 Z-11.000 F600.000
G1 X271.117 Y206.386 Z-13.000 F600.000
G1 X238.548 Y227.517 Z-13.000 F600.000
G3 X236.560 Y226.440 Z-13.000 I-0.746 J-0.995 F600.000
G1 X236.428 Y172.913 Z-13.000 F600.000
G3 X236.715 Y172.892 Z-13.000 I0.231 J1.190 F600.000
G1 X281.529 Y173.055 Z-13.000 F600.000
G3 X284.962 Y176.874 Z-13.000 I0.059 J3.399 F600.000
G1 X282.703 Y198.798 Z-13.000 F600.000
G3 X282.631 Y198.915 Z-13.000 I-0.099 J0.020 F600.000
G1 X271.117 Y206.386 Z-13.000 F600.000
G1 X271.117 Y206.386 Z-15.000 F600.000
G1 X238.548 Y227.517 Z-15.000 F600.000
G3 X236.560 Y226.440 Z-15.000 I-0.746 J-0.995 F600.000
G1 X236.428 Y172.913 Z-15.000 F600.000
G3 X236.715 Y172.892 Z-15.000 I0.231 J1.190 F600.000
G1 X281.529 Y173.055 Z-15.000 F600.000
G3 X284.962 Y176.874 Z-15.000 I0.059 J3.399 F600.000
G1 X282.703 Y198.798 Z-15.000 F600.000
G3 X282.631 Y198.915 Z-15.000 I-0.099 J0.020 F600.000
G1 X271.117 Y206.386 Z-15.000 F600.000
G1 X271.117 Y206.386 Z-17.000 F600.000
G1 X238.548 Y227.517 Z-17.000 F600.000
G3 X236.560 Y226.440 Z-17.000 I-0.746 J-0.995 F600.000
G1 X236.428 Y172.913 Z-17.000 F600.000
G3 X236.715 Y172.892 Z-17.000 I0.231 J1.190 F600.000
G1 X281.529 Y173.055 Z-17.000 F600.000
G3 X284.962 Y176.874 Z-17.000 I0.059 J3.399 F600.000
G1 X282.703 Y198.798 Z-17.000 F600.000
G3 X282.631 Y198.915 Z-17.000 I-0.099 J0.020 F600.000
G1 X271.117 Y206.386 Z-17.000 F600.000
G1 X271.117 Y206.386 Z-19.000 F600.000
G1 X238.548 Y227.517 Z-19.000 F600.000
G3 X236.560 Y226.440 Z-19.000 I-0.746 J-0.995 F600.000
G1 X236.428 Y172.913 Z-19.000 F600.000
G3 X236.715 Y172.892 Z-19.000 I0.231 J1.190 F600.000
G1 X281.529 Y173.055 Z-19.000 F600.000
G3 X284.962 Y176.874 Z-19.000 I0.059 J3.399 F600.000
G1 X282.703 Y198.798 Z-19.000 F600.000
G3 X282.631 Y198.915 Z-19.000 I-0.099 J0.020 F600.000
G1 X271.117 Y206.386 Z-19.000 F600.000
G1 X271.117 Y206.386 Z-21.000 F600.000
G1 X262.038 Y212.276 Z-21.000 F600.000
G1 X260.612 Y213.201 Z-19.300 F600.000
G1 X243.885 Y224.054 Z-19.300 F600.000
G1 X242.458 Y224.979 Z-21.000 F600.000
G1 X238.548 Y227.517 Z-21.000 F600.000
G3 X236.560 Y226.440 Z-21.000 I-0.746 J-0.995 F600.000
G1 X236.428 Y172.913 Z-21.000 F600.000
G3 X236.715 Y172.892 Z-21.000 I0.231 J1.190 F600.000
G1 X239.690 Y172.903 Z-21.000 F600.000
G1 X241.390 Y172.909 Z-19.300 F600.000
G1 X261.330 Y172.982 Z-19.300 F600.000
G1 X263.030 Y172.988 Z-21.000 F600.000
G1 X281.529 Y173.055 Z-21.000 F600.000
G3 X284.962 Y176.874 Z-21.000 I0.059 J3.399 F600.000
G1 X282.703 Y198.798 Z-21.000 F600.000
G3 X282.631 Y198.915 Z-21.000 I-0.099 J0.020 F600.000
G1 X271.117 Y206.386 Z-21.000 F600.000
G1 X271.117 Y206.386 Z-22.300 F600.000
G1 X263.129 Y211.568 Z-22.300 F600.000
G1 X260.612 Y213.201 Z-19.300 F600.000
G1 X243.885 Y224.054 Z-19.300 F600.000
G1 X241.368 Y225.687 Z-22.300 F600.000
G1 X238.548 Y227.517 Z-22.300 F600.000
G3 X236.560 Y226.440 Z-22.300 I-0.746 J-0.995 F600.000
G1 X236.428 Y172.913 Z-22.300 F600.000
G3 X236.715 Y172.892 Z-22.300 I0.231 J1.190 F600.000
G1 X238.390 Y172.899 Z-22.300 F600.000
G1 X241.390 Y172.909 Z-19.300 F600.000
G1 X261.330 Y172.982 Z-19.300 F600.000
G1 X264.330 Y172.993 Z-22.300 F600.000
G1 X281.529 Y173.055 Z-22.300 F600.000
G3 X284.962 Y176.874 Z-22.300 I0.059 J3.399 F600.000
G1 X282.703 Y198.798 Z-22.300 F600.000
G3 X282.631 Y198.915 Z-22.300 I-0.099 J0.020 F600.000
G1 X271.117 Y206.386 Z-22.300 F600.000
G0 X271.117 Y206.386 Z15.000
G0 X270.401 Y318.169 Z15.000
G0 X270.401 Y318.169 Z10.000
G1 X270.401 Y318.169 Z-1.000 F600.000
G1 X270.319 Y318.969 Z-1.000 F600.000
G1 X237.179 Y285.588 Z-1.000 F600.000
G3 X236.703 Y284.437 Z-1.000 I1.019 J-1.095 F600.000
G1 X236.685 Y277.319 Z-1.000 F600.000
G3 X237.829 Y274.942 Z-1.000 I2.901 J-0.068 F600.000
G1 X278.158 Y242.896 Z-1.000 F600.000
G1 X270.401 Y318.169 Z-1.000 F600.000
G1 X270.401 Y318.169 Z-3.000 F600.000
G1 X270.319 Y318.969 Z-3.000 F600.000
G1 X237.179 Y285.588 Z-3.000 F600.000
G3 X236.703 Y284.437 Z-3.000 I1.019 J-1.095 F600.000
G1 X236.685 Y277.319 Z-3.000 F600.000
G3 X237.829 Y274.942 Z-3.000 I2.901 J-0.068 F600.000
G1 X278.158 Y242.896 Z-3.000 F600.000
G1 X270.401 Y318.169 Z-3.000 F600.000
G1 X270.401 Y318.169 Z-5.000 F600.000
G1 X270.319 Y318.969 Z-5.000 F600.000
G1 X237.179 Y285.588 Z-5.000 F600.000
G3 X236.703 Y284.437 Z-5.000 I1.019 J-1.095 F600.000
G1 X236.685 Y277.319 Z-5.000 F600.000
G3 X237.829 Y274.942 Z-5.000 I2.901 J-0.068 F600.000
G1 X278.158 Y242.896 Z-5.000 F600.000
G1 X270.401 Y318.169 Z-5.000 F600.000
G1 X270.401 Y318.169 Z-7.000 F600.000
G1 X270.319 Y318.969 Z-7.000 F600.000
G1 X237.179 Y285.588 Z-7.000 F600.000
G3 X236.703 Y284.437 Z-7.000 I1.019 J-1.095 F600.000
G1 X236.685 Y277.319 Z-7.000 F600.000
G3 X237.829 Y274.942 Z-7.000 I2.901 J-0.068 F600.000
G1 X278.158 Y242.896 Z-7.000 F600.000
G1 X270.401 Y318.169 Z-7.000 F600.000
G1 X270.401 Y318.169 Z-9.000 F600.000
G1 X270.319 Y318.969 Z-9.000 F600.000
G1 X237.179 Y285.588 Z-9.000 F600.000
G3 X236.703 Y284.437 Z-9.000 I1.019 J-1.095 F600.000
G1 X236.685 Y277.319 Z-9.000 F600.000
G3 X237.829 Y274.942 Z-9.000 I2.901 J-0.068 F600.000
G1 X278.158 Y242.896 Z-9.000 F600.000
G1 X270.401 Y318.169 Z-9.000 F600.000
G1 X270.401 Y318.169 Z-11.000 F600.000
G1 X270.319 Y318.969 Z-11.000 F600.000
G1 X237.179 Y285.588 Z-11.000 F600.000
G3 X236.703 Y284.437 Z-11.000 I1.019 J-1.095 F600.000
G1 X236.685 Y277.319 Z-11.000 F600.000
G3 X237.829 Y274.942 Z-11.000 I2.901 J-0.068 F600.000
G1 X278.158 Y242.896 Z-11.000 F600.000
G1 X270.401 Y318.169 Z-11.000 F600.000
G1 X270.401 Y318.169 Z-13.000 F600.000
G1 X270.319 Y318.969 Z-13.000 F600.000
G1 X237.179 Y285.588 Z-13.000 F600.000
G3 X236.703 Y284.437 Z-13.000 I1.019 J-1.095 F600.000
G1 X236.685 Y277.319 Z-13.000 F600.000
G3 X237.829 Y274.942 Z-13.000 I2.901 J-0.068 F600.000
G1 X278.158 Y242.896 Z-13.000 F600.000
G1 X270.401 Y318.169 Z-13.000 F600.000
G1 X270.401 Y318.169 Z-15.000 F600.000
G1 X270.319 Y318.969 Z-15.000 F600.000
G1 X237.179 Y285.588 Z-15.000 F600.000
G3 X236.703 Y284.437 Z-15.000 I1.019 J-1.095 F600.000
G1 X236.685 Y277.319 Z-15.000 F600.000
G3 X237.829 Y274.942 Z-15.000 I2.901 J-0.068 F600.000
G1 X278.158 Y242.896 Z-15.000 F600.000
G1 X270.401 Y318.169 Z-15.000 F600.000
G1 X270.401 Y318.169 Z-17.000 F600.000
G1 X270.319 Y318.969 Z-17.000 F600.000
G1 X237.179 Y285.588 Z-17.000 F600.000
G3 X236.703 Y284.437 Z-17.000 I1.019 J-1.095 F600.000
G1 X236.685 Y277.319 Z-17.000 F600.000
G3 X237.829 Y274.942 Z-17.000 I2.901 J-0.068 F600.000
G1 X278.158 Y242.896 Z-17.000 F600.000
G1 X270.401 Y318.169 Z-17.000 F600.000
G1 X270.401 Y318.169 Z-19.000 F600.000
G1 X270.319 Y318.969 Z-19.000 F600.000
G1 X237.179 Y285.588 Z-19.000 F600.000
G3 X236.703 Y284.437 Z-19.000 I1.019 J-1.095 F600.000
G1 X236.685 Y277.319 Z-19.000 F600.000
G3 X237.829 Y274.942 Z-19.000 I2.901 J-0.068 F600.000
G1 X278.158 Y242.896 Z-19.000 F600.000
G1 X270.401 Y318.169 Z-19.000 F600.000
G1 X270.401 Y318.169 Z-21.000 F600.000
G1 X270.319 Y318.969 Z-21.000 F600.000
G1 X257.155 Y305.709 Z-21.000 F600.000
G1 X255.957 Y304.503 Z-19.300 F600.000
G1 X241.908 Y290.352 Z-19.300 F600.000
G1 X240.711 Y289.146 Z-21.000 F600.000
G1 X237.179 Y285.588 Z-21.000 F600.000
G3 X236.703 Y284.437 Z-21.000 I1.019 J-1.095 F600.000
G1 X236.685 Y277.319 Z-21.000 F600.000
G3 X237.829 Y274.942 Z-21.000 I2.901 J-0.068 F600.000
G1 X250.810 Y264.627 Z-21.000 F600.000
G1 X252.141 Y263.569 Z-19.300 F600.000
G1 X267.753 Y251.164 Z-19.300 F600.000
G1 X269.084 Y250.106 Z-21.000 F600.000
G1 X278.158 Y242.896 Z-21.000 F600.000
G1 X270.401 Y318.169 Z-21.000 F600.000
G1 X270.401 Y318.169 Z-22.300 F600.000
G1 X270.319 Y318.969 Z-22.300 F600.000
G1 X258.071 Y306.632 Z-22.300 F600.000
G1 X255.957 Y304.503 Z-19.300 F600.000
G1 X241.908 Y290.352 Z-19.300 F600.000
G1 X239.795 Y288.223 Z-22.300 F600.000
G1 X237.179 Y285.588 Z-22.300 F600.000
G3 X236.703 Y284.437 Z-22.300 I1.019 J-1.095 F600.000
G1 X236.685 Y277.319 Z-22.300 F600.000
G3 X237.829 Y274.942 Z-22.300 I2.901 J-0.068 F600.000
G1 X249.793 Y265.435 Z-22.300 F600.000
G1 X252.141 Y263.569 Z-19.300 F600.000
G1 X267.753 Y251.164 Z-19.300 F600.000
G1 X270.102 Y249.298 Z-22.300 F600.000
G1 X278.158 Y242.896 Z-22.300 F600.000
G1 X270.401 Y318.169 Z-22.300 F600.000
G0 X270.401 Y318.169 Z15.000
G0 X263.472 Y382.550 Z15.000
G0 X263.472 Y382.550 Z10.000
G1 X263.472 Y382.550 Z-1.000 F600.000
G3 X260.691 Y383.774 Z-1.000 I-2.583 J-2.099 F600.000
G1 X236.946 Y382.866 Z-1.000 F600.000
G1 X236.815 Y330.084 Z-1.000 F600.000
G1 X263.627 Y366.312 Z-1.000 F600.000
G3 X264.944 Y371.123 Z-1.000 I-5.420 J4.070 F600.000
G1 X263.821 Y382.026 Z-1.000 F600.000
G3 X263.472 Y382.550 Z-1.000 I-2.932 J-1.574 F600.000
G1 X263.472 Y382.550 Z-3.000 F600.000
G3 X260.691 Y383.774 Z-3.000 I-2.583 J-2.099 F600.000
G1 X236.946 Y382.866 Z-3.000 F600.000
G1 X236.815 Y330.084 Z-3.000 F600.000
G1 X263.627 Y366.312 Z-3.000 F600.000
G3 X264.944 Y371.123 Z-3.000 I-5.420 J4.070 F600.000
G1 X263.821 Y382.026 Z-3.000 F600.000
G3 X263.472 Y382.550 Z-3.000 I-2.932 J-1.574 F600.000
G1 X263.472 Y382.550 Z-5.000 F600.000
G3 X260.691 Y383.774 Z-5.000 I-2.583 J-2.099 F600.000
G1 X236.946 Y382.866 Z-5.000 F600.000
G1 X236.815 Y330.084 Z-5.000 F600.000
G1 X263.627 Y366.312 Z-5.000 F600.000
G3 X264.944 Y371.123 Z-5.000 I-5.420 J4.070 F600.000
G1 X263.821 Y382.026 Z-5.000 F600.000
G3 X263.472 Y382.550 Z-5.000 I-2.932 J-1.574 F600.000
G1 X263.472 Y382.550 Z-7.000 F600.000
G3 X260.691 Y383.774 Z-7.000 I-2.583 J-2.099 F600.000
G1 X236.946 Y382.866 Z-7.000 F600.000
G1 X236.815 Y330.084 Z-7.000 F600.000
G1 X263.627 Y366.312 Z-7.000 F600.000
G3 X264.944 Y371.123 Z-7.000 I-5.420 J4.070 F600.000
G1 X263.821 Y382.026 Z-7.000 F600.000
G3 X263.472 Y382.550 Z-7.000 I-2.932 J-1.574 F600.000
G1 X263.472 Y382.550 Z-9.000 F600.000
G3 X260.691 Y383.774 Z-9.000 I-2.583 J-2.099 F600.000
G1 X236.946 Y382.866 Z-9.000 F600.000
G1 X236.815 Y330.084 Z-9.000 F600.000
G1 X263.627 Y366.312 Z-9.000 F600.000
G3 X264.944 Y371.123 Z-9.000 I-5.420 J4.070 F600.000
G1 X263.821 Y382.026 Z-9.000 F600.000
G3 X263.472 Y382.550 Z-9.000 I-2.932 J-1.574 F600.000
G1 X263.472 Y382.550 Z-11.000 F600.000
G3 X260.691 Y383.774 Z-11.000 I-2.583 J-2.099 F600.000
G1 X236.946 Y382.866 Z-11.000 F600.000
G1 X236.815 Y330.084 Z-11.000 F600.000
G1 X263.627 Y366.312 Z-11.000 F600.000
G3 X264.944 Y371.123 Z-11.000 I-5.420 J4.070 F600.000
G1 X263.821 Y382.026 Z-11.000 F600.000
G3 X263.472 Y382.550 Z-11.000 I-2.932 J-1.574 F600.000
G1 X263.472 Y382.550 Z-13.000 F600.000
G3 X260.691 Y383.774 Z-13.000 I-2.583 J-2.099 F600.000
G1 X236.946 Y382.866 Z-13.000 F600.000
G1 X236.815 Y330.084 Z-13.000 F600.000
G1 X263.627 Y366.312 Z-13.000 F600.000
G3 X264.944 Y371.123 Z-13.000 I-5.420 J4.070 F600.000
G1 X263.821 Y382.026 Z-13.000 F600.000
G3 X263.472 Y382.550 Z-13.000 I-2.932 J-1.574 F600.000
G1 X263.472 Y382.550 Z-15.000 F600.000
G3 X260.691 Y383.774 Z-15.000 I-2.583 J-2.099 F600.000
G1 X236.946 Y382.866 Z-15.000 F600.000
G1 X236.815 Y330.084 Z-15.000 F600.000
G1 X263.627 Y366.312 Z-15.000 F600.000
G3 X264.944 Y371.123 Z-15.000 I-5.420 J4.070 F600.000
G1 X263.821 Y382.026 Z-15.000 F600.000
G3 X263.472 Y382.550 Z-15.000 I-2.932 J-1.574 F600.000
G1 X263.472 Y382.550 Z-17.000 F600.000
G3 X260.691 Y383.774 Z-17.000 I-2.583 J-2.099 F600.000
G1 X236.946 Y382.866 Z-17.000 F600.000
G1 X236.815 Y330.084 Z-17.000 F600.000
G1 X263.627 Y366.312 Z-17.000 F600.000
G3 X264.944 Y371.123 Z-17.000 I-5.420 J4.070 F600.000
G1 X263.821 Y382.026 Z-17.000 F600.000
G3 X263.472 Y382.550 Z-17.000 I-2.932 J-1.574 F600.000
G1 X263.472 Y382.550 Z-19.000 F600.000
G3 X260.691 Y383.774 Z-19.000 I-2.583 J-2.099 F600.000
G1 X236.946 Y382.866 Z-19.000 F600.000
G1 X236.815 Y330.084 Z-19.000 F600.000
G1 X263.627 Y366.312 Z-19.000 F600.000
G3 X264.944 Y371.123 Z-19.000 I-5.420 J4.070 F600.000
G1 X263.821 Y382.026 Z-19.000 F600.000
G3 X263.472 Y382.550 Z-19.000 I-2.932 J-1.574 F600.000
G1 X263.472 Y382.550 Z-21.000 F600.000
G3 X260.691 Y383.774 Z-21.000 I-2.583 J-2.099 F600.000
G1 X236.946 Y382.866 Z-21.000 F600.000
G1 X236.928 Y375.760 Z-21.000 F600.000
G1 X236.924 Y374.060 Z-19.300 F600.000
G1 X236.875 Y354.120 Z-19.300 F600.000
G1 X236.870 Y352.420 Z-21.000 F600.000
G1 X236.815 Y330.084 Z-21.000 F600.000
G1 X263.627 Y366.312 Z-21.000 F600.000
G3 X264.944 Y371.123 Z-21.000 I-5.420 J4.070 F600.000
G1 X263.821 Y382.026 Z-21.000 F600.000
G3 X263.472 Y382.550 Z-21.000 I-2.932 J-1.574 F600.000
G1 X263.472 Y382.550 Z-22.300 F600.000
G3 X260.691 Y383.774 Z-22.300 I-2.583 J-2.099 F600.000
G1 X236.946 Y382.866 Z-22.300 F600.000
G1 X236.931 Y377.060 Z-22.300 F600.000
G1 X236.924 Y374.060 Z-19.300 F600.000
G1 X236.875 Y354.120 Z-19.300 F600.000
G1 X236.867 Y351.120 Z-22.300 F600.000
G1 X236.815 Y330.084 Z-22.300 F600.000
G1 X263.627 Y366.312 Z-22.300 F600.000
G3 X264.944 Y371.123 Z-22.300 I-5.420 J4.070 F600.000
G1 X263.821 Y382.026 Z-22.300 F600.000
G3 X263.472 Y382.550 Z-22.300 I-2.932 J-1.574 F600.000
G0 X263.472 Y382.550 Z15.000
(finish operation: Tag_small_in)
(begin operation: TagDressup005)
(machine: not set, mm/min)
G0 Z15.000
G0 X284.143 Y396.401 Z15.000
G0 X284.143 Y396.401 Z10.000
G1 X284.143 Y396.401 Z0.000 F600.000
G2 X284.850 Y393.362 Z0.000 I-12.355 J-4.477 F600.000
G1 X307.994 Y161.845 Z0.000 F600.000
G2 X296.508 Y149.003 Z0.000 I-11.627 J-1.158 F600.000
G1 X216.000 Y149.000 Z0.000 F600.000
G2 X213.000 Y152.000 Z0.000 I0.000 J3.000 F600.000
G1 X213.000 Y402.065 Z0.000 F600.000
G2 X216.000 Y405.065 Z0.000 I3.000 J-0.000 F600.000
G1 X271.793 Y405.065 Z0.000 F600.000
G2 X284.143 Y396.401 Z0.000 I-0.004 J-13.141 F600.000
G1 X284.143 Y396.401 Z-2.000 F600.000
G2 X284.850 Y393.362 Z-2.000 I-12.355 J-4.477 F600.000
G1 X307.994 Y161.845 Z-2.000 F600.000
G2 X296.508 Y149.003 Z-2.000 I-11.627 J-1.158 F600.000
G1 X216.000 Y149.000 Z-2.000 F600.000
G2 X213.000 Y152.000 Z-2.000 I0.000 J3.000 F600.000
G1 X213.000 Y402.065 Z-2.000 F600.000
G2 X216.000 Y405.065 Z-2.000 I3.000 J-0.000 F600.000
G1 X271.793 Y405.065 Z-2.000 F600.000
G2 X284.143 Y396.401 Z-2.000 I-0.004 J-13.141 F600.000
G1 X284.143 Y396.401 Z-4.000 F600.000
G2 X284.850 Y393.362 Z-4.000 I-12.355 J-4.477 F600.000
G1 X307.994 Y161.845 Z-4.000 F600.000
G2 X296.508 Y149.003 Z-4.000 I-11.627 J-1.158 F600.000
G1 X216.000 Y149.000 Z-4.000 F600.000
G2 X213.000 Y152.000 Z-4.000 I0.000 J3.000 F600.000
G1 X213.000 Y402.065 Z-4.000 F600.000
G2 X216.000 Y405.065 Z-4.000 I3.000 J-0.000 F600.000
G1 X271.793 Y405.065 Z-4.000 F600.000
G2 X284.143 Y396.401 Z-4.000 I-0.004 J-13.141 F600.000
G1 X284.143 Y396.401 Z-6.000 F600.000
G2 X284.850 Y393.362 Z-6.000 I-12.355 J-4.477 F600.000
G1 X307.994 Y161.845 Z-6.000 F600.000
G2 X296.508 Y149.003 Z-6.000 I-11.627 J-1.158 F600.000
G1 X216.000 Y149.000 Z-6.000 F600.000
G2 X213.000 Y152.000 Z-6.000 I0.000 J3.000 F600.000
G1 X213.000 Y402.065 Z-6.000 F600.000
G2 X216.000 Y405.065 Z-6.000 I3.000 J-0.000 F600.000
G1 X271.793 Y405.065 Z-6.000 F600.000
G2 X284.143 Y396.401 Z-6.000 I-0.004 J-13.141 F600.000
G1 X284.143 Y396.401 Z-8.000 F600.000
G2 X284.850 Y393.362 Z-8.000 I-12.355 J-4.477 F600.000
G1 X307.994 Y161.845 Z-8.000 F600.000
G2 X296.508 Y149.003 Z-8.000 I-11.627 J-1.158 F600.000
G1 X216.000 Y149.000 Z-8.000 F600.000
G2 X213.000 Y152.000 Z-8.000 I0.000 J3.000 F600.000
G1 X213.000 Y402.065 Z-8.000 F600.000
G2 X216.000 Y405.065 Z-8.000 I3.000 J-0.000 F600.000
G1 X271.793 Y405.065 Z-8.000 F600.000
G2 X284.143 Y396.401 Z-8.000 I-0.004 J-13.141 F600.000
G1 X284.143 Y396.401 Z-10.000 F600.000
G2 X284.850 Y393.362 Z-10.000 I-12.355 J-4.477 F600.000
G1 X307.994 Y161.845 Z-10.000 F600.000
G2 X296.508 Y149.003 Z-10.000 I-11.627 J-1.158 F600.000
G1 X216.000 Y149.000 Z-10.000 F600.000
G2 X213.000 Y152.000 Z-10.000 I0.000 J3.000 F600.000
G1 X213.000 Y402.065 Z-10.000 F600.000
G2 X216.000 Y405.065 Z-10.000 I3.000 J-0.000 F600.000
G1 X271.793 Y405.065 Z-10.000 F600.000
G2 X284.143 Y396.401 Z-10.000 I-0.004 J-13.141 F600.000
G1 X284.143 Y396.401 Z-12.000 F600.000
G2 X284.850 Y393.362 Z-12.000 I-12.355 J-4.477 F600.000
G1 X307.994 Y161.845 Z-12.000 F600.000
G2 X296.508 Y149.003 Z-12.000 I-11.627 J-1.158 F600.000
G1 X216.000 Y149.000 Z-12.000 F600.000
G2 X213.000 Y152.000 Z-12.000 I0.000 J3.000 F600.000
G1 X213.000 Y402.065 Z-12.000 F600.000
G2 X216.000 Y405.065 Z-12.000 I3.000 J-0.000 F600.000
G1 X271.793 Y405.065 Z-12.000 F600.000
G2 X284.143 Y396.401 Z-12.000 I-0.004 J-13.141 F600.000
G1 X284.143 Y396.401 Z-14.000 F600.000
G2 X284.850 Y393.362 Z-14.000 I-12.355 J-4.477 F600.000
G1 X307.994 Y161.845 Z-14.000 F600.000
G2 X296.508 Y149.003 Z-14.000 I-11.627 J-1.158 F600.000
G1 X216.000 Y149.000 Z-14.000 F600.000
G2 X213.000 Y152.000 Z-14.000 I0.000 J3.000 F600.000
G1 X213.000 Y402.065 Z-14.000 F600.000
G2 X216.000 Y405.065 Z-14.000 I3.000 J-0.000 F600.000
G1 X271.793 Y405.065 Z-14.000 F600.000
G2 X284.143 Y396.401 Z-14.000 I-0.004 J-13.141 F600.000
G1 X284.143 Y396.401 Z-16.000 F600.000
G2 X284.850 Y393.362 Z-16.000 I-12.355 J-4.477 F600.000
G1 X307.994 Y161.845 Z-16.000 F600.000
G2 X296.508 Y149.003 Z-16.000 I-11.627 J-1.158 F600.000
G1 X216.000 Y149.000 Z-16.000 F600.000
G2 X213.000 Y152.000 Z-16.000 I0.000 J3.000 F600.000
G1 X213.000 Y402.065 Z-16.000 F600.000
G2 X216.000 Y405.065 Z-16.000 I3.000 J-0.000 F600.000
G1 X271.793 Y405.065 Z-16.000 F600.000
G2 X284.143 Y396.401 Z-16.000 I-0.004 J-13.141 F600.000
G1 X284.143 Y396.401 Z-18.000 F600.000
G2 X284.850 Y393.362 Z-18.000 I-12.355 J-4.477 F600.000
G1 X307.994 Y161.845 Z-18.000 F600.000
G2 X296.508 Y149.003 Z-18.000 I-11.627 J-1.158 F600.000
G1 X216.000 Y149.000 Z-18.000 F600.000
G2 X213.000 Y152.000 Z-18.000 I0.000 J3.000 F600.000
G1 X213.000 Y402.065 Z-18.000 F600.000
G2 X216.000 Y405.065 Z-18.000 I3.000 J-0.000 F600.000
G1 X271.793 Y405.065 Z-18.000 F600.000
G2 X284.143 Y396.401 Z-18.000 I-0.004 J-13.141 F600.000
G1 X284.143 Y396.401 Z-20.000 F600.000
G2 X284.850 Y393.362 Z-20.000 I-12.355 J-4.477 F600.000
G1 X289.575 Y346.100 Z-20.000 F600.000
G1 X289.645 Y345.403 Z-19.300 F600.000
G1 X291.628 Y325.562 Z-19.300 F600.000
G1 X291.698 Y324.865 Z-20.000 F600.000
G1 X301.147 Y230.341 Z-20.000 F600.000
G1 X301.216 Y229.645 Z-19.300 F600.000
G1 X303.200 Y209.803 Z-19.300 F600.000
G1 X303.269 Y209.107 Z-20.000 F600.000
G1 X307.994 Y161.845 Z-20.000 F600.000
G2 X296.508 Y149.003 Z-20.000 I-11.627 J-1.158 F600.000
G1 X216.000 Y149.000 Z-20.000 F600.000
G2 X213.000 Y152.000 Z-20.000 I0.000 J3.000 F600.000
G1 X213.000 Y203.846 Z-20.000 F600.000
G1 X213.000 Y204.546 Z-19.300 F600.000
G1 X213.000 Y224.486 Z-19.300 F600.000
G1 X213.000 Y225.186 Z-20.000 F600.000
G1 X213.000 Y328.879 Z-20.000 F600.000
G1 X213.000 Y329.579 Z-19.300 F600.000
G1 X213.000 Y349.519 Z-19.300 F600.000
G1 X213.000 Y350.219 Z-20.000 F600.000
G1 X213.000 Y402.065 Z-20.000 F600.000
G2 X216.000 Y405.065 Z-20.000 I3.000 J-0.000 F600.000
G1 X271.793 Y405.065 Z-20.000 F600.000
G2 X284.143 Y396.401 Z-20.000 I-0.004 J-13.141 F600.000
G1 X284.143 Y396.401 Z-22.000 F600.000
G2 X284.850 Y393.362 Z-22.000 I-12.355 J-4.477 F600.000
G1 X289.376 Y348.090 Z-22.000 F600.000
G1 X289.645 Y345.403 Z-19.300 F600.000
G1 X291.628 Y325.562 Z-19.300 F600.000
G1 X291.897 Y322.875 Z-22.000 F600.000
G1 X300.948 Y232.331 Z-22.000 F600.000
G1 X301.216 Y229.645 Z-19.300 F600.000
G1 X303.200 Y209.803 Z-19.300 F600.000
G1 X303.468 Y207.117 Z-22.000 F600.000
G1 X307.994 Y161.845 Z-22.000 F600.000
G2 X296.508 Y149.003 Z-22.000 I-11.627 J-1.158 F600.000
G1 X216.000 Y149.000 Z-22.000 F600.000
G2 X213.000 Y152.000 Z-22.000 I0.000 J3.000 F600.000
G1 X213.000 Y201.846 Z-22.000 F600.000
G1 X213.000 Y204.546 Z-19.300 F600.000
G1 X213.000 Y224.486 Z-19.300 F600.000
G1 X213.000 Y227.186 Z-22.000 F600.000
G1 X213.000 Y326.879 Z-22.000 F600.000
G1 X213.000 Y329.579 Z-19.300 F600.000
G1 X213.000 Y349.519 Z-19.300 F600.000
G1 X213.000 Y352.219 Z-22.000 F600.000
G1 X213.000 Y402.065 Z-22.000 F600.000
G2 X216.000 Y405.065 Z-22.000 I3.000 J-0.000 F600.000
G1 X271.793 Y405.065 Z-22.000 F600.000
G2 X284.143 Y396.401 Z-22.000 I-0.004 J-13.141 F600.000
G1 X284.143 Y396.401 Z-22.300 F600.000
G2 X284.850 Y393.362 Z-22.300 I-12.355 J-4.477 F600.000
G1 X289.346 Y348.388 Z-22.300 F600.000
G1 X289.645 Y345.403 Z-19.300 F600.000
G1 X291.628 Y325.562 Z-19.300 F600.000
G1 X291.926 Y322.577 Z-22.300 F600.000
G1 X300.918 Y232.630 Z-22.300 F600.000
G1 X301.216 Y229.645 Z-19.300 F600.000
G1 X303.200 Y209.803 Z-19.300 F600.000
G1 X303.498 Y206.818 Z-22.300 F600.000
G1 X307.994 Y161.845 Z-22.300 F600.000
G2 X296.508 Y149.003 Z-22.300 I-11.627 J-1.158 F600.000
G1 X216.000 Y149.000 Z-22.300 F600.000
G2 X213.000 Y152.000 Z-22.300 I0.000 J3.000 F600.000
G1 X213.000 Y201.546 Z-22.300 F600.000
G1 X213.000 Y204.546 Z-19.300 F600.000
G1 X213.000 Y224.486 Z-19.300 F600.000
G1 X213.000 Y227.486 Z-22.300 F600.000
G1 X213.000 Y326.579 Z-22.300 F600.000
G1 X213.000 Y329.579 Z-19.300 F600.000
G1 X213.000 Y349.519 Z-19.300 F600.000
G1 X213.000 Y352.519 Z-22.300 F600.000
G1 X213.000 Y402.065 Z-22.300 F600.000
G2 X216.000 Y405.065 Z-22.300 I3.000 J-0.000 F600.000
G1 X271.793 Y405.065 Z-22.300 F600.000
G2 X284.143 Y396.401 Z-22.300 I-0.004 J-13.141 F600.000
G0 X284.143 Y396.401 Z15.000
(finish operation: TagDressup005)
(begin postamble)
M05
G17 G54 G90 G80 G40
M2
