(Exported by FreeCAD)
(Post Processor: linuxcnc_post)
(Output Time:2019-06-11 15:33:48.962209)
(begin preamble)
G17 G54 G40 G49 G80 G90
G21
(begin operation: T1: 6mm end mill)
(machine: not set, mm/min)
(T1: 6mm end mill)
M6 T1
M3 S18000
(finish operation: T1: 6mm end mill)
(begin operation: Profile_Edges)
(machine: not set, mm/min)
(Profile_Edges)
(Compensated Tool Path. Diameter: 6.0)
G0 Z10.000
G0 X47.539 Y440.508
G0 Z3.000
G1 X47.539 Y440.508 Z0.000 F180.000
G3 X44.759 Y441.732 Z0.000 I-2.583 J-2.099 F900.000
G1 X21.013 Y440.824 Z0.000 F900.000
G1 X20.883 Y388.041 Z0.000 F900.000
G1 X47.695 Y424.270 Z0.000 F900.000
G3 X49.012 Y429.081 Z0.000 I-5.420 J4.070 F900.000
G1 X47.889 Y439.984 Z0.000 F900.000
G3 X47.539 Y440.508 Z0.000 I-2.932 J-1.574 F900.000
G1 X47.539 Y440.508 Z-3.000 F180.000
G3 X44.759 Y441.732 Z-3.000 I-2.583 J-2.099 F900.000
G1 X21.013 Y440.824 Z-3.000 F900.000
G1 X20.883 Y388.041 Z-3.000 F900.000
G1 X47.695 Y424.270 Z-3.000 F900.000
G3 X49.012 Y429.081 Z-3.000 I-5.420 J4.070 F900.000
G1 X47.889 Y439.984 Z-3.000 F900.000
G3 X47.539 Y440.508 Z-3.000 I-2.932 J-1.574 F900.000
G1 X47.539 Y440.508 Z-6.000 F180.000
G3 X44.759 Y441.732 Z-6.000 I-2.583 J-2.099 F900.000
G1 X21.013 Y440.824 Z-6.000 F900.000
G1 X20.883 Y388.041 Z-6.000 F900.000
G1 X47.695 Y424.270 Z-6.000 F900.000
G3 X49.012 Y429.081 Z-6.000 I-5.420 J4.070 F900.000
G1 X47.889 Y439.984 Z-6.000 F900.000
G3 X47.539 Y440.508 Z-6.000 I-2.932 J-1.574 F900.000
G1 X47.539 Y440.508 Z-9.000 F180.000
G3 X44.759 Y441.732 Z-9.000 I-2.583 J-2.099 F900.000
G1 X21.013 Y440.824 Z-9.000 F900.000
G1 X20.883 Y388.041 Z-9.000 F900.000
G1 X47.695 Y424.270 Z-9.000 F900.000
G3 X49.012 Y429.081 Z-9.000 I-5.420 J4.070 F900.000
G1 X47.889 Y439.984 Z-9.000 F900.000
G3 X47.539 Y440.508 Z-9.000 I-2.932 J-1.574 F900.000
G1 X47.539 Y440.508 Z-12.000 F180.000
G3 X44.759 Y441.732 Z-12.000 I-2.583 J-2.099 F900.000
G1 X21.013 Y440.824 Z-12.000 F900.000
G1 X20.883 Y388.041 Z-12.000 F900.000
G1 X47.695 Y424.270 Z-12.000 F900.000
G3 X49.012 Y429.081 Z-12.000 I-5.420 J4.070 F900.000
G1 X47.889 Y439.984 Z-12.000 F900.000
G3 X47.539 Y440.508 Z-12.000 I-2.932 J-1.574 F900.000
G1 X47.539 Y440.508 Z-15.000 F180.000
G3 X44.759 Y441.732 Z-15.000 I-2.583 J-2.099 F900.000
G1 X21.013 Y440.824 Z-15.000 F900.000
G1 X20.883 Y388.041 Z-15.000 F900.000
G1 X47.695 Y424.270 Z-15.000 F900.000
G3 X49.012 Y429.081 Z-15.000 I-5.420 J4.070 F900.000
G1 X47.889 Y439.984 Z-15.000 F900.000
G3 X47.539 Y440.508 Z-15.000 I-2.932 J-1.574 F900.000
G1 X47.539 Y440.508 Z-18.000 F180.000
G3 X44.759 Y441.732 Z-18.000 I-2.583 J-2.099 F900.000
G1 X21.013 Y440.824 Z-18.000 F900.000
G1 X20.883 Y388.041 Z-18.000 F900.000
G1 X47.695 Y424.270 Z-18.000 F900.000
G3 X49.012 Y429.081 Z-18.000 I-5.420 J4.070 F900.000
G1 X47.889 Y439.984 Z-18.000 F900.000
G3 X47.539 Y440.508 Z-18.000 I-2.932 J-1.574 F900.000
G1 X47.539 Y440.508 Z-21.000 F180.000
G3 X44.759 Y441.732 Z-21.000 I-2.583 J-2.099 F900.000
G1 X21.013 Y440.824 Z-21.000 F900.000
G1 X20.883 Y388.041 Z-21.000 F900.000
G1 X47.695 Y424.270 Z-21.000 F900.000
G3 X49.012 Y429.081 Z-21.000 I-5.420 J4.070 F900.000
G1 X47.889 Y439.984 Z-21.000 F900.000
G3 X47.539 Y440.508 Z-21.000 I-2.932 J-1.574 F900.000
G1 X47.539 Y440.508 Z-22.500 F180.000
G3 X44.759 Y441.732 Z-22.500 I-2.583 J-2.099 F900.000
G1 X21.013 Y440.824 Z-22.500 F900.000
G1 X20.883 Y388.041 Z-22.500 F900.000
G1 X47.695 Y424.270 Z-22.500 F900.000
G3 X49.012 Y429.081 Z-22.500 I-5.420 J4.070 F900.000
G1 X47.889 Y439.984 Z-22.500 F900.000
G3 X47.539 Y440.508 Z-22.500 I-2.932 J-1.574 F900.000
G0 Z10.000
G0 X54.469 Y376.127
G0 Z3.000
G1 X54.469 Y376.127 Z-0.000 F180.000
G1 X54.387 Y376.927 Z-0.000 F900.000
G1 X21.247 Y343.546 Z0.000 F900.000
G3 X20.771 Y342.395 Z0.000 I1.019 J-1.095 F900.000
G1 X20.753 Y335.277 Z0.000 F900.000
G3 X21.897 Y332.900 Z0.000 I2.901 J-0.068 F900.000
G1 X62.226 Y300.853 Z-0.000 F900.000
G1 X54.469 Y376.127 Z-0.000 F900.000
G1 X54.469 Y376.127 Z-3.000 F180.000
G1 X54.387 Y376.927 Z-3.000 F900.000
G1 X21.247 Y343.546 Z-3.000 F900.000
G3 X20.771 Y342.395 Z-3.000 I1.019 J-1.095 F900.000
G1 X20.753 Y335.277 Z-3.000 F900.000
G3 X21.897 Y332.900 Z-3.000 I2.901 J-0.068 F900.000
G1 X62.226 Y300.853 Z-3.000 F900.000
G1 X54.469 Y376.127 Z-3.000 F900.000
G1 X54.469 Y376.127 Z-6.000 F180.000
G1 X54.387 Y376.927 Z-6.000 F900.000
G1 X21.247 Y343.546 Z-6.000 F900.000
G3 X20.771 Y342.395 Z-6.000 I1.019 J-1.095 F900.000
G1 X20.753 Y335.277 Z-6.000 F900.000
G3 X21.897 Y332.900 Z-6.000 I2.901 J-0.068 F900.000
G1 X62.226 Y300.853 Z-6.000 F900.000
G1 X54.469 Y376.127 Z-6.000 F900.000
G1 X54.469 Y376.127 Z-9.000 F180.000
G1 X54.387 Y376.927 Z-9.000 F900.000
G1 X21.247 Y343.546 Z-9.000 F900.000
G3 X20.771 Y342.395 Z-9.000 I1.019 J-1.095 F900.000
G1 X20.753 Y335.277 Z-9.000 F900.000
G3 X21.897 Y332.900 Z-9.000 I2.901 J-0.068 F900.000
G1 X62.226 Y300.853 Z-9.000 F900.000
G1 X54.469 Y376.127 Z-9.000 F900.000
G1 X54.469 Y376.127 Z-12.000 F180.000
G1 X54.387 Y376.927 Z-12.000 F900.000
G1 X21.247 Y343.546 Z-12.000 F900.000
G3 X20.771 Y342.395 Z-12.000 I1.019 J-1.095 F900.000
G1 X20.753 Y335.277 Z-12.000 F900.000
G3 X21.897 Y332.900 Z-12.000 I2.901 J-0.068 F900.000
G1 X62.226 Y300.853 Z-12.000 F900.000
G1 X54.469 Y376.127 Z-12.000 F900.000
G1 X54.469 Y376.127 Z-15.000 F180.000
G1 X54.387 Y376.927 Z-15.000 F900.000
G1 X21.247 Y343.546 Z-15.000 F900.000
G3 X20.771 Y342.395 Z-15.000 I1.019 J-1.095 F900.000
G1 X20.753 Y335.277 Z-15.000 F900.000
G3 X21.897 Y332.900 Z-15.000 I2.901 J-0.068 F900.000
G1 X62.226 Y300.853 Z-15.000 F900.000
G1 X54.469 Y376.127 Z-15.000 F900.000
G1 X54.469 Y376.127 Z-18.000 F180.000
G1 X54.387 Y376.927 Z-18.000 F900.000
G1 X21.247 Y343.546 Z-18.000 F900.000
G3 X20.771 Y342.395 Z-18.000 I1.019 J-1.095 F900.000
G1 X20.753 Y335.277 Z-18.000 F900.000
G3 X21.897 Y332.900 Z-18.000 I2.901 J-0.068 F900.000
G1 X62.226 Y300.853 Z-18.000 F900.000
G1 X54.469 Y376.127 Z-18.000 F900.000
G1 X54.469 Y376.127 Z-21.000 F180.000
G1 X54.387 Y376.927 Z-21.000 F900.000
G1 X21.247 Y343.546 Z-21.000 F900.000
G3 X20.771 Y342.395 Z-21.000 I1.019 J-1.095 F900.000
G1 X20.753 Y335.277 Z-21.000 F900.000
G3 X21.897 Y332.900 Z-21.000 I2.901 J-0.068 F900.000
G1 X62.226 Y300.853 Z-21.000 F900.000
G1 X54.469 Y376.127 Z-21.000 F900.000
G1 X54.469 Y376.127 Z-22.500 F180.000
G1 X54.387 Y376.927 Z-22.500 F900.000
G1 X21.247 Y343.546 Z-22.500 F900.000
G3 X20.771 Y342.395 Z-22.500 I1.019 J-1.095 F900.000
G1 X20.753 Y335.277 Z-22.500 F900.000
G3 X21.897 Y332.900 Z-22.500 I2.901 J-0.068 F900.000
G1 X62.226 Y300.853 Z-22.500 F900.000
G1 X54.469 Y376.127 Z-22.500 F900.000
G0 Z10.000
G0 X55.185 Y264.343
G0 Z3.000
G1 X55.185 Y264.343 Z-0.000 F180.000
G1 X22.616 Y285.474 Z-0.000 F900.000
G3 X20.628 Y284.398 Z-0.000 I-0.746 J-0.995 F900.000
G1 X20.496 Y230.871 Z0.000 F900.000
G3 X20.783 Y230.850 Z0.000 I0.231 J1.190 F900.000
G1 X65.597 Y231.013 Z0.000 F900.000
G3 X69.030 Y234.832 Z0.000 I0.059 J3.399 F900.000
G1 X66.771 Y256.756 Z-0.000 F900.000
G3 X66.699 Y256.873 Z-0.000 I-0.099 J0.020 F900.000
G1 X55.185 Y264.343 Z-0.000 F900.000
G1 X55.185 Y264.343 Z-3.000 F180.000
G1 X22.616 Y285.474 Z-3.000 F900.000
G3 X20.628 Y284.398 Z-3.000 I-0.746 J-0.995 F900.000
G1 X20.496 Y230.871 Z-3.000 F900.000
G3 X20.783 Y230.850 Z-3.000 I0.231 J1.190 F900.000
G1 X65.597 Y231.013 Z-3.000 F900.000
G3 X69.030 Y234.832 Z-3.000 I0.059 J3.399 F900.000
G1 X66.771 Y256.756 Z-3.000 F900.000
G3 X66.699 Y256.873 Z-3.000 I-0.099 J0.020 F900.000
G1 X55.185 Y264.343 Z-3.000 F900.000
G1 X55.185 Y264.343 Z-6.000 F180.000
G1 X22.616 Y285.474 Z-6.000 F900.000
G3 X20.628 Y284.398 Z-6.000 I-0.746 J-0.995 F900.000
G1 X20.496 Y230.871 Z-6.000 F900.000
G3 X20.783 Y230.850 Z-6.000 I0.231 J1.190 F900.000
G1 X65.597 Y231.013 Z-6.000 F900.000
G3 X69.030 Y234.832 Z-6.000 I0.059 J3.399 F900.000
G1 X66.771 Y256.756 Z-6.000 F900.000
G3 X66.699 Y256.873 Z-6.000 I-0.099 J0.020 F900.000
G1 X55.185 Y264.343 Z-6.000 F900.000
G1 X55.185 Y264.343 Z-9.000 F180.000
G1 X22.616 Y285.474 Z-9.000 F900.000
G3 X20.628 Y284.398 Z-9.000 I-0.746 J-0.995 F900.000
G1 X20.496 Y230.871 Z-9.000 F900.000
G3 X20.783 Y230.850 Z-9.000 I0.231 J1.190 F900.000
G1 X65.597 Y231.013 Z-9.000 F900.000
G3 X69.030 Y234.832 Z-9.000 I0.059 J3.399 F900.000
G1 X66.771 Y256.756 Z-9.000 F900.000
G3 X66.699 Y256.873 Z-9.000 I-0.099 J0.020 F900.000
G1 X55.185 Y264.343 Z-9.000 F900.000
G1 X55.185 Y264.343 Z-12.000 F180.000
G1 X22.616 Y285.474 Z-12.000 F900.000
G3 X20.628 Y284.398 Z-12.000 I-0.746 J-0.995 F900.000
G1 X20.496 Y230.871 Z-12.000 F900.000
G3 X20.783 Y230.850 Z-12.000 I0.231 J1.190 F900.000
G1 X65.597 Y231.013 Z-12.000 F900.000
G3 X69.030 Y234.832 Z-12.000 I0.059 J3.399 F900.000
G1 X66.771 Y256.756 Z-12.000 F900.000
G3 X66.699 Y256.873 Z-12.000 I-0.099 J0.020 F900.000
G1 X55.185 Y264.343 Z-12.000 F900.000
G1 X55.185 Y264.343 Z-15.000 F180.000
G1 X22.616 Y285.474 Z-15.000 F900.000
G3 X20.628 Y284.398 Z-15.000 I-0.746 J-0.995 F900.000
G1 X20.496 Y230.871 Z-15.000 F900.000
G3 X20.783 Y230.850 Z-15.000 I0.231 J1.190 F900.000
G1 X65.597 Y231.013 Z-15.000 F900.000
G3 X69.030 Y234.832 Z-15.000 I0.059 J3.399 F900.000
G1 X66.771 Y256.756 Z-15.000 F900.000
G3 X66.699 Y256.873 Z-15.000 I-0.099 J0.020 F900.000
G1 X55.185 Y264.343 Z-15.000 F900.000
G1 X55.185 Y264.343 Z-18.000 F180.000
G1 X22.616 Y285.474 Z-18.000 F900.000
G3 X20.628 Y284.398 Z-18.000 I-0.746 J-0.995 F900.000
G1 X20.496 Y230.871 Z-18.000 F900.000
G3 X20.783 Y230.850 Z-18.000 I0.231 J1.190 F900.000
G1 X65.597 Y231.013 Z-18.000 F900.000
G3 X69.030 Y234.832 Z-18.000 I0.059 J3.399 F900.000
G1 X66.771 Y256.756 Z-18.000 F900.000
G3 X66.699 Y256.873 Z-18.000 I-0.099 J0.020 F900.000
G1 X55.185 Y264.343 Z-18.000 F900.000
G1 X55.185 Y264.343 Z-21.000 F180.000
G1 X22.616 Y285.474 Z-21.000 F900.000
G3 X20.628 Y284.398 Z-21.000 I-0.746 J-0.995 F900.000
G1 X20.496 Y230.871 Z-21.000 F900.000
G3 X20.783 Y230.850 Z-21.000 I0.231 J1.190 F900.000
G1 X65.597 Y231.013 Z-21.000 F900.000
G3 X69.030 Y234.832 Z-21.000 I0.059 J3.399 F900.000
G1 X66.771 Y256.756 Z-21.000 F900.000
G3 X66.699 Y256.873 Z-21.000 I-0.099 J0.020 F900.000
G1 X55.185 Y264.343 Z-21.000 F900.000
G1 X55.185 Y264.343 Z-22.500 F180.000
G1 X22.616 Y285.474 Z-22.500 F900.000
G3 X20.628 Y284.398 Z-22.500 I-0.746 J-0.995 F900.000
G1 X20.496 Y230.871 Z-22.500 F900.000
G3 X20.783 Y230.850 Z-22.500 I0.231 J1.190 F900.000
G1 X65.597 Y231.013 Z-22.500 F900.000
G3 X69.030 Y234.832 Z-22.500 I0.059 J3.399 F900.000
G1 X66.771 Y256.756 Z-22.500 F900.000
G3 X66.699 Y256.873 Z-22.500 I-0.099 J0.020 F900.000
G1 X55.185 Y264.343 Z-22.500 F900.000
G0 Z10.000
(finish operation: Profile_Edges)
(begin operation: biglevelInside)
(machine: not set, mm/min)
G0 Z10.000
G0 X128.998 Y177.922 Z10.000
G0 X128.998 Y177.922 Z3.000
G1 X128.998 Y177.922 Z0.000 F900.000
G1 X21.739 Y177.922 Z0.000 F900.000
G3 X19.730 Y175.913 Z0.000 I-0.074 J-1.935 F900.000
G1 X19.730 Y120.628 Z0.000 F900.000
G1 X128.998 Y177.922 Z0.000 F900.000
G1 X128.998 Y177.922 Z-3.000 F900.000
G1 X21.739 Y177.922 Z-3.000 F900.000
G3 X19.730 Y175.913 Z-3.000 I-0.074 J-1.935 F900.000
G1 X19.730 Y120.628 Z-3.000 F900.000
G1 X128.998 Y177.922 Z-3.000 F900.000
G1 X128.998 Y177.922 Z-6.000 F900.000
G1 X21.739 Y177.922 Z-6.000 F900.000
G3 X19.730 Y175.913 Z-6.000 I-0.074 J-1.935 F900.000
G1 X19.730 Y120.628 Z-6.000 F900.000
G1 X128.998 Y177.922 Z-6.000 F900.000
G1 X128.998 Y177.922 Z-9.000 F900.000
G1 X21.739 Y177.922 Z-9.000 F900.000
G3 X19.730 Y175.913 Z-9.000 I-0.074 J-1.935 F900.000
G1 X19.730 Y120.628 Z-9.000 F900.000
G1 X128.998 Y177.922 Z-9.000 F900.000
G1 X128.998 Y177.922 Z-12.000 F900.000
G1 X21.739 Y177.922 Z-12.000 F900.000
G3 X19.730 Y175.913 Z-12.000 I-0.074 J-1.935 F900.000
G1 X19.730 Y120.628 Z-12.000 F900.000
G1 X128.998 Y177.922 Z-12.000 F900.000
G1 X128.998 Y177.922 Z-15.000 F900.000
G1 X21.739 Y177.922 Z-15.000 F900.000
G3 X19.730 Y175.913 Z-15.000 I-0.074 J-1.935 F900.000
G1 X19.730 Y120.628 Z-15.000 F900.000
G1 X128.998 Y177.922 Z-15.000 F900.000
G1 X128.998 Y177.922 Z-18.000 F900.000
G1 X21.739 Y177.922 Z-18.000 F900.000
G3 X19.730 Y175.913 Z-18.000 I-0.074 J-1.935 F900.000
G1 X19.730 Y120.628 Z-18.000 F900.000
G1 X128.998 Y177.922 Z-18.000 F900.000
G1 X128.998 Y177.922 Z-21.000 F900.000
G1 X58.360 Y177.922 Z-21.000 F900.000
G1 X57.860 Y177.922 Z-20.500 F900.000
G1 X43.560 Y177.922 Z-20.500 F900.000
G1 X43.060 Y177.922 Z-21.000 F900.000
G1 X21.739 Y177.922 Z-21.000 F900.000
G3 X19.730 Y175.913 Z-21.000 I-0.074 J-1.935 F900.000
G1 X19.730 Y120.628 Z-21.000 F900.000
G1 X63.044 Y143.339 Z-21.000 F900.000
G1 X63.487 Y143.572 Z-20.500 F900.000
G1 X76.151 Y150.212 Z-20.500 F900.000
G1 X76.594 Y150.445 Z-21.000 F900.000
G1 X128.998 Y177.922 Z-21.000 F900.000
G1 X128.998 Y177.922 Z-22.500 F900.000
G1 X59.860 Y177.922 Z-22.500 F900.000
G1 X57.860 Y177.922 Z-20.500 F900.000
G1 X43.560 Y177.922 Z-20.500 F900.000
G1 X41.560 Y177.922 Z-22.500 F900.000
G1 X21.739 Y177.922 Z-22.500 F900.000
G3 X19.730 Y175.913 Z-22.500 I-0.074 J-1.935 F900.000
G1 X19.730 Y120.628 Z-22.500 F900.000
G1 X61.715 Y142.643 Z-22.500 F900.000
G1 X63.487 Y143.572 Z-20.500 F900.000
G1 X76.151 Y150.212 Z-20.500 F900.000
G1 X77.923 Y151.141 Z-22.500 F900.000
G1 X128.998 Y177.922 Z-22.500 F900.000
G0 X128.998 Y177.922 Z10.000
G0 X147.326 Y146.913 Z10.000
G0 X147.326 Y146.913 Z3.000
G1 X147.326 Y146.913 Z0.000 F900.000
G3 X142.056 Y149.147 Z0.000 I-3.527 J-0.987 F900.000
G1 X51.228 Y102.258 Z0.000 F900.000
G3 X51.295 Y98.014 Z0.000 I1.001 J-2.107 F900.000
G1 X148.358 Y51.706 Z0.000 F900.000
G3 X152.148 Y51.222 Z0.000 I2.610 J5.343 F900.000
G3 X156.849 Y57.714 Z0.000 I-1.183 J5.804 F900.000
G1 X147.448 Y146.241 Z0.000 F900.000
G3 X147.326 Y146.913 Z0.000 I-3.649 J-0.316 F900.000
G1 X147.326 Y146.913 Z-3.000 F900.000
G3 X142.056 Y149.147 Z-3.000 I-3.527 J-0.987 F900.000
G1 X51.228 Y102.258 Z-3.000 F900.000
G3 X51.295 Y98.014 Z-3.000 I1.001 J-2.107 F900.000
G1 X148.358 Y51.706 Z-3.000 F900.000
G3 X152.148 Y51.222 Z-3.000 I2.610 J5.343 F900.000
G3 X156.849 Y57.714 Z-3.000 I-1.183 J5.804 F900.000
G1 X147.448 Y146.241 Z-3.000 F900.000
G3 X147.326 Y146.913 Z-3.000 I-3.649 J-0.316 F900.000
G1 X147.326 Y146.913 Z-6.000 F900.000
G3 X142.056 Y149.147 Z-6.000 I-3.527 J-0.987 F900.000
G1 X51.228 Y102.258 Z-6.000 F900.000
G3 X51.295 Y98.014 Z-6.000 I1.001 J-2.107 F900.000
G1 X148.358 Y51.706 Z-6.000 F900.000
G3 X152.148 Y51.222 Z-6.000 I2.610 J5.343 F900.000
G3 X156.849 Y57.714 Z-6.000 I-1.183 J5.804 F900.000
G1 X147.448 Y146.241 Z-6.000 F900.000
G3 X147.326 Y146.913 Z-6.000 I-3.649 J-0.316 F900.000
G1 X147.326 Y146.913 Z-9.000 F900.000
G3 X142.056 Y149.147 Z-9.000 I-3.527 J-0.987 F900.000
G1 X51.228 Y102.258 Z-9.000 F900.000
G3 X51.295 Y98.014 Z-9.000 I1.001 J-2.107 F900.000
G1 X148.358 Y51.706 Z-9.000 F900.000
G3 X152.148 Y51.222 Z-9.000 I2.610 J5.343 F900.000
G3 X156.849 Y57.714 Z-9.000 I-1.183 J5.804 F900.000
G1 X147.448 Y146.241 Z-9.000 F900.000
G3 X147.326 Y146.913 Z-9.000 I-3.649 J-0.316 F900.000
G1 X147.326 Y146.913 Z-12.000 F900.000
G3 X142.056 Y149.147 Z-12.000 I-3.527 J-0.987 F900.000
G1 X51.228 Y102.258 Z-12.000 F900.000
G3 X51.295 Y98.014 Z-12.000 I1.001 J-2.107 F900.000
G1 X148.358 Y51.706 Z-12.000 F900.000
G3 X152.148 Y51.222 Z-12.000 I2.610 J5.343 F900.000
G3 X156.849 Y57.714 Z-12.000 I-1.183 J5.804 F900.000
G1 X147.448 Y146.241 Z-12.000 F900.000
G3 X147.326 Y146.913 Z-12.000 I-3.649 J-0.316 F900.000
G1 X147.326 Y146.913 Z-15.000 F900.000
G3 X142.056 Y149.147 Z-15.000 I-3.527 J-0.987 F900.000
G1 X51.228 Y102.258 Z-15.000 F900.000
G3 X51.295 Y98.014 Z-15.000 I1.001 J-2.107 F900.000
G1 X148.358 Y51.706 Z-15.000 F900.000
G3 X152.148 Y51.222 Z-15.000 I2.610 J5.343 F900.000
G3 X156.849 Y57.714 Z-15.000 I-1.183 J5.804 F900.000
G1 X147.448 Y146.241 Z-15.000 F900.000
G3 X147.326 Y146.913 Z-15.000 I-3.649 J-0.316 F900.000
G1 X147.326 Y146.913 Z-18.000 F900.000
G3 X142.056 Y149.147 Z-18.000 I-3.527 J-0.987 F900.000
G1 X51.228 Y102.258 Z-18.000 F900.000
G3 X51.295 Y98.014 Z-18.000 I1.001 J-2.107 F900.000
G1 X148.358 Y51.706 Z-18.000 F900.000
G3 X152.148 Y51.222 Z-18.000 I2.610 J5.343 F900.000
G3 X156.849 Y57.714 Z-18.000 I-1.183 J5.804 F900.000
G1 X147.448 Y146.241 Z-18.000 F900.000
G3 X147.326 Y146.913 Z-18.000 I-3.649 J-0.316 F900.000
G1 X147.326 Y146.913 Z-21.000 F900.000
G3 X142.056 Y149.147 Z-21.000 I-3.527 J-0.987 F900.000
G1 X96.017 Y125.380 Z-21.000 F900.000
G1 X95.573 Y125.150 Z-20.500 F900.000
G1 X82.866 Y118.591 Z-20.500 F900.000
G1 X82.422 Y118.361 Z-21.000 F900.000
G1 X51.228 Y102.258 Z-21.000 F900.000
G3 X51.295 Y98.014 Z-21.000 I1.001 J-2.107 F900.000
G1 X148.358 Y51.706 Z-21.000 F900.000
G3 X152.148 Y51.222 Z-21.000 I2.610 J5.343 F900.000
G3 X156.849 Y57.714 Z-21.000 I-1.183 J5.804 F900.000
G1 X154.776 Y77.233 Z-21.000 F900.000
G1 X154.723 Y77.730 Z-20.500 F900.000
G1 X153.213 Y91.950 Z-20.500 F900.000
G1 X153.161 Y92.447 Z-21.000 F900.000
G1 X147.448 Y146.241 Z-21.000 F900.000
G3 X147.326 Y146.913 Z-21.000 I-3.649 J-0.316 F900.000
G1 X147.326 Y146.913 Z-22.500 F900.000
G3 X142.056 Y149.147 Z-22.500 I-3.527 J-0.987 F900.000
G1 X97.350 Y126.068 Z-22.500 F900.000
G1 X95.573 Y125.150 Z-20.500 F900.000
G1 X82.866 Y118.591 Z-20.500 F900.000
G1 X81.089 Y117.673 Z-22.500 F900.000
G1 X51.228 Y102.258 Z-22.500 F900.000
G3 X51.295 Y98.014 Z-22.500 I1.001 J-2.107 F900.000
G1 X148.358 Y51.706 Z-22.500 F900.000
G3 X152.148 Y51.222 Z-22.500 I2.610 J5.343 F900.000
G3 X156.849 Y57.714 Z-22.500 I-1.183 J5.804 F900.000
G1 X154.935 Y75.741 Z-22.500 F900.000
G1 X154.723 Y77.730 Z-20.500 F900.000
G1 X153.213 Y91.950 Z-20.500 F900.000
G1 X153.002 Y93.939 Z-22.500 F900.000
G1 X147.448 Y146.241 Z-22.500 F900.000
G3 X147.326 Y146.913 Z-22.500 I-3.649 J-0.316 F900.000
G0 X147.326 Y146.913 Z10.000
G0 X118.214 Y35.566 Z10.000
G0 X118.214 Y35.566 Z3.000
G1 X118.214 Y35.566 Z0.000 F900.000
G1 X19.935 Y80.943 Z0.000 F900.000
G1 X19.935 Y28.458 Z0.000 F900.000
G3 X23.734 Y24.659 Z0.000 I3.732 J-0.067 F900.000
G1 X138.319 Y24.659 Z0.000 F900.000
G3 X139.138 Y25.615 Z0.000 I0.090 J0.752 F900.000
G3 X138.643 Y26.133 Z0.000 I-0.765 J-0.236 F900.000
G1 X118.214 Y35.566 Z0.000 F900.000
G1 X118.214 Y35.566 Z-3.000 F900.000
G1 X19.935 Y80.943 Z-3.000 F900.000
G1 X19.935 Y28.458 Z-3.000 F900.000
G3 X23.734 Y24.659 Z-3.000 I3.732 J-0.067 F900.000
G1 X138.319 Y24.659 Z-3.000 F900.000
G3 X139.138 Y25.615 Z-3.000 I0.090 J0.752 F900.000
G3 X138.643 Y26.133 Z-3.000 I-0.765 J-0.236 F900.000
G1 X118.214 Y35.566 Z-3.000 F900.000
G1 X118.214 Y35.566 Z-6.000 F900.000
G1 X19.935 Y80.943 Z-6.000 F900.000
G1 X19.935 Y28.458 Z-6.000 F900.000
G3 X23.734 Y24.659 Z-6.000 I3.732 J-0.067 F900.000
G1 X138.319 Y24.659 Z-6.000 F900.000
G3 X139.138 Y25.615 Z-6.000 I0.090 J0.752 F900.000
G3 X138.643 Y26.133 Z-6.000 I-0.765 J-0.236 F900.000
G1 X118.214 Y35.566 Z-6.000 F900.000
G1 X118.214 Y35.566 Z-9.000 F900.000
G1 X19.935 Y80.943 Z-9.000 F900.000
G1 X19.935 Y28.458 Z-9.000 F900.000
G3 X23.734 Y24.659 Z-9.000 I3.732 J-0.067 F900.000
G1 X138.319 Y24.659 Z-9.000 F900.000
G3 X139.138 Y25.615 Z-9.000 I0.090 J0.752 F900.000
G3 X138.643 Y26.133 Z-9.000 I-0.765 J-0.236 F900.000
G1 X118.214 Y35.566 Z-9.000 F900.000
G1 X118.214 Y35.566 Z-12.000 F900.000
G1 X19.935 Y80.943 Z-12.000 F900.000
G1 X19.935 Y28.458 Z-12.000 F900.000
G3 X23.734 Y24.659 Z-12.000 I3.732 J-0.067 F900.000
G1 X138.319 Y24.659 Z-12.000 F900.000
G3 X139.138 Y25.615 Z-12.000 I0.090 J0.752 F900.000
G3 X138.643 Y26.133 Z-12.000 I-0.765 J-0.236 F900.000
G1 X118.214 Y35.566 Z-12.000 F900.000
G1 X118.214 Y35.566 Z-15.000 F900.000
G1 X19.935 Y80.943 Z-15.000 F900.000
G1 X19.935 Y28.458 Z-15.000 F900.000
G3 X23.734 Y24.659 Z-15.000 I3.732 J-0.067 F900.000
G1 X138.319 Y24.659 Z-15.000 F900.000
G3 X139.138 Y25.615 Z-15.000 I0.090 J0.752 F900.000
G3 X138.643 Y26.133 Z-15.000 I-0.765 J-0.236 F900.000
G1 X118.214 Y35.566 Z-15.000 F900.000
G1 X118.214 Y35.566 Z-18.000 F900.000
G1 X19.935 Y80.943 Z-18.000 F900.000
G1 X19.935 Y28.458 Z-18.000 F900.000
G3 X23.734 Y24.659 Z-18.000 I3.732 J-0.067 F900.000
G1 X138.319 Y24.659 Z-18.000 F900.000
G3 X139.138 Y25.615 Z-18.000 I0.090 J0.752 F900.000
G3 X138.643 Y26.133 Z-18.000 I-0.765 J-0.236 F900.000
G1 X118.214 Y35.566 Z-18.000 F900.000
G1 X118.214 Y35.566 Z-21.000 F900.000
G1 X59.184 Y62.821 Z-21.000 F900.000
G1 X58.730 Y63.030 Z-20.500 F900.000
G1 X45.747 Y69.025 Z-20.500 F900.000
G1 X45.293 Y69.234 Z-21.000 F900.000
G1 X19.935 Y80.943 Z-21.000 F900.000
G1 X19.935 Y28.458 Z-21.000 F900.000
G3 X23.734 Y24.659 Z-21.000 I3.732 J-0.067 F900.000
G1 X55.440 Y24.659 Z-21.000 F900.000
G1 X55.940 Y24.659 Z-20.500 F900.000
G1 X70.240 Y24.659 Z-20.500 F900.000
G1 X70.740 Y24.659 Z-21.000 F900.000
G1 X138.319 Y24.659 Z-21.000 F900.000
G3 X139.138 Y25.615 Z-21.000 I0.090 J0.752 F900.000
G3 X138.643 Y26.133 Z-21.000 I-0.765 J-0.236 F900.000
G1 X118.214 Y35.566 Z-21.000 F900.000
G1 X118.214 Y35.566 Z-22.500 F900.000
G1 X60.546 Y62.192 Z-22.500 F900.000
G1 X58.730 Y63.030 Z-20.500 F900.000
G1 X45.747 Y69.025 Z-20.500 F900.000
G1 X43.932 Y69.863 Z-22.500 F900.000
G1 X19.935 Y80.943 Z-22.500 F900.000
G1 X19.935 Y28.458 Z-22.500 F900.000
G3 X23.734 Y24.659 Z-22.500 I3.732 J-0.067 F900.000
G1 X53.940 Y24.659 Z-22.500 F900.000
G1 X55.940 Y24.659 Z-20.500 F900.000
G1 X70.240 Y24.659 Z-20.500 F900.000
G1 X72.240 Y24.659 Z-22.500 F900.000
G1 X138.319 Y24.659 Z-22.500 F900.000
G3 X139.138 Y25.615 Z-22.500 I0.090 J0.752 F900.000
G3 X138.643 Y26.133 Z-22.500 I-0.765 J-0.236 F900.000
G1 X118.214 Y35.566 Z-22.500 F900.000
G0 X118.214 Y35.566 Z10.000
(finish operation: biglevelInside)
(begin operation: blockOutside)
(machine: not set, mm/min)
G0 Z10.000
G0 X202.114 Y462.165 Z10.000
G0 X202.114 Y462.165 Z3.000
G1 X202.114 Y462.165 Z0.000 F900.000
G2 X202.993 Y460.044 Z0.000 I-2.121 J-2.121 F900.000
G1 X202.993 Y210.045 Z0.000 F900.000
G2 X199.993 Y207.045 Z0.000 I-3.000 J0.000 F900.000
G1 X100.021 Y207.045 Z0.000 F900.000
G2 X97.021 Y210.045 Z0.000 I0.000 J3.000 F900.000
G1 X97.021 Y460.044 Z0.000 F900.000
G2 X100.021 Y463.044 Z0.000 I3.000 J0.000 F900.000
G1 X199.993 Y463.044 Z0.000 F900.000
G2 X202.114 Y462.165 Z0.000 I0.000 J-3.000 F900.000
G1 X202.114 Y462.165 Z-3.000 F900.000
G2 X202.993 Y460.044 Z-3.000 I-2.121 J-2.121 F900.000
G1 X202.993 Y210.045 Z-3.000 F900.000
G2 X199.993 Y207.045 Z-3.000 I-3.000 J0.000 F900.000
G1 X100.021 Y207.045 Z-3.000 F900.000
G2 X97.021 Y210.045 Z-3.000 I0.000 J3.000 F900.000
G1 X97.021 Y460.044 Z-3.000 F900.000
G2 X100.021 Y463.044 Z-3.000 I3.000 J0.000 F900.000
G1 X199.993 Y463.044 Z-3.000 F900.000
G2 X202.114 Y462.165 Z-3.000 I0.000 J-3.000 F900.000
G1 X202.114 Y462.165 Z-6.000 F900.000
G2 X202.993 Y460.044 Z-6.000 I-2.121 J-2.121 F900.000
G1 X202.993 Y210.045 Z-6.000 F900.000
G2 X199.993 Y207.045 Z-6.000 I-3.000 J0.000 F900.000
G1 X100.021 Y207.045 Z-6.000 F900.000
G2 X97.021 Y210.045 Z-6.000 I0.000 J3.000 F900.000
G1 X97.021 Y460.044 Z-6.000 F900.000
G2 X100.021 Y463.044 Z-6.000 I3.000 J0.000 F900.000
G1 X199.993 Y463.044 Z-6.000 F900.000
G2 X202.114 Y462.165 Z-6.000 I0.000 J-3.000 F900.000
G1 X202.114 Y462.165 Z-9.000 F900.000
G2 X202.993 Y460.044 Z-9.000 I-2.121 J-2.121 F900.000
G1 X202.993 Y210.045 Z-9.000 F900.000
G2 X199.993 Y207.045 Z-9.000 I-3.000 J0.000 F900.000
G1 X100.021 Y207.045 Z-9.000 F900.000
G2 X97.021 Y210.045 Z-9.000 I0.000 J3.000 F900.000
G1 X97.021 Y460.044 Z-9.000 F900.000
G2 X100.021 Y463.044 Z-9.000 I3.000 J0.000 F900.000
G1 X199.993 Y463.044 Z-9.000 F900.000
G2 X202.114 Y462.165 Z-9.000 I0.000 J-3.000 F900.000
G1 X202.114 Y462.165 Z-12.000 F900.000
G2 X202.993 Y460.044 Z-12.000 I-2.121 J-2.121 F900.000
G1 X202.993 Y210.045 Z-12.000 F900.000
G2 X199.993 Y207.045 Z-12.000 I-3.000 J0.000 F900.000
G1 X100.021 Y207.045 Z-12.000 F900.000
G2 X97.021 Y210.045 Z-12.000 I0.000 J3.000 F900.000
G1 X97.021 Y460.044 Z-12.000 F900.000
G2 X100.021 Y463.044 Z-12.000 I3.000 J0.000 F900.000
G1 X199.993 Y463.044 Z-12.000 F900.000
G2 X202.114 Y462.165 Z-12.000 I0.000 J-3.000 F900.000
G1 X202.114 Y462.165 Z-15.000 F900.000
G2 X202.993 Y460.044 Z-15.000 I-2.121 J-2.121 F900.000
G1 X202.993 Y210.045 Z-15.000 F900.000
G2 X199.993 Y207.045 Z-15.000 I-3.000 J0.000 F900.000
G1 X100.021 Y207.045 Z-15.000 F900.000
G2 X97.021 Y210.045 Z-15.000 I0.000 J3.000 F900.000
G1 X97.021 Y460.044 Z-15.000 F900.000
G2 X100.021 Y463.044 Z-15.000 I3.000 J0.000 F900.000
G1 X199.993 Y463.044 Z-15.000 F900.000
G2 X202.114 Y462.165 Z-15.000 I0.000 J-3.000 F900.000
G1 X202.114 Y462.165 Z-18.000 F900.000
G2 X202.993 Y460.044 Z-18.000 I-2.121 J-2.121 F900.000
G1 X202.993 Y210.045 Z-18.000 F900.000
G2 X199.993 Y207.045 Z-18.000 I-3.000 J0.000 F900.000
G1 X100.021 Y207.045 Z-18.000 F900.000
G2 X97.021 Y210.045 Z-18.000 I0.000 J3.000 F900.000
G1 X97.021 Y460.044 Z-18.000 F900.000
G2 X100.021 Y463.044 Z-18.000 I3.000 J0.000 F900.000
G1 X199.993 Y463.044 Z-18.000 F900.000
G2 X202.114 Y462.165 Z-18.000 I0.000 J-3.000 F900.000
G1 X202.114 Y462.165 Z-21.000 F900.000
G2 X202.993 Y460.044 Z-21.000 I-2.121 J-2.121 F900.000
G1 X202.993 Y404.024 Z-21.000 F900.000
G1 X202.993 Y403.524 Z-20.500 F900.000
G1 X202.993 Y391.564 Z-20.500 F900.000
G1 X202.993 Y391.064 Z-21.000 F900.000
G1 X202.993 Y279.025 Z-21.000 F900.000
G1 X202.993 Y278.525 Z-20.500 F900.000
G1 X202.993 Y266.565 Z-20.500 F900.000
G1 X202.993 Y266.065 Z-21.000 F900.000
G1 X202.993 Y210.045 Z-21.000 F900.000
G2 X199.993 Y207.045 Z-21.000 I-3.000 J0.000 F900.000
G1 X100.021 Y207.045 Z-21.000 F900.000
G2 X97.021 Y210.045 Z-21.000 I0.000 J3.000 F900.000
G1 X97.021 Y266.065 Z-21.000 F900.000
G1 X97.021 Y266.565 Z-20.500 F900.000
G1 X97.021 Y278.525 Z-20.500 F900.000
G1 X97.021 Y279.025 Z-21.000 F900.000
G1 X97.021 Y391.064 Z-21.000 F900.000
G1 X97.021 Y391.564 Z-20.500 F900.000
G1 X97.021 Y403.524 Z-20.500 F900.000
G1 X97.021 Y404.024 Z-21.000 F900.000
G1 X97.021 Y460.044 Z-21.000 F900.000
G2 X100.021 Y463.044 Z-21.000 I3.000 J0.000 F900.000
G1 X199.993 Y463.044 Z-21.000 F900.000
G2 X202.114 Y462.165 Z-21.000 I0.000 J-3.000 F900.000
G1 X202.114 Y462.165 Z-22.500 F900.000
G2 X202.993 Y460.044 Z-22.500 I-2.121 J-2.121 F900.000
G1 X202.993 Y405.524 Z-22.500 F900.000
G1 X202.993 Y403.524 Z-20.500 F900.000
G1 X202.993 Y391.564 Z-20.500 F900.000
G1 X202.993 Y389.564 Z-22.500 F900.000
G1 X202.993 Y280.525 Z-22.500 F900.000
G1 X202.993 Y278.525 Z-20.500 F900.000
G1 X202.993 Y266.565 Z-20.500 F900.000
G1 X202.993 Y264.565 Z-22.500 F900.000
G1 X202.993 Y210.045 Z-22.500 F900.000
G2 X199.993 Y207.045 Z-22.500 I-3.000 J0.000 F900.000
G1 X100.021 Y207.045 Z-22.500 F900.000
G2 X97.021 Y210.045 Z-22.500 I0.000 J3.000 F900.000
G1 X97.021 Y264.565 Z-22.500 F900.000
G1 X97.021 Y266.565 Z-20.500 F900.000
G1 X97.021 Y278.525 Z-20.500 F900.000
G1 X97.021 Y280.525 Z-22.500 F900.000
G1 X97.021 Y389.564 Z-22.500 F900.000
G1 X97.021 Y391.564 Z-20.500 F900.000
G1 X97.021 Y403.524 Z-20.500 F900.000
G1 X97.021 Y405.524 Z-22.500 F900.000
G1 X97.021 Y460.044 Z-22.500 F900.000
G2 X100.021 Y463.044 Z-22.500 I3.000 J0.000 F900.000
G1 X199.993 Y463.044 Z-22.500 F900.000
G2 X202.114 Y462.165 Z-22.500 I0.000 J-3.000 F900.000
G0 X202.114 Y462.165 Z10.000
(finish operation: blockOutside)
(begin operation: smalllevelOutside)
(machine: not set, mm/min)
G0 Z10.000
G0 X68.211 Y454.359 Z10.000
G0 X68.211 Y454.359 Z3.000
G1 X68.211 Y454.359 Z0.000 F900.000
G2 X68.918 Y451.320 Z0.000 I-12.355 J-4.477 F900.000
G1 X92.062 Y219.803 Z0.000 F900.000
G2 X80.576 Y206.961 Z0.000 I-11.627 J-1.158 F900.000
G1 X0.068 Y206.958 Z0.000 F900.000
G2 X-2.932 Y209.958 Z0.000 I0.000 J3.000 F900.000
G1 X-2.932 Y460.023 Z0.000 F900.000
G2 X0.068 Y463.023 Z0.000 I3.000 J0.000 F900.000
G1 X55.861 Y463.023 Z0.000 F900.000
G2 X68.211 Y454.359 Z0.000 I-0.004 J-13.141 F900.000
G1 X68.211 Y454.359 Z-3.000 F900.000
G2 X68.918 Y451.320 Z-3.000 I-12.355 J-4.477 F900.000
G1 X92.062 Y219.803 Z-3.000 F900.000
G2 X80.576 Y206.961 Z-3.000 I-11.627 J-1.158 F900.000
G1 X0.068 Y206.958 Z-3.000 F900.000
G2 X-2.932 Y209.958 Z-3.000 I0.000 J3.000 F900.000
G1 X-2.932 Y460.023 Z-3.000 F900.000
G2 X0.068 Y463.023 Z-3.000 I3.000 J0.000 F900.000
G1 X55.861 Y463.023 Z-3.000 F900.000
G2 X68.211 Y454.359 Z-3.000 I-0.004 J-13.141 F900.000
G1 X68.211 Y454.359 Z-6.000 F900.000
G2 X68.918 Y451.320 Z-6.000 I-12.355 J-4.477 F900.000
G1 X92.062 Y219.803 Z-6.000 F900.000
G2 X80.576 Y206.961 Z-6.000 I-11.627 J-1.158 F900.000
G1 X0.068 Y206.958 Z-6.000 F900.000
G2 X-2.932 Y209.958 Z-6.000 I0.000 J3.000 F900.000
G1 X-2.932 Y460.023 Z-6.000 F900.000
G2 X0.068 Y463.023 Z-6.000 I3.000 J0.000 F900.000
G1 X55.861 Y463.023 Z-6.000 F900.000
G2 X68.211 Y454.359 Z-6.000 I-0.004 J-13.141 F900.000
G1 X68.211 Y454.359 Z-9.000 F900.000
G2 X68.918 Y451.320 Z-9.000 I-12.355 J-4.477 F900.000
G1 X92.062 Y219.803 Z-9.000 F900.000
G2 X80.576 Y206.961 Z-9.000 I-11.627 J-1.158 F900.000
G1 X0.068 Y206.958 Z-9.000 F900.000
G2 X-2.932 Y209.958 Z-9.000 I0.000 J3.000 F900.000
G1 X-2.932 Y460.023 Z-9.000 F900.000
G2 X0.068 Y463.023 Z-9.000 I3.000 J0.000 F900.000
G1 X55.861 Y463.023 Z-9.000 F900.000
G2 X68.211 Y454.359 Z-9.000 I-0.004 J-13.141 F900.000
G1 X68.211 Y454.359 Z-12.000 F900.000
G2 X68.918 Y451.320 Z-12.000 I-12.355 J-4.477 F900.000
G1 X92.062 Y219.803 Z-12.000 F900.000
G2 X80.576 Y206.961 Z-12.000 I-11.627 J-1.158 F900.000
G1 X0.068 Y206.958 Z-12.000 F900.000
G2 X-2.932 Y209.958 Z-12.000 I0.000 J3.000 F900.000
G1 X-2.932 Y460.023 Z-12.000 F900.000
G2 X0.068 Y463.023 Z-12.000 I3.000 J0.000 F900.000
G1 X55.861 Y463.023 Z-12.000 F900.000
G2 X68.211 Y454.359 Z-12.000 I-0.004 J-13.141 F900.000
G1 X68.211 Y454.359 Z-15.000 F900.000
G2 X68.918 Y451.320 Z-15.000 I-12.355 J-4.477 F900.000
G1 X92.062 Y219.803 Z-15.000 F900.000
G2 X80.576 Y206.961 Z-15.000 I-11.627 J-1.158 F900.000
G1 X0.068 Y206.958 Z-15.000 F900.000
G2 X-2.932 Y209.958 Z-15.000 I0.000 J3.000 F900.000
G1 X-2.932 Y460.023 Z-15.000 F900.000
G2 X0.068 Y463.023 Z-15.000 I3.000 J0.000 F900.000
G1 X55.861 Y463.023 Z-15.000 F900.000
G2 X68.211 Y454.359 Z-15.000 I-0.004 J-13.141 F900.000
G1 X68.211 Y454.359 Z-18.000 F900.000
G2 X68.918 Y451.320 Z-18.000 I-12.355 J-4.477 F900.000
G1 X92.062 Y219.803 Z-18.000 F900.000
G2 X80.576 Y206.961 Z-18.000 I-11.627 J-1.158 F900.000
G1 X0.068 Y206.958 Z-18.000 F900.000
G2 X-2.932 Y209.958 Z-18.000 I0.000 J3.000 F900.000
G1 X-2.932 Y460.023 Z-18.000 F900.000
G2 X0.068 Y463.023 Z-18.000 I3.000 J0.000 F900.000
G1 X55.861 Y463.023 Z-18.000 F900.000
G2 X68.211 Y454.359 Z-18.000 I-0.004 J-13.141 F900.000
G1 X68.211 Y454.359 Z-21.000 F900.000
G2 X68.918 Y451.320 Z-21.000 I-12.355 J-4.477 F900.000
G1 X74.060 Y399.888 Z-21.000 F900.000
G1 X74.109 Y399.391 Z-20.500 F900.000
G1 X75.299 Y387.490 Z-20.500 F900.000
G1 X75.349 Y386.992 Z-21.000 F900.000
G1 X85.631 Y284.130 Z-21.000 F900.000
G1 X85.681 Y283.632 Z-20.500 F900.000
G1 X86.871 Y271.732 Z-20.500 F900.000
G1 X86.920 Y271.234 Z-21.000 F900.000
G1 X92.062 Y219.803 Z-21.000 F900.000
G2 X80.576 Y206.961 Z-21.000 I-11.627 J-1.158 F900.000
G1 X0.068 Y206.958 Z-21.000 F900.000
G2 X-2.932 Y209.958 Z-21.000 I0.000 J3.000 F900.000
G1 X-2.932 Y264.790 Z-21.000 F900.000
G1 X-2.932 Y265.290 Z-20.500 F900.000
G1 X-2.932 Y277.250 Z-20.500 F900.000
G1 X-2.932 Y277.750 Z-21.000 F900.000
G1 X-2.932 Y387.910 Z-21.000 F900.000
G1 X-2.932 Y388.410 Z-20.500 F900.000
G1 X-2.932 Y400.370 Z-20.500 F900.000
G1 X-2.932 Y400.870 Z-21.000 F900.000
G1 X-2.932 Y460.023 Z-21.000 F900.000
G2 X0.068 Y463.023 Z-21.000 I3.000 J0.000 F900.000
G1 X24.490 Y463.023 Z-21.000 F900.000
G1 X24.990 Y463.023 Z-20.500 F900.000
G1 X36.950 Y463.023 Z-20.500 F900.000
G1 X37.450 Y463.023 Z-21.000 F900.000
G1 X55.861 Y463.023 Z-21.000 F900.000
G2 X68.211 Y454.359 Z-21.000 I-0.004 J-13.141 F900.000
G1 X68.211 Y454.359 Z-22.500 F900.000
G2 X68.918 Y451.320 Z-22.500 I-12.355 J-4.477 F900.000
G1 X73.910 Y401.381 Z-22.500 F900.000
G1 X74.109 Y399.391 Z-20.500 F900.000
G1 X75.299 Y387.490 Z-20.500 F900.000
G1 X75.498 Y385.500 Z-22.500 F900.000
G1 X85.482 Y285.622 Z-22.500 F900.000
G1 X85.681 Y283.632 Z-20.500 F900.000
G1 X86.871 Y271.732 Z-20.500 F900.000
G1 X87.070 Y269.741 Z-22.500 F900.000
G1 X92.062 Y219.803 Z-22.500 F900.000
G2 X80.576 Y206.961 Z-22.500 I-11.627 J-1.158 F900.000
G1 X0.068 Y206.958 Z-22.500 F900.000
G2 X-2.932 Y209.958 Z-22.500 I0.000 J3.000 F900.000
G1 X-2.932 Y263.290 Z-22.500 F900.000
G1 X-2.932 Y265.290 Z-20.500 F900.000
G1 X-2.932 Y277.250 Z-20.500 F900.000
G1 X-2.932 Y279.250 Z-22.500 F900.000
G1 X-2.932 Y386.410 Z-22.500 F900.000
G1 X-2.932 Y388.410 Z-20.500 F900.000
G1 X-2.932 Y400.370 Z-20.500 F900.000
G1 X-2.932 Y402.370 Z-22.500 F900.000
G1 X-2.932 Y460.023 Z-22.500 F900.000
G2 X0.068 Y463.023 Z-22.500 I3.000 J0.000 F900.000
G1 X22.990 Y463.023 Z-22.500 F900.000
G1 X24.990 Y463.023 Z-20.500 F900.000
G1 X36.950 Y463.023 Z-20.500 F900.000
G1 X38.950 Y463.023 Z-22.500 F900.000
G1 X55.861 Y463.023 Z-22.500 F900.000
G2 X68.211 Y454.359 Z-22.500 I-0.004 J-13.141 F900.000
G0 X68.211 Y454.359 Z10.000
(finish operation: smalllevelOutside)
(begin operation: handle)
(machine: not set, mm/min)
G0 Z10.000
G0 X279.170 Y129.145 Z10.000
G0 X279.170 Y129.145 Z3.000
G1 X279.170 Y129.145 Z0.000 F900.000
G2 X282.998 Y120.033 Z0.000 I-9.246 J-9.244 F900.000
G1 X283.001 Y15.482 Z0.000 F900.000
G2 X264.644 Y-2.980 Z0.000 I-18.465 J0.003 F900.000
G1 X200.022 Y-2.982 Z0.000 F900.000
G2 X197.022 Y0.018 Z0.000 I0.000 J3.000 F900.000
G1 X197.022 Y19.998 Z0.000 F900.000
G2 X200.022 Y22.998 Z0.000 I3.000 J0.000 F900.000
G1 X248.266 Y22.998 Z0.000 F900.000
G3 X256.009 Y30.741 Z0.000 I0.055 J7.688 F900.000
G1 X256.009 Y98.618 Z0.000 F900.000
G3 X247.672 Y106.955 Z0.000 I-8.282 J0.055 F900.000
G1 X200.022 Y106.955 Z0.000 F900.000
G2 X197.022 Y109.955 Z0.000 I0.000 J3.000 F900.000
G1 X197.022 Y129.975 Z0.000 F900.000
G2 X200.022 Y132.975 Z0.000 I3.000 J0.000 F900.000
G1 X269.928 Y132.975 Z0.000 F900.000
G2 X279.170 Y129.145 Z0.000 I-0.004 J-13.074 F900.000
G1 X279.170 Y129.145 Z-3.000 F900.000
G2 X282.998 Y120.033 Z-3.000 I-9.246 J-9.244 F900.000
G1 X283.001 Y15.482 Z-3.000 F900.000
G2 X264.644 Y-2.980 Z-3.000 I-18.465 J0.003 F900.000
G1 X200.022 Y-2.982 Z-3.000 F900.000
G2 X197.022 Y0.018 Z-3.000 I0.000 J3.000 F900.000
G1 X197.022 Y19.998 Z-3.000 F900.000
G2 X200.022 Y22.998 Z-3.000 I3.000 J0.000 F900.000
G1 X248.266 Y22.998 Z-3.000 F900.000
G3 X256.009 Y30.741 Z-3.000 I0.055 J7.688 F900.000
G1 X256.009 Y98.618 Z-3.000 F900.000
G3 X247.672 Y106.955 Z-3.000 I-8.282 J0.055 F900.000
G1 X200.022 Y106.955 Z-3.000 F900.000
G2 X197.022 Y109.955 Z-3.000 I0.000 J3.000 F900.000
G1 X197.022 Y129.975 Z-3.000 F900.000
G2 X200.022 Y132.975 Z-3.000 I3.000 J0.000 F900.000
G1 X269.928 Y132.975 Z-3.000 F900.000
G2 X279.170 Y129.145 Z-3.000 I-0.004 J-13.074 F900.000
G1 X279.170 Y129.145 Z-6.000 F900.000
G2 X282.998 Y120.033 Z-6.000 I-9.246 J-9.244 F900.000
G1 X283.001 Y15.482 Z-6.000 F900.000
G2 X264.644 Y-2.980 Z-6.000 I-18.465 J0.003 F900.000
G1 X200.022 Y-2.982 Z-6.000 F900.000
G2 X197.022 Y0.018 Z-6.000 I0.000 J3.000 F900.000
G1 X197.022 Y19.998 Z-6.000 F900.000
G2 X200.022 Y22.998 Z-6.000 I3.000 J0.000 F900.000
G1 X248.266 Y22.998 Z-6.000 F900.000
G3 X256.009 Y30.741 Z-6.000 I0.055 J7.688 F900.000
G1 X256.009 Y98.618 Z-6.000 F900.000
G3 X247.672 Y106.955 Z-6.000 I-8.282 J0.055 F900.000
G1 X200.022 Y106.955 Z-6.000 F900.000
G2 X197.022 Y109.955 Z-6.000 I0.000 J3.000 F900.000
G1 X197.022 Y129.975 Z-6.000 F900.000
G2 X200.022 Y132.975 Z-6.000 I3.000 J0.000 F900.000
G1 X269.928 Y132.975 Z-6.000 F900.000
G2 X279.170 Y129.145 Z-6.000 I-0.004 J-13.074 F900.000
G1 X279.170 Y129.145 Z-9.000 F900.000
G2 X282.998 Y120.033 Z-9.000 I-9.246 J-9.244 F900.000
G1 X283.001 Y15.482 Z-9.000 F900.000
G2 X264.644 Y-2.980 Z-9.000 I-18.465 J0.003 F900.000
G1 X200.022 Y-2.982 Z-9.000 F900.000
G2 X197.022 Y0.018 Z-9.000 I0.000 J3.000 F900.000
G1 X197.022 Y19.998 Z-9.000 F900.000
G2 X200.022 Y22.998 Z-9.000 I3.000 J0.000 F900.000
G1 X248.266 Y22.998 Z-9.000 F900.000
G3 X256.009 Y30.741 Z-9.000 I0.055 J7.688 F900.000
G1 X256.009 Y98.618 Z-9.000 F900.000
G3 X247.672 Y106.955 Z-9.000 I-8.282 J0.055 F900.000
G1 X200.022 Y106.955 Z-9.000 F900.000
G2 X197.022 Y109.955 Z-9.000 I0.000 J3.000 F900.000
G1 X197.022 Y129.975 Z-9.000 F900.000
G2 X200.022 Y132.975 Z-9.000 I3.000 J0.000 F900.000
G1 X269.928 Y132.975 Z-9.000 F900.000
G2 X279.170 Y129.145 Z-9.000 I-0.004 J-13.074 F900.000
G1 X279.170 Y129.145 Z-12.000 F900.000
G2 X282.998 Y120.033 Z-12.000 I-9.246 J-9.244 F900.000
G1 X283.001 Y15.482 Z-12.000 F900.000
G2 X264.644 Y-2.980 Z-12.000 I-18.465 J0.003 F900.000
G1 X200.022 Y-2.982 Z-12.000 F900.000
G2 X197.022 Y0.018 Z-12.000 I0.000 J3.000 F900.000
G1 X197.022 Y19.998 Z-12.000 F900.000
G2 X200.022 Y22.998 Z-12.000 I3.000 J0.000 F900.000
G1 X248.266 Y22.998 Z-12.000 F900.000
G3 X256.009 Y30.741 Z-12.000 I0.055 J7.688 F900.000
G1 X256.009 Y98.618 Z-12.000 F900.000
G3 X247.672 Y106.955 Z-12.000 I-8.282 J0.055 F900.000
G1 X200.022 Y106.955 Z-12.000 F900.000
G2 X197.022 Y109.955 Z-12.000 I0.000 J3.000 F900.000
G1 X197.022 Y129.975 Z-12.000 F900.000
G2 X200.022 Y132.975 Z-12.000 I3.000 J0.000 F900.000
G1 X269.928 Y132.975 Z-12.000 F900.000
G2 X279.170 Y129.145 Z-12.000 I-0.004 J-13.074 F900.000
G1 X279.170 Y129.145 Z-15.000 F900.000
G2 X282.998 Y120.033 Z-15.000 I-9.246 J-9.244 F900.000
G1 X283.001 Y15.482 Z-15.000 F900.000
G2 X264.644 Y-2.980 Z-15.000 I-18.465 J0.003 F900.000
G1 X200.022 Y-2.982 Z-15.000 F900.000
G2 X197.022 Y0.018 Z-15.000 I0.000 J3.000 F900.000
G1 X197.022 Y19.998 Z-15.000 F900.000
G2 X200.022 Y22.998 Z-15.000 I3.000 J0.000 F900.000
G1 X248.266 Y22.998 Z-15.000 F900.000
G3 X256.009 Y30.741 Z-15.000 I0.055 J7.688 F900.000
G1 X256.009 Y98.618 Z-15.000 F900.000
G3 X247.672 Y106.955 Z-15.000 I-8.282 J0.055 F900.000
G1 X200.022 Y106.955 Z-15.000 F900.000
G2 X197.022 Y109.955 Z-15.000 I0.000 J3.000 F900.000
G1 X197.022 Y129.975 Z-15.000 F900.000
G2 X200.022 Y132.975 Z-15.000 I3.000 J0.000 F900.000
G1 X269.928 Y132.975 Z-15.000 F900.000
G2 X279.170 Y129.145 Z-15.000 I-0.004 J-13.074 F900.000
G1 X279.170 Y129.145 Z-18.000 F900.000
G2 X282.998 Y120.033 Z-18.000 I-9.246 J-9.244 F900.000
G1 X283.001 Y15.482 Z-18.000 F900.000
G2 X264.644 Y-2.980 Z-18.000 I-18.465 J0.003 F900.000
G1 X200.022 Y-2.982 Z-18.000 F900.000
G2 X197.022 Y0.018 Z-18.000 I0.000 J3.000 F900.000
G1 X197.022 Y19.998 Z-18.000 F900.000
G2 X200.022 Y22.998 Z-18.000 I3.000 J0.000 F900.000
G1 X248.266 Y22.998 Z-18.000 F900.000
G3 X256.009 Y30.741 Z-18.000 I0.055 J7.688 F900.000
G1 X256.009 Y98.618 Z-18.000 F900.000
G3 X247.672 Y106.955 Z-18.000 I-8.282 J0.055 F900.000
G1 X200.022 Y106.955 Z-18.000 F900.000
G2 X197.022 Y109.955 Z-18.000 I0.000 J3.000 F900.000
G1 X197.022 Y129.975 Z-18.000 F900.000
G2 X200.022 Y132.975 Z-18.000 I3.000 J0.000 F900.000
G1 X269.928 Y132.975 Z-18.000 F900.000
G2 X279.170 Y129.145 Z-18.000 I-0.004 J-13.074 F900.000
G1 X279.170 Y129.145 Z-21.000 F900.000
G2 X282.998 Y120.033 Z-21.000 I-9.246 J-9.244 F900.000
G1 X282.999 Y74.238 Z-21.000 F900.000
G1 X282.999 Y73.738 Z-20.500 F900.000
G1 X282.999 Y61.778 Z-20.500 F900.000
G1 X282.999 Y61.278 Z-21.000 F900.000
G1 X283.001 Y15.482 Z-21.000 F900.000
G2 X264.644 Y-2.980 Z-21.000 I-18.465 J0.003 F900.000
G1 X200.022 Y-2.982 Z-21.000 F900.000
G2 X197.022 Y0.018 Z-21.000 I0.000 J3.000 F900.000
G1 X197.022 Y19.998 Z-21.000 F900.000
G2 X200.022 Y22.998 Z-21.000 I3.000 J0.000 F900.000
G1 X248.266 Y22.998 Z-21.000 F900.000
G3 X256.009 Y30.741 Z-21.000 I0.055 J7.688 F900.000
G1 X256.009 Y98.618 Z-21.000 F900.000
G3 X247.672 Y106.955 Z-21.000 I-8.282 J0.055 F900.000
G1 X200.022 Y106.955 Z-21.000 F900.000
G2 X197.022 Y109.955 Z-21.000 I0.000 J3.000 F900.000
G1 X197.022 Y129.975 Z-21.000 F900.000
G2 X200.022 Y132.975 Z-21.000 I3.000 J0.000 F900.000
G1 X228.495 Y132.975 Z-21.000 F900.000
G1 X228.995 Y132.975 Z-20.500 F900.000
G1 X240.955 Y132.975 Z-20.500 F900.000
G1 X241.455 Y132.975 Z-21.000 F900.000
G1 X269.928 Y132.975 Z-21.000 F900.000
G2 X279.170 Y129.145 Z-21.000 I-0.004 J-13.074 F900.000
G1 X279.170 Y129.145 Z-22.500 F900.000
G2 X282.998 Y120.033 Z-22.500 I-9.246 J-9.244 F900.000
G1 X282.999 Y75.738 Z-22.500 F900.000
G1 X282.999 Y73.738 Z-20.500 F900.000
G1 X282.999 Y61.778 Z-20.500 F900.000
G1 X282.999 Y59.778 Z-22.500 F900.000
G1 X283.001 Y15.482 Z-22.500 F900.000
G2 X264.644 Y-2.980 Z-22.500 I-18.465 J0.003 F900.000
G1 X200.022 Y-2.982 Z-22.500 F900.000
G2 X197.022 Y0.018 Z-22.500 I0.000 J3.000 F900.000
G1 X197.022 Y19.998 Z-22.500 F900.000
G2 X200.022 Y22.998 Z-22.500 I3.000 J0.000 F900.000
G1 X248.266 Y22.998 Z-22.500 F900.000
G3 X256.009 Y30.741 Z-22.500 I0.055 J7.688 F900.000
G1 X256.009 Y98.618 Z-22.500 F900.000
G3 X247.672 Y106.955 Z-22.500 I-8.282 J0.055 F900.000
G1 X200.022 Y106.955 Z-22.500 F900.000
G2 X197.022 Y109.955 Z-22.500 I0.000 J3.000 F900.000
G1 X197.022 Y129.975 Z-22.500 F900.000
G2 X200.022 Y132.975 Z-22.500 I3.000 J0.000 F900.000
G1 X226.995 Y132.975 Z-22.500 F900.000
G1 X228.995 Y132.975 Z-20.500 F900.000
G1 X240.955 Y132.975 Z-20.500 F900.000
G1 X242.955 Y132.975 Z-22.500 F900.000
G1 X269.928 Y132.975 Z-22.500 F900.000
G2 X279.170 Y129.145 Z-22.500 I-0.004 J-13.074 F900.000
G0 X279.170 Y129.145 Z10.000
(finish operation: handle)
(begin operation: biglevelOutside)
(machine: not set, mm/min)
G0 Z10.000
G0 X171.322 Y190.524 Z10.000
G0 X171.322 Y190.524 Z3.000
G1 X171.322 Y190.524 Z0.000 F900.000
G2 X175.061 Y179.501 Z0.000 I-22.309 J-13.714 F900.000
G1 X191.638 Y13.743 Z0.000 F900.000
G2 X176.605 Y-2.998 Z0.000 I-15.154 J-1.512 F900.000
G1 X0.000 Y-3.000 Z0.000 F900.000
G2 X-3.000 Y0.000 Z0.000 I0.000 J3.000 F900.000
G1 X-3.000 Y200.058 Z0.000 F900.000
G2 X0.001 Y203.058 Z0.000 I3.000 J0.000 F900.000
G1 X149.026 Y202.997 Z0.000 F900.000
G2 X171.322 Y190.524 Z0.000 I-0.013 J-26.186 F900.000
G1 X171.322 Y190.524 Z-3.000 F900.000
G2 X175.061 Y179.501 Z-3.000 I-22.309 J-13.714 F900.000
G1 X191.638 Y13.743 Z-3.000 F900.000
G2 X176.605 Y-2.998 Z-3.000 I-15.154 J-1.512 F900.000
G1 X0.000 Y-3.000 Z-3.000 F900.000
G2 X-3.000 Y0.000 Z-3.000 I0.000 J3.000 F900.000
G1 X-3.000 Y200.058 Z-3.000 F900.000
G2 X0.001 Y203.058 Z-3.000 I3.000 J0.000 F900.000
G1 X149.026 Y202.997 Z-3.000 F900.000
G2 X171.322 Y190.524 Z-3.000 I-0.013 J-26.186 F900.000
G1 X171.322 Y190.524 Z-6.000 F900.000
G2 X175.061 Y179.501 Z-6.000 I-22.309 J-13.714 F900.000
G1 X191.638 Y13.743 Z-6.000 F900.000
G2 X176.605 Y-2.998 Z-6.000 I-15.154 J-1.512 F900.000
G1 X0.000 Y-3.000 Z-6.000 F900.000
G2 X-3.000 Y0.000 Z-6.000 I0.000 J3.000 F900.000
G1 X-3.000 Y200.058 Z-6.000 F900.000
G2 X0.001 Y203.058 Z-6.000 I3.000 J0.000 F900.000
G1 X149.026 Y202.997 Z-6.000 F900.000
G2 X171.322 Y190.524 Z-6.000 I-0.013 J-26.186 F900.000
G1 X171.322 Y190.524 Z-9.000 F900.000
G2 X175.061 Y179.501 Z-9.000 I-22.309 J-13.714 F900.000
G1 X191.638 Y13.743 Z-9.000 F900.000
G2 X176.605 Y-2.998 Z-9.000 I-15.154 J-1.512 F900.000
G1 X0.000 Y-3.000 Z-9.000 F900.000
G2 X-3.000 Y0.000 Z-9.000 I0.000 J3.000 F900.000
G1 X-3.000 Y200.058 Z-9.000 F900.000
G2 X0.001 Y203.058 Z-9.000 I3.000 J0.000 F900.000
G1 X149.026 Y202.997 Z-9.000 F900.000
G2 X171.322 Y190.524 Z-9.000 I-0.013 J-26.186 F900.000
G1 X171.322 Y190.524 Z-12.000 F900.000
G2 X175.061 Y179.501 Z-12.000 I-22.309 J-13.714 F900.000
G1 X191.638 Y13.743 Z-12.000 F900.000
G2 X176.605 Y-2.998 Z-12.000 I-15.154 J-1.512 F900.000
G1 X0.000 Y-3.000 Z-12.000 F900.000
G2 X-3.000 Y0.000 Z-12.000 I0.000 J3.000 F900.000
G1 X-3.000 Y200.058 Z-12.000 F900.000
G2 X0.001 Y203.058 Z-12.000 I3.000 J0.000 F900.000
G1 X149.026 Y202.997 Z-12.000 F900.000
G2 X171.322 Y190.524 Z-12.000 I-0.013 J-26.186 F900.000
G1 X171.322 Y190.524 Z-15.000 F900.000
G2 X175.061 Y179.501 Z-15.000 I-22.309 J-13.714 F900.000
G1 X191.638 Y13.743 Z-15.000 F900.000
G2 X176.605 Y-2.998 Z-15.000 I-15.154 J-1.512 F900.000
G1 X0.000 Y-3.000 Z-15.000 F900.000
G2 X-3.000 Y0.000 Z-15.000 I0.000 J3.000 F900.000
G1 X-3.000 Y200.058 Z-15.000 F900.000
G2 X0.001 Y203.058 Z-15.000 I3.000 J0.000 F900.000
G1 X149.026 Y202.997 Z-15.000 F900.000
G2 X171.322 Y190.524 Z-15.000 I-0.013 J-26.186 F900.000
G1 X171.322 Y190.524 Z-18.000 F900.000
G2 X175.061 Y179.501 Z-18.000 I-22.309 J-13.714 F900.000
G1 X191.638 Y13.743 Z-18.000 F900.000
G2 X176.605 Y-2.998 Z-18.000 I-15.154 J-1.512 F900.000
G1 X0.000 Y-3.000 Z-18.000 F900.000
G2 X-3.000 Y0.000 Z-18.000 I0.000 J3.000 F900.000
G1 X-3.000 Y200.058 Z-18.000 F900.000
G2 X0.001 Y203.058 Z-18.000 I3.000 J0.000 F900.000
G1 X149.026 Y202.997 Z-18.000 F900.000
G2 X171.322 Y190.524 Z-18.000 I-0.013 J-26.186 F900.000
G1 X171.322 Y190.524 Z-21.000 F900.000
G2 X175.061 Y179.501 Z-21.000 I-22.309 J-13.714 F900.000
G1 X182.705 Y103.070 Z-21.000 F900.000
G1 X182.755 Y102.572 Z-20.500 F900.000
G1 X183.945 Y90.672 Z-20.500 F900.000
G1 X183.994 Y90.174 Z-21.000 F900.000
G1 X191.638 Y13.743 Z-21.000 F900.000
G2 X176.605 Y-2.998 Z-21.000 I-15.154 J-1.512 F900.000
G1 X94.782 Y-2.999 Z-21.000 F900.000
G1 X94.282 Y-2.999 Z-20.500 F900.000
G1 X82.322 Y-2.999 Z-20.500 F900.000
G1 X81.822 Y-2.999 Z-21.000 F900.000
G1 X0.000 Y-3.000 Z-21.000 F900.000
G2 X-3.000 Y0.000 Z-21.000 I0.000 J3.000 F900.000
G1 X-3.000 Y16.020 Z-21.000 F900.000
G1 X-3.000 Y16.520 Z-20.500 F900.000
G1 X-3.000 Y28.480 Z-20.500 F900.000
G1 X-3.000 Y28.980 Z-21.000 F900.000
G1 X-3.000 Y147.270 Z-21.000 F900.000
G1 X-3.000 Y147.770 Z-20.500 F900.000
G1 X-3.000 Y159.730 Z-20.500 F900.000
G1 X-3.000 Y160.230 Z-21.000 F900.000
G1 X-3.000 Y200.058 Z-21.000 F900.000
G2 X0.001 Y203.058 Z-21.000 I3.000 J0.000 F900.000
G1 X149.026 Y202.997 Z-21.000 F900.000
G2 X171.322 Y190.524 Z-21.000 I-0.013 J-26.186 F900.000
G1 X171.322 Y190.524 Z-22.500 F900.000
G2 X175.061 Y179.501 Z-22.500 I-22.309 J-13.714 F900.000
G1 X182.555 Y104.562 Z-22.500 F900.000
G1 X182.755 Y102.572 Z-20.500 F900.000
G1 X183.945 Y90.672 Z-20.500 F900.000
G1 X184.144 Y88.682 Z-22.500 F900.000
G1 X191.638 Y13.743 Z-22.500 F900.000
G2 X176.605 Y-2.998 Z-22.500 I-15.154 J-1.512 F900.000
G1 X96.282 Y-2.999 Z-22.500 F900.000
G1 X94.282 Y-2.999 Z-20.500 F900.000
G1 X82.322 Y-2.999 Z-20.500 F900.000
G1 X80.322 Y-2.999 Z-22.500 F900.000
G1 X0.000 Y-3.000 Z-22.500 F900.000
G2 X-3.000 Y0.000 Z-22.500 I0.000 J3.000 F900.000
G1 X-3.000 Y14.520 Z-22.500 F900.000
G1 X-3.000 Y16.520 Z-20.500 F900.000
G1 X-3.000 Y28.480 Z-20.500 F900.000
G1 X-3.000 Y30.480 Z-22.500 F900.000
G1 X-3.000 Y145.770 Z-22.500 F900.000
G1 X-3.000 Y147.770 Z-20.500 F900.000
G1 X-3.000 Y159.730 Z-20.500 F900.000
G1 X-3.000 Y161.730 Z-22.500 F900.000
G1 X-3.000 Y200.058 Z-22.500 F900.000
G2 X0.001 Y203.058 Z-22.500 I3.000 J0.000 F900.000
G1 X149.026 Y202.997 Z-22.500 F900.000
G2 X171.322 Y190.524 Z-22.500 I-0.013 J-26.186 F900.000
G0 X171.322 Y190.524 Z10.000
(finish operation: biglevelOutside)
(begin postamble)
M05
G17 G54 G90 G80 G40
M2
