%
(MDF_HOLES_FINISH)
(7MM DRILL)
(T4  D=7. CR=0. TAPER=118DEG - ZMIN=-24. - DRILL)
N10 G90 G94 G17 G91.1
N15 G21
N20 G53 G0 Z0.
(MDF HOLES)
N25 M9
N30 T4 M6
N35 S12000 M3
N40 G54
N45 G0 X1120. Y20.
N50 G43 Z5. H4
N55 G0 Z3.
N60 G98 G81 X1120. Y20. Z-24. R0. F150.
N65 Y220.
N70 Y420.
N75 Y620.
N80 Y820.
N85 Y1020.
N90 Y1220.
N95 Y1420.
N100 Y1620.
N105 Y1820.
N110 Y2020.
N115 Y2220.
N120 Y2420.
N125 X780.
N130 Y2220.
N135 Y2020.
N140 Y1820.
N145 Y1620.
N150 Y1420.
N155 Y1220.
N160 Y1020.
N165 Y820.
N170 Y620.
N175 Y420.
N180 Y220.
N185 Y20.
N190 X440.
N195 Y220.
N200 Y420.
N205 Y620.
N210 Y820.
N215 Y1020.
N220 Y1220.
N225 Y1420.
N230 Y1620.
N235 Y1820.
N240 Y2020.
N245 Y2220.
N250 Y2420.
N255 X100.
N260 Y2220.
N265 Y2020.
N270 Y1820.
N275 Y1620.
N280 Y1420.
N285 Y1220.
N290 Y1020.
N295 Y820.
N300 Y620.
N305 Y420.
N310 Y220.
N315 Y20.
N320 G80
N325 G0 Z5.
N330 G53 Z0.
N335 M30
%
