%
(1001)
(T5  D=19.05 CR=9.525 - ZMIN=-71.904 - BALL END MILL)
N10 G90 G94 G17 G91.1
N15 G21
N20 G53 G0 Z0.
(PARALLEL1 4)
N25 M9
N30 T5 M6
N35 S24000 M3
N40 G54
N45 G0 X299.925 Y1020.374
N50 G43 Z10. H5
N55 G1 Z-23.095 F5000.
N60 G19 G2 Y1018.469 Z-25. J-1.905 K0. F1000.
N65 G1 Y630.494 F5000.
N70 G2 Y628.589 Z-23.095 J0. K1.905 F1000.
N75 G1 Z5. F5000.
N80 X284.929 Y482.864
N85 Z-23.095
N90 G3 Y484.769 Z-25. J1.905 K0. F1000.
N95 G1 Y1245.031 F5000.
N100 G3 Y1246.937 Z-23.095 J0. K1.905 F1000.
N105 G1 Z5. F5000.
N110 X269.932 Y1360.866
N115 Z-23.095
N120 G2 Y1358.961 Z-25. J-1.905 K0. F1000.
N125 G1 Y339.044 F5000.
N130 G2 Y337.139 Z-23.095 J0. K1.905 F1000.
N135 G1 Z5. F5000.
N140 X254.936 Y248.463
N145 Z-23.095
N150 G3 Y250.368 Z-25. J1.905 K0. F1000.
N155 G1 Y1423.407 F5000.
N160 G3 Y1425.312 Z-23.095 J0. K1.905 F1000.
N165 G1 Z5. F5000.
N170 X239.94 Y1478.866
N175 Z-23.095
N180 G2 Y1476.959 Z-25. J-1.905 K0. F1000.
N185 G1 Y1026.893 Z-24.524 F5000.
N190 Y765.514 Z-19.798
N195 Y583.43 Z-18.986
N200 Y465.957 Z-20.822
N205 Y383.726 Z-24.889
N210 Y181.461 Z-25.
N215 G2 Y179.555 Z-23.095 J-0.001 K1.905 F1000.
N220 G1 Z5. F5000.
N225 X224.944 Y110.649
N230 Z-23.095
N235 G3 Y112.554 Z-25. J1.905 K0. F1000.
N240 G1 Y257.381 F5000.
N245 Y276.631 Z-23.009
N250 Y335.184 Z-18.474
N255 Y426.226 Z-15.092
N260 Y573.068 Z-13.974
N265 Y810.951 Z-16.203
N270 Y1227.615 Z-24.473
N275 Y1510.896 Z-25.
N280 G3 Y1512.804 Z-23.095 J0.004 K1.905 F1000.
N285 G1 Z5. F5000.
N290 X209.948 Y1546.742
N295 Z-23.095
N300 G2 Y1544.833 Z-25. J-1.905 K0. F1000.
N305 G1 Y1372.547 Z-24.614 F5000.
N310 Y1249.2 Z-21.004
N315 Y700.012 Z-11.624
N320 Y476.813 Z-10.205
N325 Y356.402 Z-11.747
N330 Y259.487 Z-15.711
N335 Y206.991 Z-20.171
N340 Y180.397 Z-24.187
N345 Y176.425 Z-25.
N350 Y71.461
N355 G2 Y71.041 Z-24.903 J0. K0.952
N360 G3 Y70.622 Z-24.806 J-0.419 K-0.855
N365 G1 Y61.759
N370 G17 G2 X207.09 Y58.901 I-2.858 J0.
N375 G1 X197.809
N380 G2 X194.951 Y61.759 I0. J2.858
N385 G19 G2 Y62.178 Z-24.903 J0. K-0.952
N390 G3 Y62.597 Z-25. J0.419 K0.855
N395 G1 Y121.324
N400 Y126.628 Z-21.523
N405 Y142.365 Z-18.803
N410 Y176.863 Z-15.197
N415 Y253.22 Z-10.854
N420 Y391.252 Z-7.43
N425 Y579.209 Z-7.836
N430 Y1284.049 Z-18.645
N435 Y1410.333 Z-21.485
N440 Y1454.398 Z-24.638
N445 Y1571.872 Z-25.
N450 G3 Y1572.294 Z-24.903 J0.003 K0.952
N455 G2 Y1572.713 Z-24.806 J0.419 K-0.855
N460 G1 Y1588.874
N465 G17 G3 X192.094 Y1591.731 I-2.857 J0.
N470 G1 X182.813
N475 G3 X179.955 Y1588.874 I0. J-2.858
N480 G19 G3 Y1588.455 Z-24.903 J0. K-0.953
N485 G2 Y1588.032 Z-25. J-0.419 K0.855
N490 G1 Y1504.1 Z-24.701
N495 Y1480.169 Z-20.966
N500 Y1430.243 Z-18.337
N505 Y972.097 Z-12.105
N510 Y537.445 Z-5.374
N515 Y372.982 Z-5.043
N520 Y226.141 Z-8.314
N525 Y135.099 Z-12.934
N530 Y124.901 Z-14.492
N535 Y116.35 Z-19.205
N540 Y110.254 Z-25.
N545 Y53.733
N550 G2 Y53.314 Z-24.903 J0. K0.952
N555 G3 Y52.895 Z-24.806 J-0.419 K-0.855
N560 G1 Y44.031
N565 G17 G2 X177.098 Y41.174 I-2.857 J0.
N570 G1 X167.816
N575 G2 X164.959 Y44.031 I0. J2.858
N580 G19 G2 Y44.45 Z-24.903 J0. K-0.952
N585 G3 Y44.87 Z-25. J0.419 K0.855
N590 G1 Y101.154
N595 Y104.668 Z-20.94
N600 Y111.256 Z-15.855
N605 Y115.998 Z-13.467
N610 Y127.32 Z-9.946
N615 Y213.172 Z-6.07
N620 Y365.888 Z-3.009
N625 Y509.793 Z-3.401
N630 Y1108.907 Z-13.001
N635 Y1456.922 Z-15.93
N640 Y1505.38 Z-18.049
N645 Y1522.783 Z-20.35
N650 Y1537.685 Z-24.599
N655 Y1604.193 Z-25.
N660 G3 Y1604.617 Z-24.903 J0.006 K0.952
N665 G2 Y1605.037 Z-24.806 J0.419 K-0.855
N670 G1 Y1621.191
N675 G17 G3 X162.101 Y1624.049 I-2.857 J0.
N680 G1 X152.82
N685 G3 X149.963 Y1621.191 I0. J-2.858
N690 G19 G3 Y1620.772 Z-24.903 J0. K-0.952
N695 G2 Y1620.353 Z-25. J-0.419 K0.855
N700 G1 Y1563.582
N705 Y1557.897 Z-21.657
N710 Y1552.67 Z-19.654
N715 Y1541.626 Z-17.076
N720 Y1524.138 Z-15.123
N725 Y1471.275 Z-13.729
N730 Y1202.465 Z-13.003
N735 Y691.456 Z-4.744
N740 Y406.583 Z-1.15
N745 Y245.057 Z-3.054
N750 Y128.318 Z-7.323
N755 Y114.806 Z-10.357
N760 Y104.003 Z-15.729
N765 Y95.523 Z-24.182
N770 Y94.966 Z-25.
N775 Y40.
N780 G2 Y39.581 Z-24.903 J0. K0.952
N785 G3 Y39.162 Z-24.806 J-0.419 K-0.855
N790 G17 G2 X147.105 Y36.304 I-2.857 J0.
N795 G1 X137.824
N800 G2 X134.966 Y39.162 I0. J2.858
N805 G19 G2 Y39.581 Z-24.903 J0. K-0.952
N810 G3 Y40. Z-25. J0.419 K0.855
N815 G1 Y91.683
N820 Y94.455 Z-21.087
N825 Y100.407 Z-15.1
N830 Y104.875 Z-12.072
N835 Y109.671 Z-9.719
N840 Y114.653 Z-7.992
N845 Y126.391 Z-5.694
N850 Y189.533 Z-2.817
N855 Y324.627 Z-0.251
N860 Y459.721 Z-0.411
N865 Y932.552 Z-8.156
N870 Y1258.54 Z-12.493
N875 Y1528.008 Z-12.071
N880 Y1557.376 Z-14.01
N885 Y1568.538 Z-16.33
N890 Y1575.325 Z-18.893
N895 Y1583.121 Z-24.689
N900 Y1636.513 Z-25.
N905 G3 Y1636.938 Z-24.903 J0.005 K0.952
N910 G2 Y1637.357 Z-24.806 J0.419 K-0.855
N915 G1 Y1653.516
N920 G17 G3 X132.109 Y1656.374 I-2.857 J0.
N925 G1 X122.828
N930 G3 X119.97 Y1653.516 I0. J-2.858
N935 G19 G3 Y1653.097 Z-24.903 J0. K-0.952
N940 G2 Y1652.674 Z-25. J-0.419 K0.855
N945 G1 Y1599.366 Z-24.791
N950 Y1593.703 Z-18.387
N955 Y1590.186 Z-16.241
N960 Y1582.358 Z-13.275
N965 Y1565.228 Z-10.696
N970 Y1524.113 Z-10.052
N975 Y1321.29 Z-11.888
N980 Y1048.165 Z-9.39
N985 Y449.05 Z0.562
N990 Y293.398 Z0.651
N995 Y170.051 Z-1.924
N1000 Y125.999 Z-4.106
N1005 Y115.398 Z-5.91
N1010 Y106.458 Z-9.166
N1015 Y96.933 Z-15.99
N1020 Y90.21 Z-25.
N1025 Y40.
N1030 G2 Y39.581 Z-24.903 J0. K0.952
N1035 G3 Y39.162 Z-24.806 J-0.419 K-0.855
N1040 G17 G2 X117.113 Y36.304 I-2.858 J0.
N1045 G1 X107.831
N1050 G2 X104.974 Y39.162 I0. J2.858
N1055 G19 G2 Y39.581 Z-24.903 J0. K-0.952
N1060 G3 Y40. Z-25. J0.419 K0.855
N1065 G1 Y89.866
N1070 Y92.904 Z-19.362
N1075 Y100.153 Z-11.454
N1080 Y110.533 Z-5.807
N1085 Y119.657 Z-3.555
N1090 Y144.33 Z-1.679
N1095 Y255.93 Z1.229
N1100 Y423.329 Z1.491
N1105 Y1131.106 Z-9.915
N1110 Y1370.828 Z-11.074
N1115 Y1544.101 Z-8.335
N1120 Y1582.28 Z-8.654
N1125 Y1593.755 Z-10.315
N1130 Y1600.138 Z-12.308
N1135 Y1608.387 Z-17.645
N1140 Y1612.678 Z-24.707
N1145 Y1666.022 Z-25.
N1150 G3 Y1666.447 Z-24.903 J0.005 K0.952
N1155 G2 Y1666.866 Z-24.806 J0.419 K-0.855
N1160 G1 Y1672.632
N1165 G17 G3 X102.116 Y1675.49 I-2.857 J0.
N1170 G1 X92.835
N1175 G3 X89.978 Y1672.632 I0. J-2.858
N1180 G19 G3 Y1672.213 Z-24.903 J0. K-0.952
N1185 G2 Y1671.794 Z-25. J-0.419 K0.855
N1190 G1 Y1623.858
N1195 Y1621.133 Z-17.632
N1200 Y1615.23 Z-11.89
N1205 Y1605.676 Z-8.038
N1210 Y1590.558 Z-6.336
N1215 Y1396.727 Z-10.282
N1220 Y1175.171 Z-9.872
N1225 Y749.33 Z-3.122
N1230 Y399.847 Z2.21
N1235 Y232.447 Z1.706
N1240 Y135.532 Z-1.153
N1245 Y120.847 Z-2.295
N1250 Y111.596 Z-4.228
N1255 Y103.173 Z-8.044
N1260 Y94.957 Z-15.303
N1265 Y89.671 Z-24.527
N1270 Y88.23 Z-25.
N1275 Y40.
N1280 G2 Y39.581 Z-24.903 J0. K0.952
N1285 G3 Y39.162 Z-24.806 J-0.419 K-0.855
N1290 G17 G2 X87.12 Y36.304 I-2.857 J0.
N1295 G1 X77.839
N1300 G2 X74.981 Y39.162 I0. J2.858
N1305 G19 G2 Y39.581 Z-24.903 J0. K-0.952
N1310 G3 Y40. Z-25. J0.419 K0.855
N1315 G1 Y89.083
N1320 Y89.479 Z-24.304
N1325 Y95.025 Z-14.302
N1330 Y102.103 Z-7.798
N1335 Y112.02 Z-3.216
N1340 Y121.167 Z-1.464
N1345 Y141.724 Z-0.15
N1350 Y241.577 Z2.443
N1355 Y414.85 Z2.461
N1360 Y837.754 Z-4.383
N1365 Y1210.732 Z-9.741
N1370 Y1417.636 Z-9.538
N1375 Y1552.73 Z-6.117
N1380 Y1605.593 Z-4.557
N1385 Y1614.213 Z-5.507
N1390 Y1619.623 Z-6.983
N1395 Y1625.677 Z-10.197
N1400 Y1631.108 Z-16.531
N1405 Y1633.058 Z-24.692
N1410 Y1677.565 Z-25.
N1415 G3 Y1677.991 Z-24.903 J0.007 K0.952
N1420 G2 Y1678.41 Z-24.806 J0.419 K-0.855
N1425 G1 Y1684.175
N1430 G17 G3 X72.124 Y1687.033 I-2.857 J0.
N1435 G1 X62.843
N1440 G3 X59.985 Y1684.175 I0. J-2.858
N1445 G19 G3 Y1683.756 Z-24.903 J0. K-0.952
N1450 G2 Y1683.337 Z-25. J-0.419 K0.855
N1455 G1 Y1640.899
N1460 Y1639.835 Z-16.085
N1465 Y1635.626 Z-9.463
N1470 Y1628.257 Z-4.852
N1475 Y1623.399 Z-3.504
N1480 Y1614.031 Z-2.682
N1485 Y1473.797 Z-8.112
N1490 Y1301.783 Z-9.753
N1495 Y1022.783 Z-7.219
N1500 Y420.732 Z2.671
N1505 Y244.522 Z2.909
N1510 Y144.67 Z0.489
N1515 Y118.253 Z-1.257
N1520 Y110.268 Z-3.151
N1525 Y100.767 Z-8.096
N1530 Y93.208 Z-16.202
N1535 Y88.9 Z-25.
N1540 Y40.
N1545 G2 Y38.095 Z-23.095 J0. K1.905 F1000.
N1550 G1 Z5. F5000.
N1555 X44.989 Y-21.934
N1560 Z-23.095
N1565 G3 Y-20.029 Z-25. J1.905 K0. F1000.
N1570 G1 Y88.764 F5000.
N1575 Y91.528 Z-18.713
N1580 Y98.278 Z-9.743
N1585 Y107.789 Z-3.667
N1590 Y115.308 Z-1.373
N1595 Y141.739 Z0.702
N1600 Y235.718 Z3.12
N1605 Y406.054 Z3.004
N1610 Y1113.832 Z-8.206
N1615 Y1353.548 Z-9.343
N1620 Y1503.326 Z-6.923
N1625 Y1624.471 Z-0.996
N1630 Y1635.194 Z-2.625
N1635 Y1642.528 Z-7.145
N1640 Y1646.741 Z-14.103
N1645 Y1647.61 Z-25.
N1650 Y1780.
N1655 G3 Y1780.419 Z-24.903 J0. K0.952
N1660 G2 Y1780.838 Z-24.806 J0.419 K-0.855
N1665 G17 G3 X42.131 Y1783.696 I-2.858 J0.
N1670 G1 X32.85
N1675 G3 X29.993 Y1780.838 I0. J-2.857
N1680 G19 G3 Y1780.419 Z-24.903 J0. K-0.952
N1685 G2 Y1780. Z-25. J-0.419 K0.855
N1690 G1 Y1653.352
N1695 Y1652.615 Z-11.897
N1700 Y1648.716 Z-5.08
N1705 Y1641.745 Z-0.671
N1710 Y1637.796 Z0.296
N1715 Y1628.691 Z0.511
N1720 Y1538.016 Z-5.322
N1725 Y1408.795 Z-8.64
N1730 Y1203.064 Z-8.875
N1735 Y844.771 Z-3.902
N1740 Y410.119 Z3.085
N1745 Y236.846 Z3.332
N1750 Y142.867 Z0.977
N1755 Y119.372 Z-0.462
N1760 Y113.908 Z-1.426
N1765 Y108.882 Z-2.963
N1770 Y104.058 Z-5.237
N1775 Y97.565 Z-10.165
N1780 Y92.27 Z-17.115
N1785 Y88.819 Z-25.
N1790 Y-20.029
N1795 G2 Y-20.449 Z-24.903 J0. K0.952
N1800 G3 Y-20.868 Z-24.806 J-0.419 K-0.855
N1805 G17 G2 X27.135 Y-23.725 I-2.858 J0.
N1810 G1 X17.854
N1815 G2 X14.996 Y-20.868 I0. J2.858
N1820 G19 G2 Y-20.449 Z-24.903 J0. K-0.952
N1825 G3 Y-20.029 Z-25. J0.419 K0.855
N1830 G1 Y88.819
N1835 Y90. Z-21.76
N1840 Y95.988 Z-11.716
N1845 Y104.109 Z-5.066
N1850 Y115.227 Z-0.996
N1855 Y144.596 Z1.177
N1860 Y241.511 Z3.487
N1865 Y417.721 Z3.076
N1870 Y966.91 Z-5.889
N1875 Y1269.404 Z-9.081
N1880 Y1450.604 Z-7.815
N1885 Y1562.204 Z-3.91
N1890 Y1638.459 Z2.189
N1895 Y1647.797 Z1.127
N1900 Y1654.223 Z-3.139
N1905 Y1657.571 Z-9.267
N1910 Y1658.239 Z-25.
N1915 Y1780.
N1920 G3 Y1780.419 Z-24.903 J0. K0.952
N1925 G2 Y1780.838 Z-24.806 J0.419 K-0.855
N1930 G17 G3 X12.139 Y1783.696 I-2.858 J0.
N1935 G1 X2.858
N1940 G3 X0. Y1780.838 I0. J-2.857
N1945 G19 G3 Y1780.419 Z-24.903 J0. K-0.952
N1950 G2 Y1780. Z-25. J-0.419 K0.855
N1955 G1 Y1661.311
N1960 Y1661.058 Z-8.028
N1965 Y1658.121 Z-1.578
N1970 Y1653.128 Z2.419
N1975 Y1646.77 Z3.885
N1980 Y1597.433 Z-1.458
N1985 Y1524.012 Z-5.634
N1990 Y1412.413 Z-8.389
N1995 Y1242.973 Z-8.947
N2000 Y916.985 Z-5.046
N2005 Y417.723 Z3.096
N2010 Y241.513 Z3.522
N2015 Y144.597 Z1.216
N2020 Y115.229 Z-0.954
N2025 Y104.111 Z-5.022
N2030 Y95.991 Z-11.673
N2035 Y90.003 Z-21.723
N2040 Y88.65 Z-25.
N2045 Y-20.029
N2050 G2 Y-20.449 Z-24.903 J0. K0.952
N2055 G3 Y-20.868 Z-24.806 J-0.419 K-0.855
N2060 G17 G2 X-2.857 Y-23.725 I-2.857 J0.
N2065 G1 X-12.139
N2070 G2 X-14.996 Y-20.868 I0. J2.858
N2075 G19 G2 Y-20.449 Z-24.903 J0. K-0.952
N2080 G3 Y-20.029 Z-25. J0.419 K0.855
N2085 G1 Y88.663
N2090 Y90.006 Z-21.749
N2095 Y95.993 Z-11.712
N2100 Y104.114 Z-5.063
N2105 Y115.233 Z-0.995
N2110 Y144.601 Z1.178
N2115 Y241.517 Z3.487
N2120 Y417.727 Z3.076
N2125 Y972.789 Z-5.983
N2130 Y1272.346 Z-9.088
N2135 Y1451.691 Z-7.793
N2140 Y1563.291 Z-3.849
N2145 Y1638.03 Z2.165
N2150 Y1647.501 Z1.233
N2155 Y1653.967 Z-2.856
N2160 Y1657.571 Z-9.255
N2165 Y1658.229 Z-25.
N2170 Y1780.
N2175 G3 Y1780.419 Z-24.903 J0. K0.952
N2180 G2 Y1780.838 Z-24.806 J0.419 K-0.855
N2185 G17 G3 X-17.854 Y1783.696 I-2.858 J0.
N2190 G1 X-27.135
N2195 G3 X-29.992 Y1780.838 I0. J-2.857
N2200 G19 G3 Y1780.419 Z-24.903 J0. K-0.952
N2205 G2 Y1780. Z-25. J-0.419 K0.855
N2210 G1 Y1653.356
N2215 Y1652.615 Z-11.878
N2220 Y1648.616 Z-4.968
N2225 Y1642.406 Z-0.91
N2230 Y1632.703 Z0.635
N2235 Y1532.125 Z-5.573
N2240 Y1399.967 Z-8.744
N2245 Y1187.173 Z-8.754
N2250 Y861.184 Z-4.19
N2255 Y414.785 Z3.04
N2260 Y240.584 Z3.372
N2265 Y143.668 Z1.016
N2270 Y120.173 Z-0.368
N2275 Y114.472 Z-1.295
N2280 Y106.989 Z-3.746
N2285 Y98.002 Z-9.743
N2290 Y92.61 Z-16.536
N2295 Y88.765 Z-25.
N2300 Y-20.029
N2305 G2 Y-20.449 Z-24.903 J0. K0.952
N2310 G3 Y-20.868 Z-24.806 J-0.419 K-0.855
N2315 G17 G2 X-32.85 Y-23.725 I-2.858 J0.
N2320 G1 X-42.131
N2325 G2 X-44.989 Y-20.868 I0. J2.858
N2330 G19 G2 Y-20.449 Z-24.903 J0. K-0.952
N2335 G3 Y-20.029 Z-25. J0.419 K0.855
N2340 G1 Y88.767
N2345 Y91.621 Z-18.54
N2350 Y98.285 Z-9.737
N2355 Y107.794 Z-3.662
N2360 Y115.313 Z-1.37
N2365 Y141.744 Z0.705
N2370 Y235.723 Z3.123
N2375 Y406.06 Z3.006
N2380 Y1113.837 Z-8.205
N2385 Y1353.554 Z-9.342
N2390 Y1503.333 Z-6.923
N2395 Y1624.477 Z-0.995
N2400 Y1635.201 Z-2.623
N2405 Y1642.534 Z-7.141
N2410 Y1646.741 Z-14.079
N2415 Y1647.617 Z-25.
N2420 Y1780.
N2425 G3 Y1781.905 Z-23.095 J0. K1.905 F1000.
N2430 G1 Z5. F5000.
N2435 X-59.985 Y1685.242
N2440 Z-23.095
N2445 G2 Y1683.337 Z-25. J-1.905 K0. F1000.
N2450 G1 Y1640.903 F5000.
N2455 Y1639.835 Z-16.058
N2460 Y1635.354 Z-9.191
N2465 Y1627.761 Z-4.667
N2470 Y1623.405 Z-3.502
N2475 Y1614.045 Z-2.681
N2480 Y1473.812 Z-8.112
N2485 Y1301.79 Z-9.752
N2490 Y1022.79 Z-7.217
N2495 Y420.739 Z2.673
N2500 Y244.529 Z2.912
N2505 Y144.677 Z0.494
N2510 Y118.264 Z-1.251
N2515 Y110.283 Z-3.142
N2520 Y100.133 Z-8.582
N2525 Y92.846 Z-16.776
N2530 Y88.896 Z-25.
N2535 Y40.
N2540 G2 Y39.581 Z-24.903 J0. K0.952
N2545 G3 Y39.162 Z-24.806 J-0.419 K-0.855
N2550 G17 G2 X-62.842 Y36.304 I-2.857 J0.
N2555 G1 X-72.124
N2560 G2 X-74.981 Y39.162 I0. J2.858
N2565 G19 G2 Y39.581 Z-24.903 J0. K-0.952
N2570 G3 Y40. Z-25. J0.419 K0.855
N2575 G1 Y89.223
N2580 Y92.314 Z-18.251
N2585 Y98.044 Z-11.032
N2590 Y105.362 Z-5.865
N2595 Y116.814 Z-2.076
N2600 Y151.602 Z0.292
N2605 Y257.328 Z2.61
N2610 Y423.669 Z2.374
N2615 Y908.247 Z-5.628
N2620 Y1240.109 Z-9.929
N2625 Y1417.615 Z-9.537
N2630 Y1552.709 Z-6.118
N2635 Y1605.572 Z-4.554
N2640 Y1614.2 Z-5.5
N2645 Y1619.603 Z-6.969
N2650 Y1626.406 Z-10.739
N2655 Y1631.29 Z-16.869
N2660 Y1633.074 Z-25.
N2665 Y1677.565
N2670 G3 Y1677.985 Z-24.903 J0. K0.952
N2675 G2 Y1678.404 Z-24.806 J0.419 K-0.855
N2680 G17 G3 X-77.839 Y1681.261 I-2.857 J0.
N2685 G1 X-87.12
N2690 G3 X-89.977 Y1678.404 I0. J-2.858
N2695 G1 Y1672.632
N2700 G19 G3 Y1672.213 Z-24.903 J0. K-0.952
N2705 G2 Y1671.794 Z-25. J-0.419 K0.855
N2710 G1 Y1623.872
N2715 Y1621.133 Z-17.606
N2720 Y1615.848 Z-12.289
N2725 Y1607.243 Z-8.451
N2730 Y1592.887 Z-6.436
N2735 Y1542.961 Z-7.293
N2740 Y1393.183 Z-10.31
N2745 Y1169.276 Z-9.814
N2750 Y778.677 Z-3.657
N2755 Y405.699 Z2.171
N2760 Y238.299 Z1.8
N2765 Y136.244 Z-1.107
N2770 Y120.826 Z-2.288
N2775 Y111.575 Z-4.225
N2780 Y105.447 Z-6.741
N2785 Y98.527 Z-11.519
N2790 Y93.142 Z-17.792
N2795 Y89.418 Z-25.
N2800 Y40.
N2805 G2 Y39.581 Z-24.903 J0. K0.952
N2810 G3 Y39.162 Z-24.806 J-0.419 K-0.855
N2815 G17 G2 X-92.835 Y36.304 I-2.858 J0.
N2820 G1 X-102.116
N2825 G2 X-104.974 Y39.162 I0. J2.858
N2830 G19 G2 Y39.581 Z-24.903 J0. K-0.952
N2835 G3 Y40. Z-25. J0.419 K0.855
N2840 G1 Y89.869
N2845 Y92.921 Z-19.338
N2850 Y100.558 Z-11.131
N2855 Y110.546 Z-5.789
N2860 Y119.671 Z-3.54
N2865 Y144.342 Z-1.666
N2870 Y255.942 Z1.238
N2875 Y423.342 Z1.497
N2880 Y1131.119 Z-9.913
N2885 Y1370.801 Z-11.073
N2890 Y1544.074 Z-8.335
N2895 Y1582.253 Z-8.649
N2900 Y1593.736 Z-10.305
N2905 Y1601.58 Z-12.935
N2910 Y1608.387 Z-17.624
N2915 Y1612.695 Z-24.7
N2920 Y1666.022 Z-25.
N2925 G3 Y1666.447 Z-24.903 J0.005 K0.952
N2930 G2 Y1666.866 Z-24.806 J0.419 K-0.855
N2935 G17 G3 X-107.831 Y1669.724 I-2.857 J0.
N2940 G1 X-117.112
N2945 G3 X-119.97 Y1666.866 I0. J-2.858
N2950 G1 Y1653.516
N2955 G19 G3 Y1653.097 Z-24.903 J0. K-0.952
N2960 G2 Y1652.674 Z-25. J-0.419 K0.855
N2965 G1 Y1599.39 Z-24.792
N2970 Y1593.702 Z-18.368
N2975 Y1590.179 Z-16.224
N2980 Y1582.347 Z-13.264
N2985 Y1565.214 Z-10.691
N2990 Y1524.099 Z-10.05
N2995 Y1339.078 Z-11.883
N3000 Y1112.789 Z-10.304
N3005 Y440.254 Z0.66
N3010 Y281.665 Z0.545
N3015 Y161.255 Z-2.215
N3020 Y123.328 Z-4.45
N3025 Y115.405 Z-5.892
N3030 Y110.393 Z-7.448
N3035 Y102.408 Z-11.484
N3040 Y96.813 Z-16.102
N3045 Y93.187 Z-20.483
N3050 Y90.212 Z-25.
N3055 Y40.
N3060 G2 Y39.581 Z-24.903 J0. K0.952
N3065 G3 Y39.162 Z-24.806 J-0.419 K-0.855
N3070 G17 G2 X-122.827 Y36.304 I-2.857 J0.
N3075 G1 X-132.109
N3080 G2 X-134.966 Y39.162 I0. J2.858
N3085 G19 G2 Y39.581 Z-24.903 J0. K-0.952
N3090 G3 Y40. Z-25. J0.419 K0.855
N3095 G1 Y91.678
N3100 Y94.564 Z-20.931
N3105 Y100.399 Z-15.087
N3110 Y104.879 Z-12.05
N3115 Y112.162 Z-8.76
N3120 Y125.672 Z-5.786
N3125 Y186.611 Z-2.898
N3130 Y315.832 Z-0.315
N3135 Y453.863 Z-0.343
N3140 Y885.578 Z-7.322
N3145 Y1237.998 Z-12.353
N3150 Y1528.004 Z-12.068
N3155 Y1557.373 Z-14.003
N3160 Y1568.535 Z-16.318
N3165 Y1575.322 Z-18.875
N3170 Y1583.142 Z-24.68
N3175 Y1636.513 Z-25.
N3180 G3 Y1636.938 Z-24.903 J0.006 K0.952
N3185 G2 Y1637.358 Z-24.806 J0.419 K-0.855
N3190 G17 G3 X-137.824 Y1640.215 I-2.857 J0.
N3195 G1 X-147.105
N3200 G3 X-149.962 Y1637.358 I0. J-2.857
N3205 G1 Y1621.197
N3210 G19 G3 Y1620.777 Z-24.903 J0. K-0.952
N3215 G2 Y1620.353 Z-25. J-0.419 K0.855
N3220 G1 Y1563.181 Z-24.681
N3225 Y1558.192 Z-21.774
N3230 Y1552.967 Z-19.741
N3235 Y1541.922 Z-17.116
N3240 Y1527.372 Z-15.36
N3245 Y1480.382 Z-13.795
N3250 Y1190.735 Z-12.883
N3255 Y465.337 Z-1.566
N3260 Y339.053 Z-1.532
N3265 Y198.085 Z-4.369
N3270 Y126.294 Z-7.637
N3275 Y112.333 Z-11.231
N3280 Y104.445 Z-15.379
N3285 Y96.226 Z-23.193
N3290 Y94.921 Z-25.
N3295 Y40.
N3300 G2 Y39.581 Z-24.903 J0. K0.952
N3305 G3 Y39.162 Z-24.806 J-0.419 K-0.855
N3310 G17 G2 X-152.82 Y36.304 I-2.858 J0.
N3315 G1 X-162.101
N3320 G2 X-164.959 Y39.162 I0. J2.858
N3325 G1 Y44.031
N3330 G19 G2 Y44.45 Z-24.903 J0. K-0.952
N3335 G3 Y44.87 Z-25. J0.419 K0.855
N3340 G1 Y101.13
N3345 Y106.31 Z-19.329
N3350 Y110.723 Z-16.123
N3355 Y115.163 Z-13.788
N3360 Y127.372 Z-9.902
N3365 Y213.169 Z-6.043
N3370 Y365.884 Z-2.992
N3375 Y509.789 Z-3.388
N3380 Y1094.219 Z-12.786
N3385 Y1456.918 Z-15.926
N3390 Y1505.376 Z-18.041
N3395 Y1522.78 Z-20.337
N3400 Y1537.74 Z-24.6
N3405 Y1604.193 Z-25.
N3410 G3 Y1604.617 Z-24.903 J0.006 K0.952
N3415 G2 Y1605.037 Z-24.806 J0.419 K-0.855
N3420 G17 G3 X-167.816 Y1607.894 I-2.857 J0.
N3425 G1 X-177.097
N3430 G3 X-179.955 Y1605.037 I0. J-2.858
N3435 G1 Y1588.874
N3440 G19 G3 Y1588.455 Z-24.903 J0. K-0.952
N3445 G2 Y1588.032 Z-25. J-0.419 K0.855
N3450 G1 Y1504.161 Z-24.698
N3455 Y1480.172 Z-20.956
N3460 Y1430.246 Z-18.33
N3465 Y972.1 Z-12.096
N3470 Y537.448 Z-5.358
N3475 Y372.986 Z-5.02
N3480 Y226.144 Z-8.279
N3485 Y135.102 Z-12.881
N3490 Y124.898 Z-14.436
N3495 Y116.343 Z-19.124
N3500 Y110.148 Z-25.
N3505 Y53.733
N3510 G2 Y53.314 Z-24.903 J0. K0.952
N3515 G3 Y52.895 Z-24.806 J-0.419 K-0.855
N3520 G17 G2 X-182.812 Y50.037 I-2.857 J0.
N3525 G1 X-192.094
N3530 G2 X-194.951 Y52.895 I0. J2.857
N3535 G1 Y61.759
N3540 G19 G2 Y62.178 Z-24.903 J0. K-0.952
N3545 G3 Y62.597 Z-25. J0.419 K0.855
N3550 G1 Y121.051
N3555 Y125.648 Z-21.775
N3560 Y138.04 Z-19.297
N3565 Y174.04 Z-15.343
N3570 Y253.335 Z-10.804
N3575 Y391.366 Z-7.401
N3580 Y579.323 Z-7.818
N3585 Y1284.164 Z-18.639
N3590 Y1410.448 Z-21.481
N3595 Y1454.398 Z-24.623
N3600 Y1571.872 Z-25.
N3605 X-195.091 Y1572.755 Z-25.003
N3610 X-195.497 Y1573.551 Z-25.006
N3615 X-196.129 Y1574.183 Z-25.01
N3620 X-196.926 Y1574.589 Z-25.014
N3625 X-197.809 Y1574.729 Z-25.018
N3630 X-207.09 Z-25.055
N3635 X-207.973 Y1574.589 Z-25.059
N3640 X-208.77 Y1574.183 Z-25.061
N3645 X-209.402 Y1573.551 Z-25.062
N3650 X-209.808 Y1572.755
N3655 X-209.947 Y1571.871 Z-25.061
N3660 Y1544.833 Z-25.
N3665 Y1372.835 Z-24.615
N3670 Y1249.488 Z-20.998
N3675 Y700.299 Z-11.609
N3680 Y474.163 Z-10.179
N3685 Y353.753 Z-11.772
N3690 Y256.837 Z-15.797
N3695 Y207.211 Z-20.041
N3700 Y180.176 Z-24.072
N3705 Y172.879 Z-25.
N3710 Y71.461
N3715 G2 Y69.556 Z-23.095 J0. K1.905 F1000.
N3720 G1 Z5. F5000.
N3725 X-224.944 Y110.649
N3730 Z-23.095
N3735 G3 Y112.554 Z-25. J1.905 K0. F1000.
N3740 G1 Y255.198 F5000.
N3745 Y271.49 Z-23.454
N3750 Y332.802 Z-18.525
N3755 Y423.844 Z-15.092
N3760 Y570.686 Z-13.935
N3765 Y811.506 Z-16.187
N3770 Y1228.17 Z-24.471
N3775 Y1510.896 Z-25.
N3780 G3 Y1512.804 Z-23.095 J0.004 K1.905 F1000.
N3785 G1 Z5. F5000.
N3790 X-239.94 Y1478.866
N3795 Z-23.095
N3800 G2 Y1476.959 Z-25. J-1.905 K0. F1000.
N3805 G1 Y1028.156 Z-24.525 F5000.
N3810 Y766.777 Z-19.776
N3815 Y581.757 Z-18.944
N3820 Y464.283 Z-20.797
N3825 Y382.839 Z-24.842
N3830 Y181.461 Z-25.
N3835 G2 Y179.554 Z-23.095 J-0.001 K1.905 F1000.
N3840 G1 Z5. F5000.
N3845 X-254.936 Y248.462
N3850 Z-23.095
N3855 G3 Y250.367 Z-25. J1.905 K0. F1000.
N3860 G1 Y1423.407 F5000.
N3865 G3 Y1425.312 Z-23.095 J0. K1.905 F1000.
N3870 G1 Z5. F5000.
N3875 X-269.932 Y1360.866
N3880 Z-23.095
N3885 G2 Y1358.961 Z-25. J-1.905 K0. F1000.
N3890 G1 Y339.044 F5000.
N3895 G2 Y337.139 Z-23.095 J0. K1.905 F1000.
N3900 G1 Z5. F5000.
N3905 X-284.929 Y482.864
N3910 Z-23.095
N3915 G3 Y484.769 Z-25. J1.905 K0. F1000.
N3920 G1 Y1245.032 F5000.
N3925 G3 Y1246.937 Z-23.095 J0. K1.905 F1000.
N3930 G1 Z5. F5000.
N3935 X-299.925 Y1020.375
N3940 Z-23.095
N3945 G2 Y1018.47 Z-25. J-1.905 K0. F1000.
N3950 G1 Y630.494 F5000.
N3955 G2 Y628.589 Z-23.095 J0. K1.905 F1000.
N3960 G1 Z10. F5000.
N3965 G17
(PARALLEL1 6)
N3970 G0 X309.45 Y1020.568
N3975 G1 Z10. F5000.
N3980 Z-48.095
N3985 G19 G2 Y1018.663 Z-50. J-1.905 K0. F1000.
N3990 G1 Y630.005 F5000.
N3995 G2 Y628.1 Z-48.095 J0. K1.905 F1000.
N4000 G1 Z5. F5000.
N4005 X294.454 Y482.374
N4010 Z-48.095
N4015 G3 Y484.279 Z-50. J1.905 K0. F1000.
N4020 G1 Y1245.583 F5000.
N4025 G3 Y1247.488 Z-48.095 J0. K1.905 F1000.
N4030 G1 Z5. F5000.
N4035 X279.457 Y1361.961
N4040 Z-48.095
N4045 G2 Y1360.056 Z-50. J-1.905 K0. F1000.
N4050 G1 Y338.703 F5000.
N4055 G2 Y336.798 Z-48.095 J0. K1.905 F1000.
N4060 G1 Z5. F5000.
N4065 X264.461 Y247.436
N4070 Z-48.095
N4075 G3 Y249.341 Z-50. J1.905 K0. F1000.
N4080 G1 Y493.001 F5000.
N4085 Y497.226 Z-48.567
N4090 Y516.523 Z-44.434
N4095 Y544.849 Z-40.896
N4100 Y604.797 Z-36.88
N4105 Y700.168 Z-34.563
N4110 Y836.412 Z-35.078
N4115 Y999.905 Z-39.128
N4120 Y1111.625 Z-44.426
N4125 Y1168.193 Z-49.557
N4130 Y1424.417 Z-50.
N4135 G3 Y1426.325 Z-48.095 J0.003 K1.905 F1000.
N4140 G1 Z5. F5000.
N4145 X249.465 Y1480.793
N4150 Z-48.095
N4155 G2 Y1478.885 Z-50. J-1.905 K0. F1000.
N4160 G1 Y1305.111 Z-49.777 F5000.
N4165 Y1284.948 Z-44.989
N4170 Y1243.928 Z-39.909
N4175 Y1167.971 Z-35.246
N4180 Y971.78 Z-29.131
N4185 Y742.889 Z-25.369
N4190 Y579.396 Z-25.75
N4195 Y481.3 Z-28.779
N4200 Y422.715 Z-33.154
N4205 Y393.046 Z-37.261
N4210 Y374.149 Z-41.379
N4215 Y360.982 Z-46.701
N4220 Y356.555 Z-50.
N4225 Y180.434
N4230 G2 Y178.529 Z-48.095 J0. K1.905 F1000.
N4235 G1 Z5. F5000.
N4240 X234.468 Y109.622
N4245 Z-48.095
N4250 G3 Y111.527 Z-50. J1.905 K0. F1000.
N4255 G1 Y263.599 F5000.
N4260 Y264.124 Z-47.74
N4265 Y266.867 Z-43.592
N4270 Y273.787 Z-39.411
N4275 Y286.37 Z-35.102
N4280 Y303.06 Z-31.506
N4285 Y333.734 Z-27.384
N4290 Y390.945 Z-23.119
N4295 Y486.316 Z-19.926
N4300 Y630.129 Z-19.081
N4305 Y859.019 Z-21.494
N4310 Y1188.73 Z-28.759
N4315 Y1292.276 Z-33.176
N4320 Y1341.324 Z-37.724
N4325 Y1367.657 Z-42.848
N4330 Y1377.576 Z-46.416
N4335 Y1383.3 Z-49.716
N4340 Y1512.823 Z-50.
N4345 G3 Y1514.732 Z-48.095 J0.004 K1.905 F1000.
N4350 G1 Z5. F5000.
N4355 X219.472 Y1548.755
N4360 Z-48.095
N4365 G2 Y1546.845 Z-50. J-1.905 K0. F1000.
N4370 G1 Y1436.681 Z-49.737 F5000.
N4375 Y1432.4 Z-44.657
N4380 Y1421.061 Z-39.182
N4385 Y1401.697 Z-34.583
N4390 Y1364.982 Z-30.421
N4395 Y1291.41 Z-26.744
N4400 Y967.149 Z-19.686
N4405 Y645.613 Z-15.036
N4410 Y460.32 Z-14.842
N4415 Y354.05 Z-17.293
N4420 Y277.753 Z-21.591
N4425 Y242.878 Z-25.269
N4430 Y218.66 Z-29.612
N4435 Y203.967 Z-34.059
N4440 Y195.05 Z-39.041
N4445 Y192.135 Z-42.544
N4450 Y191.23 Z-50.
N4455 Y66.026
N4460 G2 Y65.606 Z-49.903 J0. K0.952
N4465 G3 Y65.187 Z-49.806 J-0.419 K-0.855
N4470 G1 Y56.324
N4475 G17 G2 X216.614 Y53.466 I-2.858 J0.
N4480 G1 X207.333
N4485 G2 X204.475 Y56.324 I0. J2.858
N4490 G19 G2 Y56.743 Z-49.903 J0. K-0.953
N4495 G3 Y57.162 Z-50. J0.419 K0.855
N4500 G1 Y131.756
N4505 Y132.281 Z-39.673
N4510 Y136.162 Z-34.883
N4515 Y146.988 Z-29.478
N4520 Y159.761 Z-25.908
N4525 Y190.793 Z-20.963
N4530 Y239.661 Z-16.811
N4535 Y337.757 Z-12.786
N4540 Y452.202 Z-11.073
N4545 Y670.193 Z-12.341
N4550 Y1313.266 Z-23.147
N4555 Y1400.462 Z-26.289
N4560 Y1438.595 Z-30.022
N4565 Y1454.36 Z-33.139
N4570 Y1464.312 Z-36.501
N4575 Y1468.628 Z-38.692
N4580 Y1474.79 Z-44.284
N4585 Y1476.405 Z-50.
N4590 Y1575.611
N4595 G3 Y1576.03 Z-49.903 J0. K0.952
N4600 G2 Y1576.449 Z-49.806 J0.419 K-0.855
N4605 G1 Y1592.61
N4610 G17 G3 X201.618 Y1595.467 I-2.857 J0.
N4615 G1 X192.337
N4620 G3 X189.479 Y1592.61 I0. J-2.857
N4625 G19 G3 Y1592.191 Z-49.903 J0. K-0.953
N4630 G2 Y1591.772 Z-50. J-0.419 K0.855
N4635 G1 Y1507.789
N4640 Y1507.3 Z-43.137
N4645 Y1503.337 Z-37.246
N4650 Y1494.121 Z-31.823
N4655 Y1487.607 Z-29.633
N4660 Y1477.196 Z-27.302
N4665 Y1455.571 Z-24.563
N4670 Y1401.073 Z-21.776
N4675 Y564.534 Z-8.919
N4680 Y384.691 Z-8.519
N4685 Y242.997 Z-11.883
N4690 Y163.975 Z-16.171
N4695 Y127.71 Z-20.002
N4700 Y121.217 Z-23.855
N4705 Y115.861 Z-31.198
N4710 Y113.609 Z-40.076
N4715 Y113.369 Z-50.
N4720 Y48.298
N4725 G2 Y47.879 Z-49.903 J0. K0.952
N4730 G3 Y47.46 Z-49.806 J-0.419 K-0.855
N4735 G1 Y38.596
N4740 G17 G2 X186.622 Y35.739 I-2.857 J0.
N4745 G1 X177.34
N4750 G2 X174.483 Y38.596 I0. J2.857
N4755 G19 G2 Y39.015 Z-49.903 J0. K-0.953
N4760 G3 Y39.434 Z-50. J0.419 K0.855
N4765 G1 Y103.718
N4770 Y103.823 Z-40.377
N4775 Y105.21 Z-32.65
N4780 Y109.998 Z-24.437
N4785 Y118.423 Z-17.886
N4790 Y129.452 Z-13.827
N4795 Y218.186 Z-9.559
N4800 Y370.78 Z-6.272
N4805 Y528.823 Z-6.641
N4810 Y989.329 Z-13.911
N4815 Y1291.791 Z-17.882
N4820 Y1452.559 Z-19.831
N4825 Y1493.432 Z-22.405
N4830 Y1509.438 Z-24.966
N4835 Y1521.88 Z-28.918
N4840 Y1529.119 Z-33.546
N4845 Y1533.168 Z-39.569
N4850 Y1533.73 Z-50.
N4855 Y1607.932
N4860 G3 Y1608.351 Z-49.903 J0. K0.952
N4865 G2 Y1608.771 Z-49.806 J0.419 K-0.855
N4870 G1 Y1624.931
N4875 G17 G3 X171.625 Y1627.789 I-2.857 J0.
N4880 G1 X162.344
N4885 G3 X159.486 Y1624.931 I0. J-2.857
N4890 G19 G3 Y1624.512 Z-49.903 J0. K-0.953
N4895 G2 Y1624.093 Z-50. J-0.419 K0.855
N4900 G1 Y1555.51
N4905 Y1554.864 Z-36.211
N4910 Y1551.653 Z-30.922
N4915 Y1544.123 Z-25.669
N4920 Y1536.205 Z-22.807
N4925 Y1523.119 Z-20.215
N4930 Y1490.42 Z-17.756
N4935 Y1373.25 Z-16.7
N4940 Y1092.587 Z-14.348
N4945 Y501.287 Z-4.784
N4950 Y362.318 Z-4.394
N4955 Y212.449 Z-7.286
N4960 Y127.977 Z-10.886
N4965 Y115.684 Z-14.323
N4970 Y105.925 Z-20.058
N4975 Y99.473 Z-27.662
N4980 Y96.018 Z-37.142
N4985 Y95.514 Z-50.
N4990 Y30.92
N4995 G2 Y30.501 Z-49.903 J0. K0.952
N5000 G3 Y30.081 Z-49.806 J-0.419 K-0.855
N5005 G1 Y29.716
N5010 G17 G2 X156.629 Y26.858 I-2.857 J0.
N5015 G1 X147.347
N5020 G2 X144.49 Y29.716 I0. J2.858
N5025 G19 G2 Y30.135 Z-49.903 J0. K-0.953
N5030 G3 Y30.554 Z-50. J0.419 K0.855
N5035 G1 Y90.161
N5040 Y90.578 Z-37.479
N5045 Y93.295 Z-29.267
N5050 Y100.387 Z-19.859
N5055 Y106.397 Z-15.293
N5060 Y110.81 Z-13.021
N5065 Y115.39 Z-11.324
N5070 Y127.608 Z-8.728
N5075 Y171.206 Z-6.651
N5080 Y299.276 Z-3.444
N5085 Y440.97 Z-2.92
N5090 Y787.03 Z-8.086
N5095 Y1212.112 Z-14.733
N5100 Y1464.246 Z-15.07
N5105 Y1526.919 Z-15.992
N5110 Y1550.158 Z-18.537
N5115 Y1563.505 Z-22.816
N5120 Y1569.236 Z-26.792
N5125 Y1571.961 Z-30.148
N5130 Y1573.323 Z-33.139
N5135 Y1573.969 Z-50.
N5140 Y1640.168
N5145 G3 Y1640.587 Z-49.903 J0. K0.952
N5150 G2 Y1641.007 Z-49.806 J0.419 K-0.855
N5155 G1 Y1657.167
N5160 G17 G3 X141.632 Y1660.025 I-2.857 J0.
N5165 G1 X132.351
N5170 G3 X129.494 Y1657.167 I0. J-2.858
N5175 G19 G3 Y1656.748 Z-49.903 J0. K-0.953
N5180 G2 Y1656.329 Z-50. J-0.419 K0.855
N5185 G1 Y1589.755
N5190 Y1589.143 Z-30.285
N5195 Y1585.397 Z-24.039
N5200 Y1577.63 Z-18.924
N5205 Y1572.745 Z-17.167
N5210 Y1562.415 Z-15.052
N5215 Y1532.952 Z-13.281
N5220 Y1267.204 Z-14.235
N5225 Y951.117 Z-10.22
N5230 Y457.913 Z-2.055
N5235 Y316.219 Z-1.872
N5240 Y185.424 Z-4.366
N5245 Y125.477 Z-7.225
N5250 Y111.15 Z-10.533
N5255 Y101.245 Z-16.12
N5260 Y93.686 Z-24.697
N5265 Y90.645 Z-32.172
N5270 Y89.643 Z-44.165
N5275 Y89.405 Z-50.
N5280 Y30.614
N5285 G2 Y30.194 Z-49.903 J0. K0.952
N5290 G3 Y29.775 Z-49.806 J-0.419 K-0.855
N5295 G1 Y29.766
N5300 G17 G2 X126.636 Y26.908 I-2.857 J0.
N5305 G1 X117.355
N5310 G2 X114.497 Y29.766 I0. J2.858
N5315 G19 G2 Y30.185 Z-49.903 J0. K-0.953
N5320 G3 Y30.604 Z-50. J0.419 K0.855
N5325 G1 Y89.107
N5330 Y89.452 Z-37.937
N5335 Y91.399 Z-27.466
N5340 Y96.098 Z-19.314
N5345 Y103.911 Z-12.267
N5350 Y114.419 Z-7.642
N5355 Y125.578 Z-5.664
N5360 Y163.726 Z-3.659
N5365 Y283.621 Z-1.067
N5370 Y444.39 Z-1.129
N5375 Y1043.864 Z-11.096
N5380 Y1318.662 Z-13.619
N5385 Y1559.814 Z-11.418
N5390 Y1582.713 Z-13.438
N5395 Y1591.144 Z-15.918
N5400 Y1598.96 Z-21.071
N5405 Y1602.737 Z-27.573
N5410 Y1603.318 Z-50.
N5415 Y1671.966
N5420 G3 Y1672.386 Z-49.903 J0. K0.952
N5425 G2 Y1672.805 Z-49.806 J0.419 K-0.855
N5430 G1 Y1679.088
N5435 G17 G3 X111.64 Y1681.945 I-2.857 J0.
N5440 G1 X102.358
N5445 G3 X99.501 Y1679.088 I0. J-2.858
N5450 G19 G3 Y1678.669 Z-49.903 J0. K-0.953
N5455 G2 Y1678.25 Z-50. J-0.419 K0.855
N5460 G1 Y1615.011
N5465 Y1614.811 Z-26.63
N5470 Y1612.087 Z-19.969
N5475 Y1606.598 Z-14.992
N5480 Y1597.07 Z-11.355
N5485 Y1580.967 Z-9.58
N5490 Y1507.395 Z-10.886
N5495 Y1354.802 Z-12.906
N5500 Y1144.684 Z-11.875
N5505 Y417.139 Z-0.247
N5510 Y369.369 Z0.
N5515 Y368.641 Z0.288
N5520 Y368.062 Z0.512
N5525 Y326.367 Z0.
N5530 Y192.847 Z-1.641
N5535 Y124.725 Z-4.541
N5540 Y114.451 Z-6.21
N5545 Y106.183 Z-9.396
N5550 Y99.286 Z-14.331
N5555 Y93.265 Z-22.181
N5560 Y90.805 Z-28.249
N5565 Y88.998 Z-38.996
N5570 Y88.677 Z-50.
N5575 Y30.588
N5580 G2 Y30.169 Z-49.903 J0. K0.952
N5585 G3 Y29.75 Z-49.806 J-0.419 K-0.855
N5590 G1 Y29.736
N5595 G17 G2 X96.643 Y26.878 I-2.858 J0.
N5600 G1 X87.362
N5605 G2 X84.505 Y29.736 I0. J2.858
N5610 G19 G2 Y30.155 Z-49.903 J0. K-0.953
N5615 G3 Y30.574 Z-50. J0.419 K0.855
N5620 G1 Y88.384
N5625 Y88.717 Z-39.024
N5630 Y91.475 Z-25.113
N5635 Y96.924 Z-15.688
N5640 Y104.806 Z-9.015
N5645 Y115.485 Z-4.902
N5650 Y137.672 Z-2.768
N5655 Y235.768 Z-0.001
N5660 G3 Y237.62 Z1.903 J-0.054 K1.904 F1000.
N5665 G1 Z2.026
N5670 Z5. F5000.
N5675 Y435.366
N5680 Z2.021
N5685 Z1.904 F1000.
N5690 G3 Y437.239 Z0. J1.905 K0.
N5695 G1 Y923.972 Z-8.125 F5000.
N5700 Y1248.233 Z-12.247
N5705 Y1428.626 Z-11.727
N5710 Y1583.945 Z-7.626
N5715 Y1605.063 Z-8.485
N5720 Y1615.278 Z-11.493
N5725 Y1621.899 Z-16.879
N5730 Y1624.585 Z-22.468
N5735 Y1625.089 Z-50.
N5740 Y1684.106
N5745 G3 Y1684.526 Z-49.903 J0. K0.952
N5750 G2 Y1684.945 Z-49.806 J0.419 K-0.855
N5755 G1 Y1690.716
N5760 G17 G3 X81.647 Y1693.574 I-2.857 J0.
N5765 G1 X72.366
N5770 G3 X69.508 Y1690.716 I0. J-2.858
N5775 G19 G3 Y1690.297 Z-49.903 J0. K-0.953
N5780 G2 Y1689.878 Z-50. J-0.419 K0.855
N5785 G1 Y1633.799
N5790 Y1633.251 Z-19.801
N5795 Y1629.535 Z-13.003
N5800 Y1622.558 Z-8.323
N5805 Y1619.602 Z-7.328
N5810 Y1611.744 Z-6.044
N5815 Y1581.771 Z-6.549
N5820 Y1456.426 Z-10.763
N5825 Y1274.954 Z-11.934
N5830 Y975.216 Z-8.655
N5835 Y465.237 Z-0.001
N5840 G2 Y463.364 Z1.904 J0.032 K1.905 F1000.
N5845 G1 Z2.024
N5850 Z5. F5000.
N5855 Y204.631
N5860 Z2.038
N5865 Z1.902 F1000.
N5870 G2 Y202.797 Z-0.001 J-1.905 K0.
N5875 G1 Y126.415 Z-2.817 F5000.
N5880 Y115.519 Z-4.138
N5885 Y110.822 Z-5.447
N5890 Y106.289 Z-7.381
N5895 Y99.851 Z-11.825
N5900 Y93.297 Z-20.352
N5905 Y90.295 Z-28.422
N5910 Y88.186 Z-45.208
N5915 Y88.139 Z-50.
N5920 Y30.575
N5925 G2 Y28.67 Z-48.095 J0. K1.905 F1000.
N5930 G1 Z5. F5000.
N5935 X54.512 Y-30.155
N5940 Z-48.095
N5945 G3 Y-28.25 Z-50. J1.905 K0. F1000.
N5950 G1 Y88.029 F5000.
N5955 Y88.103 Z-44.631
N5960 Y89.884 Z-29.582
N5965 Y93.952 Z-18.661
N5970 Y96.998 Z-14.25
N5975 Y98.841 Z-12.226
N5980 Y105.941 Z-7.004
N5985 Y113.952 Z-3.974
N5990 Y119.619 Z-2.926
N5995 Y184.42 Z-0.001
N6000 G3 Y186.239 Z1.902 J-0.086 K1.903 F1000.
N6005 G1 Z2.047
N6010 Z5. F5000.
N6015 Y481.263
N6020 Z2.025
N6025 Z1.905 F1000.
N6030 G3 Y483.136 Z0. J1.905 K0.
N6035 G1 Y1073.329 Z-9.846 F5000.
N6040 Y1330.204 Z-11.611
N6045 Y1477.348 Z-9.881
N6050 Y1619.723 Z-4.121
N6055 Y1630.28 Z-6.026
N6060 Y1637.136 Z-10.606
N6065 Y1640.749 Z-17.384
N6070 Y1641.272 Z-50.
N6075 Y1788.221
N6080 G3 Y1788.64 Z-49.903 J0. K0.952
N6085 G2 Y1789.059 Z-49.806 J0.419 K-0.855
N6090 G1 Y1790.278
N6095 G17 G3 X51.654 Y1793.136 I-2.857 J0.
N6100 G1 X42.373
N6105 G3 X39.515 Y1790.278 I0. J-2.858
N6110 G19 G3 Y1789.859 Z-49.903 J0. K-0.953
N6115 G2 Y1789.44 Z-50. J-0.419 K0.855
N6120 G1 Y1647.664
N6125 Y1647.32 Z-15.569
N6130 Y1644.938 Z-9.839
N6135 Y1639.117 Z-4.774
N6140 Y1633.177 Z-2.862
N6145 Y1625.046 Z-2.431
N6150 Y1518.775 Z-8.278
N6155 Y1377.081 Z-11.099
N6160 Y1152.332 Z-10.552
N6165 Y629.154 Z-2.121
N6170 Y494.954 Z-0.001
N6175 G2 Y493.079 Z1.904 J0.03 K1.905 F1000.
N6180 G1 Z2.025
N6185 Z5. F5000.
N6190 Y175.481
N6195 Z2.052
N6200 Z1.901 F1000.
N6205 G2 Y173.673 Z-0.002 J-1.905 K0.
N6210 G1 Y117.816 Z-2.843 F5000.
N6215 Y109.332 Z-5.085
N6220 Y100.253 Z-10.544
N6225 Y97.022 Z-13.87
N6230 Y93.987 Z-18.275
N6235 Y90.777 Z-25.838
N6240 Y88.492 Z-38.077
N6245 Y88.004 Z-50.
N6250 Y-29.554
N6255 G2 Y-29.974 Z-49.903 J0. K0.952
N6260 G3 Y-30.393 Z-49.806 J-0.419 K-0.855
N6265 G17 G2 X36.658 Y-33.25 I-2.857 J0.
N6270 G1 X27.377
N6275 G2 X24.519 Y-30.393 I0. J2.858
N6280 G19 G2 Y-29.974 Z-49.903 J0. K-0.953
N6285 G3 Y-29.554 Z-50. J0.419 K0.855
N6290 G1 Y87.976
N6295 Y88.075 Z-44.575
N6300 Y89.304 Z-31.862
N6305 Y92.578 Z-20.859
N6310 Y98.404 Z-12.105
N6315 Y104.439 Z-7.268
N6320 Y108.874 Z-5.051
N6325 Y113.514 Z-3.522
N6330 Y118.512 Z-2.533
N6335 Y167.645 Z-0.002
N6340 G3 Y169.452 Z1.9 J-0.098 K1.902 F1000.
N6345 G1 Z2.057
N6350 Z5. F5000.
N6355 Y500.252
N6360 Z2.026
N6365 Z1.904 F1000.
N6370 G3 Y502.124 Z-0.001 J1.905 K0.
N6375 G1 Y884.375 Z-6.562 F5000.
N6380 Y1227.71 Z-10.981
N6385 Y1423.219 Z-10.377
N6390 Y1545.839 Z-6.878
N6395 Y1633.036 Z-0.858
N6400 Y1642.464 Z-1.662
N6405 Y1649.029 Z-5.588
N6410 Y1652.6 Z-12.067
N6415 Y1653.118 Z-50.
N6420 Y1789.44
N6425 G3 Y1789.859 Z-49.903 J0. K0.952
N6430 G2 Y1790.278 Z-49.806 J0.419 K-0.855
N6435 G17 G3 X21.662 Y1793.136 I-2.858 J0.
N6440 G1 X12.38
N6445 G3 X9.523 Y1790.278 I0. J-2.858
N6450 G19 G3 Y1789.859 Z-49.903 J0. K-0.953
N6455 G2 Y1789.44 Z-50. J-0.419 K0.855
N6460 G1 Y1657.737
N6465 Y1657.198 Z-8.81
N6470 Y1653.792 Z-3.031
N6475 Y1649.024 Z-0.084
N6480 Y1648.603 Z0.484
N6485 Y1647.602 Z1.191
N6490 Y1643.674 Z0.859
N6495 Y1643.456 Z0.843
N6500 Y1643.238 Z0.845
N6505 Y1642.802 Z0.841
N6510 Y1642.365 Z0.831
N6515 Y1641.929 Z0.816
N6520 Y1641.492 Z0.794
N6525 Y1641.056 Z0.767
N6530 Y1640.62 Z0.737
N6535 Y1640.183 Z0.703
N6540 Y1639.529 Z0.647
N6545 Y1639.092 Z0.607
N6550 Y1638.438 Z0.543
N6555 Y1637.565 Z0.453
N6560 Y1636.256 Z0.312
N6565 Y1634.074 Z0.066
N6570 Y1633.456 Z-0.004
N6575 Y1568.193 Z-5.521
N6580 Y1459.197 Z-9.601
N6585 Y1284.935 Z-11.086
N6590 Y996.098 Z-8.329
N6595 Y505.533 Z-0.001
N6600 G2 Y503.66 Z1.904 J0.032 K1.905 F1000.
N6605 G1 Z2.026
N6610 Z5. F5000.
N6615 Y166.728
N6620 Z2.059
N6625 Z1.9 F1000.
N6630 G2 Y164.922 Z-0.002 J-1.905 K0.
N6635 G1 Y118.514 Z-2.434 F5000.
N6640 Y111.065 Z-4.141
N6645 Y104.368 Z-7.207
N6650 Y96.941 Z-13.667
N6655 Y91.489 Z-23.451
N6660 Y88.805 Z-35.004
N6665 Y87.875 Z-50.
N6670 Y-29.554
N6675 G2 Y-29.974 Z-49.903 J0. K0.952
N6680 G3 Y-30.393 Z-49.806 J-0.419 K-0.855
N6685 G17 G2 X6.665 Y-33.25 I-2.858 J0.
N6690 G1 X-2.616
N6695 G2 X-5.474 Y-30.393 I0. J2.858
N6700 G19 G2 Y-29.974 Z-49.903 J0. K-0.953
N6705 G3 Y-29.554 Z-50. J0.419 K0.855
N6710 G1 Y87.964
N6715 Y88.053 Z-44.723
N6720 Y89.118 Z-32.856
N6725 Y92.246 Z-21.527
N6730 Y97.707 Z-12.756
N6735 Y105.549 Z-6.513
N6740 Y116.812 Z-2.694
N6745 Y164.583 Z-0.002
N6750 G3 Y166.381 Z1.899 J-0.107 K1.902 F1000.
N6755 G1 Z2.059
N6760 Z5. F5000.
N6765 Y504.087
N6770 Z2.026
N6775 Z1.904 F1000.
N6780 G3 Y505.96 Z-0.001 J1.905 K0.
N6785 G1 Y1004.273 Z-8.442 F5000.
N6790 Y1290.386 Z-11.078
N6795 Y1462.763 Z-9.505
N6800 Y1569.033 Z-5.448
N6805 Y1632.642 Z-0.001
N6810 G3 Y1634.385 Z1.897 J-0.163 K1.898 F1000.
N6815 G1 Z2.228
N6820 Z5. F5000.
N6825 Y1650.908
N6830 Z2.553
N6835 Z1.584 F1000.
N6840 G3 Y1651.756 Z-0.001 J1.905 K0.
N6845 G1 Y1654.866 Z-2.074 F5000.
N6850 Y1658.4 Z-7.939
N6855 Y1658.87 Z-50.
N6860 Y1789.44
N6865 G3 Y1789.859 Z-49.903 J0. K0.952
N6870 G2 Y1790.278 Z-49.806 J0.419 K-0.855
N6875 G17 G3 X-8.331 Y1793.136 I-2.858 J0.
N6880 G1 X-17.613
N6885 G3 X-20.47 Y1790.278 I0. J-2.858
N6890 G19 G3 Y1789.859 Z-49.903 J0. K-0.953
N6895 G2 Y1789.44 Z-50. J-0.419 K0.855
N6900 G1 Y1654.445
N6905 Y1653.905 Z-11.196
N6910 Y1650.281 Z-4.813
N6915 Y1643.689 Z-1.054
N6920 Y1632.941 Z-0.571
N6925 Y1552.557 Z-6.49
N6930 Y1451.736 Z-9.84
N6935 Y1271.311 Z-11.122
N6940 Y971.574 Z-7.99
N6945 Y503.405 Z0.
N6950 G2 Y501.532 Z1.905 J0.033 K1.905 F1000.
N6955 G1 Z2.027
N6960 Z5. F5000.
N6965 Y168.428
N6970 Z2.058
N6975 Z1.901 F1000.
N6980 G2 Y166.626 Z-0.002 J-1.905 K0.
N6985 G1 Y117.493 Z-2.65 F5000.
N6990 Y112.621 Z-3.727
N6995 Y105.813 Z-6.449
N7000 Y97.832 Z-12.689
N7005 Y92.272 Z-21.527
N7010 Y89.109 Z-32.986
N7015 Y88.02 Z-50.
N7020 Y-29.554
N7025 G2 Y-29.974 Z-49.903 J0. K0.952
N7030 G3 Y-30.393 Z-49.806 J-0.419 K-0.855
N7035 G17 G2 X-23.328 Y-33.25 I-2.858 J0.
N7040 G1 X-32.609
N7045 G2 X-35.466 Y-30.393 I0. J2.858
N7050 G19 G2 Y-29.974 Z-49.903 J0. K-0.953
N7055 G3 Y-29.554 Z-50. J0.419 K0.855
N7060 G1 Y87.985
N7065 Y89.011 Z-33.819
N7070 Y91.865 Z-22.658
N7075 Y97.493 Z-13.247
N7080 Y103.314 Z-8.128
N7085 Y107.549 Z-5.769
N7090 Y119.791 Z-2.499
N7095 Y171.564 Z0.
N7100 G3 Y173.377 Z1.902 J-0.092 K1.903 F1000.
N7105 G1 Z2.055
N7110 Z5. F5000.
N7115 Y495.57
N7120 Z2.026
N7125 Z1.904 F1000.
N7130 G3 Y497.444 Z0. J1.905 K0.
N7135 G1 Y702.747 Z-3.384 F5000.
N7140 Y1163.252 Z-10.605
N7145 Y1384.152 Z-10.978
N7150 Y1523.121 Z-8.034
N7155 Y1629.392 Z-1.968
N7160 Y1638.79 Z-3.334
N7165 Y1645.239 Z-7.543
N7170 Y1648.682 Z-13.944
N7175 Y1649.235 Z-50.
N7180 Y1789.44
N7185 G3 Y1789.859 Z-49.903 J0. K0.952
N7190 G2 Y1790.278 Z-49.806 J0.419 K-0.855
N7195 G17 G3 X-38.324 Y1793.136 I-2.858 J0.
N7200 G1 X-47.605
N7205 G3 X-50.463 Y1790.278 I0. J-2.858
N7210 G1 Y1790.271
N7215 G19 G3 Y1789.852 Z-49.903 J0. K-0.953
N7220 G2 Y1789.433 Z-50. J-0.419 K0.855
N7225 G1 Y1643.099
N7230 Y1642.545 Z-16.542
N7235 Y1638.954 Z-9.905
N7240 Y1631.999 Z-5.348
N7245 Y1628.737 Z-4.41
N7250 Y1620.794 Z-3.615
N7255 Y1500.899 Z-9.132
N7260 Y1348.306 Z-11.47
N7265 Y1103.299 Z-10.161
N7270 Y487.049 Z0.
N7275 G2 Y485.175 Z1.905 J0.031 K1.905 F1000.
N7280 G1 Z2.025
N7285 Z5. F5000.
N7290 Y182.657
N7295 Z2.048
N7300 Z1.901 F1000.
N7305 G2 Y180.84 Z-0.002 J-1.905 K0.
N7310 G1 Y119.457 Z-2.837 F5000.
N7315 Y107.312 Z-6.201
N7320 Y98.919 Z-12.035
N7325 Y92.873 Z-20.619
N7330 Y89.419 Z-31.759
N7335 Y88.018 Z-50.
N7340 Y-29.462
N7345 G2 Y-31.367 Z-48.095 J0. K1.905 F1000.
N7350 G1 Z5. F5000.
N7355 X-65.459 Y28.57
N7360 Z-48.095
N7365 G3 Y30.475 Z-50. J1.905 K0. F1000.
N7370 G1 Y88.11 F5000.
N7375 Y88.322 Z-41.261
N7380 Y90.973 Z-25.85
N7385 Y94.362 Z-18.32
N7390 Y97.509 Z-14.029
N7395 Y101.278 Z-10.436
N7400 Y103.376 Z-8.91
N7405 Y112.311 Z-4.794
N7410 Y125.146 Z-2.764
N7415 Y196.589 Z-0.001
N7420 G3 Y198.421 Z1.903 J-0.074 K1.904 F1000.
N7425 G1 Z2.041
N7430 Z5. F5000.
N7435 Y468.994
N7440 Z2.024
N7445 Z1.905 F1000.
N7450 G3 Y470.866 Z0. J1.905 K0.
N7455 G1 Y994.3 Z-8.881 F5000.
N7460 Y1285.862 Z-11.861
N7465 Y1463.848 Z-10.492
N7470 Y1586.468 Z-6.086
N7475 Y1615.079 Z-5.586
N7480 Y1625.813 Z-8.136
N7485 Y1632.17 Z-12.865
N7490 Y1635.491 Z-19.516
N7495 Y1635.928 Z-50.
N7500 Y1691.436
N7505 G3 Y1691.855 Z-49.903 J0. K0.952
N7510 G2 Y1692.275 Z-49.806 J0.419 K-0.855
N7515 G17 G3 X-68.317 Y1695.132 I-2.858 J0.
N7520 G1 X-77.598
N7525 G3 X-80.455 Y1692.275 I0. J-2.858
N7530 G1 Y1686.503
N7535 G19 G3 Y1686.084 Z-49.903 J0. K-0.953
N7540 G2 Y1685.665 Z-50. J-0.419 K0.855
N7545 G1 Y1627.58
N7550 Y1627.08 Z-21.796
N7555 Y1623.924 Z-15.57
N7560 Y1617.544 Z-10.691
N7565 Y1613.386 Z-9.088
N7570 Y1604.215 Z-7.469
N7575 Y1575.607 Z-7.522
N7580 Y1436.637 Z-11.468
N7585 Y1239.541 Z-12.079
N7590 Y904.38 Z-7.687
N7595 Y446.343 Z-0.001
N7600 G2 Y444.47 Z1.904 J0.032 K1.905 F1000.
N7605 G1 Z2.021
N7610 Z5. F5000.
N7615 Y225.855
N7620 Z2.03
N7625 Z1.903 F1000.
N7630 G2 Y224.01 Z-0.001 J-1.905 K0.
N7635 G1 Y130.938 Z-2.93 F5000.
N7640 Y114.051 Z-5.009
N7645 Y110.262 Z-6.191
N7650 Y105.772 Z-8.214
N7655 Y101.563 Z-10.958
N7660 Y96.171 Z-16.382
N7665 Y91.049 Z-26.232
N7670 Y88.703 Z-38.612
N7675 Y88.298 Z-50.
N7680 Y30.577
N7685 G2 Y30.158 Z-49.903 J0. K0.952
N7690 G3 Y29.739 Z-49.806 J-0.419 K-0.855
N7695 G17 G2 X-83.313 Y26.881 I-2.857 J0.
N7700 G1 X-92.594
N7705 G2 X-95.452 Y29.739 I0. J2.858
N7710 G1 Y29.746
N7715 G19 G2 Y30.165 Z-49.903 J0. K-0.953
N7720 G3 Y30.584 Z-50. J0.419 K0.855
N7725 G1 Y88.603
N7730 Y88.987 Z-38.202
N7735 Y91.6 Z-25.438
N7740 Y97.516 Z-15.798
N7745 Y106.155 Z-9.057
N7750 Y114.429 Z-5.885
N7755 Y122.007 Z-4.53
N7760 Y162.881 Z-2.299
N7765 Y282.775 Z0.
N7770 G3 Y284.644 Z1.905 J-0.037 K1.905 F1000.
N7775 G1 Z2.015
N7780 Z5. F5000.
N7785 Y404.116
N7790 Z2.014
N7795 Z1.905 F1000.
N7800 G3 Y405.991 Z0. J1.905 K0.
N7805 G1 Y768.657 Z-5.628 F5000.
N7810 Y1191.014 Z-12.198
N7815 Y1406.653 Z-12.411
N7820 Y1578.32 Z-8.919
N7825 Y1597.292 Z-10.149
N7830 Y1607.24 Z-13.046
N7835 Y1613.747 Z-17.697
N7840 Y1617.391 Z-24.385
N7845 Y1617.902 Z-50.
N7850 Y1679.893
N7855 G3 Y1680.312 Z-49.903 J0. K0.952
N7860 G2 Y1680.731 Z-49.806 J0.419 K-0.855
N7865 G17 G3 X-98.309 Y1683.589 I-2.858 J0.
N7870 G1 X-107.591
N7875 G3 X-110.448 Y1680.731 I0. J-2.857
N7880 G1 Y1674.96
N7885 G19 G3 Y1674.541 Z-49.903 J0. K-0.953
N7890 G2 Y1674.121 Z-50. J-0.419 K0.855
N7895 G1 Y1606.67
N7900 Y1606.084 Z-26.822
N7905 Y1602.512 Z-20.502
N7910 Y1594.985 Z-15.358
N7915 Y1591.156 Z-13.958
N7920 Y1586.025 Z-12.707
N7925 Y1575.319 Z-11.359
N7930 Y1537.171 Z-10.961
N7935 Y1368.228 Z-13.338
N7940 Y1157.478 Z-12.429
N7945 Y421.758 Z-0.713
N7950 Y260.171 Z-1.055
N7955 Y148.451 Z-3.909
N7960 Y123.927 Z-5.488
N7965 Y114.078 Z-7.302
N7970 Y104.893 Z-11.195
N7975 Y100.773 Z-14.097
N7980 Y97.084 Z-17.693
N7985 Y93.949 Z-21.967
N7990 Y91.453 Z-26.977
N7995 Y89.725 Z-34.618
N8000 Y88.976 Z-50.
N8005 Y30.598
N8010 G2 Y30.179 Z-49.903 J0. K0.952
N8015 G3 Y29.76 Z-49.806 J-0.419 K-0.855
N8020 G1 Y29.637
N8025 G17 G2 X-113.306 Y26.779 I-2.857 J0.
N8030 G1 X-122.587
N8035 G2 X-125.445 Y29.637 I0. J2.858
N8040 G19 G2 Y30.056 Z-49.903 J0. K-0.953
N8045 G3 Y30.475 Z-50. J0.419 K0.855
N8050 G1 Y89.388
N8055 Y90.237 Z-33.92
N8060 Y92.393 Z-26.399
N8065 Y96.811 Z-19.786
N8070 Y104.575 Z-13.183
N8075 Y114.098 Z-8.992
N8080 Y125.851 Z-6.706
N8085 Y180.328 Z-4.107
N8090 Y308.398 Z-1.614
N8095 Y455.425 Z-1.788
N8100 Y1022.201 Z-11.232
N8105 Y1300.14 Z-14.14
N8110 Y1531.163 Z-12.674
N8115 Y1563.862 Z-14.02
N8120 Y1574.471 Z-15.797
N8125 Y1581.424 Z-18.049
N8130 Y1589.368 Z-23.305
N8135 Y1593.166 Z-29.972
N8140 Y1593.64 Z-50.
N8145 Y1660.692
N8150 G3 Y1661.111 Z-49.903 J0. K0.952
N8155 G2 Y1661.531 Z-49.806 J0.419 K-0.855
N8160 G17 G3 X-128.302 Y1664.388 I-2.857 J0.
N8165 G1 X-137.583
N8170 G3 X-140.441 Y1661.531 I0. J-2.858
N8175 G1 Y1645.37
N8180 G19 G3 Y1644.951 Z-49.903 J0. K-0.953
N8185 G2 Y1644.532 Z-50. J-0.419 K0.855
N8190 G1 Y1578.516
N8195 Y1577.857 Z-32.29
N8200 Y1573.77 Z-25.917
N8205 Y1565.458 Z-20.782
N8210 Y1555.421 Z-17.872
N8215 Y1532.488 Z-15.357
N8220 Y1469.816 Z-14.604
N8225 Y1228.484 Z-14.615
N8230 Y936.922 Z-10.53
N8235 Y465.516 Z-2.837
N8240 Y334.722 Z-2.647
N8245 Y195.753 Z-5.248
N8250 Y127.631 Z-8.189
N8255 Y115.405 Z-10.647
N8260 Y106.37 Z-14.467
N8265 Y97.493 Z-21.788
N8270 Y95.126 Z-24.836
N8275 Y91.378 Z-31.753
N8280 Y90.057 Z-44.783
N8285 Y90.007 Z-50.
N8290 Y30.553
N8295 G2 Y30.134 Z-49.903 J0. K0.952
N8300 G3 Y29.715 Z-49.806 J-0.419 K-0.855
N8305 G17 G2 X-143.298 Y26.857 I-2.857 J0.
N8310 G1 X-152.58
N8315 G2 X-155.437 Y29.715 I0. J2.858
N8320 G1 Y29.737
N8325 G19 G2 Y30.156 Z-49.903 J0. K-0.953
N8330 G3 Y30.576 Z-50. J0.419 K0.855
N8335 G1 Y93.492
N8340 Y93.643 Z-41.709
N8345 Y94.273 Z-36.143
N8350 Y98.491 Z-26.354
N8355 Y101.799 Z-22.197
N8360 Y105.565 Z-18.78
N8365 Y109.696 Z-16.038
N8370 Y114.106 Z-13.914
N8375 Y118.702 Z-12.329
N8380 Y128.253 Z-10.159
N8385 Y207.275 Z-6.843
N8390 Y354.418 Z-3.995
N8395 Y485.213 Z-4.238
N8400 Y1147.36 Z-14.782
N8405 Y1426.123 Z-16.328
N8410 Y1505.145 Z-17.449
N8415 Y1533.287 Z-20.101
N8420 Y1548.178 Z-24.19
N8425 Y1556.641 Z-29.679
N8430 Y1560.164 Z-35.334
N8435 Y1560.805 Z-50.
N8440 Y1628.371
N8445 G3 Y1628.79 Z-49.903 J0. K0.952
N8450 G2 Y1629.209 Z-49.806 J0.419 K-0.855
N8455 G17 G3 X-158.295 Y1632.067 I-2.857 J0.
N8460 G1 X-167.576
N8465 G3 X-170.434 Y1629.209 I0. J-2.858
N8470 G1 Y1613.134
N8475 G19 G3 Y1612.715 Z-49.903 J0. K-0.953
N8480 G2 Y1612.296 Z-50. J-0.419 K0.855
N8485 G1 Y1540.034
N8490 Y1539.32 Z-38.305
N8495 Y1534.94 Z-32.179
N8500 Y1528.242 Z-28.
N8505 Y1523.351 Z-26.085
N8510 Y1513.129 Z-23.495
N8515 Y1485.711 Z-20.301
N8520 Y1417.93 Z-18.321
N8525 Y1058.245 Z-14.696
N8530 Y524.168 Z-6.119
N8535 Y368.849 Z-5.7
N8540 Y216.255 Z-8.866
N8545 Y127.952 Z-13.032
N8550 Y115.122 Z-18.033
N8555 Y107.008 Z-24.896
N8560 Y104.099 Z-29.416
N8565 Y101.651 Z-37.198
N8570 Y101.322 Z-50.
N8575 Y37.041
N8580 G2 Y36.622 Z-49.903 J0. K0.952
N8585 G3 Y36.203 Z-49.806 J-0.419 K-0.855
N8590 G17 G2 X-173.291 Y33.345 I-2.857 J0.
N8595 G1 X-182.573
N8600 G2 X-185.43 Y36.203 I0. J2.858
N8605 G1 Y45.067
N8610 G19 G2 Y45.486 Z-49.903 J0. K-0.953
N8615 G3 Y45.905 Z-50. J0.419 K0.855
N8620 G1 Y110.62
N8625 Y110.68 Z-41.193
N8630 Y112.713 Z-31.543
N8635 Y118.429 Z-23.579
N8640 Y126.214 Z-18.362
N8645 Y143.935 Z-16.182
N8650 Y225.682 Z-11.546
N8655 Y364.651 Z-8.059
N8660 Y498.17 Z-7.799
N8665 Y819.707 Z-12.012
N8670 Y1272.038 Z-19.047
N8675 Y1427.356 Z-21.592
N8680 Y1472.658 Z-24.557
N8685 Y1489.689 Z-27.285
N8690 Y1503.436 Z-31.579
N8695 Y1511.508 Z-36.886
N8700 Y1514.921 Z-42.548
N8705 Y1515.32 Z-50.
N8710 Y1596.135
N8715 G3 Y1596.554 Z-49.903 J0. K0.952
N8720 G2 Y1596.973 Z-49.806 J0.419 K-0.855
N8725 G17 G3 X-188.288 Y1599.831 I-2.857 J0.
N8730 G1 X-197.569
N8735 G3 X-200.426 Y1596.973 I0. J-2.858
N8740 G1 Y1580.813
N8745 G19 G3 Y1580.394 Z-49.903 J0. K-0.953
N8750 G2 Y1579.974 Z-50. J-0.419 K0.855
N8755 G1 Y1485.583
N8760 Y1484.263 Z-43.749
N8765 Y1480.192 Z-39.199
N8770 Y1473.933 Z-35.56
N8775 Y1464.086 Z-32.151
N8780 Y1448.373 Z-29.014
N8785 Y1421.182 Z-26.127
N8790 Y1353.06 Z-23.109
N8795 Y644.59 Z-11.377
N8800 Y429.324 Z-10.264
N8805 Y298.529 Z-12.778
N8810 Y211.333 Z-16.949
N8815 Y164.746 Z-21.504
N8820 Y143.437 Z-25.332
N8825 Y126.754 Z-30.752
N8830 Y122.9 Z-35.519
N8835 Y121.681 Z-42.205
N8840 Y121.606 Z-50.
N8845 Y54.769
N8850 G2 Y54.35 Z-49.903 J0. K0.952
N8855 G3 Y53.93 Z-49.806 J-0.419 K-0.855
N8860 G17 G2 X-203.284 Y51.073 I-2.857 J0.
N8865 G1 X-212.565
N8870 G2 X-215.423 Y53.93 I0. J2.858
N8875 G1 Y62.794
N8880 G19 G2 Y63.213 Z-49.903 J0. K-0.953
N8885 G3 Y63.632 Z-50. J0.419 K0.855
N8890 G1 Y173.346
N8895 Y173.635 Z-43.312
N8900 Y176.354 Z-38.759
N8905 Y180.936 Z-35.404
N8910 Y196.408 Z-29.659
N8915 Y222.832 Z-24.533
N8920 Y268.475 Z-19.906
N8925 Y352.946 Z-15.703
N8930 Y461.941 Z-13.672
N8935 Y663.583 Z-14.275
N8940 Y1025.993 Z-20.018
N8945 Y1314.831 Z-26.191
N8950 Y1382.953 Z-29.822
N8955 Y1412.826 Z-33.311
N8960 Y1428.452 Z-36.688
N8965 Y1438.283 Z-40.221
N8970 Y1442.771 Z-42.726
N8975 Y1445.413 Z-44.817
N8980 Y1448.636 Z-49.754
N8985 Y1556.009 Z-50.
N8990 G3 Y1557.918 Z-48.095 J0.004 K1.905 F1000.
N8995 G1 Z5. F5000.
N9000 X-230.419 Y1523.891
N9005 Z-48.095
N9010 G2 Y1521.986 Z-50. J-1.905 K0. F1000.
N9015 G1 Y1399.929 F5000.
N9020 Y1393.709 Z-45.657
N9025 Y1388.922 Z-43.566
N9030 Y1376.818 Z-40.006
N9035 Y1357.626 Z-36.565
N9040 Y1308.933 Z-32.07
N9045 Y1205.387 Z-27.799
N9050 Y837.528 Z-19.991
N9055 Y592.288 Z-17.636
N9060 Y450.594 Z-18.873
N9065 Y360.673 Z-22.269
N9070 Y306.175 Z-26.681
N9075 Y278.17 Z-30.728
N9080 Y262.029 Z-34.487
N9085 Y250.694 Z-38.719
N9090 Y243.663 Z-43.809
N9095 Y241.861 Z-48.389
N9100 Y241.809 Z-50.
N9105 Y92.922
N9110 G2 Y91.017 Z-48.095 J0. K1.905 F1000.
N9115 G1 Z5. F5000.
N9120 X-245.415 Y159.924
N9125 Z-48.095
N9130 G3 Y161.829 Z-50. J1.905 K0. F1000.
N9135 G1 Y327.589 F5000.
N9140 Y329.57 Z-47.841
N9145 Y336.944 Z-43.007
N9150 Y354.228 Z-37.671
N9155 Y379.072 Z-33.39
N9160 Y427.738 Z-28.583
N9165 Y504.034 Z-25.038
N9170 Y634.488 Z-23.19
N9175 Y844.645 Z-24.916
N9180 Y1114.409 Z-31.071
N9185 Y1231.579 Z-35.989
N9190 Y1285.995 Z-40.52
N9195 Y1316.369 Z-45.539
N9200 Y1329.92 Z-49.678
N9205 Y1488.048 Z-50.
N9210 G3 Y1489.957 Z-48.095 J0.004 K1.905 F1000.
N9215 G1 Z5. F5000.
N9220 X-260.412 Y1443.726
N9225 Z-48.095
N9230 G2 Y1441.818 Z-50. J-1.905 K0. F1000.
N9235 G1 Y1216.078 Z-49.63 F5000.
N9240 Y1174.739 Z-44.616
N9245 Y1095.717 Z-39.58
N9250 Y934.949 Z-34.186
N9255 Y755.107 Z-31.393
N9260 Y628.74 Z-32.173
N9265 Y545.291 Z-35.332
N9270 Y496.425 Z-39.455
N9275 Y470.577 Z-43.315
N9280 Y454.264 Z-47.489
N9285 Y446.939 Z-50.
N9290 Y230.736
N9295 G2 Y228.831 Z-48.095 J0. K1.905 F1000.
N9300 G1 Z5. F5000.
N9305 X-275.408 Y297.785
N9310 Z-48.095
N9315 G3 Y299.69 Z-50. J1.905 K0. F1000.
N9320 G1 Y670.352 F5000.
N9325 Y744.765 Z-46.917
N9330 Y837.411 Z-46.61
N9335 Y943.681 Z-49.682
N9340 Y1377.371 Z-50.
N9345 G3 Y1379.278 Z-48.095 J0.001 K1.905 F1000.
N9350 G1 Z5. F5000.
N9355 X-290.405 Y1282.43
N9360 Z-48.095
N9365 G2 Y1280.525 Z-50. J-1.905 K0. F1000.
N9370 G1 Y444.933 F5000.
N9375 G2 Y443.028 Z-48.095 J0. K1.905 F1000.
N9380 G1 Z5. F5000.
N9385 X-305.401 Y588.754
N9390 Z-48.095
N9395 G3 Y590.659 Z-50. J1.905 K0. F1000.
N9400 G1 Y1117.952 F5000.
N9405 G3 Y1119.857 Z-48.095 J0. K1.905 F1000.
N9410 G1 Z10. F5000.
N9415 G17
(PARALLEL1 5)
N9420 G0 Z12.
N9425 X277.332 Y940.703
N9430 G1 Z-55.787 F5000.
N9435 Z-69.982 F1000.
N9440 G19 G2 Y936.893 Z-70. J-1.905 K0.
N9445 G1 Y936.866 Z-67.151 F5000.
N9450 Y936.34 Z-66.79
N9455 Y930.556 Z-64.256
N9460 Y928.57 Z-63.74
N9465 Y924.586 Z-63.115
N9470 Y899.121 Z-60.427
N9475 Y878.43 Z-59.334
N9480 Y869.338 Z-58.989
N9485 Y846.381 Z-58.419
N9490 Y821.893 Z-58.325
N9495 Y799.833 Z-58.78
N9500 Y777.079 Z-60.461
N9505 Y770.747 Z-61.184
N9510 Y768.75 Z-61.543
N9515 Y767.439 Z-61.97
N9520 Y761.795 Z-64.202
N9525 Y761.359 Z-64.484
N9530 Y761.309 Z-70.
N9535 G2 Y757.499 Z-69.983 J-1.905 K0.017 F1000.
N9540 G1 Z-52.956
N9545 Z7. F5000.
N9550 X274.332 Y662.789
N9555 Z-51.27
N9560 Z-70. F1000.
N9565 G3 Y666.599 J1.905 K0.
N9570 G1 Z-62.673 F5000.
N9575 Y666.747 Z-62.333
N9580 Y669.339 Z-59.94
N9585 Y669.97 Z-59.487
N9590 Y671.25 Z-58.997
N9595 Y673.357 Z-58.415
N9600 Y680.347 Z-56.715
N9605 Y683.664 Z-56.084
N9610 Y692.952 Z-54.842
N9615 Y702.777 Z-53.735
N9620 Y712.181 Z-52.958
N9625 Y734.698 Z-51.632
N9630 Y750.49 Z-50.994
N9635 Y771.917 Z-50.518
N9640 Y794.874 Z-50.243
N9645 Y818.597 Z-50.204
N9650 Y843.085 Z-50.42
N9655 Y868.338 Z-50.911
N9660 Y893.591 Z-51.65
N9665 Y916.548 Z-52.525
N9670 Y934.914 Z-53.369
N9675 Y953.107 Z-54.331
N9680 Y970.737 Z-55.555
N9685 Y993.161 Z-57.406
N9690 Y1000.62 Z-58.156
N9695 Y1012.514 Z-59.728
N9700 Y1019.197 Z-60.666
N9705 Y1023.613 Z-61.457
N9710 Y1031.595 Z-63.527
N9715 Y1034.44 Z-64.35
N9720 Y1035.292 Z-64.784
N9725 Y1037.926 Z-67.045
N9730 Y1038.213 Z-67.396
N9735 Y1038.243 Z-70.
N9740 G3 Y1042.053 Z-69.978 J1.905 K0.022 F1000.
N9745 G1 Z-56.55
N9750 Z7. F5000.
N9755 X271.332 Y1102.169
N9760 Z-56.487
N9765 Z-69.984 F1000.
N9770 G2 Y1098.359 Z-70. J-1.905 K0.
N9775 G1 Y1098.333 Z-66.956 F5000.
N9780 Y1097.615 Z-65.894
N9785 Y1096.358 Z-64.381
N9790 Y1095.888 Z-64.067
N9795 Y1094.577 Z-63.504
N9800 Y1089.1 Z-61.467
N9805 Y1086.227 Z-60.703
N9810 Y1078.895 Z-59.133
N9815 Y1073.74 Z-58.192
N9820 Y1065.571 Z-57.071
N9825 Y1056.647 Z-55.916
N9830 Y1046.209 Z-54.812
N9835 Y1035.752 Z-53.891
N9840 Y1015.564 Z-52.28
N9845 Y992.737 Z-50.906
N9850 Y959.966 Z-49.235
N9855 Y935.196 Z-48.162
N9860 Y913.044 Z-47.404
N9865 Y878.608 Z-46.464
N9870 Y841.111 Z-45.745
N9875 Y812.797 Z-45.441
N9880 Y785.248 Z-45.348
N9885 Y759.995 Z-45.471
N9890 Y730.916 Z-45.997
N9895 Y704.898 Z-46.751
N9900 Y690.662 Z-47.329
N9905 Y669.385 Z-48.609
N9910 Y657.983 Z-49.421
N9915 Y652.619 Z-49.942
N9920 Y636.371 Z-51.738
N9925 Y631.048 Z-52.597
N9930 Y619.706 Z-54.745
N9935 Y617.587 Z-55.36
N9940 Y611.059 Z-57.793
N9945 Y610.355 Z-58.197
N9950 Y608.416 Z-60.456
N9955 Y607.987 Z-60.988
N9960 Y607.877 Z-61.339
N9965 Y607.876 Z-70.
N9970 G2 Y604.066 J-1.905 K0. F1000.
N9975 G1 Z-50.078
N9980 Z7. F5000.
N9985 X268.332 Y558.1
N9990 Z-49.097
N9995 Z-70. F1000.
N10000 G3 Y561.91 J1.905 K0.
N10005 G1 Z-60.199 F5000.
N10010 Y562.007 Z-59.834
N10015 Y563.42 Z-57.73
N10020 Y564.011 Z-56.989
N10025 Y564.603 Z-56.599
N10030 Y569.652 Z-54.27
N10035 Y571.586 Z-53.588
N10040 Y580.692 Z-51.381
N10045 Y584.658 Z-50.563
N10050 Y593.411 Z-49.261
N10055 Y602.053 Z-48.048
N10060 Y620.366 Z-46.293
N10065 Y631.281 Z-45.438
N10070 Y654.827 Z-44.08
N10075 Y672.398 Z-43.309
N10080 Y703.39 Z-42.442
N10085 Y728.643 Z-41.953
N10090 Y763.079 Z-41.729
N10095 Y797.515 Z-41.78
N10100 Y834.247 Z-42.138
N10105 Y867.918 Z-42.706
N10110 Y911.537 Z-43.752
N10115 Y943.677 Z-44.741
N10120 Y982.705 Z-46.198
N10125 Y1002.488 Z-47.108
N10130 Y1037.549 Z-48.941
N10135 Y1056.44 Z-50.164
N10140 Y1074.233 Z-51.555
N10145 Y1083.947 Z-52.378
N10150 Y1096.622 Z-53.732
N10155 Y1107.044 Z-54.984
N10160 Y1114.457 Z-56.096
N10165 Y1120.367 Z-57.116
N10170 Y1125.516 Z-58.092
N10175 Y1133.502 Z-60.144
N10180 Y1135.61 Z-60.792
N10185 Y1137.633 Z-61.738
N10190 Y1140.841 Z-63.375
N10195 Y1141.541 Z-63.995
N10200 Y1142.86 Z-66.257
N10205 Y1142.897 Z-70.
N10210 G3 Y1143.85 Z-70.943 J0.953 K0.009
N10215 G1 Y1179.942
N10220 X268.314 Y1180.176
N10225 X268.259 Y1180.405
N10230 X268.169 Y1180.623
N10235 X268.046 Y1180.823 Z-70.944
N10240 X267.893 Y1181.002
N10245 X267.714 Y1181.155
N10250 X267.513 Y1181.278 Z-70.945
N10255 X267.296 Y1181.368
N10260 X267.067 Y1181.423
N10265 X266.832 Y1181.442 Z-70.946
N10270 X266.598 Y1181.423
N10275 X266.369 Y1181.368 Z-70.947
N10280 X266.152 Y1181.278
N10285 X265.951 Y1181.155
N10290 X265.772 Y1181.002 Z-70.948
N10295 X265.619 Y1180.823
N10300 X265.496 Y1180.623
N10305 X265.406 Y1180.405
N10310 X265.351 Y1180.176
N10315 X265.333 Y1179.942
N10320 G2 Y1178.989 Z-70. J0. K0.952
N10325 G1 Y1178.97 Z-65.578
N10330 Y1177.839 Z-63.265
N10335 Y1177.172 Z-62.64
N10340 Y1173.868 Z-60.66
N10345 Y1172.577 Z-60.044
N10350 Y1167.984 Z-58.478
N10355 Y1164.755 Z-57.528
N10360 Y1159.637 Z-56.409
N10365 Y1152.446 Z-54.928
N10370 Y1146.517 Z-54.036
N10375 Y1134.406 Z-52.325
N10380 Y1115.249 Z-50.336
N10385 Y1101.8 Z-49.193
N10390 Y1077.963 Z-47.488
N10395 Y1055.852 Z-46.218
N10400 Y1016.268 Z-44.32
N10405 Y983.362 Z-43.038
N10410 Y930.561 Z-41.335
N10415 Y883.881 Z-40.181
N10420 Y837.966 Z-39.337
N10425 Y798.173 Z-38.886
N10430 Y756.85 Z-38.726
N10435 Y718.588 Z-38.872
N10440 Y688.743 Z-39.317
N10445 Y654.307 Z-40.133
N10450 Y636.077 Z-40.817
N10455 Y611.464 Z-42.015
N10460 Y599.598 Z-42.778
N10465 Y582.11 Z-44.15
N10470 Y572.574 Z-45.091
N10475 Y557.471 Z-46.919
N10480 Y552.811 Z-47.66
N10485 Y542.121 Z-49.617
N10490 Y538.837 Z-50.422
N10495 Y531.288 Z-52.651
N10500 Y529.404 Z-53.509
N10505 Y525.679 Z-55.436
N10510 Y524.789 Z-56.076
N10515 Y523.448 Z-58.344
N10520 Y523.183 Z-58.817
N10525 Y523.104 Z-59.175
N10530 Z-70.
N10535 G2 Y522.151 Z-70.952 J-0.953 K0.
N10540 G1 Y488.285
N10545 X265.314 Y488.05
N10550 X265.259 Y487.821
N10555 X265.169 Y487.604
N10560 X265.046 Y487.403
N10565 X264.893 Y487.224
N10570 X264.714 Y487.071
N10575 X264.514 Y486.948
N10580 X264.296 Y486.858 Z-70.951
N10585 X264.067 Y486.803
N10590 X263.833 Y486.785
N10595 X263.598 Y486.803
N10600 X263.369 Y486.858 Z-70.95
N10605 X263.152 Y486.948
N10610 X262.951 Y487.071
N10615 X262.772 Y487.224
N10620 X262.619 Y487.403 Z-70.949
N10625 X262.496 Y487.604
N10630 X262.406 Y487.821
N10635 X262.351 Y488.05
N10640 X262.333 Y488.285
N10645 G3 Y489.237 Z-70. J0. K0.952
N10650 G1 Y489.28 Z-57.954
N10655 Y490.603 Z-55.394
N10660 Y491.18 Z-54.753
N10665 Y493.043 Z-53.6
N10670 Y495.993 Z-51.886
N10675 Y497.333 Z-51.36
N10680 Y503.464 Z-49.374
N10685 Y506.732 Z-48.5
N10690 Y514.431 Z-46.874
N10695 Y519.067 Z-45.993
N10700 Y529.519 Z-44.476
N10705 Y537.686 Z-43.407
N10710 Y554.99 Z-41.704
N10715 Y564.175 Z-40.959
N10720 Y583.574 Z-39.694
N10725 Y595.429 Z-39.037
N10730 Y614.286 Z-38.256
N10735 Y637.99 Z-37.424
N10740 Y673.957 Z-36.693
N10745 Y711.454 Z-36.246
N10750 Y752.777 Z-36.194
N10755 Y797.927 Z-36.451
N10760 Y843.076 Z-37.013
N10765 Y894.347 Z-37.982
N10770 Y937.201 Z-39.025
N10775 Y998.421 Z-40.886
N10780 Y1034.387 Z-42.244
N10785 Y1072.585 Z-43.933
N10790 Y1093.239 Z-45.027
N10795 Y1118.829 Z-46.649
N10800 Y1133.799 Z-47.793
N10805 Y1153.215 Z-49.567
N10810 Y1166.617 Z-51.167
N10815 Y1173.306 Z-52.05
N10820 Y1184.399 Z-53.901
N10825 Y1188.072 Z-54.616
N10830 Y1195.933 Z-56.545
N10835 Y1198.79 Z-57.375
N10840 Y1202.986 Z-58.989
N10845 Y1204.879 Z-59.872
N10850 Y1207.615 Z-61.769
N10855 Y1208.391 Z-62.52
N10860 Y1209.341 Z-64.758
N10865 Y1209.366 Z-70.
N10870 G3 Y1210.318 Z-70.948 J0.953 K0.005
N10875 G1 Y1236.638 Z-70.946
N10880 G17 G3 X259.333 I-1.5 J0.
N10885 G19 G2 Y1235.686 Z-70. J0. K0.952
N10890 G1 Y1235.646 Z-63.883
N10895 Y1234.881 Z-61.811
N10900 Y1234.224 Z-61.061
N10905 Y1231.822 Z-59.145
N10910 Y1230.578 Z-58.466
N10915 Y1226.452 Z-56.702
N10920 Y1223.625 Z-55.792
N10925 Y1217.281 Z-54.004
N10930 Y1215.094 Z-53.516
N10935 Y1205.526 Z-51.657
N10940 Y1198.861 Z-50.632
N10945 Y1189.205 Z-49.292
N10950 Y1181.009 Z-48.379
N10955 Y1167.582 Z-46.995
N10960 Y1148.144 Z-45.449
N10965 Y1133.895 Z-44.435
N10970 Y1095.644 Z-42.312
N10975 Y1068.129 Z-41.114
N10980 Y1031.4 Z-39.709
N10985 Y985.485 Z-38.198
N10990 Y922.735 Z-36.508
N10995 Y853.098 Z-35.13
N11000 Y800.296 Z-34.393
N11005 Y749.025 Z-34.003
N11010 Y712.293 Z-33.958
N11015 Y668.674 Z-34.302
N11020 Y632.707 Z-34.851
N11025 Y595.976 Z-35.908
N11030 Y579.795 Z-36.527
N11035 Y554.661 Z-37.816
N11040 Y541.517 Z-38.685
N11045 Y522.688 Z-40.197
N11050 Y511.668 Z-41.367
N11055 Y500.359 Z-42.715
N11060 Y494.882 Z-43.563
N11065 Y484.659 Z-45.268
N11070 Y476.647 Z-47.134
N11075 Y473.078 Z-48.02
N11080 Y469.879 Z-49.136
N11085 Y465.803 Z-50.653
N11090 Y464.263 Z-51.431
N11095 Y460.823 Z-53.688
N11100 Y460.117 Z-54.385
N11105 Y458.867 Z-57.017
N11110 Y458.817 Z-57.307
N11115 Y458.816 Z-70.
N11120 G2 Y457.864 Z-70.952 J-0.953 K0.
N11125 G1 Y430.275
N11130 G17 G2 X256.333 I-1.5 J0.
N11135 G19 G3 Y431.227 Z-70. J0. K0.952
N11140 G1 Z-56.486
N11145 Y431.292 Z-56.117
N11150 Y432.183 Z-54.065
N11155 Y432.619 Z-53.267
N11160 Y433.163 Z-52.773
N11165 Y436.001 Z-50.691
N11170 Y437.221 Z-49.975
N11175 Y442.504 Z-47.832
N11180 Y445.073 Z-46.943
N11185 Y451.881 Z-45.143
N11190 Y455.824 Z-44.223
N11195 Y464.223 Z-42.673
N11200 Y470.205 Z-41.675
N11205 Y485.809 Z-39.646
N11210 Y494.979 Z-38.735
N11215 Y510.497 Z-37.336
N11220 Y524.948 Z-36.36
N11225 Y542.357 Z-35.314
N11230 Y564.196 Z-34.372
N11235 Y584.824 Z-33.61
N11240 Y624.617 Z-32.699
N11245 Y650.635 Z-32.307
N11250 Y697.315 Z-32.062
N11255 Y748.586 Z-32.129
N11260 Y799.858 Z-32.516
N11265 Y852.66 Z-33.246
N11270 Y919.236 Z-34.554
N11275 Y978.16 Z-36.088
N11280 Y1044.736 Z-38.105
N11285 Y1091.416 Z-39.761
N11290 Y1121.172 Z-41.127
N11295 Y1146.302 Z-42.437
N11300 Y1168.777 Z-43.908
N11305 Y1180.848 Z-44.817
N11310 Y1200.917 Z-46.652
N11315 Y1213.576 Z-48.158
N11320 Y1219.523 Z-48.933
N11325 Y1228.406 Z-50.361
N11330 Y1232.834 Z-51.137
N11335 Y1238.539 Z-52.398
N11340 Y1243.629 Z-53.607
N11345 Y1248.616 Z-55.227
N11350 Y1250.692 Z-55.986
N11355 Y1254.412 Z-57.784
N11360 Y1255.767 Z-58.611
N11365 Y1257.695 Z-60.272
N11370 Y1258.317 Z-61.056
N11375 Y1258.986 Z-63.178
N11380 Y1259. Z-70.
N11385 G3 Y1259.953 Z-70.951 J0.953 K0.002
N11390 G1 Y1280.715
N11395 X256.314 Y1280.95
N11400 X256.26 Y1281.179 Z-70.95
N11405 X256.169 Y1281.396
N11410 X256.047 Y1281.597
N11415 X255.894 Y1281.776
N11420 X255.715 Y1281.929
N11425 X255.514 Y1282.052
N11430 X255.297 Y1282.142 Z-70.949
N11435 X255.068 Y1282.197
N11440 X254.833 Y1282.215
N11445 X254.598 Y1282.197
N11450 X254.37 Y1282.142 Z-70.948
N11455 X254.152 Y1282.052
N11460 X253.951 Y1281.929
N11465 X253.772 Y1281.776
N11470 X253.62 Y1281.597
N11475 X253.497 Y1281.396 Z-70.947
N11480 X253.407 Y1281.179
N11485 X253.352 Y1280.95
N11490 X253.333 Y1280.715
N11495 G2 Y1279.763 Z-70. J0. K0.952
N11500 G1 Y1279.72 Z-62.207
N11505 Y1279.17 Z-60.374
N11510 Y1278.978 Z-60.009
N11515 Y1278.232 Z-59.192
N11520 Y1276.684 Z-57.705
N11525 Y1274.943 Z-56.643
N11530 Y1272.322 Z-55.224
N11535 Y1269.548 Z-54.169
N11540 Y1265.297 Z-52.734
N11545 Y1257.683 Z-50.766
N11550 Y1253.646 Z-49.972
N11555 Y1245.685 Z-48.506
N11560 Y1237.674 Z-47.359
N11565 Y1229.5 Z-46.261
N11570 Y1212.347 Z-44.473
N11575 Y1200.392 Z-43.466
N11580 Y1182.429 Z-42.125
N11585 Y1161.076 Z-40.87
N11590 Y1140.562 Z-39.784
N11595 Y1103.887 Z-38.28
N11600 Y1049.554 Z-36.343
N11605 Y1002.109 Z-34.959
N11610 Y922.523 Z-32.968
N11615 Y845.234 Z-31.539
N11620 Y783.249 Z-30.72
N11625 Y727.386 Z-30.286
N11630 Y689.124 Z-30.212
N11635 Y638.618 Z-30.543
N11640 Y591.938 Z-31.182
N11645 Y563.624 Z-31.939
N11650 Y536.229 Z-32.891
N11655 Y510.184 Z-34.199
N11660 Y497.751 Z-34.987
N11665 Y479.062 Z-36.408
N11670 Y469.526 Z-37.34
N11675 Y457.229 Z-38.66
N11680 Y448.403 Z-39.876
N11685 Y439.292 Z-41.265
N11690 Y428.933 Z-43.339
N11695 Y425.321 Z-44.205
N11700 Y417.939 Z-46.368
N11705 Y415.417 Z-47.376
N11710 Y411.581 Z-49.084
N11715 Y410.303 Z-49.861
N11720 Y407.355 Z-52.187
N11725 Y406.83 Z-52.9
N11730 Y405.835 Z-55.338
N11735 Y405.786 Z-55.679
N11740 Y405.785 Z-70.
N11745 G2 Y404.833 Z-70.952 J-0.952 K0.
N11750 G1 Y381.258 Z-70.95
N11755 G17 G2 X250.333 I-1.5 J0.
N11760 G19 G3 Y382.21 Z-70. J0. K0.952
N11765 G1 Y382.253 Z-54.489
N11770 Y383.166 Z-51.975
N11775 Y383.755 Z-51.216
N11780 Y386.251 Z-49.113
N11785 Y387.346 Z-48.39
N11790 Y390.6 Z-46.843
N11795 Y393.08 Z-45.736
N11800 Y398.519 Z-44.015
N11805 Y402.41 Z-42.887
N11810 Y408.12 Z-41.615
N11815 Y414.207 Z-40.336
N11820 Y425.751 Z-38.47
N11825 Y433.401 Z-37.458
N11830 Y447.542 Z-35.828
N11835 Y463.37 Z-34.445
N11840 Y474.919 Z-33.555
N11845 Y500.318 Z-32.043
N11850 Y517.471 Z-31.296
N11855 Y542.672 Z-30.356
N11860 Y582.464 Z-29.476
N11865 Y625.318 Z-28.827
N11870 Y666.641 Z-28.66
N11875 Y720.209 Z-28.745
N11880 Y779.132 Z-29.166
N11885 Y841.117 Z-29.964
N11890 Y911.52 Z-31.231
N11895 Y965.087 Z-32.467
N11900 Y1050.029 Z-34.743
N11905 Y1111.249 Z-36.644
N11910 Y1147.149 Z-38.132
N11915 Y1180.731 Z-39.706
N11920 Y1193.65 Z-40.476
N11925 Y1214.744 Z-41.88
N11930 Y1232.676 Z-43.424
N11935 Y1243.119 Z-44.484
N11940 Y1255.773 Z-46.012
N11945 Y1263.924 Z-47.265
N11950 Y1270.295 Z-48.345
N11955 Y1278.629 Z-50.127
N11960 Y1284.942 Z-51.863
N11965 Y1287.855 Z-52.885
N11970 Y1291.903 Z-54.543
N11975 Y1295.004 Z-56.333
N11980 Y1296.109 Z-57.122
N11985 Y1297.536 Z-58.691
N11990 Y1298.109 Z-59.547
N11995 Y1298.641 Z-61.701
N12000 Y1298.642 Z-70.
N12005 G3 Y1299.594 Z-70.952 J0.953 K0.
N12010 G1 Y1316.804
N12015 X250.315 Y1317.039
N12020 X250.26 Y1317.267
N12025 X250.17 Y1317.485
N12030 X250.047 Y1317.686
N12035 X249.894 Y1317.865
N12040 X249.715 Y1318.017
N12045 X249.514 Y1318.14 Z-70.951
N12050 X249.297 Y1318.23
N12055 X249.068 Y1318.285
N12060 X248.833 Y1318.304 Z-70.95
N12065 X248.599 Y1318.285
N12070 X248.37 Y1318.23
N12075 X248.152 Y1318.14 Z-70.949
N12080 X247.952 Y1318.017
N12085 X247.773 Y1317.865
N12090 X247.62 Y1317.686 Z-70.948
N12095 X247.497 Y1317.485
N12100 X247.407 Y1317.267
N12105 X247.352 Y1317.039
N12110 X247.333 Y1316.804
N12115 G2 Y1315.851 Z-70. J0. K0.952
N12120 G1 Y1315.807 Z-60.541
N12125 Y1315.363 Z-58.789
N12130 Y1314.842 Z-57.955
N12135 Y1313.35 Z-56.244
N12140 Y1312.248 Z-55.429
N12145 Y1309.877 Z-53.892
N12150 Y1308.564 Z-53.256
N12155 Y1305.124 Z-51.802
N12160 Y1303.017 Z-51.092
N12165 Y1298.147 Z-49.598
N12170 Y1295.977 Z-49.048
N12175 Y1288.658 Z-47.43
N12180 Y1281.277 Z-46.13
N12185 Y1274.61 Z-45.103
N12190 Y1263.456 Z-43.662
N12195 Y1256. Z-42.872
N12200 Y1242.564 Z-41.585
N12205 Y1223.106 Z-40.127
N12210 Y1210.248 Z-39.315
N12215 Y1168.16 Z-37.155
N12220 Y1142.907 Z-36.158
N12225 Y1079.392 Z-34.058
N12230 Y1021.998 Z-32.445
N12235 Y922.516 Z-30.099
N12240 Y835.278 Z-28.575
N12245 Y770.233 Z-27.727
N12250 Y708.248 Z-27.209
N12255 Y657.742 Z-27.166
N12260 Y602.644 Z-27.459
N12265 Y569.738 Z-27.85
N12270 Y523.824 Z-28.969
N12275 Y500.916 Z-29.711
N12280 Y472.176 Z-31.063
N12285 Y458.066 Z-31.957
N12290 Y442.014 Z-33.097
N12295 Y426.347 Z-34.55
N12300 Y417.336 Z-35.515
N12305 Y403.22 Z-37.356
N12310 Y392.953 Z-39.08
N12315 Y387.174 Z-40.174
N12320 Y378.68 Z-42.181
N12325 Y375.443 Z-43.156
N12330 Y370.686 Z-44.767
N12335 Y368.797 Z-45.574
N12340 Y365.053 Z-47.484
N12345 Y363.853 Z-48.304
N12350 Y361.383 Z-50.612
N12355 Y360.981 Z-51.315
N12360 Y360.26 Z-53.535
N12365 Y360.192 Z-53.958
N12370 Z-70.
N12375 X247.34 Y360.191 Z-70.115
N12380 X247.361 Y360.189 Z-70.228
N12385 X247.395 Y360.184 Z-70.338
N12390 X247.442 Y360.179 Z-70.443
N12395 X247.501 Y360.171 Z-70.541
N12400 X247.571 Y360.162 Z-70.632
N12405 X247.652 Y360.152 Z-70.713
N12410 X247.742 Y360.141 Z-70.784
N12415 X247.839 Y360.128 Z-70.843
N12420 X247.943 Y360.115 Z-70.891
N12425 X248.052 Y360.101 Z-70.925
N12430 X248.164 Y360.087 Z-70.946
N12435 X248.278 Y360.073 Z-70.952
N12440 G17 G2 X249.111 Y359.128 I-0.119 J-0.945
N12445 G1 Y338.548
N12450 G2 X244.334 I-2.389 J0.
N12455 G19 G3 Y339.5 Z-70. J0. K0.952
N12460 G1 Y339.501 Z-53.132
N12465 Y339.555 Z-52.736
N12470 Y340.181 Z-50.547
N12475 Y340.515 Z-49.869
N12480 Y342.785 Z-47.587
N12485 Y343.633 Z-46.931
N12490 Y347.928 Z-44.559
N12495 Y349.896 Z-43.765
N12500 Y355.696 Z-41.723
N12505 Y358.452 Z-40.982
N12510 Y365.798 Z-39.163
N12515 Y376.993 Z-37.062
N12520 Y384.474 Z-35.954
N12525 Y395.612 Z-34.468
N12530 Y414.093 Z-32.542
N12535 Y427.092 Z-31.492
N12540 Y441.334 Z-30.456
N12545 Y467.834 Z-29.008
N12550 Y486.277 Z-28.278
N12555 Y529.13 Z-26.951
N12560 Y563.566 Z-26.384
N12565 Y613.307 Z-25.873
N12570 Y645.448 Z-25.771
N12575 Y705.902 Z-25.967
N12580 Y769.417 Z-26.49
N12585 Y835.228 Z-27.342
N12590 Y920.936 Z-28.832
N12595 Y1013.53 Z-30.978
N12600 Y1106.89 Z-33.416
N12605 Y1142.857 Z-34.597
N12610 Y1195.659 Z-36.633
N12615 Y1220.147 Z-37.936
N12620 Y1243.758 Z-39.351
N12625 Y1255.721 Z-40.291
N12630 Y1268.421 Z-41.391
N12635 Y1283.516 Z-43.038
N12640 Y1296.54 Z-44.887
N12645 Y1306.706 Z-46.773
N12650 Y1311.803 Z-47.996
N12655 Y1316.139 Z-49.146
N12660 Y1320.536 Z-50.602
N12665 Y1323.009 Z-51.63
N12670 Y1326.313 Z-53.25
N12675 Y1328.754 Z-54.932
N12680 Y1329.753 Z-55.817
N12685 Y1330.817 Z-57.142
N12690 Y1331.302 Z-57.954
N12695 Y1331.712 Z-59.729
N12700 Y1331.753 Z-70.
N12705 X243.596 Y1335.411
N12710 X242.49 Y1340.899
N12715 X242.11 Y1342.726
N12720 X241.334 Y1346.376
N12725 Y1346.327 Z-58.878
N12730 Y1345.951 Z-57.178
N12735 Y1345.583 Z-56.499
N12740 Y1344.408 Z-54.892
N12745 Y1343.406 Z-54.004
N12750 Y1341.352 Z-52.464
N12755 Y1338.07 Z-50.788
N12760 Y1335.821 Z-49.85
N12765 Y1331.597 Z-48.329
N12770 Y1326.552 Z-46.949
N12775 Y1322.185 Z-45.906
N12780 Y1315.571 Z-44.569
N12785 Y1307.433 Z-43.245
N12790 Y1300.007 Z-42.219
N12795 Y1288.837 Z-40.901
N12800 Y1277.639 Z-39.849
N12805 Y1267.926 Z-39.012
N12810 Y1246.074 Z-37.562
N12815 Y1229.344 Z-36.558
N12820 Y1181.133 Z-34.482
N12825 Y1156.645 Z-33.607
N12830 Y1078.59 Z-31.373
N12835 Y995.179 Z-29.305
N12840 Y915.593 Z-27.582
N12845 Y818.407 Z-25.97
N12850 Y743.413 Z-25.036
N12855 Y689.846 Z-24.658
N12860 Y629.391 Z-24.548
N12865 Y575.824 Z-24.734
N12870 Y529.91 Z-25.404
N12875 Y492.413 Z-26.2
N12880 Y462.577 Z-27.288
N12885 Y441.431 Z-28.18
N12890 Y420.817 Z-29.413
N12895 Y411.386 Z-30.043
N12900 Y390.034 Z-31.851
N12905 Y378.196 Z-33.137
N12910 Y368.53 Z-34.304
N12915 Y355.938 Z-36.217
N12920 Y349.322 Z-37.493
N12925 Y343.239 Z-38.778
N12930 Y335.936 Z-40.771
N12935 Y333.357 Z-41.609
N12940 Y328.195 Z-43.656
N12945 Y326.969 Z-44.298
N12950 Y324.067 Z-46.017
N12955 Y322.989 Z-46.854
N12960 Y321.043 Z-48.952
N12965 Y320.628 Z-49.741
N12970 Y320.039 Z-52.028
N12975 Y320.009 Z-70.
N12980 G2 Y319.057 Z-70.951 J-0.953 K0.002
N12985 G1 Y300.595 Z-70.952
N12990 G17 G2 X238.334 I-1.5 J0.
N12995 G19 G3 Y301.548 Z-70. J0. K0.952
N13000 G1 Z-51.54
N13005 Y302.087 Z-49.026
N13010 Y302.356 Z-48.382
N13015 Y304.13 Z-46.297
N13020 Y304.696 Z-45.745
N13025 Y307.537 Z-43.893
N13030 Y309.349 Z-42.876
N13035 Y311.354 Z-42.024
N13040 Y315.121 Z-40.52
N13045 Y321.416 Z-38.63
N13050 Y325.658 Z-37.574
N13055 Y333.865 Z-35.819
N13060 Y344.949 Z-33.979
N13065 Y351.926 Z-33.019
N13070 Y364.417 Z-31.503
N13075 Y374.564 Z-30.526
N13080 Y387.768 Z-29.358
N13085 Y410.917 Z-27.773
N13090 Y427.002 Z-26.944
N13095 Y458.064 Z-25.598
N13100 Y482.639 Z-24.9
N13105 Y530.084 Z-23.901
N13110 Y579.825 Z-23.482
N13115 Y638.749 Z-23.318
N13120 Y701.499 Z-23.651
N13125 Y774.197 Z-24.37
N13130 Y854.548 Z-25.514
N13135 Y937.194 Z-26.993
N13140 Y1085.652 Z-30.373
N13145 Y1130.801 Z-31.562
N13150 Y1198.908 Z-33.706
N13155 Y1221.865 Z-34.657
N13160 Y1258.583 Z-36.448
N13165 Y1279.612 Z-37.907
N13170 Y1291.583 Z-38.819
N13175 Y1307.252 Z-40.376
N13180 Y1320.635 Z-42.107
N13185 Y1330.433 Z-43.739
N13190 Y1335.963 Z-44.912
N13195 Y1341.06 Z-46.11
N13200 Y1346.082 Z-47.602
N13205 Y1348.739 Z-48.58
N13210 Y1351.839 Z-49.82
N13215 Y1354.445 Z-51.242
N13220 Y1355.962 Z-52.217
N13225 Y1358.094 Z-54.042
N13230 Y1359.233 Z-55.645
N13235 Y1359.712 Z-56.626
N13240 Y1360.005 Z-58.104
N13245 Y1360.047 Z-70.
N13250 X237.975 Y1361.648
N13255 X237.605 Y1363.246
N13260 X235.72 Y1371.228
N13265 X235.334 Y1372.823
N13270 Y1372.771 Z-57.247
N13275 Y1372.53 Z-55.886
N13280 Y1372.142 Z-54.979
N13285 Y1371.292 Z-53.659
N13290 Y1370.437 Z-52.746
N13295 Y1368.797 Z-51.339
N13300 Y1365.739 Z-49.474
N13305 Y1363.753 Z-48.521
N13310 Y1360.996 Z-47.366
N13315 Y1358.887 Z-46.647
N13320 Y1354.017 Z-45.16
N13325 Y1348.925 Z-43.932
N13330 Y1344.53 Z-43.004
N13335 Y1337.154 Z-41.675
N13340 Y1326.763 Z-40.191
N13345 Y1319.317 Z-39.319
N13350 Y1308.876 Z-38.238
N13355 Y1287.94 Z-36.596
N13360 Y1278.162 Z-35.922
N13365 Y1238.369 Z-33.876
N13370 Y1186.333 Z-32.017
N13375 Y1152.662 Z-31.002
N13380 Y1040.936 Z-28.281
N13385 Y920.793 Z-25.642
N13390 Y811.363 Z-23.855
N13395 Y740.96 Z-22.994
N13400 Y668.262 Z-22.427
N13405 Y601.762 Z-22.223
N13410 Y569.628 Z-22.319
N13415 Y514.531 Z-22.847
N13420 Y487.747 Z-23.274
N13425 Y441.833 Z-24.53
N13430 Y426.009 Z-25.123
N13435 Y395.112 Z-26.671
N13440 Y381.754 Z-27.508
N13445 Y362.394 Z-28.986
N13450 Y350.542 Z-30.14
N13455 Y340.04 Z-31.27
N13460 Y326.085 Z-33.16
N13465 Y315.828 Z-34.947
N13470 Y310.548 Z-36.042
N13475 Y303.697 Z-37.684
N13480 Y296.796 Z-39.849
N13485 Y294.586 Z-40.747
N13490 Y290.754 Z-42.485
N13495 Y288.449 Z-43.981
N13500 Y287.207 Z-44.836
N13505 Y286.402 Z-45.604
N13510 Y284.851 Z-47.511
N13515 Y284.504 Z-48.288
N13520 Y284.017 Z-50.764
N13525 Z-70.
N13530 X235.15 Y282.974
N13535 X234.226 Y277.762
N13540 X234.038 Y276.72
N13545 X233.287 Y272.552
N13550 X233.098 Y271.51
N13555 X232.334 Y267.344
N13560 Y267.345 Z-50.018
N13565 Y267.655 Z-48.222
N13570 Y267.95 Z-47.069
N13575 Y269.627 Z-44.807
N13580 Y270.582 Z-43.95
N13585 Y273.531 Z-41.899
N13590 Y275.351 Z-41.
N13595 Y279.057 Z-39.331
N13600 Y284.956 Z-37.342
N13605 Y289.669 Z-36.102
N13610 Y294.913 Z-34.84
N13615 Y305.294 Z-32.867
N13620 Y317.59 Z-31.046
N13625 Y325.096 Z-30.126
N13630 Y338.427 Z-28.686
N13635 Y357.766 Z-27.055
N13640 Y370.295 Z-26.221
N13645 Y397.557 Z-24.677
N13650 Y410.88 Z-24.069
N13655 Y456.03 Z-22.608
N13660 Y485.109 Z-22.047
N13665 Y537.911 Z-21.364
N13670 Y595.297 Z-21.219
N13675 Y661.846 Z-21.388
N13680 Y723.066 Z-21.906
N13685 Y808.773 Z-22.979
N13690 Y918.203 Z-24.75
N13695 Y1057.478 Z-27.686
N13700 Y1123.289 Z-29.21
N13705 Y1205.935 Z-31.419
N13710 Y1260.268 Z-33.453
N13715 Y1283.225 Z-34.653
N13720 Y1301.527 Z-35.736
N13725 Y1313.487 Z-36.699
N13730 Y1327.681 Z-37.937
N13735 Y1341.086 Z-39.499
N13740 Y1351.313 Z-41.039
N13745 Y1357.787 Z-42.281
N13750 Y1361.45 Z-43.04
N13755 Y1367.968 Z-44.746
N13760 Y1372.237 Z-46.143
N13765 Y1374.136 Z-46.885
N13770 Y1377.682 Z-48.517
N13775 Y1380.107 Z-49.98
N13780 Y1381.249 Z-50.789
N13785 Y1382.331 Z-51.814
N13790 Y1383.213 Z-52.757
N13795 Y1383.897 Z-53.89
N13800 Y1384.411 Z-54.916
N13805 Y1384.703 Z-56.52
N13810 Y1384.743 Z-70.
N13815 X231.6 Y1387.558
N13820 X230.866 Y1390.373
N13825 X230.486 Y1391.777
N13830 X229.334 Y1395.987
N13835 Y1395.941 Z-55.703
N13840 Y1395.678 Z-54.186
N13845 Y1395.296 Z-53.35
N13850 Y1394.456 Z-51.923
N13855 Y1392.495 Z-49.922
N13860 Y1391.352 Z-49.093
N13865 Y1389.795 Z-48.067
N13870 Y1386.489 Z-46.434
N13875 Y1384.09 Z-45.443
N13880 Y1380.569 Z-44.189
N13885 Y1374.798 Z-42.591
N13890 Y1371.888 Z-41.904
N13895 Y1365.279 Z-40.558
N13900 Y1357.141 Z-39.226
N13905 Y1351.2 Z-38.419
N13910 Y1341.894 Z-37.31
N13915 Y1322.85 Z-35.58
N13920 Y1315.341 Z-35.038
N13925 Y1289.285 Z-33.457
N13930 Y1251.214 Z-31.83
N13935 Y1228.256 Z-31.02
N13940 Y1150.967 Z-28.881
N13945 Y935.168 Z-24.232
N13950 Y829.564 Z-22.449
N13955 Y742.326 Z-21.283
N13960 Y662.74 Z-20.533
N13965 Y600.756 Z-20.215
N13970 Y538.322 Z-20.349
N13975 Y495.469 Z-20.669
N13980 Y444.197 Z-21.593
N13985 Y424.301 Z-22.102
N13990 Y396.776 Z-23.108
N13995 Y376.532 Z-23.987
N14000 Y357.777 Z-25.114
N14005 Y337.741 Z-26.449
N14010 Y323.714 Z-27.688
N14015 Y315.213 Z-28.511
N14020 Y300.563 Z-30.269
N14025 Y291.601 Z-31.623
N14030 Y285.47 Z-32.65
N14035 Y276.589 Z-34.472
N14040 Y269.416 Z-36.35
N14045 Y266.194 Z-37.383
N14050 Y262.246 Z-38.81
N14055 Y259.78 Z-39.961
N14060 Y257.372 Z-41.184
N14065 Y256.2 Z-41.967
N14070 Y254.051 Z-43.616
N14075 Y253.294 Z-44.481
N14080 Y252.053 Z-46.234
N14085 Y251.807 Z-46.971
N14090 Y251.434 Z-49.246
N14095 Z-70.
N14100 X228.967 Y249.531
N14105 X228.225 Y245.727
N14110 X227.85 Y243.825
N14115 X227.474 Y241.924
N14120 X227.097 Y240.023
N14125 X226.334 Y236.222
N14130 Y236.223 Z-48.528
N14135 Y236.567 Z-46.224
N14140 Y236.805 Z-45.521
N14145 Y238.013 Z-43.73
N14150 Y238.776 Z-42.875
N14155 Y241.482 Z-40.764
N14160 Y245.422 Z-38.659
N14165 Y248.344 Z-37.487
N14170 Y252.156 Z-36.106
N14175 Y258.645 Z-34.27
N14180 Y262.737 Z-33.329
N14185 Y269.482 Z-31.917
N14190 Y280.415 Z-30.096
N14195 Y288.731 Z-28.986
N14200 Y298.116 Z-27.849
N14205 Y315.093 Z-26.194
N14210 Y329.308 Z-25.139
N14215 Y349.318 Z-23.784
N14220 Y368.526 Z-22.836
N14225 Y397.215 Z-21.596
N14230 Y414.805 Z-21.061
N14235 Y463.78 Z-19.984
N14240 Y515.817 Z-19.479
N14245 Y564.027 Z-19.279
N14250 Y634.43 Z-19.515
N14255 Y711.72 Z-20.119
N14260 Y792.07 Z-21.128
N14265 Y915.275 Z-23.082
N14270 Y1052.636 Z-25.86
N14275 Y1197.65 Z-29.097
N14280 Y1264.227 Z-31.105
N14285 Y1306.315 Z-32.949
N14290 Y1319.954 Z-33.793
N14295 Y1337.248 Z-34.975
N14300 Y1348.446 Z-36.032
N14305 Y1358.888 Z-37.102
N14310 Y1370.029 Z-38.619
N14315 Y1378.886 Z-40.178
N14320 Y1384.735 Z-41.481
N14325 Y1389.794 Z-42.849
N14330 Y1392.635 Z-43.748
N14335 Y1396.814 Z-45.359
N14340 Y1399.489 Z-46.67
N14345 Y1400.75 Z-47.383
N14350 Y1403.13 Z-49.085
N14355 Y1405.084 Z-51.104
N14360 Y1406.057 Z-52.802
N14365 Y1406.392 Z-53.753
N14370 Y1406.583 Z-55.016
N14375 Y1406.615 Z-70.
N14380 X225.973 Y1407.875
N14385 X225.599 Y1409.131
N14390 X223.715 Y1415.41
N14395 X223.335 Y1416.665
N14400 Y1416.631 Z-54.239
N14405 Y1416.34 Z-52.519
N14410 Y1415.575 Z-50.948
N14415 Y1414.899 Z-50.008
N14420 Y1413.691 Z-48.693
N14425 Y1411.414 Z-46.928
N14430 Y1409.536 Z-45.811
N14435 Y1406.899 Z-44.472
N14440 Y1403.423 Z-43.095
N14445 Y1399.159 Z-41.721
N14450 Y1395.552 Z-40.756
N14455 Y1389.804 Z-39.426
N14460 Y1381.599 Z-37.941
N14465 Y1371.138 Z-36.464
N14470 Y1354.428 Z-34.716
N14475 Y1346.575 Z-34.092
N14480 Y1326.296 Z-32.684
N14485 Y1288.04 Z-30.868
N14490 Y1230.647 Z-29.028
N14495 Y1124.278 Z-26.57
N14500 Y913.835 Z-22.359
N14505 Y792.161 Z-20.432
N14510 Y698.036 Z-19.253
N14515 Y630.695 Z-18.662
N14520 Y559.527 Z-18.443
N14525 Y508.255 Z-18.533
N14530 Y450.862 Z-19.138
N14535 Y426.374 Z-19.563
N14540 Y391.173 Z-20.521
N14545 Y367.618 Z-21.373
N14550 Y339.327 Z-22.769
N14555 Y324.084 Z-23.626
N14560 Y302.18 Z-25.28
N14565 Y293.15 Z-26.037
N14570 Y276.987 Z-27.768
N14575 Y264.004 Z-29.541
N14580 Y255.071 Z-31.077
N14585 Y249.782 Z-32.131
N14590 Y243.069 Z-33.693
N14595 Y236.456 Z-35.649
N14600 Y231.416 Z-37.597
N14605 Y229.572 Z-38.489
N14610 Y226.613 Z-40.154
N14615 Y224.457 Z-41.896
N14620 Y223.942 Z-42.342
N14625 Y223.231 Z-43.222
N14630 Y222.094 Z-45.066
N14635 Y221.91 Z-45.947
N14640 Y221.66 Z-47.825
N14645 Z-70.
N14650 X222.596 Y218.167
N14655 X221.85 Y214.675
N14660 X221.473 Y212.93
N14665 X221.096 Y211.186
N14670 X220.716 Y209.441
N14675 X220.335 Y207.698
N14680 Z-47.066
N14685 Y208.071 Z-44.475
N14690 Y209.18 Z-42.553
N14695 Y209.913 Z-41.641
N14700 Y211.597 Z-40.158
N14705 Y212.872 Z-39.245
N14710 Y216.128 Z-37.405
N14715 Y220.016 Z-35.76
N14720 Y223.194 Z-34.646
N14725 Y228.361 Z-33.088
N14730 Y236.229 Z-31.216
N14735 Y245.982 Z-29.389
N14740 Y257.946 Z-27.62
N14745 Y266.275 Z-26.625
N14750 Y276.624 Z-25.504
N14755 Y297.152 Z-23.781
N14760 Y308.289 Z-22.994
N14765 Y336.793 Z-21.389
N14770 Y350.854 Z-20.741
N14775 Y394.465 Z-19.202
N14780 Y412.831 Z-18.741
N14785 Y467.163 Z-17.934
N14790 Y500.834 Z-17.704
N14795 Y567.411 Z-17.618
N14800 Y615.621 Z-17.835
N14805 Y698.267 Z-18.559
N14810 Y792.393 Z-19.738
N14815 Y914.067 Z-21.664
N14820 Y1175.78 Z-26.881
N14825 Y1258.427 Z-28.868
N14830 Y1307.976 Z-30.543
N14835 Y1342.592 Z-32.283
N14840 Y1360.559 Z-33.607
N14845 Y1368.031 Z-34.227
N14850 Y1382.937 Z-35.882
N14855 Y1387.391 Z-36.495
N14860 Y1394.794 Z-37.665
N14865 Y1401.411 Z-38.968
N14870 Y1406.507 Z-40.212
N14875 Y1409.02 Z-40.909
N14880 Y1413.629 Z-42.446
N14885 Y1416.39 Z-43.592
N14890 Y1417.726 Z-44.208
N14895 Y1420.912 Z-46.044
N14900 Y1422.689 Z-47.4
N14905 Y1423.672 Z-48.318
N14910 Y1424.115 Z-48.828
N14915 Y1425.1 Z-50.16
N14920 Y1425.905 Z-52.033
N14925 Y1426.097 Z-53.357
N14930 Y1426.146 Z-70.
N14935 X219.965 Y1427.275
N14940 X218.485 Y1431.791
N14945 X218.104 Y1432.916
N14950 X217.335 Y1435.165
N14955 Y1435.126 Z-52.693
N14960 Y1434.907 Z-51.202
N14965 Y1434.361 Z-49.882
N14970 Y1433.634 Z-48.65
N14975 Y1432.702 Z-47.485
N14980 Y1431.717 Z-46.558
N14985 Y1429.958 Z-45.196
N14990 Y1427.428 Z-43.691
N14995 Y1423.386 Z-41.831
N15000 Y1418.452 Z-40.136
N15005 Y1413.489 Z-38.787
N15010 Y1409.746 Z-37.949
N15015 Y1405.341 Z-37.047
N15020 Y1397.204 Z-35.713
N15025 Y1389.022 Z-34.69
N15030 Y1380.083 Z-33.667
N15035 Y1362.146 Z-32.202
N15040 Y1351.546 Z-31.524
N15045 Y1326.293 Z-30.208
N15050 Y1283.439 Z-28.671
N15055 Y1216.097 Z-26.977
N15060 Y1030.908 Z-23.322
N15065 Y911.53 Z-21.011
N15070 Y774.551 Z-18.859
N15075 Y683.487 Z-17.71
N15080 Y602.371 Z-17.053
N15085 Y532.351 Z-16.79
N15090 Y469.983 Z-17.037
N15095 Y436.313 Z-17.354
N15100 Y394.989 Z-18.113
N15105 Y366.675 Z-18.924
N15110 Y338.475 Z-20.013
N15115 Y317.556 Z-20.935
N15120 Y294.392 Z-22.326
N15125 Y281.579 Z-23.179
N15130 Y261.881 Z-24.918
N15135 Y253.841 Z-25.744
N15140 Y241.536 Z-27.263
N15145 Y230.613 Z-28.957
N15150 Y221.715 Z-30.686
N15155 Y217.778 Z-31.621
N15160 Y212.915 Z-32.879
N15165 Y207.205 Z-34.739
N15170 Y203.021 Z-36.507
N15175 Y201.155 Z-37.475
N15180 Y198.836 Z-38.888
N15185 Y197.737 Z-39.772
N15190 Y196.219 Z-41.181
N15195 Y195.53 Z-42.163
N15200 Y194.788 Z-43.436
N15205 Y194.535 Z-44.267
N15210 Y194.29 Z-46.411
N15215 Y194.289 Z-70.
N15220 X216.966 Y192.676
N15225 X216.595 Y191.064
N15230 X216.223 Y189.452
N15235 X215.849 Y187.841
N15240 X215.473 Y186.229
N15245 X215.095 Y184.619
N15250 X214.716 Y183.008
N15255 X214.335 Y181.398
N15260 Z-45.702
N15265 Y181.609 Z-43.713
N15270 Y181.814 Z-42.889
N15275 Y182.642 Z-41.393
N15280 Y183.128 Z-40.674
N15285 Y184.589 Z-39.243
N15290 Y185.699 Z-38.318
N15295 Y188.585 Z-36.521
N15300 Y191.785 Z-35.026
N15305 Y194.364 Z-33.986
N15310 Y199.58 Z-32.262
N15315 Y206.399 Z-30.484
N15320 Y214.617 Z-28.779
N15325 Y221.714 Z-27.59
N15330 Y227.784 Z-26.664
N15335 Y240.344 Z-25.083
N15340 Y258.321 Z-23.344
N15345 Y267.727 Z-22.577
N15350 Y291.957 Z-20.955
N15355 Y307.232 Z-20.164
N15360 Y336.426 Z-18.871
N15365 Y357.03 Z-18.165
N15370 Y401.414 Z-16.976
N15375 Y424.371 Z-16.609
N15380 Y484.06 Z-16.122
N15385 Y528.445 Z-16.078
N15390 Y603.439 Z-16.363
N15395 Y673.841 Z-16.993
N15400 Y774.088 Z-18.259
N15405 Y908.771 Z-20.374
N15410 Y1138.345 Z-24.732
N15415 Y1248.54 Z-26.928
N15420 Y1306.699 Z-28.46
N15425 Y1346.492 Z-30.004
N15430 Y1370.942 Z-31.412
N15435 Y1378.422 Z-31.996
N15440 Y1392.614 Z-33.242
N15445 Y1400.801 Z-34.239
N15450 Y1408.233 Z-35.219
N15455 Y1416.201 Z-36.607
N15460 Y1422.781 Z-38.072
N15465 Y1427.818 Z-39.502
N15470 Y1432.036 Z-40.993
N15475 Y1436.08 Z-42.865
N15480 Y1439.121 Z-44.743
N15485 Y1441.315 Z-46.708
N15490 Y1442.741 Z-48.644
N15495 Y1443.506 Z-50.482
N15500 Y1443.721 Z-51.991
N15505 Y1443.754 Z-70.
N15510 X213.602 Y1445.808
N15515 X213.235 Y1446.835
N15520 X211.335 Y1451.947
N15525 Y1451.924 Z-51.345
N15530 Y1451.735 Z-49.881
N15535 Y1451.17 Z-48.377
N15540 Y1450.416 Z-47.104
N15545 Y1449.281 Z-45.682
N15550 Y1447.425 Z-44.022
N15555 Y1444.968 Z-42.406
N15560 Y1441.988 Z-40.902
N15565 Y1439.592 Z-39.913
N15570 Y1437.491 Z-39.125
N15575 Y1432.483 Z-37.61
N15580 Y1429.581 Z-36.899
N15585 Y1424.459 Z-35.778
N15590 Y1417.819 Z-34.597
N15595 Y1405.558 Z-32.95
N15600 Y1398.473 Z-32.24
N15605 Y1385.775 Z-31.114
N15610 Y1363.782 Z-29.746
N15615 Y1329.351 Z-28.276
N15620 Y1277.314 Z-26.82
N15625 Y1192.372 Z-25.094
N15630 Y958.972 Z-20.753
N15635 Y902.344 Z-19.73
N15640 Y757.713 Z-17.463
N15645 Y674.301 Z-16.403
N15650 Y587.063 Z-15.617
N15655 Y535.792 Z-15.394
N15660 Y469.215 Z-15.423
N15665 Y430.953 Z-15.713
N15670 Y394.986 Z-16.188
N15675 Y366.672 Z-16.879
N15680 Y320.758 Z-18.357
N15685 Y307.281 Z-18.929
N15690 Y278.378 Z-20.38
N15695 Y268.502 Z-20.996
N15700 Y246.273 Z-22.623
N15705 Y235.759 Z-23.633
N15710 Y223.611 Z-24.9
N15715 Y211.14 Z-26.578
N15720 Y200.762 Z-28.343
N15725 Y192.668 Z-30.081
N15730 Y186.012 Z-31.886
N15735 Y180.763 Z-33.704
N15740 Y177.055 Z-35.365
N15745 Y175.114 Z-36.415
N15750 Y172.773 Z-37.973
N15755 Y172.144 Z-38.532
N15760 Y170.518 Z-40.198
N15765 Y169.32 Z-42.397
N15770 Y169.168 Z-43.247
N15775 Y168.995 Z-44.986
N15780 Z-70.
N15785 X210.966 Y167.5
N15790 X210.595 Y166.005
N15795 X210.222 Y164.511
N15800 X209.848 Y163.017
N15805 X209.472 Y161.523
N15810 X209.095 Y160.03
N15815 X208.716 Y158.538
N15820 X208.335 Y157.045
N15825 Y157.046 Z-44.243
N15830 Y157.336 Z-41.786
N15835 Y158.071 Z-40.303
N15840 Y158.785 Z-39.22
N15845 Y159.973 Z-38.02
N15850 Y161.072 Z-37.071
N15855 Y163.683 Z-35.37
N15860 Y165.912 Z-34.267
N15865 Y168.395 Z-33.158
N15870 Y172.992 Z-31.517
N15875 Y178.977 Z-29.82
N15880 Y186.357 Z-28.149
N15885 Y194.763 Z-26.62
N15890 Y201.061 Z-25.664
N15895 Y209.891 Z-24.473
N15900 Y227.545 Z-22.588
N15905 Y241.886 Z-21.432
N15910 Y255.972 Z-20.395
N15915 Y285.443 Z-18.772
N15920 Y298.824 Z-18.171
N15925 Y342.418 Z-16.612
N15930 Y386.037 Z-15.548
N15935 Y415.882 Z-15.055
N15940 Y447.257 Z-14.812
N15945 Y513.833 Z-14.671
N15950 Y584.236 Z-15.001
N15955 Y654.638 Z-15.625
N15960 Y759.477 Z-16.971
N15965 Y907.935 Z-19.309
N15970 Y994.407 Z-20.926
N15975 Y1231.633 Z-25.179
N15980 Y1300.505 Z-26.609
N15985 Y1343.359 Z-27.85
N15990 Y1374.351 Z-29.171
N15995 Y1383.833 Z-29.744
N16000 Y1398.887 Z-30.763
N16005 Y1414.84 Z-32.306
N16010 Y1425.702 Z-33.809
N16015 Y1430.136 Z-34.541
N16020 Y1436.01 Z-35.718
N16025 Y1441.092 Z-36.982
N16030 Y1445.73 Z-38.42
N16035 Y1449.537 Z-39.94
N16040 Y1452.854 Z-41.613
N16045 Y1455.285 Z-43.259
N16050 Y1456.873 Z-44.688
N16055 Y1457.809 Z-45.724
N16060 Y1458.908 Z-47.406
N16065 Y1459.576 Z-49.217
N16070 Y1459.739 Z-50.546
N16075 Y1459.77 Z-70.
N16080 X207.97 Y1460.708
N16085 X205.713 Y1466.312
N16090 X205.335 Y1467.245
N16095 Y1467.205 Z-49.733
N16100 Y1467.039 Z-48.413
N16105 Y1466.471 Z-46.834
N16110 Y1465.714 Z-45.567
N16115 Y1464.75 Z-44.313
N16120 Y1463.329 Z-42.927
N16125 Y1460.983 Z-41.207
N16130 Y1457.75 Z-39.453
N16135 Y1454.318 Z-38.003
N16140 Y1450.427 Z-36.7
N16145 Y1446.463 Z-35.612
N16150 Y1442.823 Z-34.752
N16155 Y1437.68 Z-33.718
N16160 Y1427.302 Z-32.152
N16165 Y1422.84 Z-31.603
N16170 Y1409.41 Z-30.261
N16175 Y1389.504 Z-28.881
N16180 Y1360.053 Z-27.536
N16185 Y1321.026 Z-26.356
N16190 Y1262.867 Z-25.119
N16195 Y1015.693 Z-20.822
N16200 Y907.028 Z-18.813
N16205 Y744.796 Z-16.248
N16210 Y645.314 Z-15.001
N16215 Y564.964 Z-14.282
N16220 Y492.265 Z-14.016
N16225 Y444.82 Z-14.13
N16230 Y398.14 Z-14.489
N16235 Y350.695 Z-15.541
N16240 Y312.433 Z-16.639
N16245 Y283.566 Z-17.783
N16250 Y266.681 Z-18.545
N16255 Y240.78 Z-20.074
N16260 Y229.664 Z-20.878
N16265 Y211.668 Z-22.398
N16270 Y194.735 Z-24.303
N16275 Y186.024 Z-25.551
N16280 Y180.552 Z-26.439
N16285 Y172.971 Z-27.879
N16290 Y166.585 Z-29.363
N16295 Y160.932 Z-30.999
N16300 Y156.489 Z-32.616
N16305 Y152.804 Z-34.335
N16310 Y151.025 Z-35.38
N16315 Y149.336 Z-36.526
N16320 Y148.256 Z-37.503
N16325 Y147.309 Z-38.467
N16330 Y146.621 Z-39.449
N16335 Y145.917 Z-40.799
N16340 Y145.704 Z-41.689
N16345 Y145.528 Z-43.502
N16350 Z-70.
N16355 X204.966 Y144.137
N16360 X204.595 Y142.747
N16365 X204.222 Y141.357
N16370 X203.848 Y139.968
N16375 X203.472 Y138.579
N16380 X203.095 Y137.191
N16385 X202.716 Y135.803
N16390 X202.335 Y134.415
N16395 Z-42.719
N16400 Y134.591 Z-40.939
N16405 Y134.827 Z-40.039
N16410 Y135.519 Z-38.712
N16415 Y136.239 Z-37.723
N16420 Y138.003 Z-36.003
N16425 Y140.586 Z-34.249
N16430 Y144.653 Z-32.236
N16435 Y149.078 Z-30.575
N16440 Y155.054 Z-28.814
N16445 Y161.767 Z-27.244
N16450 Y169.198 Z-25.837
N16455 Y179.641 Z-24.236
N16460 Y190.126 Z-22.963
N16465 Y199.059 Z-21.989
N16470 Y218.837 Z-20.268
N16475 Y242.925 Z-18.705
N16480 Y254.479 Z-18.078
N16485 Y284.426 Z-16.733
N16490 Y301.15 Z-16.129
N16495 Y349.361 Z-14.741
N16500 Y396.041 Z-13.823
N16505 Y439.66 Z-13.462
N16510 Y500.114 Z-13.428
N16515 Y554.446 Z-13.671
N16520 Y640.919 Z-14.431
N16525 Y744.227 Z-15.786
N16530 Y904.929 Z-18.338
N16535 Y1026.603 Z-20.572
N16540 Y1209.496 Z-23.631
N16545 Y1289.847 Z-24.986
N16550 Y1339.588 Z-26.074
N16555 Y1374.789 Z-27.187
N16560 Y1402.314 Z-28.521
N16565 Y1420.287 Z-29.839
N16570 Y1429.983 Z-30.853
N16575 Y1435.938 Z-31.55
N16580 Y1446.304 Z-33.186
N16585 Y1452.305 Z-34.45
N16590 Y1457.943 Z-35.983
N16595 Y1461.128 Z-37.071
N16600 Y1464.744 Z-38.578
N16605 Y1466.874 Z-39.678
N16610 Y1468.967 Z-40.986
N16615 Y1471.001 Z-42.619
N16620 Y1472.436 Z-44.163
N16625 Y1473.542 Z-45.915
N16630 Y1474.116 Z-47.498
N16635 Y1474.327 Z-48.935
N16640 Y1474.374 Z-70.
N16645 X200.103 Y1479.508
N16650 X199.336 Y1481.209
N16655 Y1481.187 Z-48.515
N16660 Y1481.003 Z-46.982
N16665 Y1480.341 Z-45.114
N16670 Y1479.678 Z-43.983
N16675 Y1478.909 Z-42.962
N16680 Y1477.89 Z-41.876
N16685 Y1475.639 Z-40.066
N16690 Y1472.469 Z-38.187
N16695 Y1469.766 Z-36.959
N16700 Y1465.569 Z-35.416
N16705 Y1460.538 Z-33.991
N16710 Y1454.692 Z-32.693
N16715 Y1445.635 Z-31.18
N16720 Y1439.875 Z-30.451
N16725 Y1430.186 Z-29.38
N16730 Y1412.985 Z-28.063
N16735 Y1388.51 Z-26.827
N16740 Y1357.135 Z-25.786
N16745 Y1313.516 Z-24.799
N16750 Y1249.236 Z-23.718
N16755 Y1070.169 Z-20.89
N16760 Y901.815 Z-17.856
N16765 Y743.409 Z-15.322
N16770 Y637.04 Z-13.921
N16775 Y562.046 Z-13.197
N16780 Y486.287 Z-12.815
N16785 Y422.771 Z-12.904
N16790 Y395.988 Z-13.131
N16795 Y340.125 Z-14.22
N16800 Y310.28 Z-15.001
N16805 Y266.666 Z-16.499
N16810 Y237.574 Z-17.903
N16815 Y223.955 Z-18.688
N16820 Y202.338 Z-20.193
N16825 Y182.647 Z-22.016
N16830 Y166.661 Z-23.96
N16835 Y157.042 Z-25.477
N16840 Y149.468 Z-26.962
N16845 Y142.919 Z-28.56
N16850 Y137.608 Z-30.183
N16855 Y133.822 Z-31.624
N16860 Y130.165 Z-33.403
N16865 Y127.597 Z-35.099
N16870 Y126.718 Z-36.052
N16875 Y125.994 Z-37.264
N16880 Y125.594 Z-38.259
N16885 Y125.141 Z-40.156
N16890 Y125.008 Z-42.281
N16895 Z-70.
N16900 X198.698 Y124.086
N16905 X197.965 Y123.25
N16910 X197.156 Y122.484
N16915 X196.336 Y121.728
N16920 Z-42.199
N16925 Y121.806 Z-40.463
N16930 Y122.065 Z-38.407
N16935 Y122.747 Z-35.816
N16940 Y123.722 Z-33.544
N16945 Y124.696 Z-31.955
N16950 Y125.665 Z-30.886
N16955 Y126.777 Z-29.969
N16960 Y128.019 Z-29.319
N16965 Y132.041 Z-28.094
N16970 Y138.079 Z-26.598
N16975 Y145.496 Z-25.109
N16980 Y154.292 Z-23.682
N16985 Y168.112 Z-21.931
N16990 Y187.645 Z-20.056
N16995 Y211.074 Z-18.343
N17000 Y238.462 Z-16.847
N17005 Y252.554 Z-16.205
N17010 Y284.653 Z-15.001
N17015 Y313.732 Z-14.153
N17020 Y366.534 Z-12.965
N17025 Y404.031 Z-12.403
N17030 Y455.302 Z-12.234
N17035 Y526.47 Z-12.447
N17040 Y607.586 Z-13.136
N17045 Y695.589 Z-14.21
N17050 Y832.568 Z-16.32
N17055 Y951.946 Z-18.352
N17060 Y1089.69 Z-20.791
N17065 Y1279.471 Z-23.644
N17070 Y1333.803 Z-24.558
N17075 Y1372.831 Z-25.468
N17080 Y1401.145 Z-26.454
N17085 Y1422.572 Z-27.58
N17090 Y1430.054 Z-28.141
N17095 Y1440.515 Z-29.022
N17100 Y1452.426 Z-30.438
N17105 Y1459.818 Z-31.678
N17110 Y1463.495 Z-32.371
N17115 Y1468.59 Z-33.589
N17120 Y1472.888 Z-34.872
N17125 Y1476.035 Z-36.049
N17130 Y1479.408 Z-37.6
N17135 Y1482.248 Z-39.321
N17140 Y1484.491 Z-41.138
N17145 Y1485.85 Z-42.676
N17150 Y1486.903 Z-44.41
N17155 Y1487.508 Z-46.098
N17160 Y1487.736 Z-47.727
N17165 Y1487.766 Z-70.
N17170 X194.856 Y1490.924
N17175 X194.098 Y1492.494
N17180 X193.336 Y1494.063
N17185 Y1494.012 Z-46.816
N17190 Y1493.797 Z-45.411
N17195 Y1493.247 Z-43.823
N17200 Y1492.532 Z-42.528
N17205 Y1491.271 Z-40.91
N17210 Y1490.256 Z-39.929
N17215 Y1488.479 Z-38.525
N17220 Y1485.951 Z-36.965
N17225 Y1483.069 Z-35.567
N17230 Y1479.063 Z-34.058
N17235 Y1474.58 Z-32.736
N17240 Y1470.578 Z-31.762
N17245 Y1462.195 Z-30.22
N17250 Y1457.28 Z-29.535
N17255 Y1449.093 Z-28.534
N17260 Y1434.151 Z-27.258
N17265 Y1414.206 Z-26.121
N17270 Y1386.753 Z-25.122
N17275 Y1352.317 Z-24.291
N17280 Y1304.872 Z-23.489
N17285 Y1102.847 Z-20.608
N17290 Y966.634 Z-18.244
N17295 Y883.987 Z-16.789
N17300 Y723.286 Z-14.205
N17305 Y616.917 Z-12.788
N17310 Y539.627 Z-12.063
N17315 Y474.581 Z-11.727
N17320 Y411.831 Z-11.755
N17325 Y386.578 Z-12.022
N17330 Y330.906 Z-13.026
N17335 Y281.739 Z-14.338
N17340 Y258.798 Z-15.116
N17345 Y228.5 Z-16.39
N17350 Y214.689 Z-17.123
N17355 Y194.254 Z-18.34
N17360 Y171.541 Z-20.105
N17365 Y155.67 Z-21.686
N17370 Y142.828 Z-23.363
N17375 Y134.001 Z-24.838
N17380 Y128.601 Z-25.918
N17385 Y127.304 Z-26.368
N17390 Y126.084 Z-27.062
N17395 Y124.648 Z-28.264
N17400 Y123.174 Z-29.929
N17405 Y122.189 Z-31.39
N17410 Y121.28 Z-33.281
N17415 Y120.455 Z-35.646
N17420 Y119.966 Z-37.712
N17425 Y119.643 Z-40.368
N17430 Y119.572 Z-42.104
N17435 Y119.571 Z-70.
N17440 X191.836 Y118.527
N17445 X190.336 Y117.482
N17450 Y117.494 Z-41.511
N17455 Y117.719 Z-38.585
N17460 Y118.25 Z-35.903
N17465 Y119.095 Z-33.401
N17470 Y119.696 Z-32.063
N17475 Y120.403 Z-30.731
N17480 Y121.342 Z-29.247
N17485 Y122.853 Z-27.31
N17490 Y123.865 Z-26.296
N17495 Y125.806 Z-24.813
N17500 Y127.344 Z-24.011
N17505 Y128.658 Z-23.6
N17510 Y131.982 Z-23.04
N17515 Y144.151 Z-21.415
N17520 Y159.111 Z-19.873
N17525 Y178.759 Z-18.327
N17530 Y198.209 Z-17.09
N17535 Y211.136 Z-16.365
N17540 Y241.167 Z-14.997
N17545 Y277.078 Z-13.772
N17550 Y311.514 Z-12.833
N17555 Y366.611 Z-11.739
N17560 Y404.108 Z-11.25
N17565 Y458.441 Z-11.186
N17570 Y531.904 Z-11.539
N17575 Y613.02 Z-12.329
N17580 Y714.033 Z-13.672
N17585 Y890.804 Z-16.552
N17590 Y996.408 Z-18.435
N17595 Y1129.561 Z-20.625
N17600 Y1326.994 Z-23.282
N17605 Y1368.317 Z-23.985
N17610 Y1400.458 Z-24.786
N17615 Y1425.711 Z-25.757
N17620 Y1443.213 Z-26.803
N17625 Y1457.404 Z-28.063
N17630 Y1467.813 Z-29.409
N17635 Y1472.241 Z-30.176
N17640 Y1478.118 Z-31.333
N17645 Y1483.182 Z-32.667
N17650 Y1485.935 Z-33.571
N17655 Y1489.955 Z-35.168
N17660 Y1493.403 Z-37.031
N17665 Y1495.771 Z-38.725
N17670 Y1497.322 Z-40.199
N17675 Y1498.385 Z-41.538
N17680 Y1499.369 Z-43.301
N17685 Y1499.871 Z-44.835
N17690 Y1500.089 Z-46.474
N17695 Y1500.115 Z-70.
N17700 X189.6 Y1501.577
N17705 X188.85 Y1503.033
N17710 X188.093 Y1504.485
N17715 X187.336 Y1505.937
N17720 Y1505.921 Z-45.98
N17725 Y1505.874 Z-45.329
N17730 Y1505.682 Z-44.151
N17735 Y1505.491 Z-43.479
N17740 Y1504.949 Z-42.153
N17745 Y1504.104 Z-40.719
N17750 Y1503.6 Z-40.061
N17755 Y1502.688 Z-39.031
N17760 Y1501.039 Z-37.556
N17765 Y1498.576 Z-35.911
N17770 Y1495.753 Z-34.429
N17775 Y1493.267 Z-33.373
N17780 Y1488.564 Z-31.794
N17785 Y1483.653 Z-30.53
N17790 Y1476.623 Z-29.147
N17795 Y1467.716 Z-27.897
N17800 Y1464.741 Z-27.534
N17805 Y1452.047 Z-26.366
N17810 Y1435.486 Z-25.338
N17815 Y1412.433 Z-24.417
N17820 Y1383.354 Z-23.669
N17825 Y1345.857 Z-23.027
N17830 Y1257.854 Z-21.924
N17835 Y1129.293 Z-20.257
N17840 Y1005.323 Z-18.25
N17845 Y883.649 Z-16.089
N17850 Y712.999 Z-13.296
N17855 Y607.396 Z-11.85
N17860 Y522.453 Z-11.033
N17865 Y462.764 Z-10.723
N17870 Y406.136 Z-10.704
N17875 Y372.465 Z-11.104
N17880 Y321.959 Z-11.987
N17885 Y271.453 Z-13.242
N17890 Y228.609 Z-14.746
N17895 Y215.146 Z-15.337
N17900 Y188.708 Z-16.687
N17905 Y164.368 Z-18.258
N17910 Y147.298 Z-19.66
N17915 Y132.623 Z-21.231
N17920 Y128.925 Z-21.741
N17925 Y127.601 Z-22.096
N17930 Y126.034 Z-22.821
N17935 Y124.556 Z-23.672
N17940 Y123.041 Z-24.905
N17945 Y121.441 Z-26.458
N17950 Y120.059 Z-28.052
N17955 Y118.855 Z-29.728
N17960 Y117.757 Z-31.633
N17965 Y116.77 Z-33.879
N17970 Y116.175 Z-35.742
N17975 Y115.664 Z-38.235
N17980 Y115.44 Z-40.793
N17985 Y115.402 Z-70.
N17990 X185.838 Y114.374
N17995 X184.336 Y113.352
N18000 Z-41.663
N18005 Y113.476 Z-39.211
N18010 Y113.907 Z-36.479
N18015 Y114.61 Z-34.003
N18020 Y115.645 Z-31.581
N18025 Y116.732 Z-29.667
N18030 Y117.928 Z-27.987
N18035 Y119.305 Z-26.391
N18040 Y121.17 Z-24.596
N18045 Y123.461 Z-22.814
N18050 Y125.048 Z-21.744
N18055 Y127.707 Z-20.574
N18060 Y129.035 Z-20.246
N18065 Y135.14 Z-19.566
N18070 Y152.14 Z-18.092
N18075 Y171.739 Z-16.796
N18080 Y201.791 Z-15.166
N18085 Y226.594 Z-14.119
N18090 Y253.348 Z-13.16
N18095 Y300.028 Z-11.881
N18100 Y355.891 Z-10.821
N18105 Y400.275 Z-10.244
N18110 Y450.781 Z-10.22
N18115 Y521.184 Z-10.6
N18120 Y590.821 Z-11.276
N18125 Y694.895 Z-12.663
N18130 Y840.291 Z-15.023
N18135 Y1046.142 Z-18.611
N18140 Y1165.52 Z-20.413
N18145 Y1294.081 Z-21.907
N18150 Y1364.484 Z-22.767
N18155 Y1397.39 Z-23.341
N18160 Y1424.173 Z-24.058
N18165 Y1445.6 Z-24.958
N18170 Y1461.423 Z-26.007
N18175 Y1472.617 Z-27.102
N18180 Y1477.817 Z-27.798
N18185 Y1483.745 Z-28.685
N18190 Y1491.074 Z-30.225
N18195 Y1495.396 Z-31.425
N18200 Y1498.654 Z-32.564
N18205 Y1501.979 Z-33.994
N18210 Y1504.89 Z-35.61
N18215 Y1506.953 Z-37.091
N18220 Y1508.749 Z-38.809
N18225 Y1510.01 Z-40.473
N18230 Y1510.848 Z-42.095
N18235 Y1511.304 Z-43.571
N18240 Y1511.511 Z-45.15
N18245 Y1511.54 Z-70.
N18250 X183.594 Y1512.894
N18255 X182.089 Y1515.59
N18260 X181.336 Y1516.938
N18265 Y1516.904 Z-44.436
N18270 Y1516.873 Z-43.965
N18275 Y1516.491 Z-42.136
N18280 Y1515.756 Z-40.411
N18285 Y1514.586 Z-38.648
N18290 Y1513.154 Z-37.107
N18295 Y1511.189 Z-35.498
N18300 Y1508.375 Z-33.778
N18305 Y1505.022 Z-32.211
N18310 Y1500.982 Z-30.771
N18315 Y1497.205 Z-29.695
N18320 Y1490.622 Z-28.252
N18325 Y1487.669 Z-27.764
N18330 Y1480.995 Z-26.772
N18335 Y1469.811 Z-25.606
N18340 Y1455.552 Z-24.601
N18345 Y1434.902 Z-23.683
N18350 Y1410.415 Z-23.003
N18355 Y1380.57 Z-22.472
N18360 Y1321.646 Z-21.772
N18365 Y1189.259 Z-20.371
N18370 Y1070.646 Z-18.7
N18375 Y932.902 Z-16.299
N18380 Y711.746 Z-12.585
N18385 Y609.203 Z-11.123
N18390 Y521.2 Z-10.192
N18395 Y454.624 Z-9.797
N18400 Y404.117 Z-9.744
N18405 Y362.794 Z-10.215
N18410 Y315.349 Z-11.012
N18415 Y265.608 Z-12.176
N18420 Y221.415 Z-13.62
N18425 Y191.943 Z-14.903
N18430 Y179.548 Z-15.541
N18435 Y159.116 Z-16.654
N18440 Y140.108 Z-17.988
N18445 Y129.482 Z-18.934
N18450 Y127.744 Z-19.309
N18455 Y125.521 Z-20.165
N18460 Y122. Z-22.251
N18465 Y119.266 Z-24.32
N18470 Y117.15 Z-26.359
N18475 Y116.365 Z-27.247
N18480 Y114.981 Z-29.084
N18485 Y113.647 Z-31.381
N18490 Y113.313 Z-32.089
N18495 Y112.74 Z-33.488
N18500 Y112.275 Z-34.886
N18505 Y111.649 Z-37.657
N18510 Y111.416 Z-39.87
N18515 Y111.349 Z-41.48
N18520 Z-70.
N18525 X179.84 Y110.371
N18530 X178.337 Y109.404
N18535 Z-41.434
N18540 Y109.469 Z-39.789
N18545 Y109.618 Z-38.209
N18550 Y110.092 Z-35.626
N18555 Y110.796 Z-33.329
N18560 Y111.86 Z-30.892
N18565 Y113.037 Z-28.907
N18570 Y113.442 Z-28.324
N18575 Y114.961 Z-26.416
N18580 Y116.665 Z-24.696
N18585 Y117.733 Z-23.783
N18590 Y119.575 Z-22.385
N18595 Y122.54 Z-20.561
N18600 Y125.896 Z-18.899
N18605 Y128.477 Z-18.026
N18610 Y129.819 Z-17.816
N18615 Y146.573 Z-16.583
N18620 Y163.545 Z-15.595
N18625 Y181.216 Z-14.723
N18630 Y204.941 Z-13.629
N18635 Y241.267 Z-12.315
N18640 Y289.094 Z-11.038
N18645 Y339.601 Z-10.078
N18650 Y396.229 Z-9.328
N18655 Y431.43 Z-9.303
N18660 Y488.058 Z-9.552
N18665 Y569.174 Z-10.281
N18670 Y671.717 Z-11.65
N18675 Y817.879 Z-14.017
N18680 Y986.233 Z-16.969
N18685 Y1109.437 Z-18.985
N18690 Y1212.745 Z-20.307
N18695 Y1345.898 Z-21.586
N18700 Y1394.873 Z-22.154
N18705 Y1422.422 Z-22.652
N18710 Y1444.614 Z-23.291
N18715 Y1463.169 Z-24.138
N18720 Y1476.796 Z-25.115
N18725 Y1487.651 Z-26.283
N18730 Y1494.318 Z-27.316
N18735 Y1497.63 Z-27.915
N18740 Y1503.825 Z-29.355
N18745 Y1507.4 Z-30.447
N18750 Y1510.37 Z-31.559
N18755 Y1513.224 Z-32.89
N18760 Y1515.696 Z-34.325
N18765 Y1517.741 Z-35.866
N18770 Y1519.306 Z-37.405
N18775 Y1520.536 Z-39.028
N18780 Y1521.418 Z-40.722
N18785 Y1521.92 Z-42.383
N18790 Y1522.105 Z-43.915
N18795 Y1522.131 Z-70.
N18800 X177.589 Y1523.384
N18805 X176.095 Y1525.889
N18810 X175.337 Y1527.134
N18815 Y1527.085 Z-42.889
N18820 Y1526.836 Z-41.384
N18825 Y1526.425 Z-40.079
N18830 Y1525.635 Z-38.491
N18835 Y1524.449 Z-36.87
N18840 Y1523.833 Z-36.195
N18845 Y1522.821 Z-35.238
N18850 Y1521. Z-33.819
N18855 Y1518.557 Z-32.351
N18860 Y1515.884 Z-31.062
N18865 Y1512.407 Z-29.747
N18870 Y1509.552 Z-28.847
N18875 Y1503.731 Z-27.444
N18880 Y1499.315 Z-26.641
N18885 Y1493.669 Z-25.758
N18890 Y1484.449 Z-24.718
N18895 Y1471.546 Z-23.739
N18900 Y1454.146 Z-22.908
N18905 Y1433.485 Z-22.29
N18910 Y1408.232 Z-21.824
N18915 Y1363.082 Z-21.314
N18920 Y1224.573 Z-20.123
N18925 Y1123.56 Z-18.883
N18930 Y1008.774 Z-17.089
N18935 Y772.313 Z-12.956
N18940 Y642.987 Z-10.904
N18945 Y546.566 Z-9.69
N18950 Y479.989 Z-9.114
N18955 Y415.709 Z-8.85
N18960 Y390.456 Z-8.954
N18965 Y330.001 Z-9.75
N18970 Y276.434 Z-10.817
N18975 Y235.111 Z-11.957
N18980 Y206.828 Z-12.948
N18985 Y181.27 Z-14.029
N18990 Y154.79 Z-15.301
N18995 Y134.56 Z-16.555
N19000 Y129.035 Z-17.021
N19005 Y127.057 Z-17.53
N19010 Y124.822 Z-18.35
N19015 Y120.841 Z-20.242
N19020 Y117.928 Z-21.998
N19025 Y114.988 Z-24.286
N19030 Y112.891 Z-26.438
N19035 Y111.479 Z-28.265
N19040 Y110.38 Z-30.02
N19045 Y110.027 Z-30.673
N19050 Y109.386 Z-32.032
N19055 Y108.849 Z-33.395
N19060 Y108.415 Z-34.754
N19065 Y107.835 Z-37.4
N19070 Y107.589 Z-39.732
N19075 Y107.526 Z-41.351
N19080 Y107.525 Z-70.
N19085 X173.841 Y106.614
N19090 X172.337 Y105.716
N19095 Y105.753 Z-40.274
N19100 Y106.012 Z-37.424
N19105 Y106.549 Z-34.88
N19110 Y107.302 Z-32.583
N19115 Y108.449 Z-30.116
N19120 Y109.374 Z-28.568
N19125 Y110.767 Z-26.653
N19130 Y112.975 Z-24.288
N19135 Y115.35 Z-22.313
N19140 Y118.809 Z-20.133
N19145 Y121.731 Z-18.707
N19150 Y125.756 Z-17.102
N19155 Y127.34 Z-16.592
N19160 Y129.704 Z-16.116
N19165 Y142.048 Z-15.305
N19170 Y161.301 Z-14.296
N19175 Y187.413 Z-13.15
N19180 Y205.513 Z-12.417
N19185 Y246.07 Z-11.092
N19190 Y295.046 Z-9.917
N19195 Y350.144 Z-9.002
N19200 Y399.885 Z-8.454
N19205 Y450.391 Z-8.562
N19210 Y516.202 Z-9.042
N19215 Y601.909 Z-10.018
N19220 Y720.522 Z-11.807
N19225 Y1029.681 Z-17.171
N19230 Y1141.407 Z-18.851
N19235 Y1239.359 Z-19.966
N19240 Y1377.103 Z-21.008
N19245 Y1419.956 Z-21.474
N19250 Y1443.679 Z-21.917
N19255 Y1463.575 Z-22.536
N19260 Y1479.629 Z-23.348
N19265 Y1491.588 Z-24.312
N19270 Y1500.52 Z-25.375
N19275 Y1505.696 Z-26.238
N19280 Y1509.371 Z-26.922
N19285 Y1514.191 Z-28.111
N19290 Y1518.014 Z-29.309
N19295 Y1521.472 Z-30.689
N19300 Y1524.734 Z-32.398
N19305 Y1526.839 Z-33.856
N19310 Y1528.698 Z-35.535
N19315 Y1530.036 Z-37.155
N19320 Y1530.971 Z-38.76
N19325 Y1531.617 Z-40.534
N19330 Y1531.917 Z-42.299
N19335 Y1531.963 Z-70.
N19340 X171.593 Y1533.133
N19345 X170.849 Y1534.302
N19350 X170.098 Y1535.468
N19355 X169.337 Y1536.627
N19360 Y1536.577 Z-41.591
N19365 Y1536.244 Z-39.741
N19370 Y1535.598 Z-38.029
N19375 Y1534.419 Z-36.084
N19380 Y1532.867 Z-34.358
N19385 Y1531.05 Z-32.832
N19390 Y1528.878 Z-31.403
N19395 Y1526.161 Z-30.014
N19400 Y1524.102 Z-29.126
N19405 Y1519.773 Z-27.679
N19410 Y1514.239 Z-26.283
