%
(1001)
(T5  D=19.05 CR=9.525 - ZMIN=-71.186 - BALL END MILL)
N10 G90 G94 G17 G91.1
N15 G21
N20 G53 G0 Z0.
(PARALLEL1 4)
N25 M9
N30 T5 M6
N35 S24000 M3
N40 G54
N45 G0 X299.925 Y1020.374
N50 G43 Z10. H5
N55 G1 Z-23.095 F5000.
N60 G19 G2 Y1018.469 Z-25. J-1.905 K0. F1000.
N65 G1 Y630.494 F5000.
N70 G2 Y628.589 Z-23.095 J0. K1.905 F1000.
N75 G1 Z5. F5000.
N80 X284.929 Y482.864
N85 Z-23.095
N90 G3 Y484.769 Z-25. J1.905 K0. F1000.
N95 G1 Y1245.031 F5000.
N100 G3 Y1246.937 Z-23.095 J0. K1.905 F1000.
N105 G1 Z5. F5000.
N110 X269.932 Y1360.866
N115 Z-23.095
N120 G2 Y1358.961 Z-25. J-1.905 K0. F1000.
N125 G1 Y339.044 F5000.
N130 G2 Y337.139 Z-23.095 J0. K1.905 F1000.
N135 G1 Z5. F5000.
N140 X254.936 Y248.463
N145 Z-23.095
N150 G3 Y250.368 Z-25. J1.905 K0. F1000.
N155 G1 Y1423.407 F5000.
N160 G3 Y1425.312 Z-23.095 J0. K1.905 F1000.
N165 G1 Z5. F5000.
N170 X239.94 Y1478.864
N175 Z-23.095
N180 G2 Y1476.959 Z-25. J-1.905 K0. F1000.
N185 G1 Y181.461 F5000.
N190 G2 Y179.556 Z-23.095 J0. K1.905 F1000.
N195 G1 Z5. F5000.
N200 X224.944 Y110.649
N205 Z-23.095
N210 G3 Y112.554 Z-25. J1.905 K0. F1000.
N215 G1 Y176.985 F5000.
N220 Y553.488 Z-24.396
N225 Y861.855 Z-24.574
N230 Y1510.896 Z-25.
N235 G3 Y1512.802 Z-23.095 J0.001 K1.905 F1000.
N240 G1 Z5. F5000.
N245 X209.948 Y1546.743
N250 Z-23.095
N255 G2 Y1544.833 Z-25. J-1.905 K0. F1000.
N260 G1 Y1193.402 Z-24.147 F5000.
N265 Y608.972 Z-21.444
N270 Y394.583 Z-22.966
N275 Y295.695 Z-25.
N280 Y71.461
N285 G2 Y71.041 Z-24.903 J0. K0.952
N290 G3 Y70.622 Z-24.806 J-0.419 K-0.855
N295 G1 Y61.759
N300 G17 G2 X207.09 Y58.901 I-2.858 J0.
N305 G1 X197.809
N310 G2 X194.951 Y61.759 I0. J2.858
N315 G19 G2 Y62.178 Z-24.903 J0. K-0.952
N320 G3 Y62.597 Z-25. J0.419 K0.855
N325 G1 Y211.377
N330 Y349.55 Z-21.106
N335 Y519.886 Z-19.391
N340 Y933.98 Z-20.822
N345 Y1428.106 Z-22.44
N350 Y1493.363 Z-24.466
N355 Y1571.872 Z-25.
N360 G3 Y1572.297 Z-24.903 J0.006 K0.952
N365 G2 Y1572.716 Z-24.806 J0.419 K-0.855
N370 G1 Y1588.881
N375 G17 G3 X192.094 Y1591.739 I-2.857 J0.
N380 G1 X182.813
N385 G3 X179.955 Y1588.881 I0. J-2.858
N390 G19 G3 Y1588.462 Z-24.903 J0. K-0.953
N395 G2 Y1588.032 Z-25. J-0.419 K0.855
N400 G1 Y1549.536 Z-24.567
N405 Y1532.421 Z-22.144
N410 Y1486.166 Z-20.036
N415 Y1066.236 Z-20.204
N420 Y514.111 Z-17.564
N425 Y346.711 Z-18.9
N430 Y186.654 Z-23.947
N435 Y147.007 Z-25.
N440 Y53.733
N445 G2 Y53.314 Z-24.903 J0. K0.952
N450 G3 Y52.895 Z-24.806 J-0.419 K-0.855
N455 G1 Y44.031
N460 G17 G2 X177.098 Y41.174 I-2.857 J0.
N465 G1 X167.816
N470 G2 X164.959 Y44.031 I0. J2.858
N475 G19 G2 Y44.45 Z-24.903 J0. K-0.952
N480 G3 Y44.87 Z-25. J0.419 K0.855
N485 G1 Y103.636
N490 Y179.994 Z-21.913
N495 Y332.709 Z-17.335
N500 Y467.804 Z-16.118
N505 Y1184.391 Z-19.302
N510 Y1505.408 Z-17.408
N515 Y1552.398 Z-18.795
N520 Y1569.787 Z-20.937
N525 Y1583.341 Z-24.716
N530 Y1604.193 Z-25.
N535 G3 Y1604.625 Z-24.903 J0.013 K0.952
N540 G2 Y1605.044 Z-24.806 J0.419 K-0.855
N545 G1 Y1621.219
N550 G17 G3 X162.101 Y1624.076 I-2.857 J0.
N555 G1 X152.82
N560 G3 X149.963 Y1621.219 I0. J-2.857
N565 G19 G3 Y1620.8 Z-24.903 J0. K-0.952
N570 G1 Y1620.799
N575 G2 Y1620.353 Z-25. J-0.419 K0.855
N580 G1 Y1607.523 Z-24.636
N585 Y1597.804 Z-20.028
N590 Y1579.515 Z-16.568
N595 Y1544.273 Z-15.087
N600 Y1230.032 Z-18.226
N605 Y814.365 Z-16.525
N610 Y429.639 Z-14.941
N615 Y294.545 Z-16.56
N620 Y156.514 Z-20.939
N625 Y87.029 Z-24.915
N630 Y40. Z-25.
N635 G2 Y39.579 Z-24.903 J-0.002 K0.952
N640 G3 Y39.16 Z-24.806 J-0.419 K-0.855
N645 G17 G2 X147.105 Y36.302 I-2.857 J0.
N650 G1 X137.824
N655 G2 X134.966 Y39.16 I0. J2.857
N660 G1 Y39.162
N665 G19 G2 Y39.581 Z-24.903 J0. K-0.952
N670 G3 Y40. Z-25. J0.419 K0.855
N675 G1 Y75.79
N680 Y89.056 Z-22.809
N685 Y155.869 Z-19.26
N690 Y294.634 Z-15.268
N695 Y438.539 Z-13.942
N700 Y940.738 Z-16.568
N705 Y1272.971 Z-17.191
N710 Y1469.739 Z-14.693
N715 Y1578.219 Z-12.882
N720 Y1604.756 Z-14.846
N725 Y1618.527 Z-18.856
N730 Y1626.458 Z-24.51
N735 Y1636.513 Z-25.
N740 G3 Y1636.979 Z-24.904 J0.046 K0.951
N745 G1 Y1636.981 Z-24.903
N750 G2 Y1637.4 Z-24.806 J0.419 K-0.855
N755 G1 Y1653.534
N760 G17 G3 X132.109 Y1656.392 I-2.857 J0.
N765 G1 X122.828
N770 G3 X119.97 Y1653.534 I0. J-2.858
N775 G19 G3 Y1653.115 Z-24.903 J0. K-0.953
N780 G2 Y1652.674 Z-25. J-0.419 K0.855
N785 G1 Y1642.111 Z-24.758
N790 Y1637.362 Z-19.121
N795 Y1633.578 Z-16.626
N800 Y1625.795 Z-13.559
N805 Y1608.668 Z-11.043
N810 Y1567.553 Z-10.981
N815 Y1373.722 Z-15.51
N820 Y1111.084 Z-16.699
N825 Y417.991 Z-13.187
N830 Y250.592 Z-15.065
N835 Y127.244 Z-19.127
N840 Y86.129 Z-21.726
N845 Y75.628 Z-23.575
N850 Y70.621 Z-25.
N855 Y40.
N860 G2 Y39.581 Z-24.903 J0. K0.952
N865 G3 Y39.162 Z-24.806 J-0.419 K-0.855
N870 G17 G2 X117.113 Y36.304 I-2.858 J0.
N875 G1 X107.831
N880 G2 X104.974 Y39.162 I0. J2.858
N885 G19 G2 Y39.581 Z-24.903 J0. K-0.952
N890 G3 Y40. Z-25. J0.419 K0.855
N895 G1 Y67.186
N900 Y74.862 Z-22.368
N905 Y80.03 Z-21.296
N910 Y94.413 Z-19.789
N915 Y194.266 Z-15.519
N920 Y358.729 Z-12.787
N925 Y655.349 Z-13.484
N930 Y1182.341 Z-16.155
N935 Y1402.604 Z-14.393
N940 Y1614.056 Z-8.489
N945 Y1632.974 Z-9.785
N950 Y1643.695 Z-12.926
N955 Y1650.995 Z-18.105
N960 Y1654.897 Z-24.805
N965 Y1666.022 Z-25.
N970 G3 Y1666.458 Z-24.903 J0.017 K0.952
N975 G2 Y1666.877 Z-24.806 J0.419 K-0.855
N980 G1 Y1672.691
N985 G17 G3 X102.116 Y1675.549 I-2.857 J0.
N990 G1 X92.835
N995 G3 X89.978 Y1672.691 I0. J-2.858
N1000 G19 G3 Y1672.272 Z-24.903 J0. K-0.952
N1005 G1 Y1672.269 Z-24.904
N1010 G2 Y1671.794 Z-25. J-0.419 K0.855
N1015 G1 Y1665.521 Z-24.631
N1020 Y1662.433 Z-16.977
N1025 Y1655.794 Z-11.157
N1030 Y1646.404 Z-7.811
N1035 Y1627.544 Z-6.441
N1040 Y1449.865 Z-12.845
N1045 Y1241.35 Z-15.49
N1050 Y881.491 Z-14.602
N1055 Y405.724 Z-12.141
N1060 Y226.577 Z-13.991
N1065 Y114.977 Z-17.742
N1070 Y78.434 Z-20.552
N1075 Y69.505 Z-22.985
N1080 Y64.696 Z-25.
N1085 Y40.
N1090 G2 Y39.581 Z-24.903 J0. K0.952
N1095 G3 Y39.162 Z-24.806 J-0.419 K-0.855
N1100 G17 G2 X87.12 Y36.304 I-2.857 J0.
N1105 G1 X77.839
N1110 G2 X74.981 Y39.162 I0. J2.858
N1115 G19 G2 Y39.581 Z-24.903 J0. K-0.952
N1120 G3 Y40. Z-25. J0.419 K0.855
N1125 G1 Y63.606
N1130 Y69.476 Z-22.176
N1135 Y74.495 Z-20.609
N1140 Y79.74 Z-19.594
N1145 Y114.982 Z-17.103
N1150 Y223.645 Z-13.52
N1155 Y405.728 Z-11.799
N1160 Y981.348 Z-14.837
N1165 Y1290.073 Z-14.765
N1170 Y1480.967 Z-11.509
N1175 Y1643.962 Z-4.486
N1180 Y1658.624 Z-6.116
N1185 Y1667.293 Z-10.273
N1190 Y1672.61 Z-16.713
N1195 Y1674.49 Z-25.
N1200 Y1677.565
N1205 G3 Y1677.985 Z-24.903 J0. K0.952
N1210 G2 Y1678.404 Z-24.806 J0.419 K-0.855
N1215 G1 Y1684.175
N1220 G17 G3 X72.124 Y1687.033 I-2.857 J0.
N1225 G1 X62.843
N1230 G3 X59.985 Y1684.175 I0. J-2.858
N1235 G19 G3 Y1683.756 Z-24.903 J0. K-0.952
N1240 G2 Y1683.337 Z-25. J-0.419 K0.855
N1245 G1 Y1682.029
N1250 Y1680.859 Z-15.718
N1255 Y1676.324 Z-8.901
N1260 Y1668.562 Z-4.386
N1265 Y1656.843 Z-2.625
N1270 Y1521.198 Z-9.713
N1275 Y1356.735 Z-13.691
N1280 Y1137.968 Z-14.98
N1285 Y386.139 Z-11.57
N1290 Y206.992 Z-13.473
N1295 Y107.139 Z-17.056
N1300 Y75.94 Z-19.723
N1305 Y70.215 Z-21.324
N1310 Y62.356 Z-25.
N1315 Y40.
N1320 G2 Y38.095 Z-23.095 J0. K1.905 F1000.
N1325 G1 Z5. F5000.
N1330 X44.989 Y-21.934
N1335 Z-23.095
N1340 G3 Y-20.029 Z-25. J1.905 K0. F1000.
N1345 G1 Y62.018 F5000.
N1350 Y64.798 Z-23.343
N1355 Y75.975 Z-19.34
N1360 Y102.073 Z-17.028
N1365 Y196.052 Z-13.437
N1370 Y366.388 Z-11.445
N1375 Y727.619 Z-12.799
N1380 Y1181.22 Z-14.697
N1385 Y1392.672 Z-12.83
N1390 Y1542.451 Z-8.455
N1395 Y1642.303 Z-2.262
N1400 Y1668.735 Z-0.938
N1405 Y1677.057 Z-2.738
N1410 Y1684.063 Z-7.546
N1415 Y1687.857 Z-14.542
N1420 Y1688.591 Z-25.
N1425 Y1780.
N1430 G3 Y1780.419 Z-24.903 J0. K0.952
N1435 G2 Y1780.838 Z-24.806 J0.419 K-0.855
N1440 G17 G3 X42.131 Y1783.696 I-2.858 J0.
N1445 G1 X32.85
N1450 G3 X29.993 Y1780.838 I0. J-2.857
N1455 G19 G3 Y1780.419 Z-24.903 J0. K-0.952
N1460 G2 Y1780. Z-25. J-0.419 K0.855
N1465 G1 Y1694.169
N1470 Y1693.455 Z-11.754
N1475 Y1689.645 Z-4.918
N1480 Y1683.237 Z-0.617
N1485 Y1678.631 Z0.59
N1490 Y1669.536 Z0.744
N1495 Y1575.924 Z-6.478
N1500 Y1446.703 Z-11.449
N1505 Y1244.062 Z-14.279
N1510 Y895.02 Z-13.764
N1515 Y398.695 Z-11.267
N1520 Y213.674 Z-12.868
N1525 Y110.885 Z-16.318
N1530 Y78.58 Z-18.636
N1535 Y69.618 Z-20.901
N1540 Y61.612 Z-25.
N1545 Y-20.029
N1550 G2 Y-20.449 Z-24.903 J0. K0.952
N1555 G3 Y-20.868 Z-24.806 J-0.419 K-0.855
N1560 G17 G2 X27.135 Y-23.725 I-2.858 J0.
N1565 G1 X17.854
N1570 G2 X14.996 Y-20.868 I0. J2.858
N1575 G19 G2 Y-20.449 Z-24.903 J0. K-0.952
N1580 G3 Y-20.029 Z-25. J0.419 K0.855
N1585 G1 Y61.396
N1590 Y69.609 Z-20.771
N1595 Y78.58 Z-18.509
N1600 Y110.885 Z-16.205
N1605 Y213.675 Z-12.767
N1610 Y395.758 Z-11.208
N1615 Y1018.367 Z-14.275
N1620 Y1310.804 Z-13.634
N1625 Y1489.951 Z-10.044
N1630 Y1601.551 Z-4.673
N1635 Y1678.8 Z2.509
N1640 Y1687.93 Z1.705
N1645 Y1694.565 Z-2.357
N1650 Y1698.319 Z-9.005
N1655 Y1698.982 Z-25.
N1660 Y1780.
N1665 G3 Y1780.419 Z-24.903 J0. K0.952
N1670 G2 Y1780.838 Z-24.806 J0.419 K-0.855
N1675 G17 G3 X12.139 Y1783.696 I-2.858 J0.
N1680 G1 X2.858
N1685 G3 X0. Y1780.838 I0. J-2.857
N1690 G19 G3 Y1780.419 Z-24.903 J0. K-0.952
N1695 G2 Y1780. Z-25. J-0.419 K0.855
N1700 G1 Y1701.955
N1705 Y1701.44 Z-6.419
N1710 Y1697.769 Z-0.019
N1715 Y1691.461 Z3.743
N1720 Y1684.012 Z3.953
N1725 Y1638.159 Z-1.642
N1730 Y1564.004 Z-6.866
N1735 Y1450.202 Z-11.162
N1740 Y1282.802 Z-13.855
N1745 Y1024.241 Z-14.267
N1750 Y393.556 Z-11.19
N1755 Y210.738 Z-12.794
N1760 Y108.683 Z-16.289
N1765 Y75.146 Z-19.109
N1770 Y63.732 Z-23.526
N1775 Y61.33 Z-25.
N1780 Y-20.029
N1785 G2 Y-20.449 Z-24.903 J0. K0.952
N1790 G3 Y-20.868 Z-24.806 J-0.419 K-0.855
N1795 G17 G2 X-2.857 Y-23.725 I-2.857 J0.
N1800 G1 X-12.139
N1805 G2 X-14.996 Y-20.868 I0. J2.858
N1810 G19 G2 Y-20.449 Z-24.903 J0. K-0.952
N1815 G3 Y-20.029 Z-25. J0.419 K0.855
N1820 G1 Y61.395
N1825 Y69.609 Z-20.771
N1830 Y78.58 Z-18.509
N1835 Y107.949 Z-16.367
N1840 Y207.801 Z-12.887
N1845 Y386.948 Z-11.219
N1850 Y1094.725 Z-14.458
N1855 Y1334.264 Z-13.367
N1860 Y1504.6 Z-9.537
N1865 Y1610.326 Z-4.05
N1870 Y1678.028 Z2.454
N1875 Y1687.898 Z1.715
N1880 Y1694.548 Z-2.341
N1885 Y1698.319 Z-9.005
N1890 Y1698.958 Z-25.
N1895 Y1780.
N1900 G3 Y1780.419 Z-24.903 J0. K0.952
N1905 G2 Y1780.838 Z-24.806 J0.419 K-0.855
N1910 G17 G3 X-17.854 Y1783.696 I-2.858 J0.
N1915 G1 X-27.135
N1920 G3 X-29.992 Y1780.838 I0. J-2.857
N1925 G19 G3 Y1780.419 Z-24.903 J0. K-0.952
N1930 G2 Y1780. Z-25. J-0.419 K0.855
N1935 G1 Y1694.169
N1940 Y1693.455 Z-11.754
N1945 Y1689.533 Z-4.797
N1950 Y1682.574 Z-0.373
N1955 Y1678.619 Z0.592
N1960 Y1669.493 Z0.742
N1965 Y1575.882 Z-6.48
N1970 Y1446.661 Z-11.45
N1975 Y1244.019 Z-14.279
N1980 Y895.02 Z-13.764
N1985 Y398.695 Z-11.267
N1990 Y213.674 Z-12.868
N1995 Y110.885 Z-16.318
N2000 Y78.58 Z-18.636
N2005 Y69.617 Z-20.901
N2010 Y61.612 Z-25.
N2015 Y-20.029
N2020 G2 Y-20.449 Z-24.903 J0. K0.952
N2025 G3 Y-20.868 Z-24.806 J-0.419 K-0.855
N2030 G17 G2 X-32.85 Y-23.725 I-2.858 J0.
N2035 G1 X-42.131
N2040 G2 X-44.989 Y-20.868 I0. J2.858
N2045 G19 G2 Y-20.449 Z-24.903 J0. K-0.952
N2050 G3 Y-20.029 Z-25. J0.419 K0.855
N2055 G1 Y62.018
N2060 Y64.798 Z-23.343
N2065 Y75.975 Z-19.34
N2070 Y102.073 Z-17.028
N2075 Y196.052 Z-13.437
N2080 Y366.388 Z-11.445
N2085 Y727.619 Z-12.799
N2090 Y1181.186 Z-14.697
N2095 Y1392.638 Z-12.83
N2100 Y1542.417 Z-8.456
N2105 Y1665.764 Z-0.817
N2110 Y1676.4 Z-2.485
N2115 Y1683.573 Z-7.032
N2120 Y1687.673 Z-13.909
N2125 Y1688.571 Z-25.
N2130 Y1780.
N2135 G3 Y1781.905 Z-23.095 J0. K1.905 F1000.
N2140 G1 Z5. F5000.
N2145 X-59.985 Y1685.242
N2150 Z-23.095
N2155 G2 Y1683.337 Z-25. J-1.905 K0. F1000.
N2160 G1 Y1682.029 F5000.
N2165 Y1680.859 Z-15.717
N2170 Y1676.315 Z-8.892
N2175 Y1668.546 Z-4.38
N2180 Y1657.007 Z-2.63
N2185 Y1509.431 Z-10.147
N2190 Y1336.158 Z-13.954
N2195 Y1059.491 Z-14.862
N2200 Y395.767 Z-11.557
N2205 Y213.683 Z-13.328
N2210 Y110.894 Z-16.85
N2215 Y78.588 Z-19.234
N2220 Y66.173 Z-23.026
N2225 Y62.668 Z-25.
N2230 Y40.
N2235 G2 Y39.581 Z-24.903 J0. K0.952
N2240 G3 Y39.162 Z-24.806 J-0.419 K-0.855
N2245 G17 G2 X-62.842 Y36.304 I-2.857 J0.
N2250 G1 X-72.124
N2255 G2 X-74.981 Y39.162 I0. J2.858
N2260 G19 G2 Y39.581 Z-24.903 J0. K-0.952
N2265 G3 Y40. Z-25. J0.419 K0.855
N2270 G1 Y63.605
N2275 Y69.478 Z-22.175
N2280 Y74.497 Z-20.609
N2285 Y79.74 Z-19.594
N2290 Y114.982 Z-17.103
N2295 Y223.645 Z-13.52
N2300 Y405.728 Z-11.799
N2305 Y975.474 Z-14.807
N2310 Y1287.114 Z-14.788
N2315 Y1478.008 Z-11.594
N2320 Y1644.673 Z-4.492
N2325 Y1658.951 Z-6.203
N2330 Y1667.27 Z-10.255
N2335 Y1672.61 Z-16.712
N2340 Y1674.491 Z-25.
N2345 Y1677.565
N2350 G3 Y1677.985 Z-24.903 J0. K0.952
N2355 G2 Y1678.404 Z-24.806 J0.419 K-0.855
N2360 G17 G3 X-77.839 Y1681.261 I-2.857 J0.
N2365 G1 X-87.12
N2370 G3 X-89.977 Y1678.404 I0. J-2.858
N2375 G1 Y1672.692
N2380 G19 G3 Y1672.272 Z-24.903 J0. K-0.952
N2385 G1 Y1672.269 Z-24.904
N2390 G2 Y1671.794 Z-25. J-0.419 K0.855
N2395 G1 Y1665.521 Z-24.631
N2400 Y1662.433 Z-16.977
N2405 Y1655.872 Z-11.202
N2410 Y1646.125 Z-7.754
N2415 Y1627.261 Z-6.442
N2420 Y1449.583 Z-12.852
N2425 Y1241.067 Z-15.491
N2430 Y881.491 Z-14.602
N2435 Y405.724 Z-12.141
N2440 Y226.577 Z-13.992
N2445 Y114.977 Z-17.742
N2450 Y78.428 Z-20.553
N2455 Y69.502 Z-22.986
N2460 Y64.69 Z-25.
N2465 Y40.
N2470 G2 Y39.581 Z-24.903 J0. K0.952
N2475 G3 Y39.162 Z-24.806 J-0.419 K-0.855
N2480 G17 G2 X-92.835 Y36.304 I-2.858 J0.
N2485 G1 X-102.116
N2490 G2 X-104.974 Y39.162 I0. J2.858
N2495 G19 G2 Y39.581 Z-24.903 J0. K-0.952
N2500 G3 Y40. Z-25. J0.419 K0.855
N2505 G1 Y67.197
N2510 Y77.593 Z-21.74
N2515 Y94.413 Z-19.789
N2520 Y194.266 Z-15.519
N2525 Y358.729 Z-12.788
N2530 Y655.349 Z-13.484
N2535 Y1182.334 Z-16.155
N2540 Y1402.597 Z-14.393
N2545 Y1614.049 Z-8.489
N2550 Y1632.967 Z-9.784
N2555 Y1643.686 Z-12.922
N2560 Y1650.676 Z-17.761
N2565 Y1654.897 Z-24.802
N2570 Y1666.022 Z-25.
N2575 G3 Y1666.458 Z-24.903 J0.017 K0.952
N2580 G2 Y1666.878 Z-24.806 J0.419 K-0.855
N2585 G17 G3 X-107.831 Y1669.735 I-2.857 J0.
N2590 G1 X-117.112
N2595 G3 X-119.97 Y1666.878 I0. J-2.858
N2600 G1 Y1653.534
N2605 G19 G3 Y1653.115 Z-24.903 J0. K-0.952
N2610 G2 Y1652.674 Z-25. J-0.419 K0.855
N2615 G1 Y1642.112 Z-24.759
N2620 Y1636.322 Z-18.333
N2625 Y1626.235 Z-13.676
N2630 Y1611.355 Z-11.238
N2635 Y1576.113 Z-10.778
N2640 Y1391.093 Z-15.263
N2645 Y1140.453 Z-16.741
N2650 Y412.117 Z-13.193
N2655 Y244.718 Z-15.191
N2660 Y121.371 Z-19.406
N2665 Y86.129 Z-21.727
N2670 Y75.63 Z-23.574
N2675 Y70.622 Z-25.
N2680 Y40.
N2685 G2 Y39.581 Z-24.903 J0. K0.952
N2690 G3 Y39.162 Z-24.806 J-0.419 K-0.855
N2695 G17 G2 X-122.827 Y36.304 I-2.857 J0.
N2700 G1 X-132.109
N2705 G2 X-134.966 Y39.162 I0. J2.858
N2710 G19 G2 Y39.581 Z-24.903 J0. K-0.952
N2715 G3 Y40. Z-25. J0.419 K0.855
N2720 G1 Y75.789
N2725 Y89.056 Z-22.809
N2730 Y158.071 Z-19.165
N2735 Y297.571 Z-15.216
N2740 Y441.476 Z-13.94
N2745 Y1011.222 Z-16.993
N2750 Y1314.084 Z-16.921
N2755 Y1534.347 Z-13.223
N2760 Y1587.21 Z-13.178
N2765 Y1608.947 Z-15.684
N2770 Y1620.706 Z-19.978
N2775 Y1626.561 Z-24.63
N2780 Y1636.513 Z-25.
N2785 G3 Y1636.968 Z-24.903 J0.035 K0.952
N2790 G1 Y1636.969
N2795 G2 Y1637.388 Z-24.806 J0.419 K-0.855
N2800 G17 G3 X-137.824 Y1640.245 I-2.857 J0.
N2805 G1 X-147.105
N2810 G3 X-149.962 Y1637.388 I0. J-2.858
N2815 G1 Y1621.218
N2820 G19 G3 Y1620.799 Z-24.903 J0. K-0.953
N2825 G2 Y1620.353 Z-25. J-0.419 K0.855
N2830 G1 Y1607.524 Z-24.636
N2835 Y1597.807 Z-20.029
N2840 Y1579.518 Z-16.568
N2845 Y1544.276 Z-15.087
N2850 Y1230.035 Z-18.226
N2855 Y814.365 Z-16.525
N2860 Y429.639 Z-14.941
N2865 Y294.545 Z-16.561
N2870 Y156.514 Z-20.939
N2875 Y87.03 Z-24.916
N2880 Y40. Z-25.
N2885 G2 Y39.579 Z-24.903 J-0.002 K0.952
N2890 G3 Y39.16 Z-24.806 J-0.419 K-0.855
N2895 G17 G2 X-152.82 Y36.302 I-2.858 J0.
N2900 G1 X-162.101
N2905 G2 X-164.959 Y39.16 I0. J2.857
N2910 G1 Y44.031
N2915 G19 G2 Y44.45 Z-24.903 J0. K-0.952
N2920 G3 Y44.87 Z-25. J0.419 K0.855
N2925 G1 Y103.636
N2930 Y179.994 Z-21.912
N2935 Y332.709 Z-17.335
N2940 Y467.804 Z-16.119
N2945 Y1184.371 Z-19.302
N2950 Y1505.408 Z-17.408
N2955 Y1552.398 Z-18.795
N2960 Y1569.787 Z-20.937
N2965 Y1583.348 Z-24.719
N2970 Y1604.193 Z-25.
N2975 G3 Y1604.625 Z-24.903 J0.013 K0.952
N2980 G2 Y1605.044 Z-24.806 J0.419 K-0.855
N2985 G17 G3 X-167.816 Y1607.901 I-2.857 J0.
N2990 G1 X-177.097
N2995 G3 X-179.955 Y1605.044 I0. J-2.858
N3000 G1 Y1588.881
N3005 G19 G3 Y1588.462 Z-24.903 J0. K-0.953
N3010 G2 Y1588.032 Z-25. J-0.419 K0.855
N3015 G1 Y1549.539 Z-24.568
N3020 Y1532.424 Z-22.144
N3025 Y1486.077 Z-20.035
N3030 Y1066.236 Z-20.204
N3035 Y514.111 Z-17.565
N3040 Y346.712 Z-18.901
N3045 Y186.654 Z-23.947
N3050 Y147.007 Z-25.
N3055 Y53.733
N3060 G2 Y53.314 Z-24.903 J0. K0.952
N3065 G3 Y52.895 Z-24.806 J-0.419 K-0.855
N3070 G17 G2 X-182.812 Y50.037 I-2.857 J0.
N3075 G1 X-192.094
N3080 G2 X-194.951 Y52.895 I0. J2.857
N3085 G1 Y61.759
N3090 G19 G2 Y62.178 Z-24.903 J0. K-0.952
N3095 G3 Y62.597 Z-25. J0.419 K0.855
N3100 G1 Y211.374
N3105 Y349.552 Z-21.106
N3110 Y519.889 Z-19.392
N3115 Y933.983 Z-20.822
N3120 Y1428.106 Z-22.441
N3125 Y1493.364 Z-24.466
N3130 Y1571.872 Z-25.
N3135 X-195.091 Y1572.755 Z-25.003
N3140 X-195.497 Y1573.551 Z-25.006
N3145 X-196.129 Y1574.183 Z-25.011
N3150 X-196.926 Y1574.589 Z-25.015
N3155 X-197.809 Y1574.729 Z-25.019
N3160 X-207.09 Z-25.06
N3165 X-207.973 Y1574.589 Z-25.064
N3170 X-208.77 Y1574.183 Z-25.066
N3175 X-209.402 Y1573.551 Z-25.067
N3180 X-209.808 Y1572.754
N3185 X-209.947 Y1571.871 Z-25.066
N3190 Y1544.833 Z-25.
N3195 Y1193.385 Z-24.146
N3200 Y608.955 Z-21.445
N3205 Y394.566 Z-22.966
N3210 Y295.68 Z-25.
N3215 Y71.461
N3220 G2 Y69.556 Z-23.095 J0. K1.905 F1000.
N3225 G1 Z5. F5000.
N3230 X-224.944 Y110.649
N3235 Z-23.095
N3240 G3 Y112.554 Z-25. J1.905 K0. F1000.
N3245 G1 Y176.971 F5000.
N3250 Y553.488 Z-24.396
N3255 Y861.855 Z-24.574
N3260 Y1510.896 Z-25.
N3265 G3 Y1512.802 Z-23.095 J0.001 K1.905 F1000.
N3270 G1 Z5. F5000.
N3275 X-239.94 Y1478.864
N3280 Z-23.095
N3285 G2 Y1476.959 Z-25. J-1.905 K0. F1000.
N3290 G1 Y181.461 F5000.
N3295 G2 Y179.556 Z-23.095 J0. K1.905 F1000.
N3300 G1 Z5. F5000.
N3305 X-254.936 Y248.462
N3310 Z-23.095
N3315 G3 Y250.367 Z-25. J1.905 K0. F1000.
N3320 G1 Y1423.407 F5000.
N3325 G3 Y1425.312 Z-23.095 J0. K1.905 F1000.
N3330 G1 Z5. F5000.
N3335 X-269.932 Y1360.866
N3340 Z-23.095
N3345 G2 Y1358.961 Z-25. J-1.905 K0. F1000.
N3350 G1 Y339.044 F5000.
N3355 G2 Y337.139 Z-23.095 J0. K1.905 F1000.
N3360 G1 Z5. F5000.
N3365 X-284.929 Y482.864
N3370 Z-23.095
N3375 G3 Y484.769 Z-25. J1.905 K0. F1000.
N3380 G1 Y1245.032 F5000.
N3385 G3 Y1246.937 Z-23.095 J0. K1.905 F1000.
N3390 G1 Z5. F5000.
N3395 X-299.925 Y1020.375
N3400 Z-23.095
N3405 G2 Y1018.47 Z-25. J-1.905 K0. F1000.
N3410 G1 Y630.494 F5000.
N3415 G2 Y628.589 Z-23.095 J0. K1.905 F1000.
N3420 G1 Z10. F5000.
N3425 G17
(PARALLEL1 6)
N3430 G0 X309.45 Y1020.568
N3435 G1 Z10. F5000.
N3440 Z-48.095
N3445 G19 G2 Y1018.663 Z-50. J-1.905 K0. F1000.
N3450 G1 Y630.005 F5000.
N3455 G2 Y628.1 Z-48.095 J0. K1.905 F1000.
N3460 G1 Z5. F5000.
N3465 X294.454 Y482.374
N3470 Z-48.095
N3475 G3 Y484.279 Z-50. J1.905 K0. F1000.
N3480 G1 Y1245.583 F5000.
N3485 G3 Y1247.488 Z-48.095 J0. K1.905 F1000.
N3490 G1 Z5. F5000.
N3495 X279.457 Y1361.964
N3500 Z-48.095
N3505 G2 Y1360.056 Z-50. J-1.905 K0. F1000.
N3510 G1 Y997.463 Z-49.509 F5000.
N3515 Y844.869 Z-47.246
N3520 Y711.35 Z-48.083
N3525 Y619.286 Z-50.
N3530 Y338.641
N3535 G2 Y336.736 Z-48.095 J0. K1.905 F1000.
N3540 G1 Z5. F5000.
N3545 X264.461 Y247.436
N3550 Z-48.095
N3555 G3 Y249.341 Z-50. J1.905 K0. F1000.
N3560 G1 Y409.865 F5000.
N3565 Y460.795 Z-45.62
N3570 Y545.266 Z-41.359
N3575 Y667.886 Z-38.681
N3580 Y861.353 Z-38.23
N3585 Y1103.868 Z-41.491
N3590 Y1221.038 Z-45.449
N3595 Y1277.188 Z-49.867
N3600 Y1424.417 Z-50.
N3605 G3 Y1426.324 Z-48.095 J0.002 K1.905 F1000.
N3610 G1 Z5. F5000.
N3615 X249.465 Y1480.79
N3620 Z-48.095
N3625 G2 Y1478.885 Z-50. J-1.905 K0. F1000.
N3630 G1 Y1384.722 Z-49.995 F5000.
N3635 Y1362.632 Z-45.231
N3640 Y1323.15 Z-41.116
N3645 Y1245.491 Z-37.501
N3650 Y1047.937 Z-34.211
N3655 Y778.173 Z-32.236
N3660 Y565.632 Z-33.429
N3665 Y440.287 Z-36.696
N3670 Y355.816 Z-41.546
N3675 Y316.648 Z-45.458
N3680 Y289.05 Z-49.721
N3685 Y180.434 Z-50.
N3690 G2 Y178.524 Z-48.095 J-0.005 K1.905 F1000.
N3695 G1 Z5. F5000.
N3700 X234.468 Y109.622
N3705 Z-48.095
N3710 G3 Y111.527 Z-50. J1.905 K0. F1000.
N3715 G1 Y196.038 F5000.
N3720 Y215.653 Z-45.546
N3725 Y245.858 Z-41.187
N3730 Y303.057 Z-36.264
N3735 Y399.791 Z-31.613
N3740 Y551.022 Z-28.811
N3745 Y807.161 Z-28.33
N3750 Y1245.867 Z-31.969
N3755 Y1356.225 Z-34.769
N3760 Y1406.636 Z-38.528
N3765 Y1432.566 Z-43.037
N3770 Y1443.264 Z-46.517
N3775 Y1449.277 Z-49.654
N3780 Y1512.823 Z-50.
N3785 G3 Y1514.738 Z-48.095 J0.01 K1.905 F1000.
N3790 G1 Z5. F5000.
N3795 X219.472 Y1548.757
N3800 Z-48.095
N3805 G2 Y1546.845 Z-50. J-1.905 K0. F1000.
N3810 G1 Y1495.445 Z-49.81 F5000.
N3815 Y1489.537 Z-44.125
N3820 Y1483.926 Z-41.307
N3825 Y1473.853 Z-38.08
N3830 Y1458.114 Z-35.087
N3835 Y1419.965 Z-31.59
N3840 Y1338.219 Z-29.095
N3845 Y736.019 Z-25.17
N3850 Y485.33 Z-25.818
N3855 Y351.81 Z-28.421
N3860 Y240.09 Z-33.577
N3865 Y182.868 Z-38.392
N3870 Y152.457 Z-42.673
N3875 Y133.65 Z-46.905
N3880 Y124.454 Z-50.
N3885 Y66.026
N3890 G2 Y65.606 Z-49.903 J0. K0.952
N3895 G3 Y65.187 Z-49.806 J-0.419 K-0.855
N3900 G1 Y56.324
N3905 G17 G2 X216.614 Y53.466 I-2.858 J0.
N3910 G1 X207.333
N3915 G2 X204.475 Y56.324 I0. J2.858
N3920 G19 G2 Y56.743 Z-49.903 J0. K-0.953
N3925 G3 Y57.162 Z-50. J0.419 K0.855
N3930 G1 Y80.599
N3935 Y82.302 Z-47.389
N3940 Y87.328 Z-42.964
N3945 Y112.58 Z-38.307
N3950 Y144.917 Z-34.8
N3955 Y226.664 Z-29.41
N3960 Y371.083 Z-24.344
N3965 Y569.999 Z-22.665
N3970 Y1281.194 Z-25.56
N3975 Y1431.063 Z-26.898
N3980 Y1480.792 Z-29.491
N3985 Y1506.854 Z-33.482
N3990 Y1520.632 Z-38.33
N3995 Y1527.755 Z-43.882
N4000 Y1530.214 Z-49.674
N4005 Y1575.611 Z-50.
N4010 G3 Y1576.037 Z-49.903 J0.007 K0.952
N4015 G2 Y1576.456 Z-49.806 J0.419 K-0.855
N4020 G1 Y1592.61
N4025 G17 G3 X201.618 Y1595.467 I-2.857 J0.
N4030 G1 X192.337
N4035 G3 X189.479 Y1592.61 I0. J-2.857
N4040 G19 G3 Y1592.191 Z-49.903 J0. K-0.953
N4045 G2 Y1591.772 Z-50. J-0.419 K0.855
N4050 G1 Y1558.109
N4055 Y1556.944 Z-42.34
N4060 Y1551.891 Z-36.498
N4065 Y1541.937 Z-31.5
N4070 Y1530.425 Z-28.533
N4075 Y1511.573 Z-26.017
N4080 Y1465.25 Z-23.854
N4085 Y1274.508 Z-23.489
N4090 Y800.293 Z-21.506
N4095 Y470.582 Z-20.85
N4100 Y337.062 Z-22.561
N4105 Y189.918 Z-27.643
N4110 Y97.272 Z-33.479
N4115 Y87.21 Z-34.943
N4120 Y77.029 Z-41.037
N4125 Y70.843 Z-48.734
N4130 Y69.964 Z-50.
N4135 Y48.298
N4140 G2 Y47.879 Z-49.903 J0. K0.952
N4145 G3 Y47.46 Z-49.806 J-0.419 K-0.855
N4150 G1 Y38.596
N4155 G17 G2 X186.622 Y35.739 I-2.857 J0.
N4160 G1 X177.34
N4165 G2 X174.483 Y38.596 I0. J2.857
N4170 G19 G2 Y39.015 Z-49.903 J0. K-0.953
N4175 G3 Y39.434 Z-50. J0.419 K0.855
N4180 G1 Y61.303
N4185 Y65.867 Z-42.651
N4190 Y74.68 Z-35.657
N4195 Y88.985 Z-30.472
N4200 Y184.951 Z-25.154
N4205 Y342.994 Z-20.271
N4210 Y501.038 Z-19.012
N4215 Y1103.237 Z-21.901
N4220 Y1494.791 Z-21.097
N4225 Y1539.071 Z-22.92
N4230 Y1555.826 Z-25.225
N4235 Y1569.625 Z-29.415
N4240 Y1577.177 Z-34.407
N4245 Y1580.683 Z-39.694
N4250 Y1581.184 Z-41.451
N4255 Y1581.458 Z-50.
N4260 Y1607.932
N4265 G3 Y1608.351 Z-49.903 J0. K0.952
N4270 G2 Y1608.771 Z-49.806 J0.419 K-0.855
N4275 G1 Y1624.931
N4280 G17 G3 X171.625 Y1627.789 I-2.857 J0.
N4285 G1 X162.344
N4290 G3 X159.486 Y1624.931 I0. J-2.857
N4295 G19 G3 Y1624.512 Z-49.903 J0. K-0.953
N4300 G2 Y1624.093 Z-50. J-0.419 K0.855
N4305 G1 Y1601.389
N4310 Y1600.761 Z-36.863
N4315 Y1596.844 Z-30.629
N4320 Y1589.002 Z-25.578
N4325 Y1584.102 Z-23.79
N4330 Y1573.796 Z-21.431
N4335 Y1546.548 Z-19.076
N4340 Y1472.976 Z-18.827
N4345 Y1195.037 Z-20.907
N4350 Y454.127 Z-17.661
N4355 Y321.97 Z-18.962
N4360 Y173.464 Z-23.448
N4365 Y88.992 Z-27.914
N4370 Y79.418 Z-30.047
N4375 Y74.793 Z-31.564
N4380 Y66.883 Z-35.599
N4385 Y58.337 Z-43.683
N4390 Y54.483 Z-50.
N4395 Y30.92
N4400 G2 Y30.501 Z-49.903 J0. K0.952
N4405 G3 Y30.081 Z-49.806 J-0.419 K-0.855
N4410 G1 Y29.774
N4415 G17 G2 X156.629 Y26.916 I-2.857 J0.
N4420 G1 X147.347
N4425 G2 X144.49 Y29.774 I0. J2.858
N4430 G19 G2 Y30.193 Z-49.903 J0. K-0.953
N4435 G3 Y30.612 Z-50. J0.419 K0.855
N4440 G1 Y51.212
N4445 Y52.539 Z-47.156
N4450 Y57.064 Z-40.431
N4455 Y64.228 Z-34.003
N4460 Y74.763 Z-28.968
N4465 Y87.811 Z-26.137
N4470 Y164.107 Z-21.958
N4475 Y305.801 Z-17.837
N4480 Y442.046 Z-16.535
N4485 Y897.102 Z-18.779
N4490 Y1256.394 Z-19.812
N4495 Y1558.856 Z-16.31
N4500 Y1588.83 Z-17.979
N4505 Y1599.29 Z-19.914
N4510 Y1605.456 Z-21.924
N4515 Y1613.838 Z-27.194
N4520 Y1617.872 Z-33.737
N4525 Y1618.465 Z-50.
N4530 Y1640.168
N4535 G3 Y1640.587 Z-49.903 J0. K0.952
N4540 G2 Y1641.007 Z-49.806 J0.419 K-0.855
N4545 G1 Y1657.167
N4550 G17 G3 X141.632 Y1660.025 I-2.857 J0.
N4555 G1 X132.351
N4560 G3 X129.494 Y1657.167 I0. J-2.858
N4565 G19 G3 Y1656.748 Z-49.903 J0. K-0.953
N4570 G2 Y1656.329 Z-50. J-0.419 K0.855
N4575 G1 Y1633.225
N4580 Y1633.082 Z-32.871
N4585 Y1630.698 Z-26.557
N4590 Y1624.308 Z-20.705
N4595 Y1614.123 Z-16.809
N4600 Y1603.473 Z-15.066
N4605 Y1573.499 Z-14.006
N4610 Y1328.26 Z-18.504
N4615 Y1085.131 Z-19.051
N4620 Y431.158 Z-15.645
N4625 Y278.565 Z-17.163
N4630 Y147.77 Z-21.083
N4635 Y87.823 Z-24.445
N4640 Y77.991 Z-26.123
N4645 Y68.768 Z-29.246
N4650 Y59.11 Z-35.757
N4655 Y53.604 Z-42.601
N4660 Y50.608 Z-49.504
N4665 Y30.555 Z-50.
N4670 G2 Y30.112 Z-49.903 J-0.024 K0.952
N4675 G1 Y30.111
N4680 G3 Y29.692 Z-49.806 J-0.419 K-0.855
N4685 G17 G2 X126.636 Y26.835 I-2.857 J0.
N4690 G1 X117.355
N4695 G2 X114.497 Y29.692 I0. J2.858
N4700 G1 Y29.732
N4705 G19 G2 Y30.151 Z-49.903 J0. K-0.953
N4710 G3 Y30.571 Z-50. J0.419 K0.855
N4715 G1 Y49.884
N4720 Y50.276 Z-49.323
N4725 Y53.328 Z-41.438
N4730 Y56.36 Z-36.988
N4735 Y61.22 Z-32.133
N4740 Y68.338 Z-27.711
N4745 Y72.888 Z-25.905
N4750 Y77.562 Z-24.628
N4755 Y87.833 Z-23.061
N4760 Y120.531 Z-21.01
N4765 Y240.426 Z-16.937
N4770 Y412.094 Z-14.955
N4775 Y1128.739 Z-18.507
N4780 Y1381.965 Z-17.139
N4785 Y1596.549 Z-11.835
N4790 Y1621.755 Z-12.984
N4795 Y1634.328 Z-16.227
N4800 Y1641.857 Z-21.431
N4805 Y1645.484 Z-28.022
N4810 Y1646.007 Z-50.
N4815 Y1671.966
N4820 G3 Y1672.386 Z-49.903 J0. K0.952
N4825 G2 Y1672.805 Z-49.806 J0.419 K-0.855
N4830 G1 Y1679.088
N4835 G17 G3 X111.64 Y1681.945 I-2.857 J0.
N4840 G1 X102.358
N4845 G3 X99.501 Y1679.088 I0. J-2.858
N4850 G19 G3 Y1678.669 Z-49.903 J0. K-0.953
N4855 G2 Y1678.25 Z-50. J-0.419 K0.855
N4860 G1 Y1657.103
N4865 Y1656.536 Z-25.045
N4870 Y1652.877 Z-18.429
N4875 Y1646.063 Z-13.623
N4880 Y1636.125 Z-10.828
N4885 Y1617.168 Z-9.742
N4890 Y1437.326 Z-15.502
N4895 Y1219.335 Z-17.885
N4900 Y821.752 Z-16.462
N4905 Y399.395 Z-14.423
N4910 Y222.278 Z-16.511
N4915 Y110.557 Z-20.501
N4920 Y86.033 Z-22.187
N4925 Y75.762 Z-23.785
N4930 Y64.347 Z-28.483
N4935 Y58.484 Z-33.198
N4940 Y53.727 Z-39.453
N4945 Y49.942 Z-49.521
N4950 Y30.569 Z-50.
N4955 G2 Y30.126 Z-49.903 J-0.024 K0.952
N4960 G3 Y29.706 Z-49.806 J-0.419 K-0.855
N4965 G17 G2 X96.643 Y26.849 I-2.858 J0.
N4970 G1 X87.362
N4975 G2 X84.505 Y29.706 I0. J2.858
N4980 G1 Y29.724
N4985 G19 G2 Y30.143 Z-49.903 J0. K-0.953
N4990 G3 Y30.562 Z-50. J0.419 K0.855
N4995 G1 Y49.527
N5000 Y51.283 Z-43.674
N5005 Y55.827 Z-35.264
N5010 Y63.492 Z-27.98
N5015 Y70.916 Z-24.265
N5020 Y80.59 Z-21.94
N5025 Y118.738 Z-19.3
N5030 Y230.458 Z-15.703
N5035 Y410.301 Z-14.002
N5040 Y944.378 Z-16.847
N5045 Y1271.39 Z-17.164
N5050 Y1470.306 Z-14.134
N5055 Y1628.35 Z-7.797
N5060 Y1647.424 Z-8.579
N5065 Y1656.365 Z-11.182
N5070 Y1662.989 Z-16.168
N5075 Y1666.395 Z-23.285
N5080 Y1666.742 Z-50.
N5085 Y1684.106
N5090 G3 Y1684.526 Z-49.903 J0. K0.952
N5095 G2 Y1684.945 Z-49.806 J0.419 K-0.855
N5100 G1 Y1690.716
N5105 G17 G3 X81.647 Y1693.574 I-2.857 J0.
N5110 G1 X72.366
N5115 G3 X69.508 Y1690.716 I0. J-2.858
N5120 G19 G3 Y1690.297 Z-49.903 J0. K-0.953
N5125 G2 Y1689.878 Z-50. J-0.419 K0.855
N5130 G1 Y1675.107
N5135 Y1674.551 Z-19.753
N5140 Y1671.121 Z-13.222
N5145 Y1664.393 Z-8.42
N5150 Y1653.667 Z-6.027
N5155 Y1626.418 Z-6.682
N5160 Y1506.523 Z-12.528
N5165 Y1332.13 Z-16.223
N5170 Y1053.378 Z-17.021
N5175 Y399.406 Z-13.703
N5180 Y219.563 Z-15.446
N5185 Y113.293 Z-19.006
N5190 Y78.044 Z-21.676
N5195 Y70.832 Z-23.571
N5200 Y63.651 Z-27.121
N5205 Y56.597 Z-33.528
N5210 Y51.296 Z-43.023
N5215 Y49.29 Z-50.
N5220 Y30.557
N5225 G2 Y28.652 Z-48.095 J0. K1.905 F1000.
N5230 G1 Z5. F5000.
N5235 X54.512 Y-30.155
N5240 Z-48.095
N5245 G3 Y-28.25 Z-50. J1.905 K0. F1000.
N5250 G1 Y49.284 F5000.
N5255 Y52.044 Z-40.722
N5260 Y57.966 Z-31.425
N5265 Y66.208 Z-25.089
N5270 Y77.205 Z-21.354
N5275 Y111.111 Z-18.709
N5280 Y217.382 Z-15.14
N5285 Y399.949 Z-13.482
N5290 Y1021.223 Z-16.648
N5295 Y1297.671 Z-16.244
N5300 Y1482.963 Z-12.881
N5305 Y1602.858 Z-7.483
N5310 Y1661.443 Z-4.013
N5315 Y1671.638 Z-5.958
N5320 Y1678.347 Z-10.609
N5325 Y1681.865 Z-17.503
N5330 Y1682.333 Z-50.
N5335 Y1788.221
N5340 G3 Y1788.64 Z-49.903 J0. K0.952
N5345 G2 Y1789.059 Z-49.806 J0.419 K-0.855
N5350 G1 Y1790.278
N5355 G17 G3 X51.654 Y1793.136 I-2.857 J0.
N5360 G1 X42.373
N5365 G3 X39.515 Y1790.278 I0. J-2.858
N5370 G19 G3 Y1789.859 Z-49.903 J0. K-0.953
N5375 G2 Y1789.44 Z-50. J-0.419 K0.855
N5380 G1 Y1688.571
N5385 Y1688.193 Z-15.284
N5390 Y1685.14 Z-8.665
N5395 Y1678.874 Z-3.992
N5400 Y1669.391 Z-2.207
N5405 Y1548.819 Z-10.05
N5410 Y1404.4 Z-14.523
N5415 Y1175.509 Z-16.636
N5420 Y767.557 Z-15.018
N5425 Y377.898 Z-13.363
N5430 Y202.143 Z-15.217
N5435 Y105.41 Z-18.748
N5440 Y78.161 Z-20.864
N5445 Y73.361 Z-21.93
N5450 Y68.736 Z-23.547
N5455 Y64.324 Z-25.827
N5460 Y60.238 Z-28.858
N5465 Y56.66 Z-32.618
N5470 Y53.668 Z-37.102
N5475 Y49.714 Z-47.776
N5480 Y49.203 Z-50.
N5485 Y-29.554
N5490 G2 Y-29.974 Z-49.903 J0. K0.952
N5495 G3 Y-30.393 Z-49.806 J-0.419 K-0.855
N5500 G17 G2 X36.658 Y-33.25 I-2.857 J0.
N5505 G1 X27.377
N5510 G2 X24.519 Y-30.393 I0. J2.858
N5515 G19 G2 Y-29.974 Z-49.903 J0. K-0.953
N5520 G3 Y-29.554 Z-50. J0.419 K0.855
N5525 G1 Y49.157
N5530 Y49.72 Z-47.557
N5535 Y53.662 Z-36.931
N5540 Y56.649 Z-32.436
N5545 Y60.225 Z-28.666
N5550 Y64.313 Z-25.629
N5555 Y68.727 Z-23.346
N5560 Y73.354 Z-21.732
N5565 Y78.164 Z-20.67
N5570 Y113.587 Z-18.126
N5575 Y214.408 Z-14.808
N5580 Y399.7 Z-13.239
N5585 Y936.503 Z-15.959
N5590 Y1265.096 Z-16.099
N5595 Y1461.288 Z-12.999
N5600 Y1583.908 Z-7.93
N5605 Y1673.829 Z-0.576
N5610 Y1683.334 Z-1.364
N5615 Y1689.856 Z-5.326
N5620 Y1693.405 Z-11.901
N5625 Y1693.904 Z-50.
N5630 Y1789.44
N5635 G3 Y1789.859 Z-49.903 J0. K0.952
N5640 G2 Y1790.278 Z-49.806 J0.419 K-0.855
N5645 G17 G3 X21.662 Y1793.136 I-2.858 J0.
N5650 G1 X12.38
N5655 G3 X9.523 Y1790.278 I0. J-2.858
N5660 G19 G3 Y1789.859 Z-49.903 J0. K-0.953
N5665 G2 Y1789.44 Z-50. J-0.419 K0.855
N5670 G1 Y1698.447
N5675 Y1697.901 Z-8.419
N5680 Y1694.389 Z-2.526
N5685 Y1690.688 Z-0.066
N5690 Y1690.263 Z0.72
N5695 Y1689.219 Z1.661
N5700 Y1684.86 Z1.243
N5705 Y1684.642 Z1.227
N5710 Y1684.424 Z1.232
N5715 Y1683.988 Z1.236
N5720 Y1683.77 Z1.235
N5725 Y1683.334 Z1.226
N5730 Y1683.116 Z1.22
N5735 Y1682.68 Z1.201
N5740 Y1682.244 Z1.177
N5745 Y1681.808 Z1.148
N5750 Y1681.372 Z1.115
N5755 Y1680.936 Z1.077
N5760 Y1680.5 Z1.037
N5765 Y1680.064 Z0.994
N5770 Y1679.192 Z0.902
N5775 Y1678.32 Z0.803
N5780 Y1677.449 Z0.699
N5785 Y1676.577 Z0.593
N5790 Y1675.269 Z0.43
N5795 Y1671.857 Z-0.001
N5800 Y1605.361 Z-6.365
N5805 Y1496.366 Z-11.796
N5810 Y1321.973 Z-15.489
N5815 Y1040.047 Z-16.328
N5820 Y394.249 Z-13.198
N5825 Y211.681 Z-14.789
N5830 Y110.861 Z-18.188
N5835 Y78.162 Z-20.577
N5840 Y73.348 Z-21.637
N5845 Y68.72 Z-23.252
N5850 Y64.305 Z-25.536
N5855 Y60.218 Z-28.576
N5860 Y56.643 Z-32.351
N5865 Y53.659 Z-36.851
N5870 Y49.72 Z-47.47
N5875 Y49.139 Z-50.
N5880 Y-29.554
N5885 G2 Y-29.974 Z-49.903 J0. K0.952
N5890 G3 Y-30.393 Z-49.806 J-0.419 K-0.855
N5895 G17 G2 X6.665 Y-33.25 I-2.858 J0.
N5900 G1 X-2.616
N5905 G2 X-5.474 Y-30.393 I0. J2.858
N5910 G19 G2 Y-29.974 Z-49.903 J0. K-0.953
N5915 G3 Y-29.554 Z-50. J0.419 K0.855
N5920 G1 Y49.135
N5925 Y49.721 Z-47.455
N5930 Y53.66 Z-36.84
N5935 Y56.644 Z-32.34
N5940 Y60.218 Z-28.566
N5945 Y64.305 Z-25.526
N5950 Y68.72 Z-23.241
N5955 Y73.347 Z-21.626
N5960 Y78.162 Z-20.566
N5965 Y110.86 Z-18.178
N5970 Y211.681 Z-14.78
N5975 Y394.249 Z-13.193
N5980 Y1040.046 Z-16.32
N5985 Y1322.34 Z-15.473
N5990 Y1496.733 Z-11.767
N5995 Y1605.728 Z-6.317
N6000 Y1671.125 Z-0.009
N6005 G3 Y1672.847 Z1.887 J-0.183 K1.896 F1000.
N6010 G1 Z2.237
N6015 Z5. F5000.
N6020 Y1692.954
N6025 Z2.484
N6030 Z1.267 F1000.
N6035 G3 Y1693.692 Z-0.239 J1.905 K0.
N6040 G1 Y1695.733 Z-1.821 F5000.
N6045 Y1699.093 Z-7.57
N6050 Y1699.557 Z-50.
N6055 Y1789.44
N6060 G3 Y1789.859 Z-49.903 J0. K0.952
N6065 G2 Y1790.278 Z-49.806 J0.419 K-0.855
N6070 G17 G3 X-8.331 Y1793.136 I-2.858 J0.
N6075 G1 X-17.613
N6080 G3 X-20.47 Y1790.278 I0. J-2.858
N6085 G19 G3 Y1789.859 Z-49.903 J0. K-0.953
N6090 G2 Y1789.44 Z-50. J-0.419 K0.855
N6095 G1 Y1695.212
N6100 Y1694.665 Z-10.928
N6105 Y1691.259 Z-4.711
N6110 Y1684.767 Z-0.802
N6115 Y1675.345 Z-0.161
N6120 Y1593.652 Z-7.268
N6125 Y1492.831 Z-11.995
N6130 Y1337.512 Z-15.363
N6135 Y1064.57 Z-16.435
N6140 Y391.523 Z-13.23
N6145 Y211.681 Z-14.835
N6150 Y110.86 Z-18.241
N6155 Y78.162 Z-20.636
N6160 Y73.349 Z-21.697
N6165 Y68.723 Z-23.312
N6170 Y64.309 Z-25.596
N6175 Y60.222 Z-28.634
N6180 Y55.152 Z-34.449
N6185 Y51.349 Z-42.007
N6190 Y49.153 Z-50.
N6195 Y-29.554
N6200 G2 Y-29.974 Z-49.903 J0. K0.952
N6205 G3 Y-30.393 Z-49.806 J-0.419 K-0.855
N6210 G17 G2 X-23.328 Y-33.25 I-2.858 J0.
N6215 G1 X-32.609
N6220 G2 X-35.466 Y-30.393 I0. J2.858
N6225 G19 G2 Y-29.974 Z-49.903 J0. K-0.953
N6230 G3 Y-29.554 Z-50. J0.419 K0.855
N6235 G1 Y49.197
N6240 Y49.705 Z-47.75
N6245 Y53.657 Z-37.06
N6250 Y56.651 Z-32.564
N6255 Y60.232 Z-28.797
N6260 Y64.318 Z-25.764
N6265 Y68.731 Z-23.481
N6270 Y73.356 Z-21.865
N6275 Y78.161 Z-20.801
N6280 Y108.135 Z-18.537
N6285 Y206.23 Z-15.079
N6290 Y383.348 Z-13.32
N6295 Y800.255 Z-15.207
N6300 Y1204.258 Z-16.516
N6305 Y1422.249 Z-14.097
N6310 Y1561.218 Z-9.366
N6315 Y1670.213 Z-1.736
N6320 Y1679.495 Z-3.007
N6325 Y1686.15 Z-7.352
N6330 Y1689.556 Z-13.818
N6335 Y1690.091 Z-50.
N6340 Y1789.44
N6345 G3 Y1789.859 Z-49.903 J0. K0.952
N6350 G2 Y1790.278 Z-49.806 J0.419 K-0.855
N6355 G17 G3 X-38.324 Y1793.136 I-2.858 J0.
N6360 G1 X-47.605
N6365 G3 X-50.463 Y1790.278 I0. J-2.858
N6370 G1 Y1790.271
N6375 G19 G3 Y1789.852 Z-49.903 J0. K-0.953
N6380 G2 Y1789.433 Z-50. J-0.419 K0.855
N6385 G1 Y1684.119
N6390 Y1683.588 Z-16.576
N6395 Y1680.438 Z-10.279
N6400 Y1674.629 Z-5.838
N6405 Y1669.785 Z-4.222
N6410 Y1661.167 Z-3.473
N6415 Y1544.678 Z-10.488
N6420 Y1394.81 Z-14.892
N6425 Y1179.544 Z-16.782
N6430 Y718.507 Z-14.796
N6435 Y364.272 Z-13.51
N6440 Y195.329 Z-15.55
N6445 Y99.958 Z-19.263
N6450 Y78.159 Z-21.082
N6455 Y73.37 Z-22.154
N6460 Y68.748 Z-23.773
N6465 Y64.338 Z-26.054
N6470 Y60.254 Z-29.078
N6475 Y56.669 Z-32.831
N6480 Y53.665 Z-37.314
N6485 Y49.806 Z-47.616
N6490 Y49.26 Z-50.
N6495 Y-29.462
N6500 G2 Y-31.367 Z-48.095 J0. K1.905 F1000.
N6505 G1 Z5. F5000.
N6510 X-65.459 Y28.57
N6515 Z-48.095
N6520 G3 Y30.475 Z-50. J1.905 K0. F1000.
N6525 G1 Y49.263 F5000.
N6530 Y49.789 Z-48.169
N6535 Y53.611 Z-37.835
N6540 Y60.12 Z-29.662
N6545 Y66.281 Z-25.409
N6550 Y70.803 Z-23.425
N6555 Y75.466 Z-22.058
N6560 Y80.596 Z-21.138
N6565 Y110.569 Z-19.024
N6570 Y216.84 Z-15.394
N6575 Y396.682 Z-13.637
N6580 Y1069.729 Z-16.991
N6585 Y1341.624 Z-16.012
N6590 Y1513.292 Z-12.168
N6595 Y1619.562 Z-6.874
N6600 Y1654.985 Z-5.409
N6605 Y1665.892 Z-7.499
N6610 Y1672.977 Z-12.274
N6615 Y1676.62 Z-19.099
N6620 Y1677.161 Z-50.
N6625 Y1691.436
N6630 G3 Y1691.855 Z-49.903 J0. K0.952
N6635 G2 Y1692.275 Z-49.806 J0.419 K-0.855
N6640 G17 G3 X-68.317 Y1695.132 I-2.858 J0.
N6645 G1 X-77.598
N6650 G3 X-80.455 Y1692.275 I0. J-2.858
N6655 G1 Y1686.503
N6660 G19 G3 Y1686.084 Z-49.903 J0. K-0.953
N6665 G2 Y1685.665 Z-50. J-0.419 K0.855
N6670 G1 Y1669.128
N6675 Y1668.634 Z-21.945
N6680 Y1665.228 Z-15.271
N6685 Y1658.314 Z-10.265
N6690 Y1655.709 Z-9.275
N6695 Y1650.646 Z-8.063
N6700 Y1640.125 Z-7.217
N6705 Y1465.392 Z-14.123
N6710 Y1266.475 Z-17.08
N6715 Y936.206 Z-16.705
N6720 Y407.578 Z-13.91
N6725 Y225.011 Z-15.668
N6730 Y113.29 Z-19.406
N6735 Y78.075 Z-22.139
N6740 Y70.889 Z-24.054
N6745 Y64.256 Z-27.257
N6750 Y56.64 Z-33.99
N6755 Y51.792 Z-42.193
N6760 Y49.454 Z-50.
N6765 Y30.56
N6770 G2 Y30.141 Z-49.903 J0. K0.952
N6775 G3 Y29.722 Z-49.806 J-0.419 K-0.855
N6780 G17 G2 X-83.313 Y26.865 I-2.857 J0.
N6785 G1 X-92.594
N6790 G2 X-95.452 Y29.722 I0. J2.858
N6795 G1 Y29.729
N6800 G19 G2 Y30.148 Z-49.903 J0. K-0.953
N6805 G3 Y30.567 Z-50. J0.419 K0.855
N6810 G1 Y49.727
N6815 Y51.434 Z-43.878
N6820 Y56.745 Z-34.816
N6825 Y62.289 Z-29.565
N6830 Y66.516 Z-26.916
N6835 Y71.01 Z-24.93
N6840 Y75.669 Z-23.518
N6845 Y80.586 Z-22.57
N6850 Y116.01 Z-19.982
N6855 Y227.73 Z-16.204
N6860 Y404.848 Z-14.294
N6865 Y868.078 Z-16.658
N6870 Y1236.987 Z-17.686
N6875 Y1444.078 Z-15.192
N6880 Y1615.746 Z-9.27
N6885 Y1637.545 Z-9.951
N6890 Y1648.813 Z-12.861
N6895 Y1655.669 Z-17.712
N6900 Y1659.286 Z-24.344
N6905 Y1659.853 Z-50.
N6910 Y1679.808
N6915 G3 Y1680.227 Z-49.903 J0. K0.952
N6920 G2 Y1680.646 Z-49.806 J0.419 K-0.855
N6925 G17 G3 X-98.309 Y1683.504 I-2.858 J0.
N6930 G1 X-107.591
N6935 G3 X-110.448 Y1680.646 I0. J-2.858
N6940 G1 Y1674.96
N6945 G19 G3 Y1674.541 Z-49.903 J0. K-0.953
N6950 G2 Y1674.121 Z-50. J-0.419 K0.855
N6955 G1 Y1649.162
N6960 Y1648.576 Z-27.056
N6965 Y1645.594 Z-21.32
N6970 Y1639.364 Z-16.335
N6975 Y1628.343 Z-12.785
N6980 Y1609.378 Z-11.295
N6985 Y1399.562 Z-16.682
N6990 Y1155.991 Z-18.37
N6995 Y403.922 Z-14.803
N7000 Y229.53 Z-16.941
N7005 Y112.36 Z-21.126
N7010 Y87.836 Z-22.745
N7015 Y77.477 Z-24.276
N7020 Y72.795 Z-25.547
N7025 Y64.972 Z-29.091
N7030 Y57.194 Z-35.586
N7035 Y53.299 Z-41.114
N7040 Y50.202 Z-49.272
N7045 Y49.824 Z-50.
N7050 Y30.575
N7055 G2 Y30.156 Z-49.903 J0. K0.952
N7060 G3 Y29.737 Z-49.806 J-0.419 K-0.855
N7065 G1 Y29.637
N7070 G17 G2 X-113.306 Y26.779 I-2.857 J0.
N7075 G1 X-122.587
N7080 G2 X-125.445 Y29.637 I0. J2.858
N7085 G19 G2 Y30.056 Z-49.903 J0. K-0.953
N7090 G3 Y30.475 Z-50. J0.419 K0.855
N7095 G1 Y50.38
N7100 Y51.756 Z-45.595
N7105 Y58. Z-36.344
N7110 Y64.292 Z-31.188
N7115 Y68.651 Z-28.798
N7120 Y77.882 Z-25.688
N7125 Y87.827 Z-24.038
N7130 Y131.425 Z-21.429
N7135 Y256.77 Z-17.317
N7140 Y420.263 Z-15.447
N7145 Y1134.183 Z-18.974
N7150 Y1367.282 Z-17.871
N7155 Y1574.373 Z-13.462
N7160 Y1607.072 Z-14.318
N7165 Y1617.675 Z-15.986
N7170 Y1625.068 Z-18.389
N7175 Y1632.385 Z-23.319
N7180 Y1636.253 Z-29.867
N7185 Y1636.861 Z-50.
N7190 Y1660.692
N7195 G3 Y1661.111 Z-49.903 J0. K0.952
N7200 G2 Y1661.531 Z-49.806 J0.419 K-0.855
N7205 G17 G3 X-128.302 Y1664.388 I-2.857 J0.
N7210 G1 X-137.583
N7215 G3 X-140.441 Y1661.531 I0. J-2.858
N7220 G1 Y1645.37
N7225 G19 G3 Y1644.951 Z-49.903 J0. K-0.953
N7230 G2 Y1644.532 Z-50. J-0.419 K0.855
N7235 G1 Y1622.662
N7240 Y1622.064 Z-32.887
N7245 Y1618.147 Z-26.42
N7250 Y1613.256 Z-22.762
N7255 Y1608.561 Z-20.612
N7260 Y1603.605 Z-19.067
N7265 Y1591.134 Z-16.933
N7270 Y1557.754 Z-15.63
N7275 Y1279.816 Z-19.46
N7280 Y978.853 Z-19.085
N7285 Y447.5 Z-16.269
N7290 Y308.531 Z-17.453
N7295 Y166.837 Z-21.386
N7300 Y87.815 Z-25.653
N7305 Y78.18 Z-27.442
N7310 Y68.844 Z-30.7
N7315 Y64.638 Z-33.042
N7320 Y58.788 Z-37.747
N7325 Y52.413 Z-46.467
N7330 Y50.867 Z-50.
N7335 Y30.475
N7340 G2 Y30.056 Z-49.903 J0. K0.952
N7345 G3 Y29.637 Z-49.806 J-0.419 K-0.855
N7350 G17 G2 X-143.298 Y26.779 I-2.857 J0.
N7355 G1 X-152.58
N7360 G2 X-155.437 Y29.637 I0. J2.858
N7365 G1 Y29.735
N7370 G19 G2 Y30.154 Z-49.903 J0. K-0.953
N7375 G3 Y30.573 Z-50. J0.419 K0.855
N7380 G1 Y53.06
N7385 Y56.774 Z-44.067
N7390 Y64.643 Z-36.075
N7395 Y75.27 Z-30.594
N7400 Y88.379 Z-27.443
N7405 Y176.194 Z-22.798
N7410 Y326.063 Z-18.474
N7415 Y462.307 Z-17.318
N7420 Y950.062 Z-19.744
N7425 Y1249.823 Z-20.533
N7430 Y1486.888 Z-18.198
N7435 Y1555.01 Z-18.462
N7440 Y1580.74 Z-20.892
N7445 Y1594.537 Z-24.943
N7450 Y1600.794 Z-28.869
N7455 Y1603.762 Z-32.154
N7460 Y1605.55 Z-35.719
N7465 Y1606.244 Z-50.
N7470 Y1628.371
N7475 G3 Y1628.79 Z-49.903 J0. K0.952
N7480 G2 Y1629.209 Z-49.806 J0.419 K-0.855
N7485 G17 G3 X-158.295 Y1632.067 I-2.857 J0.
N7490 G1 X-167.576
N7495 G3 X-170.434 Y1629.209 I0. J-2.858
N7500 G1 Y1613.134
N7505 G19 G3 Y1612.715 Z-49.903 J0. K-0.953
N7510 G2 Y1612.296 Z-50. J-0.419 K0.855
N7515 G1 Y1587.161
N7520 Y1586.409 Z-38.887
N7525 Y1582.691 Z-33.267
N7530 Y1576.338 Z-28.908
N7535 Y1562.999 Z-24.565
N7540 Y1546.997 Z-22.24
N7545 Y1504.761 Z-20.429
N7550 Y1105.143 Z-21.579
N7555 Y492.044 Z-18.607
N7560 Y342.175 Z-19.793
N7565 Y184.132 Z-24.563
N7570 Y88.761 Z-29.734
N7575 Y75.999 Z-33.718
N7580 Y70.568 Z-36.692
N7585 Y64.78 Z-41.542
N7590 Y59.181 Z-50.
N7595 Y37.041
N7600 G2 Y36.622 Z-49.903 J0. K0.952
N7605 G3 Y36.203 Z-49.806 J-0.419 K-0.855
N7610 G17 G2 X-173.291 Y33.345 I-2.857 J0.
N7615 G1 X-182.573
N7620 G2 X-185.43 Y36.203 I0. J2.858
N7625 G1 Y45.067
N7630 G19 G2 Y45.486 Z-49.903 J0. K-0.953
N7635 G3 Y45.905 Z-50. J0.419 K0.855
N7640 G1 Y67.285
N7645 Y69.289 Z-46.825
N7650 Y72.603 Z-42.571
N7655 Y75.473 Z-39.976
N7660 Y85.563 Z-34.23
N7665 Y95.06 Z-32.446
N7670 Y195.88 Z-26.563
N7675 Y353.924 Z-21.54
N7680 Y528.316 Z-20.187
N7685 Y1056.944 Z-22.666
N7690 Y1423.519 Z-22.67
N7695 Y1501.179 Z-23.922
N7700 Y1532.506 Z-26.731
N7705 Y1545.53 Z-29.466
N7710 Y1554.038 Z-32.699
N7715 Y1561.395 Z-38.015
N7720 Y1563.855 Z-41.87
N7725 Y1564.802 Z-50.
N7730 Y1596.135
N7735 G3 Y1596.554 Z-49.903 J0. K0.952
N7740 G2 Y1596.973 Z-49.806 J0.419 K-0.855
N7745 G17 G3 X-188.288 Y1599.831 I-2.857 J0.
N7750 G1 X-197.569
N7755 G3 X-200.426 Y1596.973 I0. J-2.858
N7760 G1 Y1580.813
N7765 G19 G3 Y1580.394 Z-49.903 J0. K-0.953
N7770 G2 Y1579.974 Z-50. J-0.419 K0.855
N7775 G1 Y1538.319
N7780 Y1536.376 Z-43.629
N7785 Y1529.75 Z-37.812
N7790 Y1525.791 Z-35.853
N7795 Y1515.769 Z-32.562
N7800 Y1499.979 Z-29.702
N7805 Y1461.831 Z-26.736
N7810 Y1366.46 Z-25.118
N7815 Y941.378 Z-23.496
N7820 Y535.37 Z-22.14
N7825 Y358.252 Z-23.895
N7830 Y211.108 Z-29.109
N7835 Y129.362 Z-34.559
N7840 Y99.695 Z-37.774
N7845 Y87.203 Z-40.013
N7850 Y80.96 Z-45.112
N7855 Y77.77 Z-50.
N7860 Y54.769
N7865 G2 Y54.35 Z-49.903 J0. K0.952
N7870 G3 Y53.93 Z-49.806 J-0.419 K-0.855
N7875 G17 G2 X-203.284 Y51.073 I-2.857 J0.
N7880 G1 X-212.565
N7885 G2 X-215.423 Y53.93 I0. J2.858
N7890 G1 Y62.794
N7895 G19 G2 Y63.213 Z-49.903 J0. K-0.953
N7900 G3 Y63.632 Z-50. J0.419 K0.855
N7905 G1 Y107.479
N7910 Y116.946 Z-46.618
N7915 Y134.848 Z-42.424
N7920 Y163.386 Z-38.234
N7925 Y220.519 Z-33.244
N7930 Y324.064 Z-28.271
N7935 Y443.959 Z-25.421
N7940 Y683.749 Z-24.369
N7945 Y1351.346 Z-28.242
N7950 Y1430.368 Z-30.522
N7955 Y1468.516 Z-33.981
N7960 Y1484.282 Z-37.013
N7965 Y1494.278 Z-40.343
N7970 Y1501.181 Z-44.262
N7975 Y1505.712 Z-49.76
N7980 Y1556.009 Z-50.
N7985 G3 Y1557.923 Z-48.095 J0.009 K1.905 F1000.
N7990 G1 Z5. F5000.
N7995 X-230.419 Y1523.901
N8000 Z-48.095
N8005 G2 Y1521.986 Z-50. J-1.905 K0. F1000.
N8010 G1 Y1463.205 Z-49.701 F5000.
N8015 Y1453.023 Z-44.179
N8020 Y1442.861 Z-41.201
N8025 Y1424.296 Z-37.882
N8030 Y1379.335 Z-34.077
N8035 Y1282.602 Z-31.321
N8040 Y805.747 Z-27.433
N8045 Y535.983 Z-27.857
N8050 Y380.665 Z-30.827
N8055 Y279.844 Z-35.795
N8060 Y222.672 Z-40.947
N8065 Y194.198 Z-45.32
N8070 Y175.479 Z-49.904
N8075 Y92.922 Z-50.
N8080 G2 Y91.015 Z-48.095 J-0.002 K1.905 F1000.
N8085 G1 Z5. F5000.
N8090 X-245.415 Y159.924
N8095 Z-48.095
N8100 G3 Y161.829 Z-50. J1.905 K0. F1000.
N8105 G1 Y257.158 F5000.
N8110 Y286.123 Z-45.482
N8115 Y320.706 Z-41.597
N8120 Y399.728 Z-36.384
N8125 Y518.26 Z-32.687
N8130 Y721.264 Z-30.993
N8135 Y1021.002 Z-32.622
N8140 Y1258.067 Z-36.123
N8145 Y1337.088 Z-39.501
N8150 Y1377.962 Z-43.615
N8155 Y1393.705 Z-46.608
N8160 Y1404.064 Z-49.624
N8165 Y1488.048 Z-50.
N8170 G3 Y1489.962 Z-48.095 J0.009 K1.905 F1000.
N8175 G1 Z5. F5000.
N8180 X-260.412 Y1443.729
N8185 Z-48.095
N8190 G2 Y1441.818 Z-50. J-1.905 K0. F1000.
N8195 G1 Y1310.938 Z-49.537 F5000.
N8200 Y1266.466 Z-45.065
N8205 Y1176.545 Z-41.064
N8210 Y972.179 Z-37.456
N8215 Y737.839 Z-36.289
N8220 Y579.795 Z-38.058
N8225 Y468.075 Z-41.911
N8230 Y399.961 Z-46.985
N8235 Y371.06 Z-50.
N8240 Y230.736
N8245 G2 Y228.831 Z-48.095 J0. K1.905 F1000.
N8250 G1 Z5. F5000.
N8255 X-275.408 Y297.785
N8260 Z-48.095
N8265 G3 Y299.69 Z-50. J1.905 K0. F1000.
N8270 G1 Y544.517 F5000.
N8275 Y642.396 Z-46.175
N8280 Y784.09 Z-44.189
N8285 Y963.933 Z-45.552
N8290 Y1113.801 Z-49.535
N8295 Y1377.456 Z-50.
N8300 G3 Y1379.365 Z-48.095 J0.003 K1.905 F1000.
N8305 G1 Z5. F5000.
N8310 X-290.405 Y1282.43
N8315 Z-48.095
N8320 G2 Y1280.525 Z-50. J-1.905 K0. F1000.
N8325 G1 Y444.933 F5000.
N8330 G2 Y443.028 Z-48.095 J0. K1.905 F1000.
N8335 G1 Z5. F5000.
N8340 X-305.401 Y588.754
N8345 Z-48.095
N8350 G3 Y590.659 Z-50. J1.905 K0. F1000.
N8355 G1 Y1117.952 F5000.
N8360 G3 Y1119.857 Z-48.095 J0. K1.905 F1000.
N8365 G1 Z10. F5000.
N8370 G17
(PARALLEL1 5)
N8375 G0 Z12.
N8380 X289.331 Y991.762
N8385 G1 Z-63.834 F5000.
N8390 Z-68.104 F1000.
N8395 G19 G2 Y989.657 Z-69.998 J-1.905 K0.
N8400 G1 Y977.725 Z-68.743 F5000.
N8405 Y965.758 Z-67.787
N8410 Y951.348 Z-66.908
N8415 Y924.69 Z-65.577
N8420 Y898.671 Z-64.655
N8425 Y869.592 Z-64.094
N8430 Y842.808 Z-63.866
N8435 Y816.79 Z-63.923
N8440 Y793.067 Z-64.252
N8445 Y770.176 Z-64.947
N8450 Y746.673 Z-66.011
N8455 Y728.034 Z-67.148
N8460 Y720.356 Z-67.912
N8465 Y703.767 Z-69.689
N8470 Y701.522 Z-70.
N8475 G2 Y699.356 Z-68.113 J-0.261 K1.887 F1000.
N8480 G1 Z-63.388
N8485 Z7. F5000.
N8490 X286.332 Y623.656
N8495 Z-63.101
N8500 Z-68.185 F1000.
N8505 G3 Y626.139 Z-70. J1.905 K0.
N8510 G1 Y626.431 Z-69.907 F5000.
N8515 Y629.369 Z-69.16
N8520 Y642.353 Z-66.804
N8525 Y647.018 Z-66.105
N8530 Y662.14 Z-64.438
N8535 Y669.971 Z-63.668
N8540 Y681.549 Z-62.741
N8545 Y703.917 Z-61.371
N8550 Y722.224 Z-60.467
N8555 Y741.246 Z-59.832
N8560 Y764.968 Z-59.23
N8565 Y789.456 Z-58.805
N8570 Y814.709 Z-58.571
N8575 Y839.962 Z-58.543
N8580 Y865.215 Z-58.715
N8585 Y891.999 Z-59.092
N8590 Y919.548 Z-59.671
N8595 Y943.27 Z-60.345
N8600 Y976.176 Z-61.496
N8605 Y999.133 Z-62.642
N8610 Y1024.066 Z-64.151
N8615 Y1031.553 Z-64.696
N8620 Y1044.994 Z-65.94
N8625 Y1052.452 Z-66.712
N8630 Y1060.644 Z-67.653
N8635 Y1068.791 Z-68.93
N8640 Y1074.743 Z-70.
N8645 G3 Y1076.985 Z-68.125 J0.337 K1.875 F1000.
N8650 G1 Z-63.671
N8655 Z7. F5000.
N8660 X283.332 Y1133.898
N8665 Z-63.376
N8670 Z-68.192 F1000.
N8675 G2 Y1131.393 Z-70. J-1.905 K0.
N8680 G1 Y1129.299 Z-69.305 F5000.
N8685 Y1119.071 Z-67.007
N8690 Y1113.902 Z-66.143
N8695 Y1107.966 Z-65.282
N8700 Y1099.046 Z-64.106
N8705 Y1090.095 Z-63.19
N8710 Y1070.673 Z-61.49
N8715 Y1057.05 Z-60.622
N8720 Y1043.336 Z-59.818
N8725 Y1020.379 Z-58.645
N8730 Y987.474 Z-57.438
N8735 Y943.855 Z-56.145
N8740 Y918.602 Z-55.574
N8745 Y884.165 Z-55.066
N8750 Y840.547 Z-54.718
N8755 Y806.876 Z-54.708
N8760 Y773.97 Z-54.936
N8765 Y741.065 Z-55.527
N8770 Y712.751 Z-56.265
N8775 Y684.504 Z-57.245
N8780 Y660.054 Z-58.546
N8785 Y642.257 Z-59.639
N8790 Y628.377 Z-60.814
N8795 Y616.736 Z-61.917
N8800 Y607.057 Z-62.966
N8805 Y589.851 Z-65.489
N8810 Y585.886 Z-66.309
N8815 Y576.691 Z-68.468
N8820 Y574.271 Z-69.235
N8825 Y572.419 Z-69.998
N8830 G2 Y572.056 Z-70.07 J-0.363 K0.881
N8835 G1 Y528.255
N8840 X283.313 Y528.021
N8845 X283.258 Y527.792
N8850 X283.168 Y527.574 Z-70.071
N8855 X283.045 Y527.373 Z-70.072
N8860 X282.892 Y527.195 Z-70.074
N8865 X282.713 Y527.042 Z-70.076
N8870 X282.513 Y526.919 Z-70.077
N8875 X282.295 Y526.829 Z-70.08
N8880 X282.066 Y526.774 Z-70.082
N8885 X281.832 Y526.755 Z-70.084
N8890 X281.597 Y526.774 Z-70.086
N8895 X281.368 Y526.829 Z-70.088
N8900 X281.151 Y526.919 Z-70.09
N8905 X280.95 Y527.042 Z-70.092
N8910 X280.771 Y527.195 Z-70.094
N8915 X280.618 Y527.373 Z-70.095
N8920 X280.495 Y527.574 Z-70.096
N8925 X280.405 Y527.792 Z-70.097
N8930 X280.35 Y528.021 Z-70.098
N8935 X280.332 Y528.255
N8940 G3 Y528.68 Z-69.998 J0. K0.952
N8945 G1 Y528.681
N8950 Y531.67 Z-68.508
N8955 Y533.595 Z-67.816
N8960 Y539.729 Z-66.09
N8965 Y544.31 Z-64.936
N8970 Y550.722 Z-63.746
N8975 Y558.322 Z-62.413
N8980 Y565.966 Z-61.355
N8985 Y575.935 Z-60.157
N8990 Y586.281 Z-59.019
N8995 Y604.585 Z-57.505
N9000 Y617.829 Z-56.526
N9005 Y637.619 Z-55.423
N9010 Y658.058 Z-54.433
N9015 Y675.404 Z-53.758
N9020 Y712.901 Z-52.725
N9025 Y748.867 Z-52.023
N9030 Y783.303 Z-51.7
N9035 Y824.626 Z-51.606
N9040 Y865.184 Z-51.805
N9045 Y916.456 Z-52.372
N9050 Y947.831 Z-52.934
N9055 Y994.511 Z-54.119
N9060 Y1038.512 Z-55.524
N9065 Y1057.261 Z-56.309
N9070 Y1090.162 Z-58.008
N9075 Y1105.199 Z-59.048
N9080 Y1117.161 Z-60.007
N9085 Y1128.366 Z-60.99
N9090 Y1141.024 Z-62.495
N9095 Y1148.461 Z-63.439
N9100 Y1160.848 Z-65.688
N9105 Y1164.484 Z-66.559
N9110 Y1168.804 Z-67.791
N9115 Y1171.625 Z-68.711
N9120 Y1174.137 Z-69.996
N9125 G3 Y1174.571 Z-70.101 J0.434 K0.848
N9130 G1 Y1209.935
N9135 X280.313 Y1210.17
N9140 X280.258 Y1210.399 Z-70.102
N9145 X280.168 Y1210.616 Z-70.103
N9150 X280.045 Y1210.817 Z-70.105
N9155 X279.893 Y1210.996 Z-70.107
N9160 X279.714 Y1211.149 Z-70.11
N9165 X279.513 Y1211.272 Z-70.113
N9170 X279.295 Y1211.362 Z-70.116
N9175 X279.067 Y1211.417 Z-70.12
N9180 X278.832 Y1211.435 Z-70.123
N9185 X278.597 Y1211.417 Z-70.127
N9190 X278.368 Y1211.362 Z-70.13
N9195 X278.151 Y1211.272 Z-70.133
N9200 X277.95 Y1211.149 Z-70.136
N9205 X277.771 Y1210.996 Z-70.139
N9210 X277.618 Y1210.817 Z-70.141
N9215 X277.495 Y1210.616 Z-70.143
N9220 X277.405 Y1210.399 Z-70.144
N9225 X277.35 Y1210.17 Z-70.145
N9230 X277.332 Y1209.935
N9235 G2 Y1209.428 Z-69.999 J0. K0.952
N9240 G1 Y1206.202 Z-67.971
N9245 Y1204.273 Z-67.138
N9250 Y1199.31 Z-65.444
N9255 Y1196.062 Z-64.596
N9260 Y1187.054 Z-62.652
N9265 Y1182.62 Z-61.924
N9270 Y1170.001 Z-60.12
N9275 Y1164.786 Z-59.54
N9280 Y1147.623 Z-57.831
N9285 Y1128.9 Z-56.461
N9290 Y1110.736 Z-55.311
N9295 Y1075.535 Z-53.69
N9300 Y1050.344 Z-52.75
N9305 Y1000.603 Z-51.369
N9310 Y945.505 Z-50.173
N9315 Y912.6 Z-49.674
N9320 Y855.971 Z-49.153
N9325 Y808.526 Z-49.008
N9330 Y763.377 Z-49.172
N9335 Y726.645 Z-49.603
N9340 Y684.557 Z-50.425
N9345 Y656.242 Z-51.201
N9350 Y637.92 Z-51.899
N9355 Y615.95 Z-52.855
N9360 Y600.004 Z-53.676
N9365 Y583.327 Z-54.767
N9370 Y568.619 Z-55.809
N9375 Y554.749 Z-57.085
N9380 Y539.768 Z-58.634
N9385 Y532.122 Z-59.673
N9390 Y521.213 Z-61.236
N9395 Y515.252 Z-62.358
N9400 Y505.928 Z-64.295
N9405 Y502.675 Z-65.22
N9410 Y495.822 Z-67.421
N9415 Y494.101 Z-68.189
N9420 Y490.943 Z-70.
N9425 G2 Y490.469 Z-70.126 J-0.474 K0.826
N9430 G1 Y457.11
N9435 X277.314 Y456.876
N9440 X277.259 Y456.647 Z-70.127
N9445 X277.168 Y456.429 Z-70.128
N9450 X277.046 Y456.229 Z-70.129
N9455 X276.893 Y456.05 Z-70.13
N9460 X276.714 Y455.897 Z-70.131
N9465 X276.513 Y455.774 Z-70.133
N9470 X276.296 Y455.684 Z-70.135
N9475 X276.067 Y455.629 Z-70.137
N9480 X275.832 Y455.61 Z-70.139
N9485 X275.597 Y455.629 Z-70.141
N9490 X275.369 Y455.684 Z-70.143
N9495 X275.151 Y455.774 Z-70.144
N9500 X274.95 Y455.897 Z-70.146
N9505 X274.771 Y456.05 Z-70.148
N9510 X274.619 Y456.229 Z-70.149
N9515 X274.496 Y456.429 Z-70.15
N9520 X274.406 Y456.647 Z-70.151
N9525 X274.351 Y456.876
N9530 X274.332 Y457.11
N9535 G3 Y457.626 Z-70. J0. K0.952
N9540 G1 Y457.629 Z-69.998
N9545 Y461.489 Z-67.517
N9550 Y463.043 Z-66.783
N9555 Y467.459 Z-65.201
N9560 Y471.308 Z-63.921
N9565 Y479.618 Z-61.926
N9570 Y484.895 Z-60.808
N9575 Y496.282 Z-58.926
N9580 Y503.691 Z-57.845
N9585 Y521.553 Z-55.758
N9590 Y531.399 Z-54.844
N9595 Y547.385 Z-53.522
N9600 Y559.885 Z-52.619
N9605 Y582.922 Z-51.293
N9610 Y598.837 Z-50.48
N9615 Y617.799 Z-49.74
N9620 Y656.061 Z-48.491
N9625 Y691.262 Z-47.752
N9630 Y736.412 Z-47.121
N9635 Y783.092 Z-46.789
N9640 Y830.537 Z-46.791
N9645 Y884.869 Z-47.122
N9650 Y935.375 Z-47.705
N9655 Y1001.952 Z-48.936
N9660 Y1058.58 Z-50.299
N9665 Y1089.955 Z-51.343
N9670 Y1122.848 Z-52.677
N9675 Y1148.851 Z-54.12
N9680 Y1163.19 Z-55.059
N9685 Y1175.893 Z-56.123
N9690 Y1186.349 Z-57.054
N9695 Y1199.754 Z-58.634
N9700 Y1204.957 Z-59.313
N9705 Y1214.418 Z-60.902
N9710 Y1218.839 Z-61.704
N9715 Y1226.681 Z-63.675
N9720 Y1229.527 Z-64.545
N9725 Y1234.393 Z-66.431
N9730 Y1235.609 Z-67.117
N9735 Y1238.42 Z-69.226
N9740 Y1238.803 Z-69.735
N9745 Y1238.916 Z-70.
N9750 G3 Y1239.792 Z-70.58 J0.877 K0.373
N9755 G1 Y1265.382
N9760 X274.314 Y1265.616
N9765 X274.259 Y1265.845 Z-70.581
N9770 X274.169 Y1266.063 Z-70.583
N9775 X274.046 Y1266.264 Z-70.585
N9780 X273.893 Y1266.443 Z-70.587
N9785 X273.714 Y1266.595 Z-70.59
N9790 X273.513 Y1266.718 Z-70.594
N9795 X273.296 Y1266.808 Z-70.597
N9800 X273.067 Y1266.863 Z-70.601
N9805 X272.832 Y1266.882 Z-70.605
N9810 X272.598 Y1266.863 Z-70.609
N9815 X272.369 Y1266.808 Z-70.613
N9820 X272.151 Y1266.718 Z-70.617
N9825 X271.951 Y1266.595 Z-70.62
N9830 X271.772 Y1266.443 Z-70.623
N9835 X271.619 Y1266.264 Z-70.626
N9840 X271.496 Y1266.063 Z-70.628
N9845 X271.406 Y1265.845 Z-70.629
N9850 X271.351 Y1265.616 Z-70.63
N9855 X271.332 Y1265.382 Z-70.631
N9860 G2 Y1264.485 Z-70. J0. K0.952
N9865 G1 Z-69.999
N9870 Y1264.056 Z-68.805
N9875 Y1263.537 Z-68.08
N9880 Y1260.974 Z-66.049
N9885 Y1259.422 Z-65.209
N9890 Y1255.465 Z-63.467
N9895 Y1253.366 Z-62.755
N9900 Y1247.967 Z-61.182
N9905 Y1244.69 Z-60.43
N9910 Y1235.277 Z-58.574
N9915 Y1228.756 Z-57.615
N9920 Y1219.099 Z-56.291
N9925 Y1200.603 Z-54.403
N9930 Y1185.642 Z-53.255
N9935 Y1169.089 Z-52.137
N9940 Y1134.658 Z-50.431
N9945 Y1108.639 Z-49.459
N9950 Y1060.429 Z-48.023
N9955 Y1008.392 Z-46.945
N9960 Y934.163 Z-45.74
N9965 Y872.178 Z-45.134
N9970 Y817.846 Z-44.879
N9975 Y765.809 Z-44.937
N9980 Y712.242 Z-45.322
N9985 Y670.919 Z-45.874
N9990 Y628.831 Z-46.878
N9995 Y595.925 Z-47.9
N10000 Y573.219 Z-48.879
N10005 Y548.046 Z-50.136
N10010 Y531.522 Z-51.221
N10015 Y515.628 Z-52.351
N10020 Y506.084 Z-53.195
N10025 Y489.45 Z-54.82
N10030 Y479.271 Z-56.073
N10035 Y467.169 Z-57.729
N10040 Y459.57 Z-59.078
N10045 Y451.422 Z-60.614
N10050 Y440.947 Z-63.325
N10055 Y438.381 Z-64.202
N10060 Y433.088 Z-66.32
N10065 Y431.56 Z-67.139
N10070 Y427.819 Z-69.797
N10075 Y427.637 Z-69.988
N10080 G2 Y424.352 Z-68.675 J-1.379 K1.314 F1000.
N10085 G1 Z-61.956
N10090 Z7. F5000.
N10095 X268.332 Y396.854
N10100 Z-61.73
N10105 Z-69.089 F1000.
N10110 G3 Y400.432 Z-70. J1.905 K0.
N10115 G1 Y400.714 Z-69.483 F5000.
N10120 Y401.242 Z-68.962
N10125 Y404.087 Z-66.798
N10130 Y405.345 Z-66.006
N10135 Y410.507 Z-63.765
N10140 Y413.047 Z-62.804
N10145 Y420.618 Z-60.654
N10150 Y423.894 Z-59.832
N10155 Y433.076 Z-57.977
N10160 Y437.714 Z-57.111
N10165 Y450.098 Z-55.268
N10170 Y457.52 Z-54.288
N10175 Y474.059 Z-52.484
N10180 Y483.752 Z-51.584
N10185 Y504.076 Z-49.972
N10190 Y516.781 Z-49.139
N10195 Y544.162 Z-47.615
N10200 Y565.751 Z-46.688
N10205 Y604.763 Z-45.321
N10210 Y646.086 Z-44.409
N10215 Y697.357 Z-43.619
N10220 Y748.629 Z-43.147
N10225 Y797.222 Z-43.036
N10230 Y860.354 Z-43.258
N10235 Y930.757 Z-43.823
N10240 Y998.864 Z-44.866
N10245 Y1067.736 Z-46.234
N10250 Y1122.833 Z-47.631
N10255 Y1156.504 Z-48.894
N10260 Y1177.89 Z-49.85
N10265 Y1199.262 Z-51.098
N10270 Y1209.803 Z-51.812
N10275 Y1223.255 Z-52.93
N10280 Y1233.334 Z-53.868
N10285 Y1248.597 Z-55.697
N10290 Y1255.848 Z-56.859
N10295 Y1261.759 Z-57.86
N10300 Y1266.148 Z-58.821
N10305 Y1271.244 Z-60.029
N10310 Y1274.823 Z-61.135
N10315 Y1278.535 Z-62.358
N10320 Y1282.435 Z-64.294
N10325 Y1283.75 Z-65.121
N10330 Y1285.808 Z-66.981
N10335 Y1286.335 Z-67.747
N10340 Y1287.009 Z-69.963
N10345 G3 Y1288.872 Z-69.686 J0.911 K0.277 F1000.
N10350 G1 X268.331 Y1288.879 Z-69.571
N10355 X268.328 Y1288.9 Z-69.458
N10360 X268.323 Y1288.934 Z-69.348
N10365 X268.316 Y1288.98 Z-69.243
N10370 X268.308 Y1289.039 Z-69.145
N10375 X268.297 Y1289.109 Z-69.054
N10380 X268.285 Y1289.19 Z-68.973
N10385 X268.272 Y1289.279 Z-68.902
N10390 X268.258 Y1289.377 Z-68.842
N10395 X268.242 Y1289.481 Z-68.795
N10400 X268.226 Y1289.589 Z-68.761
N10405 X268.21 Y1289.701 Z-68.74
N10410 X268.193 Y1289.815 Z-68.733
N10415 X265.472 Y1308.217 F5000.
N10420 X265.455 Y1308.33 Z-68.74 F1000.
N10425 X265.439 Y1308.442 Z-68.761
N10430 X265.422 Y1308.551 Z-68.795
N10435 X265.407 Y1308.655 Z-68.842
N10440 X265.393 Y1308.752 Z-68.902
N10445 X265.379 Y1308.842 Z-68.973
N10450 X265.368 Y1308.922 Z-69.054
N10455 X265.357 Y1308.992 Z-69.145
N10460 X265.349 Y1309.051 Z-69.243
N10465 X265.342 Y1309.098 Z-69.348
N10470 X265.337 Y1309.132 Z-69.458
N10475 X265.334 Y1309.152 Z-69.571
N10480 X265.333 Y1309.159 Z-69.686
N10485 Z-69.955
N10490 G2 Y1307.255 Z-70. J-0.953 K0.
N10495 G1 Y1307.185 Z-68.499 F5000.
N10500 Y1306.527 Z-66.427
N10505 Y1305.725 Z-65.5
N10510 Y1304.103 Z-63.979
N10515 Y1302.284 Z-62.904
N10520 Y1299.646 Z-61.512
N10525 Y1298.279 Z-60.966
N10530 Y1293.34 Z-59.203
N10535 Y1289.733 Z-58.26
N10540 Y1284.634 Z-57.023
N10545 Y1279.486 Z-56.029
N10550 Y1272.839 Z-54.876
N10555 Y1261.696 Z-53.36
N10560 Y1254.248 Z-52.509
N10565 Y1240.438 Z-51.179
N10570 Y1233.338 Z-50.604
N10575 Y1213.041 Z-49.216
N10580 Y1183.314 Z-47.714
N10585 Y1163.418 Z-46.929
N10590 Y1109.851 Z-45.335
N10595 Y1066.997 Z-44.334
N10600 Y979.759 Z-42.94
N10605 Y917.009 Z-42.164
N10610 Y842.015 Z-41.647
N10615 Y777.735 Z-41.533
N10620 Y720.341 Z-41.739
N10625 Y663.713 Z-42.246
N10630 Y622.39 Z-43.022
N10635 Y571.884 Z-44.311
N10640 Y549.764 Z-45.051
N10645 Y522.481 Z-46.254
N10650 Y503.634 Z-47.23
N10655 Y480.068 Z-48.756
N10660 Y467.806 Z-49.698
N10665 Y447.808 Z-51.509
N10670 Y436.95 Z-52.751
N10675 Y425.344 Z-54.191
N10680 Y412.766 Z-56.189
N10685 Y407.158 Z-57.197
N10690 Y396.841 Z-59.468
N10695 Y392.295 Z-60.759
N10700 Y386.71 Z-62.516
N10705 Y384.213 Z-63.585
N10710 Y379.962 Z-65.569
N10715 Y379.06 Z-66.176
N10720 Y376.083 Z-68.646
N10725 Y375.576 Z-69.378
N10730 Y375.336 Z-69.999
N10735 G2 Y374.447 Z-70.607 J-0.888 K0.344
N10740 G1 Y350.966
N10745 X265.314 Y350.731 Z-70.608
N10750 X265.259 Y350.503
N10755 X265.169 Y350.285 Z-70.609
N10760 X265.046 Y350.084 Z-70.61
N10765 X264.893 Y349.905 Z-70.612
N10770 X264.714 Y349.753 Z-70.614
N10775 X264.514 Y349.63 Z-70.616
N10780 X264.296 Y349.54 Z-70.618
N10785 X264.067 Y349.485 Z-70.62
N10790 X263.833 Y349.466 Z-70.623
N10795 X263.598 Y349.485 Z-70.625
N10800 X263.369 Y349.54 Z-70.627
N10805 X263.152 Y349.63 Z-70.63
N10810 X262.951 Y349.753 Z-70.632
N10815 X262.772 Y349.905 Z-70.633
N10820 X262.619 Y350.084 Z-70.635
N10825 X262.496 Y350.285 Z-70.636
N10830 X262.406 Y350.503 Z-70.637
N10835 X262.351 Y350.731 Z-70.638
N10840 X262.333 Y350.966
N10845 G3 Y351.866 Z-69.999 J0. K0.952
N10850 G1 Y352.3 Z-68.753
N10855 Y352.882 Z-67.945
N10860 Y355.465 Z-65.667
N10865 Y356.628 Z-64.882
N10870 Y361.172 Z-62.628
N10875 Y363.387 Z-61.752
N10880 Y370.738 Z-59.372
N10885 Y375.47 Z-58.21
N10890 Y382.992 Z-56.479
N10895 Y388.083 Z-55.549
N10900 Y397.829 Z-53.869
N10905 Y404.804 Z-52.9
N10910 Y417.587 Z-51.253
N10915 Y432.205 Z-49.766
N10920 Y443.391 Z-48.718
N10925 Y463.89 Z-47.183
N10930 Y476.944 Z-46.321
N10935 Y507.564 Z-44.695
N10940 Y530.113 Z-43.795
N10945 Y575.263 Z-42.343
N10950 Y603.959 Z-41.627
N10955 Y659.44 Z-40.789
N10960 Y714.537 Z-40.27
N10965 Y774.226 Z-40.025
N10970 Y836.211 Z-40.136
N10975 Y915.797 Z-40.639
N10980 Y977.782 Z-41.38
N10985 Y1063.489 Z-42.723
N10990 Y1134.657 Z-44.142
N10995 Y1165.267 Z-45.054
N11000 Y1208.886 Z-46.661
N11005 Y1231.078 Z-47.844
N11010 Y1243.974 Z-48.638
N11015 Y1261.171 Z-49.993
N11020 Y1270.125 Z-50.864
N11025 Y1281.304 Z-52.101
N11030 Y1292.436 Z-53.699
N11035 Y1296.495 Z-54.392
N11040 Y1305.526 Z-56.225
N11045 Y1311.155 Z-57.779
N11050 Y1313.99 Z-58.676
N11055 Y1318.659 Z-60.505
N11060 Y1321.959 Z-62.454
N11065 Y1323.062 Z-63.306
N11070 Y1324.689 Z-65.087
N11075 Y1325.084 Z-65.815
N11080 Y1325.551 Z-67.513
N11085 Y1325.607 Z-70.
N11090 G3 Y1326.559 Z-70.931 J0.952 K0.021
N11095 G1 Y1343.548
N11100 X262.314 Y1343.783
N11105 X262.259 Y1344.012
N11110 X262.169 Y1344.229
N11115 X262.046 Y1344.43 Z-70.932
N11120 X261.893 Y1344.609
N11125 X261.714 Y1344.761
N11130 X261.514 Y1344.885 Z-70.933
N11135 X261.296 Y1344.975
N11140 X261.067 Y1345.03 Z-70.934
N11145 X260.833 Y1345.048
N11150 X260.598 Y1345.03 Z-70.935
N11155 X260.369 Y1344.975
N11160 X260.152 Y1344.885 Z-70.936
N11165 X259.951 Y1344.761
N11170 X259.772 Y1344.609 Z-70.937
N11175 X259.619 Y1344.43
N11180 X259.496 Y1344.229
N11185 X259.406 Y1344.012 Z-70.938
N11190 X259.351 Y1343.783
N11195 X259.333 Y1343.548
N11200 G2 Y1342.596 Z-70. J0. K0.952
N11205 G1 Y1342.542 Z-66.509
N11210 Y1342.111 Z-64.852
N11215 Y1341.563 Z-63.915
N11220 Y1340.082 Z-62.23
N11225 Y1339.006 Z-61.416
N11230 Y1336.618 Z-59.883
N11235 Y1335.317 Z-59.241
N11240 Y1331.277 Z-57.516
N11245 Y1327.046 Z-56.223
N11250 Y1324.171 Z-55.392
N11255 Y1318.331 Z-54.051
N11260 Y1313.924 Z-53.171
N11265 Y1304.307 Z-51.592
N11270 Y1294.638 Z-50.367
N11275 Y1287.934 Z-49.593
N11280 Y1273.746 Z-48.302
N11285 Y1264.768 Z-47.599
N11290 Y1244.35 Z-46.295
N11295 Y1213.74 Z-44.92
N11300 Y1183.131 Z-43.776
N11305 Y1123.441 Z-42.338
N11310 Y1066.813 Z-41.252
N11315 Y948.966 Z-39.709
N11320 Y902.286 Z-39.284
N11325 Y819.639 Z-38.841
N11330 Y747.706 Z-38.794
N11335 Y680.365 Z-39.085
N11340 Y640.572 Z-39.531
N11345 Y585.474 Z-40.476
N11350 Y544.916 Z-41.416
N11355 Y502.859 Z-42.95
N11360 Y477.078 Z-44.046
N11365 Y453.641 Z-45.407
N11370 Y439.117 Z-46.342
N11375 Y415.137 Z-48.299
N11380 Y403.29 Z-49.511
N11385 Y390.33 Z-50.964
N11390 Y374.084 Z-53.271
N11395 Y368.11 Z-54.313
N11400 Y358.754 Z-56.079
N11405 Y349.948 Z-58.237
N11410 Y346.228 Z-59.305
N11415 Y339.898 Z-61.541
N11420 Y338.033 Z-62.425
N11425 Y334.334 Z-64.411
N11430 Y333.245 Z-65.214
N11435 Y330.737 Z-67.63
N11440 Y330.397 Z-68.287
N11445 Y329.882 Z-69.992
N11450 G2 Y328.97 Z-70.669 J-0.912 K0.276
N11455 G1 Y308.3
N11460 X259.314 Y308.066
N11465 X259.259 Y307.837 Z-70.67
N11470 X259.169 Y307.619
N11475 X259.046 Y307.419 Z-70.672
N11480 X258.893 Y307.24 Z-70.673
N11485 X258.715 Y307.087 Z-70.675
N11490 X258.514 Y306.964 Z-70.677
N11495 X258.296 Y306.874 Z-70.68
N11500 X258.068 Y306.819 Z-70.682
N11505 X257.833 Y306.8 Z-70.684
N11510 X257.598 Y306.819 Z-70.687
N11515 X257.369 Y306.874 Z-70.689
N11520 X257.152 Y306.964 Z-70.692
N11525 X256.951 Y307.087 Z-70.694
N11530 X256.772 Y307.24 Z-70.696
N11535 X256.619 Y307.419 Z-70.697
N11540 X256.496 Y307.619 Z-70.698
N11545 X256.406 Y307.837 Z-70.699
N11550 X256.351 Y308.066 Z-70.7
N11555 X256.333 Y308.3
N11560 G3 Y309.219 Z-69.997 J0. K0.952
N11565 G1 Y309.84 Z-67.713
N11570 Y310.207 Z-67.001
N11575 Y312.377 Z-64.731
N11580 Y313.236 Z-64.017
N11585 Y316.555 Z-62.108
N11590 Y318.394 Z-61.162
N11595 Y322.942 Z-59.409
N11600 Y326.214 Z-58.284
N11605 Y334.239 Z-56.107
N11610 Y338.998 Z-55.063
N11615 Y348.552 Z-53.182
N11620 Y355.66 Z-52.067
N11625 Y365.958 Z-50.555
N11630 Y382.405 Z-48.614
N11635 Y391.939 Z-47.644
N11640 Y411.423 Z-45.926
N11645 Y429.83 Z-44.649
N11650 Y445.597 Z-43.652
N11655 Y475.866 Z-42.216
N11660 Y503.994 Z-41.036
N11665 Y544.552 Z-39.897
N11670 Y595.824 Z-38.769
N11675 Y637.912 Z-38.225
N11680 Y701.427 Z-37.732
N11685 Y768.769 Z-37.544
N11690 Y838.406 Z-37.68
N11695 Y928.705 Z-38.246
N11700 Y1041.196 Z-39.627
N11705 Y1132.26 Z-41.024
N11710 Y1165.931 Z-41.768
N11715 Y1221.029 Z-43.322
N11720 Y1250.108 Z-44.607
N11725 Y1272.253 Z-45.777
N11730 Y1291.729 Z-47.196
N11735 Y1308.146 Z-48.81
N11740 Y1316.328 Z-49.847
N11745 Y1323.009 Z-50.781
N11750 Y1332.602 Z-52.481
N11755 Y1339.75 Z-54.152
N11760 Y1342.632 Z-54.926
N11765 Y1347.586 Z-56.587
N11770 Y1350.862 Z-58.044
N11775 Y1352.813 Z-59.017
N11780 Y1354.669 Z-60.273
N11785 Y1355.769 Z-61.093
N11790 Y1357.32 Z-63.002
N11795 Y1357.799 Z-63.926
N11800 Y1358.169 Z-65.528
N11805 Y1358.218 Z-70.
N11810 X255.599 Y1361.856
N11815 X254.865 Y1365.494
N11820 X254.493 Y1367.311
N11825 X253.719 Y1370.941
N11830 X253.333 Y1372.756
N11835 Y1372.703 Z-64.532
N11840 Y1372.338 Z-62.898
N11845 Y1371.921 Z-62.09
N11850 Y1370.781 Z-60.548
N11855 Y1369.781 Z-59.635
N11860 Y1367.425 Z-57.905
N11865 Y1363.458 Z-55.95
N11870 Y1359.969 Z-54.671
N11875 Y1357.285 Z-53.759
N11880 Y1352.947 Z-52.607
N11885 Y1349.308 Z-51.728
N11890 Y1341.218 Z-50.147
N11895 Y1332.324 Z-48.798
N11900 Y1327.123 Z-48.103
N11905 Y1314.451 Z-46.719
N11910 Y1302.497 Z-45.704
N11915 Y1291.833 Z-44.897
N11920 Y1256.073 Z-42.975
N11925 Y1217.811 Z-41.661
N11930 Y1184.14 Z-40.727
N11935 Y1106.85 Z-39.333
N11940 Y1031.091 Z-38.26
N11945 Y922.426 Z-37.09
N11950 Y819.118 Z-36.533
N11955 Y741.063 Z-36.432
N11960 Y686.731 Z-36.591
N11965 Y621.685 Z-37.179
N11970 Y562.761 Z-38.025
N11975 Y535.977 Z-38.61
N11980 Y486.237 Z-40.069
N11985 Y464.212 Z-40.873
N11990 Y431.651 Z-42.488
N11995 Y411.452 Z-43.632
N12000 Y386.94 Z-45.442
N12005 Y374.411 Z-46.595
N12010 Y359.911 Z-48.036
N12015 Y343.295 Z-50.113
N12020 Y336.633 Z-51.11
N12025 Y326.064 Z-52.871
N12030 Y320.125 Z-54.104
N12035 Y313.429 Z-55.596
N12040 Y305.071 Z-58.012
N12045 Y301.11 Z-59.543
N12050 Y297.855 Z-60.905
N12055 Y294.916 Z-62.646
N12060 Y293.081 Z-63.867
N12065 Y290.821 Z-66.308
N12070 Y290.384 Z-67.082
N12075 Y289.749 Z-69.781
N12080 Y289.745 Z-70.
N12085 G2 Y288.793 Z-70.936 J-0.952 K0.016
N12090 G1 Y270.392
N12095 X253.315 Y270.158
N12100 X253.26 Y269.929 Z-70.937
N12105 X253.17 Y269.711
N12110 X253.047 Y269.511 Z-70.938
N12115 X252.894 Y269.332
N12120 X252.715 Y269.179 Z-70.939
N12125 X252.514 Y269.056 Z-70.94
N12130 X252.297 Y268.966 Z-70.941
N12135 X252.068 Y268.911 Z-70.942
N12140 X251.833 Y268.892 Z-70.943
N12145 X251.599 Y268.911 Z-70.944
N12150 X251.37 Y268.966 Z-70.946
N12155 X251.152 Y269.056 Z-70.947
N12160 X250.952 Y269.179
N12165 X250.773 Y269.332 Z-70.948
N12170 X250.62 Y269.511 Z-70.949
N12175 X250.497 Y269.711 Z-70.95
N12180 X250.407 Y269.929
N12185 X250.352 Y270.158
N12190 X250.333 Y270.392
N12195 G3 Y271.345 Z-70. J0. K0.953
N12200 G1 Y271.346 Z-69.279
N12205 Y271.878 Z-66.674
N12210 Y272.143 Z-66.016
N12215 Y273.98 Z-63.793
N12220 Y274.609 Z-63.184
N12225 Y277.497 Z-61.271
N12230 Y279.301 Z-60.235
N12235 Y283.629 Z-58.356
N12240 Y286.178 Z-57.415
N12245 Y293.272 Z-55.248
N12250 Y298.008 Z-54.11
N12255 Y304.734 Z-52.605
N12260 Y315.947 Z-50.608
N12265 Y322.761 Z-49.584
N12270 Y336.052 Z-47.811
N12275 Y348.043 Z-46.519
N12280 Y360.243 Z-45.299
N12285 Y384.241 Z-43.373
N12290 Y402.23 Z-42.243
N12295 Y434.539 Z-40.468
N12300 Y457.243 Z-39.569
N12305 Y505.453 Z-37.964
N12310 Y553.663 Z-36.96
N12315 Y613.353 Z-36.056
N12320 Y664.624 Z-35.655
N12325 Y738.088 Z-35.426
N12330 Y814.612 Z-35.509
N12335 Y908.737 Z-35.983
N12340 Y958.478 Z-36.416
N12345 Y1111.527 Z-38.208
N12350 Y1153.616 Z-38.869
N12355 Y1221.722 Z-40.277
N12360 Y1246.21 Z-41.041
N12365 Y1282.177 Z-42.423
N12370 Y1301.256 Z-43.537
N12375 Y1315.611 Z-44.464
N12380 Y1332.042 Z-45.926
N12385 Y1345.443 Z-47.518
N12390 Y1355.351 Z-49.053
N12395 Y1362.273 Z-50.437
N12400 Y1366.421 Z-51.362
N12405 Y1372.4 Z-53.087
N12410 Y1377.488 Z-54.985
N12415 Y1380.464 Z-56.546
N12420 Y1381.7 Z-57.274
N12425 Y1383.427 Z-58.639
N12430 Y1384.416 Z-59.534
N12435 Y1385.479 Z-61.022
N12440 Y1385.954 Z-61.884
N12445 Y1386.331 Z-63.608
N12450 Y1386.376 Z-70.
N12455 X249.974 Y1387.976
N12460 X249.602 Y1389.573
N12465 X247.715 Y1397.553
N12470 X247.333 Y1399.148
N12475 Y1399.098 Z-62.635
N12480 Y1398.739 Z-60.89
N12485 Y1398.357 Z-60.179
N12490 Y1397.41 Z-58.769
N12495 Y1396.224 Z-57.636
N12500 Y1394.517 Z-56.259
N12505 Y1391.378 Z-54.456
N12510 Y1389.433 Z-53.588
N12515 Y1386.652 Z-52.471
N12520 Y1382.374 Z-51.137
N12525 Y1378.409 Z-50.047
N12530 Y1372.192 Z-48.666
N12535 Y1364.814 Z-47.362
N12540 Y1360.37 Z-46.681
N12545 Y1350.702 Z-45.43
N12550 Y1341.006 Z-44.44
N12555 Y1332.792 Z-43.69
N12560 Y1312.476 Z-42.318
N12565 Y1301.855 Z-41.681
N12570 Y1260.532 Z-40.004
N12575 Y1210.026 Z-38.744
N12580 Y1174.059 Z-38.037
N12585 Y1063.099 Z-36.564
N12590 Y927.65 Z-35.099
N12595 Y809.037 Z-34.507
N12600 Y740.93 Z-34.415
N12605 Y668.232 Z-34.632
N12610 Y598.595 Z-35.158
N12615 Y558.037 Z-35.66
N12620 Y501.409 Z-36.816
N12625 Y466.207 Z-37.741
N12630 Y433.336 Z-38.985
N12635 Y407.65 Z-40.076
N12640 Y386.288 Z-41.33
N12645 Y362.7 Z-42.846
N12650 Y350.153 Z-43.868
N12655 Y333.141 Z-45.396
N12660 Y315.235 Z-47.412
N12665 Y307.85 Z-48.411
N12670 Y296.586 Z-50.095
N12675 Y285.692 Z-52.139
N12680 Y280.432 Z-53.333
N12685 Y274.106 Z-54.925
N12690 Y267.114 Z-57.196
N12695 Y264.262 Z-58.394
N12700 Y261.132 Z-59.836
N12705 Y259.867 Z-60.57
N12710 Y256.945 Z-62.619
N12715 Y256.158 Z-63.425
N12720 Y254.631 Z-65.346
N12725 Y254.289 Z-66.151
N12730 Y253.812 Z-68.708
N12735 Y253.811 Z-70.
N12740 X247.15 Y252.766
N12745 X246.224 Y247.541
N12750 X246.038 Y246.497
N12755 X245.097 Y241.275
N12760 X244.907 Y240.231
N12765 X244.525 Y238.143
N12770 X244.334 Y237.1
N12775 Y237.101 Z-68.143
N12780 Y237.552 Z-65.495
N12785 Y237.968 Z-64.646
N12790 Y239.765 Z-62.345
N12795 Y242.067 Z-60.605
N12800 Y243.82 Z-59.46
N12805 Y246.984 Z-57.909
N12810 Y249.484 Z-56.825
N12815 Y255.365 Z-54.786
N12820 Y260.065 Z-53.498
N12825 Y265.952 Z-52.028
N12830 Y276.31 Z-49.95
N12835 Y284.592 Z-48.611
N12840 Y292.889 Z-47.373
N12845 Y309.694 Z-45.33
N12850 Y321.027 Z-44.212
N12855 Y335.05 Z-42.929
N12860 Y355.129 Z-41.487
N12865 Y378.887 Z-39.927
N12870 Y400.533 Z-38.884
N12875 Y433.969 Z-37.459
N12880 Y469.159 Z-36.404
N12885 Y521.196 Z-35.159
N12890 Y583.181 Z-34.316
N12895 Y652.053 Z-33.72
N12900 Y720.16 Z-33.547
N12905 Y808.163 Z-33.667
N12910 Y921.419 Z-34.221
N12915 Y1067.581 Z-35.648
N12920 Y1134.157 Z-36.424
N12925 Y1222.926 Z-37.781
N12930 Y1277.258 Z-39.181
N12935 Y1293.328 Z-39.759
N12940 Y1325.452 Z-41.263
N12945 Y1341.207 Z-42.376
N12950 Y1352.423 Z-43.254
N12955 Y1365.844 Z-44.678
N12960 Y1377.015 Z-46.246
N12965 Y1386.256 Z-47.966
N12970 Y1391.9 Z-49.325
N12975 Y1395.669 Z-50.418
N12980 Y1399.204 Z-51.578
N12985 Y1402.642 Z-53.058
N12990 Y1403.956 Z-53.696
N12995 Y1407.071 Z-55.605
N13000 Y1408.724 Z-57.055
N13005 Y1409.564 Z-57.985
N13010 Y1410.406 Z-59.378
N13015 Y1410.792 Z-60.3
N13020 Y1411.055 Z-61.763
N13025 Y1411.094 Z-70.
N13030 X242.489 Y1418.16
N13035 X242.105 Y1419.569
N13040 X241.719 Y1420.978
N13045 X241.334 Y1422.386
N13050 Y1422.342 Z-60.832
N13055 Y1422.079 Z-59.332
N13060 Y1421.697 Z-58.448
N13065 Y1420.856 Z-57.016
N13070 Y1419.453 Z-55.54
N13075 Y1418.362 Z-54.57
N13080 Y1415.902 Z-53.
N13085 Y1413.937 Z-52.017
N13090 Y1411.21 Z-50.794
N13095 Y1406.94 Z-49.301
N13100 Y1404.119 Z-48.492
N13105 Y1399.034 Z-47.194
N13110 Y1390.951 Z-45.603
N13115 Y1385.027 Z-44.683
N13120 Y1378.996 Z-43.835
N13125 Y1367.166 Z-42.51
N13130 Y1349.226 Z-41.067
N13135 Y1340.587 Z-40.466
N13140 Y1307.298 Z-38.845
N13145 Y1256.792 Z-37.358
N13150 Y1180.268 Z-36.044
N13155 Y1105.274 Z-35.177
N13160 Y922.38 Z-33.385
N13165 Y808.359 Z-32.83
N13170 Y720.356 Z-32.712
N13175 Y640.77 Z-32.915
N13180 Y584.907 Z-33.292
N13185 Y521.392 Z-34.15
N13190 Y476.242 Z-34.996
N13195 Y424.206 Z-36.514
N13200 Y402.19 Z-37.311
N13205 Y371.234 Z-38.791
N13210 Y350.42 Z-39.943
N13215 Y327.167 Z-41.627
N13220 Y310.808 Z-42.91
N13225 Y294.786 Z-44.511
N13230 Y285.78 Z-45.515
N13235 Y271.819 Z-47.355
N13240 Y260.066 Z-49.282
N13245 Y253.454 Z-50.583
N13250 Y246.574 Z-52.098
N13255 Y239.28 Z-54.109
N13260 Y234.814 Z-55.661
N13265 Y231.664 Z-56.873
N13270 Y227.433 Z-59.01
N13275 Y226.252 Z-59.771
N13280 Y223.819 Z-61.653
N13285 Y223.076 Z-62.481
N13290 Y221.761 Z-64.362
N13295 Y221.494 Z-65.098
N13300 Y221.113 Z-67.543
N13305 Z-70.
N13310 X240.966 Y219.197
N13315 X240.596 Y217.282
N13320 X239.849 Y213.453
N13325 X239.473 Y211.539
N13330 X238.716 Y207.712
N13335 X238.334 Y205.799
N13340 Y205.8 Z-67.025
N13345 Y206.128 Z-64.673
N13350 Y206.316 Z-64.005
N13355 Y207.636 Z-61.979
N13360 Y208.682 Z-60.889
N13365 Y209.468 Z-60.253
N13370 Y211.406 Z-58.776
N13375 Y214.374 Z-57.161
N13380 Y216.222 Z-56.257
N13385 Y220.618 Z-54.545
N13390 Y223.905 Z-53.461
N13395 Y230.466 Z-51.603
N13400 Y239.159 Z-49.642
N13405 Y244.76 Z-48.603
N13410 Y253.028 Z-47.182
N13415 Y267.128 Z-45.215
N13420 Y279.783 Z-43.785
N13425 Y290.005 Z-42.729
N13430 Y314.848 Z-40.689
N13435 Y328.194 Z-39.714
N13440 Y359.86 Z-37.898
N13445 Y381.636 Z-36.791
N13450 Y431.755 Z-35.057
N13455 Y456.243 Z-34.388
N13460 Y516.697 Z-33.225
N13465 Y554.959 Z-32.696
N13470 Y628.423 Z-32.143
N13475 Y708.008 Z-31.887
N13480 Y789.889 Z-31.995
N13485 Y916.155 Z-32.569
N13490 Y1027.881 Z-33.544
N13495 Y1185.521 Z-35.195
N13500 Y1226.079 Z-35.749
N13505 Y1286.342 Z-36.93
N13510 Y1330.152 Z-38.386
N13515 Y1360.707 Z-40.067
N13520 Y1376.4 Z-41.379
N13525 Y1383.862 Z-42.095
N13530 Y1394.279 Z-43.386
N13535 Y1400.204 Z-44.319
N13540 Y1404.815 Z-45.122
N13545 Y1411.227 Z-46.486
N13550 Y1416.562 Z-47.916
N13555 Y1419.482 Z-48.877
N13560 Y1423.301 Z-50.349
N13565 Y1426.935 Z-52.159
N13570 Y1429.613 Z-54.048
N13575 Y1431.548 Z-56.068
N13580 Y1432.41 Z-57.57
N13585 Y1432.793 Z-58.488
N13590 Y1433.031 Z-59.907
N13595 Y1433.078 Z-70.
N13600 X237.604 Y1435.62
N13605 X237.236 Y1436.89
N13610 X235.334 Y1443.223
N13615 Y1443.171 Z-58.999
N13620 Y1442.932 Z-57.557
N13625 Y1442.348 Z-56.271
N13630 Y1441.692 Z-55.141
N13635 Y1439.765 Z-53.102
N13640 Y1437.404 Z-51.378
N13645 Y1436.148 Z-50.66
N13650 Y1433.483 Z-49.341
N13655 Y1429.31 Z-47.719
N13660 Y1426.464 Z-46.826
N13665 Y1421.79 Z-45.561
N13670 Y1416.284 Z-44.33
N13675 Y1407.425 Z-42.785
N13680 Y1396.275 Z-41.32
N13685 Y1382.092 Z-39.982
N13690 Y1374.62 Z-39.35
N13695 Y1352.502 Z-38.04
N13700 Y1340.258 Z-37.487
N13705 Y1305.057 Z-36.284
N13710 Y1245.368 Z-35.073
N13715 Y1132.111 Z-33.746
N13720 Y917.077 Z-31.875
N13725 Y790.812 Z-31.301
N13730 Y694.391 Z-31.171
N13735 Y623.989 Z-31.334
N13740 Y551.29 Z-31.902
N13745 Y493.897 Z-32.621
N13750 Y435.738 Z-33.863
N13755 Y408.955 Z-34.591
N13760 Y375.343 Z-35.829
N13765 Y349.807 Z-36.959
N13770 Y321.957 Z-38.584
N13775 Y300.505 Z-39.969
N13780 Y282.141 Z-41.512
N13785 Y267.294 Z-42.859
N13790 Y251.45 Z-44.687
N13795 Y243.139 Z-45.828
N13800 Y233.514 Z-47.297
N13805 Y223.282 Z-49.212
N13810 Y214.751 Z-51.204
N13815 Y212.143 Z-51.915
N13820 Y206.059 Z-53.813
N13825 Y200.418 Z-56.106
N13830 Y196.85 Z-58.069
N13835 Y195.415 Z-59.068
N13840 Y193.219 Z-60.978
N13845 Y192.586 Z-61.866
N13850 Y191.68 Z-63.299
N13855 Y191.409 Z-64.14
N13860 Y191.112 Z-66.436
N13865 Y191.111 Z-70.
N13870 X234.966 Y189.346
N13875 X234.595 Y187.581
N13880 X234.222 Y185.816
N13885 X233.849 Y184.052
N13890 X233.095 Y180.525
N13895 X232.715 Y178.762
N13900 X232.334 Y176.999
N13905 Z-65.884
N13910 Y177.238 Z-63.864
N13915 Y177.457 Z-62.935
N13920 Y178.582 Z-61.05
N13925 Y179.323 Z-60.161
N13930 Y180.862 Z-58.79
N13935 Y181.972 Z-57.923
N13940 Y185.489 Z-55.868
N13945 Y189.821 Z-53.981
N13950 Y191.726 Z-53.254
N13955 Y198.157 Z-51.218
N13960 Y205.494 Z-49.376
N13965 Y212.244 Z-47.984
N13970 Y218.785 Z-46.761
N13975 Y231.306 Z-44.837
N13980 Y247.135 Z-42.879
N13985 Y259.291 Z-41.69
N13990 Y277.491 Z-40.037
N13995 Y297.451 Z-38.642
N14000 Y321.132 Z-37.133
N14005 Y350.272 Z-35.711
N14010 Y377.423 Z-34.533
N14015 Y396.526 Z-33.895
N14020 Y453.154 Z-32.456
N14025 Y490.651 Z-31.814
N14030 Y557.992 Z-31.003
N14035 Y607.733 Z-30.675
N14040 Y694.206 Z-30.475
N14045 Y790.627 Z-30.603
N14050 Y916.892 Z-31.175
N14055 Y1186.258 Z-33.496
N14060 Y1275.027 Z-34.62
N14065 Y1328.594 Z-35.818
N14070 Y1365.325 Z-37.251
N14075 Y1385.787 Z-38.53
N14080 Y1393.272 Z-39.115
N14085 Y1408.94 Z-40.68
N14090 Y1418.223 Z-41.961
N14095 Y1426.489 Z-43.427
N14100 Y1431.817 Z-44.654
N14105 Y1435.427 Z-45.606
N14110 Y1439.689 Z-46.978
N14115 Y1443.822 Z-48.662
N14120 Y1447.066 Z-50.434
N14125 Y1449.274 Z-52.065
N14130 Y1450.415 Z-53.181
N14135 Y1451.629 Z-54.664
N14140 Y1452.306 Z-55.997
N14145 Y1452.689 Z-57.296
N14150 Y1452.821 Z-58.186
N14155 Y1452.864 Z-70.
N14160 X231.968 Y1454.013
N14165 X229.713 Y1460.886
N14170 X229.334 Y1462.03
N14175 Y1461.989 Z-57.34
N14180 Y1461.872 Z-56.471
N14185 Y1461.489 Z-55.137
N14190 Y1460.803 Z-53.757
N14195 Y1459.081 Z-51.696
N14200 Y1456.84 Z-49.892
N14205 Y1453.343 Z-47.856
N14210 Y1449.581 Z-46.26
N14215 Y1445.154 Z-44.771
N14220 Y1442.459 Z-44.031
N14225 Y1437.361 Z-42.796
N14230 Y1430. Z-41.397
N14235 Y1421.843 Z-40.182
N14240 Y1415.886 Z-39.498
N14245 Y1403.952 Z-38.272
N14250 Y1388.943 Z-37.213
N14255 Y1379.114 Z-36.596
N14260 Y1346.591 Z-35.257
N14265 Y1300.294 Z-34.138
N14270 Y1226.83 Z-33.136
N14275 Y923.028 Z-30.577
N14280 Y773.805 Z-29.911
N14285 Y684.272 Z-29.783
N14290 Y599.329 Z-30.018
N14295 Y525.101 Z-30.527
N14300 Y460.055 Z-31.467
N14305 Y421.027 Z-32.234
N14310 Y373.582 Z-33.6
N14315 Y347.863 Z-34.605
N14320 Y315.731 Z-36.175
N14325 Y293.784 Z-37.373
N14330 Y268.291 Z-39.167
N14335 Y255.069 Z-40.189
N14340 Y233.228 Z-42.347
N14345 Y224.895 Z-43.317
N14350 Y213.091 Z-44.892
N14355 Y201.187 Z-46.854
N14360 Y191.497 Z-48.843
N14365 Y184.019 Z-50.761
N14370 Y179.514 Z-52.192
N14375 Y175.869 Z-53.492
N14380 Y172.263 Z-55.084
N14385 Y170.381 Z-56.109
N14390 Y168.081 Z-57.529
N14395 Y166.97 Z-58.444
N14400 Y165.487 Z-59.824
N14405 Y164.761 Z-60.815
N14410 Y163.912 Z-62.289
N14415 Y163.659 Z-63.198
N14420 Y163.428 Z-65.303
N14425 Y163.427 Z-70.
N14430 X228.965 Y161.792
N14435 X228.594 Y160.158
N14440 X228.222 Y158.523
N14445 X227.848 Y156.889
N14450 X227.472 Y155.256
N14455 X227.094 Y153.623
N14460 X226.715 Y151.99
N14465 X226.334 Y150.358
N14470 Z-64.751
N14475 Y150.658 Z-62.173
N14480 Y151.727 Z-60.123
N14485 Y152.515 Z-59.149
N14490 Y154.496 Z-57.303
N14495 Y157.777 Z-55.202
N14500 Y160.966 Z-53.683
N14505 Y163.469 Z-52.623
N14510 Y168.959 Z-50.738
N14515 Y176.673 Z-48.654
N14520 Y185.687 Z-46.718
N14525 Y196.76 Z-44.804
N14530 Y204.55 Z-43.697
N14535 Y213.46 Z-42.528
N14540 Y234.846 Z-40.277
N14545 Y245.37 Z-39.392
N14550 Y270.26 Z-37.502
N14555 Y292.014 Z-36.221
N14560 Y322.825 Z-34.593
N14565 Y355.475 Z-33.268
N14570 Y386.85 Z-32.186
N14575 Y412.869 Z-31.537
N14580 Y474.853 Z-30.393
N14585 Y524.594 Z-29.83
N14590 Y602.649 Z-29.306
N14595 Y667.695 Z-29.167
N14600 Y771.768 Z-29.312
N14605 Y912.574 Z-29.932
N14610 Y1136.025 Z-31.661
N14615 Y1260.76 Z-32.73
N14620 Y1322.745 Z-33.642
N14625 Y1363.303 Z-34.7
N14630 Y1390.087 Z-35.862
N14635 Y1399.185 Z-36.392
N14640 Y1416.404 Z-37.67
N14645 Y1429.075 Z-39.069
N14650 Y1433.535 Z-39.63
N14655 Y1441.674 Z-40.943
N14660 Y1447.546 Z-42.146
N14665 Y1451.903 Z-43.247
N14670 Y1455.036 Z-44.162
N14675 Y1459.337 Z-45.693
N14680 Y1463.036 Z-47.411
N14685 Y1465.547 Z-48.937
N14690 Y1467.287 Z-50.322
N14695 Y1468.266 Z-51.245
N14700 Y1469.532 Z-52.844
N14705 Y1470.481 Z-55.002
N14710 Y1470.708 Z-56.538
N14715 Y1470.743 Z-70.
N14720 X225.962 Y1471.785
N14725 X224.102 Y1476.992
N14730 X223.72 Y1478.03
N14735 X223.335 Y1479.066
N14740 Y1479.03 Z-55.704
N14745 Y1478.803 Z-54.154
N14750 Y1477.942 Z-52.121
N14755 Y1476.638 Z-50.368
N14760 Y1474.509 Z-48.469
N14765 Y1471.419 Z-46.5
N14770 Y1468.08 Z-44.904
N14775 Y1464.051 Z-43.424
N14780 Y1461.015 Z-42.505
N14785 Y1456.83 Z-41.415
N14790 Y1451.541 Z-40.274
N14795 Y1443.414 Z-38.905
N14800 Y1431.505 Z-37.458
N14805 Y1426.286 Z-36.917
N14810 Y1409.086 Z-35.589
N14815 Y1381.566 Z-34.235
N14820 Y1343.303 Z-33.145
N14825 Y1289.736 Z-32.292
N14830 Y1195.611 Z-31.456
N14835 Y966.803 Z-29.758
N14840 Y907.879 Z-29.347
N14845 Y757.126 Z-28.687
N14850 Y661.47 Z-28.575
N14855 Y571.936 Z-28.788
N14860 Y504.595 Z-29.327
N14865 Y444.14 Z-30.09
N14870 Y385.217 Z-31.335
N14875 Y362.259 Z-32.016
N14880 Y327.976 Z-33.366
N14885 Y295.649 Z-34.798
N14890 Y268.046 Z-36.38
N14895 Y248.739 Z-37.602
N14900 Y225.519 Z-39.487
N14905 Y216.341 Z-40.311
N14910 Y196.384 Z-42.534
N14915 Y187.408 Z-43.786
N14920 Y180.445 Z-44.845
N14925 Y171.376 Z-46.484
N14930 Y163.256 Z-48.279
N14935 Y157.178 Z-49.934
N14940 Y153.954 Z-50.938
N14945 Y150.005 Z-52.371
N14950 Y148.129 Z-53.188
N14955 Y144.955 Z-54.733
N14960 Y141.537 Z-56.999
N14965 Y139.498 Z-59.008
N14970 Y138.967 Z-59.797
N14975 Y138.155 Z-61.336
N14980 Y137.933 Z-62.345
N14985 Y137.762 Z-64.195
N14990 Z-70.
N14995 X222.965 Y136.241
N15000 X222.594 Y134.721
N15005 X222.221 Y133.202
N15010 X221.847 Y131.682
N15015 X221.471 Y130.164
N15020 X221.094 Y128.645
N15025 X220.715 Y127.127
N15030 X220.335 Y125.609
N15035 Y125.61 Z-63.63
N15040 Y125.761 Z-61.915
N15045 Y125.958 Z-60.862
N15050 Y126.744 Z-59.324
N15055 Y127.271 Z-58.516
N15060 Y129.155 Z-56.601
N15065 Y131.536 Z-54.929
N15070 Y133.318 Z-53.889
N15075 Y137.13 Z-52.088
N15080 Y142.343 Z-50.174
N15085 Y148.886 Z-48.273
N15090 Y157.145 Z-46.358
N15095 Y166.867 Z-44.538
N15100 Y179.461 Z-42.634
N15105 Y195.238 Z-40.758
N15110 Y203.05 Z-39.923
N15115 Y227.763 Z-37.771
N15120 Y240.531 Z-36.885
N15125 Y267.773 Z-35.162
N15130 Y292.084 Z-33.952
N15135 Y325.906 Z-32.45
N15140 Y368.661 Z-30.963
N15145 Y403.097 Z-30.095
N15150 Y436.768 Z-29.489
N15155 Y504.875 Z-28.628
N15160 Y567.625 Z-28.211
N15165 Y650.271 Z-27.994
N15170 Y757.405 Z-28.17
N15175 Y910.454 Z-28.848
N15180 Y990.04 Z-29.433
N15185 Y1237.979 Z-31.118
N15190 Y1314.504 Z-31.829
N15195 Y1361.949 Z-32.643
N15200 Y1395.237 Z-33.66
N15205 Y1420.849 Z-34.979
N15210 Y1433.557 Z-36.002
N15215 Y1440.275 Z-36.615
N15220 Y1452.919 Z-38.216
N15225 Y1457.351 Z-38.974
N15230 Y1461.766 Z-39.8
N15235 Y1467.599 Z-41.166
N15240 Y1471.901 Z-42.441
N15245 Y1474.709 Z-43.464
N15250 Y1477.191 Z-44.485
N15255 Y1480.07 Z-45.969
N15260 Y1482.519 Z-47.592
N15265 Y1484.622 Z-49.502
N15270 Y1485.977 Z-51.398
N15275 Y1486.742 Z-53.251
N15280 Y1486.98 Z-54.796
N15285 Y1487.026 Z-70.
N15290 X219.595 Y1488.936
N15295 X218.855 Y1490.845
N15300 X218.483 Y1491.8
N15305 X217.335 Y1494.649
N15310 Y1494.617 Z-54.112
N15315 Y1494.395 Z-52.538
N15320 Y1493.63 Z-50.612
N15325 Y1492.267 Z-48.668
N15330 Y1490.727 Z-47.169
N15335 Y1488.358 Z-45.474
N15340 Y1485.112 Z-43.707
N15345 Y1483.769 Z-43.107
N15350 Y1480.28 Z-41.774
N15355 Y1475.637 Z-40.349
N15360 Y1470.177 Z-39.043
N15365 Y1464.29 Z-37.93
N15370 Y1460.592 Z-37.345
N15375 Y1450.184 Z-35.975
N15380 Y1438.237 Z-34.889
N15385 Y1431.505 Z-34.349
N15390 Y1408.561 Z-33.108
N15395 Y1378.717 Z-32.132
N15400 Y1336.628 Z-31.355
N15405 Y1272.348 Z-30.725
N15410 Y1025.173 Z-29.184
N15415 Y911.152 Z-28.343
N15420 Y756.573 Z-27.651
N15425 Y649.438 Z-27.472
N15430 Y567.557 Z-27.613
N15435 Y490.267 Z-28.126
N15440 Y443.587 Z-28.692
N15445 Y383.898 Z-29.716
N15450 Y351.758 Z-30.687
N15455 Y305.852 Z-32.347
N15460 Y289.378 Z-33.07
N15465 Y255.346 Z-34.778
N15470 Y241.012 Z-35.615
N15475 Y213.527 Z-37.512
N15480 Y203.823 Z-38.326
N15485 Y184.348 Z-40.15
N15490 Y167.466 Z-42.193
N15495 Y161.387 Z-43.056
N15500 Y152.288 Z-44.517
N15505 Y143.175 Z-46.306
N15510 Y135.886 Z-48.063
N15515 Y129.679 Z-49.92
N15520 Y124.717 Z-51.801
N15525 Y121.069 Z-53.583
N15530 Y118.764 Z-55.054
N15535 Y117.524 Z-55.936
N15540 Y115.543 Z-57.932
N15545 Y114.89 Z-58.967
N15550 Y114.127 Z-60.583
N15555 Y113.883 Z-62.838
N15560 Y113.876 Z-70.
N15565 X216.965 Y112.458
N15570 X216.594 Y111.04
N15575 X216.221 Y109.623
N15580 X215.847 Y108.206
N15585 X215.471 Y106.789
N15590 X215.094 Y105.373
N15595 X214.715 Y103.957
N15600 X214.335 Y102.542
N15605 Z-62.36
N15610 Y102.805 Z-59.952
N15615 Y103.478 Z-58.524
N15620 Y104.111 Z-57.475
N15625 Y106.076 Z-55.46
N15630 Y109.02 Z-53.419
N15635 Y113.406 Z-51.238
N15640 Y117.97 Z-49.498
N15645 Y123.275 Z-47.873
N15650 Y130.294 Z-46.125
N15655 Y138.85 Z-44.401
N15660 Y148.606 Z-42.783
N15665 Y154.246 Z-41.988
N15670 Y168.886 Z-40.144
N15675 Y186.86 Z-38.378
N15680 Y196.712 Z-37.522
N15685 Y222.762 Z-35.618
N15690 Y238.781 Z-34.669
N15695 Y270.867 Z-32.964
N15700 Y302.507 Z-31.642
N15705 Y339.98 Z-30.258
N15710 Y377.477 Z-29.161
N15715 Y433.339 Z-28.151
N15720 Y496.855 Z-27.47
N15725 Y553.483 Z-27.122
N15730 Y644.547 Z-26.949
N15735 Y740.968 Z-27.129
N15740 Y909.322 Z-27.894
N15745 Y1017.987 Z-28.668
N15750 Y1207.767 Z-29.769
N15755 Y1300.362 Z-30.291
N15760 Y1356.225 Z-30.868
N15765 Y1394.487 Z-31.626
N15770 Y1423.567 Z-32.663
N15775 Y1443.327 Z-33.837
N15780 Y1457.562 Z-35.138
N15785 Y1462.027 Z-35.662
N15790 Y1471.673 Z-37.04
N15795 Y1477.927 Z-38.242
N15800 Y1482.66 Z-39.386
N15805 Y1485.528 Z-40.214
N15810 Y1489.413 Z-41.532
N15815 Y1492.492 Z-42.84
N15820 Y1495.115 Z-44.245
N15825 Y1497.809 Z-46.099
N15830 Y1499.597 Z-47.85
N15835 Y1500.899 Z-49.719
N15840 Y1501.665 Z-51.605
N15845 Y1501.928 Z-53.349
N15850 Y1501.956 Z-70.
N15855 X213.598 Y1503.714
N15860 X212.858 Y1505.471
N15865 X211.335 Y1508.967
N15870 Y1508.934 Z-52.519
N15875 Y1508.743 Z-51.051
N15880 Y1508.134 Z-49.334
N15885 Y1507.033 Z-47.541
N15890 Y1505.626 Z-45.979
N15895 Y1504.292 Z-44.848
N15900 Y1502.258 Z-43.456
N15905 Y1500.224 Z-42.315
N15910 Y1496.145 Z-40.53
N15915 Y1491.537 Z-39.005
N15920 Y1486.83 Z-37.778
N15925 Y1480.962 Z-36.564
N15930 Y1475.039 Z-35.638
N15935 Y1469.102 Z-34.789
N15940 Y1455.3 Z-33.415
N15945 Y1449.668 Z-33.014
N15950 Y1434.307 Z-32.074
N15955 Y1407.715 Z-31.087
N15960 Y1374.044 Z-30.376
N15965 Y1325.068 Z-29.841
N15970 Y1252.37 Z-29.438
N15975 Y1063.354 Z-28.52
N15980 Y905.714 Z-27.436
N15985 Y739.656 Z-26.673
N15990 Y630.226 Z-26.463
N15995 Y558.293 Z-26.578
N16000 Y480.238 Z-27.019
N16005 Y411.366 Z-27.836
N16010 Y372.338 Z-28.589
N16015 Y316.475 Z-30.296
N16020 Y297.387 Z-31.008
N16025 Y262.718 Z-32.476
N16030 Y243.466 Z-33.394
N16035 Y213.802 Z-35.114
N16040 Y203.137 Z-35.802
N16045 Y177.208 Z-37.819
N16050 Y163.94 Z-39.124
N16055 Y152.615 Z-40.325
N16060 Y136.503 Z-42.484
N16065 Y126.898 Z-44.084
N16070 Y118.824 Z-45.729
N16075 Y112.283 Z-47.36
N16080 Y106.331 Z-49.203
N16085 Y101.928 Z-50.921
N16090 Y98.217 Z-52.779
N16095 Y95.18 Z-54.846
N16100 Y93.317 Z-56.712
N16105 Y92.641 Z-57.701
N16110 Y91.954 Z-59.064
N16115 Y91.745 Z-59.909
N16120 Y91.584 Z-61.726
N16125 Y91.583 Z-70.
N16130 X210.831 Y89.778
N16135 X210.293 Y87.988
N16140 X209.481 Y86.32
N16145 X208.335 Y84.799
N16150 Y84.8 Z-61.527
N16155 Y84.869 Z-59.829
N16160 Y85.185 Z-57.59
N16165 Y85.859 Z-55.406
N16170 Y86.663 Z-53.881
N16175 Y87.571 Z-52.658
N16180 Y88.691 Z-51.732
N16185 Y91.13 Z-50.482
N16190 Y95.378 Z-48.814
N16195 Y100.835 Z-47.099
N16200 Y107.52 Z-45.403
N16205 Y114.928 Z-43.867
N16210 Y124.377 Z-42.255
N16215 Y134.69 Z-40.846
N16220 Y141.491 Z-39.988
N16225 Y160.522 Z-37.981
N16230 Y184.042 Z-36.041
N16235 Y193.809 Z-35.359
N16240 Y221.728 Z-33.624
N16245 Y239.34 Z-32.725
N16250 Y272.914 Z-31.186
N16255 Y307.185 Z-29.908
N16260 Y363.813 Z-28.132
N16265 Y386.005 Z-27.627
N16270 Y447.99 Z-26.767
N16275 Y523.749 Z-26.203
N16280 Y599.126 Z-26.008
N16285 Y702.051 Z-26.109
N16290 Y843.621 Z-26.707
N16295 Y954.582 Z-27.336
N16300 Y1101.509 Z-28.289
N16305 Y1285.933 Z-29.039
N16310 Y1347.153 Z-29.378
N16315 Y1390.772 Z-29.887
N16320 Y1421.381 Z-30.583
N16325 Y1446.628 Z-31.598
N16330 Y1463.94 Z-32.762
N16335 Y1476.62 Z-34.059
N16340 Y1481.815 Z-34.787
N16345 Y1489.212 Z-35.983
N16350 Y1495.062 Z-37.266
N16355 Y1499.389 Z-38.465
N16360 Y1503.618 Z-39.936
N16365 Y1506.343 Z-41.155
N16370 Y1508.293 Z-42.192
N16375 Y1510.456 Z-43.554
N16380 Y1512.381 Z-45.153
N16385 Y1513.779 Z-46.731
N16390 Y1514.865 Z-48.521
N16395 Y1515.439 Z-50.124
N16400 Y1515.654 Z-51.598
N16405 Y1515.702 Z-70.
N16410 X207.6 Y1517.327
N16415 X206.85 Y1518.945
N16420 X205.335 Y1522.175
N16425 Y1522.14 Z-50.974
N16430 Y1521.896 Z-49.314
N16435 Y1521.37 Z-47.809
N16440 Y1520.644 Z-46.525
N16445 Y1519.883 Z-45.48
N16450 Y1518.896 Z-44.37
N16455 Y1516.693 Z-42.53
N16460 Y1514.182 Z-40.987
N16465 Y1510.361 Z-39.186
N16470 Y1506.104 Z-37.688
N16475 Y1502.326 Z-36.605
N16480 Y1496.484 Z-35.288
N16485 Y1487.613 Z-33.825
N16490 Y1482.407 Z-33.185
N16495 Y1473.46 Z-32.23
N16500 Y1457.72 Z-31.103
N16505 Y1434.01 Z-30.074
N16510 Y1404.931 Z-29.377
N16515 Y1366.668 Z-28.904
N16520 Y1313.866 Z-28.609
N16525 Y1105.72 Z-27.906
N16530 Y964.149 Z-27.026
N16535 Y883.799 Z-26.531
N16540 Y718.506 Z-25.754
N16545 Y612.902 Z-25.539
N16550 Y524.133 Z-25.713
N16555 Y466.74 Z-26.064
N16560 Y403.225 Z-26.756
N16565 Y370.319 Z-27.341
N16570 Y319.048 Z-28.807
N16575 Y268.558 Z-30.62
N16580 Y246.045 Z-31.562
N16585 Y212.439 Z-33.247
N16590 Y198.083 Z-34.072
N16595 Y171.136 Z-35.88
N16600 Y153.516 Z-37.363
N16605 Y142.999 Z-38.329
N16610 Y126.687 Z-40.103
N16615 Y112.375 Z-42.095
N16620 Y103.029 Z-43.74
N16625 Y95.785 Z-45.29
N16630 Y89.522 Z-46.931
N16635 Y88.262 Z-47.499
N16640 Y87.094 Z-48.298
N16645 Y86.048 Z-49.283
N16650 Y84.968 Z-50.777
N16655 Y84.042 Z-52.406
N16660 Y83.317 Z-54.033
N16665 Y82.757 Z-55.886
N16670 Y82.358 Z-58.184
N16675 Y82.189 Z-60.481
N16680 Y82.157 Z-70.
N16685 X203.834 Y81.116
N16690 X202.335 Y80.072
N16695 Z-61.409
N16700 Y80.226 Z-58.478
N16705 Y80.622 Z-55.982
N16710 Y81.382 Z-53.314
N16715 Y82.413 Z-50.894
N16720 Y83.498 Z-48.962
N16725 Y84.553 Z-47.556
N16730 Y86.61 Z-45.568
N16735 Y88.089 Z-44.638
N16740 Y89.377 Z-44.121
N16745 Y92.177 Z-43.499
N16750 Y100.935 Z-41.931
N16755 Y114.423 Z-40.003
N16760 Y129.855 Z-38.275
N16765 Y152.957 Z-36.197
N16770 Y175.877 Z-34.546
N16775 Y188.735 Z-33.716
N16780 Y222.171 Z-31.898
N16785 Y240.707 Z-31.053
N16790 Y274.022 Z-29.702
N16795 Y309.982 Z-28.456
N16800 Y368.906 Z-26.778
N16805 Y392.628 Z-26.351
N16810 Y457.674 Z-25.622
N16815 Y534.964 Z-25.206
N16820 Y613.019 Z-25.12
N16825 Y723.979 Z-25.372
N16830 Y896.159 Z-26.221
N16835 Y984.928 Z-26.794
N16840 Y1125.733 Z-27.601
N16845 Y1337.706 Z-28.159
N16850 Y1384.386 Z-28.425
N16855 Y1419.587 Z-28.891
N16860 Y1445.605 Z-29.563
N16865 Y1467.017 Z-30.535
N16870 Y1481.982 Z-31.655
N16875 Y1491.668 Z-32.746
N16880 Y1495.383 Z-33.223
N16885 Y1504.239 Z-34.764
N16890 Y1509.342 Z-35.964
N16895 Y1513.102 Z-37.087
N16900 Y1516.949 Z-38.497
N16905 Y1520.464 Z-40.188
N16910 Y1522.81 Z-41.644
N16915 Y1524.889 Z-43.355
N16920 Y1526.495 Z-45.179
N16925 Y1527.492 Z-46.843
N16930 Y1528.066 Z-48.403
N16935 Y1528.311 Z-49.641
N16940 Y1528.38 Z-50.384
N16945 Y1528.402 Z-70.
N16950 X201.599 Y1529.908
N16955 X200.09 Y1532.902
N16960 X199.336 Y1534.399
N16965 Y1534.377 Z-49.689
N16970 Y1534.14 Z-47.935
N16975 Y1533.518 Z-46.163
N16980 Y1532.484 Z-44.414
N16985 Y1531.156 Z-42.842
N16990 Y1529.533 Z-41.389
N16995 Y1527.118 Z-39.755
N17000 Y1523.835 Z-38.063
N17005 Y1519.935 Z-36.538
N17010 Y1515.693 Z-35.234
N17015 Y1511.009 Z-34.108
N17020 Y1502.899 Z-32.64
N17025 Y1496.024 Z-31.763
N17030 Y1489.506 Z-31.037
N17035 Y1475.67 Z-29.967
N17040 Y1456.163 Z-29.042
N17045 Y1432.441 Z-28.391
N17050 Y1400.301 Z-27.94
N17055 Y1358.977 Z-27.697
N17060 Y1254.139 Z-27.523
N17065 Y1133.995 Z-27.242
N17070 Y1006.965 Z-26.601
N17075 Y892.943 Z-25.86
N17080 Y710.05 Z-24.944
N17085 Y612.098 Z-24.706
N17090 Y521.034 Z-24.801
N17095 Y449.866 Z-25.209
N17100 Y397.83 Z-25.75
N17105 Y369.516 Z-26.216
N17110 Y317.479 Z-27.614
N17115 Y263.146 Z-29.43
N17120 Y234.491 Z-30.613
N17125 Y202.995 Z-32.076
N17130 Y170.882 Z-33.938
N17135 Y158.24 Z-34.802
N17140 Y136.863 Z-36.428
N17145 Y118.145 Z-38.13
N17150 Y102.453 Z-39.948
N17155 Y90.139 Z-41.75
N17160 Y88.658 Z-42.174
N17165 Y87.109 Z-42.961
N17170 Y84.875 Z-44.589
N17175 Y83.416 Z-46.147
N17180 Y81.948 Z-48.044
N17185 Y80.972 Z-49.589
N17190 Y79.93 Z-51.605
N17195 Y78.967 Z-54.194
N17200 Y78.372 Z-56.68
N17205 Y78.036 Z-59.549
N17210 Y77.981 Z-70.
N17215 X197.837 Y76.94
N17220 X196.336 Y75.903
N17225 Y75.94 Z-59.993
N17230 Y76.14 Z-57.51
N17235 Y76.715 Z-54.686
N17240 Y77.461 Z-52.42
N17245 Y78.32 Z-50.505
N17250 Y79.012 Z-49.271
N17255 Y80.406 Z-47.2
N17260 Y81.971 Z-45.332
N17265 Y83.818 Z-43.518
N17270 Y85.582 Z-42.102
N17275 Y87.972 Z-40.738
N17280 Y89.265 Z-40.248
N17285 Y91.264 Z-39.87
N17290 Y106.128 Z-38.094
N17295 Y124.101 Z-36.393
N17300 Y149.277 Z-34.482
N17305 Y174.634 Z-32.877
N17310 Y187.792 Z-32.126
N17315 Y221.463 Z-30.488
N17320 Y241.8 Z-29.623
N17325 Y289.989 Z-27.877
N17330 Y346.617 Z-26.255
N17335 Y381.053 Z-25.456
N17340 Y445.334 Z-24.773
N17345 Y511.145 Z-24.41
N17350 Y594.556 Z-24.293
N17355 Y706.282 Z-24.568
N17360 Y880.758 Z-25.451
N17365 Y1042.99 Z-26.477
N17370 Y1165.429 Z-26.988
N17375 Y1307.327 Z-27.135
N17380 Y1377.729 Z-27.227
N17385 Y1414.461 Z-27.449
N17390 Y1444.305 Z-27.89
N17395 Y1467.263 Z-28.559
N17400 Y1485.971 Z-29.537
N17405 Y1499.046 Z-30.643
N17410 Y1509.086 Z-31.91
N17415 Y1512.405 Z-32.492
N17420 Y1518.288 Z-33.632
N17425 Y1522.637 Z-34.751
N17430 Y1526.298 Z-35.938
N17435 Y1529.733 Z-37.324
N17440 Y1532.918 Z-38.976
N17445 Y1535.316 Z-40.616
N17450 Y1537.404 Z-42.582
N17455 Y1538.646 Z-44.224
N17460 Y1539.305 Z-45.452
N17465 Y1539.903 Z-47.174
N17470 Y1540.128 Z-48.671
N17475 Y1540.177 Z-70.
N17480 X195.592 Y1541.573
N17485 X193.336 Y1545.747
N17490 Y1545.703 Z-48.008
N17495 Y1545.475 Z-46.471
N17500 Y1545.284 Z-45.803
N17505 Y1544.75 Z-44.484
N17510 Y1543.871 Z-42.981
N17515 Y1543.427 Z-42.393
N17520 Y1542.521 Z-41.345
N17525 Y1540.885 Z-39.849
N17530 Y1539.121 Z-38.579
N17535 Y1535.882 Z-36.802
N17540 Y1532.426 Z-35.348
N17545 Y1528.564 Z-34.071
N17550 Y1524.587 Z-33.016
N17555 Y1517.242 Z-31.547
N17560 Y1513.539 Z-31.008
N17565 Y1506.103 Z-30.048
N17570 Y1493.404 Z-28.945
N17575 Y1475.821 Z-28.015
N17580 Y1455.159 Z-27.385
N17585 Y1428.376 Z-26.964
N17590 Y1394.705 Z-26.752
N17595 Y1337.946 Z-26.696
N17600 Y1188.39 Z-26.688
N17605 Y1064.42 Z-26.258
N17610 Y824.133 Z-24.808
N17615 Y676.441 Z-24.1
N17620 Y571.602 Z-23.908
N17625 Y498.139 Z-24.035
N17630 Y423.91 Z-24.491
N17635 Y374.934 Z-25.081
N17640 Y325.193 Z-26.291
N17645 Y268.565 Z-28.021
N17650 Y238.763 Z-29.127
N17655 Y205.704 Z-30.523
N17660 Y172.837 Z-32.213
N17665 Y158.328 Z-33.065
N17670 Y131.05 Z-34.878
N17675 Y111.778 Z-36.391
N17680 Y94.28 Z-38.121
N17685 Y90.415 Z-38.591
N17690 Y89.09 Z-38.888
N17695 Y86.794 Z-39.846
N17700 Y85.373 Z-40.644
N17705 Y82.622 Z-42.676
N17710 Y81.553 Z-43.593
N17715 Y80.571 Z-44.518
N17720 Y78.925 Z-46.324
N17725 Y77.861 Z-47.736
N17730 Y76.732 Z-49.517
N17735 Y75.619 Z-51.748
N17740 Y75.191 Z-52.879
N17745 Y74.731 Z-54.326
N17750 Y74.377 Z-55.756
N17755 Y73.964 Z-58.569
N17760 Y73.86 Z-61.04
N17765 Z-70.
N17770 X191.839 Y72.857
N17775 X190.336 Y71.862
N17780 Y71.865 Z-60.737
N17785 Y72.052 Z-57.672
N17790 Y72.515 Z-55.014
N17795 Y73.274 Z-52.511
N17800 Y74.444 Z-49.868
N17805 Y75.731 Z-47.753
N17810 Y76.995 Z-46.078
N17815 Y77.504 Z-45.487
N17820 Y79.527 Z-43.446
N17825 Y82.032 Z-41.447
N17830 Y84.325 Z-39.94
N17835 Y86.505 Z-38.667
N17840 Y89.257 Z-37.628
N17845 Y90.593 Z-37.361
N17850 Y99.959 Z-36.416
N17855 Y120.05 Z-34.768
N17860 Y143.797 Z-33.203
N17865 Y159.648 Z-32.249
N17870 Y187.369 Z-30.748
N17875 Y221.239 Z-29.228
N17880 Y244.084 Z-28.333
N17885 Y297.269 Z-26.561
N17890 Y359.636 Z-24.936
N17895 Y384.89 Z-24.447
N17900 Y449.17 Z-23.868
N17905 Y512.685 Z-23.592
N17910 Y604.515 Z-23.56
N17915 Y721.597 Z-23.955
N17920 Y957.293 Z-25.295
N17925 Y1089.68 Z-26.068
N17930 Y1209.058 Z-26.368
N17935 Y1358.753 Z-26.24
N17940 Y1410.025 Z-26.273
N17945 Y1441.4 Z-26.479
N17950 Y1465.888 Z-26.89
N17955 Y1486.454 Z-27.564
N17960 Y1501.805 Z-28.451
N17965 Y1513.75 Z-29.554
N17970 Y1522.658 Z-30.794
N17975 Y1526.336 Z-31.497
N17980 Y1531.454 Z-32.604
N17985 Y1535.053 Z-33.622
N17990 Y1538.396 Z-34.787
N17995 Y1541.46 Z-36.125
N18000 Y1544.214 Z-37.636
N18005 Y1546.285 Z-39.114
N18010 Y1547.907 Z-40.611
N18015 Y1548.792 Z-41.627
N18020 Y1549.192 Z-42.174
N18025 Y1549.971 Z-43.445
N18030 Y1550.64 Z-45.012
N18035 Y1550.868 Z-45.834
N18040 Y1551.086 Z-47.417
N18045 Y1551.122 Z-70.
N18050 X189.587 Y1552.418
N18055 X188.089 Y1555.009
N18060 X187.336 Y1556.303
N18065 Y1556.27 Z-46.766
N18070 Y1556.238 Z-46.317
N18075 Y1555.921 Z-44.631
N18080 Y1555.461 Z-43.347
N18085 Y1554.595 Z-41.747
N18090 Y1553.377 Z-40.162
N18095 Y1551.709 Z-38.553
N18100 Y1549.598 Z-36.995
N18105 Y1546.982 Z-35.52
N18110 Y1544.011 Z-34.181
N18115 Y1540.586 Z-32.965
N18120 Y1537.359 Z-32.02
N18125 Y1531.514 Z-30.722
N18130 Y1528.572 Z-30.177
N18135 Y1520.411 Z-28.996
N18140 Y1509.218 Z-27.918
N18145 Y1494.994 Z-27.057
N18150 Y1476.437 Z-26.408
N18155 Y1453.48 Z-25.995
N18160 Y1425.166 Z-25.795
N18165 Y1380.782 Z-25.773
N18170 Y1232.324 Z-26.038
N18175 Y1128.174 Z-25.903
N18180 Y1003.439 Z-25.305
N18185 Y829.729 Z-24.223
N18190 Y675.149 Z-23.435
N18195 Y566.484 Z-23.171
N18200 Y487.664 Z-23.281
N18205 Y421.088 Z-23.652
N18210 Y373.643 Z-24.172
N18215 Y322.371 Z-25.38
N18220 Y264.978 Z-27.056
N18225 Y222.919 Z-28.589
N18230 Y199.52 Z-29.568
N18235 Y165.946 Z-31.201
N18240 Y128.215 Z-33.413
N18245 Y107.355 Z-34.86
N18250 Y90.429 Z-36.315
N18255 Y88.771 Z-36.704
N18260 Y86.544 Z-37.564
N18265 Y84.04 Z-38.798
N18270 Y81.067 Z-40.586
N18275 Y79.922 Z-41.381
N18280 Y77.349 Z-43.463
N18285 Y75.365 Z-45.526
N18290 Y74.054 Z-47.199
N18295 Y72.934 Z-48.945
N18300 Y72.571 Z-49.605
N18305 Y71.59 Z-51.692
N18310 Y70.74 Z-54.268
N18315 Y70.211 Z-56.79
N18320 Y69.973 Z-59.201
N18325 Y69.922 Z-70.
N18330 X185.84 Y68.977
N18335 X184.336 Y68.045
N18340 Y68.046 Z-60.688
N18345 Y68.201 Z-57.83
N18350 Y68.614 Z-55.181
N18355 Y69.337 Z-52.612
N18360 Y70.429 Z-49.984
N18365 Y71.534 Z-48.018
N18370 Y72.573 Z-46.496
N18375 Y74.09 Z-44.67
N18380 Y75.03 Z-43.697
N18385 Y76.068 Z-42.751
N18390 Y78.213 Z-41.034
N18395 Y80.797 Z-39.396
N18400 Y82.893 Z-38.267
N18405 Y85.96 Z-36.82
N18410 Y88.517 Z-35.889
N18415 Y90.499 Z-35.414
N18420 Y95.431 Z-34.966
N18425 Y117.188 Z-33.372
N18430 Y143.952 Z-31.791
N18435 Y170.252 Z-30.372
N18440 Y191.086 Z-29.372
N18445 Y224.433 Z-27.983
N18450 Y251.207 Z-27.018
N18455 Y305.539 Z-25.353
N18460 Y369.054 Z-23.824
N18465 Y396.603 Z-23.449
N18470 Y467.006 Z-22.978
N18475 Y537.408 Z-22.826
N18480 Y637.655 Z-22.978
N18485 Y776.93 Z-23.634
N18490 Y1017.217 Z-25.115
N18495 Y1135.83 Z-25.623
N18500 Y1241.137 Z-25.725
N18505 Y1398.012 Z-25.303
N18510 Y1437.805 Z-25.312
N18515 Y1463.823 Z-25.501
N18520 Y1486.016 Z-25.92
N18525 Y1503.234 Z-26.559
N18530 Y1516.258 Z-27.389
N18535 Y1526.515 Z-28.415
N18540 Y1532.079 Z-29.221
N18545 Y1536.511 Z-29.951
N18550 Y1543.078 Z-31.45
N18555 Y1546.655 Z-32.542
N18560 Y1549.617 Z-33.658
N18565 Y1552.627 Z-35.078
N18570 Y1555.293 Z-36.689
N18575 Y1557.537 Z-38.53
N18580 Y1558.958 Z-40.095
N18585 Y1559.726 Z-41.204
N18590 Y1560.563 Z-42.84
N18595 Y1561.074 Z-44.524
N18600 Y1561.277 Z-46.112
N18605 Y1561.308 Z-70.
N18610 X183.589 Y1562.519
N18615 X182.094 Y1564.941
N18620 X181.336 Y1566.145
N18625 Y1566.116 Z-45.46
N18630 Y1565.921 Z-43.884
N18635 Y1565.419 Z-42.19
N18640 Y1564.615 Z-40.563
N18645 Y1563.442 Z-38.94
N18650 Y1562.865 Z-38.301
N18655 Y1561.859 Z-37.326
N18660 Y1560.048 Z-35.892
N18665 Y1557.627 Z-34.414
N18670 Y1554.96 Z-33.116
N18675 Y1551.668 Z-31.853
N18680 Y1548.637 Z-30.896
N18685 Y1542.08 Z-29.353
N18690 Y1534.318 Z-28.085
N18695 Y1529.48 Z-27.527
N18700 Y1523. Z-26.868
N18705 Y1511.112 Z-26.066
N18710 Y1494.659 Z-25.423
N18715 Y1474.763 Z-25.021
N18720 Y1450.275 Z-24.831
N18725 Y1414.308 Z-24.828
N18730 Y1255.902 Z-25.401
N18735 Y1153.882 Z-25.389
N18740 Y1039.095 Z-24.964
N18745 Y718.457 Z-23.032
N18750 Y594.488 Z-22.55
N18755 Y508.015 Z-22.51
N18760 Y435.317 Z-22.762
N18765 Y377.158 Z-23.263
N18770 Y335.07 Z-24.16
N18775 Y275.38 Z-25.757
N18780 Y226.405 Z-27.402
N18785 Y199.798 Z-28.449
N18790 Y166.92 Z-29.953
N18795 Y126.883 Z-32.108
N18800 Y104.504 Z-33.514
N18805 Y90.731 Z-34.575
N18810 Y88.331 Z-35.089
N18815 Y86.164 Z-35.848
N18820 Y82.422 Z-37.404
N18825 Y79.396 Z-38.928
N18830 Y76.806 Z-40.572
N18835 Y74.887 Z-42.041
N18840 Y73.866 Z-42.927
N18845 Y72.855 Z-43.898
N18850 Y71.943 Z-44.895
N18855 Y70.485 Z-46.745
N18860 Y69.476 Z-48.308
N18865 Y68.768 Z-49.604
N18870 Y68.162 Z-50.883
N18875 Y67.196 Z-53.576
N18880 Y66.566 Z-56.44
N18885 Y66.286 Z-59.044
N18890 Y66.235 Z-70.
N18895 X179.84 Y65.357
N18900 X178.337 Y64.492
N18905 Y64.494 Z-60.564
N18910 Y64.632 Z-57.924
N18915 Y65.049 Z-55.181
N18920 Y65.841 Z-52.312
N18925 Y66.959 Z-49.674
N18930 Y68.023 Z-47.748
N18935 Y69.192 Z-46.035
N18940 Y70.841 Z-44.047
N18945 Y73.517 Z-41.537
N18950 Y76.278 Z-39.558
N18955 Y77.462 Z-38.838
N18960 Y80.167 Z-37.427
N18965 Y83.598 Z-35.981
N18970 Y86.143 Z-35.054
N18975 Y88.728 Z-34.25
N18980 Y90.052 Z-33.937
N18985 Y92.738 Z-33.67
N18990 Y115.671 Z-32.131
N18995 Y151.262 Z-30.207
N19000 Y183.082 Z-28.651
N19005 Y215.701 Z-27.314
N19010 Y257.02 Z-25.87
N19015 Y312.883 Z-24.273
N19020 Y373.337 Z-22.927
N19025 Y413.895 Z-22.526
N19030 Y489.655 Z-22.201
N19035 Y570.771
N19040 Y685.557 Z-22.582
N19045 Y1062.823 Z-24.816
N19050 Y1173.784 Z-25.147
N19055 Y1271.464 Z-25.066
N19060 Y1427.574 Z-24.355
N19065 Y1462.01 Z-24.352
N19070 Y1484.202 Z-24.534
N19075 Y1502.568 Z-24.922
N19080 Y1518.442 Z-25.569
N19085 Y1529.687 Z-26.367
N19090 Y1535.837 Z-27.022
N19095 Y1540.3 Z-27.558
N19100 Y1547.687 Z-28.809
N19105 Y1553.717 Z-30.271
N19110 Y1556.912 Z-31.303
N19115 Y1560.024 Z-32.54
N19120 Y1562.716 Z-33.89
N19125 Y1564.835 Z-35.233
N19130 Y1566.747 Z-36.78
N19135 Y1568.252 Z-38.371
N19140 Y1569.352 Z-39.945
N19145 Y1570.154 Z-41.64
