%
(NEW_SLOT_2)
(T1  D=6. CR=0. - ZMIN=-6.3 - FLAT END MILL)
N10 G90 G94 G17 G91.1
N15 G21
N20 G53 G0 Z0.
(2D POCKET2 3)
N25 M9
N30 T1 M6
N35 S22000 M3
N40 G54
N45 G0 X97.598 Y2446.902
N50 G43 Z20. H1
N55 G0 Z5.
N60 G1 Z-1.5 F500.
N65 G19 G2 Y2446.302 Z-2.1 J-0.6 K0.
N70 G1 Y2442.89
N75 Y-2.895 F1200.
N80 G17 G3 X97.898 Y-3.195 I0.3 J0.
N85 G1 X102.057 Y-3.192
N90 G3 X102.357 Y-2.892 I0. J0.3
N95 G1 Y0.
N100 X102.378 Y2442.895
N105 G2 X102.678 Y2443.195 I0.3 J0.
N110 G1 X107. Y2443.191
N115 G2 X107.3 Y2442.891 I0. J-0.3
N120 G1 Y-2.892
N125 G2 X107. Y-3.192 I-0.3 J0.
N130 G1 X93. Y-3.191
N135 G2 X92.7 Y-2.891 I0. J0.3
N140 G1 Y2442.892
N145 G2 X92.918 Y2443.181 I0.3 J0.
N150 G1 X97.216 Y2444.402
N155 G2 X97.598 Y2444.114 I0.082 J-0.289
N160 G19 G3 Y2443.514 Z-2.7 J0. K-0.6 F500.
N165 G1 Z-3.6
N170 G2 Y2442.914 Z-4.2 J-0.6 K0.
N175 G1 Y2442.89
N180 Y-2.895 F1200.
N185 G17 G3 X97.898 Y-3.195 I0.3 J0.
N190 G1 X102.057 Y-3.192
N195 G3 X102.357 Y-2.892 I0. J0.3
N200 G1 Y0.
N205 X102.378 Y2442.895
N210 G2 X102.678 Y2443.195 I0.3 J0.
N215 G1 X107. Y2443.191
N220 G2 X107.3 Y2442.891 I0. J-0.3
N225 G1 Y-2.892
N230 G2 X107. Y-3.192 I-0.3 J0.
N235 G1 X93. Y-3.191
N240 G2 X92.7 Y-2.891 I0. J0.3
N245 G1 Y2442.892
N250 G2 X92.918 Y2443.181 I0.3 J0.
N255 G1 X97.216 Y2444.402
N260 G2 X97.598 Y2444.114 I0.082 J-0.289
N265 G19 G3 Y2443.514 Z-4.8 J0. K-0.6 F500.
N270 G1 Z-5.7
N275 G2 Y2442.914 Z-6.3 J-0.6 K0.
N280 G1 Y2442.89
N285 Y-2.895 F1200.
N290 G17 G3 X97.898 Y-3.195 I0.3 J0.
N295 G1 X102.057 Y-3.192
N300 G3 X102.357 Y-2.892 I0. J0.3
N305 G1 Y0.
N310 X102.378 Y2442.895
N315 G2 X102.678 Y2443.195 I0.3 J0.
N320 G1 X107. Y2443.191
N325 G2 X107.3 Y2442.891 I0. J-0.3
N330 G1 Y-2.892
N335 G2 X107. Y-3.192 I-0.3 J0.
N340 G1 X93. Y-3.191
N345 G2 X92.7 Y-2.891 I0. J0.3
N350 G1 Y2442.892
N355 X92.707 Y2442.986 F500.
N360 X93.177 Y2445.949
N365 X93.191 Y2446.042 Z-6.293
N370 X93.206 Y2446.133 Z-6.271
N375 X93.219 Y2446.218 Z-6.235
N380 X93.232 Y2446.298 Z-6.185
N385 X93.243 Y2446.368 Z-6.124
N390 X93.253 Y2446.429 Z-6.053
N395 X93.26 Y2446.477 Z-5.972
N400 X93.266 Y2446.513 Z-5.885
N405 X93.269 Y2446.535 Z-5.794
N410 X93.271 Y2446.542 Z-5.7
N415 G0 Z20.
N420 G53 Z0.
N425 M30
%
