%
(PECK_DRILL)
(5MM DRILL)
(T3  D=5. CR=0. TAPER=118DEG - ZMIN=-12. - DRILL)
N10 G90 G94 G17 G91.1
N15 G21
N20 G53 G0 Z0.
(PECK DRILL ALUMINIUM)
N25 M9
N30 T3 M6
N35 S12000 M3
N40 G54
N45 G0 X1120. Y20.
N50 G43 Z15. H3
N55 G0 Z5.
N60 Z2.
N65 G1 Z-1. F100.
N70 G0 Z5.
N75 Z1.
N80 G1 Z-2. F100.
N85 G0 Z5.
N90 Z0.
N95 G1 Z-3. F100.
N100 G0 Z5.
N105 Z-1.
N110 G1 Z-4. F100.
N115 G0 Z5.
N120 Z-2.
N125 G1 Z-5. F100.
N130 G0 Z5.
N135 Z-3.
N140 G1 Z-6. F100.
N145 G0 Z5.
N150 Z-4.
N155 G1 Z-7. F100.
N160 G0 Z5.
N165 Z-5.
N170 G1 Z-8. F100.
N175 G0 Z5.
N180 Z-6.
N185 G1 Z-9. F100.
N190 G0 Z5.
N195 Z-7.
N200 G1 Z-10. F100.
N205 G0 Z5.
N210 Z-8.
N215 G1 Z-11. F100.
N220 G0 Z5.
N225 Z-9.
N230 G1 Z-12. F100.
N235 G4 P0.5
N240 G0 Z5.
N245 Y220.
N250 Z2.
N255 G1 Z-1. F100.
N260 G0 Z5.
N265 Z1.
N270 G1 Z-2. F100.
N275 G0 Z5.
N280 Z0.
N285 G1 Z-3. F100.
N290 G0 Z5.
N295 Z-1.
N300 G1 Z-4. F100.
N305 G0 Z5.
N310 Z-2.
N315 G1 Z-5. F100.
N320 G0 Z5.
N325 Z-3.
N330 G1 Z-6. F100.
N335 G0 Z5.
N340 Z-4.
N345 G1 Z-7. F100.
N350 G0 Z5.
N355 Z-5.
N360 G1 Z-8. F100.
N365 G0 Z5.
N370 Z-6.
N375 G1 Z-9. F100.
N380 G0 Z5.
N385 Z-7.
N390 G1 Z-10. F100.
N395 G0 Z5.
N400 Z-8.
N405 G1 Z-11. F100.
N410 G0 Z5.
N415 Z-9.
N420 G1 Z-12. F100.
N425 G4 P0.5
N430 G0 Z5.
N435 Y420.
N440 Z2.
N445 G1 Z-1. F100.
N450 G0 Z5.
N455 Z1.
N460 G1 Z-2. F100.
N465 G0 Z5.
N470 Z0.
N475 G1 Z-3. F100.
N480 G0 Z5.
N485 Z-1.
N490 G1 Z-4. F100.
N495 G0 Z5.
N500 Z-2.
N505 G1 Z-5. F100.
N510 G0 Z5.
N515 Z-3.
N520 G1 Z-6. F100.
N525 G0 Z5.
N530 Z-4.
N535 G1 Z-7. F100.
N540 G0 Z5.
N545 Z-5.
N550 G1 Z-8. F100.
N555 G0 Z5.
N560 Z-6.
N565 G1 Z-9. F100.
N570 G0 Z5.
N575 Z-7.
N580 G1 Z-10. F100.
N585 G0 Z5.
N590 Z-8.
N595 G1 Z-11. F100.
N600 G0 Z5.
N605 Z-9.
N610 G1 Z-12. F100.
N615 G4 P0.5
N620 G0 Z5.
N625 Y620.
N630 Z2.
N635 G1 Z-1. F100.
N640 G0 Z5.
N645 Z1.
N650 G1 Z-2. F100.
N655 G0 Z5.
N660 Z0.
N665 G1 Z-3. F100.
N670 G0 Z5.
N675 Z-1.
N680 G1 Z-4. F100.
N685 G0 Z5.
N690 Z-2.
N695 G1 Z-5. F100.
N700 G0 Z5.
N705 Z-3.
N710 G1 Z-6. F100.
N715 G0 Z5.
N720 Z-4.
N725 G1 Z-7. F100.
N730 G0 Z5.
N735 Z-5.
N740 G1 Z-8. F100.
N745 G0 Z5.
N750 Z-6.
N755 G1 Z-9. F100.
N760 G0 Z5.
N765 Z-7.
N770 G1 Z-10. F100.
N775 G0 Z5.
N780 Z-8.
N785 G1 Z-11. F100.
N790 G0 Z5.
N795 Z-9.
N800 G1 Z-12. F100.
N805 G4 P0.5
N810 G0 Z5.
N815 Y820.
N820 Z2.
N825 G1 Z-1. F100.
N830 G0 Z5.
N835 Z1.
N840 G1 Z-2. F100.
N845 G0 Z5.
N850 Z0.
N855 G1 Z-3. F100.
N860 G0 Z5.
N865 Z-1.
N870 G1 Z-4. F100.
N875 G0 Z5.
N880 Z-2.
N885 G1 Z-5. F100.
N890 G0 Z5.
N895 Z-3.
N900 G1 Z-6. F100.
N905 G0 Z5.
N910 Z-4.
N915 G1 Z-7. F100.
N920 G0 Z5.
N925 Z-5.
N930 G1 Z-8. F100.
N935 G0 Z5.
N940 Z-6.
N945 G1 Z-9. F100.
N950 G0 Z5.
N955 Z-7.
N960 G1 Z-10. F100.
N965 G0 Z5.
N970 Z-8.
N975 G1 Z-11. F100.
N980 G0 Z5.
N985 Z-9.
N990 G1 Z-12. F100.
N995 G4 P0.5
N1000 G0 Z5.
N1005 Y1020.
N1010 Z2.
N1015 G1 Z-1. F100.
N1020 G0 Z5.
N1025 Z1.
N1030 G1 Z-2. F100.
N1035 G0 Z5.
N1040 Z0.
N1045 G1 Z-3. F100.
N1050 G0 Z5.
N1055 Z-1.
N1060 G1 Z-4. F100.
N1065 G0 Z5.
N1070 Z-2.
N1075 G1 Z-5. F100.
N1080 G0 Z5.
N1085 Z-3.
N1090 G1 Z-6. F100.
N1095 G0 Z5.
N1100 Z-4.
N1105 G1 Z-7. F100.
N1110 G0 Z5.
N1115 Z-5.
N1120 G1 Z-8. F100.
N1125 G0 Z5.
N1130 Z-6.
N1135 G1 Z-9. F100.
N1140 G0 Z5.
N1145 Z-7.
N1150 G1 Z-10. F100.
N1155 G0 Z5.
N1160 Z-8.
N1165 G1 Z-11. F100.
N1170 G0 Z5.
N1175 Z-9.
N1180 G1 Z-12. F100.
N1185 G4 P0.5
N1190 G0 Z5.
N1195 Y1220.
N1200 Z2.
N1205 G1 Z-1. F100.
N1210 G0 Z5.
N1215 Z1.
N1220 G1 Z-2. F100.
N1225 G0 Z5.
N1230 Z0.
N1235 G1 Z-3. F100.
N1240 G0 Z5.
N1245 Z-1.
N1250 G1 Z-4. F100.
N1255 G0 Z5.
N1260 Z-2.
N1265 G1 Z-5. F100.
N1270 G0 Z5.
N1275 Z-3.
N1280 G1 Z-6. F100.
N1285 G0 Z5.
N1290 Z-4.
N1295 G1 Z-7. F100.
N1300 G0 Z5.
N1305 Z-5.
N1310 G1 Z-8. F100.
N1315 G0 Z5.
N1320 Z-6.
N1325 G1 Z-9. F100.
N1330 G0 Z5.
N1335 Z-7.
N1340 G1 Z-10. F100.
N1345 G0 Z5.
N1350 Z-8.
N1355 G1 Z-11. F100.
N1360 G0 Z5.
N1365 Z-9.
N1370 G1 Z-12. F100.
N1375 G4 P0.5
N1380 G0 Z5.
N1385 Y1420.
N1390 Z2.
N1395 G1 Z-1. F100.
N1400 G0 Z5.
N1405 Z1.
N1410 G1 Z-2. F100.
N1415 G0 Z5.
N1420 Z0.
N1425 G1 Z-3. F100.
N1430 G0 Z5.
N1435 Z-1.
N1440 G1 Z-4. F100.
N1445 G0 Z5.
N1450 Z-2.
N1455 G1 Z-5. F100.
N1460 G0 Z5.
N1465 Z-3.
N1470 G1 Z-6. F100.
N1475 G0 Z5.
N1480 Z-4.
N1485 G1 Z-7. F100.
N1490 G0 Z5.
N1495 Z-5.
N1500 G1 Z-8. F100.
N1505 G0 Z5.
N1510 Z-6.
N1515 G1 Z-9. F100.
N1520 G0 Z5.
N1525 Z-7.
N1530 G1 Z-10. F100.
N1535 G0 Z5.
N1540 Z-8.
N1545 G1 Z-11. F100.
N1550 G0 Z5.
N1555 Z-9.
N1560 G1 Z-12. F100.
N1565 G4 P0.5
N1570 G0 Z5.
N1575 Y1620.
N1580 Z2.
N1585 G1 Z-1. F100.
N1590 G0 Z5.
N1595 Z1.
N1600 G1 Z-2. F100.
N1605 G0 Z5.
N1610 Z0.
N1615 G1 Z-3. F100.
N1620 G0 Z5.
N1625 Z-1.
N1630 G1 Z-4. F100.
N1635 G0 Z5.
N1640 Z-2.
N1645 G1 Z-5. F100.
N1650 G0 Z5.
N1655 Z-3.
N1660 G1 Z-6. F100.
N1665 G0 Z5.
N1670 Z-4.
N1675 G1 Z-7. F100.
N1680 G0 Z5.
N1685 Z-5.
N1690 G1 Z-8. F100.
N1695 G0 Z5.
N1700 Z-6.
N1705 G1 Z-9. F100.
N1710 G0 Z5.
N1715 Z-7.
N1720 G1 Z-10. F100.
N1725 G0 Z5.
N1730 Z-8.
N1735 G1 Z-11. F100.
N1740 G0 Z5.
N1745 Z-9.
N1750 G1 Z-12. F100.
N1755 G4 P0.5
N1760 G0 Z5.
N1765 Y1820.
N1770 Z2.
N1775 G1 Z-1. F100.
N1780 G0 Z5.
N1785 Z1.
N1790 G1 Z-2. F100.
N1795 G0 Z5.
N1800 Z0.
N1805 G1 Z-3. F100.
N1810 G0 Z5.
N1815 Z-1.
N1820 G1 Z-4. F100.
N1825 G0 Z5.
N1830 Z-2.
N1835 G1 Z-5. F100.
N1840 G0 Z5.
N1845 Z-3.
N1850 G1 Z-6. F100.
N1855 G0 Z5.
N1860 Z-4.
N1865 G1 Z-7. F100.
N1870 G0 Z5.
N1875 Z-5.
N1880 G1 Z-8. F100.
N1885 G0 Z5.
N1890 Z-6.
N1895 G1 Z-9. F100.
N1900 G0 Z5.
N1905 Z-7.
N1910 G1 Z-10. F100.
N1915 G0 Z5.
N1920 Z-8.
N1925 G1 Z-11. F100.
N1930 G0 Z5.
N1935 Z-9.
N1940 G1 Z-12. F100.
N1945 G4 P0.5
N1950 G0 Z5.
N1955 Y2020.
N1960 Z2.
N1965 G1 Z-1. F100.
N1970 G0 Z5.
N1975 Z1.
N1980 G1 Z-2. F100.
N1985 G0 Z5.
N1990 Z0.
N1995 G1 Z-3. F100.
N2000 G0 Z5.
N2005 Z-1.
N2010 G1 Z-4. F100.
N2015 G0 Z5.
N2020 Z-2.
N2025 G1 Z-5. F100.
N2030 G0 Z5.
N2035 Z-3.
N2040 G1 Z-6. F100.
N2045 G0 Z5.
N2050 Z-4.
N2055 G1 Z-7. F100.
N2060 G0 Z5.
N2065 Z-5.
N2070 G1 Z-8. F100.
N2075 G0 Z5.
N2080 Z-6.
N2085 G1 Z-9. F100.
N2090 G0 Z5.
N2095 Z-7.
N2100 G1 Z-10. F100.
N2105 G0 Z5.
N2110 Z-8.
N2115 G1 Z-11. F100.
N2120 G0 Z5.
N2125 Z-9.
N2130 G1 Z-12. F100.
N2135 G4 P0.5
N2140 G0 Z5.
N2145 Y2220.
N2150 Z2.
N2155 G1 Z-1. F100.
N2160 G0 Z5.
N2165 Z1.
N2170 G1 Z-2. F100.
N2175 G0 Z5.
N2180 Z0.
N2185 G1 Z-3. F100.
N2190 G0 Z5.
N2195 Z-1.
N2200 G1 Z-4. F100.
N2205 G0 Z5.
N2210 Z-2.
N2215 G1 Z-5. F100.
N2220 G0 Z5.
N2225 Z-3.
N2230 G1 Z-6. F100.
N2235 G0 Z5.
N2240 Z-4.
N2245 G1 Z-7. F100.
N2250 G0 Z5.
N2255 Z-5.
N2260 G1 Z-8. F100.
N2265 G0 Z5.
N2270 Z-6.
N2275 G1 Z-9. F100.
N2280 G0 Z5.
N2285 Z-7.
N2290 G1 Z-10. F100.
N2295 G0 Z5.
N2300 Z-8.
N2305 G1 Z-11. F100.
N2310 G0 Z5.
N2315 Z-9.
N2320 G1 Z-12. F100.
N2325 G4 P0.5
N2330 G0 Z5.
N2335 Y2420.
N2340 Z2.
N2345 G1 Z-1. F100.
N2350 G0 Z5.
N2355 Z1.
N2360 G1 Z-2. F100.
N2365 G0 Z5.
N2370 Z0.
N2375 G1 Z-3. F100.
N2380 G0 Z5.
N2385 Z-1.
N2390 G1 Z-4. F100.
N2395 G0 Z5.
N2400 Z-2.
N2405 G1 Z-5. F100.
N2410 G0 Z5.
N2415 Z-3.
N2420 G1 Z-6. F100.
N2425 G0 Z5.
N2430 Z-4.
N2435 G1 Z-7. F100.
N2440 G0 Z5.
N2445 Z-5.
N2450 G1 Z-8. F100.
N2455 G0 Z5.
N2460 Z-6.
N2465 G1 Z-9. F100.
N2470 G0 Z5.
N2475 Z-7.
N2480 G1 Z-10. F100.
N2485 G0 Z5.
N2490 Z-8.
N2495 G1 Z-11. F100.
N2500 G0 Z5.
N2505 Z-9.
N2510 G1 Z-12. F100.
N2515 G4 P0.5
N2520 G0 Z5.
N2525 X780.
N2530 Z2.
N2535 G1 Z-1. F100.
N2540 G0 Z5.
N2545 Z1.
N2550 G1 Z-2. F100.
N2555 G0 Z5.
N2560 Z0.
N2565 G1 Z-3. F100.
N2570 G0 Z5.
N2575 Z-1.
N2580 G1 Z-4. F100.
N2585 G0 Z5.
N2590 Z-2.
N2595 G1 Z-5. F100.
N2600 G0 Z5.
N2605 Z-3.
N2610 G1 Z-6. F100.
N2615 G0 Z5.
N2620 Z-4.
N2625 G1 Z-7. F100.
N2630 G0 Z5.
N2635 Z-5.
N2640 G1 Z-8. F100.
N2645 G0 Z5.
N2650 Z-6.
N2655 G1 Z-9. F100.
N2660 G0 Z5.
N2665 Z-7.
N2670 G1 Z-10. F100.
N2675 G0 Z5.
N2680 Z-8.
N2685 G1 Z-11. F100.
N2690 G0 Z5.
N2695 Z-9.
N2700 G1 Z-12. F100.
N2705 G4 P0.5
N2710 G0 Z5.
N2715 Y2220.
N2720 Z2.
N2725 G1 Z-1. F100.
N2730 G0 Z5.
N2735 Z1.
N2740 G1 Z-2. F100.
N2745 G0 Z5.
N2750 Z0.
N2755 G1 Z-3. F100.
N2760 G0 Z5.
N2765 Z-1.
N2770 G1 Z-4. F100.
N2775 G0 Z5.
N2780 Z-2.
N2785 G1 Z-5. F100.
N2790 G0 Z5.
N2795 Z-3.
N2800 G1 Z-6. F100.
N2805 G0 Z5.
N2810 Z-4.
N2815 G1 Z-7. F100.
N2820 G0 Z5.
N2825 Z-5.
N2830 G1 Z-8. F100.
N2835 G0 Z5.
N2840 Z-6.
N2845 G1 Z-9. F100.
N2850 G0 Z5.
N2855 Z-7.
N2860 G1 Z-10. F100.
N2865 G0 Z5.
N2870 Z-8.
N2875 G1 Z-11. F100.
N2880 G0 Z5.
N2885 Z-9.
N2890 G1 Z-12. F100.
N2895 G4 P0.5
N2900 G0 Z5.
N2905 Y2020.
N2910 Z2.
N2915 G1 Z-1. F100.
N2920 G0 Z5.
N2925 Z1.
N2930 G1 Z-2. F100.
N2935 G0 Z5.
N2940 Z0.
N2945 G1 Z-3. F100.
N2950 G0 Z5.
N2955 Z-1.
N2960 G1 Z-4. F100.
N2965 G0 Z5.
N2970 Z-2.
N2975 G1 Z-5. F100.
N2980 G0 Z5.
N2985 Z-3.
N2990 G1 Z-6. F100.
N2995 G0 Z5.
N3000 Z-4.
N3005 G1 Z-7. F100.
N3010 G0 Z5.
N3015 Z-5.
N3020 G1 Z-8. F100.
N3025 G0 Z5.
N3030 Z-6.
N3035 G1 Z-9. F100.
N3040 G0 Z5.
N3045 Z-7.
N3050 G1 Z-10. F100.
N3055 G0 Z5.
N3060 Z-8.
N3065 G1 Z-11. F100.
N3070 G0 Z5.
N3075 Z-9.
N3080 G1 Z-12. F100.
N3085 G4 P0.5
N3090 G0 Z5.
N3095 Y1820.
N3100 Z2.
N3105 G1 Z-1. F100.
N3110 G0 Z5.
N3115 Z1.
N3120 G1 Z-2. F100.
N3125 G0 Z5.
N3130 Z0.
N3135 G1 Z-3. F100.
N3140 G0 Z5.
N3145 Z-1.
N3150 G1 Z-4. F100.
N3155 G0 Z5.
N3160 Z-2.
N3165 G1 Z-5. F100.
N3170 G0 Z5.
N3175 Z-3.
N3180 G1 Z-6. F100.
N3185 G0 Z5.
N3190 Z-4.
N3195 G1 Z-7. F100.
N3200 G0 Z5.
N3205 Z-5.
N3210 G1 Z-8. F100.
N3215 G0 Z5.
N3220 Z-6.
N3225 G1 Z-9. F100.
N3230 G0 Z5.
N3235 Z-7.
N3240 G1 Z-10. F100.
N3245 G0 Z5.
N3250 Z-8.
N3255 G1 Z-11. F100.
N3260 G0 Z5.
N3265 Z-9.
N3270 G1 Z-12. F100.
N3275 G4 P0.5
N3280 G0 Z5.
N3285 Y1620.
N3290 Z2.
N3295 G1 Z-1. F100.
N3300 G0 Z5.
N3305 Z1.
N3310 G1 Z-2. F100.
N3315 G0 Z5.
N3320 Z0.
N3325 G1 Z-3. F100.
N3330 G0 Z5.
N3335 Z-1.
N3340 G1 Z-4. F100.
N3345 G0 Z5.
N3350 Z-2.
N3355 G1 Z-5. F100.
N3360 G0 Z5.
N3365 Z-3.
N3370 G1 Z-6. F100.
N3375 G0 Z5.
N3380 Z-4.
N3385 G1 Z-7. F100.
N3390 G0 Z5.
N3395 Z-5.
N3400 G1 Z-8. F100.
N3405 G0 Z5.
N3410 Z-6.
N3415 G1 Z-9. F100.
N3420 G0 Z5.
N3425 Z-7.
N3430 G1 Z-10. F100.
N3435 G0 Z5.
N3440 Z-8.
N3445 G1 Z-11. F100.
N3450 G0 Z5.
N3455 Z-9.
N3460 G1 Z-12. F100.
N3465 G4 P0.5
N3470 G0 Z5.
N3475 Y1420.
N3480 Z2.
N3485 G1 Z-1. F100.
N3490 G0 Z5.
N3495 Z1.
N3500 G1 Z-2. F100.
N3505 G0 Z5.
N3510 Z0.
N3515 G1 Z-3. F100.
N3520 G0 Z5.
N3525 Z-1.
N3530 G1 Z-4. F100.
N3535 G0 Z5.
N3540 Z-2.
N3545 G1 Z-5. F100.
N3550 G0 Z5.
N3555 Z-3.
N3560 G1 Z-6. F100.
N3565 G0 Z5.
N3570 Z-4.
N3575 G1 Z-7. F100.
N3580 G0 Z5.
N3585 Z-5.
N3590 G1 Z-8. F100.
N3595 G0 Z5.
N3600 Z-6.
N3605 G1 Z-9. F100.
N3610 G0 Z5.
N3615 Z-7.
N3620 G1 Z-10. F100.
N3625 G0 Z5.
N3630 Z-8.
N3635 G1 Z-11. F100.
N3640 G0 Z5.
N3645 Z-9.
N3650 G1 Z-12. F100.
N3655 G4 P0.5
N3660 G0 Z5.
N3665 Y1220.
N3670 Z2.
N3675 G1 Z-1. F100.
N3680 G0 Z5.
N3685 Z1.
N3690 G1 Z-2. F100.
N3695 G0 Z5.
N3700 Z0.
N3705 G1 Z-3. F100.
N3710 G0 Z5.
N3715 Z-1.
N3720 G1 Z-4. F100.
N3725 G0 Z5.
N3730 Z-2.
N3735 G1 Z-5. F100.
N3740 G0 Z5.
N3745 Z-3.
N3750 G1 Z-6. F100.
N3755 G0 Z5.
N3760 Z-4.
N3765 G1 Z-7. F100.
N3770 G0 Z5.
N3775 Z-5.
N3780 G1 Z-8. F100.
N3785 G0 Z5.
N3790 Z-6.
N3795 G1 Z-9. F100.
N3800 G0 Z5.
N3805 Z-7.
N3810 G1 Z-10. F100.
N3815 G0 Z5.
N3820 Z-8.
N3825 G1 Z-11. F100.
N3830 G0 Z5.
N3835 Z-9.
N3840 G1 Z-12. F100.
N3845 G4 P0.5
N3850 G0 Z5.
N3855 Y1020.
N3860 Z2.
N3865 G1 Z-1. F100.
N3870 G0 Z5.
N3875 Z1.
N3880 G1 Z-2. F100.
N3885 G0 Z5.
N3890 Z0.
N3895 G1 Z-3. F100.
N3900 G0 Z5.
N3905 Z-1.
N3910 G1 Z-4. F100.
N3915 G0 Z5.
N3920 Z-2.
N3925 G1 Z-5. F100.
N3930 G0 Z5.
N3935 Z-3.
N3940 G1 Z-6. F100.
N3945 G0 Z5.
N3950 Z-4.
N3955 G1 Z-7. F100.
N3960 G0 Z5.
N3965 Z-5.
N3970 G1 Z-8. F100.
N3975 G0 Z5.
N3980 Z-6.
N3985 G1 Z-9. F100.
N3990 G0 Z5.
N3995 Z-7.
N4000 G1 Z-10. F100.
N4005 G0 Z5.
N4010 Z-8.
N4015 G1 Z-11. F100.
N4020 G0 Z5.
N4025 Z-9.
N4030 G1 Z-12. F100.
N4035 G4 P0.5
N4040 G0 Z5.
N4045 Y820.
N4050 Z2.
N4055 G1 Z-1. F100.
N4060 G0 Z5.
N4065 Z1.
N4070 G1 Z-2. F100.
N4075 G0 Z5.
N4080 Z0.
N4085 G1 Z-3. F100.
N4090 G0 Z5.
N4095 Z-1.
N4100 G1 Z-4. F100.
N4105 G0 Z5.
N4110 Z-2.
N4115 G1 Z-5. F100.
N4120 G0 Z5.
N4125 Z-3.
N4130 G1 Z-6. F100.
N4135 G0 Z5.
N4140 Z-4.
N4145 G1 Z-7. F100.
N4150 G0 Z5.
N4155 Z-5.
N4160 G1 Z-8. F100.
N4165 G0 Z5.
N4170 Z-6.
N4175 G1 Z-9. F100.
N4180 G0 Z5.
N4185 Z-7.
N4190 G1 Z-10. F100.
N4195 G0 Z5.
N4200 Z-8.
N4205 G1 Z-11. F100.
N4210 G0 Z5.
N4215 Z-9.
N4220 G1 Z-12. F100.
N4225 G4 P0.5
N4230 G0 Z5.
N4235 Y620.
N4240 Z2.
N4245 G1 Z-1. F100.
N4250 G0 Z5.
N4255 Z1.
N4260 G1 Z-2. F100.
N4265 G0 Z5.
N4270 Z0.
N4275 G1 Z-3. F100.
N4280 G0 Z5.
N4285 Z-1.
N4290 G1 Z-4. F100.
N4295 G0 Z5.
N4300 Z-2.
N4305 G1 Z-5. F100.
N4310 G0 Z5.
N4315 Z-3.
N4320 G1 Z-6. F100.
N4325 G0 Z5.
N4330 Z-4.
N4335 G1 Z-7. F100.
N4340 G0 Z5.
N4345 Z-5.
N4350 G1 Z-8. F100.
N4355 G0 Z5.
N4360 Z-6.
N4365 G1 Z-9. F100.
N4370 G0 Z5.
N4375 Z-7.
N4380 G1 Z-10. F100.
N4385 G0 Z5.
N4390 Z-8.
N4395 G1 Z-11. F100.
N4400 G0 Z5.
N4405 Z-9.
N4410 G1 Z-12. F100.
N4415 G4 P0.5
N4420 G0 Z5.
N4425 Y420.
N4430 Z2.
N4435 G1 Z-1. F100.
N4440 G0 Z5.
N4445 Z1.
N4450 G1 Z-2. F100.
N4455 G0 Z5.
N4460 Z0.
N4465 G1 Z-3. F100.
N4470 G0 Z5.
N4475 Z-1.
N4480 G1 Z-4. F100.
N4485 G0 Z5.
N4490 Z-2.
N4495 G1 Z-5. F100.
N4500 G0 Z5.
N4505 Z-3.
N4510 G1 Z-6. F100.
N4515 G0 Z5.
N4520 Z-4.
N4525 G1 Z-7. F100.
N4530 G0 Z5.
N4535 Z-5.
N4540 G1 Z-8. F100.
N4545 G0 Z5.
N4550 Z-6.
N4555 G1 Z-9. F100.
N4560 G0 Z5.
N4565 Z-7.
N4570 G1 Z-10. F100.
N4575 G0 Z5.
N4580 Z-8.
N4585 G1 Z-11. F100.
N4590 G0 Z5.
N4595 Z-9.
N4600 G1 Z-12. F100.
N4605 G4 P0.5
N4610 G0 Z5.
N4615 Y220.
N4620 Z2.
N4625 G1 Z-1. F100.
N4630 G0 Z5.
N4635 Z1.
N4640 G1 Z-2. F100.
N4645 G0 Z5.
N4650 Z0.
N4655 G1 Z-3. F100.
N4660 G0 Z5.
N4665 Z-1.
N4670 G1 Z-4. F100.
N4675 G0 Z5.
N4680 Z-2.
N4685 G1 Z-5. F100.
N4690 G0 Z5.
N4695 Z-3.
N4700 G1 Z-6. F100.
N4705 G0 Z5.
N4710 Z-4.
N4715 G1 Z-7. F100.
N4720 G0 Z5.
N4725 Z-5.
N4730 G1 Z-8. F100.
N4735 G0 Z5.
N4740 Z-6.
N4745 G1 Z-9. F100.
N4750 G0 Z5.
N4755 Z-7.
N4760 G1 Z-10. F100.
N4765 G0 Z5.
N4770 Z-8.
N4775 G1 Z-11. F100.
N4780 G0 Z5.
N4785 Z-9.
N4790 G1 Z-12. F100.
N4795 G4 P0.5
N4800 G0 Z5.
N4805 Y20.
N4810 Z2.
N4815 G1 Z-1. F100.
N4820 G0 Z5.
N4825 Z1.
N4830 G1 Z-2. F100.
N4835 G0 Z5.
N4840 Z0.
N4845 G1 Z-3. F100.
N4850 G0 Z5.
N4855 Z-1.
N4860 G1 Z-4. F100.
N4865 G0 Z5.
N4870 Z-2.
N4875 G1 Z-5. F100.
N4880 G0 Z5.
N4885 Z-3.
N4890 G1 Z-6. F100.
N4895 G0 Z5.
N4900 Z-4.
N4905 G1 Z-7. F100.
N4910 G0 Z5.
N4915 Z-5.
N4920 G1 Z-8. F100.
N4925 G0 Z5.
N4930 Z-6.
N4935 G1 Z-9. F100.
N4940 G0 Z5.
N4945 Z-7.
N4950 G1 Z-10. F100.
N4955 G0 Z5.
N4960 Z-8.
N4965 G1 Z-11. F100.
N4970 G0 Z5.
N4975 Z-9.
N4980 G1 Z-12. F100.
N4985 G4 P0.5
N4990 G0 Z5.
N4995 X440.
N5000 Z2.
N5005 G1 Z-1. F100.
N5010 G0 Z5.
N5015 Z1.
N5020 G1 Z-2. F100.
N5025 G0 Z5.
N5030 Z0.
N5035 G1 Z-3. F100.
N5040 G0 Z5.
N5045 Z-1.
N5050 G1 Z-4. F100.
N5055 G0 Z5.
N5060 Z-2.
N5065 G1 Z-5. F100.
N5070 G0 Z5.
N5075 Z-3.
N5080 G1 Z-6. F100.
N5085 G0 Z5.
N5090 Z-4.
N5095 G1 Z-7. F100.
N5100 G0 Z5.
N5105 Z-5.
N5110 G1 Z-8. F100.
N5115 G0 Z5.
N5120 Z-6.
N5125 G1 Z-9. F100.
N5130 G0 Z5.
N5135 Z-7.
N5140 G1 Z-10. F100.
N5145 G0 Z5.
N5150 Z-8.
N5155 G1 Z-11. F100.
N5160 G0 Z5.
N5165 Z-9.
N5170 G1 Z-12. F100.
N5175 G4 P0.5
N5180 G0 Z5.
N5185 Y220.
N5190 Z2.
N5195 G1 Z-1. F100.
N5200 G0 Z5.
N5205 Z1.
N5210 G1 Z-2. F100.
N5215 G0 Z5.
N5220 Z0.
N5225 G1 Z-3. F100.
N5230 G0 Z5.
N5235 Z-1.
N5240 G1 Z-4. F100.
N5245 G0 Z5.
N5250 Z-2.
N5255 G1 Z-5. F100.
N5260 G0 Z5.
N5265 Z-3.
N5270 G1 Z-6. F100.
N5275 G0 Z5.
N5280 Z-4.
N5285 G1 Z-7. F100.
N5290 G0 Z5.
N5295 Z-5.
N5300 G1 Z-8. F100.
N5305 G0 Z5.
N5310 Z-6.
N5315 G1 Z-9. F100.
N5320 G0 Z5.
N5325 Z-7.
N5330 G1 Z-10. F100.
N5335 G0 Z5.
N5340 Z-8.
N5345 G1 Z-11. F100.
N5350 G0 Z5.
N5355 Z-9.
N5360 G1 Z-12. F100.
N5365 G4 P0.5
N5370 G0 Z5.
N5375 Y420.
N5380 Z2.
N5385 G1 Z-1. F100.
N5390 G0 Z5.
N5395 Z1.
N5400 G1 Z-2. F100.
N5405 G0 Z5.
N5410 Z0.
N5415 G1 Z-3. F100.
N5420 G0 Z5.
N5425 Z-1.
N5430 G1 Z-4. F100.
N5435 G0 Z5.
N5440 Z-2.
N5445 G1 Z-5. F100.
N5450 G0 Z5.
N5455 Z-3.
N5460 G1 Z-6. F100.
N5465 G0 Z5.
N5470 Z-4.
N5475 G1 Z-7. F100.
N5480 G0 Z5.
N5485 Z-5.
N5490 G1 Z-8. F100.
N5495 G0 Z5.
N5500 Z-6.
N5505 G1 Z-9. F100.
N5510 G0 Z5.
N5515 Z-7.
N5520 G1 Z-10. F100.
N5525 G0 Z5.
N5530 Z-8.
N5535 G1 Z-11. F100.
N5540 G0 Z5.
N5545 Z-9.
N5550 G1 Z-12. F100.
N5555 G4 P0.5
N5560 G0 Z5.
N5565 Y620.
N5570 Z2.
N5575 G1 Z-1. F100.
N5580 G0 Z5.
N5585 Z1.
N5590 G1 Z-2. F100.
N5595 G0 Z5.
N5600 Z0.
N5605 G1 Z-3. F100.
N5610 G0 Z5.
N5615 Z-1.
N5620 G1 Z-4. F100.
N5625 G0 Z5.
N5630 Z-2.
N5635 G1 Z-5. F100.
N5640 G0 Z5.
N5645 Z-3.
N5650 G1 Z-6. F100.
N5655 G0 Z5.
N5660 Z-4.
N5665 G1 Z-7. F100.
N5670 G0 Z5.
N5675 Z-5.
N5680 G1 Z-8. F100.
N5685 G0 Z5.
N5690 Z-6.
N5695 G1 Z-9. F100.
N5700 G0 Z5.
N5705 Z-7.
N5710 G1 Z-10. F100.
N5715 G0 Z5.
N5720 Z-8.
N5725 G1 Z-11. F100.
N5730 G0 Z5.
N5735 Z-9.
N5740 G1 Z-12. F100.
N5745 G4 P0.5
N5750 G0 Z5.
N5755 Y820.
N5760 Z2.
N5765 G1 Z-1. F100.
N5770 G0 Z5.
N5775 Z1.
N5780 G1 Z-2. F100.
N5785 G0 Z5.
N5790 Z0.
N5795 G1 Z-3. F100.
N5800 G0 Z5.
N5805 Z-1.
N5810 G1 Z-4. F100.
N5815 G0 Z5.
N5820 Z-2.
N5825 G1 Z-5. F100.
N5830 G0 Z5.
N5835 Z-3.
N5840 G1 Z-6. F100.
N5845 G0 Z5.
N5850 Z-4.
N5855 G1 Z-7. F100.
N5860 G0 Z5.
N5865 Z-5.
N5870 G1 Z-8. F100.
N5875 G0 Z5.
N5880 Z-6.
N5885 G1 Z-9. F100.
N5890 G0 Z5.
N5895 Z-7.
N5900 G1 Z-10. F100.
N5905 G0 Z5.
N5910 Z-8.
N5915 G1 Z-11. F100.
N5920 G0 Z5.
N5925 Z-9.
N5930 G1 Z-12. F100.
N5935 G4 P0.5
N5940 G0 Z5.
N5945 Y1020.
N5950 Z2.
N5955 G1 Z-1. F100.
N5960 G0 Z5.
N5965 Z1.
N5970 G1 Z-2. F100.
N5975 G0 Z5.
N5980 Z0.
N5985 G1 Z-3. F100.
N5990 G0 Z5.
N5995 Z-1.
N6000 G1 Z-4. F100.
N6005 G0 Z5.
N6010 Z-2.
N6015 G1 Z-5. F100.
N6020 G0 Z5.
N6025 Z-3.
N6030 G1 Z-6. F100.
N6035 G0 Z5.
N6040 Z-4.
N6045 G1 Z-7. F100.
N6050 G0 Z5.
N6055 Z-5.
N6060 G1 Z-8. F100.
N6065 G0 Z5.
N6070 Z-6.
N6075 G1 Z-9. F100.
N6080 G0 Z5.
N6085 Z-7.
N6090 G1 Z-10. F100.
N6095 G0 Z5.
N6100 Z-8.
N6105 G1 Z-11. F100.
N6110 G0 Z5.
N6115 Z-9.
N6120 G1 Z-12. F100.
N6125 G4 P0.5
N6130 G0 Z5.
N6135 Y1220.
N6140 Z2.
N6145 G1 Z-1. F100.
N6150 G0 Z5.
N6155 Z1.
N6160 G1 Z-2. F100.
N6165 G0 Z5.
N6170 Z0.
N6175 G1 Z-3. F100.
N6180 G0 Z5.
N6185 Z-1.
N6190 G1 Z-4. F100.
N6195 G0 Z5.
N6200 Z-2.
N6205 G1 Z-5. F100.
N6210 G0 Z5.
N6215 Z-3.
N6220 G1 Z-6. F100.
N6225 G0 Z5.
N6230 Z-4.
N6235 G1 Z-7. F100.
N6240 G0 Z5.
N6245 Z-5.
N6250 G1 Z-8. F100.
N6255 G0 Z5.
N6260 Z-6.
N6265 G1 Z-9. F100.
N6270 G0 Z5.
N6275 Z-7.
N6280 G1 Z-10. F100.
N6285 G0 Z5.
N6290 Z-8.
N6295 G1 Z-11. F100.
N6300 G0 Z5.
N6305 Z-9.
N6310 G1 Z-12. F100.
N6315 G4 P0.5
N6320 G0 Z5.
N6325 Y1420.
N6330 Z2.
N6335 G1 Z-1. F100.
N6340 G0 Z5.
N6345 Z1.
N6350 G1 Z-2. F100.
N6355 G0 Z5.
N6360 Z0.
N6365 G1 Z-3. F100.
N6370 G0 Z5.
N6375 Z-1.
N6380 G1 Z-4. F100.
N6385 G0 Z5.
N6390 Z-2.
N6395 G1 Z-5. F100.
N6400 G0 Z5.
N6405 Z-3.
N6410 G1 Z-6. F100.
N6415 G0 Z5.
N6420 Z-4.
N6425 G1 Z-7. F100.
N6430 G0 Z5.
N6435 Z-5.
N6440 G1 Z-8. F100.
N6445 G0 Z5.
N6450 Z-6.
N6455 G1 Z-9. F100.
N6460 G0 Z5.
N6465 Z-7.
N6470 G1 Z-10. F100.
N6475 G0 Z5.
N6480 Z-8.
N6485 G1 Z-11. F100.
N6490 G0 Z5.
N6495 Z-9.
N6500 G1 Z-12. F100.
N6505 G4 P0.5
N6510 G0 Z5.
N6515 Y1620.
N6520 Z2.
N6525 G1 Z-1. F100.
N6530 G0 Z5.
N6535 Z1.
N6540 G1 Z-2. F100.
N6545 G0 Z5.
N6550 Z0.
N6555 G1 Z-3. F100.
N6560 G0 Z5.
N6565 Z-1.
N6570 G1 Z-4. F100.
N6575 G0 Z5.
N6580 Z-2.
N6585 G1 Z-5. F100.
N6590 G0 Z5.
N6595 Z-3.
N6600 G1 Z-6. F100.
N6605 G0 Z5.
N6610 Z-4.
N6615 G1 Z-7. F100.
N6620 G0 Z5.
N6625 Z-5.
N6630 G1 Z-8. F100.
N6635 G0 Z5.
N6640 Z-6.
N6645 G1 Z-9. F100.
N6650 G0 Z5.
N6655 Z-7.
N6660 G1 Z-10. F100.
N6665 G0 Z5.
N6670 Z-8.
N6675 G1 Z-11. F100.
N6680 G0 Z5.
N6685 Z-9.
N6690 G1 Z-12. F100.
N6695 G4 P0.5
N6700 G0 Z5.
N6705 Y1820.
N6710 Z2.
N6715 G1 Z-1. F100.
N6720 G0 Z5.
N6725 Z1.
N6730 G1 Z-2. F100.
N6735 G0 Z5.
N6740 Z0.
N6745 G1 Z-3. F100.
N6750 G0 Z5.
N6755 Z-1.
N6760 G1 Z-4. F100.
N6765 G0 Z5.
N6770 Z-2.
N6775 G1 Z-5. F100.
N6780 G0 Z5.
N6785 Z-3.
N6790 G1 Z-6. F100.
N6795 G0 Z5.
N6800 Z-4.
N6805 G1 Z-7. F100.
N6810 G0 Z5.
N6815 Z-5.
N6820 G1 Z-8. F100.
N6825 G0 Z5.
N6830 Z-6.
N6835 G1 Z-9. F100.
N6840 G0 Z5.
N6845 Z-7.
N6850 G1 Z-10. F100.
N6855 G0 Z5.
N6860 Z-8.
N6865 G1 Z-11. F100.
N6870 G0 Z5.
N6875 Z-9.
N6880 G1 Z-12. F100.
N6885 G4 P0.5
N6890 G0 Z5.
N6895 Y2020.
N6900 Z2.
N6905 G1 Z-1. F100.
N6910 G0 Z5.
N6915 Z1.
N6920 G1 Z-2. F100.
N6925 G0 Z5.
N6930 Z0.
N6935 G1 Z-3. F100.
N6940 G0 Z5.
N6945 Z-1.
N6950 G1 Z-4. F100.
N6955 G0 Z5.
N6960 Z-2.
N6965 G1 Z-5. F100.
N6970 G0 Z5.
N6975 Z-3.
N6980 G1 Z-6. F100.
N6985 G0 Z5.
N6990 Z-4.
N6995 G1 Z-7. F100.
N7000 G0 Z5.
N7005 Z-5.
N7010 G1 Z-8. F100.
N7015 G0 Z5.
N7020 Z-6.
N7025 G1 Z-9. F100.
N7030 G0 Z5.
N7035 Z-7.
N7040 G1 Z-10. F100.
N7045 G0 Z5.
N7050 Z-8.
N7055 G1 Z-11. F100.
N7060 G0 Z5.
N7065 Z-9.
N7070 G1 Z-12. F100.
N7075 G4 P0.5
N7080 G0 Z5.
N7085 Y2220.
N7090 Z2.
N7095 G1 Z-1. F100.
N7100 G0 Z5.
N7105 Z1.
N7110 G1 Z-2. F100.
N7115 G0 Z5.
N7120 Z0.
N7125 G1 Z-3. F100.
N7130 G0 Z5.
N7135 Z-1.
N7140 G1 Z-4. F100.
N7145 G0 Z5.
N7150 Z-2.
N7155 G1 Z-5. F100.
N7160 G0 Z5.
N7165 Z-3.
N7170 G1 Z-6. F100.
N7175 G0 Z5.
N7180 Z-4.
N7185 G1 Z-7. F100.
N7190 G0 Z5.
N7195 Z-5.
N7200 G1 Z-8. F100.
N7205 G0 Z5.
N7210 Z-6.
N7215 G1 Z-9. F100.
N7220 G0 Z5.
N7225 Z-7.
N7230 G1 Z-10. F100.
N7235 G0 Z5.
N7240 Z-8.
N7245 G1 Z-11. F100.
N7250 G0 Z5.
N7255 Z-9.
N7260 G1 Z-12. F100.
N7265 G4 P0.5
N7270 G0 Z5.
N7275 Y2420.
N7280 Z2.
N7285 G1 Z-1. F100.
N7290 G0 Z5.
N7295 Z1.
N7300 G1 Z-2. F100.
N7305 G0 Z5.
N7310 Z0.
N7315 G1 Z-3. F100.
N7320 G0 Z5.
N7325 Z-1.
N7330 G1 Z-4. F100.
N7335 G0 Z5.
N7340 Z-2.
N7345 G1 Z-5. F100.
N7350 G0 Z5.
N7355 Z-3.
N7360 G1 Z-6. F100.
N7365 G0 Z5.
N7370 Z-4.
N7375 G1 Z-7. F100.
N7380 G0 Z5.
N7385 Z-5.
N7390 G1 Z-8. F100.
N7395 G0 Z5.
N7400 Z-6.
N7405 G1 Z-9. F100.
N7410 G0 Z5.
N7415 Z-7.
N7420 G1 Z-10. F100.
N7425 G0 Z5.
N7430 Z-8.
N7435 G1 Z-11. F100.
N7440 G0 Z5.
N7445 Z-9.
N7450 G1 Z-12. F100.
N7455 G4 P0.5
N7460 G0 Z5.
N7465 X100.
N7470 Z2.
N7475 G1 Z-1. F100.
N7480 G0 Z5.
N7485 Z1.
N7490 G1 Z-2. F100.
N7495 G0 Z5.
N7500 Z0.
N7505 G1 Z-3. F100.
N7510 G0 Z5.
N7515 Z-1.
N7520 G1 Z-4. F100.
N7525 G0 Z5.
N7530 Z-2.
N7535 G1 Z-5. F100.
N7540 G0 Z5.
N7545 Z-3.
N7550 G1 Z-6. F100.
N7555 G0 Z5.
N7560 Z-4.
N7565 G1 Z-7. F100.
N7570 G0 Z5.
N7575 Z-5.
N7580 G1 Z-8. F100.
N7585 G0 Z5.
N7590 Z-6.
N7595 G1 Z-9. F100.
N7600 G0 Z5.
N7605 Z-7.
N7610 G1 Z-10. F100.
N7615 G0 Z5.
N7620 Z-8.
N7625 G1 Z-11. F100.
N7630 G0 Z5.
N7635 Z-9.
N7640 G1 Z-12. F100.
N7645 G4 P0.5
N7650 G0 Z5.
N7655 Y2220.
N7660 Z2.
N7665 G1 Z-1. F100.
N7670 G0 Z5.
N7675 Z1.
N7680 G1 Z-2. F100.
N7685 G0 Z5.
N7690 Z0.
N7695 G1 Z-3. F100.
N7700 G0 Z5.
N7705 Z-1.
N7710 G1 Z-4. F100.
N7715 G0 Z5.
N7720 Z-2.
N7725 G1 Z-5. F100.
N7730 G0 Z5.
N7735 Z-3.
N7740 G1 Z-6. F100.
N7745 G0 Z5.
N7750 Z-4.
N7755 G1 Z-7. F100.
N7760 G0 Z5.
N7765 Z-5.
N7770 G1 Z-8. F100.
N7775 G0 Z5.
N7780 Z-6.
N7785 G1 Z-9. F100.
N7790 G0 Z5.
N7795 Z-7.
N7800 G1 Z-10. F100.
N7805 G0 Z5.
N7810 Z-8.
N7815 G1 Z-11. F100.
N7820 G0 Z5.
N7825 Z-9.
N7830 G1 Z-12. F100.
N7835 G4 P0.5
N7840 G0 Z5.
N7845 Y2020.
N7850 Z2.
N7855 G1 Z-1. F100.
N7860 G0 Z5.
N7865 Z1.
N7870 G1 Z-2. F100.
N7875 G0 Z5.
N7880 Z0.
N7885 G1 Z-3. F100.
N7890 G0 Z5.
N7895 Z-1.
N7900 G1 Z-4. F100.
N7905 G0 Z5.
N7910 Z-2.
N7915 G1 Z-5. F100.
N7920 G0 Z5.
N7925 Z-3.
N7930 G1 Z-6. F100.
N7935 G0 Z5.
N7940 Z-4.
N7945 G1 Z-7. F100.
N7950 G0 Z5.
N7955 Z-5.
N7960 G1 Z-8. F100.
N7965 G0 Z5.
N7970 Z-6.
N7975 G1 Z-9. F100.
N7980 G0 Z5.
N7985 Z-7.
N7990 G1 Z-10. F100.
N7995 G0 Z5.
N8000 Z-8.
N8005 G1 Z-11. F100.
N8010 G0 Z5.
N8015 Z-9.
N8020 G1 Z-12. F100.
N8025 G4 P0.5
N8030 G0 Z5.
N8035 Y1820.
N8040 Z2.
N8045 G1 Z-1. F100.
N8050 G0 Z5.
N8055 Z1.
N8060 G1 Z-2. F100.
N8065 G0 Z5.
N8070 Z0.
N8075 G1 Z-3. F100.
N8080 G0 Z5.
N8085 Z-1.
N8090 G1 Z-4. F100.
N8095 G0 Z5.
N8100 Z-2.
N8105 G1 Z-5. F100.
N8110 G0 Z5.
N8115 Z-3.
N8120 G1 Z-6. F100.
N8125 G0 Z5.
N8130 Z-4.
N8135 G1 Z-7. F100.
N8140 G0 Z5.
N8145 Z-5.
N8150 G1 Z-8. F100.
N8155 G0 Z5.
N8160 Z-6.
N8165 G1 Z-9. F100.
N8170 G0 Z5.
N8175 Z-7.
N8180 G1 Z-10. F100.
N8185 G0 Z5.
N8190 Z-8.
N8195 G1 Z-11. F100.
N8200 G0 Z5.
N8205 Z-9.
N8210 G1 Z-12. F100.
N8215 G4 P0.5
N8220 G0 Z5.
N8225 Y1620.
N8230 Z2.
N8235 G1 Z-1. F100.
N8240 G0 Z5.
N8245 Z1.
N8250 G1 Z-2. F100.
N8255 G0 Z5.
N8260 Z0.
N8265 G1 Z-3. F100.
N8270 G0 Z5.
N8275 Z-1.
N8280 G1 Z-4. F100.
N8285 G0 Z5.
N8290 Z-2.
N8295 G1 Z-5. F100.
N8300 G0 Z5.
N8305 Z-3.
N8310 G1 Z-6. F100.
N8315 G0 Z5.
N8320 Z-4.
N8325 G1 Z-7. F100.
N8330 G0 Z5.
N8335 Z-5.
N8340 G1 Z-8. F100.
N8345 G0 Z5.
N8350 Z-6.
N8355 G1 Z-9. F100.
N8360 G0 Z5.
N8365 Z-7.
N8370 G1 Z-10. F100.
N8375 G0 Z5.
N8380 Z-8.
N8385 G1 Z-11. F100.
N8390 G0 Z5.
N8395 Z-9.
N8400 G1 Z-12. F100.
N8405 G4 P0.5
N8410 G0 Z5.
N8415 Y1420.
N8420 Z2.
N8425 G1 Z-1. F100.
N8430 G0 Z5.
N8435 Z1.
N8440 G1 Z-2. F100.
N8445 G0 Z5.
N8450 Z0.
N8455 G1 Z-3. F100.
N8460 G0 Z5.
N8465 Z-1.
N8470 G1 Z-4. F100.
N8475 G0 Z5.
N8480 Z-2.
N8485 G1 Z-5. F100.
N8490 G0 Z5.
N8495 Z-3.
N8500 G1 Z-6. F100.
N8505 G0 Z5.
N8510 Z-4.
N8515 G1 Z-7. F100.
N8520 G0 Z5.
N8525 Z-5.
N8530 G1 Z-8. F100.
N8535 G0 Z5.
N8540 Z-6.
N8545 G1 Z-9. F100.
N8550 G0 Z5.
N8555 Z-7.
N8560 G1 Z-10. F100.
N8565 G0 Z5.
N8570 Z-8.
N8575 G1 Z-11. F100.
N8580 G0 Z5.
N8585 Z-9.
N8590 G1 Z-12. F100.
N8595 G4 P0.5
N8600 G0 Z5.
N8605 Y1220.
N8610 Z2.
N8615 G1 Z-1. F100.
N8620 G0 Z5.
N8625 Z1.
N8630 G1 Z-2. F100.
N8635 G0 Z5.
N8640 Z0.
N8645 G1 Z-3. F100.
N8650 G0 Z5.
N8655 Z-1.
N8660 G1 Z-4. F100.
N8665 G0 Z5.
N8670 Z-2.
N8675 G1 Z-5. F100.
N8680 G0 Z5.
N8685 Z-3.
N8690 G1 Z-6. F100.
N8695 G0 Z5.
N8700 Z-4.
N8705 G1 Z-7. F100.
N8710 G0 Z5.
N8715 Z-5.
N8720 G1 Z-8. F100.
N8725 G0 Z5.
N8730 Z-6.
N8735 G1 Z-9. F100.
N8740 G0 Z5.
N8745 Z-7.
N8750 G1 Z-10. F100.
N8755 G0 Z5.
N8760 Z-8.
N8765 G1 Z-11. F100.
N8770 G0 Z5.
N8775 Z-9.
N8780 G1 Z-12. F100.
N8785 G4 P0.5
N8790 G0 Z5.
N8795 Y1020.
N8800 Z2.
N8805 G1 Z-1. F100.
N8810 G0 Z5.
N8815 Z1.
N8820 G1 Z-2. F100.
N8825 G0 Z5.
N8830 Z0.
N8835 G1 Z-3. F100.
N8840 G0 Z5.
N8845 Z-1.
N8850 G1 Z-4. F100.
N8855 G0 Z5.
N8860 Z-2.
N8865 G1 Z-5. F100.
N8870 G0 Z5.
N8875 Z-3.
N8880 G1 Z-6. F100.
N8885 G0 Z5.
N8890 Z-4.
N8895 G1 Z-7. F100.
N8900 G0 Z5.
N8905 Z-5.
N8910 G1 Z-8. F100.
N8915 G0 Z5.
N8920 Z-6.
N8925 G1 Z-9. F100.
N8930 G0 Z5.
N8935 Z-7.
N8940 G1 Z-10. F100.
N8945 G0 Z5.
N8950 Z-8.
N8955 G1 Z-11. F100.
N8960 G0 Z5.
N8965 Z-9.
N8970 G1 Z-12. F100.
N8975 G4 P0.5
N8980 G0 Z5.
N8985 Y820.
N8990 Z2.
N8995 G1 Z-1. F100.
N9000 G0 Z5.
N9005 Z1.
N9010 G1 Z-2. F100.
N9015 G0 Z5.
N9020 Z0.
N9025 G1 Z-3. F100.
N9030 G0 Z5.
N9035 Z-1.
N9040 G1 Z-4. F100.
N9045 G0 Z5.
N9050 Z-2.
N9055 G1 Z-5. F100.
N9060 G0 Z5.
N9065 Z-3.
N9070 G1 Z-6. F100.
N9075 G0 Z5.
N9080 Z-4.
N9085 G1 Z-7. F100.
N9090 G0 Z5.
N9095 Z-5.
N9100 G1 Z-8. F100.
N9105 G0 Z5.
N9110 Z-6.
N9115 G1 Z-9. F100.
N9120 G0 Z5.
N9125 Z-7.
N9130 G1 Z-10. F100.
N9135 G0 Z5.
N9140 Z-8.
N9145 G1 Z-11. F100.
N9150 G0 Z5.
N9155 Z-9.
N9160 G1 Z-12. F100.
N9165 G4 P0.5
N9170 G0 Z5.
N9175 Y620.
N9180 Z2.
N9185 G1 Z-1. F100.
N9190 G0 Z5.
N9195 Z1.
N9200 G1 Z-2. F100.
N9205 G0 Z5.
N9210 Z0.
N9215 G1 Z-3. F100.
N9220 G0 Z5.
N9225 Z-1.
N9230 G1 Z-4. F100.
N9235 G0 Z5.
N9240 Z-2.
N9245 G1 Z-5. F100.
N9250 G0 Z5.
N9255 Z-3.
N9260 G1 Z-6. F100.
N9265 G0 Z5.
N9270 Z-4.
N9275 G1 Z-7. F100.
N9280 G0 Z5.
N9285 Z-5.
N9290 G1 Z-8. F100.
N9295 G0 Z5.
N9300 Z-6.
N9305 G1 Z-9. F100.
N9310 G0 Z5.
N9315 Z-7.
N9320 G1 Z-10. F100.
N9325 G0 Z5.
N9330 Z-8.
N9335 G1 Z-11. F100.
N9340 G0 Z5.
N9345 Z-9.
N9350 G1 Z-12. F100.
N9355 G4 P0.5
N9360 G0 Z5.
N9365 Y420.
N9370 Z2.
N9375 G1 Z-1. F100.
N9380 G0 Z5.
N9385 Z1.
N9390 G1 Z-2. F100.
N9395 G0 Z5.
N9400 Z0.
N9405 G1 Z-3. F100.
N9410 G0 Z5.
N9415 Z-1.
N9420 G1 Z-4. F100.
N9425 G0 Z5.
N9430 Z-2.
N9435 G1 Z-5. F100.
N9440 G0 Z5.
N9445 Z-3.
N9450 G1 Z-6. F100.
N9455 G0 Z5.
N9460 Z-4.
N9465 G1 Z-7. F100.
N9470 G0 Z5.
N9475 Z-5.
N9480 G1 Z-8. F100.
N9485 G0 Z5.
N9490 Z-6.
N9495 G1 Z-9. F100.
N9500 G0 Z5.
N9505 Z-7.
N9510 G1 Z-10. F100.
N9515 G0 Z5.
N9520 Z-8.
N9525 G1 Z-11. F100.
N9530 G0 Z5.
N9535 Z-9.
N9540 G1 Z-12. F100.
N9545 G4 P0.5
N9550 G0 Z5.
N9555 Y220.
N9560 Z2.
N9565 G1 Z-1. F100.
N9570 G0 Z5.
N9575 Z1.
N9580 G1 Z-2. F100.
N9585 G0 Z5.
N9590 Z0.
N9595 G1 Z-3. F100.
N9600 G0 Z5.
N9605 Z-1.
N9610 G1 Z-4. F100.
N9615 G0 Z5.
N9620 Z-2.
N9625 G1 Z-5. F100.
N9630 G0 Z5.
N9635 Z-3.
N9640 G1 Z-6. F100.
N9645 G0 Z5.
N9650 Z-4.
N9655 G1 Z-7. F100.
N9660 G0 Z5.
N9665 Z-5.
N9670 G1 Z-8. F100.
N9675 G0 Z5.
N9680 Z-6.
N9685 G1 Z-9. F100.
N9690 G0 Z5.
N9695 Z-7.
N9700 G1 Z-10. F100.
N9705 G0 Z5.
N9710 Z-8.
N9715 G1 Z-11. F100.
N9720 G0 Z5.
N9725 Z-9.
N9730 G1 Z-12. F100.
N9735 G4 P0.5
N9740 G0 Z5.
N9745 Y20.
N9750 Z2.
N9755 G1 Z-1. F100.
N9760 G0 Z5.
N9765 Z1.
N9770 G1 Z-2. F100.
N9775 G0 Z5.
N9780 Z0.
N9785 G1 Z-3. F100.
N9790 G0 Z5.
N9795 Z-1.
N9800 G1 Z-4. F100.
N9805 G0 Z5.
N9810 Z-2.
N9815 G1 Z-5. F100.
N9820 G0 Z5.
N9825 Z-3.
N9830 G1 Z-6. F100.
N9835 G0 Z5.
N9840 Z-4.
N9845 G1 Z-7. F100.
N9850 G0 Z5.
N9855 Z-5.
N9860 G1 Z-8. F100.
N9865 G0 Z5.
N9870 Z-6.
N9875 G1 Z-9. F100.
N9880 G0 Z5.
N9885 Z-7.
N9890 G1 Z-10. F100.
N9895 G0 Z5.
N9900 Z-8.
N9905 G1 Z-11. F100.
N9910 G0 Z5.
N9915 Z-9.
N9920 G1 Z-12. F100.
N9925 G4 P0.5
N9930 G0 Z5.
N9935 Z15.
N9940 G53 Z0.
N9945 M30
%
