%
(POCKET CLEARING)
(T1  D=6. CR=0. - ZMIN=-3. - FLAT END MILL)
N10 G90 G94 G17 G91.1
N15 G21
N20 G53 G0 Z0.
(2D POCKET6)
N25 M9
N30 T1 M6
N35 S22000 M3
N40 G54
N45 G0 X58.161 Y174.968
N50 G43 Z15. H1
N55 G0 Z5.
N60 G1 Z3.1 F300.
N65 X58.17 Y174.95 Z2.948 F150.
N70 X58.195 Y174.899 Z2.806
N75 X58.238 Y174.818 Z2.683
N80 X58.298 Y174.715 Z2.587
N85 X58.374 Y174.597 Z2.525
N90 X58.462 Y174.475 Z2.5
N95 G3 X63.001 Y177.923 Z2.187 I2.269 J1.724
N100 X58.462 Y174.475 Z1.875 I-2.269 J-1.724
N105 X63.001 Y177.923 Z1.562 I2.269 J1.724
N110 X58.462 Y174.475 Z1.249 I-2.269 J-1.724
N115 X63.001 Y177.923 Z0.937 I2.269 J1.724
N120 X58.462 Y174.475 Z0.624 I-2.269 J-1.724
N125 X63.001 Y177.923 Z0.311 I2.269 J1.724
N130 X58.462 Y174.475 Z-0.001 I-2.269 J-1.724
N135 X63.001 Y177.923 Z-0.314 I2.269 J1.724
N140 X58.462 Y174.475 Z-0.627 I-2.269 J-1.724
N145 X63.001 Y177.923 Z-0.939 I2.269 J1.724
N150 X58.462 Y174.475 Z-1.252 I-2.269 J-1.724
N155 X63.582 Y176.199 Z-1.5 I2.269 J1.724
N160 G2 X73.042 Y215.534 I86.439 J0.017 F1200.
N165 X154.284 Y262.521 I77.074 J-39.534
N170 X216.015 Y231.983 I-4.29 J-86.335
N175 X235.267 Y162.077 I-66.407 J-55.892
N180 X171.639 Y92.523 I-85.075 J13.947
N185 X63.582 Y176.199 I-21.618 J83.693
N190 X64.708 Y177.875 I1.809 J0.
N195 G3 X65.868 Y179.528 I-0.704 J1.727
N200 G2 X90.192 Y235.395 I83.992 J-3.34
N205 X233.999 Y181.234 I59.788 J-59.251
N210 X169.389 Y94.313 I-84.124 J-4.942
N215 X100.513 Y108.138 I-19.477 J81.45
N220 X65.868 Y179.528 I49.347 J68.049
N225 X69.003 Y183.756 I4.669 J-0.186
N230 G3 X72.363 Y187.807 I-1.669 J4.803
N235 G2 X150. Y254.699 I77.637 J-11.608
N240 G1 X150.196
N245 G2 X228.5 Y176.199 I-0.196 J-78.5
N250 X144.18 Y97.915 I-78.5 J0.
N255 X72.363 Y187.807 I5.82 J78.284
N260 G3 X72.106 Y188.149 I-0.297 J0.044
N265 G1 X62.749 Y189.405
N270 G3 X62.413 Y189.151 I-0.04 J-0.297
N275 X102.892 Y101.194 I87.641 J-12.96
N280 X231.594 Y141.74 I47.07 J75.127
N285 X229.301 Y215.649 I-81.146 J34.473
N290 X217.615 Y233.411 I-78.56 J-38.962
N295 X125.583 Y261.339 I-67.706 J-57.51
N300 X62.413 Y189.151 I24.471 J-85.147
N305 G2 X61.04 Y187.62 I-1.844 J0.273
N310 G3 X59.698 Y186.063 I0.459 J-1.753
N315 X140.738 Y85.822 I90.386 J-9.806
N320 X150. Y85.349 I9.11 J87.435
N325 X240.85 Y176.466 I0. J90.85
N330 X186.201 Y259.525 I-91.068 J-0.411
N335 X62.16 Y199.391 I-36.248 J-83.229
N340 X59.698 Y186.063 I87.924 J-23.134
N345 G2 X56.524 Y182.2 I-4.536 J0.492
N350 G3 X53.521 Y178.203 I1.278 J-4.086
N355 X148.998 Y79.704 I96.479 J-2.004
N360 X246.5 Y176.199 I1.002 J96.495
N365 G1 Y176.395
N370 G3 X150. Y272.699 I-96.5 J-0.196
N375 X53.521 Y178.203 I0. J-96.5
N380 X53.819 Y177.897 I0.3 J-0.006
N385 G1 X60.404 Y177.863
N390 X60.446
N395 X60.488 Y177.868
N400 X66.47 Y179.119
N405 G3 X66.654 Y179.586 I-0.061 J0.294
N410 X62.001 Y176.293 Z-1.813 I-2.326 J-1.646 F150.
N415 X66.654 Y179.586 Z-2.125 I2.326 J1.646
N420 X62.001 Y176.293 Z-2.438 I-2.326 J-1.646
N425 X66.654 Y179.586 Z-2.751 I2.326 J1.646
N430 X61.478 Y177.997 Z-3. I-2.326 J-1.646
N435 X102.892 Y101.194 I88.576 J-1.806 F1200.
N440 X231.594 Y141.74 I47.07 J75.127
N445 X229.301 Y215.649 I-81.146 J34.473
N450 X217.615 Y233.411 I-78.56 J-38.962
N455 X125.583 Y261.339 I-67.706 J-57.51
N460 X61.478 Y177.997 I24.471 J-85.147
N465 G2 X60.314 Y176.312 I-1.857 J0.038
N470 G3 X59.183 Y174.604 I0.673 J-1.675
N475 X140.738 Y85.822 I90.902 J1.653
N480 X150. Y85.349 I9.11 J87.435
N485 X240.85 Y176.466 I0. J90.85
N490 X186.201 Y259.525 I-91.068 J-0.411
N495 X62.16 Y199.391 I-36.248 J-83.229
N500 X59.183 Y174.604 I87.924 J-23.134
N505 G2 X56.517 Y170.367 I-4.568 J-0.083
N510 G3 X54.039 Y166.017 I1.785 J-3.898
N515 X246.5 Y176.199 I95.961 J10.182
N520 G1 Y176.395
N525 G3 X150. Y272.699 I-96.5 J-0.196
N530 X54.039 Y166.017 I0. J-96.5
N535 X54.367 Y165.751 I0.298 J0.032
N540 G1 X63.802 Y166.71
N545 G3 X64.07 Y167.04 I-0.03 J0.298
N550 G2 X73.042 Y215.534 I85.951 J9.176
N555 X154.284 Y262.521 I77.074 J-39.534
N560 X216.015 Y231.983 I-4.29 J-86.335
N565 X235.267 Y162.077 I-66.407 J-55.892
N570 X171.639 Y92.523 I-85.075 J13.947
N575 X64.07 Y167.04 I-21.618 J83.693
N580 X65.011 Y168.824 I1.797 J0.192
N585 G3 X65.988 Y170.589 I-0.882 J1.641
N590 G2 X90.192 Y235.395 I83.872 J5.599
N595 X233.999 Y181.234 I59.788 J-59.251
N600 X169.389 Y94.313 I-84.124 J-4.942
N605 X100.513 Y108.138 I-19.477 J81.45
N610 X65.988 Y170.589 I49.347 J68.049
N615 X68.657 Y175.126 I4.663 J0.311
N620 G3 X71.57 Y179.512 I-2.169 J4.601
N625 G2 X150. Y254.699 I78.43 J-3.313
N630 G1 X150.196
N635 G2 X228.5 Y176.199 I-0.196 J-78.5
N640 X148.343 Y97.716 I-78.5 J0.
N645 X71.57 Y179.512 I1.657 J78.483
N650 G1 X71.569 Y179.579 Z-2.992 F300.
N655 X71.561 Y179.645 Z-2.985
N660 X71.546 Y179.707 Z-2.963
N665 X71.525 Y179.767 Z-2.941
N670 X71.501 Y179.818 Z-2.905
N675 X71.472 Y179.867 Z-2.869
N680 X71.414 Y179.942 Z-2.774
N685 X71.363 Y179.992 Z-2.66
N690 X71.328 Y180.02 Z-2.534
N695 X71.316 Y180.028 Z-2.4
N700 G0 Z15.
N705 X58.161 Y174.968
N710 Z5.
N715 G1 Z3.1 F300.
N720 X58.17 Y174.95 Z2.948 F150.
N725 X58.195 Y174.899 Z2.806
N730 X58.238 Y174.818 Z2.683
N735 X58.298 Y174.715 Z2.587
N740 X58.374 Y174.597 Z2.525
N745 X58.462 Y174.475 Z2.5
N750 G3 X63.001 Y177.923 Z2.187 I2.269 J1.724
N755 X58.462 Y174.475 Z1.875 I-2.269 J-1.724
N760 X63.001 Y177.923 Z1.562 I2.269 J1.724
N765 X58.462 Y174.475 Z1.249 I-2.269 J-1.724
N770 X63.001 Y177.923 Z0.937 I2.269 J1.724
N775 X58.462 Y174.475 Z0.624 I-2.269 J-1.724
N780 X63.001 Y177.923 Z0.311 I2.269 J1.724
N785 X58.462 Y174.475 Z-0.001 I-2.269 J-1.724
N790 X63.001 Y177.923 Z-0.314 I2.269 J1.724
N795 X58.462 Y174.475 Z-0.627 I-2.269 J-1.724
N800 X63.001 Y177.923 Z-0.939 I2.269 J1.724
N805 X58.462 Y174.475 Z-1.252 I-2.269 J-1.724
N810 X63.582 Y176.199 Z-1.5 I2.269 J1.724
N815 G2 X73.042 Y215.534 I86.439 J0.017 F1200.
N820 X154.284 Y262.521 I77.074 J-39.534
N825 X216.015 Y231.983 I-4.29 J-86.335
N830 X235.267 Y162.077 I-66.407 J-55.892
N835 X171.639 Y92.523 I-85.075 J13.947
N840 X63.582 Y176.199 I-21.618 J83.693
N845 X64.708 Y177.875 I1.809 J0.
N850 G3 X65.868 Y179.528 I-0.704 J1.727
N855 G2 X90.192 Y235.395 I83.992 J-3.34
N860 X233.999 Y181.234 I59.788 J-59.251
N865 X169.389 Y94.313 I-84.124 J-4.942
N870 X100.513 Y108.138 I-19.477 J81.45
N875 X65.868 Y179.528 I49.347 J68.049
N880 X69.003 Y183.756 I4.669 J-0.186
N885 G3 X72.363 Y187.807 I-1.669 J4.803
N890 G2 X150. Y254.699 I77.637 J-11.608
N895 G1 X150.196
N900 G2 X228.5 Y176.199 I-0.196 J-78.5
N905 X144.18 Y97.915 I-78.5 J0.
N910 X72.363 Y187.807 I5.82 J78.284
N915 G3 X72.106 Y188.149 I-0.297 J0.044
N920 G1 X62.749 Y189.405
N925 G3 X62.413 Y189.151 I-0.04 J-0.297
N930 X102.892 Y101.194 I87.641 J-12.96
N935 X231.594 Y141.74 I47.07 J75.127
N940 X229.301 Y215.649 I-81.146 J34.473
N945 X217.615 Y233.411 I-78.56 J-38.962
N950 X125.583 Y261.339 I-67.706 J-57.51
N955 X62.413 Y189.151 I24.471 J-85.147
N960 G2 X61.04 Y187.62 I-1.844 J0.273
N965 G3 X59.698 Y186.063 I0.459 J-1.753
N970 X140.738 Y85.822 I90.386 J-9.806
N975 X150. Y85.349 I9.11 J87.435
N980 X240.85 Y176.466 I0. J90.85
N985 X186.201 Y259.525 I-91.068 J-0.411
N990 X62.16 Y199.391 I-36.248 J-83.229
N995 X59.698 Y186.063 I87.924 J-23.134
N1000 G2 X56.524 Y182.2 I-4.536 J0.492
N1005 G3 X53.521 Y178.203 I1.278 J-4.086
N1010 X148.998 Y79.704 I96.479 J-2.004
N1015 X246.5 Y176.199 I1.002 J96.495
N1020 G1 Y176.395
N1025 G3 X150. Y272.699 I-96.5 J-0.196
N1030 X53.521 Y178.203 I0. J-96.5
N1035 X53.819 Y177.897 I0.3 J-0.006
N1040 G1 X60.404 Y177.863
N1045 X60.446
N1050 X60.488 Y177.868
N1055 X66.47 Y179.119
N1060 G3 X66.654 Y179.586 I-0.061 J0.294
N1065 X62.001 Y176.293 Z-1.813 I-2.326 J-1.646 F150.
N1070 X66.654 Y179.586 Z-2.125 I2.326 J1.646
N1075 X62.001 Y176.293 Z-2.438 I-2.326 J-1.646
N1080 X66.654 Y179.586 Z-2.751 I2.326 J1.646
N1085 X61.478 Y177.997 Z-3. I-2.326 J-1.646
N1090 X102.892 Y101.194 I88.576 J-1.806 F1200.
N1095 X231.594 Y141.74 I47.07 J75.127
N1100 X229.301 Y215.649 I-81.146 J34.473
N1105 X217.615 Y233.411 I-78.56 J-38.962
N1110 X125.583 Y261.339 I-67.706 J-57.51
N1115 X61.478 Y177.997 I24.471 J-85.147
N1120 G2 X60.314 Y176.312 I-1.857 J0.038
N1125 G3 X59.183 Y174.604 I0.673 J-1.675
N1130 X140.738 Y85.822 I90.902 J1.653
N1135 X150. Y85.349 I9.11 J87.435
N1140 X240.85 Y176.466 I0. J90.85
N1145 X186.201 Y259.525 I-91.068 J-0.411
N1150 X62.16 Y199.391 I-36.248 J-83.229
N1155 X59.183 Y174.604 I87.924 J-23.134
N1160 G2 X56.517 Y170.367 I-4.568 J-0.083
N1165 G3 X54.039 Y166.017 I1.785 J-3.898
N1170 X246.5 Y176.199 I95.961 J10.182
N1175 G1 Y176.395
N1180 G3 X150. Y272.699 I-96.5 J-0.196
N1185 X54.039 Y166.017 I0. J-96.5
N1190 X54.367 Y165.751 I0.298 J0.032
N1195 G1 X63.802 Y166.71
N1200 G3 X64.07 Y167.04 I-0.03 J0.298
N1205 G2 X73.042 Y215.534 I85.951 J9.176
N1210 X154.284 Y262.521 I77.074 J-39.534
N1215 X216.015 Y231.983 I-4.29 J-86.335
N1220 X235.267 Y162.077 I-66.407 J-55.892
N1225 X171.639 Y92.523 I-85.075 J13.947
N1230 X64.07 Y167.04 I-21.618 J83.693
N1235 X65.011 Y168.824 I1.797 J0.192
N1240 G3 X65.988 Y170.589 I-0.882 J1.641
N1245 G2 X90.192 Y235.395 I83.872 J5.599
N1250 X233.999 Y181.234 I59.788 J-59.251
N1255 X169.389 Y94.313 I-84.124 J-4.942
N1260 X100.513 Y108.138 I-19.477 J81.45
N1265 X65.988 Y170.589 I49.347 J68.049
N1270 X68.657 Y175.126 I4.663 J0.311
N1275 G3 X71.57 Y179.512 I-2.169 J4.601
N1280 G2 X150. Y254.699 I78.43 J-3.313
N1285 G1 X150.196
N1290 G2 X228.5 Y176.199 I-0.196 J-78.5
N1295 X148.343 Y97.716 I-78.5 J0.
N1300 X71.57 Y179.512 I1.657 J78.483
N1305 G1 X71.569 Y179.579 Z-2.992 F300.
N1310 X71.561 Y179.645 Z-2.985
N1315 X71.546 Y179.707 Z-2.963
N1320 X71.525 Y179.767 Z-2.941
N1325 X71.501 Y179.818 Z-2.905
N1330 X71.472 Y179.867 Z-2.869
N1335 X71.414 Y179.942 Z-2.774
N1340 X71.363 Y179.992 Z-2.66
N1345 X71.328 Y180.02 Z-2.534
N1350 X71.316 Y180.028 Z-2.4
N1355 G0 Z15.
N1360 X191.813 Y177.431
N1365 Z5.
N1370 G1 Z3.1 F300.
N1375 X191.805 Y177.449 Z2.948 F150.
N1380 X191.779 Y177.5 Z2.806
N1385 X191.736 Y177.581 Z2.683
N1390 X191.676 Y177.684 Z2.587
N1395 X191.6 Y177.802 Z2.525
N1400 X191.512 Y177.924 Z2.5
N1405 G3 X186.974 Y174.475 Z2.187 I-2.269 J-1.725
N1410 X191.512 Y177.924 Z1.875 I2.269 J1.725
N1415 X186.974 Y174.475 Z1.562 I-2.269 J-1.725
N1420 X191.512 Y177.924 Z1.249 I2.269 J1.725
N1425 X186.974 Y174.475 Z0.937 I-2.269 J-1.725
N1430 X191.512 Y177.924 Z0.624 I2.269 J1.725
N1435 X186.974 Y174.475 Z0.311 I-2.269 J-1.725
N1440 X191.512 Y177.924 Z-0.001 I2.269 J1.725
N1445 X186.974 Y174.475 Z-0.314 I-2.269 J-1.725
N1450 X191.512 Y177.924 Z-0.627 I2.269 J1.725
N1455 X186.974 Y174.475 Z-0.939 I-2.269 J-1.725
N1460 X191.512 Y177.924 Z-1.252 I2.269 J1.725
N1465 X186.393 Y176.199 Z-1.5 I-2.269 J-1.725
N1470 G2 X172.88 Y147.853 I-36.454 J-0.016 F1200.
N1475 X113.595 Y177.489 I-22.844 J28.419
N1480 X156.161 Y212.102 I36.426 J-1.316
N1485 X186.393 Y176.199 I-6.222 J-35.919
N1490 X185.229 Y174.489 I-1.837 J-0.001
N1495 G3 X183.981 Y172.839 I0.727 J-1.847
N1500 G2 X127.347 Y150.644 I-33.996 J3.393
N1505 X145.783 Y210.088 I22.705 J25.539
N1510 X184.15 Y176.078 I4.159 J-33.955
N1515 X183.981 Y172.839 I-34.165 J0.154
N1520 X180.423 Y168.743 I-4.674 J0.466
N1525 G3 X176.299 Y165.216 I1.428 J-5.845
N1530 G2 X150. Y147.699 I-26.299 J10.983
N1535 Y204.699 I0. J28.5
N1540 X178.5 Y176.199 I0. J-28.5
N1545 G1 Y176.119
N1550 G2 X176.299 Y165.216 I-28.5 J0.08
N1555 G3 X176.461 Y164.824 I0.277 J-0.116
N1560 G1 X185.21 Y161.186
N1565 G3 X185.602 Y161.348 I0.115 J0.277
N1570 X186.815 Y164.69 I-35.597 J14.806
N1575 X156.466 Y214.225 I-36.84 J11.494
N1580 X117.152 Y155.98 I-6.416 J-38.06
N1585 X185.602 Y161.348 I32.854 J20.174
N1590 G2 X187.263 Y162.473 I1.687 J-0.702
N1595 G3 X188.877 Y163.664 I-0.025 J1.723
N1600 X189.211 Y164.744 I-38.919 J12.625
N1605 X132.9 Y213.298 I-39.207 J11.46
N1610 X133.452 Y138.851 I17.163 J-37.098
N1615 X188.877 Y163.664 I16.507 J37.438
N1620 G2 X192.643 Y166.756 I4.297 J-1.394
N1625 G3 X196.109 Y170.18 I-0.466 J3.938
N1630 X153.016 Y222.601 I-46.109 J6.019
N1635 X103.5 Y176.199 I-3.016 J-46.402
N1640 G1 Y176.022
N1645 G3 X196.109 Y170.18 I46.5 J0.177
N1650 X195.845 Y170.517 I-0.297 J0.039
N1655 G1 X189.318 Y171.264
N1660 X189.276 Y171.269
N1665 X189.233 Y171.268
N1670 X183.166 Y170.674
N1675 G3 X182.933 Y170.229 I0.029 J-0.299
N1680 X187.913 Y173.002 Z-1.813 I2.49 J1.387 F150.
N1685 X182.933 Y170.229 Z-2.125 I-2.49 J-1.387
N1690 X187.913 Y173.002 Z-2.438 I2.49 J1.387
N1695 X182.933 Y170.229 Z-2.751 I-2.49 J-1.387
N1700 X188.25 Y171.252 Z-3. I2.49 J1.387
N1705 X156.466 Y214.225 I-38.275 J4.932 F1200.
N1710 X117.152 Y155.98 I-6.416 J-38.06
N1715 X186.815 Y164.69 I32.854 J20.174
N1720 X188.25 Y171.252 I-36.84 J11.494
N1725 G2 X189.563 Y172.784 I1.825 J-0.235
N1730 G3 X190.81 Y174.37 I-0.482 J1.663
N1735 X132.9 Y213.298 I-40.806 J1.834
N1740 X133.452 Y138.851 I17.163 J-37.098
N1745 X189.211 Y164.744 I16.507 J37.438
N1750 X190.81 Y174.37 I-39.207 J11.46
N1755 G2 X193.623 Y178.349 I4.508 J-0.203
N1760 G3 X196.062 Y182.568 I-1.49 J3.676
N1765 X103.5 Y176.199 I-46.062 J-6.369
N1770 G1 Y176.022
N1775 G3 X153.28 Y129.815 I46.5 J0.177
N1780 X196.062 Y182.568 I-3.28 J46.384
N1785 X195.719 Y182.824 I-0.297 J-0.041
N1790 G1 X186.32 Y181.376
N1795 G3 X186.068 Y181.04 I0.046 J-0.297
N1800 G2 X172.88 Y147.853 I-36.129 J-4.857
N1805 X113.595 Y177.489 I-22.844 J28.419
N1810 X156.161 Y212.102 I36.426 J-1.316
N1815 X186.068 Y181.04 I-6.222 J-35.919
N1820 X185.142 Y179.186 I-1.827 J-0.246
N1825 G3 X184.127 Y177.379 I0.972 J-1.734
N1830 G2 X184.15 Y176.078 I-34.186 J-1.246
N1835 X127.347 Y150.644 I-34.165 J0.154
N1840 X145.783 Y210.088 I22.705 J25.539
N1845 X184.127 Y177.379 I4.159 J-33.955
N1850 X181.146 Y172.836 I-4.692 J-0.171
N1855 G3 X177.52 Y168.789 I2.196 J-5.616
N1860 G2 X150. Y147.699 I-27.52 J7.411
N1865 Y204.699 I0. J28.5
N1870 X178.5 Y176.199 I0. J-28.5
N1875 G1 Y176.119
N1880 G2 X177.52 Y168.789 I-28.5 J0.08
N1885 G1 X177.506 Y168.723 Z-2.992 F300.
N1890 X177.5 Y168.657 Z-2.985
N1895 Y168.593 Z-2.963
N1900 X177.508 Y168.531 Z-2.941
N1905 X177.52 Y168.475 Z-2.905
N1910 X177.538 Y168.421 Z-2.869
N1915 X177.578 Y168.335 Z-2.774
N1920 X177.617 Y168.275 Z-2.66
N1925 X177.645 Y168.241 Z-2.534
N1930 X177.655 Y168.229 Z-2.4
N1935 G0 Z15.
N1940 X305.949 Y625.576
N1945 Z5.
N1950 G1 Z-0.9 F300.
N1955 G18 G3 X305.349 Z-1.5 I-0.6 K0.
N1960 G1 X302.944
N1965 X299.737 F1200.
N1970 G17 G3 X299.423 Y625.259 I0. J-0.314
N1975 G1 Y374.741
N1980 G3 X299.737 Y374.424 I0.313 J-0.003
N1985 G1 X302.95
N1990 X302.973 F300.
N1995 G18 G2 X303.573 Z-0.9 I0. K0.6
N2000 G0 Z5.
N2005 X305.95 Y630.401
N2010 G1 Z-0.9 F300.
N2015 G3 X305.35 Z-1.5 I-0.6 K0.
N2020 G1 X302.946
N2025 X294.15 F1200.
N2030 G17 G3 X293.922 Y630.104 I0. J-0.236
N2035 G2 X294.451 Y627.576 I-21.807 J-5.882
N2040 X294.643 Y625. I-17.154 J-2.576
N2045 G1 Y375.
N2050 G2 X294.451 Y372.424 I-17.346 J0.
N2055 X293.922 Y369.896 I-22.336 J3.354
N2060 G3 X294.15 Y369.598 I0.228 J-0.062
N2065 G1 X302.945
N2070 X302.969 F300.
N2075 G18 G2 X303.569 Z-0.9 I0. K0.6
N2080 G0 Z5.
N2085 X305.95 Y634.919
N2090 G1 Z-0.9 F300.
N2095 G3 X305.35 Z-1.5 I-0.6 K0.
N2100 G1 X302.945
N2105 X286.698 F1200.
N2110 G17 G3 X286.578 Y634.663 I0. J-0.156
N2115 G2 X289.2 Y630.143 I-11.868 J-9.904
N2120 X290.125 Y625. I-13.84 J-5.143
N2125 G1 Y375.
N2130 G2 X289.2 Y369.857 I-14.765 J0.
N2135 X286.578 Y365.337 I-14.49 J5.384
N2140 G3 X286.698 Y365.081 I0.12 J-0.1
N2145 G1 X302.942
N2150 X302.965 F300.
N2155 G18 G2 X303.565 Z-0.9 I0. K0.6
N2160 G0 Z5.
N2165 X-5.95 Y374.424
N2170 G1 Z-0.9 F300.
N2175 G2 X-5.35 Z-1.5 I0.6 K0.
N2180 G1 X-2.944
N2185 X0.263 F1200.
N2190 G17 G3 X0.577 Y374.741 I0. J0.313
N2195 G1 Y625.259
N2200 G3 X0.263 Y625.576 I-0.313 J0.003
N2205 G1 X-2.95
N2210 X-2.973 F300.
N2215 G18 G3 X-3.573 Z-0.9 I0. K0.6
N2220 G0 Z5.
N2225 X-5.951 Y369.598
N2230 G1 Z-0.9 F300.
N2235 G2 X-5.351 Z-1.5 I0.6 K0.
N2240 G1 X-2.946
N2245 X5.85 F1200.
N2250 G17 G3 X6.078 Y369.896 I0. J0.236
N2255 G2 X5.549 Y372.424 I21.807 J5.882
N2260 X5.357 Y375. I17.154 J2.576
N2265 G1 Y625.
N2270 G2 X5.549 Y627.576 I17.346 J0.
N2275 X6.078 Y630.104 I22.336 J-3.354
N2280 G3 X5.85 Y630.401 I-0.228 J0.062
N2285 G1 X-2.945
N2290 X-2.969 F300.
N2295 G18 G3 X-3.569 Z-0.9 I0. K0.6
N2300 G0 Z5.
N2305 X-5.951 Y365.081
N2310 G1 Z-0.9 F300.
N2315 G2 X-5.351 Z-1.5 I0.6 K0.
N2320 G1 X-2.945
N2325 X13.302 F1200.
N2330 G17 G3 X13.422 Y365.337 I0. J0.156
N2335 G2 X10.8 Y369.857 I11.868 J9.904
N2340 X9.875 Y375. I13.84 J5.143
N2345 G1 Y625.
N2350 G2 X10.8 Y630.143 I14.765 J0.
N2355 X13.422 Y634.663 I14.49 J-5.384
N2360 G3 X13.302 Y634.919 I-0.12 J0.1
N2365 G1 X-2.942
N2370 X-2.965 F300.
N2375 G18 G3 X-3.565 Z-0.9 I0. K0.6
N2380 G0 Z5.
N2385 X8.151 Y498.77
N2390 G1 Z3.1 F300.
N2395 X8.16 Y498.752 Z2.948 F150.
N2400 X8.185 Y498.701 Z2.806
N2405 X8.228 Y498.62 Z2.683
N2410 X8.288 Y498.517 Z2.587
N2415 X8.364 Y498.399 Z2.525
N2420 X8.452 Y498.276 Z2.5
N2425 G17 G3 X12.992 Y501.724 Z2.187 I2.27 J1.724
N2430 X8.452 Y498.276 Z1.875 I-2.27 J-1.724
N2435 X12.992 Y501.724 Z1.562 I2.27 J1.724
N2440 X8.452 Y498.276 Z1.249 I-2.27 J-1.724
N2445 X12.992 Y501.724 Z0.937 I2.27 J1.724
N2450 X8.452 Y498.276 Z0.624 I-2.27 J-1.724
N2455 X12.992 Y501.724 Z0.311 I2.27 J1.724
N2460 X8.452 Y498.276 Z-0.001 I-2.27 J-1.724
N2465 X12.992 Y501.724 Z-0.314 I2.27 J1.724
N2470 X8.452 Y498.276 Z-0.627 I-2.27 J-1.724
N2475 X12.992 Y501.724 Z-0.939 I2.27 J1.724
N2480 X8.452 Y498.276 Z-1.252 I-2.27 J-1.724
N2485 X13.572 Y500. Z-1.5 I2.27 J1.724
N2490 G1 Y625. F1200.
N2495 G2 X25. Y636.428 I11.428 J0.
N2500 G1 X275.
N2505 G2 X286.428 Y625. I0. J-11.428
N2510 G1 Y375.
N2515 G2 X275. Y363.572 I-11.428 J0.
N2520 G1 X25.
N2525 G2 X13.572 Y375. I0. J11.428
N2530 G1 Y500.
N2535 G2 X14.711 Y501.708 I1.851 J0.
N2540 G3 X15.85 Y503.417 I-0.712 J1.708
N2545 G1 Y625.
N2550 G2 X25. Y634.15 I9.15 J0.
N2555 G1 X275.
N2560 G2 X284.15 Y625. I0. J-9.15
N2565 G1 Y375.
N2570 G2 X275. Y365.85 I-9.15 J0.
N2575 G1 X25.
N2580 G2 X15.85 Y375. I0. J9.15
N2585 G1 Y503.417
N2590 G2 X18.675 Y507.655 I4.591 J0.
N2595 G3 X21.5 Y511.892 I-1.766 J4.237
N2600 G1 Y625.
N2605 G2 X25. Y628.5 I3.5 J0.
N2610 G1 X275.
N2615 G2 X278.5 Y625. I0. J-3.5
N2620 G1 Y375.
N2625 G2 X275. Y371.5 I-3.5 J0.
N2630 G1 X25.
N2635 G2 X21.5 Y375. I0. J3.5
N2640 G1 Y511.892
N2645 X21.496 Y511.959 Z-1.492 F300.
N2650 X21.485 Y512.024 Z-1.485
N2655 X21.468 Y512.085 Z-1.463
N2660 X21.444 Y512.144 Z-1.441
N2665 X21.418 Y512.195 Z-1.405
N2670 X21.387 Y512.242 Z-1.369
N2675 X21.326 Y512.315 Z-1.274
N2680 X21.273 Y512.362 Z-1.16
N2685 X21.237 Y512.389 Z-1.034
N2690 X21.224 Y512.397 Z-0.9
N2695 G0 Z5.
N2700 X-5.951 Y361.176
N2705 G1 Z-0.9 F300.
N2710 X-5.944 Z-0.994
N2715 X-5.922 Z-1.085
N2720 X-5.886 Z-1.172
N2725 X-5.837 Z-1.253
N2730 X-5.776 Z-1.324
N2735 X-5.704 Z-1.385
N2740 X-5.624 Z-1.435
N2745 X-5.537 Z-1.471
N2750 X-5.445 Z-1.493
N2755 X-5.351 Z-1.5
N2760 X-2.949
N2765 X300. Y361.195 F1200.
N2770 X302.949 Y361.194
N2775 X302.972 F300.
N2780 X303.066 Z-1.493
N2785 X303.158 Z-1.471
N2790 X303.245 Z-1.435
N2795 X303.325 Z-1.385
N2800 X303.396 Z-1.324
N2805 X303.458 Z-1.253
N2810 X303.507 Z-1.172
N2815 X303.543 Z-1.085
N2820 X303.565 Z-0.994
N2825 X303.572 Z-0.9
N2830 G0 Z5.
N2835 X305.95 Y638.85
N2840 G1 Z-0.9 F300.
N2845 G18 G3 X305.35 Z-1.5 I-0.6 K0.
N2850 G1 X302.949
N2855 X-2.947 F1200.
N2860 X-2.97 F300.
N2865 G3 X-3.57 Z-0.9 I0. K0.6
N2870 G0 Z5.
N2875 X-5.95 Y358.398
N2880 G1 Z-0.9 F300.
N2885 G2 X-5.35 Z-1.5 I0.6 K0.
N2890 G1 X-2.948
N2895 X302.948 F1200.
N2900 X302.971 F300.
N2905 G2 X303.571 Z-0.9 I0. K0.6
N2910 G0 Z5.
N2915 X305.95 Y641.576
N2920 G1 Z-0.9 F300.
N2925 X305.943 Z-0.994
N2930 X305.921 Z-1.085
N2935 X305.885 Z-1.172
N2940 X305.835 Z-1.253
N2945 X305.774 Z-1.324
N2950 X305.703 Z-1.385
N2955 X305.622 Z-1.435
N2960 X305.536 Z-1.471
N2965 X305.444 Z-1.493
N2970 X305.35 Z-1.5
N2975 X302.948
N2980 X0. Y641.557 F1200.
N2985 X-2.949
N2990 X-2.972 F300.
N2995 X-3.066 Z-1.493
N3000 X-3.158 Z-1.471
N3005 X-3.245 Z-1.435
N3010 X-3.325 Z-1.385
N3015 X-3.396 Z-1.324
N3020 X-3.458 Z-1.253
N3025 X-3.507 Z-1.172
N3030 X-3.543 Z-1.085
N3035 X-3.565 Z-0.994
N3040 X-3.572 Z-0.9
N3045 G0 Z5.
N3050 X-5.951 Y353.968
N3055 G1 Z-0.96 F300.
N3060 X-5.945 Y353.967 Z-1.044
N3065 X-5.925 Y353.964 Z-1.127
N3070 X-5.893 Y353.959 Z-1.205
N3075 X-5.849 Y353.952 Z-1.277
N3080 X-5.795 Y353.943 Z-1.342
N3085 X-5.731 Y353.933 Z-1.397
N3090 X-5.66 Y353.922 Z-1.441
N3095 X-5.583 Y353.91 Z-1.474
N3100 X-5.501 Y353.897 Z-1.493
N3105 X-5.418 Y353.883 Z-1.5
N3110 X-3.044 Y353.507
N3115 X-2.95 Y353.5
N3120 X300. F1200.
N3125 X302.949
N3130 X303.043 Y353.507 F300.
N3135 X305.334 Y353.87
N3140 X305.427 Y353.885 Z-1.493
N3145 X305.518 Y353.899 Z-1.471
N3150 X305.603 Y353.913 Z-1.435
N3155 X305.683 Y353.926 Z-1.385
N3160 X305.753 Y353.937 Z-1.324
N3165 X305.814 Y353.946 Z-1.253
N3170 X305.862 Y353.954 Z-1.172
N3175 X305.898 Y353.96 Z-1.085
N3180 X305.92 Y353.963 Z-0.994
N3185 X305.927 Y353.964 Z-0.9
N3190 G0 Z5.
N3195 X305.95 Y646.032
N3200 G1 Z-0.96 F300.
N3205 X305.943 Y646.033 Z-1.044
N3210 X305.924 Y646.036 Z-1.127
N3215 X305.892 Y646.042 Z-1.205
N3220 X305.848 Y646.048 Z-1.277
N3225 X305.793 Y646.057 Z-1.342
N3230 X305.73 Y646.067 Z-1.397
N3235 X305.658 Y646.078 Z-1.441
N3240 X305.581 Y646.091 Z-1.474
N3245 X305.5 Y646.104 Z-1.493
N3250 X305.416 Y646.117 Z-1.5
N3255 X303.044 Y646.493
N3260 X302.95 Y646.5
N3265 X0. F1200.
N3270 X-2.949
N3275 X-3.043 Y646.493 F300.
N3280 X-5.334 Y646.13
N3285 X-5.427 Y646.115 Z-1.493
N3290 X-5.517 Y646.101 Z-1.471
N3295 X-5.603 Y646.087 Z-1.435
N3300 X-5.683 Y646.074 Z-1.385
N3305 X-5.753 Y646.063 Z-1.324
N3310 X-5.814 Y646.054 Z-1.253
N3315 X-5.862 Y646.046 Z-1.172
N3320 X-5.898 Y646.04 Z-1.085
N3325 X-5.92 Y646.037 Z-0.994
N3330 X-5.927 Y646.036 Z-0.9
N3335 G0 Z5.
N3340 X-5.95 Y374.424
N3345 G1 Z-2.4 F300.
N3350 G2 X-5.35 Z-3. I0.6 K0.
N3355 G1 X-2.944
N3360 X0.263 F1200.
N3365 G17 G3 X0.577 Y374.741 I0. J0.313
N3370 G1 Y625.259
N3375 G3 X0.263 Y625.576 I-0.313 J0.003
N3380 G1 X-2.95
N3385 X-2.973 F300.
N3390 G18 G3 X-3.573 Z-2.4 I0. K0.6
N3395 G0 Z5.
N3400 X-5.951 Y369.598
N3405 G1 Z-2.4 F300.
N3410 G2 X-5.351 Z-3. I0.6 K0.
N3415 G1 X-2.946
N3420 X5.85 F1200.
N3425 G17 G3 X6.078 Y369.896 I0. J0.236
N3430 G2 X5.549 Y372.424 I21.807 J5.882
N3435 X5.357 Y375. I17.154 J2.576
N3440 G1 Y625.
N3445 G2 X5.549 Y627.576 I17.346 J0.
N3450 X6.078 Y630.104 I22.336 J-3.354
N3455 G3 X5.85 Y630.401 I-0.228 J0.062
N3460 G1 X-2.945
N3465 X-2.969 F300.
N3470 G18 G3 X-3.569 Z-2.4 I0. K0.6
N3475 G0 Z5.
N3480 X-5.951 Y365.081
N3485 G1 Z-2.4 F300.
N3490 G2 X-5.351 Z-3. I0.6 K0.
N3495 G1 X-2.945
N3500 X13.302 F1200.
N3505 G17 G3 X13.422 Y365.337 I0. J0.156
N3510 G2 X10.8 Y369.857 I11.868 J9.904
N3515 X9.875 Y375. I13.84 J5.143
N3520 G1 Y625.
N3525 G2 X10.8 Y630.143 I14.765 J0.
N3530 X13.422 Y634.663 I14.49 J-5.384
N3535 G3 X13.302 Y634.919 I-0.12 J0.1
N3540 G1 X-2.942
N3545 X-2.965 F300.
N3550 G18 G3 X-3.565 Z-2.4 I0. K0.6
N3555 G0 Z5.
N3560 X305.949 Y625.576
N3565 G1 Z-2.4 F300.
N3570 G3 X305.349 Z-3. I-0.6 K0.
N3575 G1 X302.944
N3580 X299.737 F1200.
N3585 G17 G3 X299.423 Y625.259 I0. J-0.314
N3590 G1 Y374.741
N3595 G3 X299.737 Y374.424 I0.313 J-0.003
N3600 G1 X302.95
N3605 X302.973 F300.
N3610 G18 G2 X303.573 Z-2.4 I0. K0.6
N3615 G0 Z5.
N3620 X305.95 Y630.401
N3625 G1 Z-2.4 F300.
N3630 G3 X305.35 Z-3. I-0.6 K0.
N3635 G1 X302.946
N3640 X294.15 F1200.
N3645 G17 G3 X293.922 Y630.104 I0. J-0.236
N3650 G2 X294.451 Y627.576 I-21.807 J-5.882
N3655 X294.643 Y625. I-17.154 J-2.576
N3660 G1 Y375.
N3665 G2 X294.451 Y372.424 I-17.346 J0.
N3670 X293.922 Y369.896 I-22.336 J3.354
N3675 G3 X294.15 Y369.598 I0.228 J-0.062
N3680 G1 X302.945
N3685 X302.969 F300.
N3690 G18 G2 X303.569 Z-2.4 I0. K0.6
N3695 G0 Z5.
N3700 X305.95 Y634.919
N3705 G1 Z-2.4 F300.
N3710 G3 X305.35 Z-3. I-0.6 K0.
N3715 G1 X302.945
N3720 X286.698 F1200.
N3725 G17 G3 X286.578 Y634.663 I0. J-0.156
N3730 G2 X289.2 Y630.143 I-11.868 J-9.904
N3735 X290.125 Y625. I-13.84 J-5.143
N3740 G1 Y375.
N3745 G2 X289.2 Y369.857 I-14.765 J0.
N3750 X286.578 Y365.337 I-14.49 J5.384
N3755 G3 X286.698 Y365.081 I0.12 J-0.1
N3760 G1 X302.942
N3765 X302.965 F300.
N3770 G18 G2 X303.565 Z-2.4 I0. K0.6
N3775 G0 Z5.
N3780 X291.849 Y501.23
N3785 G1 Z1.6 F300.
N3790 X291.84 Y501.248 Z1.448 F150.
N3795 X291.815 Y501.299 Z1.306
N3800 X291.772 Y501.38 Z1.183
N3805 X291.712 Y501.483 Z1.087
N3810 X291.636 Y501.601 Z1.025
N3815 X291.548 Y501.724 Z1.
N3820 G17 G3 X287.008 Y498.276 Z0.687 I-2.27 J-1.724
N3825 X291.548 Y501.724 Z0.375 I2.27 J1.724
N3830 X287.008 Y498.276 Z0.062 I-2.27 J-1.724
N3835 X291.548 Y501.724 Z-0.251 I2.27 J1.724
N3840 X287.008 Y498.276 Z-0.563 I-2.27 J-1.724
N3845 X291.548 Y501.724 Z-0.876 I2.27 J1.724
N3850 X287.008 Y498.276 Z-1.189 I-2.27 J-1.724
N3855 X291.548 Y501.724 Z-1.501 I2.27 J1.724
N3860 X287.008 Y498.276 Z-1.814 I-2.27 J-1.724
N3865 X291.548 Y501.724 Z-2.127 I2.27 J1.724
N3870 X287.008 Y498.276 Z-2.439 I-2.27 J-1.724
N3875 X291.548 Y501.724 Z-2.752 I2.27 J1.724
N3880 X286.428 Y500. Z-3. I-2.27 J-1.724
N3885 G1 Y375. F1200.
N3890 G2 X275. Y363.572 I-11.428 J0.
N3895 G1 X25.
N3900 G2 X13.572 Y375. I0. J11.428
N3905 G1 Y625.
N3910 G2 X25. Y636.428 I11.428 J0.
N3915 G1 X275.
N3920 G2 X286.428 Y625. I0. J-11.428
N3925 G1 Y500.
N3930 G2 X285.289 Y498.292 I-1.851 J0.
N3935 G3 X284.15 Y496.583 I0.712 J-1.708
N3940 G1 Y375.
N3945 G2 X275. Y365.85 I-9.15 J0.
N3950 G1 X25.
N3955 G2 X15.85 Y375. I0. J9.15
N3960 G1 Y625.
N3965 G2 X25. Y634.15 I9.15 J0.
N3970 G1 X275.
N3975 G2 X284.15 Y625. I0. J-9.15
N3980 G1 Y496.583
N3985 G2 X281.325 Y492.345 I-4.591 J0.
N3990 G3 X278.5 Y488.108 I1.766 J-4.237
N3995 G1 Y375.
N4000 G2 X275. Y371.5 I-3.5 J0.
N4005 G1 X25.
N4010 G2 X21.5 Y375. I0. J3.5
N4015 G1 Y625.
N4020 G2 X25. Y628.5 I3.5 J0.
N4025 G1 X275.
N4030 G2 X278.5 Y625. I0. J-3.5
N4035 G1 Y488.108
N4040 X278.504 Y488.041 Z-2.992 F300.
N4045 X278.515 Y487.976 Z-2.985
N4050 X278.532 Y487.915 Z-2.963
N4055 X278.556 Y487.856 Z-2.941
N4060 X278.582 Y487.805 Z-2.905
N4065 X278.613 Y487.758 Z-2.869
N4070 X278.674 Y487.685 Z-2.774
N4075 X278.727 Y487.638 Z-2.66
N4080 X278.763 Y487.611 Z-2.534
N4085 X278.776 Y487.603 Z-2.4
N4090 G0 Z5.
N4095 X305.95 Y638.85
N4100 G1 Z-2.4 F300.
N4105 G18 G3 X305.35 Z-3. I-0.6 K0.
N4110 G1 X302.949
N4115 X-2.947 F1200.
N4120 X-2.97 F300.
N4125 G3 X-3.57 Z-2.4 I0. K0.6
N4130 G0 Z5.
N4135 X-5.951 Y361.176
N4140 G1 Z-2.4 F300.
N4145 X-5.944 Z-2.494
N4150 X-5.922 Z-2.585
N4155 X-5.886 Z-2.672
N4160 X-5.837 Z-2.753
N4165 X-5.776 Z-2.824
N4170 X-5.704 Z-2.885
N4175 X-5.624 Z-2.935
N4180 X-5.537 Z-2.971
N4185 X-5.445 Z-2.993
N4190 X-5.351 Z-3.
N4195 X-2.949
N4200 X300. Y361.195 F1200.
N4205 X302.949 Y361.194
N4210 X302.972 F300.
N4215 X303.066 Z-2.993
N4220 X303.158 Z-2.971
N4225 X303.245 Z-2.935
N4230 X303.325 Z-2.885
N4235 X303.396 Z-2.824
N4240 X303.458 Z-2.753
N4245 X303.507 Z-2.672
N4250 X303.543 Z-2.585
N4255 X303.565 Z-2.494
N4260 X303.572 Z-2.4
N4265 G0 Z5.
N4270 X305.95 Y641.576
N4275 G1 Z-2.4 F300.
N4280 X305.943 Z-2.494
N4285 X305.921 Z-2.585
N4290 X305.885 Z-2.672
N4295 X305.835 Z-2.753
N4300 X305.774 Z-2.824
N4305 X305.703 Z-2.885
N4310 X305.622 Z-2.935
N4315 X305.536 Z-2.971
N4320 X305.444 Z-2.993
N4325 X305.35 Z-3.
N4330 X302.948
N4335 X0. Y641.557 F1200.
N4340 X-2.949
N4345 X-2.972 F300.
N4350 X-3.066 Z-2.993
N4355 X-3.158 Z-2.971
N4360 X-3.245 Z-2.935
N4365 X-3.325 Z-2.885
N4370 X-3.396 Z-2.824
N4375 X-3.458 Z-2.753
N4380 X-3.507 Z-2.672
N4385 X-3.543 Z-2.585
N4390 X-3.565 Z-2.494
N4395 X-3.572 Z-2.4
N4400 G0 Z5.
N4405 X-5.95 Y358.398
N4410 G1 Z-2.4 F300.
N4415 G2 X-5.35 Z-3. I0.6 K0.
N4420 G1 X-2.948
N4425 X302.948 F1200.
N4430 X302.971 F300.
N4435 G2 X303.571 Z-2.4 I0. K0.6
N4440 G0 Z5.
N4445 X305.95 Y646.032
N4450 G1 Z-2.46 F300.
N4455 X305.943 Y646.033 Z-2.544
N4460 X305.924 Y646.036 Z-2.627
N4465 X305.892 Y646.042 Z-2.705
N4470 X305.848 Y646.048 Z-2.777
N4475 X305.793 Y646.057 Z-2.842
N4480 X305.73 Y646.067 Z-2.897
N4485 X305.658 Y646.078 Z-2.941
N4490 X305.581 Y646.091 Z-2.974
N4495 X305.5 Y646.104 Z-2.993
N4500 X305.416 Y646.117 Z-3.
N4505 X303.044 Y646.493
N4510 X302.95 Y646.5
N4515 X0. F1200.
N4520 X-2.949
N4525 X-3.043 Y646.493 F300.
N4530 X-5.334 Y646.13
N4535 X-5.427 Y646.115 Z-2.993
N4540 X-5.517 Y646.101 Z-2.971
N4545 X-5.603 Y646.087 Z-2.935
N4550 X-5.683 Y646.074 Z-2.885
N4555 X-5.753 Y646.063 Z-2.824
N4560 X-5.814 Y646.054 Z-2.753
N4565 X-5.862 Y646.046 Z-2.672
N4570 X-5.898 Y646.04 Z-2.585
N4575 X-5.92 Y646.037 Z-2.494
N4580 X-5.927 Y646.036 Z-2.4
N4585 G0 Z5.
N4590 X-5.951 Y353.968
N4595 G1 Z-2.46 F300.
N4600 X-5.945 Y353.967 Z-2.544
N4605 X-5.925 Y353.964 Z-2.627
N4610 X-5.893 Y353.959 Z-2.705
N4615 X-5.849 Y353.952 Z-2.777
N4620 X-5.795 Y353.943 Z-2.842
N4625 X-5.731 Y353.933 Z-2.897
N4630 X-5.66 Y353.922 Z-2.941
N4635 X-5.583 Y353.91 Z-2.974
N4640 X-5.501 Y353.897 Z-2.993
N4645 X-5.418 Y353.883 Z-3.
N4650 X-3.044 Y353.507
N4655 X-2.95 Y353.5
N4660 X300. F1200.
N4665 X302.949
N4670 X303.043 Y353.507 F300.
N4675 X305.334 Y353.87
N4680 X305.427 Y353.885 Z-2.993
N4685 X305.518 Y353.899 Z-2.971
N4690 X305.603 Y353.913 Z-2.935
N4695 X305.683 Y353.926 Z-2.885
N4700 X305.753 Y353.937 Z-2.824
N4705 X305.814 Y353.946 Z-2.753
N4710 X305.862 Y353.954 Z-2.672
N4715 X305.898 Y353.96 Z-2.585
N4720 X305.92 Y353.963 Z-2.494
N4725 X305.927 Y353.964 Z-2.4
N4730 G0 Z15.
N4735 X236.585 Y581.084
N4740 Z5.
N4745 G1 Z3.1 F300.
N4750 X236.603 Y581.093 Z2.948 F150.
N4755 X236.654 Y581.119 Z2.806
N4760 X236.735 Y581.162 Z2.683
N4765 X236.839 Y581.222 Z2.587
N4770 X236.956 Y581.297 Z2.525
N4775 X237.079 Y581.386 Z2.5
N4780 G17 G3 X233.632 Y585.925 Z2.187 I-1.724 J2.27
N4785 X237.079 Y581.386 Z1.875 I1.724 J-2.27
N4790 X233.632 Y585.925 Z1.562 I-1.724 J2.27
N4795 X237.079 Y581.386 Z1.249 I1.724 J-2.27
N4800 X233.632 Y585.925 Z0.937 I-1.724 J2.27
N4805 X237.079 Y581.386 Z0.624 I1.724 J-2.27
N4810 X233.632 Y585.925 Z0.311 I-1.724 J2.27
N4815 X237.079 Y581.386 Z-0.001 I1.724 J-2.27
N4820 X233.632 Y585.925 Z-0.314 I-1.724 J2.27
N4825 X237.079 Y581.386 Z-0.627 I1.724 J-2.27
N4830 X233.632 Y585.925 Z-0.939 I-1.724 J2.27
N4835 X237.079 Y581.386 Z-1.252 I1.724 J-2.27
N4840 X235.355 Y586.505 Z-1.5 I-1.724 J2.27
N4845 G1 X232.492 F1200.
N4850 X232.452 Y586.499
N4855 X232.415 Y586.48
N4860 X232.387 Y586.451
N4865 X232.369 Y586.414
N4870 X232.364 Y586.374
N4875 X232.372 Y586.334
N4880 X232.391 Y586.298
N4885 X232.421 Y586.271
N4890 G2 X236.271 Y582.421 I-7.421 J-11.271
N4895 G1 X236.298 Y582.391
N4900 X236.334 Y582.372
N4905 X236.374 Y582.364
N4910 X236.414 Y582.369
N4915 X236.451 Y582.387
N4920 X236.48 Y582.415
N4925 X236.499 Y582.452
N4930 X236.505 Y582.492
N4935 Y586.186
N4940 G3 X236.186 Y586.505 I-0.319 J0.
N4945 G1 X235.355
N4950 X235.289 Y586.502 Z-1.492 F300.
N4955 X235.223 Y586.49 Z-1.485
N4960 X235.162 Y586.473 Z-1.463
N4965 X235.103 Y586.45 Z-1.441
N4970 X235.053 Y586.423 Z-1.405
N4975 X235.005 Y586.392 Z-1.369
N4980 X234.933 Y586.331 Z-1.274
N4985 X234.885 Y586.278 Z-1.16
N4990 X234.859 Y586.242 Z-1.034
N4995 X234.85 Y586.229 Z-0.9
N5000 G0 Z5.
N5005 X60.755 Y587.505
N5010 G1 Z3.1 F300.
N5015 X60.748 Y587.487 Z2.948 F150.
N5020 X60.73 Y587.433 Z2.806
N5025 X60.704 Y587.345 Z2.683
N5030 X60.673 Y587.229 Z2.587
N5035 X60.643 Y587.093 Z2.525
N5040 X60.619 Y586.944 Z2.5
N5045 G3 X66.266 Y586.171 Z2.187 I2.824 J-0.386
N5050 X60.619 Y586.944 Z1.875 I-2.824 J0.386
N5055 X66.266 Y586.171 Z1.562 I2.824 J-0.386
N5060 X60.619 Y586.944 Z1.249 I-2.824 J0.386
N5065 X66.266 Y586.171 Z0.937 I2.824 J-0.386
N5070 X60.619 Y586.944 Z0.624 I-2.824 J0.386
N5075 X66.266 Y586.171 Z0.311 I2.824 J-0.386
N5080 X60.619 Y586.944 Z-0.001 I-2.824 J0.386
N5085 X66.266 Y586.171 Z-0.314 I2.824 J-0.386
N5090 X60.619 Y586.944 Z-0.627 I-2.824 J0.386
N5095 X66.266 Y586.171 Z-0.939 I2.824 J-0.386
N5100 X60.619 Y586.944 Z-1.252 I-2.824 J0.386
N5105 X65.458 Y584.542 Z-1.5 I2.824 J-0.386
N5110 G2 X67.579 Y586.271 I9.542 J-9.542 F1200.
N5115 G1 X67.609 Y586.298
N5120 X67.628 Y586.334
N5125 X67.636 Y586.374
N5130 X67.631 Y586.414
N5135 X67.613 Y586.451
N5140 X67.585 Y586.48
N5145 X67.548 Y586.499
N5150 X67.508 Y586.505
N5155 X63.814
N5160 G3 X63.495 Y586.186 I0. J-0.319
N5165 G1 Y582.492
N5170 X63.501 Y582.452
N5175 X63.52 Y582.415
N5180 X63.549 Y582.387
N5185 X63.586 Y582.369
N5190 X63.626 Y582.364
N5195 X63.666 Y582.372
N5200 X63.702 Y582.391
N5205 X63.729 Y582.421
N5210 G2 X65.458 Y584.542 I11.271 J-7.421
N5215 G1 X65.502 Y584.592 Z-1.492 F300.
N5220 X65.541 Y584.646 Z-1.485
N5225 X65.572 Y584.702 Z-1.463
N5230 X65.597 Y584.76 Z-1.441
N5235 X65.614 Y584.814 Z-1.405
N5240 X65.626 Y584.87 Z-1.369
N5245 X65.634 Y584.964 Z-1.274
N5250 X65.63 Y585.036 Z-1.16
N5255 X65.623 Y585.079 Z-1.034
N5260 X65.62 Y585.094 Z-0.9
N5265 G0 Z5.
N5270 X62.495 Y410.755
N5275 G1 Z3.1 F300.
N5280 X62.513 Y410.748 Z2.948 F150.
N5285 X62.567 Y410.73 Z2.806
N5290 X62.655 Y410.704 Z2.683
N5295 X62.77 Y410.673 Z2.587
N5300 X62.907 Y410.643 Z2.525
N5305 X63.056 Y410.619 Z2.5
N5310 G3 X63.829 Y416.266 Z2.187 I0.386 J2.824
N5315 X63.056 Y410.619 Z1.875 I-0.386 J-2.824
N5320 X63.829 Y416.266 Z1.562 I0.386 J2.824
N5325 X63.056 Y410.619 Z1.249 I-0.386 J-2.824
N5330 X63.829 Y416.266 Z0.937 I0.386 J2.824
N5335 X63.056 Y410.619 Z0.624 I-0.386 J-2.824
N5340 X63.829 Y416.266 Z0.311 I0.386 J2.824
N5345 X63.056 Y410.619 Z-0.001 I-0.386 J-2.824
N5350 X63.829 Y416.266 Z-0.314 I0.386 J2.824
N5355 X63.056 Y410.619 Z-0.627 I-0.386 J-2.824
N5360 X63.829 Y416.266 Z-0.939 I0.386 J2.824
N5365 X63.056 Y410.619 Z-1.252 I-0.386 J-2.824
N5370 X65.458 Y415.458 Z-1.5 I0.386 J2.824
N5375 G2 X63.729 Y417.579 I9.542 J9.542 F1200.
N5380 G1 X63.702 Y417.609
N5385 X63.666 Y417.628
N5390 X63.626 Y417.636
N5395 X63.586 Y417.631
N5400 X63.549 Y417.613
N5405 X63.52 Y417.585
N5410 X63.501 Y417.548
N5415 X63.495 Y417.508
N5420 Y413.814
N5425 G3 X63.814 Y413.495 I0.319 J0.
N5430 G1 X67.508
N5435 X67.548 Y413.501
N5440 X67.585 Y413.52
N5445 X67.613 Y413.549
N5450 X67.631 Y413.586
N5455 X67.636 Y413.626
N5460 X67.628 Y413.666
N5465 X67.609 Y413.702
N5470 X67.579 Y413.729
N5475 G2 X65.458 Y415.458 I7.421 J11.271
N5480 G1 X65.408 Y415.502 Z-1.492 F300.
N5485 X65.354 Y415.541 Z-1.485
N5490 X65.298 Y415.572 Z-1.463
N5495 X65.24 Y415.597 Z-1.441
N5500 X65.186 Y415.614 Z-1.405
N5505 X65.13 Y415.626 Z-1.369
N5510 X65.036 Y415.634 Z-1.274
N5515 X64.964 Y415.63 Z-1.16
N5520 X64.921 Y415.623 Z-1.034
N5525 X64.906 Y415.62 Z-0.9
N5530 G0 Z5.
N5535 X231.084 Y413.415
N5540 G1 Z3.1 F300.
N5545 X231.093 Y413.397 Z2.948 F150.
N5550 X231.119 Y413.346 Z2.806
N5555 X231.162 Y413.265 Z2.683
N5560 X231.222 Y413.161 Z2.587
N5565 X231.297 Y413.044 Z2.525
N5570 X231.386 Y412.921 Z2.5
N5575 G3 X235.925 Y416.368 Z2.187 I2.27 J1.724
N5580 X231.386 Y412.921 Z1.875 I-2.27 J-1.724
N5585 X235.925 Y416.368 Z1.562 I2.27 J1.724
N5590 X231.386 Y412.921 Z1.249 I-2.27 J-1.724
N5595 X235.925 Y416.368 Z0.937 I2.27 J1.724
N5600 X231.386 Y412.921 Z0.624 I-2.27 J-1.724
N5605 X235.925 Y416.368 Z0.311 I2.27 J1.724
N5610 X231.386 Y412.921 Z-0.001 I-2.27 J-1.724
N5615 X235.925 Y416.368 Z-0.314 I2.27 J1.724
N5620 X231.386 Y412.921 Z-0.627 I-2.27 J-1.724
N5625 X235.925 Y416.368 Z-0.939 I2.27 J1.724
N5630 X231.386 Y412.921 Z-1.252 I-2.27 J-1.724
N5635 X236.505 Y414.645 Z-1.5 I2.27 J1.724
N5640 G1 Y417.508 F1200.
N5645 X236.499 Y417.548
N5650 X236.48 Y417.585
N5655 X236.451 Y417.613
N5660 X236.414 Y417.631
N5665 X236.374 Y417.636
N5670 X236.334 Y417.628
N5675 X236.298 Y417.609
N5680 X236.271 Y417.579
N5685 G2 X232.421 Y413.729 I-11.271 J7.421
N5690 G1 X232.391 Y413.702
N5695 X232.372 Y413.666
N5700 X232.364 Y413.626
N5705 X232.369 Y413.586
N5710 X232.387 Y413.549
N5715 X232.415 Y413.52
N5720 X232.452 Y413.501
N5725 X232.492 Y413.495
N5730 X236.186
N5735 G3 X236.505 Y413.814 I0. J0.319
N5740 G1 Y414.645
N5745 G2 X237.678 Y416.403 I1.905 J0.
N5750 G3 X238.85 Y418.162 I-0.733 J1.759
N5755 G1 Y588.531
N5760 G3 X238.531 Y588.85 I-0.319 J0.
N5765 G1 X61.469
N5770 G3 X61.15 Y588.531 I0. J-0.319
N5775 G1 Y411.469
N5780 G3 X61.469 Y411.15 I0.319 J0.
N5785 G1 X238.531
N5790 G3 X238.85 Y411.469 I0. J0.319
N5795 G1 Y418.162
N5800 G2 X240.226 Y420.226 I2.236 J0.
N5805 G3 X241.602 Y422.289 I-0.86 J2.064
N5810 G1 Y591.282
N5815 G3 X241.282 Y591.602 I-0.319 J0.
N5820 G1 X58.718
N5825 G3 X58.398 Y591.282 I0. J-0.319
N5830 G1 Y408.718
N5835 G3 X58.718 Y408.398 I0.319 J0.
N5840 G1 X241.282
N5845 G3 X241.602 Y408.718 I0. J0.319
N5850 G1 Y422.289
N5855 G2 X244.051 Y425.963 I3.98 J0.
N5860 G3 X246.5 Y429.637 I-1.531 J3.674
N5865 G1 Y596.5
N5870 X53.5
N5875 Y403.5
N5880 X246.5
N5885 Y425.
N5890 Y429.637
N5895 G3 X246.005 Y429.865 I-0.3 J0.
N5900 G1 X245.001 Y429.005
N5905 X244.979 Y428.983
N5910 X233.529 Y416.924
N5915 X233.5 Y416.902
N5920 X233.465 Y416.892
N5925 X233.429 Y416.893
N5930 X233.179 Y416.947
N5935 X233.143 Y416.949
N5940 X233.109 Y416.939
N5945 X233.08 Y416.918
N5950 G2 X225. Y413.572 I-8.08 J8.082
N5955 G1 X75.
N5960 G2 X63.572 Y425. I0. J11.428
N5965 G1 Y575.
N5970 G2 X75. Y586.428 I11.428 J0.
N5975 G1 X225.
N5980 G2 X236.428 Y575. I0. J-11.428
N5985 G1 Y425.
N5990 G2 X233.08 Y416.918 I-11.428 J0.
N5995 X230.886 Y416.56 I-1.346 J1.347
N6000 G3 X228.663 Y416.615 I-1.17 J-2.354
N6005 G2 X225. Y415.85 I-3.663 J8.385
N6010 G1 X75.
N6015 G2 X65.85 Y425. I0. J9.15
N6020 G1 Y575.
N6025 G2 X75. Y584.15 I9.15 J0.
N6030 G1 X225.
N6035 G2 X234.15 Y575. I0. J-9.15
N6040 G1 Y425.
N6045 G2 X228.663 Y416.615 I-9.15 J0.
N6050 X223.062 Y418.505 I-1.76 J4.028
N6055 G3 X217.966 Y421.5 I-5.096 J-2.837
N6060 G1 X75.
N6065 G2 X71.5 Y425. I0. J3.5
N6070 G1 Y575.
N6075 G2 X75. Y578.5 I3.5 J0.
N6080 G1 X225.
N6085 G2 X228.5 Y575. I0. J-3.5
N6090 G1 Y425.
N6095 G2 X225. Y421.5 I-3.5 J0.
N6100 G1 X217.966
N6105 G3 X217.814 Y420.941 I0. J-0.3
N6110 G1 X231.274 Y413.032
N6115 X231.322 Y412.996
N6120 X231.363 Y412.951
N6125 G3 X235.948 Y416.338 Z-1.813 I2.292 J1.693 F150.
N6130 X231.363 Y412.951 Z-2.125 I-2.292 J-1.693
N6135 X235.948 Y416.338 Z-2.438 I2.292 J1.693
N6140 X231.363 Y412.951 Z-2.751 I-2.292 J-1.693
N6145 X236.505 Y414.645 Z-3. I2.292 J1.693
N6150 G1 Y417.508 F1200.
N6155 X236.499 Y417.548
N6160 X236.48 Y417.585
N6165 X236.451 Y417.613
N6170 X236.414 Y417.631
N6175 X236.374 Y417.636
N6180 X236.334 Y417.628
N6185 X236.298 Y417.609
N6190 X236.271 Y417.579
N6195 G2 X232.421 Y413.729 I-11.271 J7.421
N6200 G1 X232.391 Y413.702
N6205 X232.372 Y413.666
N6210 X232.364 Y413.626
N6215 X232.369 Y413.586
N6220 X232.387 Y413.549
N6225 X232.415 Y413.52
N6230 X232.452 Y413.501
N6235 X232.492 Y413.495
N6240 X236.186
N6245 G3 X236.505 Y413.814 I0. J0.319
N6250 G1 Y414.645
N6255 X236.502 Y414.711 Z-2.992 F300.
N6260 X236.491 Y414.777 Z-2.985
N6265 X236.473 Y414.838 Z-2.963
N6270 X236.45 Y414.897 Z-2.941
N6275 X236.423 Y414.947 Z-2.905
N6280 X236.392 Y414.995 Z-2.869
N6285 X236.331 Y415.067 Z-2.774
N6290 X236.278 Y415.115 Z-2.66
N6295 X236.242 Y415.141 Z-2.534
N6300 X236.229 Y415.15 Z-2.4
N6305 G0 Z5.
N6310 X236.585 Y581.084
N6315 G1 Z1.6 F300.
N6320 X236.603 Y581.093 Z1.448 F150.
N6325 X236.654 Y581.119 Z1.306
N6330 X236.735 Y581.162 Z1.183
N6335 X236.839 Y581.222 Z1.087
N6340 X236.956 Y581.297 Z1.025
N6345 X237.079 Y581.386 Z1.
N6350 G3 X233.632 Y585.925 Z0.687 I-1.724 J2.27
N6355 X237.079 Y581.386 Z0.375 I1.724 J-2.27
N6360 X233.632 Y585.925 Z0.062 I-1.724 J2.27
N6365 X237.079 Y581.386 Z-0.251 I1.724 J-2.27
N6370 X233.632 Y585.925 Z-0.563 I-1.724 J2.27
N6375 X237.079 Y581.386 Z-0.876 I1.724 J-2.27
N6380 X233.632 Y585.925 Z-1.189 I-1.724 J2.27
N6385 X237.079 Y581.386 Z-1.501 I1.724 J-2.27
N6390 X233.632 Y585.925 Z-1.814 I-1.724 J2.27
N6395 X237.079 Y581.386 Z-2.127 I1.724 J-2.27
N6400 X233.632 Y585.925 Z-2.439 I-1.724 J2.27
N6405 X237.079 Y581.386 Z-2.752 I1.724 J-2.27
N6410 X235.355 Y586.505 Z-3. I-1.724 J2.27
N6415 G1 X232.492 F1200.
N6420 X232.452 Y586.499
N6425 X232.415 Y586.48
N6430 X232.387 Y586.451
N6435 X232.369 Y586.414
N6440 X232.364 Y586.374
N6445 X232.372 Y586.334
N6450 X232.391 Y586.298
N6455 X232.421 Y586.271
N6460 G2 X236.271 Y582.421 I-7.421 J-11.271
N6465 G1 X236.298 Y582.391
N6470 X236.334 Y582.372
N6475 X236.374 Y582.364
N6480 X236.414 Y582.369
N6485 X236.451 Y582.387
N6490 X236.48 Y582.415
N6495 X236.499 Y582.452
N6500 X236.505 Y582.492
N6505 Y586.186
N6510 G3 X236.186 Y586.505 I-0.319 J0.
N6515 G1 X235.355
N6520 X235.289 Y586.502 Z-2.992 F300.
N6525 X235.223 Y586.49 Z-2.985
N6530 X235.162 Y586.473 Z-2.963
N6535 X235.103 Y586.45 Z-2.941
N6540 X235.053 Y586.423 Z-2.905
N6545 X235.005 Y586.392 Z-2.869
N6550 X234.933 Y586.331 Z-2.774
N6555 X234.885 Y586.278 Z-2.66
N6560 X234.859 Y586.242 Z-2.534
N6565 X234.85 Y586.229 Z-2.4
N6570 G0 Z5.
N6575 X60.755 Y587.505
N6580 G1 Z1.6 F300.
N6585 X60.748 Y587.487 Z1.448 F150.
N6590 X60.73 Y587.433 Z1.306
N6595 X60.704 Y587.345 Z1.183
N6600 X60.673 Y587.229 Z1.087
N6605 X60.643 Y587.093 Z1.025
N6610 X60.619 Y586.944 Z1.
N6615 G3 X66.266 Y586.171 Z0.687 I2.824 J-0.386
N6620 X60.619 Y586.944 Z0.375 I-2.824 J0.386
N6625 X66.266 Y586.171 Z0.062 I2.824 J-0.386
N6630 X60.619 Y586.944 Z-0.251 I-2.824 J0.386
N6635 X66.266 Y586.171 Z-0.563 I2.824 J-0.386
N6640 X60.619 Y586.944 Z-0.876 I-2.824 J0.386
N6645 X66.266 Y586.171 Z-1.189 I2.824 J-0.386
N6650 X60.619 Y586.944 Z-1.501 I-2.824 J0.386
N6655 X66.266 Y586.171 Z-1.814 I2.824 J-0.386
N6660 X60.619 Y586.944 Z-2.127 I-2.824 J0.386
N6665 X66.266 Y586.171 Z-2.439 I2.824 J-0.386
N6670 X60.619 Y586.944 Z-2.752 I-2.824 J0.386
N6675 X65.458 Y584.542 Z-3. I2.824 J-0.386
N6680 G2 X67.579 Y586.271 I9.542 J-9.542 F1200.
N6685 G1 X67.609 Y586.298
N6690 X67.628 Y586.334
N6695 X67.636 Y586.374
N6700 X67.631 Y586.414
N6705 X67.613 Y586.451
N6710 X67.585 Y586.48
N6715 X67.548 Y586.499
N6720 X67.508 Y586.505
N6725 X63.814
N6730 G3 X63.495 Y586.186 I0. J-0.319
N6735 G1 Y582.492
N6740 X63.501 Y582.452
N6745 X63.52 Y582.415
N6750 X63.549 Y582.387
N6755 X63.586 Y582.369
N6760 X63.626 Y582.364
N6765 X63.666 Y582.372
N6770 X63.702 Y582.391
N6775 X63.729 Y582.421
N6780 G2 X65.458 Y584.542 I11.271 J-7.421
N6785 G1 X65.502 Y584.592 Z-2.992 F300.
N6790 X65.541 Y584.646 Z-2.985
N6795 X65.572 Y584.702 Z-2.963
N6800 X65.597 Y584.76 Z-2.941
N6805 X65.614 Y584.814 Z-2.905
N6810 X65.626 Y584.87 Z-2.869
N6815 X65.634 Y584.964 Z-2.774
N6820 X65.63 Y585.036 Z-2.66
N6825 X65.623 Y585.079 Z-2.534
N6830 X65.62 Y585.094 Z-2.4
N6835 G0 Z5.
N6840 X62.495 Y410.755
N6845 G1 Z1.6 F300.
N6850 X62.513 Y410.748 Z1.448 F150.
N6855 X62.567 Y410.73 Z1.306
N6860 X62.655 Y410.704 Z1.183
N6865 X62.77 Y410.673 Z1.087
N6870 X62.907 Y410.643 Z1.025
N6875 X63.056 Y410.619 Z1.
N6880 G3 X63.829 Y416.266 Z0.687 I0.386 J2.824
N6885 X63.056 Y410.619 Z0.375 I-0.386 J-2.824
N6890 X63.829 Y416.266 Z0.062 I0.386 J2.824
N6895 X63.056 Y410.619 Z-0.251 I-0.386 J-2.824
N6900 X63.829 Y416.266 Z-0.563 I0.386 J2.824
N6905 X63.056 Y410.619 Z-0.876 I-0.386 J-2.824
N6910 X63.829 Y416.266 Z-1.189 I0.386 J2.824
N6915 X63.056 Y410.619 Z-1.501 I-0.386 J-2.824
N6920 X63.829 Y416.266 Z-1.814 I0.386 J2.824
N6925 X63.056 Y410.619 Z-2.127 I-0.386 J-2.824
N6930 X63.829 Y416.266 Z-2.439 I0.386 J2.824
N6935 X63.056 Y410.619 Z-2.752 I-0.386 J-2.824
N6940 X65.458 Y415.458 Z-3. I0.386 J2.824
N6945 G2 X63.729 Y417.579 I9.542 J9.542 F1200.
N6950 G1 X63.702 Y417.609
N6955 X63.666 Y417.628
N6960 X63.626 Y417.636
N6965 X63.586 Y417.631
N6970 X63.549 Y417.613
N6975 X63.52 Y417.585
N6980 X63.501 Y417.548
N6985 X63.495 Y417.508
N6990 Y413.814
N6995 G3 X63.814 Y413.495 I0.319 J0.
N7000 G1 X67.508
N7005 X67.548 Y413.501
N7010 X67.585 Y413.52
N7015 X67.613 Y413.549
N7020 X67.631 Y413.586
N7025 X67.636 Y413.626
N7030 X67.628 Y413.666
N7035 X67.609 Y413.702
N7040 X67.579 Y413.729
N7045 G2 X65.458 Y415.458 I7.421 J11.271
N7050 X65.12 Y417.405 I1.213 J1.213
N7055 G3 X65.049 Y419.38 I-1.941 J0.919
N7060 G2 X63.572 Y425. I9.951 J5.62
N7065 G1 Y575.
N7070 G2 X75. Y586.428 I11.428 J0.
N7075 G1 X225.
N7080 G2 X236.428 Y575. I0. J-11.428
N7085 G1 Y425.
N7090 G2 X225. Y413.572 I-11.428 J0.
N7095 G1 X75.
N7100 G2 X65.049 Y419.38 I0. J11.428
N7105 X65.292 Y421.59 I1.658 J0.936
N7110 G3 X65.94 Y423.717 I-1.954 J1.758
N7115 G2 X65.85 Y425. I9.06 J1.283
N7120 G1 Y575.
N7125 G2 X75. Y584.15 I9.15 J0.
N7130 G1 X225.
N7135 G2 X234.15 Y575. I0. J-9.15
N7140 G1 Y425.
N7145 G2 X225. Y415.85 I-9.15 J0.
N7150 G1 X75.
N7155 G2 X65.94 Y423.717 I0. J9.15
N7160 X68.557 Y428.448 I4.446 J0.63
N7165 G3 X71.5 Y432.983 I-2.023 J4.535
N7170 G1 Y575.
N7175 G2 X75. Y578.5 I3.5 J0.
N7180 G1 X225.
N7185 G2 X228.5 Y575. I0. J-3.5
N7190 G1 Y425.
N7195 G2 X225. Y421.5 I-3.5 J0.
N7200 G1 X75.
N7205 G2 X71.5 Y425. I0. J3.5
N7210 G1 Y432.983
N7215 G3 X70.935 Y433.123 I-0.3 J0.
N7220 G1 X61.185 Y414.789
N7225 X61.166 Y414.744
N7230 X61.154 Y414.697
N7235 X61.15 Y414.648
N7240 Y411.469
N7245 G3 X61.469 Y411.15 I0.319 J0.
N7250 G1 X238.531
N7255 G3 X238.85 Y411.469 I0. J0.319
N7260 G1 Y588.531
N7265 G3 X238.531 Y588.85 I-0.319 J0.
N7270 G1 X61.469
N7275 G3 X61.15 Y588.531 I0. J-0.319
N7280 G1 Y416.72
N7285 Y414.648
N7290 G2 X59.774 Y412.585 I-2.236 J0.
N7295 G3 X58.398 Y410.521 I0.86 J-2.064
N7300 G1 Y408.718
N7305 G3 X58.718 Y408.398 I0.319 J0.
N7310 G1 X241.282
N7315 G3 X241.602 Y408.718 I0. J0.319
N7320 G1 Y591.282
N7325 G3 X241.282 Y591.602 I-0.319 J0.
N7330 G1 X58.718
N7335 G3 X58.398 Y591.282 I0. J-0.319
N7340 G1 Y410.521
N7345 G2 X56.495 Y407.196 I-3.855 J0.
N7350 G3 X57.5 Y403.5 I1.005 J-1.712
N7355 G1 X246.5
N7360 Y596.5
N7365 X53.5
N7370 Y403.5
N7375 X57.5
N7380 X57.567 Y403.504 Z-2.992 F300.
N7385 X57.633 Y403.515 Z-2.985
N7390 X57.694 Y403.532 Z-2.963
N7395 X57.752 Y403.556 Z-2.941
N7400 X57.803 Y403.582 Z-2.905
N7405 X57.851 Y403.613 Z-2.869
N7410 X57.923 Y403.674 Z-2.774
N7415 X57.971 Y403.727 Z-2.66
N7420 X57.997 Y403.763 Z-2.534
N7425 X58.005 Y403.776 Z-2.4
N7430 G0 Z15.
N7435 X186.585 Y531.084
N7440 Z5.
N7445 G1 Z3.1 F300.
N7450 X186.603 Y531.093 Z2.948 F150.
N7455 X186.654 Y531.119 Z2.806
N7460 X186.735 Y531.162 Z2.683
N7465 X186.839 Y531.222 Z2.587
N7470 X186.956 Y531.297 Z2.525
N7475 X187.079 Y531.386 Z2.5
N7480 G3 X183.632 Y535.925 Z2.187 I-1.724 J2.27
N7485 X187.079 Y531.386 Z1.875 I1.724 J-2.27
N7490 X183.632 Y535.925 Z1.562 I-1.724 J2.27
N7495 X187.079 Y531.386 Z1.249 I1.724 J-2.27
N7500 X183.632 Y535.925 Z0.937 I-1.724 J2.27
N7505 X187.079 Y531.386 Z0.624 I1.724 J-2.27
N7510 X183.632 Y535.925 Z0.311 I-1.724 J2.27
N7515 X187.079 Y531.386 Z-0.001 I1.724 J-2.27
N7520 X183.632 Y535.925 Z-0.314 I-1.724 J2.27
N7525 X187.079 Y531.386 Z-0.627 I1.724 J-2.27
N7530 X183.632 Y535.925 Z-0.939 I-1.724 J2.27
N7535 X187.079 Y531.386 Z-1.252 I1.724 J-2.27
N7540 X185.355 Y536.505 Z-1.5 I-1.724 J2.27
N7545 G1 X182.492 F1200.
N7550 X182.452 Y536.499
N7555 X182.415 Y536.48
N7560 X182.387 Y536.451
N7565 X182.369 Y536.414
N7570 X182.364 Y536.374
N7575 X182.372 Y536.334
N7580 X182.391 Y536.298
N7585 X182.421 Y536.271
N7590 G2 X186.271 Y532.421 I-7.421 J-11.271
N7595 G1 X186.298 Y532.391
N7600 X186.334 Y532.372
N7605 X186.374 Y532.364
N7610 X186.414 Y532.369
N7615 X186.451 Y532.387
N7620 X186.48 Y532.415
N7625 X186.499 Y532.452
N7630 X186.505 Y532.492
N7635 Y536.186
N7640 G3 X186.186 Y536.505 I-0.319 J0.
N7645 G1 X185.355
N7650 X185.289 Y536.502 Z-1.492 F300.
N7655 X185.223 Y536.49 Z-1.485
N7660 X185.162 Y536.473 Z-1.463
N7665 X185.103 Y536.45 Z-1.441
N7670 X185.053 Y536.423 Z-1.405
N7675 X185.005 Y536.392 Z-1.369
N7680 X184.933 Y536.331 Z-1.274
N7685 X184.885 Y536.278 Z-1.16
N7690 X184.859 Y536.242 Z-1.034
N7695 X184.85 Y536.229 Z-0.9
N7700 G0 Z5.
N7705 X110.755 Y537.505
N7710 G1 Z3.1 F300.
N7715 X110.748 Y537.487 Z2.948 F150.
N7720 X110.73 Y537.433 Z2.806
N7725 X110.704 Y537.345 Z2.683
N7730 X110.673 Y537.229 Z2.587
N7735 X110.643 Y537.093 Z2.525
N7740 X110.619 Y536.944 Z2.5
N7745 G3 X116.266 Y536.171 Z2.187 I2.824 J-0.386
N7750 X110.619 Y536.944 Z1.875 I-2.824 J0.386
N7755 X116.266 Y536.171 Z1.562 I2.824 J-0.386
N7760 X110.619 Y536.944 Z1.249 I-2.824 J0.386
N7765 X116.266 Y536.171 Z0.937 I2.824 J-0.386
N7770 X110.619 Y536.944 Z0.624 I-2.824 J0.386
N7775 X116.266 Y536.171 Z0.311 I2.824 J-0.386
N7780 X110.619 Y536.944 Z-0.001 I-2.824 J0.386
N7785 X116.266 Y536.171 Z-0.314 I2.824 J-0.386
N7790 X110.619 Y536.944 Z-0.627 I-2.824 J0.386
N7795 X116.266 Y536.171 Z-0.939 I2.824 J-0.386
N7800 X110.619 Y536.944 Z-1.252 I-2.824 J0.386
N7805 X115.458 Y534.542 Z-1.5 I2.824 J-0.386
N7810 G2 X117.579 Y536.271 I9.542 J-9.542 F1200.
N7815 G1 X117.609 Y536.298
N7820 X117.628 Y536.334
N7825 X117.636 Y536.374
N7830 X117.631 Y536.414
N7835 X117.613 Y536.451
N7840 X117.585 Y536.48
N7845 X117.548 Y536.499
N7850 X117.508 Y536.505
N7855 X113.814
N7860 G3 X113.495 Y536.186 I0. J-0.319
N7865 G1 Y532.492
N7870 X113.501 Y532.452
N7875 X113.52 Y532.415
N7880 X113.549 Y532.387
N7885 X113.586 Y532.369
N7890 X113.626 Y532.364
N7895 X113.666 Y532.372
N7900 X113.702 Y532.391
N7905 X113.729 Y532.421
N7910 G2 X115.458 Y534.542 I11.271 J-7.421
N7915 G1 X115.502 Y534.592 Z-1.492 F300.
N7920 X115.541 Y534.646 Z-1.485
N7925 X115.572 Y534.702 Z-1.463
N7930 X115.597 Y534.76 Z-1.441
N7935 X115.614 Y534.814 Z-1.405
N7940 X115.626 Y534.87 Z-1.369
N7945 X115.634 Y534.964 Z-1.274
N7950 X115.63 Y535.036 Z-1.16
N7955 X115.623 Y535.079 Z-1.034
N7960 X115.62 Y535.094 Z-0.9
N7965 G0 Z5.
N7970 X113.415 Y468.916
N7975 G1 Z3.1 F300.
N7980 X113.397 Y468.907 Z2.948 F150.
N7985 X113.346 Y468.881 Z2.806
N7990 X113.265 Y468.838 Z2.683
N7995 X113.161 Y468.778 Z2.587
N8000 X113.044 Y468.703 Z2.525
N8005 X112.921 Y468.614 Z2.5
N8010 G3 X116.368 Y464.075 Z2.187 I1.724 J-2.27
N8015 X112.921 Y468.614 Z1.875 I-1.724 J2.27
N8020 X116.368 Y464.075 Z1.562 I1.724 J-2.27
N8025 X112.921 Y468.614 Z1.249 I-1.724 J2.27
N8030 X116.368 Y464.075 Z0.937 I1.724 J-2.27
N8035 X112.921 Y468.614 Z0.624 I-1.724 J2.27
N8040 X116.368 Y464.075 Z0.311 I1.724 J-2.27
N8045 X112.921 Y468.614 Z-0.001 I-1.724 J2.27
N8050 X116.368 Y464.075 Z-0.314 I1.724 J-2.27
N8055 X112.921 Y468.614 Z-0.627 I-1.724 J2.27
N8060 X116.368 Y464.075 Z-0.939 I1.724 J-2.27
N8065 X112.921 Y468.614 Z-1.252 I-1.724 J2.27
N8070 X114.645 Y463.495 Z-1.5 I1.724 J-2.27
N8075 G1 X117.508 F1200.
N8080 X117.548 Y463.501
N8085 X117.585 Y463.52
N8090 X117.613 Y463.549
N8095 X117.631 Y463.586
N8100 X117.636 Y463.626
N8105 X117.628 Y463.666
N8110 X117.609 Y463.702
N8115 X117.579 Y463.729
N8120 G2 X113.729 Y467.579 I7.421 J11.271
N8125 G1 X113.702 Y467.609
N8130 X113.666 Y467.628
N8135 X113.626 Y467.636
N8140 X113.586 Y467.631
N8145 X113.549 Y467.613
N8150 X113.52 Y467.585
N8155 X113.501 Y467.548
N8160 X113.495 Y467.508
N8165 Y463.814
N8170 G3 X113.814 Y463.495 I0.319 J0.
N8175 G1 X114.645
N8180 X114.711 Y463.498 Z-1.492 F300.
N8185 X114.777 Y463.509 Z-1.485
N8190 X114.838 Y463.527 Z-1.463
N8195 X114.897 Y463.55 Z-1.441
N8200 X114.947 Y463.577 Z-1.405
N8205 X114.995 Y463.608 Z-1.369
N8210 X115.067 Y463.669 Z-1.274
N8215 X115.115 Y463.722 Z-1.16
N8220 X115.141 Y463.758 Z-1.034
N8225 X115.15 Y463.771 Z-0.9
N8230 G0 Z5.
N8235 X189.245 Y462.495
N8240 G1 Z3.1 F300.
N8245 X189.252 Y462.513 Z2.948 F150.
N8250 X189.27 Y462.567 Z2.806
N8255 X189.296 Y462.655 Z2.683
N8260 X189.327 Y462.77 Z2.587
N8265 X189.357 Y462.907 Z2.525
N8270 X189.381 Y463.056 Z2.5
N8275 G3 X183.734 Y463.829 Z2.187 I-2.824 J0.386
N8280 X189.381 Y463.056 Z1.875 I2.824 J-0.386
N8285 X183.734 Y463.829 Z1.562 I-2.824 J0.386
N8290 X189.381 Y463.056 Z1.249 I2.824 J-0.386
N8295 X183.734 Y463.829 Z0.937 I-2.824 J0.386
N8300 X189.381 Y463.056 Z0.624 I2.824 J-0.386
N8305 X183.734 Y463.829 Z0.311 I-2.824 J0.386
N8310 X189.381 Y463.056 Z-0.001 I2.824 J-0.386
N8315 X183.734 Y463.829 Z-0.314 I-2.824 J0.386
N8320 X189.381 Y463.056 Z-0.627 I2.824 J-0.386
N8325 X183.734 Y463.829 Z-0.939 I-2.824 J0.386
N8330 X189.381 Y463.056 Z-1.252 I2.824 J-0.386
N8335 X184.542 Y465.458 Z-1.5 I-2.824 J0.386
N8340 G2 X182.421 Y463.729 I-9.542 J9.542 F1200.
N8345 G1 X182.391 Y463.702
N8350 X182.372 Y463.666
N8355 X182.364 Y463.626
N8360 X182.369 Y463.586
N8365 X182.387 Y463.549
N8370 X182.415 Y463.52
N8375 X182.452 Y463.501
N8380 X182.492 Y463.495
N8385 X186.186
N8390 G3 X186.505 Y463.814 I0. J0.319
N8395 G1 Y467.508
N8400 X186.499 Y467.548
N8405 X186.48 Y467.585
N8410 X186.451 Y467.613
N8415 X186.414 Y467.631
N8420 X186.374 Y467.636
N8425 X186.334 Y467.628
N8430 X186.298 Y467.609
N8435 X186.271 Y467.579
N8440 G2 X184.542 Y465.458 I-11.271 J7.421
N8445 X182.595 Y465.12 I-1.213 J1.213
N8450 G3 X180.62 Y465.049 I-0.919 J-1.941
N8455 G2 X175. Y463.572 I-5.62 J9.951
N8460 G1 X125.
N8465 G2 X113.572 Y475. I0. J11.428
N8470 G1 Y525.
N8475 G2 X125. Y536.428 I11.428 J0.
N8480 G1 X175.
N8485 G2 X186.428 Y525. I0. J-11.428
N8490 G1 Y475.
N8495 G2 X180.62 Y465.049 I-11.428 J0.
N8500 X178.41 Y465.292 I-0.936 J1.658
N8505 G3 X176.283 Y465.94 I-1.758 J-1.954
N8510 G2 X175. Y465.85 I-1.283 J9.06
N8515 G1 X125.
N8520 G2 X115.85 Y475. I0. J9.15
N8525 G1 Y525.
N8530 G2 X125. Y534.15 I9.15 J0.
N8535 G1 X175.
N8540 G2 X184.15 Y525. I0. J-9.15
N8545 G1 Y475.
N8550 G2 X176.283 Y465.94 I-9.15 J0.
N8555 X171.552 Y468.557 I-0.63 J4.446
N8560 G3 X167.017 Y471.5 I-4.535 J-2.023
N8565 G1 X125.
N8570 G2 X121.5 Y475. I0. J3.5
N8575 G1 Y525.
N8580 G2 X125. Y528.5 I3.5 J0.
N8585 G1 X175.
N8590 G2 X178.5 Y525. I0. J-3.5
N8595 G1 Y475.
N8600 G2 X175. Y471.5 I-3.5 J0.
N8605 G1 X167.017
N8610 G3 X166.877 Y470.935 I0. J-0.3
N8615 G1 X185.211 Y461.185
N8620 X185.256 Y461.166
N8625 X185.303 Y461.154
N8630 X185.352 Y461.15
N8635 X188.531
N8640 G3 X188.85 Y461.469 I0. J0.319
N8645 G1 Y538.531
N8650 G3 X188.531 Y538.85 I-0.319 J0.
N8655 G1 X111.469
N8660 G3 X111.15 Y538.531 I0. J-0.319
N8665 G1 Y461.469
N8670 G3 X111.469 Y461.15 I0.319 J0.
N8675 G1 X183.28
N8680 X185.352
N8685 G2 X187.415 Y459.774 I0. J-2.236
N8690 G3 X189.479 Y458.398 I2.064 J0.86
N8695 G1 X191.282
N8700 G3 X191.602 Y458.718 I0. J0.319
N8705 G1 Y541.282
N8710 G3 X191.282 Y541.602 I-0.319 J0.
N8715 G1 X108.718
N8720 G3 X108.398 Y541.282 I0. J-0.319
N8725 G1 Y458.718
N8730 G3 X108.718 Y458.398 I0.319 J0.
N8735 G1 X189.479
N8740 G2 X192.804 Y456.495 I0. J-3.855
N8745 G3 X196.5 Y457.5 I1.712 J1.005
N8750 G1 Y546.5
N8755 X103.5
N8760 Y453.5
N8765 X175.
N8770 X196.5
N8775 Y457.5
N8780 G3 X196.376 Y457.743 I-0.3 J0.
N8785 G1 X189.496 Y462.732
N8790 G2 X189.376 Y463.019 I0.176 J0.243
N8795 G3 X183.739 Y463.866 Z-1.813 I-2.818 J0.423 F150.
N8800 X189.376 Y463.019 Z-2.125 I2.818 J-0.423
N8805 X183.739 Y463.866 Z-2.438 I-2.818 J0.423
N8810 X189.376 Y463.019 Z-2.751 I2.818 J-0.423
N8815 X184.542 Y465.458 Z-3. I-2.818 J0.423
N8820 G2 X182.421 Y463.729 I-9.542 J9.542 F1200.
N8825 G1 X182.391 Y463.702
N8830 X182.372 Y463.666
N8835 X182.364 Y463.626
N8840 X182.369 Y463.586
N8845 X182.387 Y463.549
N8850 X182.415 Y463.52
N8855 X182.452 Y463.501
N8860 X182.492 Y463.495
N8865 X186.186
N8870 G3 X186.505 Y463.814 I0. J0.319
N8875 G1 Y467.508
N8880 X186.499 Y467.548
N8885 X186.48 Y467.585
N8890 X186.451 Y467.613
N8895 X186.414 Y467.631
N8900 X186.374 Y467.636
N8905 X186.334 Y467.628
N8910 X186.298 Y467.609
N8915 X186.271 Y467.579
N8920 G2 X184.542 Y465.458 I-11.271 J7.421
N8925 G1 X184.498 Y465.408 Z-2.992 F300.
N8930 X184.459 Y465.354 Z-2.985
N8935 X184.428 Y465.298 Z-2.963
N8940 X184.403 Y465.24 Z-2.941
N8945 X184.386 Y465.186 Z-2.905
N8950 X184.374 Y465.13 Z-2.869
N8955 X184.366 Y465.036 Z-2.774
N8960 X184.37 Y464.964 Z-2.66
N8965 X184.377 Y464.921 Z-2.534
N8970 X184.38 Y464.906 Z-2.4
N8975 G0 Z5.
N8980 X186.585 Y531.084
N8985 G1 Z1.6 F300.
N8990 X186.603 Y531.093 Z1.448 F150.
N8995 X186.654 Y531.119 Z1.306
N9000 X186.735 Y531.162 Z1.183
N9005 X186.839 Y531.222 Z1.087
N9010 X186.956 Y531.297 Z1.025
N9015 X187.079 Y531.386 Z1.
N9020 G3 X183.632 Y535.925 Z0.687 I-1.724 J2.27
N9025 X187.079 Y531.386 Z0.375 I1.724 J-2.27
N9030 X183.632 Y535.925 Z0.062 I-1.724 J2.27
N9035 X187.079 Y531.386 Z-0.251 I1.724 J-2.27
N9040 X183.632 Y535.925 Z-0.563 I-1.724 J2.27
N9045 X187.079 Y531.386 Z-0.876 I1.724 J-2.27
N9050 X183.632 Y535.925 Z-1.189 I-1.724 J2.27
N9055 X187.079 Y531.386 Z-1.501 I1.724 J-2.27
N9060 X183.632 Y535.925 Z-1.814 I-1.724 J2.27
N9065 X187.079 Y531.386 Z-2.127 I1.724 J-2.27
N9070 X183.632 Y535.925 Z-2.439 I-1.724 J2.27
N9075 X187.079 Y531.386 Z-2.752 I1.724 J-2.27
N9080 X185.355 Y536.505 Z-3. I-1.724 J2.27
N9085 G1 X182.492 F1200.
N9090 X182.452 Y536.499
N9095 X182.415 Y536.48
N9100 X182.387 Y536.451
N9105 X182.369 Y536.414
N9110 X182.364 Y536.374
N9115 X182.372 Y536.334
N9120 X182.391 Y536.298
N9125 X182.421 Y536.271
N9130 G2 X186.271 Y532.421 I-7.421 J-11.271
N9135 G1 X186.298 Y532.391
N9140 X186.334 Y532.372
N9145 X186.374 Y532.364
N9150 X186.414 Y532.369
N9155 X186.451 Y532.387
N9160 X186.48 Y532.415
N9165 X186.499 Y532.452
N9170 X186.505 Y532.492
N9175 Y536.186
N9180 G3 X186.186 Y536.505 I-0.319 J0.
N9185 G1 X185.355
N9190 X185.289 Y536.502 Z-2.992 F300.
N9195 X185.223 Y536.49 Z-2.985
N9200 X185.162 Y536.473 Z-2.963
N9205 X185.103 Y536.45 Z-2.941
N9210 X185.053 Y536.423 Z-2.905
N9215 X185.005 Y536.392 Z-2.869
N9220 X184.933 Y536.331 Z-2.774
N9225 X184.885 Y536.278 Z-2.66
N9230 X184.859 Y536.242 Z-2.534
N9235 X184.85 Y536.229 Z-2.4
N9240 G0 Z5.
N9245 X110.755 Y537.505
N9250 G1 Z1.6 F300.
N9255 X110.748 Y537.487 Z1.448 F150.
N9260 X110.73 Y537.433 Z1.306
N9265 X110.704 Y537.345 Z1.183
N9270 X110.673 Y537.229 Z1.087
N9275 X110.643 Y537.093 Z1.025
N9280 X110.619 Y536.944 Z1.
N9285 G3 X116.266 Y536.171 Z0.687 I2.824 J-0.386
N9290 X110.619 Y536.944 Z0.375 I-2.824 J0.386
N9295 X116.266 Y536.171 Z0.062 I2.824 J-0.386
N9300 X110.619 Y536.944 Z-0.251 I-2.824 J0.386
N9305 X116.266 Y536.171 Z-0.563 I2.824 J-0.386
N9310 X110.619 Y536.944 Z-0.876 I-2.824 J0.386
N9315 X116.266 Y536.171 Z-1.189 I2.824 J-0.386
N9320 X110.619 Y536.944 Z-1.501 I-2.824 J0.386
N9325 X116.266 Y536.171 Z-1.814 I2.824 J-0.386
N9330 X110.619 Y536.944 Z-2.127 I-2.824 J0.386
N9335 X116.266 Y536.171 Z-2.439 I2.824 J-0.386
N9340 X110.619 Y536.944 Z-2.752 I-2.824 J0.386
N9345 X115.458 Y534.542 Z-3. I2.824 J-0.386
N9350 G2 X117.579 Y536.271 I9.542 J-9.542 F1200.
N9355 G1 X117.609 Y536.298
N9360 X117.628 Y536.334
N9365 X117.636 Y536.374
N9370 X117.631 Y536.414
N9375 X117.613 Y536.451
N9380 X117.585 Y536.48
N9385 X117.548 Y536.499
N9390 X117.508 Y536.505
N9395 X113.814
N9400 G3 X113.495 Y536.186 I0. J-0.319
N9405 G1 Y532.492
N9410 X113.501 Y532.452
N9415 X113.52 Y532.415
N9420 X113.549 Y532.387
N9425 X113.586 Y532.369
N9430 X113.626 Y532.364
N9435 X113.666 Y532.372
N9440 X113.702 Y532.391
N9445 X113.729 Y532.421
N9450 G2 X115.458 Y534.542 I11.271 J-7.421
N9455 G1 X115.502 Y534.592 Z-2.992 F300.
N9460 X115.541 Y534.646 Z-2.985
N9465 X115.572 Y534.702 Z-2.963
N9470 X115.597 Y534.76 Z-2.941
N9475 X115.614 Y534.814 Z-2.905
N9480 X115.626 Y534.87 Z-2.869
N9485 X115.634 Y534.964 Z-2.774
N9490 X115.63 Y535.036 Z-2.66
N9495 X115.623 Y535.079 Z-2.534
N9500 X115.62 Y535.094 Z-2.4
N9505 G0 Z5.
N9510 X113.415 Y468.916
N9515 G1 Z1.6 F300.
N9520 X113.397 Y468.907 Z1.448 F150.
N9525 X113.346 Y468.881 Z1.306
N9530 X113.265 Y468.838 Z1.183
N9535 X113.161 Y468.778 Z1.087
N9540 X113.044 Y468.703 Z1.025
N9545 X112.921 Y468.614 Z1.
N9550 G3 X116.368 Y464.075 Z0.687 I1.724 J-2.27
N9555 X112.921 Y468.614 Z0.375 I-1.724 J2.27
N9560 X116.368 Y464.075 Z0.062 I1.724 J-2.27
N9565 X112.921 Y468.614 Z-0.251 I-1.724 J2.27
N9570 X116.368 Y464.075 Z-0.563 I1.724 J-2.27
N9575 X112.921 Y468.614 Z-0.876 I-1.724 J2.27
N9580 X116.368 Y464.075 Z-1.189 I1.724 J-2.27
N9585 X112.921 Y468.614 Z-1.501 I-1.724 J2.27
N9590 X116.368 Y464.075 Z-1.814 I1.724 J-2.27
N9595 X112.921 Y468.614 Z-2.127 I-1.724 J2.27
N9600 X116.368 Y464.075 Z-2.439 I1.724 J-2.27
N9605 X112.921 Y468.614 Z-2.752 I-1.724 J2.27
N9610 X114.645 Y463.495 Z-3. I1.724 J-2.27
N9615 G1 X117.508 F1200.
N9620 X117.548 Y463.501
N9625 X117.585 Y463.52
N9630 X117.613 Y463.549
N9635 X117.631 Y463.586
N9640 X117.636 Y463.626
N9645 X117.628 Y463.666
N9650 X117.609 Y463.702
N9655 X117.579 Y463.729
N9660 G2 X113.729 Y467.579 I7.421 J11.271
N9665 G1 X113.702 Y467.609
N9670 X113.666 Y467.628
N9675 X113.626 Y467.636
N9680 X113.586 Y467.631
N9685 X113.549 Y467.613
N9690 X113.52 Y467.585
N9695 X113.501 Y467.548
N9700 X113.495 Y467.508
N9705 Y463.814
N9710 G3 X113.814 Y463.495 I0.319 J0.
N9715 G1 X114.645
N9720 G2 X116.403 Y462.322 I0. J-1.905
N9725 G3 X118.162 Y461.15 I1.759 J0.733
N9730 G1 X188.531
N9735 G3 X188.85 Y461.469 I0. J0.319
N9740 G1 Y538.531
N9745 G3 X188.531 Y538.85 I-0.319 J0.
N9750 G1 X111.469
N9755 G3 X111.15 Y538.531 I0. J-0.319
N9760 G1 Y461.469
N9765 G3 X111.469 Y461.15 I0.319 J0.
N9770 G1 X118.162
N9775 G2 X120.226 Y459.774 I0. J-2.236
N9780 G3 X122.289 Y458.398 I2.064 J0.86
N9785 G1 X191.282
N9790 G3 X191.602 Y458.718 I0. J0.319
N9795 G1 Y541.282
N9800 G3 X191.282 Y541.602 I-0.319 J0.
N9805 G1 X108.718
N9810 G3 X108.398 Y541.282 I0. J-0.319
N9815 G1 Y458.718
N9820 G3 X108.718 Y458.398 I0.319 J0.
N9825 G1 X122.289
N9830 G2 X125.963 Y455.949 I0. J-3.98
N9835 G3 X129.637 Y453.5 I3.674 J1.531
N9840 G1 X175.
N9845 X196.5
N9850 Y546.5
N9855 X103.5
N9860 Y453.5
N9865 X129.637
N9870 G3 X129.865 Y453.995 I0. J0.3
N9875 G1 X129.005 Y454.999
N9880 X128.983 Y455.021
N9885 X116.924 Y466.471
N9890 X116.902 Y466.5
N9895 X116.892 Y466.535
N9900 X116.893 Y466.571
N9905 X116.947 Y466.821
N9910 X116.949 Y466.857
N9915 X116.939 Y466.891
N9920 X116.918 Y466.92
N9925 G2 X113.572 Y475. I8.082 J8.08
N9930 G1 Y525.
N9935 G2 X125. Y536.428 I11.428 J0.
N9940 G1 X175.
N9945 G2 X186.428 Y525. I0. J-11.428
N9950 G1 Y475.
N9955 G2 X175. Y463.572 I-11.428 J0.
N9960 G1 X125.
N9965 G2 X116.918 Y466.92 I0. J11.428
N9970 X116.56 Y469.114 I1.347 J1.346
N9975 G3 X116.615 Y471.337 I-2.354 J1.171
N9980 G2 X115.85 Y475. I8.385 J3.663
N9985 G1 Y525.
N9990 G2 X125. Y534.15 I9.15 J0.
N9995 G1 X175.
N10000 G2 X184.15 Y525. I0. J-9.15
N10005 G1 Y475.
N10010 G2 X175. Y465.85 I-9.15 J0.
N10015 G1 X125.
N10020 G2 X116.615 Y471.337 I0. J9.15
N10025 X118.505 Y476.938 I4.028 J1.76
N10030 G3 X121.5 Y482.034 I-2.837 J5.096
N10035 G1 Y525.
N10040 G2 X125. Y528.5 I3.5 J0.
N10045 G1 X175.
N10050 G2 X178.5 Y525. I0. J-3.5
N10055 G1 Y475.
N10060 G2 X175. Y471.5 I-3.5 J0.
N10065 G1 X125.
N10070 G2 X121.5 Y475. I0. J3.5
N10075 G1 Y482.034
N10080 X121.496 Y482.1 Z-2.992 F300.
N10085 X121.485 Y482.166 Z-2.985
N10090 X121.468 Y482.227 Z-2.963
N10095 X121.444 Y482.286 Z-2.941
N10100 X121.418 Y482.336 Z-2.905
N10105 X121.387 Y482.384 Z-2.869
N10110 X121.326 Y482.456 Z-2.774
N10115 X121.273 Y482.504 Z-2.66
N10120 X121.237 Y482.53 Z-2.534
N10125 X121.224 Y482.538 Z-2.4
N10130 G0 Z15.
N10135 X140.524 Y838.361
N10140 Z5.
N10145 G1 Z3.1 F300.
N10150 X140.526 Y838.341 Z2.948 F150.
N10155 X140.534 Y838.284 Z2.806
N10160 X140.549 Y838.194 Z2.683
N10165 X140.572 Y838.077 Z2.587
N10170 X140.606 Y837.941 Z2.525
N10175 X140.65 Y837.797 Z2.5
N10180 G3 X146.056 Y839.604 Z2.187 I2.703 J0.904
N10185 X140.65 Y837.797 Z1.875 I-2.703 J-0.904
N10190 X146.056 Y839.604 Z1.562 I2.703 J0.904
N10195 X140.65 Y837.797 Z1.249 I-2.703 J-0.904
N10200 X146.056 Y839.604 Z0.937 I2.703 J0.904
N10205 X140.65 Y837.797 Z0.624 I-2.703 J-0.904
N10210 X146.056 Y839.604 Z0.311 I2.703 J0.904
N10215 X140.65 Y837.797 Z-0.001 I-2.703 J-0.904
N10220 X146.056 Y839.604 Z-0.314 I2.703 J0.904
N10225 X140.65 Y837.797 Z-0.627 I-2.703 J-0.904
N10230 X146.056 Y839.604 Z-0.939 I2.703 J0.904
N10235 X140.65 Y837.797 Z-1.252 I-2.703 J-0.904
N10240 X146.052 Y837.785 Z-1.5 I2.703 J0.904
N10245 X145.984 Y838.079 I-0.271 J0.092 F1200.
N10250 G1 X145.93 Y838.136
N10255 X145.877 Y838.193
N10260 G3 X145.631 Y838.089 I-0.102 J-0.102
N10265 G2 Y837.615 I-16.572 J-0.237
N10270 G3 X145.877 Y837.511 I0.144 J-0.002
N10275 X146.048 Y837.773 I-0.539 J0.539
N10280 G1 X146.052 Y837.785
N10285 G2 X147.484 Y839.43 I2.72 J-0.922
N10290 G3 X147.832 Y841.583 I-0.603 J1.202
N10295 G1 X58.857 Y930.557
N10300 G3 X57.295 I-0.781 J-0.781
N10305 Y928.994 I0.781 J-0.781
N10310 G1 X137.248 Y849.041
N10315 G2 X137.197 Y826.613 I-11.189 J-11.189
N10320 G1 X57.295 Y746.709
N10325 G3 X58.857 Y745.146 I0.781 J-0.781
N10330 G1 X148.66 Y834.949
N10335 G3 Y840.755 I-2.903 J2.903
N10340 G1 X147.832 Y841.583
N10345 G2 X147.408 Y843.7 I1.376 J1.376
N10350 G3 X146.985 Y845.817 I-1.799 J0.741
N10355 G1 X60.551 Y932.251
N10360 G3 X55.601 I-2.475 J-2.475
N10365 Y927.301 I2.475 J-2.475
N10370 G1 X135.504 Y847.398
N10375 G2 Y828.306 I-9.546 J-9.546
N10380 G1 X55.601 Y748.403
N10385 G3 Y743.453 I2.475 J-2.475
N10390 X60.551 I2.475 J2.475
N10395 G1 X150.353 Y833.256
N10400 G3 Y842.448 I-4.596 J4.596
N10405 G1 X146.985 Y845.817
N10410 G3 X146.534 Y845.786 I-0.212 J-0.212
N10415 G1 X140.686 Y838.106
N10420 G3 X140.639 Y837.833 I0.239 J-0.182
N10425 X146.068 Y839.568 Z-1.813 I2.715 J0.868 F150.
N10430 X140.639 Y837.833 Z-2.125 I-2.715 J-0.868
N10435 X146.068 Y839.568 Z-2.438 I2.715 J0.868
N10440 X140.639 Y837.833 Z-2.751 I-2.715 J-0.868
N10445 X146.052 Y837.785 Z-3. I2.715 J0.868
N10450 X145.984 Y838.079 I-0.271 J0.092 F1200.
N10455 G1 X145.93 Y838.136
N10460 X145.877 Y838.193
N10465 G3 X145.631 Y838.089 I-0.102 J-0.102
N10470 G2 Y837.615 I-16.572 J-0.237
N10475 G3 X145.877 Y837.511 I0.144 J-0.002
N10480 X146.048 Y837.773 I-0.539 J0.539
N10485 G1 X146.052 Y837.785
N10490 G2 X147.484 Y839.43 I2.72 J-0.922
N10495 G3 X147.832 Y841.583 I-0.603 J1.202
N10500 G1 X58.857 Y930.557
N10505 G3 X57.295 I-0.781 J-0.781
N10510 Y928.994 I0.781 J-0.781
N10515 G1 X137.248 Y849.041
N10520 G2 X137.197 Y826.613 I-11.189 J-11.189
N10525 G1 X57.295 Y746.709
N10530 G3 X58.857 Y745.146 I0.781 J-0.781
N10535 G1 X148.66 Y834.949
N10540 G3 Y840.755 I-2.903 J2.903
N10545 G1 X147.832 Y841.583
N10550 G2 X147.408 Y843.7 I1.376 J1.376
N10555 G3 X146.985 Y845.817 I-1.799 J0.741
N10560 G1 X60.551 Y932.251
N10565 G3 X55.601 I-2.475 J-2.475
N10570 Y927.301 I2.475 J-2.475
N10575 G1 X135.504 Y847.398
N10580 G2 Y828.306 I-9.546 J-9.546
N10585 G1 X55.601 Y748.403
N10590 G3 Y743.453 I2.475 J-2.475
N10595 X60.551 I2.475 J2.475
N10600 G1 X150.353 Y833.256
N10605 G3 Y842.448 I-4.596 J4.596
N10610 G1 X146.985 Y845.817
N10615 X146.935 Y845.861 Z-2.992 F300.
N10620 X146.881 Y845.9 Z-2.985
N10625 X146.825 Y845.931 Z-2.963
N10630 X146.767 Y845.956 Z-2.941
N10635 X146.713 Y845.973 Z-2.905
N10640 X146.657 Y845.984 Z-2.869
N10645 X146.563 Y845.992 Z-2.774
N10650 X146.491 Y845.988 Z-2.66
N10655 X146.447 Y845.982 Z-2.534
N10660 X146.433 Y845.979 Z-2.4
N10665 G0 Z15.
N10670 G53 Z0.
N10675 M30
%
