%
(POCKET)
(T2  D=3. CR=0. - ZMIN=-15.5 - FLAT END MILL)
N10 G90 G94 G17 G91.1
N15 G21
N20 G53 G0 Z0.
(2D POCKET3)
N25 M9
N30 T2 M6
N35 S24000 M3
N40 G54
N45 M8
N50 G0 X37.657 Y58.592
N55 G43 Z20. H2
N60 G0 Z-7.
N65 G1 Z-10. F150.
N70 Z-13.
N75 X37.634
N80 X36.661 F350.
N85 G2 X36.342 Y58.911 I0. J0.319
N90 G1 Y204.989
N95 G2 X36.661 Y205.308 I0.319 J0.
N100 G1 X37.637
N105 X37.649 F150.
N110 G18 G2 X37.949 Z-12.7 I0. K0.3
N115 G0 Z5.
N120 X37.652 Y56.195
N125 Z-7.
N130 G1 Z-10. F80.
N135 Z-13. F150.
N140 X37.641
N145 X34.264 F350.
N150 G17 G2 X33.945 Y56.514 I0. J0.319
N155 G1 Y207.386
N160 G2 X34.264 Y207.705 I0.319 J0.
N165 G1 X120.236
N170 G2 X120.555 Y207.386 I0. J-0.319
N175 G1 Y206.107
N180 G3 X121.753 Y204.309 I1.947 J0.
N185 G2 X122.952 Y202.512 I-0.749 J-1.797
N190 G1 Y54.118
N195 G2 X122.632 Y53.798 I-0.319 J0.
N200 G1 X31.868
N205 G2 X31.548 Y54.118 I0. J0.319
N210 G1 Y209.782
N215 G2 X31.868 Y210.102 I0.319 J0.
N220 G1 X122.632
N225 G2 X122.952 Y209.782 I0. J-0.319
N230 G1 Y202.512
N235 G3 X124.15 Y200.714 I1.947 J0.
N240 G2 X125.348 Y198.917 I-0.749 J-1.797
N245 G1 Y51.721
N250 G2 X125.029 Y51.402 I-0.319 J0.
N255 G1 X29.471
N260 G2 X29.152 Y51.721 I0. J0.319
N265 G1 Y212.179
N270 G2 X29.471 Y212.498 I0.319 J0.
N275 G1 X125.029
N280 G2 X125.348 Y212.179 I0. J-0.319
N285 G1 Y198.917
N290 G3 X126.549 Y197.116 I1.951 J0.
N295 G2 X127.75 Y195.314 I-0.751 J-1.801
N300 G1 Y49.
N305 X26.75
N310 Y214.9
N315 X127.75
N320 Y195.314
N325 G3 X128. Y194.939 I0.406 J0.
N330 G2 X128.25 Y194.564 I-0.156 J-0.375
N335 G1 Y48.5
N340 X26.25
N345 Y215.4
N350 X128.25
N355 Y194.564
N360 X128.245 Y194.507 Z-12.989 F150.
N365 X128.228 Y194.452 Z-12.977
N370 X128.207 Y194.409 Z-12.945
N375 X128.178 Y194.369 Z-12.912
N380 X128.131 Y194.325 Z-12.815
N385 X128.112 Y194.312 Z-12.7
N390 G0 Z5.
N395 X37.657 Y58.592
N400 Z-7.
N405 G1 Z-11. F80.
N410 Z-14. F150.
N415 X37.634
N420 X36.661 F350.
N425 G2 X36.342 Y58.911 I0. J0.319
N430 G1 Y204.989
N435 G2 X36.661 Y205.308 I0.319 J0.
N440 G1 X37.637
N445 X37.649 F150.
N450 G18 G2 X37.949 Z-13.7 I0. K0.3
N455 G0 Z5.
N460 X37.652 Y56.195
N465 Z-7.
N470 G1 Z-11. F80.
N475 Z-14. F150.
N480 X37.641
N485 X34.264 F350.
N490 G17 G2 X33.945 Y56.514 I0. J0.319
N495 G1 Y207.386
N500 G2 X34.264 Y207.705 I0.319 J0.
N505 G1 X120.236
N510 G2 X120.555 Y207.386 I0. J-0.319
N515 G1 Y206.107
N520 G3 X121.753 Y204.309 I1.947 J0.
N525 G2 X122.952 Y202.512 I-0.749 J-1.797
N530 G1 Y54.118
N535 G2 X122.632 Y53.798 I-0.319 J0.
N540 G1 X31.868
N545 G2 X31.548 Y54.118 I0. J0.319
N550 G1 Y209.782
N555 G2 X31.868 Y210.102 I0.319 J0.
N560 G1 X122.632
N565 G2 X122.952 Y209.782 I0. J-0.319
N570 G1 Y202.512
N575 G3 X124.15 Y200.714 I1.947 J0.
N580 G2 X125.348 Y198.917 I-0.749 J-1.797
N585 G1 Y51.721
N590 G2 X125.029 Y51.402 I-0.319 J0.
N595 G1 X29.471
N600 G2 X29.152 Y51.721 I0. J0.319
N605 G1 Y212.179
N610 G2 X29.471 Y212.498 I0.319 J0.
N615 G1 X125.029
N620 G2 X125.348 Y212.179 I0. J-0.319
N625 G1 Y198.917
N630 G3 X126.549 Y197.116 I1.951 J0.
N635 G2 X127.75 Y195.314 I-0.751 J-1.801
N640 G1 Y49.
N645 X26.75
N650 Y214.9
N655 X127.75
N660 Y195.314
N665 G3 X128. Y194.939 I0.406 J0.
N670 G2 X128.25 Y194.564 I-0.156 J-0.375
N675 G1 Y48.5
N680 X26.25
N685 Y215.4
N690 X128.25
N695 Y194.564
N700 X128.245 Y194.507 Z-13.989 F150.
N705 X128.228 Y194.452 Z-13.977
N710 X128.207 Y194.409 Z-13.945
N715 X128.178 Y194.369 Z-13.912
N720 X128.131 Y194.325 Z-13.815
N725 X128.112 Y194.312 Z-13.7
N730 G0 Z5.
N735 X37.657 Y58.592
N740 Z-7.
N745 G1 Z-12. F80.
N750 Z-15. F150.
N755 X37.634
N760 X36.661 F350.
N765 G2 X36.342 Y58.911 I0. J0.319
N770 G1 Y204.989
N775 G2 X36.661 Y205.308 I0.319 J0.
N780 G1 X37.637
N785 X37.649 F150.
N790 G18 G2 X37.949 Z-14.7 I0. K0.3
N795 G0 Z5.
N800 X37.652 Y56.195
N805 Z-7.
N810 G1 Z-12. F80.
N815 Z-15. F150.
N820 X37.641
N825 X34.264 F350.
N830 G17 G2 X33.945 Y56.514 I0. J0.319
N835 G1 Y207.386
N840 G2 X34.264 Y207.705 I0.319 J0.
N845 G1 X120.236
N850 G2 X120.555 Y207.386 I0. J-0.319
N855 G1 Y206.107
N860 G3 X121.753 Y204.309 I1.947 J0.
N865 G2 X122.952 Y202.512 I-0.749 J-1.797
N870 G1 Y54.118
N875 G2 X122.632 Y53.798 I-0.319 J0.
N880 G1 X31.868
N885 G2 X31.548 Y54.118 I0. J0.319
N890 G1 Y209.782
N895 G2 X31.868 Y210.102 I0.319 J0.
N900 G1 X122.632
N905 G2 X122.952 Y209.782 I0. J-0.319
N910 G1 Y202.512
N915 G3 X124.15 Y200.714 I1.947 J0.
N920 G2 X125.348 Y198.917 I-0.749 J-1.797
N925 G1 Y51.721
N930 G2 X125.029 Y51.402 I-0.319 J0.
N935 G1 X29.471
N940 G2 X29.152 Y51.721 I0. J0.319
N945 G1 Y212.179
N950 G2 X29.471 Y212.498 I0.319 J0.
N955 G1 X125.029
N960 G2 X125.348 Y212.179 I0. J-0.319
N965 G1 Y198.917
N970 G3 X126.549 Y197.116 I1.951 J0.
N975 G2 X127.75 Y195.314 I-0.751 J-1.801
N980 G1 Y49.
N985 X26.75
N990 Y214.9
N995 X127.75
N1000 Y195.314
N1005 G3 X128. Y194.939 I0.406 J0.
N1010 G2 X128.25 Y194.564 I-0.156 J-0.375
N1015 G1 Y48.5
N1020 X26.25
N1025 Y215.4
N1030 X128.25
N1035 Y194.564
N1040 X128.245 Y194.507 Z-14.989 F150.
N1045 X128.228 Y194.452 Z-14.977
N1050 X128.207 Y194.409 Z-14.945
N1055 X128.178 Y194.369 Z-14.912
N1060 X128.131 Y194.325 Z-14.815
N1065 X128.112 Y194.312 Z-14.7
N1070 G0 Z5.
N1075 X37.657 Y58.592
N1080 Z-7.
N1085 G1 Z-13. F80.
N1090 Z-15.5 F150.
N1095 X37.634
N1100 X36.661 F350.
N1105 G2 X36.342 Y58.911 I0. J0.319
N1110 G1 Y204.989
N1115 G2 X36.661 Y205.308 I0.319 J0.
N1120 G1 X37.637
N1125 X37.649 F150.
N1130 G18 G2 X37.949 Z-15.2 I0. K0.3
N1135 G0 Z5.
N1140 X37.652 Y56.195
N1145 Z-7.
N1150 G1 Z-13. F80.
N1155 Z-15.5 F150.
N1160 X37.641
N1165 X34.264 F350.
N1170 G17 G2 X33.945 Y56.514 I0. J0.319
N1175 G1 Y207.386
N1180 G2 X34.264 Y207.705 I0.319 J0.
N1185 G1 X120.236
N1190 G2 X120.555 Y207.386 I0. J-0.319
N1195 G1 Y206.107
N1200 G3 X121.753 Y204.309 I1.947 J0.
N1205 G2 X122.952 Y202.512 I-0.749 J-1.797
N1210 G1 Y54.118
N1215 G2 X122.632 Y53.798 I-0.319 J0.
N1220 G1 X31.868
N1225 G2 X31.548 Y54.118 I0. J0.319
N1230 G1 Y209.782
N1235 G2 X31.868 Y210.102 I0.319 J0.
N1240 G1 X122.632
N1245 G2 X122.952 Y209.782 I0. J-0.319
N1250 G1 Y202.512
N1255 G3 X124.15 Y200.714 I1.947 J0.
N1260 G2 X125.348 Y198.917 I-0.749 J-1.797
N1265 G1 Y51.721
N1270 G2 X125.029 Y51.402 I-0.319 J0.
N1275 G1 X29.471
N1280 G2 X29.152 Y51.721 I0. J0.319
N1285 G1 Y212.179
N1290 G2 X29.471 Y212.498 I0.319 J0.
N1295 G1 X125.029
N1300 G2 X125.348 Y212.179 I0. J-0.319
N1305 G1 Y198.917
N1310 G3 X126.549 Y197.116 I1.951 J0.
N1315 G2 X127.75 Y195.314 I-0.751 J-1.801
N1320 G1 Y49.
N1325 X26.75
N1330 Y214.9
N1335 X127.75
N1340 Y195.314
N1345 G3 X128. Y194.939 I0.406 J0.
N1350 G2 X128.25 Y194.564 I-0.156 J-0.375
N1355 G1 Y48.5
N1360 X26.25
N1365 Y215.4
N1370 X128.25
N1375 Y194.564
N1380 X128.245 Y194.507 Z-15.489 F150.
N1385 X128.228 Y194.452 Z-15.477
N1390 X128.207 Y194.409 Z-15.445
N1395 X128.178 Y194.369 Z-15.412
N1400 X128.131 Y194.325 Z-15.315
N1405 X128.112 Y194.312 Z-15.2
N1410 G0 Z20.
N1415 M9
N1420 G53 Z0.
N1425 M30
%
