%
(POCKET_TEST_1)
(T1  D=6. CR=0. - ZMIN=-3. - FLAT END MILL)
N10 G90 G94 G17 G91.1
N15 G21
N20 G53 G0 Z0.
(2D POCKET6)
N25 M9
N30 T1 M6
N35 S22000 M3
N40 G54
N45 G0 X176.228 Y108.177
N50 G43 Z15. H1
N55 G0 Z5.
N60 G1 Z3.1 F300.
N65 X176.246 Y108.185 Z2.948 F150.
N70 X176.297 Y108.211 Z2.806
N75 X176.378 Y108.254 Z2.683
N80 X176.481 Y108.314 Z2.587
N85 X176.599 Y108.39 Z2.525
N90 X176.722 Y108.478 Z2.5
N95 G3 X173.277 Y113.019 Z2.187 I-1.722 J2.271
N100 X176.722 Y108.478 Z1.875 I1.722 J-2.271
N105 X173.277 Y113.019 Z1.562 I-1.722 J2.271
N110 X176.722 Y108.478 Z1.249 I1.722 J-2.271
N115 X173.277 Y113.019 Z0.937 I-1.722 J2.271
N120 X176.722 Y108.478 Z0.624 I1.722 J-2.271
N125 X173.277 Y113.019 Z0.311 I-1.722 J2.271
N130 X176.722 Y108.478 Z-0.001 I1.722 J-2.271
N135 X173.277 Y113.019 Z-0.314 I-1.722 J2.271
N140 X176.722 Y108.478 Z-0.627 I1.722 J-2.271
N145 X173.277 Y113.019 Z-0.939 I-1.722 J2.271
N150 X176.722 Y108.478 Z-1.252 I1.722 J-2.271
N155 X175.001 Y113.598 Z-1.5 I-1.722 J2.271
N160 G2 X57.168 Y181.237 I0.07 J136.579 F1200.
N165 X53.084 Y311.231 I118.168 J68.774
N170 X204.753 Y383.145 I121.823 J-61.034
N175 X284.221 Y168.248 I-29.651 J-133.107
N180 X271.448 Y153.509 I-108.287 J80.942
N185 X213.052 Y118.986 I-97.122 J97.631
N190 X175.001 Y113.598 I-37.981 J131.192
N195 X173.276 Y114.755 I0.001 J1.866
N200 G3 X171.565 Y115.932 I-1.758 J-0.723
N205 G2 X118.217 Y128.46 I3.387 J134.277
N210 X41.958 Y232.789 I57.076 J121.754
N215 X59.137 Y317.617 I132.307 J17.36
N220 X123.135 Y373.719 I115.532 J-67.239
N225 X279.088 Y165.371 I51.826 J-123.748
N230 X171.565 Y115.932 I-104.135 J84.838
N235 X167.385 Y118.915 I0.116 J4.583
N240 G3 X163.305 Y122.033 I-4.519 J-1.684
N245 G2 X186.695 Y377.967 I11.695 J127.967
N250 X303.5 Y250. I-11.695 J-127.967
N255 Y249.643 I-128.5 J-0.178
N260 X175. Y121.5 I-128.5 J0.357
N265 X163.305 Y122.033 I0. J128.5
N270 G3 X162.979 Y121.763 I-0.027 J-0.299
N275 G1 X162.085 Y112.373
N280 G3 X162.356 Y112.046 I0.299 J-0.028
N285 X237.191 Y126.168 I12.654 J138.29
N290 X310.237 Y280.219 I-61.995 J123.739
N295 X91.965 Y360.938 I-135.199 J-30.117
N300 X76.989 Y347.96 I82.248 J-110.034
N305 X41.927 Y288.648 I99.148 J-98.632
N310 X105.159 Y130.315 I133.251 J-38.577
N315 X162.356 Y112.046 I69.852 J120.021
N320 G2 X163.976 Y110.744 I-0.171 J-1.872
N325 G3 X165.612 Y109.462 I1.76 J0.56
N330 X308.319 Y295.438 I9.467 J140.476
N335 X305.205 Y303.717 I-134.566 J-45.908
N340 X301.576 Y311.784 I-130.654 J-53.919
N345 X297.449 Y319.607 I-126.278 J-61.626
N350 X292.838 Y327.155 I-121.462 J-69.003
N355 X287.763 Y334.399 I-116.227 J-76.026
N360 X174.643 Y390.85 I-112.675 J-84.223
N365 X107.481 Y373.612 I0. J-139.456
N370 X99.856 Y369.13 I69.988 J-127.812
N375 X92.526 Y364.179 I77.378 J-122.437
N380 X85.522 Y358.777 I84.379 J-116.649
N385 X78.871 Y352.946 I90.967 J-110.476
N390 X72.599 Y346.71 I97.122 J-103.945
N395 X66.731 Y340.092 I102.826 J-97.087
N400 X61.289 Y333.118 I108.063 J-89.93
N405 X56.297 Y325.817 I112.817 J-82.507
N410 X51.772 Y318.217 I117.076 J-74.848
N415 X163.337 Y109.634 I123.137 J-68.265
N420 X165.612 Y109.462 I11.742 J140.304
N425 G2 X169.611 Y106.425 I-0.307 J-4.556
N430 G3 X173.698 Y103.506 I4.125 J1.455
N435 X321.499 Y249.349 I1.302 J146.494
N440 X175. Y396.5 I-146.499 J0.651
N445 X174.643 I-0.178 J-146.5
N450 X28.5 Y250. I0.357 J-146.5
N455 X173.698 Y103.506 I146.5 J0.
N460 X174. Y103.805 I0.003 J0.3
N465 G1 X174.01 Y110.397
N470 Y110.44
N475 X174.004 Y110.484
N480 X172.732 Y116.448
N485 G3 X172.263 Y116.628 I-0.293 J-0.063
N490 X175.613 Y112.017 Z-1.813 I1.675 J-2.306 F150.
N495 X172.263 Y116.628 Z-2.125 I-1.675 J2.306
N500 X175.613 Y112.017 Z-2.438 I1.675 J-2.306
N505 X172.263 Y116.628 Z-2.751 I-1.675 J2.306
N510 X173.916 Y111.473 Z-3. I1.675 J-2.306
N515 X237.191 Y126.168 I1.095 J138.864 F1200.
N520 X310.237 Y280.219 I-61.995 J123.739
N525 X91.965 Y360.938 I-135.199 J-30.117
N530 X76.989 Y347.96 I82.248 J-110.034
N535 X41.927 Y288.648 I99.148 J-98.632
N540 X105.159 Y130.315 I133.251 J-38.577
N545 X173.916 Y111.473 I69.852 J120.021
N550 G2 X175.643 Y110.307 I-0.015 J-1.884
N555 G3 X177.384 Y109.162 I1.711 J0.706
N560 X308.319 Y295.438 I-2.305 J140.776
N565 X305.205 Y303.717 I-134.566 J-45.908
N570 X301.576 Y311.784 I-130.654 J-53.919
N575 X297.449 Y319.607 I-126.278 J-61.626
N580 X292.838 Y327.155 I-121.462 J-69.003
N585 X287.763 Y334.399 I-116.227 J-76.026
N590 X174.643 Y390.85 I-112.675 J-84.223
N595 X107.481 Y373.612 I0. J-139.456
N600 X99.856 Y369.13 I69.988 J-127.812
N605 X92.526 Y364.179 I77.378 J-122.437
N610 X85.522 Y358.777 I84.379 J-116.649
N615 X78.871 Y352.946 I90.967 J-110.476
N620 X72.599 Y346.71 I97.122 J-103.945
N625 X66.731 Y340.092 I102.826 J-97.087
N630 X61.289 Y333.118 I108.063 J-89.93
N635 X56.297 Y325.817 I112.817 J-82.507
N640 X51.772 Y318.217 I117.076 J-74.848
N645 X163.337 Y109.634 I123.137 J-68.265
N650 X177.384 Y109.162 I11.742 J140.304
N655 G2 X181.618 Y106.473 I0.075 J-4.561
N660 G3 X185.929 Y103.908 I3.985 J1.793
N665 X175. Y396.5 I-10.929 J146.092
N670 X174.643 I-0.178 J-146.5
N675 X28.5 Y250. I0.357 J-146.5
N680 X185.929 Y103.908 I146.5 J0.
N685 X186.206 Y104.225 I-0.022 J0.299
N690 G1 X185.645 Y113.702
N695 G3 X185.323 Y113.984 I-0.299 J-0.018
N700 G2 X57.168 Y181.237 I-10.252 J136.194
N705 X53.084 Y311.231 I118.168 J68.774
N710 X204.753 Y383.145 I121.823 J-61.034
N715 X284.221 Y168.248 I-29.651 J-133.107
N720 X271.448 Y153.509 I-108.287 J80.942
N725 X213.052 Y118.986 I-97.122 J97.631
N730 X185.323 Y113.984 I-37.981 J131.192
N735 X183.508 Y115.01 I-0.141 J1.868
N740 G3 X181.707 Y116.059 I-1.705 J-0.857
N745 G2 X118.217 Y128.46 I-6.755 J134.15
N750 X41.958 Y232.789 I57.076 J121.754
N755 X59.137 Y317.617 I132.307 J17.36
N760 X123.135 Y373.719 I115.532 J-67.239
N765 X279.088 Y165.371 I51.826 J-123.748
N770 X181.707 Y116.059 I-104.135 J84.838
N775 X177.316 Y118.716 I-0.23 J4.576
N780 G3 X173.015 Y121.515 I-4.376 J-2.019
N785 G2 X176.985 Y378.485 I1.985 J128.485
N790 X303.5 Y250. I-1.985 J-128.485
N795 Y249.643 I-128.5 J-0.178
N800 X175. Y121.5 I-128.5 J0.357
N805 X173.015 Y121.515 I0. J128.5
N810 G1 X172.948 Y121.513 Z-2.992 F300.
N815 X172.882 Y121.503 Z-2.985
N820 X172.821 Y121.486 Z-2.963
N825 X172.762 Y121.464 Z-2.941
N830 X172.711 Y121.438 Z-2.905
N835 X172.663 Y121.408 Z-2.869
N840 X172.59 Y121.348 Z-2.774
N845 X172.541 Y121.295 Z-2.66
N850 X172.514 Y121.26 Z-2.534
N855 X172.506 Y121.247 Z-2.4
N860 G0 Z15.
N865 X176.235 Y158.175
N870 Z5.
N875 G1 Z3.1 F300.
N880 X176.253 Y158.184 Z2.948 F150.
N885 X176.304 Y158.209 Z2.806
N890 X176.385 Y158.253 Z2.683
N895 X176.488 Y158.313 Z2.587
N900 X176.606 Y158.389 Z2.525
N905 X176.729 Y158.477 Z2.5
N910 G3 X173.276 Y163.012 Z2.187 I-1.726 J2.268
N915 X176.729 Y158.477 Z1.875 I1.726 J-2.268
N920 X173.276 Y163.012 Z1.562 I-1.726 J2.268
N925 X176.729 Y158.477 Z1.249 I1.726 J-2.268
N930 X173.276 Y163.012 Z0.937 I-1.726 J2.268
N935 X176.729 Y158.477 Z0.624 I1.726 J-2.268
N940 X173.276 Y163.012 Z0.311 I-1.726 J2.268
N945 X176.729 Y158.477 Z-0.001 I1.726 J-2.268
N950 X173.276 Y163.012 Z-0.314 I-1.726 J2.268
N955 X176.729 Y158.477 Z-0.627 I1.726 J-2.268
N960 X173.276 Y163.012 Z-0.939 I-1.726 J2.268
N965 X176.729 Y158.477 Z-1.252 I1.726 J-2.268
N970 X174.999 Y163.595 Z-1.5 I-1.726 J2.268
N975 G2 X160.878 Y164.733 I-0.107 J86.797 F1200.
N980 X91.324 Y228.361 I13.947 J85.075
N985 X214.335 Y326.958 I83.693 J21.618
N990 X261.322 Y245.716 I-39.534 J-77.074
N995 X230.784 Y183.985 I-86.335 J4.29
N1000 X174.999 Y163.595 I-55.892 J66.407
N1005 X173.29 Y164.743 I-0.002 J1.842
N1010 G3 X171.605 Y165.928 I-1.763 J-0.717
N1015 G2 X93.114 Y230.611 I3.487 J84.197
N1020 X106.939 Y299.487 I81.45 J19.477
N1025 X234.196 Y309.808 I68.049 J-49.347
N1030 X180.035 Y166.001 I-59.251 J-59.788
N1035 X171.605 Y165.928 I-4.942 J84.124
N1040 X167.427 Y169.034 I0.191 J4.622
N1045 G3 X163.419 Y172.359 I-4.749 J-1.646
N1050 G2 X186.581 Y327.641 I11.581 J77.641
N1055 X253.5 Y250. I-11.581 J-77.641
N1060 G1 Y249.804
N1065 G2 X175. Y171.5 I-78.5 J0.196
N1070 X163.419 Y172.359 I0. J78.5
N1075 G3 X163.078 Y172.103 I-0.044 J-0.297
N1080 G1 X161.784 Y162.685
N1085 G3 X162.037 Y162.347 I0.297 J-0.041
N1090 X214.45 Y170.699 I12.977 J87.205
N1095 X232.212 Y182.385 I-38.962 J78.56
N1100 X260.14 Y274.417 I-57.51 J67.706
N1105 X99.995 Y297.108 I-85.147 J-24.471
N1110 X140.54 Y168.406 I75.127 J-47.07
N1115 X162.037 Y162.347 I34.473 J81.146
N1120 G2 X163.517 Y161.016 I-0.265 J-1.784
N1125 G3 X165.022 Y159.713 I1.699 J0.441
N1130 X175.73 Y159.153 I10.102 J90.491
N1135 X264.63 Y264.838 I-0.821 J90.923
N1140 X197.745 Y337.957 I-89.439 J-14.663
N1145 X94.107 Y208.647 I-22.723 J-87.974
N1150 X165.022 Y159.713 I81.016 J41.557
N1155 G2 X168.876 Y156.531 I-0.507 J-4.538
N1160 G3 X172.867 Y153.524 I4.086 J1.271
N1165 X175. Y153.5 I2.133 J96.476
N1170 X175.293 I0.035 J96.5
N1175 X271.5 Y250. I-0.293 J96.5
N1180 X78.5 I-96.5 J0.
N1185 X172.867 Y153.524 I96.5 J0.
N1190 X173.174 Y153.819 I0.007 J0.3
N1195 G1 X173.268 Y160.367
N1200 X173.269 Y160.411
N1205 X173.264 Y160.454
N1210 X172.08 Y166.395
N1215 G3 X171.613 Y166.582 I-0.294 J-0.059
N1220 X174.904 Y161.928 Z-1.813 I1.646 J-2.327 F150.
N1225 X171.613 Y166.582 Z-2.125 I-1.646 J2.327
N1230 X174.904 Y161.928 Z-2.438 I1.646 J-2.327
N1235 X171.613 Y166.582 Z-2.751 I-1.646 J2.327
N1240 X173.2 Y161.406 Z-3. I1.646 J-2.327
N1245 X214.45 Y170.699 I1.814 J88.146 F1200.
N1250 X232.212 Y182.385 I-38.962 J78.56
N1255 X260.14 Y274.417 I-57.51 J67.706
N1260 X99.995 Y297.108 I-85.147 J-24.471
N1265 X140.54 Y168.406 I75.127 J-47.07
N1270 X173.2 Y161.406 I34.473 J81.146
N1275 G2 X174.842 Y160.269 I-0.037 J-1.807
N1280 G3 X176.505 Y159.163 I1.632 J0.652
N1285 X264.63 Y264.838 I-1.595 J90.913
N1290 X197.745 Y337.957 I-89.439 J-14.663
N1295 X94.107 Y208.647 I-22.723 J-87.974
N1300 X175.73 Y159.153 I81.016 J41.557
N1305 X176.505 Y159.163 I-0.821 J90.923
N1310 G2 X180.727 Y156.502 I0.08 J-4.554
N1315 G3 X185.062 Y154.026 I3.889 J1.776
N1320 X271.5 Y250. I-10.062 J95.974
N1325 X78.5 I-96.5 J0.
N1330 X175. Y153.5 I96.5 J0.
N1335 X175.293 I0.035 J96.5
N1340 X185.062 Y154.026 I-0.293 J96.5
N1345 X185.329 Y154.351 I-0.031 J0.298
N1350 G1 X184.487 Y163.819
N1355 G3 X184.156 Y164.09 I-0.299 J-0.027
N1360 G2 X160.878 Y164.733 I-9.264 J86.302
N1365 X91.324 Y228.361 I13.947 J85.075
N1370 X214.335 Y326.958 I83.693 J21.618
N1375 X261.322 Y245.716 I-39.534 J-77.074
N1380 X230.784 Y183.985 I-86.335 J4.29
N1385 X184.156 Y164.09 I-55.892 J66.407
N1390 X182.347 Y165.044 I-0.196 J1.823
N1395 G3 X180.557 Y166.034 I-1.664 J-0.896
N1400 G2 X180.035 Y166.001 I-5.611 J83.987
N1405 X93.114 Y230.611 I-4.942 J84.124
N1410 X106.939 Y299.487 I81.45 J19.477
N1415 X234.196 Y309.808 I68.049 J-49.347
N1420 X180.557 Y166.034 I-59.251 J-59.788
N1425 X176.058 Y168.681 I-0.309 J4.621
N1430 G3 X171.71 Y171.569 I-4.559 J-2.148
N1435 G2 X178.29 Y328.431 I3.29 J78.431
N1440 X253.5 Y250. I-3.29 J-78.431
N1445 G1 Y249.804
N1450 G2 X175. Y171.5 I-78.5 J0.196
N1455 X171.71 Y171.569 I0. J78.5
N1460 G1 X171.643 Y171.568 Z-2.992 F300.
N1465 X171.577 Y171.56 Z-2.985
N1470 X171.515 Y171.545 Z-2.963
N1475 X171.455 Y171.524 Z-2.941
N1480 X171.404 Y171.5 Z-2.905
N1485 X171.355 Y171.471 Z-2.869
N1490 X171.28 Y171.413 Z-2.774
N1495 X171.23 Y171.361 Z-2.66
N1500 X171.203 Y171.327 Z-2.534
N1505 X171.194 Y171.315 Z-2.4
N1510 G0 Z15.
N1515 X176.228 Y208.186
N1520 Z5.
N1525 G1 Z3.1 F300.
N1530 X176.246 Y208.194 Z2.948 F150.
N1535 X176.297 Y208.22 Z2.806
N1540 X176.378 Y208.263 Z2.683
N1545 X176.481 Y208.323 Z2.587
N1550 X176.599 Y208.398 Z2.525
N1555 X176.722 Y208.486 Z2.5
N1560 G3 X173.277 Y213.027 Z2.187 I-1.723 J2.271
N1565 X176.722 Y208.486 Z1.875 I1.723 J-2.271
N1570 X173.277 Y213.027 Z1.562 I-1.723 J2.271
N1575 X176.722 Y208.486 Z1.249 I1.723 J-2.271
N1580 X173.277 Y213.027 Z0.937 I-1.723 J2.271
N1585 X176.722 Y208.486 Z0.624 I1.723 J-2.271
N1590 X173.277 Y213.027 Z0.311 I-1.723 J2.271
N1595 X176.722 Y208.486 Z-0.001 I1.723 J-2.271
N1600 X173.277 Y213.027 Z-0.314 I-1.723 J2.271
N1605 X176.722 Y208.486 Z-0.627 I1.723 J-2.271
N1610 X173.277 Y213.028 Z-0.939 I-1.723 J2.271
N1615 X176.722 Y208.486 Z-1.252 I1.723 J-2.271
N1620 X175.001 Y213.607 Z-1.5 I-1.723 J2.271
N1625 G2 X138.979 Y244.567 I0.017 J36.454 F1200.
N1630 X194.141 Y280.994 I36.037 J5.408
N1635 X203.013 Y226.713 I-19.234 J-31.009
N1640 X175.001 Y213.607 I-27.996 J23.348
N1645 X173.292 Y214.771 I0.001 J1.837
N1650 G3 X171.643 Y216.018 I-1.846 J-0.727
N1655 G2 X149.445 Y272.653 I3.39 J33.996
N1660 X208.884 Y254.258 I25.539 J-22.705
N1665 X174.879 Y215.85 I-33.837 J-4.299
N1670 X171.643 Y216.018 I0.154 J34.165
N1675 X167.547 Y219.576 I0.466 J4.674
N1680 G3 X164.02 Y223.7 I-5.845 J-1.429
N1685 G2 X146.5 Y250. I10.98 J26.3
N1690 X203.5 I28.5 J0.
N1695 X175. Y221.5 I-28.5 J0.
N1700 G1 X174.92
N1705 G2 X164.02 Y223.7 I0.08 J28.5
N1710 G3 X163.627 Y223.538 I-0.116 J-0.277
N1715 G1 X159.991 Y214.8
N1720 G3 X160.152 Y214.408 I0.277 J-0.115
N1725 X204.698 Y225.387 I14.847 J35.621
N1730 X173.914 Y288.557 I-29.753 J24.587
N1735 X146.625 Y223.872 I1.044 J-38.539
N1740 X160.152 Y214.408 I28.374 J26.157
N1745 G2 X161.286 Y212.737 I-0.709 J-1.7
N1750 G3 X162.488 Y211.114 I1.733 J0.027
N1755 X163.254 Y210.875 I12.522 J38.891
N1760 X212.129 Y267.035 I11.805 J39.074
N1765 X137.776 Y266.825 I-37.129 J-16.975
N1770 X162.488 Y211.114 I37.234 J-16.82
N1775 G2 X165.586 Y207.351 I-1.383 J-4.297
N1780 G3 X169.015 Y203.887 I3.939 J0.47
N1785 X221.403 Y247.001 I5.985 J46.113
N1790 X175. Y296.5 I-46.403 J2.999
N1795 G1 X174.92
N1800 G3 X128.5 Y250. I0.08 J-46.5
N1805 X169.015 Y203.887 I46.5 J0.
N1810 X169.352 Y204.151 I0.039 J0.298
N1815 G1 X170.082 Y210.683
N1820 X170.086 Y210.725
N1825 X170.085 Y210.767
N1830 X169.477 Y216.841
N1835 G3 X169.033 Y217.073 I-0.299 J-0.03
N1840 X171.804 Y212.092 Z-1.813 I1.386 J-2.49 F150.
N1845 X169.033 Y217.073 Z-2.125 I-1.386 J2.49
N1850 X171.804 Y212.092 Z-2.438 I1.386 J-2.49
N1855 X169.033 Y217.073 Z-2.751 I-1.386 J2.49
N1860 X170.053 Y211.756 Z-3. I1.386 J-2.49
N1865 X204.698 Y225.387 I4.946 J38.273 F1200.
N1870 X173.914 Y288.557 I-29.753 J24.587
N1875 X146.625 Y223.872 I1.044 J-38.539
N1880 X170.053 Y211.756 I28.374 J26.157
N1885 G2 X171.596 Y210.432 I-0.238 J-1.838
N1890 G3 X173.192 Y209.173 I1.676 J0.484
N1895 X212.129 Y267.035 I1.867 J40.775
N1900 X137.776 Y266.825 I-37.129 J-16.975
N1905 X163.254 Y210.875 I37.234 J-16.82
N1910 X173.192 Y209.173 I11.805 J39.074
N1915 G2 X177.158 Y206.368 I-0.206 J-4.497
N1920 G3 X181.364 Y203.938 I3.665 J1.487
N1925 X175. Y296.5 I-6.364 J46.062
N1930 G1 X174.92
N1935 G3 X128.5 Y250. I0.08 J-46.5
N1940 X181.364 Y203.938 I46.5 J0.
N1945 X181.62 Y204.28 I-0.041 J0.297
N1950 G1 X180.179 Y213.676
N1955 G3 X179.842 Y213.928 I-0.297 J-0.045
N1960 G2 X138.979 Y244.567 I-4.825 J36.133
N1965 X194.141 Y280.994 I36.037 J5.408
N1970 X203.013 Y226.713 I-19.234 J-31.009
N1975 X179.842 Y213.928 I-27.996 J23.348
N1980 X177.997 Y214.853 I-0.243 J1.818
N1985 G3 X176.199 Y215.869 I-1.731 J-0.964
N1990 G2 X174.879 Y215.85 I-1.153 J34.09
N1995 X149.445 Y272.653 I0.154 J34.165
N2000 X208.884 Y254.258 I25.539 J-22.705
N2005 X176.199 Y215.869 I-33.837 J-4.299
N2010 X171.663 Y218.853 I-0.159 J4.699
N2015 G3 X167.616 Y222.473 I-5.607 J-2.197
N2020 G2 X146.5 Y250. I7.384 J27.527
N2025 X203.5 I28.5 J0.
N2030 X175. Y221.5 I-28.5 J0.
N2035 G1 X174.92
N2040 G2 X167.616 Y222.473 I0.08 J28.5
N2045 G1 X167.551 Y222.487 Z-2.992 F300.
N2050 X167.484 Y222.493 Z-2.985
N2055 X167.421 Y222.492 Z-2.963
N2060 X167.358 Y222.485 Z-2.941
N2065 X167.302 Y222.472 Z-2.905
N2070 X167.248 Y222.455 Z-2.869
N2075 X167.162 Y222.414 Z-2.774
N2080 X167.103 Y222.375 Z-2.66
N2085 X167.068 Y222.347 Z-2.534
N2090 X167.057 Y222.338 Z-2.4
N2095 G0 Z15.
N2100 X631.084 Y113.415
N2105 Z5.
N2110 G1 Z3.1 F300.
N2115 X631.093 Y113.397 Z2.948 F150.
N2120 X631.119 Y113.346 Z2.806
N2125 X631.162 Y113.265 Z2.683
N2130 X631.222 Y113.161 Z2.587
N2135 X631.297 Y113.044 Z2.525
N2140 X631.386 Y112.921 Z2.5
N2145 G3 X635.925 Y116.368 Z2.187 I2.27 J1.724
N2150 X631.386 Y112.921 Z1.875 I-2.27 J-1.724
N2155 X635.925 Y116.368 Z1.562 I2.27 J1.724
N2160 X631.386 Y112.921 Z1.249 I-2.27 J-1.724
N2165 X635.925 Y116.368 Z0.937 I2.27 J1.724
N2170 X631.386 Y112.921 Z0.624 I-2.27 J-1.724
N2175 X635.925 Y116.368 Z0.311 I2.27 J1.724
N2180 X631.386 Y112.921 Z-0.001 I-2.27 J-1.724
N2185 X635.925 Y116.368 Z-0.314 I2.27 J1.724
N2190 X631.386 Y112.921 Z-0.627 I-2.27 J-1.724
N2195 X635.925 Y116.368 Z-0.939 I2.27 J1.724
N2200 X631.386 Y112.921 Z-1.252 I-2.27 J-1.724
N2205 X636.505 Y114.645 Z-1.5 I2.27 J1.724
N2210 G1 Y117.508 F1200.
N2215 X636.499 Y117.548
N2220 X636.48 Y117.585
N2225 X636.451 Y117.613
N2230 X636.414 Y117.631
N2235 X636.374 Y117.636
N2240 X636.334 Y117.628
N2245 X636.298 Y117.609
N2250 X636.271 Y117.579
N2255 G2 X632.421 Y113.729 I-11.271 J7.421
N2260 G1 X632.391 Y113.702
N2265 X632.372 Y113.666
N2270 X632.364 Y113.626
N2275 X632.369 Y113.586
N2280 X632.387 Y113.549
N2285 X632.415 Y113.52
N2290 X632.452 Y113.501
N2295 X632.492 Y113.495
N2300 X636.186
N2305 G3 X636.505 Y113.814 I0. J0.319
N2310 G1 Y114.645
N2315 X636.502 Y114.711 Z-1.492 F300.
N2320 X636.49 Y114.777 Z-1.485
N2325 X636.473 Y114.838 Z-1.463
N2330 X636.45 Y114.897 Z-1.441
N2335 X636.423 Y114.947 Z-1.405
N2340 X636.392 Y114.995 Z-1.369
N2345 X636.331 Y115.067 Z-1.274
N2350 X636.278 Y115.115 Z-1.16
N2355 X636.242 Y115.141 Z-1.034
N2360 X636.229 Y115.15 Z-0.9
N2365 G0 Z5.
N2370 X636.585 Y381.084
N2375 G1 Z3.1 F300.
N2380 X636.603 Y381.093 Z2.948 F150.
N2385 X636.654 Y381.119 Z2.806
N2390 X636.735 Y381.162 Z2.683
N2395 X636.839 Y381.222 Z2.587
N2400 X636.956 Y381.297 Z2.525
N2405 X637.079 Y381.386 Z2.5
N2410 G3 X633.632 Y385.925 Z2.187 I-1.724 J2.27
N2415 X637.079 Y381.386 Z1.875 I1.724 J-2.27
N2420 X633.632 Y385.925 Z1.562 I-1.724 J2.27
N2425 X637.079 Y381.386 Z1.249 I1.724 J-2.27
N2430 X633.632 Y385.925 Z0.937 I-1.724 J2.27
N2435 X637.079 Y381.386 Z0.624 I1.724 J-2.27
N2440 X633.632 Y385.925 Z0.311 I-1.724 J2.27
N2445 X637.079 Y381.386 Z-0.001 I1.724 J-2.27
N2450 X633.632 Y385.925 Z-0.314 I-1.724 J2.27
N2455 X637.079 Y381.386 Z-0.627 I1.724 J-2.27
N2460 X633.632 Y385.925 Z-0.939 I-1.724 J2.27
N2465 X637.079 Y381.386 Z-1.252 I1.724 J-2.27
N2470 X635.355 Y386.505 Z-1.5 I-1.724 J2.27
N2475 G1 X632.492 F1200.
N2480 X632.452 Y386.499
N2485 X632.415 Y386.48
N2490 X632.387 Y386.451
N2495 X632.369 Y386.414
N2500 X632.364 Y386.374
N2505 X632.372 Y386.334
N2510 X632.391 Y386.298
N2515 X632.421 Y386.271
N2520 G2 X636.271 Y382.421 I-7.421 J-11.271
N2525 G1 X636.298 Y382.391
N2530 X636.334 Y382.372
N2535 X636.374 Y382.364
N2540 X636.414 Y382.369
N2545 X636.451 Y382.387
N2550 X636.48 Y382.415
N2555 X636.499 Y382.452
N2560 X636.505 Y382.492
N2565 Y386.186
N2570 G3 X636.186 Y386.505 I-0.319 J0.
N2575 G1 X635.355
N2580 X635.289 Y386.502 Z-1.492 F300.
N2585 X635.223 Y386.491 Z-1.485
N2590 X635.162 Y386.473 Z-1.463
N2595 X635.103 Y386.45 Z-1.441
N2600 X635.053 Y386.423 Z-1.405
N2605 X635.005 Y386.392 Z-1.369
N2610 X634.933 Y386.331 Z-1.274
N2615 X634.885 Y386.278 Z-1.16
N2620 X634.859 Y386.242 Z-1.034
N2625 X634.85 Y386.229 Z-0.9
N2630 G0 Z5.
N2635 X360.755 Y387.505
N2640 G1 Z3.1 F300.
N2645 X360.748 Y387.487 Z2.948 F150.
N2650 X360.73 Y387.433 Z2.806
N2655 X360.704 Y387.345 Z2.683
N2660 X360.673 Y387.23 Z2.587
N2665 X360.643 Y387.093 Z2.525
N2670 X360.619 Y386.944 Z2.5
N2675 G3 X366.266 Y386.171 Z2.187 I2.824 J-0.386
N2680 X360.619 Y386.944 Z1.875 I-2.824 J0.386
N2685 X366.266 Y386.171 Z1.562 I2.824 J-0.386
N2690 X360.619 Y386.944 Z1.249 I-2.824 J0.386
N2695 X366.266 Y386.171 Z0.937 I2.824 J-0.386
N2700 X360.619 Y386.944 Z0.624 I-2.824 J0.386
N2705 X366.266 Y386.171 Z0.311 I2.824 J-0.386
N2710 X360.619 Y386.944 Z-0.001 I-2.824 J0.386
N2715 X366.266 Y386.171 Z-0.314 I2.824 J-0.386
N2720 X360.619 Y386.944 Z-0.627 I-2.824 J0.386
N2725 X366.266 Y386.171 Z-0.939 I2.824 J-0.386
N2730 X360.619 Y386.944 Z-1.252 I-2.824 J0.386
N2735 X365.458 Y384.542 Z-1.5 I2.824 J-0.386
N2740 G2 X367.579 Y386.271 I9.542 J-9.542 F1200.
N2745 G1 X367.609 Y386.298
N2750 X367.628 Y386.334
N2755 X367.636 Y386.374
N2760 X367.631 Y386.414
N2765 X367.613 Y386.451
N2770 X367.585 Y386.48
N2775 X367.548 Y386.499
N2780 X367.508 Y386.505
N2785 X363.814
N2790 G3 X363.495 Y386.186 I0. J-0.319
N2795 G1 Y382.492
N2800 X363.501 Y382.452
N2805 X363.52 Y382.415
N2810 X363.549 Y382.387
N2815 X363.586 Y382.369
N2820 X363.626 Y382.364
N2825 X363.666 Y382.372
N2830 X363.702 Y382.391
N2835 X363.729 Y382.421
N2840 G2 X365.458 Y384.542 I11.271 J-7.421
N2845 G1 X365.502 Y384.592 Z-1.492 F300.
N2850 X365.541 Y384.646 Z-1.485
N2855 X365.572 Y384.702 Z-1.463
N2860 X365.597 Y384.76 Z-1.441
N2865 X365.614 Y384.814 Z-1.405
N2870 X365.626 Y384.87 Z-1.369
N2875 X365.634 Y384.964 Z-1.274
N2880 X365.63 Y385.036 Z-1.16
N2885 X365.623 Y385.079 Z-1.034
N2890 X365.62 Y385.094 Z-0.9
N2895 G0 Z5.
N2900 X362.495 Y110.755
N2905 G1 Z3.1 F300.
N2910 X362.513 Y110.748 Z2.948 F150.
N2915 X362.567 Y110.73 Z2.806
N2920 X362.655 Y110.704 Z2.683
N2925 X362.77 Y110.673 Z2.587
N2930 X362.907 Y110.643 Z2.525
N2935 X363.056 Y110.619 Z2.5
N2940 G3 X363.829 Y116.266 Z2.187 I0.386 J2.824
N2945 X363.056 Y110.619 Z1.875 I-0.386 J-2.824
N2950 X363.829 Y116.266 Z1.562 I0.386 J2.824
N2955 X363.056 Y110.619 Z1.249 I-0.386 J-2.824
N2960 X363.829 Y116.266 Z0.937 I0.386 J2.824
N2965 X363.056 Y110.619 Z0.624 I-0.386 J-2.824
N2970 X363.829 Y116.266 Z0.311 I0.386 J2.824
N2975 X363.056 Y110.619 Z-0.001 I-0.386 J-2.824
N2980 X363.829 Y116.266 Z-0.314 I0.386 J2.824
N2985 X363.056 Y110.619 Z-0.627 I-0.386 J-2.824
N2990 X363.829 Y116.266 Z-0.939 I0.386 J2.824
N2995 X363.056 Y110.619 Z-1.252 I-0.386 J-2.824
N3000 X365.458 Y115.458 Z-1.5 I0.386 J2.824
N3005 G2 X363.729 Y117.579 I9.542 J9.542 F1200.
N3010 G1 X363.702 Y117.609
N3015 X363.666 Y117.628
N3020 X363.626 Y117.636
N3025 X363.586 Y117.631
N3030 X363.549 Y117.613
N3035 X363.52 Y117.585
N3040 X363.501 Y117.548
N3045 X363.495 Y117.508
N3050 Y113.814
N3055 G3 X363.814 Y113.495 I0.319 J0.
N3060 G1 X367.508
N3065 X367.548 Y113.501
N3070 X367.585 Y113.52
N3075 X367.613 Y113.549
N3080 X367.631 Y113.586
N3085 X367.636 Y113.626
N3090 X367.628 Y113.666
N3095 X367.609 Y113.702
N3100 X367.579 Y113.729
N3105 G2 X365.458 Y115.458 I7.421 J11.271
N3110 X365.12 Y117.405 I1.213 J1.213
N3115 G3 X365.049 Y119.38 I-1.941 J0.919
N3120 G2 X363.572 Y125. I9.951 J5.62
N3125 G1 Y375.
N3130 G2 X375. Y386.428 I11.428 J0.
N3135 G1 X625.
N3140 G2 X636.428 Y375. I0. J-11.428
N3145 G1 Y125.
N3150 G2 X625. Y113.572 I-11.428 J0.
N3155 G1 X375.
N3160 G2 X365.049 Y119.38 I0. J11.428
N3165 X365.292 Y121.59 I1.658 J0.937
N3170 G3 X365.94 Y123.717 I-1.954 J1.758
N3175 G2 X365.85 Y125. I9.06 J1.283
N3180 G1 Y375.
N3185 G2 X375. Y384.15 I9.15 J0.
N3190 G1 X625.
N3195 G2 X634.15 Y375. I0. J-9.15
N3200 G1 Y125.
N3205 G2 X625. Y115.85 I-9.15 J0.
N3210 G1 X375.
N3215 G2 X365.94 Y123.717 I0. J9.15
N3220 X368.557 Y128.448 I4.446 J0.63
N3225 G3 X371.5 Y132.983 I-2.023 J4.535
N3230 G1 Y375.
N3235 G2 X375. Y378.5 I3.5 J0.
N3240 G1 X625.
N3245 G2 X628.5 Y375. I0. J-3.5
N3250 G1 Y125.
N3255 G2 X625. Y121.5 I-3.5 J0.
N3260 G1 X375.
N3265 G2 X371.5 Y125. I0. J3.5
N3270 G1 Y132.983
N3275 G3 X370.935 Y133.123 I-0.3 J0.
N3280 G1 X361.185 Y114.789
N3285 X361.166 Y114.744
N3290 X361.154 Y114.697
N3295 X361.15 Y114.648
N3300 Y111.469
N3305 G3 X361.469 Y111.15 I0.319 J0.
N3310 G1 X638.531
N3315 G3 X638.85 Y111.469 I0. J0.319
N3320 G1 Y388.531
N3325 G3 X638.531 Y388.85 I-0.319 J0.
N3330 G1 X361.469
N3335 G3 X361.15 Y388.531 I0. J-0.319
N3340 G1 Y116.72
N3345 Y114.648
N3350 G2 X359.774 Y112.585 I-2.236 J0.
N3355 G3 X358.398 Y110.521 I0.86 J-2.064
N3360 G1 Y108.718
N3365 G3 X358.718 Y108.398 I0.319 J0.
N3370 G1 X641.282
N3375 G3 X641.602 Y108.718 I0. J0.319
N3380 G1 Y391.282
N3385 G3 X641.282 Y391.602 I-0.319 J0.
N3390 G1 X358.718
N3395 G3 X358.398 Y391.282 I0. J-0.319
N3400 G1 Y110.521
N3405 G2 X356.495 Y107.196 I-3.855 J0.
N3410 G3 X357.5 Y103.5 I1.005 J-1.712
N3415 G1 X646.5
N3420 Y396.5
N3425 X353.5
N3430 Y103.5
N3435 X357.5
N3440 G3 X357.743 Y103.624 I0. J0.3
N3445 G1 X362.732 Y110.504
N3450 G2 X363.019 Y110.624 I0.243 J-0.176
N3455 G3 X363.866 Y116.261 Z-1.813 I0.423 J2.818 F150.
N3460 X363.019 Y110.624 Z-2.125 I-0.423 J-2.818
N3465 X363.866 Y116.261 Z-2.438 I0.423 J2.818
N3470 X363.019 Y110.624 Z-2.751 I-0.423 J-2.818
N3475 X365.458 Y115.458 Z-3. I0.423 J2.818
N3480 G2 X363.729 Y117.579 I9.542 J9.542 F1200.
N3485 G1 X363.702 Y117.609
N3490 X363.666 Y117.628
N3495 X363.626 Y117.636
N3500 X363.586 Y117.631
N3505 X363.549 Y117.613
N3510 X363.52 Y117.585
N3515 X363.501 Y117.548
N3520 X363.495 Y117.508
N3525 Y113.814
N3530 G3 X363.814 Y113.495 I0.319 J0.
N3535 G1 X367.508
N3540 X367.548 Y113.501
N3545 X367.585 Y113.52
N3550 X367.613 Y113.549
N3555 X367.631 Y113.586
N3560 X367.636 Y113.626
N3565 X367.628 Y113.666
N3570 X367.609 Y113.702
N3575 X367.579 Y113.729
N3580 G2 X365.458 Y115.458 I7.421 J11.271
N3585 G1 X365.408 Y115.502 Z-2.992 F300.
N3590 X365.354 Y115.541 Z-2.985
N3595 X365.298 Y115.572 Z-2.963
N3600 X365.24 Y115.597 Z-2.941
N3605 X365.186 Y115.614 Z-2.905
N3610 X365.13 Y115.626 Z-2.869
N3615 X365.036 Y115.634 Z-2.774
N3620 X364.964 Y115.63 Z-2.66
N3625 X364.921 Y115.623 Z-2.534
N3630 X364.906 Y115.62 Z-2.4
N3635 G0 Z5.
N3640 X631.084 Y113.415
N3645 G1 Z1.6 F300.
N3650 X631.093 Y113.397 Z1.448 F150.
N3655 X631.119 Y113.346 Z1.306
N3660 X631.162 Y113.265 Z1.183
N3665 X631.222 Y113.161 Z1.087
N3670 X631.297 Y113.044 Z1.025
N3675 X631.386 Y112.921 Z1.
N3680 G3 X635.925 Y116.368 Z0.687 I2.27 J1.724
N3685 X631.386 Y112.921 Z0.375 I-2.27 J-1.724
N3690 X635.925 Y116.368 Z0.062 I2.27 J1.724
N3695 X631.386 Y112.921 Z-0.251 I-2.27 J-1.724
N3700 X635.925 Y116.368 Z-0.563 I2.27 J1.724
N3705 X631.386 Y112.921 Z-0.876 I-2.27 J-1.724
N3710 X635.925 Y116.368 Z-1.189 I2.27 J1.724
N3715 X631.386 Y112.921 Z-1.501 I-2.27 J-1.724
N3720 X635.925 Y116.368 Z-1.814 I2.27 J1.724
N3725 X631.386 Y112.921 Z-2.127 I-2.27 J-1.724
N3730 X635.925 Y116.368 Z-2.439 I2.27 J1.724
N3735 X631.386 Y112.921 Z-2.752 I-2.27 J-1.724
N3740 X636.505 Y114.645 Z-3. I2.27 J1.724
N3745 G1 Y117.508 F1200.
N3750 X636.499 Y117.548
N3755 X636.48 Y117.585
N3760 X636.451 Y117.613
N3765 X636.414 Y117.631
N3770 X636.374 Y117.636
N3775 X636.334 Y117.628
N3780 X636.298 Y117.609
N3785 X636.271 Y117.579
N3790 G2 X632.421 Y113.729 I-11.271 J7.421
N3795 G1 X632.391 Y113.702
N3800 X632.372 Y113.666
N3805 X632.364 Y113.626
N3810 X632.369 Y113.586
N3815 X632.387 Y113.549
N3820 X632.415 Y113.52
N3825 X632.452 Y113.501
N3830 X632.492 Y113.495
N3835 X636.186
N3840 G3 X636.505 Y113.814 I0. J0.319
N3845 G1 Y114.645
N3850 X636.502 Y114.711 Z-2.992 F300.
N3855 X636.49 Y114.777 Z-2.985
N3860 X636.473 Y114.838 Z-2.963
N3865 X636.45 Y114.897 Z-2.941
N3870 X636.423 Y114.947 Z-2.905
N3875 X636.392 Y114.995 Z-2.869
N3880 X636.331 Y115.067 Z-2.774
N3885 X636.278 Y115.115 Z-2.66
N3890 X636.242 Y115.141 Z-2.534
N3895 X636.229 Y115.15 Z-2.4
N3900 G0 Z5.
N3905 X636.585 Y381.084
N3910 G1 Z1.6 F300.
N3915 X636.603 Y381.093 Z1.448 F150.
N3920 X636.654 Y381.119 Z1.306
N3925 X636.735 Y381.162 Z1.183
N3930 X636.839 Y381.222 Z1.087
N3935 X636.956 Y381.297 Z1.025
N3940 X637.079 Y381.386 Z1.
N3945 G3 X633.632 Y385.925 Z0.687 I-1.724 J2.27
N3950 X637.079 Y381.386 Z0.375 I1.724 J-2.27
N3955 X633.632 Y385.925 Z0.062 I-1.724 J2.27
N3960 X637.079 Y381.386 Z-0.251 I1.724 J-2.27
N3965 X633.632 Y385.925 Z-0.563 I-1.724 J2.27
N3970 X637.079 Y381.386 Z-0.876 I1.724 J-2.27
N3975 X633.632 Y385.925 Z-1.189 I-1.724 J2.27
N3980 X637.079 Y381.386 Z-1.501 I1.724 J-2.27
N3985 X633.632 Y385.925 Z-1.814 I-1.724 J2.27
N3990 X637.079 Y381.386 Z-2.127 I1.724 J-2.27
N3995 X633.632 Y385.925 Z-2.439 I-1.724 J2.27
N4000 X637.079 Y381.386 Z-2.752 I1.724 J-2.27
N4005 X635.355 Y386.505 Z-3. I-1.724 J2.27
N4010 G1 X632.492 F1200.
N4015 X632.452 Y386.499
N4020 X632.415 Y386.48
N4025 X632.387 Y386.451
N4030 X632.369 Y386.414
N4035 X632.364 Y386.374
N4040 X632.372 Y386.334
N4045 X632.391 Y386.298
N4050 X632.421 Y386.271
N4055 G2 X636.271 Y382.421 I-7.421 J-11.271
N4060 G1 X636.298 Y382.391
N4065 X636.334 Y382.372
N4070 X636.374 Y382.364
N4075 X636.414 Y382.369
N4080 X636.451 Y382.387
N4085 X636.48 Y382.415
N4090 X636.499 Y382.452
N4095 X636.505 Y382.492
N4100 Y386.186
N4105 G3 X636.186 Y386.505 I-0.319 J0.
N4110 G1 X635.355
N4115 X635.289 Y386.502 Z-2.992 F300.
N4120 X635.223 Y386.491 Z-2.985
N4125 X635.162 Y386.473 Z-2.963
N4130 X635.103 Y386.45 Z-2.941
N4135 X635.053 Y386.423 Z-2.905
N4140 X635.005 Y386.392 Z-2.869
N4145 X634.933 Y386.331 Z-2.774
N4150 X634.885 Y386.278 Z-2.66
N4155 X634.859 Y386.242 Z-2.534
N4160 X634.85 Y386.229 Z-2.4
N4165 G0 Z5.
N4170 X360.755 Y387.505
N4175 G1 Z1.6 F300.
N4180 X360.748 Y387.487 Z1.448 F150.
N4185 X360.73 Y387.433 Z1.306
N4190 X360.704 Y387.345 Z1.183
N4195 X360.673 Y387.23 Z1.087
N4200 X360.643 Y387.093 Z1.025
N4205 X360.619 Y386.944 Z1.
N4210 G3 X366.266 Y386.171 Z0.687 I2.824 J-0.386
N4215 X360.619 Y386.944 Z0.375 I-2.824 J0.386
N4220 X366.266 Y386.171 Z0.062 I2.824 J-0.386
N4225 X360.619 Y386.944 Z-0.251 I-2.824 J0.386
N4230 X366.266 Y386.171 Z-0.563 I2.824 J-0.386
N4235 X360.619 Y386.944 Z-0.876 I-2.824 J0.386
N4240 X366.266 Y386.171 Z-1.189 I2.824 J-0.386
N4245 X360.619 Y386.944 Z-1.501 I-2.824 J0.386
N4250 X366.266 Y386.171 Z-1.814 I2.824 J-0.386
N4255 X360.619 Y386.944 Z-2.127 I-2.824 J0.386
N4260 X366.266 Y386.171 Z-2.439 I2.824 J-0.386
N4265 X360.619 Y386.944 Z-2.752 I-2.824 J0.386
N4270 X365.458 Y384.542 Z-3. I2.824 J-0.386
N4275 G2 X367.579 Y386.271 I9.542 J-9.542 F1200.
N4280 G1 X367.609 Y386.298
N4285 X367.628 Y386.334
N4290 X367.636 Y386.374
N4295 X367.631 Y386.414
N4300 X367.613 Y386.451
N4305 X367.585 Y386.48
N4310 X367.548 Y386.499
N4315 X367.508 Y386.505
N4320 X363.814
N4325 G3 X363.495 Y386.186 I0. J-0.319
N4330 G1 Y382.492
N4335 X363.501 Y382.452
N4340 X363.52 Y382.415
N4345 X363.549 Y382.387
N4350 X363.586 Y382.369
N4355 X363.626 Y382.364
N4360 X363.666 Y382.372
N4365 X363.702 Y382.391
N4370 X363.729 Y382.421
N4375 G2 X365.458 Y384.542 I11.271 J-7.421
N4380 X367.405 Y384.88 I1.213 J-1.213
N4385 G3 X369.38 Y384.951 I0.919 J1.941
N4390 G2 X375. Y386.428 I5.62 J-9.951
N4395 G1 X625.
N4400 G2 X636.428 Y375. I0. J-11.428
N4405 G1 Y125.
N4410 G2 X625. Y113.572 I-11.428 J0.
N4415 G1 X375.
N4420 G2 X363.572 Y125. I0. J11.428
N4425 G1 Y375.
N4430 G2 X369.38 Y384.951 I11.428 J0.
N4435 X371.59 Y384.708 I0.936 J-1.658
N4440 G3 X373.717 Y384.06 I1.758 J1.954
N4445 G2 X375. Y384.15 I1.283 J-9.06
N4450 G1 X625.
N4455 G2 X634.15 Y375. I0. J-9.15
N4460 G1 Y125.
N4465 G2 X625. Y115.85 I-9.15 J0.
N4470 G1 X375.
N4475 G2 X365.85 Y125. I0. J9.15
N4480 G1 Y375.
N4485 G2 X373.717 Y384.06 I9.15 J0.
N4490 X378.448 Y381.443 I0.63 J-4.446
N4495 G3 X382.983 Y378.5 I4.535 J2.023
N4500 G1 X625.
N4505 G2 X628.5 Y375. I0. J-3.5
N4510 G1 Y125.
N4515 G2 X625. Y121.5 I-3.5 J0.
N4520 G1 X375.
N4525 G2 X371.5 Y125. I0. J3.5
N4530 G1 Y375.
N4535 G2 X375. Y378.5 I3.5 J0.
N4540 G1 X382.983
N4545 X383.049 Y378.504 Z-2.992 F300.
N4550 X383.115 Y378.515 Z-2.985
N4555 X383.176 Y378.532 Z-2.963
N4560 X383.235 Y378.556 Z-2.941
N4565 X383.285 Y378.582 Z-2.905
N4570 X383.333 Y378.613 Z-2.869
N4575 X383.405 Y378.674 Z-2.774
N4580 X383.453 Y378.727 Z-2.66
N4585 X383.479 Y378.763 Z-2.534
N4590 X383.487 Y378.776 Z-2.4
N4595 G0 Z5.
N4600 X364.095 Y114.645
N4605 G1 Z1.5 F300.
N4610 Z-2.4 F150.
N4615 G18 G3 X363.495 Z-3. I-0.6 K0.
N4620 G1 X363.42 Y114.649 F1200.
N4625 X363.346 Y114.663
N4630 X363.274 Y114.687
N4635 X361.971 Y115.203
N4640 G17 G3 X361.15 Y114.645 I-0.221 J-0.558
N4645 G1 Y111.469
N4650 G3 X361.469 Y111.15 I0.319 J0.
N4655 G1 X638.531
N4660 G3 X638.85 Y111.469 I0. J0.319
N4665 G1 Y385.345
N4670 Y388.531
N4675 G3 X638.531 Y388.85 I-0.319 J0.
N4680 G1 X366.72
N4685 X361.469
N4690 G3 X361.15 Y388.531 I0. J-0.319
N4695 G1 Y114.645
N4700 G2 X359.774 Y112.581 I-2.236 J0.
N4705 G3 X358.398 Y110.517 I0.86 J-2.064
N4710 G1 Y108.718
N4715 G3 X358.718 Y108.398 I0.319 J0.
N4720 G1 X641.282
N4725 G3 X641.602 Y108.718 I0. J0.319
N4730 G1 Y391.282
N4735 G3 X641.282 Y391.602 I-0.319 J0.
N4740 G1 X358.718
N4745 G3 X358.398 Y391.282 I0. J-0.319
N4750 G1 Y110.517
N4755 G2 X356.498 Y107.194 I-3.856 J0.
N4760 G3 X357.504 Y103.5 I1.006 J-1.71
N4765 G1 X646.5
N4770 Y396.5
N4775 X353.5
N4780 Y103.5
N4785 X357.504
N4790 X357.57 Y103.504 Z-2.992 F300.
N4795 X357.636 Y103.515 Z-2.985
N4800 X357.697 Y103.532 Z-2.963
N4805 X357.756 Y103.556 Z-2.941
N4810 X357.806 Y103.582 Z-2.905
N4815 X357.854 Y103.613 Z-2.869
N4820 X357.926 Y103.674 Z-2.774
N4825 X357.974 Y103.727 Z-2.66
N4830 X358. Y103.763 Z-2.534
N4835 X358.009 Y103.776 Z-2.4
N4840 G0 Z15.
N4845 X581.084 Y334.125
N4850 Z5.
N4855 G1 Z3.1 F300.
N4860 X581.093 Y334.108 Z2.948 F150.
N4865 X581.119 Y334.056 Z2.806
N4870 X581.162 Y333.976 Z2.683
N4875 X581.222 Y333.872 Z2.587
N4880 X581.297 Y333.754 Z2.525
N4885 X581.386 Y333.632 Z2.5
N4890 G3 X585.925 Y337.079 Z2.187 I2.27 J1.724
N4895 X581.386 Y333.632 Z1.875 I-2.27 J-1.724
N4900 X585.925 Y337.079 Z1.562 I2.27 J1.724
N4905 X581.386 Y333.632 Z1.249 I-2.27 J-1.724
N4910 X585.925 Y337.079 Z0.937 I2.27 J1.724
N4915 X581.386 Y333.632 Z0.624 I-2.27 J-1.724
N4920 X585.925 Y337.079 Z0.311 I2.27 J1.724
N4925 X581.386 Y333.632 Z-0.001 I-2.27 J-1.724
N4930 X585.925 Y337.079 Z-0.314 I2.27 J1.724
N4935 X581.386 Y333.632 Z-0.627 I-2.27 J-1.724
N4940 X585.925 Y337.079 Z-0.939 I2.27 J1.724
N4945 X581.386 Y333.632 Z-1.252 I-2.27 J-1.724
N4950 X586.505 Y335.355 Z-1.5 I2.27 J1.724
N4955 G1 Y336.186 F1200.
N4960 G3 X586.186 Y336.505 I-0.319 J0.
N4965 G1 X582.492
N4970 X582.452 Y336.499
N4975 X582.415 Y336.48
N4980 X582.387 Y336.451
N4985 X582.369 Y336.414
N4990 X582.364 Y336.374
N4995 X582.372 Y336.334
N5000 X582.391 Y336.298
N5005 X582.421 Y336.271
N5010 G2 X586.271 Y332.421 I-7.421 J-11.271
N5015 G1 X586.298 Y332.391
N5020 X586.334 Y332.372
N5025 X586.374 Y332.364
N5030 X586.414 Y332.369
N5035 X586.451 Y332.387
N5040 X586.48 Y332.415
N5045 X586.499 Y332.452
N5050 X586.505 Y332.492
N5055 Y335.355
N5060 X586.502 Y335.422 Z-1.492 F300.
N5065 X586.49 Y335.488 Z-1.485
N5070 X586.473 Y335.549 Z-1.463
N5075 X586.45 Y335.608 Z-1.441
N5080 X586.423 Y335.658 Z-1.405
N5085 X586.392 Y335.706 Z-1.369
N5090 X586.331 Y335.778 Z-1.274
N5095 X586.278 Y335.826 Z-1.16
N5100 X586.242 Y335.852 Z-1.034
N5105 X586.229 Y335.86 Z-0.9
N5110 G0 Z5.
N5115 X589.245 Y162.495
N5120 G1 Z3.1 F300.
N5125 X589.252 Y162.513 Z2.948 F150.
N5130 X589.27 Y162.567 Z2.806
N5135 X589.296 Y162.655 Z2.683
N5140 X589.327 Y162.77 Z2.587
N5145 X589.357 Y162.907 Z2.525
N5150 X589.381 Y163.056 Z2.5
N5155 G3 X583.734 Y163.829 Z2.187 I-2.824 J0.386
N5160 X589.381 Y163.056 Z1.875 I2.824 J-0.386
N5165 X583.734 Y163.829 Z1.562 I-2.824 J0.386
N5170 X589.381 Y163.056 Z1.249 I2.824 J-0.386
N5175 X583.734 Y163.829 Z0.937 I-2.824 J0.386
N5180 X589.381 Y163.056 Z0.624 I2.824 J-0.386
N5185 X583.734 Y163.829 Z0.311 I-2.824 J0.386
N5190 X589.381 Y163.056 Z-0.001 I2.824 J-0.386
N5195 X583.734 Y163.829 Z-0.314 I-2.824 J0.386
N5200 X589.381 Y163.056 Z-0.627 I2.824 J-0.386
N5205 X583.734 Y163.829 Z-0.939 I-2.824 J0.386
N5210 X589.381 Y163.056 Z-1.252 I2.824 J-0.386
N5215 X584.542 Y165.458 Z-1.5 I-2.824 J0.386
N5220 G2 X582.421 Y163.729 I-9.542 J9.542 F1200.
N5225 G1 X582.391 Y163.702
N5230 X582.372 Y163.666
N5235 X582.364 Y163.626
N5240 X582.369 Y163.586
N5245 X582.387 Y163.549
N5250 X582.415 Y163.52
N5255 X582.452 Y163.501
N5260 X582.492 Y163.495
N5265 X586.186
N5270 G3 X586.505 Y163.814 I0. J0.319
N5275 G1 Y167.508
N5280 X586.499 Y167.548
N5285 X586.48 Y167.585
N5290 X586.451 Y167.613
N5295 X586.414 Y167.631
N5300 X586.374 Y167.636
N5305 X586.334 Y167.628
N5310 X586.298 Y167.609
N5315 X586.271 Y167.579
N5320 G2 X584.542 Y165.458 I-11.271 J7.421
N5325 G1 X584.498 Y165.408 Z-1.492 F300.
N5330 X584.459 Y165.354 Z-1.485
N5335 X584.428 Y165.298 Z-1.463
N5340 X584.403 Y165.24 Z-1.441
N5345 X584.386 Y165.186 Z-1.405
N5350 X584.374 Y165.13 Z-1.369
N5355 X584.366 Y165.036 Z-1.274
N5360 X584.37 Y164.964 Z-1.16
N5365 X584.377 Y164.921 Z-1.034
N5370 X584.38 Y164.906 Z-0.9
N5375 G0 Z5.
N5380 X412.495 Y160.755
N5385 G1 Z3.1 F300.
N5390 X412.513 Y160.748 Z2.948 F150.
N5395 X412.567 Y160.73 Z2.806
N5400 X412.655 Y160.704 Z2.683
N5405 X412.77 Y160.673 Z2.587
N5410 X412.907 Y160.643 Z2.525
N5415 X413.056 Y160.619 Z2.5
N5420 G3 X413.829 Y166.266 Z2.187 I0.386 J2.824
N5425 X413.056 Y160.619 Z1.875 I-0.386 J-2.824
N5430 X413.829 Y166.266 Z1.562 I0.386 J2.824
N5435 X413.056 Y160.619 Z1.249 I-0.386 J-2.824
N5440 X413.829 Y166.266 Z0.937 I0.386 J2.824
N5445 X413.056 Y160.619 Z0.624 I-0.386 J-2.824
N5450 X413.829 Y166.266 Z0.311 I0.386 J2.824
N5455 X413.056 Y160.619 Z-0.001 I-0.386 J-2.824
N5460 X413.829 Y166.266 Z-0.314 I0.386 J2.824
N5465 X413.056 Y160.619 Z-0.627 I-0.386 J-2.824
N5470 X413.829 Y166.266 Z-0.939 I0.386 J2.824
N5475 X413.056 Y160.619 Z-1.252 I-0.386 J-2.824
N5480 X415.458 Y165.458 Z-1.5 I0.386 J2.824
N5485 G2 X413.729 Y167.579 I9.542 J9.542 F1200.
N5490 G1 X413.702 Y167.609
N5495 X413.666 Y167.628
N5500 X413.626 Y167.636
N5505 X413.586 Y167.631
N5510 X413.549 Y167.613
N5515 X413.52 Y167.585
N5520 X413.501 Y167.548
N5525 X413.495 Y167.508
N5530 Y163.814
N5535 G3 X413.814 Y163.495 I0.319 J0.
N5540 G1 X417.508
N5545 X417.548 Y163.501
N5550 X417.585 Y163.52
N5555 X417.613 Y163.549
N5560 X417.631 Y163.586
N5565 X417.636 Y163.626
N5570 X417.628 Y163.666
N5575 X417.609 Y163.702
N5580 X417.579 Y163.729
N5585 G2 X415.458 Y165.458 I7.421 J11.271
N5590 G1 X415.408 Y165.502 Z-1.492 F300.
N5595 X415.354 Y165.541 Z-1.485
N5600 X415.298 Y165.572 Z-1.463
N5605 X415.24 Y165.597 Z-1.441
N5610 X415.186 Y165.614 Z-1.405
N5615 X415.13 Y165.626 Z-1.369
N5620 X415.036 Y165.634 Z-1.274
N5625 X414.964 Y165.63 Z-1.16
N5630 X414.921 Y165.623 Z-1.034
N5635 X414.906 Y165.62 Z-0.9
N5640 G0 Z5.
N5645 X410.755 Y337.505
N5650 G1 Z3.1 F300.
N5655 X410.748 Y337.487 Z2.948 F150.
N5660 X410.73 Y337.433 Z2.806
N5665 X410.704 Y337.345 Z2.683
N5670 X410.673 Y337.23 Z2.587
N5675 X410.643 Y337.093 Z2.525
N5680 X410.619 Y336.944 Z2.5
N5685 G3 X416.266 Y336.171 Z2.187 I2.824 J-0.386
N5690 X410.619 Y336.944 Z1.875 I-2.824 J0.386
N5695 X416.266 Y336.171 Z1.562 I2.824 J-0.386
N5700 X410.619 Y336.944 Z1.249 I-2.824 J0.386
N5705 X416.266 Y336.171 Z0.937 I2.824 J-0.386
N5710 X410.619 Y336.944 Z0.624 I-2.824 J0.386
N5715 X416.266 Y336.171 Z0.311 I2.824 J-0.386
N5720 X410.619 Y336.944 Z-0.001 I-2.824 J0.386
N5725 X416.266 Y336.171 Z-0.314 I2.824 J-0.386
N5730 X410.619 Y336.944 Z-0.627 I-2.824 J0.386
N5735 X416.266 Y336.171 Z-0.939 I2.824 J-0.386
N5740 X410.619 Y336.944 Z-1.252 I-2.824 J0.386
N5745 X415.458 Y334.542 Z-1.5 I2.824 J-0.386
N5750 G2 X417.579 Y336.271 I9.542 J-9.542 F1200.
N5755 G1 X417.609 Y336.298
N5760 X417.628 Y336.334
N5765 X417.636 Y336.374
N5770 X417.631 Y336.414
N5775 X417.613 Y336.451
N5780 X417.585 Y336.48
N5785 X417.548 Y336.499
N5790 X417.508 Y336.505
N5795 X413.814
N5800 G3 X413.495 Y336.186 I0. J-0.319
N5805 G1 Y332.492
N5810 X413.501 Y332.452
N5815 X413.52 Y332.415
N5820 X413.549 Y332.387
N5825 X413.586 Y332.369
N5830 X413.626 Y332.364
N5835 X413.666 Y332.372
N5840 X413.702 Y332.391
N5845 X413.729 Y332.421
N5850 G2 X415.458 Y334.542 I11.271 J-7.421
N5855 X417.405 Y334.88 I1.213 J-1.213
N5860 G3 X419.38 Y334.951 I0.919 J1.941
N5865 G2 X425. Y336.428 I5.62 J-9.951
N5870 G1 X575.
N5875 G2 X586.428 Y325. I0. J-11.428
N5880 G1 Y175.
N5885 G2 X575. Y163.572 I-11.428 J0.
N5890 G1 X425.
N5895 G2 X413.572 Y175. I0. J11.428
N5900 G1 Y325.
N5905 G2 X419.38 Y334.951 I11.428 J0.
N5910 X421.59 Y334.708 I0.936 J-1.658
N5915 G3 X423.717 Y334.06 I1.758 J1.954
N5920 G2 X425. Y334.15 I1.283 J-9.06
N5925 G1 X575.
N5930 G2 X584.15 Y325. I0. J-9.15
N5935 G1 Y175.
N5940 G2 X575. Y165.85 I-9.15 J0.
N5945 G1 X425.
N5950 G2 X415.85 Y175. I0. J9.15
N5955 G1 Y325.
N5960 G2 X423.717 Y334.06 I9.15 J0.
N5965 X428.448 Y331.443 I0.63 J-4.446
N5970 G3 X432.983 Y328.5 I4.535 J2.023
N5975 G1 X575.
N5980 G2 X578.5 Y325. I0. J-3.5
N5985 G1 Y175.
N5990 G2 X575. Y171.5 I-3.5 J0.
N5995 G1 X425.
N6000 G2 X421.5 Y175. I0. J3.5
N6005 G1 Y325.
N6010 G2 X425. Y328.5 I3.5 J0.
N6015 G1 X432.983
N6020 X433.049 Y328.504 Z-1.492 F300.
N6025 X433.115 Y328.515 Z-1.485
N6030 X433.176 Y328.532 Z-1.463
N6035 X433.235 Y328.556 Z-1.441
N6040 X433.285 Y328.582 Z-1.405
N6045 X433.333 Y328.613 Z-1.369
N6050 X433.405 Y328.674 Z-1.274
N6055 X433.453 Y328.727 Z-1.16
N6060 X433.479 Y328.763 Z-1.034
N6065 X433.487 Y328.776 Z-0.9
N6070 G0 Z5.
N6075 X414.095 Y164.645
N6080 G1 Z3. F300.
N6085 Z-0.9 F150.
N6090 G18 G3 X413.495 Z-1.5 I-0.6 K0.
N6095 G1 X413.42 Y164.649 F1200.
N6100 X413.346 Y164.663
N6105 X413.274 Y164.687
N6110 X411.971 Y165.203
N6115 G17 G3 X411.15 Y164.645 I-0.221 J-0.558
N6120 G1 Y161.469
N6125 G3 X411.469 Y161.15 I0.319 J0.
N6130 G1 X588.531
N6135 G3 X588.85 Y161.469 I0. J0.319
N6140 G1 Y335.345
N6145 Y338.531
N6150 G3 X588.531 Y338.85 I-0.319 J0.
N6155 G1 X416.72
N6160 X411.469
N6165 G3 X411.15 Y338.531 I0. J-0.319
N6170 G1 Y164.645
N6175 G2 X409.774 Y162.581 I-2.236 J0.
N6180 G3 X408.398 Y160.517 I0.86 J-2.064
N6185 G1 Y158.718
N6190 G3 X408.718 Y158.398 I0.319 J0.
N6195 G1 X591.282
N6200 G3 X591.602 Y158.718 I0. J0.319
N6205 G1 Y341.282
N6210 G3 X591.282 Y341.602 I-0.319 J0.
N6215 G1 X408.718
N6220 G3 X408.398 Y341.282 I0. J-0.319
N6225 G1 Y160.517
N6230 G2 X406.498 Y157.194 I-3.856 J0.
N6235 G3 X407.504 Y153.5 I1.006 J-1.71
N6240 G1 X596.5
N6245 Y346.5
N6250 X403.5
N6255 Y153.5
N6260 X407.504
N6265 G3 X407.747 Y153.624 I0. J0.3
N6270 G1 X412.732 Y160.504
N6275 G2 X413.019 Y160.624 I0.243 J-0.176
N6280 G3 X413.866 Y166.261 Z-1.813 I0.423 J2.818 F150.
N6285 X413.019 Y160.624 Z-2.125 I-0.423 J-2.818
N6290 X413.866 Y166.261 Z-2.438 I0.423 J2.818
N6295 X413.019 Y160.624 Z-2.751 I-0.423 J-2.818
N6300 X415.458 Y165.458 Z-3. I0.423 J2.818
N6305 G2 X413.729 Y167.579 I9.542 J9.542 F1200.
N6310 G1 X413.702 Y167.609
N6315 X413.666 Y167.628
N6320 X413.626 Y167.636
N6325 X413.586 Y167.631
N6330 X413.549 Y167.613
N6335 X413.52 Y167.585
N6340 X413.501 Y167.548
N6345 X413.495 Y167.508
N6350 Y163.814
N6355 G3 X413.814 Y163.495 I0.319 J0.
N6360 G1 X417.508
N6365 X417.548 Y163.501
N6370 X417.585 Y163.52
N6375 X417.613 Y163.549
N6380 X417.631 Y163.586
N6385 X417.636 Y163.626
N6390 X417.628 Y163.666
N6395 X417.609 Y163.702
N6400 X417.579 Y163.729
N6405 G2 X415.458 Y165.458 I7.421 J11.271
N6410 G1 X415.408 Y165.502 Z-2.992 F300.
N6415 X415.354 Y165.541 Z-2.985
N6420 X415.298 Y165.572 Z-2.963
N6425 X415.24 Y165.597 Z-2.941
N6430 X415.186 Y165.614 Z-2.905
N6435 X415.13 Y165.626 Z-2.869
N6440 X415.036 Y165.634 Z-2.774
N6445 X414.964 Y165.63 Z-2.66
N6450 X414.921 Y165.623 Z-2.534
N6455 X414.906 Y165.62 Z-2.4
N6460 G0 Z5.
N6465 X589.245 Y162.495
N6470 G1 Z1.6 F300.
N6475 X589.252 Y162.513 Z1.448 F150.
N6480 X589.27 Y162.567 Z1.306
N6485 X589.296 Y162.655 Z1.183
N6490 X589.327 Y162.77 Z1.087
N6495 X589.357 Y162.907 Z1.025
N6500 X589.381 Y163.056 Z1.
N6505 G3 X583.734 Y163.829 Z0.687 I-2.824 J0.386
N6510 X589.381 Y163.056 Z0.375 I2.824 J-0.386
N6515 X583.734 Y163.829 Z0.062 I-2.824 J0.386
N6520 X589.381 Y163.056 Z-0.251 I2.824 J-0.386
N6525 X583.734 Y163.829 Z-0.563 I-2.824 J0.386
N6530 X589.381 Y163.056 Z-0.876 I2.824 J-0.386
N6535 X583.734 Y163.829 Z-1.189 I-2.824 J0.386
N6540 X589.381 Y163.056 Z-1.501 I2.824 J-0.386
N6545 X583.734 Y163.829 Z-1.814 I-2.824 J0.386
N6550 X589.381 Y163.056 Z-2.127 I2.824 J-0.386
N6555 X583.734 Y163.829 Z-2.439 I-2.824 J0.386
N6560 X589.381 Y163.056 Z-2.752 I2.824 J-0.386
N6565 X584.542 Y165.458 Z-3. I-2.824 J0.386
N6570 G2 X582.421 Y163.729 I-9.542 J9.542 F1200.
N6575 G1 X582.391 Y163.702
N6580 X582.372 Y163.666
N6585 X582.364 Y163.626
N6590 X582.369 Y163.586
N6595 X582.387 Y163.549
N6600 X582.415 Y163.52
N6605 X582.452 Y163.501
N6610 X582.492 Y163.495
N6615 X586.186
N6620 G3 X586.505 Y163.814 I0. J0.319
N6625 G1 Y167.508
N6630 X586.499 Y167.548
N6635 X586.48 Y167.585
N6640 X586.451 Y167.613
N6645 X586.414 Y167.631
N6650 X586.374 Y167.636
N6655 X586.334 Y167.628
N6660 X586.298 Y167.609
N6665 X586.271 Y167.579
N6670 G2 X584.542 Y165.458 I-11.271 J7.421
N6675 G1 X584.498 Y165.408 Z-2.992 F300.
N6680 X584.459 Y165.354 Z-2.985
N6685 X584.428 Y165.298 Z-2.963
N6690 X584.403 Y165.24 Z-2.941
N6695 X584.386 Y165.186 Z-2.905
N6700 X584.374 Y165.13 Z-2.869
N6705 X584.366 Y165.036 Z-2.774
N6710 X584.37 Y164.964 Z-2.66
N6715 X584.377 Y164.921 Z-2.534
N6720 X584.38 Y164.906 Z-2.4
N6725 G0 Z5.
N6730 X581.084 Y334.125
N6735 G1 Z1.6 F300.
N6740 X581.093 Y334.108 Z1.448 F150.
N6745 X581.119 Y334.056 Z1.306
N6750 X581.162 Y333.976 Z1.183
N6755 X581.222 Y333.872 Z1.087
N6760 X581.297 Y333.754 Z1.025
N6765 X581.386 Y333.632 Z1.
N6770 G3 X585.925 Y337.079 Z0.687 I2.27 J1.724
N6775 X581.386 Y333.632 Z0.375 I-2.27 J-1.724
N6780 X585.925 Y337.079 Z0.062 I2.27 J1.724
N6785 X581.386 Y333.632 Z-0.251 I-2.27 J-1.724
N6790 X585.925 Y337.079 Z-0.563 I2.27 J1.724
N6795 X581.386 Y333.632 Z-0.876 I-2.27 J-1.724
N6800 X585.925 Y337.079 Z-1.189 I2.27 J1.724
N6805 X581.386 Y333.632 Z-1.501 I-2.27 J-1.724
N6810 X585.925 Y337.079 Z-1.814 I2.27 J1.724
N6815 X581.386 Y333.632 Z-2.127 I-2.27 J-1.724
N6820 X585.925 Y337.079 Z-2.439 I2.27 J1.724
N6825 X581.386 Y333.632 Z-2.752 I-2.27 J-1.724
N6830 X586.505 Y335.355 Z-3. I2.27 J1.724
N6835 G1 Y336.186 F1200.
N6840 G3 X586.186 Y336.505 I-0.319 J0.
N6845 G1 X582.492
N6850 X582.452 Y336.499
N6855 X582.415 Y336.48
N6860 X582.387 Y336.451
N6865 X582.369 Y336.414
N6870 X582.364 Y336.374
N6875 X582.372 Y336.334
N6880 X582.391 Y336.298
N6885 X582.421 Y336.271
N6890 G2 X586.271 Y332.421 I-7.421 J-11.271
N6895 G1 X586.298 Y332.391
N6900 X586.334 Y332.372
N6905 X586.374 Y332.364
N6910 X586.414 Y332.369
N6915 X586.451 Y332.387
N6920 X586.48 Y332.415
N6925 X586.499 Y332.452
N6930 X586.505 Y332.492
N6935 Y335.355
N6940 X586.502 Y335.422 Z-2.992 F300.
N6945 X586.49 Y335.488 Z-2.985
N6950 X586.473 Y335.549 Z-2.963
N6955 X586.45 Y335.608 Z-2.941
N6960 X586.423 Y335.658 Z-2.905
N6965 X586.392 Y335.706 Z-2.869
N6970 X586.331 Y335.778 Z-2.774
N6975 X586.278 Y335.826 Z-2.66
N6980 X586.242 Y335.852 Z-2.534
N6985 X586.229 Y335.86 Z-2.4
N6990 G0 Z5.
N6995 X410.755 Y337.505
N7000 G1 Z1.6 F300.
N7005 X410.748 Y337.487 Z1.448 F150.
N7010 X410.73 Y337.433 Z1.306
N7015 X410.704 Y337.345 Z1.183
N7020 X410.673 Y337.23 Z1.087
N7025 X410.643 Y337.093 Z1.025
N7030 X410.619 Y336.944 Z1.
N7035 G3 X416.266 Y336.171 Z0.687 I2.824 J-0.386
N7040 X410.619 Y336.944 Z0.375 I-2.824 J0.386
N7045 X416.266 Y336.171 Z0.062 I2.824 J-0.386
N7050 X410.619 Y336.944 Z-0.251 I-2.824 J0.386
N7055 X416.266 Y336.171 Z-0.563 I2.824 J-0.386
N7060 X410.619 Y336.944 Z-0.876 I-2.824 J0.386
N7065 X416.266 Y336.171 Z-1.189 I2.824 J-0.386
N7070 X410.619 Y336.944 Z-1.501 I-2.824 J0.386
N7075 X416.266 Y336.171 Z-1.814 I2.824 J-0.386
N7080 X410.619 Y336.944 Z-2.127 I-2.824 J0.386
N7085 X416.266 Y336.171 Z-2.439 I2.824 J-0.386
N7090 X410.619 Y336.944 Z-2.752 I-2.824 J0.386
N7095 X415.458 Y334.542 Z-3. I2.824 J-0.386
N7100 G2 X417.579 Y336.271 I9.542 J-9.542 F1200.
N7105 G1 X417.609 Y336.298
N7110 X417.628 Y336.334
N7115 X417.636 Y336.374
N7120 X417.631 Y336.414
N7125 X417.613 Y336.451
N7130 X417.585 Y336.48
N7135 X417.548 Y336.499
N7140 X417.508 Y336.505
N7145 X413.814
N7150 G3 X413.495 Y336.186 I0. J-0.319
N7155 G1 Y332.492
N7160 X413.501 Y332.452
N7165 X413.52 Y332.415
N7170 X413.549 Y332.387
N7175 X413.586 Y332.369
N7180 X413.626 Y332.364
N7185 X413.666 Y332.372
N7190 X413.702 Y332.391
N7195 X413.729 Y332.421
N7200 G2 X415.458 Y334.542 I11.271 J-7.421
N7205 X417.405 Y334.88 I1.213 J-1.213
N7210 G3 X419.38 Y334.951 I0.919 J1.941
N7215 G2 X425. Y336.428 I5.62 J-9.951
N7220 G1 X575.
N7225 G2 X586.428 Y325. I0. J-11.428
N7230 G1 Y175.
N7235 G2 X575. Y163.572 I-11.428 J0.
N7240 G1 X425.
N7245 G2 X413.572 Y175. I0. J11.428
N7250 G1 Y325.
N7255 G2 X419.38 Y334.951 I11.428 J0.
N7260 X421.59 Y334.708 I0.936 J-1.658
N7265 G3 X423.717 Y334.06 I1.758 J1.954
N7270 G2 X425. Y334.15 I1.283 J-9.06
N7275 G1 X575.
N7280 G2 X584.15 Y325. I0. J-9.15
N7285 G1 Y175.
N7290 G2 X575. Y165.85 I-9.15 J0.
N7295 G1 X425.
N7300 G2 X415.85 Y175. I0. J9.15
N7305 G1 Y325.
N7310 G2 X423.717 Y334.06 I9.15 J0.
N7315 X428.448 Y331.443 I0.63 J-4.446
N7320 G3 X432.983 Y328.5 I4.535 J2.023
N7325 G1 X575.
N7330 G2 X578.5 Y325. I0. J-3.5
N7335 G1 Y175.
N7340 G2 X575. Y171.5 I-3.5 J0.
N7345 G1 X425.
N7350 G2 X421.5 Y175. I0. J3.5
N7355 G1 Y325.
N7360 G2 X425. Y328.5 I3.5 J0.
N7365 G1 X432.983
N7370 X433.049 Y328.504 Z-2.992 F300.
N7375 X433.115 Y328.515 Z-2.985
N7380 X433.176 Y328.532 Z-2.963
N7385 X433.235 Y328.556 Z-2.941
N7390 X433.285 Y328.582 Z-2.905
N7395 X433.333 Y328.613 Z-2.869
N7400 X433.405 Y328.674 Z-2.774
N7405 X433.453 Y328.727 Z-2.66
N7410 X433.479 Y328.763 Z-2.534
N7415 X433.487 Y328.776 Z-2.4
N7420 G0 Z5.
N7425 X414.095 Y164.645
N7430 G1 Z1.5 F300.
N7435 Z-2.4 F150.
N7440 G18 G3 X413.495 Z-3. I-0.6 K0.
N7445 G1 X413.42 Y164.649 F1200.
N7450 X413.346 Y164.663
N7455 X413.274 Y164.687
N7460 X411.971 Y165.203
N7465 G17 G3 X411.15 Y164.645 I-0.221 J-0.558
N7470 G1 Y161.469
N7475 G3 X411.469 Y161.15 I0.319 J0.
N7480 G1 X588.531
N7485 G3 X588.85 Y161.469 I0. J0.319
N7490 G1 Y335.345
N7495 Y338.531
N7500 G3 X588.531 Y338.85 I-0.319 J0.
N7505 G1 X416.72
N7510 X411.469
N7515 G3 X411.15 Y338.531 I0. J-0.319
N7520 G1 Y164.645
N7525 G2 X409.774 Y162.581 I-2.236 J0.
N7530 G3 X408.398 Y160.517 I0.86 J-2.064
N7535 G1 Y158.718
N7540 G3 X408.718 Y158.398 I0.319 J0.
N7545 G1 X591.282
N7550 G3 X591.602 Y158.718 I0. J0.319
N7555 G1 Y341.282
N7560 G3 X591.282 Y341.602 I-0.319 J0.
N7565 G1 X408.718
N7570 G3 X408.398 Y341.282 I0. J-0.319
N7575 G1 Y160.517
N7580 G2 X406.498 Y157.194 I-3.856 J0.
N7585 G3 X407.504 Y153.5 I1.006 J-1.71
N7590 G1 X596.5
N7595 Y346.5
N7600 X403.5
N7605 Y153.5
N7610 X407.504
N7615 X407.57 Y153.504 Z-2.992 F300.
N7620 X407.636 Y153.515 Z-2.985
N7625 X407.697 Y153.532 Z-2.963
N7630 X407.756 Y153.556 Z-2.941
N7635 X407.806 Y153.582 Z-2.905
N7640 X407.854 Y153.613 Z-2.869
N7645 X407.926 Y153.674 Z-2.774
N7650 X407.974 Y153.727 Z-2.66
N7655 X408. Y153.763 Z-2.534
N7660 X408.009 Y153.776 Z-2.4
N7665 G0 Z15.
N7670 X531.084 Y284.125
N7675 Z5.
N7680 G1 Z3.1 F300.
N7685 X531.093 Y284.108 Z2.948 F150.
N7690 X531.119 Y284.056 Z2.806
N7695 X531.162 Y283.976 Z2.683
N7700 X531.222 Y283.872 Z2.587
N7705 X531.297 Y283.754 Z2.525
N7710 X531.386 Y283.632 Z2.5
N7715 G3 X535.925 Y287.079 Z2.187 I2.27 J1.724
N7720 X531.386 Y283.632 Z1.875 I-2.27 J-1.724
N7725 X535.925 Y287.079 Z1.562 I2.27 J1.724
N7730 X531.386 Y283.632 Z1.249 I-2.27 J-1.724
N7735 X535.925 Y287.079 Z0.937 I2.27 J1.724
N7740 X531.386 Y283.632 Z0.624 I-2.27 J-1.724
N7745 X535.925 Y287.079 Z0.311 I2.27 J1.724
N7750 X531.386 Y283.632 Z-0.001 I-2.27 J-1.724
N7755 X535.925 Y287.079 Z-0.314 I2.27 J1.724
N7760 X531.386 Y283.632 Z-0.627 I-2.27 J-1.724
N7765 X535.925 Y287.079 Z-0.939 I2.27 J1.724
N7770 X531.386 Y283.632 Z-1.252 I-2.27 J-1.724
N7775 X536.505 Y285.355 Z-1.5 I2.27 J1.724
N7780 G1 Y286.186 F1200.
N7785 G3 X536.186 Y286.505 I-0.319 J0.
N7790 G1 X532.492
N7795 X532.452 Y286.499
N7800 X532.415 Y286.48
N7805 X532.387 Y286.451
N7810 X532.369 Y286.414
N7815 X532.364 Y286.374
N7820 X532.372 Y286.334
N7825 X532.391 Y286.298
N7830 X532.421 Y286.271
N7835 G2 X536.271 Y282.421 I-7.421 J-11.271
N7840 G1 X536.298 Y282.391
N7845 X536.334 Y282.372
N7850 X536.374 Y282.364
N7855 X536.414 Y282.369
N7860 X536.451 Y282.387
N7865 X536.48 Y282.415
N7870 X536.499 Y282.452
N7875 X536.505 Y282.492
N7880 Y285.355
N7885 X536.502 Y285.422 Z-1.492 F300.
N7890 X536.49 Y285.488 Z-1.485
N7895 X536.473 Y285.549 Z-1.463
N7900 X536.45 Y285.608 Z-1.441
N7905 X536.423 Y285.658 Z-1.405
N7910 X536.392 Y285.706 Z-1.369
N7915 X536.331 Y285.778 Z-1.274
N7920 X536.278 Y285.826 Z-1.16
N7925 X536.242 Y285.852 Z-1.034
N7930 X536.229 Y285.86 Z-0.9
N7935 G0 Z5.
N7940 X531.084 Y213.415
N7945 G1 Z3.1 F300.
N7950 X531.093 Y213.397 Z2.948 F150.
N7955 X531.119 Y213.346 Z2.806
N7960 X531.162 Y213.265 Z2.683
N7965 X531.222 Y213.161 Z2.587
N7970 X531.297 Y213.044 Z2.525
N7975 X531.386 Y212.921 Z2.5
N7980 G3 X535.925 Y216.368 Z2.187 I2.27 J1.724
N7985 X531.386 Y212.921 Z1.875 I-2.27 J-1.724
N7990 X535.925 Y216.368 Z1.562 I2.27 J1.724
N7995 X531.386 Y212.921 Z1.249 I-2.27 J-1.724
N8000 X535.925 Y216.368 Z0.937 I2.27 J1.724
N8005 X531.386 Y212.921 Z0.624 I-2.27 J-1.724
N8010 X535.925 Y216.368 Z0.311 I2.27 J1.724
N8015 X531.386 Y212.921 Z-0.001 I-2.27 J-1.724
N8020 X535.925 Y216.368 Z-0.314 I2.27 J1.724
N8025 X531.386 Y212.921 Z-0.627 I-2.27 J-1.724
N8030 X535.925 Y216.368 Z-0.939 I2.27 J1.724
N8035 X531.386 Y212.921 Z-1.252 I-2.27 J-1.724
N8040 X536.505 Y214.645 Z-1.5 I2.27 J1.724
N8045 G1 Y217.508 F1200.
N8050 X536.499 Y217.548
N8055 X536.48 Y217.585
N8060 X536.451 Y217.613
N8065 X536.414 Y217.631
N8070 X536.374 Y217.636
N8075 X536.334 Y217.628
N8080 X536.298 Y217.609
N8085 X536.271 Y217.579
N8090 G2 X532.421 Y213.729 I-11.271 J7.421
N8095 G1 X532.391 Y213.702
N8100 X532.372 Y213.666
N8105 X532.364 Y213.626
N8110 X532.369 Y213.586
N8115 X532.387 Y213.549
N8120 X532.415 Y213.52
N8125 X532.452 Y213.501
N8130 X532.492 Y213.495
N8135 X536.186
N8140 G3 X536.505 Y213.814 I0. J0.319
N8145 G1 Y214.645
N8150 X536.502 Y214.711 Z-1.492 F300.
N8155 X536.49 Y214.777 Z-1.485
N8160 X536.473 Y214.838 Z-1.463
N8165 X536.45 Y214.897 Z-1.441
N8170 X536.423 Y214.947 Z-1.405
N8175 X536.392 Y214.995 Z-1.369
N8180 X536.331 Y215.067 Z-1.274
N8185 X536.278 Y215.115 Z-1.16
N8190 X536.242 Y215.141 Z-1.034
N8195 X536.229 Y215.15 Z-0.9
N8200 G0 Z5.
N8205 X462.495 Y210.755
N8210 G1 Z3.1 F300.
N8215 X462.513 Y210.748 Z2.948 F150.
N8220 X462.567 Y210.73 Z2.806
N8225 X462.655 Y210.704 Z2.683
N8230 X462.77 Y210.673 Z2.587
N8235 X462.907 Y210.643 Z2.525
N8240 X463.056 Y210.619 Z2.5
N8245 G3 X463.829 Y216.266 Z2.187 I0.386 J2.824
N8250 X463.056 Y210.619 Z1.875 I-0.386 J-2.824
N8255 X463.829 Y216.266 Z1.562 I0.386 J2.824
N8260 X463.056 Y210.619 Z1.249 I-0.386 J-2.824
N8265 X463.829 Y216.266 Z0.937 I0.386 J2.824
N8270 X463.056 Y210.619 Z0.624 I-0.386 J-2.824
N8275 X463.829 Y216.266 Z0.311 I0.386 J2.824
N8280 X463.056 Y210.619 Z-0.001 I-0.386 J-2.824
N8285 X463.829 Y216.266 Z-0.314 I0.386 J2.824
N8290 X463.056 Y210.619 Z-0.627 I-0.386 J-2.824
N8295 X463.829 Y216.266 Z-0.939 I0.386 J2.824
N8300 X463.056 Y210.619 Z-1.252 I-0.386 J-2.824
N8305 X465.458 Y215.458 Z-1.5 I0.386 J2.824
N8310 G2 X463.729 Y217.579 I9.542 J9.542 F1200.
N8315 G1 X463.702 Y217.609
N8320 X463.666 Y217.628
N8325 X463.626 Y217.636
N8330 X463.586 Y217.631
N8335 X463.549 Y217.613
N8340 X463.52 Y217.585
N8345 X463.501 Y217.548
N8350 X463.495 Y217.508
N8355 Y213.814
N8360 G3 X463.814 Y213.495 I0.319 J0.
N8365 G1 X467.508
N8370 X467.548 Y213.501
N8375 X467.585 Y213.52
N8380 X467.613 Y213.549
N8385 X467.631 Y213.586
N8390 X467.636 Y213.626
N8395 X467.628 Y213.666
N8400 X467.609 Y213.702
N8405 X467.579 Y213.729
N8410 G2 X465.458 Y215.458 I7.421 J11.271
N8415 G1 X465.408 Y215.502 Z-1.492 F300.
N8420 X465.354 Y215.541 Z-1.485
N8425 X465.298 Y215.572 Z-1.463
N8430 X465.24 Y215.597 Z-1.441
N8435 X465.186 Y215.614 Z-1.405
N8440 X465.13 Y215.626 Z-1.369
N8445 X465.036 Y215.634 Z-1.274
N8450 X464.964 Y215.63 Z-1.16
N8455 X464.921 Y215.623 Z-1.034
N8460 X464.906 Y215.62 Z-0.9
N8465 G0 Z5.
N8470 X465.875 Y281.084
N8475 G1 Z3.1 F300.
N8480 X465.892 Y281.093 Z2.948 F150.
N8485 X465.944 Y281.119 Z2.806
N8490 X466.024 Y281.162 Z2.683
N8495 X466.128 Y281.222 Z2.587
N8500 X466.246 Y281.297 Z2.525
N8505 X466.368 Y281.386 Z2.5
N8510 G3 X462.921 Y285.925 Z2.187 I-1.724 J2.27
N8515 X466.368 Y281.386 Z1.875 I1.724 J-2.27
N8520 X462.921 Y285.925 Z1.562 I-1.724 J2.27
N8525 X466.368 Y281.386 Z1.249 I1.724 J-2.27
N8530 X462.921 Y285.925 Z0.937 I-1.724 J2.27
N8535 X466.368 Y281.386 Z0.624 I1.724 J-2.27
N8540 X462.921 Y285.925 Z0.311 I-1.724 J2.27
N8545 X466.368 Y281.386 Z-0.001 I1.724 J-2.27
N8550 X462.921 Y285.925 Z-0.314 I-1.724 J2.27
N8555 X466.368 Y281.386 Z-0.627 I1.724 J-2.27
N8560 X462.921 Y285.925 Z-0.939 I-1.724 J2.27
N8565 X466.368 Y281.386 Z-1.252 I1.724 J-2.27
N8570 X464.645 Y286.505 Z-1.5 I-1.724 J2.27
N8575 G1 X463.814 F1200.
N8580 G3 X463.495 Y286.186 I0. J-0.319
N8585 G1 Y282.492
N8590 X463.501 Y282.452
N8595 X463.52 Y282.415
N8600 X463.549 Y282.387
N8605 X463.586 Y282.369
N8610 X463.626 Y282.364
N8615 X463.666 Y282.372
N8620 X463.702 Y282.391
N8625 X463.729 Y282.421
N8630 G2 X467.579 Y286.271 I11.271 J-7.421
N8635 G1 X467.609 Y286.298
N8640 X467.628 Y286.334
N8645 X467.636 Y286.374
N8650 X467.631 Y286.414
N8655 X467.613 Y286.451
N8660 X467.585 Y286.48
N8665 X467.548 Y286.499
N8670 X467.508 Y286.505
N8675 X464.645
N8680 G2 X462.986 Y287.442 I0. J1.937
N8685 G3 X461.15 Y286.932 I-0.847 J-0.51
N8690 G1 Y211.469
N8695 G3 X461.469 Y211.15 I0.319 J0.
N8700 G1 X538.531
N8705 G3 X538.85 Y211.469 I0. J0.319
N8710 G1 Y288.531
N8715 G3 X538.531 Y288.85 I-0.319 J0.
N8720 G1 X461.469
N8725 G3 X461.15 Y288.531 I0. J-0.319
N8730 G1 Y286.932
N8735 G2 X459.774 Y284.868 I-2.236 J0.
N8740 G3 X458.398 Y282.805 I0.86 J-2.064
N8745 G1 Y208.718
N8750 G3 X458.718 Y208.398 I0.319 J0.
N8755 G1 X541.282
N8760 G3 X541.602 Y208.718 I0. J0.319
N8765 G1 Y291.282
N8770 G3 X541.282 Y291.602 I-0.319 J0.
N8775 G1 X458.718
N8780 G3 X458.398 Y291.282 I0. J-0.319
N8785 G1 Y282.805
N8790 G2 X455.949 Y279.131 I-3.98 J0.
N8795 G3 X453.5 Y275.457 I1.531 J-3.674
N8800 G1 Y225.
N8805 Y203.5
N8810 X546.5
N8815 Y296.5
N8820 X453.5
N8825 Y275.457
N8830 G3 X453.956 Y275.201 I0.3 J0.
N8835 G1 X466.862 Y283.036
N8840 X466.892 Y283.057
N8845 X466.919 Y283.08
N8850 G2 X475. Y286.428 I8.081 J-8.08
N8855 G1 X525.
N8860 G2 X536.428 Y275. I0. J-11.428
N8865 G1 Y225.
N8870 G2 X525. Y213.572 I-11.428 J0.
N8875 G1 X475.
N8880 G2 X463.572 Y225. I0. J11.428
N8885 G1 Y275.
N8890 G2 X466.919 Y283.08 I11.428 J0.
N8895 X469.113 Y283.439 I1.347 J-1.346
N8900 G3 X471.336 Y283.384 I1.17 J2.354
N8905 G2 X475. Y284.15 I3.664 J-8.384
N8910 G1 X525.
N8915 G2 X534.15 Y275. I0. J-9.15
N8920 G1 Y225.
N8925 G2 X525. Y215.85 I-9.15 J0.
N8930 G1 X475.
N8935 G2 X465.85 Y225. I0. J9.15
N8940 G1 Y275.
N8945 G2 X471.336 Y283.384 I9.15 J0.
N8950 X476.937 Y281.495 I1.76 J-4.028
N8955 G3 X482.033 Y278.5 I5.096 J2.838
N8960 G1 X525.
N8965 G2 X528.5 Y275. I0. J-3.5
N8970 G1 Y225.
N8975 G2 X525. Y221.5 I-3.5 J0.
N8980 G1 X475.
N8985 G2 X471.5 Y225. I0. J3.5
N8990 G1 Y275.
N8995 G2 X475. Y278.5 I3.5 J0.
N9000 G1 X482.033
N9005 G3 X482.066 Y279.098 I0. J0.3
N9010 G1 X466.483 Y280.823
N9015 G2 X466.338 Y281.363 I0.033 J0.298
N9020 G3 X462.951 Y285.948 Z-1.813 I-1.693 J2.292 F150.
N9025 X466.338 Y281.363 Z-2.125 I1.693 J-2.292
N9030 X462.951 Y285.948 Z-2.438 I-1.693 J2.292
N9035 X466.338 Y281.363 Z-2.751 I1.693 J-2.292
N9040 X464.645 Y286.505 Z-3. I-1.693 J2.292
N9045 G1 X463.814 F1200.
N9050 G3 X463.495 Y286.186 I0. J-0.319
N9055 G1 Y282.492
N9060 X463.501 Y282.452
N9065 X463.52 Y282.415
N9070 X463.549 Y282.387
N9075 X463.586 Y282.369
N9080 X463.626 Y282.364
N9085 X463.666 Y282.372
N9090 X463.702 Y282.391
N9095 X463.729 Y282.421
N9100 G2 X467.579 Y286.271 I11.271 J-7.421
N9105 G1 X467.609 Y286.298
N9110 X467.628 Y286.334
N9115 X467.636 Y286.374
N9120 X467.631 Y286.414
N9125 X467.613 Y286.451
N9130 X467.585 Y286.48
N9135 X467.548 Y286.499
N9140 X467.508 Y286.505
N9145 X464.645
N9150 X464.578 Y286.502 Z-2.992 F300.
N9155 X464.512 Y286.491 Z-2.985
N9160 X464.451 Y286.473 Z-2.963
N9165 X464.392 Y286.45 Z-2.941
N9170 X464.342 Y286.423 Z-2.905
N9175 X464.294 Y286.392 Z-2.869
N9180 X464.222 Y286.331 Z-2.774
N9185 X464.174 Y286.278 Z-2.66
N9190 X464.148 Y286.242 Z-2.534
N9195 X464.14 Y286.229 Z-2.4
N9200 G0 Z5.
N9205 X531.084 Y284.125
N9210 G1 Z1.6 F300.
N9215 X531.093 Y284.108 Z1.448 F150.
N9220 X531.119 Y284.056 Z1.306
N9225 X531.162 Y283.976 Z1.183
N9230 X531.222 Y283.872 Z1.087
N9235 X531.297 Y283.754 Z1.025
N9240 X531.386 Y283.632 Z1.
N9245 G3 X535.925 Y287.079 Z0.687 I2.27 J1.724
N9250 X531.386 Y283.632 Z0.375 I-2.27 J-1.724
N9255 X535.925 Y287.079 Z0.062 I2.27 J1.724
N9260 X531.386 Y283.632 Z-0.251 I-2.27 J-1.724
N9265 X535.925 Y287.079 Z-0.563 I2.27 J1.724
N9270 X531.386 Y283.632 Z-0.876 I-2.27 J-1.724
N9275 X535.925 Y287.079 Z-1.189 I2.27 J1.724
N9280 X531.386 Y283.632 Z-1.501 I-2.27 J-1.724
N9285 X535.925 Y287.079 Z-1.814 I2.27 J1.724
N9290 X531.386 Y283.632 Z-2.127 I-2.27 J-1.724
N9295 X535.925 Y287.079 Z-2.439 I2.27 J1.724
N9300 X531.386 Y283.632 Z-2.752 I-2.27 J-1.724
N9305 X536.505 Y285.355 Z-3. I2.27 J1.724
N9310 G1 Y286.186 F1200.
N9315 G3 X536.186 Y286.505 I-0.319 J0.
N9320 G1 X532.492
N9325 X532.452 Y286.499
N9330 X532.415 Y286.48
N9335 X532.387 Y286.451
N9340 X532.369 Y286.414
N9345 X532.364 Y286.374
N9350 X532.372 Y286.334
N9355 X532.391 Y286.298
N9360 X532.421 Y286.271
N9365 G2 X536.271 Y282.421 I-7.421 J-11.271
N9370 G1 X536.298 Y282.391
N9375 X536.334 Y282.372
N9380 X536.374 Y282.364
N9385 X536.414 Y282.369
N9390 X536.451 Y282.387
N9395 X536.48 Y282.415
N9400 X536.499 Y282.452
N9405 X536.505 Y282.492
N9410 Y285.355
N9415 X536.502 Y285.422 Z-2.992 F300.
N9420 X536.49 Y285.488 Z-2.985
N9425 X536.473 Y285.549 Z-2.963
N9430 X536.45 Y285.608 Z-2.941
N9435 X536.423 Y285.658 Z-2.905
N9440 X536.392 Y285.706 Z-2.869
N9445 X536.331 Y285.778 Z-2.774
N9450 X536.278 Y285.826 Z-2.66
N9455 X536.242 Y285.852 Z-2.534
N9460 X536.229 Y285.86 Z-2.4
N9465 G0 Z5.
N9470 X531.084 Y213.415
N9475 G1 Z1.6 F300.
N9480 X531.093 Y213.397 Z1.448 F150.
N9485 X531.119 Y213.346 Z1.306
N9490 X531.162 Y213.265 Z1.183
N9495 X531.222 Y213.161 Z1.087
N9500 X531.297 Y213.044 Z1.025
N9505 X531.386 Y212.921 Z1.
N9510 G3 X535.925 Y216.368 Z0.687 I2.27 J1.724
N9515 X531.386 Y212.921 Z0.375 I-2.27 J-1.724
N9520 X535.925 Y216.368 Z0.062 I2.27 J1.724
N9525 X531.386 Y212.921 Z-0.251 I-2.27 J-1.724
N9530 X535.925 Y216.368 Z-0.563 I2.27 J1.724
N9535 X531.386 Y212.921 Z-0.876 I-2.27 J-1.724
N9540 X535.925 Y216.368 Z-1.189 I2.27 J1.724
N9545 X531.386 Y212.921 Z-1.501 I-2.27 J-1.724
N9550 X535.925 Y216.368 Z-1.814 I2.27 J1.724
N9555 X531.386 Y212.921 Z-2.127 I-2.27 J-1.724
N9560 X535.925 Y216.368 Z-2.439 I2.27 J1.724
N9565 X531.386 Y212.921 Z-2.752 I-2.27 J-1.724
N9570 X536.505 Y214.645 Z-3. I2.27 J1.724
N9575 G1 Y217.508 F1200.
N9580 X536.499 Y217.548
N9585 X536.48 Y217.585
N9590 X536.451 Y217.613
N9595 X536.414 Y217.631
N9600 X536.374 Y217.636
N9605 X536.334 Y217.628
N9610 X536.298 Y217.609
N9615 X536.271 Y217.579
N9620 G2 X532.421 Y213.729 I-11.271 J7.421
N9625 G1 X532.391 Y213.702
N9630 X532.372 Y213.666
N9635 X532.364 Y213.626
N9640 X532.369 Y213.586
N9645 X532.387 Y213.549
N9650 X532.415 Y213.52
N9655 X532.452 Y213.501
N9660 X532.492 Y213.495
N9665 X536.186
N9670 G3 X536.505 Y213.814 I0. J0.319
N9675 G1 Y214.645
N9680 X536.502 Y214.711 Z-2.992 F300.
N9685 X536.49 Y214.777 Z-2.985
N9690 X536.473 Y214.838 Z-2.963
N9695 X536.45 Y214.897 Z-2.941
N9700 X536.423 Y214.947 Z-2.905
N9705 X536.392 Y214.995 Z-2.869
N9710 X536.331 Y215.067 Z-2.774
N9715 X536.278 Y215.115 Z-2.66
N9720 X536.242 Y215.141 Z-2.534
N9725 X536.229 Y215.15 Z-2.4
N9730 G0 Z5.
N9735 X462.495 Y210.755
N9740 G1 Z1.6 F300.
N9745 X462.513 Y210.748 Z1.448 F150.
N9750 X462.567 Y210.73 Z1.306
N9755 X462.655 Y210.704 Z1.183
N9760 X462.77 Y210.673 Z1.087
N9765 X462.907 Y210.643 Z1.025
N9770 X463.056 Y210.619 Z1.
N9775 G3 X463.829 Y216.266 Z0.687 I0.386 J2.824
N9780 X463.056 Y210.619 Z0.375 I-0.386 J-2.824
N9785 X463.829 Y216.266 Z0.062 I0.386 J2.824
N9790 X463.056 Y210.619 Z-0.251 I-0.386 J-2.824
N9795 X463.829 Y216.266 Z-0.563 I0.386 J2.824
N9800 X463.056 Y210.619 Z-0.876 I-0.386 J-2.824
N9805 X463.829 Y216.266 Z-1.189 I0.386 J2.824
N9810 X463.056 Y210.619 Z-1.501 I-0.386 J-2.824
N9815 X463.829 Y216.266 Z-1.814 I0.386 J2.824
N9820 X463.056 Y210.619 Z-2.127 I-0.386 J-2.824
N9825 X463.829 Y216.266 Z-2.439 I0.386 J2.824
N9830 X463.056 Y210.619 Z-2.752 I-0.386 J-2.824
N9835 X465.458 Y215.458 Z-3. I0.386 J2.824
N9840 G2 X463.729 Y217.579 I9.542 J9.542 F1200.
N9845 G1 X463.702 Y217.609
N9850 X463.666 Y217.628
N9855 X463.626 Y217.636
N9860 X463.586 Y217.631
N9865 X463.549 Y217.613
N9870 X463.52 Y217.585
N9875 X463.501 Y217.548
N9880 X463.495 Y217.508
N9885 Y213.814
N9890 G3 X463.814 Y213.495 I0.319 J0.
N9895 G1 X467.508
N9900 X467.548 Y213.501
N9905 X467.585 Y213.52
N9910 X467.613 Y213.549
N9915 X467.631 Y213.586
N9920 X467.636 Y213.626
N9925 X467.628 Y213.666
N9930 X467.609 Y213.702
N9935 X467.579 Y213.729
N9940 G2 X465.458 Y215.458 I7.421 J11.271
N9945 X465.12 Y217.405 I1.213 J1.213
N9950 G3 X465.049 Y219.38 I-1.941 J0.919
N9955 G2 X463.572 Y225. I9.951 J5.62
N9960 G1 Y275.
N9965 G2 X475. Y286.428 I11.428 J0.
N9970 G1 X525.
N9975 G2 X536.428 Y275. I0. J-11.428
N9980 G1 Y225.
N9985 G2 X525. Y213.572 I-11.428 J0.
N9990 G1 X475.
N9995 G2 X465.049 Y219.38 I0. J11.428
N10000 X465.292 Y221.59 I1.658 J0.936
N10005 G3 X465.94 Y223.717 I-1.954 J1.758
N10010 G2 X465.85 Y225. I9.06 J1.283
N10015 G1 Y275.
N10020 G2 X475. Y284.15 I9.15 J0.
N10025 G1 X525.
N10030 G2 X534.15 Y275. I0. J-9.15
N10035 G1 Y225.
N10040 G2 X525. Y215.85 I-9.15 J0.
N10045 G1 X475.
N10050 G2 X465.94 Y223.717 I0. J9.15
N10055 X468.557 Y228.448 I4.446 J0.63
N10060 G3 X471.5 Y232.983 I-2.023 J4.535
N10065 G1 Y275.
N10070 G2 X475. Y278.5 I3.5 J0.
N10075 G1 X525.
N10080 G2 X528.5 Y275. I0. J-3.5
N10085 G1 Y225.
N10090 G2 X525. Y221.5 I-3.5 J0.
N10095 G1 X475.
N10100 G2 X471.5 Y225. I0. J3.5
N10105 G1 Y232.983
N10110 G3 X470.935 Y233.123 I-0.3 J0.
N10115 G1 X461.185 Y214.789
N10120 X461.166 Y214.744
N10125 X461.154 Y214.697
N10130 X461.15 Y214.648
N10135 Y211.469
N10140 G3 X461.469 Y211.15 I0.319 J0.
N10145 G1 X538.531
N10150 G3 X538.85 Y211.469 I0. J0.319
N10155 G1 Y288.531
N10160 G3 X538.531 Y288.85 I-0.319 J0.
N10165 G1 X461.469
N10170 G3 X461.15 Y288.531 I0. J-0.319
N10175 G1 Y216.72
N10180 Y214.648
N10185 G2 X459.774 Y212.585 I-2.236 J0.
N10190 G3 X458.398 Y210.521 I0.86 J-2.064
N10195 G1 Y208.718
N10200 G3 X458.718 Y208.398 I0.319 J0.
N10205 G1 X541.282
N10210 G3 X541.602 Y208.718 I0. J0.319
N10215 G1 Y291.282
N10220 G3 X541.282 Y291.602 I-0.319 J0.
N10225 G1 X458.718
N10230 G3 X458.398 Y291.282 I0. J-0.319
N10235 G1 Y210.521
N10240 G2 X456.495 Y207.196 I-3.855 J0.
N10245 G3 X457.5 Y203.5 I1.005 J-1.712
N10250 G1 X546.5
N10255 Y296.5
N10260 X453.5
N10265 Y225.
N10270 Y203.5
N10275 X457.5
N10280 X457.567 Y203.504 Z-2.992 F300.
N10285 X457.633 Y203.515 Z-2.985
N10290 X457.694 Y203.532 Z-2.963
N10295 X457.752 Y203.556 Z-2.941
N10300 X457.803 Y203.582 Z-2.905
N10305 X457.851 Y203.613 Z-2.869
N10310 X457.923 Y203.674 Z-2.774
N10315 X457.971 Y203.727 Z-2.66
N10320 X457.997 Y203.763 Z-2.534
N10325 X458.005 Y203.776 Z-2.4
N10330 G0 Z15.
N10335 X807.218 Y248.77
N10340 Z5.
N10345 G1 Z3.1 F300.
N10350 X807.226 Y248.752 Z2.948 F150.
N10355 X807.252 Y248.701 Z2.806
N10360 X807.295 Y248.62 Z2.683
N10365 X807.355 Y248.517 Z2.587
N10370 X807.431 Y248.399 Z2.525
N10375 X807.519 Y248.276 Z2.5
N10380 G3 X812.058 Y251.724 Z2.187 I2.27 J1.724
N10385 X807.519 Y248.276 Z1.875 I-2.27 J-1.724
N10390 X812.058 Y251.724 Z1.562 I2.27 J1.724
N10395 X807.519 Y248.276 Z1.249 I-2.27 J-1.724
N10400 X812.058 Y251.724 Z0.937 I2.27 J1.724
N10405 X807.519 Y248.276 Z0.624 I-2.27 J-1.724
N10410 X812.058 Y251.724 Z0.311 I2.27 J1.724
N10415 X807.519 Y248.276 Z-0.001 I-2.27 J-1.724
N10420 X812.058 Y251.724 Z-0.314 I2.27 J1.724
N10425 X807.519 Y248.276 Z-0.627 I-2.27 J-1.724
N10430 X812.058 Y251.724 Z-0.939 I2.27 J1.724
N10435 X807.519 Y248.276 Z-1.252 I-2.27 J-1.724
N10440 X812.639 Y250. Z-1.5 I2.27 J1.724
N10445 G1 Y250.067 F1200.
N10450 G3 X812.334 Y250.372 I-0.303 J0.001
N10455 G1 X812.2
N10460 G3 X811.895 Y250.067 I-0.001 J-0.303
N10465 G1 Y249.933
N10470 G3 X812.2 Y249.628 I0.303 J-0.001
N10475 G1 X812.334
N10480 G3 X812.639 Y249.933 I0.001 J0.303
N10485 G1 Y250.
N10490 G2 X815.597 Y253.826 I3.953 J0.
N10495 G3 X819.761 Y256.287 I-2.205 J8.482
N10500 G2 X819.939 Y256.47 I6.648 J-6.287
N10505 G1 X918.934 Y355.465
N10510 G3 Y356.667 I-0.601 J0.601
N10515 X917.732 I-0.601 J-0.601
N10520 G1 X818.737 Y257.672
N10525 G2 X805.797 I-6.47 J6.47
N10530 G1 X706.802 Y356.667
N10535 G3 X705.6 I-0.601 J-0.601
N10540 Y355.465 I0.601 J-0.601
N10545 G1 X804.595 Y256.47
N10550 G2 Y243.53 I-6.47 J-6.47
N10555 G1 X705.6 Y144.535
N10560 G3 Y143.333 I0.601 J-0.601
N10565 X706.802 I0.601 J0.601
N10570 G1 X805.797 Y242.328
N10575 G2 X818.737 I6.47 J-6.47
N10580 G1 X917.732 Y143.333
N10585 G3 X918.934 Y144.535 I0.601 J0.601
N10590 G1 X819.939 Y243.53
N10595 G2 X819.761 Y256.287 I6.47 J6.47
N10600 X824.802 Y257.378 I3.318 J-3.137
N10605 G3 X829.858 Y258.398 I1.76 J4.317
N10610 G1 X922.929 Y351.47
N10615 G3 X913.737 Y360.662 I-4.596 J4.596
N10620 G1 X814.742 Y261.667
N10625 G2 X809.792 I-2.475 J2.475
N10630 G1 X710.797 Y360.662
N10635 G3 X701.605 Y351.47 I-4.596 J-4.596
N10640 G1 X800.6 Y252.475
N10645 G2 Y247.525 I-2.475 J-2.475
N10650 G1 X701.605 Y148.53
N10655 G3 X710.797 Y139.338 I4.596 J-4.596
N10660 G1 X809.792 Y238.333
N10665 G2 X814.742 I2.475 J-2.475
N10670 G1 X913.737 Y139.338
N10675 G3 X922.929 Y148.53 I4.596 J4.596
N10680 G1 X823.934 Y247.525
N10685 G2 Y252.475 I2.475 J2.475
N10690 G1 X829.858 Y258.398
N10695 G3 X829.52 Y258.883 I-0.212 J0.212
N10700 G1 X807.612 Y248.757
N10705 G3 X807.496 Y248.307 I0.126 J-0.272
N10710 X812.081 Y251.693 Z-1.813 I2.292 J1.693 F150.
N10715 X807.496 Y248.307 Z-2.125 I-2.292 J-1.693
N10720 X812.081 Y251.693 Z-2.438 I2.292 J1.693
N10725 X807.496 Y248.307 Z-2.751 I-2.292 J-1.693
N10730 X812.639 Y250. Z-3. I2.292 J1.693
N10735 G1 Y250.067 F1200.
N10740 G3 X812.334 Y250.372 I-0.303 J0.001
N10745 G1 X812.2
N10750 G3 X811.895 Y250.067 I-0.001 J-0.303
N10755 G1 Y249.933
N10760 G3 X812.2 Y249.628 I0.303 J-0.001
N10765 G1 X812.334
N10770 G3 X812.639 Y249.933 I0.001 J0.303
N10775 G1 Y250.
N10780 G2 X815.597 Y253.826 I3.953 J0.
N10785 G3 X819.761 Y256.287 I-2.205 J8.482
N10790 G2 X819.939 Y256.47 I6.648 J-6.287
N10795 G1 X918.934 Y355.465
N10800 G3 Y356.667 I-0.601 J0.601
N10805 X917.732 I-0.601 J-0.601
N10810 G1 X818.737 Y257.672
N10815 G2 X805.797 I-6.47 J6.47
N10820 G1 X706.802 Y356.667
N10825 G3 X705.6 I-0.601 J-0.601
N10830 Y355.465 I0.601 J-0.601
N10835 G1 X804.595 Y256.47
N10840 G2 Y243.53 I-6.47 J-6.47
N10845 G1 X705.6 Y144.535
N10850 G3 Y143.333 I0.601 J-0.601
N10855 X706.802 I0.601 J0.601
N10860 G1 X805.797 Y242.328
N10865 G2 X818.737 I6.47 J-6.47
N10870 G1 X917.732 Y143.333
N10875 G3 X918.934 Y144.535 I0.601 J0.601
N10880 G1 X819.939 Y243.53
N10885 G2 X819.761 Y256.287 I6.47 J6.47
N10890 X824.802 Y257.378 I3.318 J-3.137
N10895 G3 X829.858 Y258.398 I1.76 J4.317
N10900 G1 X922.929 Y351.47
N10905 G3 X913.737 Y360.662 I-4.596 J4.596
N10910 G1 X814.742 Y261.667
N10915 G2 X809.792 I-2.475 J2.475
N10920 G1 X710.797 Y360.662
N10925 G3 X701.605 Y351.47 I-4.596 J-4.596
N10930 G1 X800.6 Y252.475
N10935 G2 Y247.525 I-2.475 J-2.475
N10940 G1 X701.605 Y148.53
N10945 G3 X710.797 Y139.338 I4.596 J-4.596
N10950 G1 X809.792 Y238.333
N10955 G2 X814.742 I2.475 J-2.475
N10960 G1 X913.737 Y139.338
N10965 G3 X922.929 Y148.53 I4.596 J4.596
N10970 G1 X823.934 Y247.525
N10975 G2 Y252.475 I2.475 J2.475
N10980 G1 X829.858 Y258.398
N10985 X829.902 Y258.448 Z-2.992 F300.
N10990 X829.941 Y258.502 Z-2.985
N10995 X829.972 Y258.558 Z-2.963
N11000 X829.997 Y258.616 Z-2.941
N11005 X830.014 Y258.67 Z-2.905
N11010 X830.026 Y258.726 Z-2.869
N11015 X830.033 Y258.82 Z-2.774
N11020 X830.029 Y258.892 Z-2.66
N11025 X830.023 Y258.936 Z-2.534
N11030 X830.02 Y258.95 Z-2.4
N11035 G0 Z15.
N11040 G53 Z0.
N11045 M30
%
