%
(RAMP)
(T1  D=6. CR=0. - ZMIN=-25. - FLAT END MILL)
N10 G90 G94 G17 G91.1
N15 G21
N20 G53 G0 Z0.
(RAMP1)
N25 M9
N30 T1 M6
N35 S22000 M3
N40 G54
N45 M8
N50 G0 X45.831 Y137.757
N55 G43 Z15. H1
N60 G0 Z2.
N65 G1 Z0. F500.
N70 G3 X46.815 Y138.268 I0.386 J0.459
N75 G1 X46.805 Y138.379 F1000.
N80 X46.789 Y138.574
N85 X46.763 Y139.161 Z-0.001
N90 X46.755 Y139.356
N95 Y140.139 Z-0.002
N100 X46.763 Y140.334 Z-0.003
N105 X46.789 Y140.921
N110 X46.805 Y141.116 Z-0.004
N115 X46.856 Y141.703 Z-0.005
N120 X46.881 Y141.898
N125 X46.957 Y142.485 Z-0.006
N130 X46.991 Y142.68
N135 X47.093 Y143.267 Z-0.007
N140 X47.135 Y143.463
N145 X47.265 Y144.049 Z-0.008
N150 X47.316 Y144.245
N155 X47.42 Y144.636
N160 X47.473 Y144.831 Z-0.009
N165 X47.656 Y145.418
N170 X47.719 Y145.613 Z-0.01
N175 X47.931 Y146.2 Z-0.011
N180 X47.988 Y146.354
N185 X48.246 Y146.982 Z-0.012
N190 X48.333 Y147.178
N195 X48.605 Y147.764 Z-0.013
N200 X48.705 Y147.96
N205 X48.966 Y148.464 Z-0.014
N210 X49.012 Y148.546
N215 X49.357 Y149.148 Z-0.015
N220 X49.47 Y149.328
N225 X49.748 Y149.768 Z-0.016
N230 X49.846 Y149.915
N235 X50.139 Y150.337 Z-0.017
N240 X50.255 Y150.501
N245 X50.701 Y151.088 Z-0.018
N250 X50.726 Y151.12
N255 X51.187 Y151.675 Z-0.019
N260 X51.312 Y151.816
N265 X51.716 Y152.261 Z-0.02
N270 X51.899 Y152.45
N275 X52.293 Y152.848 Z-0.021
N280 X52.486 Y153.028
N285 X52.877 Y153.39 Z-0.022
N290 X52.928 Y153.434
N295 X53.463 Y153.889 Z-0.023
N300 X53.63 Y154.021
N305 X54.05 Y154.347 Z-0.024
N310 X54.135 Y154.412
N315 X54.686 Y154.803 Z-0.025
N320 X54.832 Y154.902
N325 X55.419 Y155.282 Z-0.026
N330 X55.602 Y155.39 Z-0.027
N335 X56.005 Y155.626
N340 X56.201 Y155.736
N345 X56.787 Y156.047 Z-0.028
N350 X56.983 Y156.14 Z-0.029
N355 X57.46 Y156.367
N360 X57.57 Y156.417
N365 X58.156 Y156.665 Z-0.03
N370 X58.352 Y156.743 Z-0.031
N375 X58.938 Y156.962
N380 X59.134 Y157.028 Z-0.032
N385 X59.72 Y157.219
N390 X59.916 Y157.274 Z-0.033
N395 X60.307 Y157.382
N400 X60.503 Y157.436
N405 X61.089 Y157.572 Z-0.034
N410 X61.285 Y157.617 Z-0.035
N415 X61.925 Y157.736
N420 X62.067 Y157.762 Z-0.036
N425 X62.654 Y157.845
N430 X62.849 Y157.872 Z-0.037
N435 X63.461 Y157.932
N440 X63.631 Y157.948 Z-0.038
N445 X64.218 Y157.979
N450 X64.413 Y157.99 Z-0.039
N455 X65.196 Y157.998 Z-0.04
N460 X65.391 Y157.992
N465 X65.978 Y157.973 Z-0.041
N470 X66.173 Y157.958
N475 X66.76 Y157.914 Z-0.042
N480 X66.955 Y157.891
N485 X67.542 Y157.821 Z-0.043
N490 X67.738 Y157.79
N495 X68.324 Y157.694 Z-0.044
N500 X68.52 Y157.654
N505 X69.106 Y157.531 Z-0.045
N510 X69.302 Y157.482
N515 X69.84 Y157.345 Z-0.046
N520 X69.888 Y157.332
N525 X70.496 Y157.149 Z-0.047
N530 X70.671 Y157.095
N535 X71.257 Y156.89 Z-0.048
N540 X71.453 Y156.819
N545 X72.095 Y156.563 Z-0.049
N550 X72.235 Y156.501
N555 X72.821 Y156.238 Z-0.05
N560 X72.955 Y156.172
N565 X73.408 Y155.944 Z-0.051
N570 X73.604 Y155.842
N575 X74.19 Y155.515 Z-0.052
N580 X74.386 Y155.397
N585 X74.777 Y155.156 Z-0.053
N590 X74.972 Y155.032
N595 X75.559 Y154.634 Z-0.054
N600 X75.595 Y154.608
N605 X76.146 Y154.199 Z-0.055
N610 X76.341 Y154.044
N615 X76.732 Y153.726 Z-0.056
N620 X76.847 Y153.63
N625 X77.319 Y153.211 Z-0.057
N630 X77.5 Y153.043
N635 X77.905 Y152.65 Z-0.058
N640 X78.095 Y152.457 Z-0.059
N645 X78.492 Y152.037
N650 X78.639 Y151.87 Z-0.06
N655 X78.979 Y151.479
N660 X79.079 Y151.359
N665 X79.47 Y150.867 Z-0.061
N670 X79.599 Y150.697 Z-0.062
N675 X79.883 Y150.306
N680 X80.022 Y150.11 Z-0.063
N685 X80.41 Y149.524
N690 X80.447 Y149.465 Z-0.064
N695 X80.765 Y148.937
N700 X80.839 Y148.815 Z-0.065
N705 X81.198 Y148.155 Z-0.066
N710 X81.23 Y148.093
N715 X81.486 Y147.569
N720 X81.58 Y147.373 Z-0.067
N725 X81.836 Y146.786
N730 X81.916 Y146.591 Z-0.068
N735 X82.143 Y146.004 Z-0.069
N740 X82.207 Y145.821
N745 X82.409 Y145.222 Z-0.07
N750 X82.467 Y145.027
N755 X82.598 Y144.571 Z-0.071
N760 X82.636 Y144.44
N765 X82.794 Y143.791 Z-0.072
N770 X82.826 Y143.658
N775 X82.941 Y143.071 Z-0.073
N780 X82.979 Y142.876
N785 X83.069 Y142.289 Z-0.074
N790 X83.098 Y142.094
N795 X83.161 Y141.507 Z-0.075
N800 X83.182 Y141.312
N805 X83.22 Y140.725 Z-0.076
N810 X83.232 Y140.53
N815 X83.245 Y139.943 Z-0.077
N820 X83.249 Y139.747
N825 X83.232 Y138.965 Z-0.078
N830 X83.22 Y138.77
N835 X83.182 Y138.183 Z-0.079
N840 X83.161 Y137.988
N845 X83.097 Y137.401 Z-0.08
N850 X83.068 Y137.206
N855 X82.978 Y136.619 Z-0.081
N860 X82.94 Y136.424
N865 X82.825 Y135.837 Z-0.082
N870 X82.794 Y135.709
N875 X82.683 Y135.25 Z-0.083
N880 X82.635 Y135.055
N885 X82.465 Y134.468 Z-0.084
N890 X82.407 Y134.273
N895 X82.207 Y133.679 Z-0.085
N900 X82.141 Y133.491
N905 X81.915 Y132.904 Z-0.086
N910 X81.834 Y132.709
N915 X81.578 Y132.122 Z-0.087
N920 X81.484 Y131.926 Z-0.088
N925 X81.23 Y131.407
N930 X81.195 Y131.34
N935 X80.839 Y130.685 Z-0.089
N940 X80.762 Y130.558 Z-0.09
N945 X80.447 Y130.035
N950 X80.407 Y129.971
N955 X80.019 Y129.385 Z-0.091
N960 X79.879 Y129.189 Z-0.092
N965 X79.595 Y128.798
N970 X79.47 Y128.633 Z-0.093
N975 X79.079 Y128.141
N980 X78.974 Y128.016 Z-0.094
N985 X78.635 Y127.625
N990 X78.492 Y127.463 Z-0.095
N995 X78.09 Y127.038
N1000 X77.905 Y126.85 Z-0.096
N1005 X77.494 Y126.452
N1010 X77.319 Y126.289 Z-0.097
N1015 X76.841 Y125.865 Z-0.098
N1020 X76.732 Y125.774
N1025 X76.341 Y125.456
N1030 X76.146 Y125.301 Z-0.099
N1035 X75.589 Y124.887 Z-0.1
N1040 X75.559 Y124.866
N1045 X74.972 Y124.468 Z-0.101
N1050 X74.777 Y124.344
N1055 X74.386 Y124.103 Z-0.102
N1060 X74.19 Y123.985
N1065 X73.604 Y123.658 Z-0.103
N1070 X73.408 Y123.556
N1075 X72.945 Y123.323 Z-0.104
N1080 X72.821 Y123.262
N1085 X72.235 Y122.999 Z-0.105
N1090 X72.083 Y122.932
N1095 X71.453 Y122.681 Z-0.106
N1100 X71.257 Y122.61
N1105 X70.671 Y122.405 Z-0.107
N1110 X70.479 Y122.346
N1115 X69.888 Y122.168 Z-0.108
N1120 X69.82 Y122.15
N1125 X69.302 Y122.018 Z-0.109
N1130 X69.106 Y121.969
N1135 X68.52 Y121.846 Z-0.11
N1140 X68.324 Y121.806
N1145 X67.738 Y121.71 Z-0.111
N1150 X67.542 Y121.679
N1155 X66.955 Y121.609 Z-0.112
N1160 X66.76 Y121.586
N1165 X66.173 Y121.542 Z-0.113
N1170 X65.978 Y121.527
N1175 X65.391 Y121.508 Z-0.114
N1180 X65.196 Y121.502
N1185 X64.413 Y121.51 Z-0.115
N1190 X64.218 Y121.521
N1195 X63.631 Y121.552 Z-0.116
N1200 X63.512 Y121.563
N1205 X62.849 Y121.628 Z-0.117
N1210 X62.654 Y121.655 Z-0.118
N1215 X62.067 Y121.738
N1220 X61.951 Y121.759
N1225 X61.285 Y121.883 Z-0.119
N1230 X61.089 Y121.928 Z-0.12
N1235 X60.503 Y122.064
N1240 X60.307 Y122.118 Z-0.121
N1245 X59.916 Y122.226
N1250 X59.72 Y122.281
N1255 X59.134 Y122.472 Z-0.122
N1260 X58.938 Y122.538 Z-0.123
N1265 X58.352 Y122.757
N1270 X58.156 Y122.835 Z-0.124
N1275 X57.57 Y123.083
N1280 X57.47 Y123.128 Z-0.125
N1285 X56.983 Y123.36
N1290 X56.787 Y123.453 Z-0.126
N1295 X56.201 Y123.764
N1300 X56.005 Y123.874 Z-0.127
N1305 X55.614 Y124.103
N1310 X55.419 Y124.218 Z-0.128
N1315 X54.832 Y124.598 Z-0.129
N1320 X54.693 Y124.692
N1325 X54.142 Y125.083 Z-0.13
N1330 X54.05 Y125.153
N1335 X53.637 Y125.474
N1340 X53.463 Y125.611 Z-0.131
N1345 X52.934 Y126.061 Z-0.132
N1350 X52.877 Y126.11
N1355 X52.486 Y126.472
N1360 X52.298 Y126.647 Z-0.133
N1365 X51.899 Y127.05 Z-0.134
N1370 X51.72 Y127.234
N1375 X51.312 Y127.684 Z-0.135
N1380 X51.191 Y127.82
N1385 X50.726 Y128.38 Z-0.136
N1390 X50.705 Y128.407
N1395 X50.259 Y128.994 Z-0.137
N1400 X50.139 Y129.163
N1405 X49.85 Y129.58 Z-0.138
N1410 X49.748 Y129.732
N1415 X49.473 Y130.167 Z-0.139
N1420 X49.357 Y130.352
N1425 X49.015 Y130.949 Z-0.14
N1430 X48.966 Y131.036
N1435 X48.708 Y131.535 Z-0.141
N1440 X48.607 Y131.731
N1445 X48.336 Y132.317 Z-0.142
N1450 X48.249 Y132.513
N1455 X47.988 Y133.146 Z-0.143
N1460 X47.933 Y133.295
N1465 X47.721 Y133.882 Z-0.144
N1470 X47.658 Y134.077
N1475 X47.474 Y134.664 Z-0.145
N1480 X47.421 Y134.859
N1485 X47.317 Y135.25 Z-0.146
N1490 X47.266 Y135.446
N1495 X47.137 Y136.032 Z-0.147
N1500 X47.094 Y136.228
N1505 X46.991 Y136.815 Z-0.148
N1510 X46.958 Y137.01
N1515 X46.881 Y137.597 Z-0.149
N1520 X46.856 Y137.792
N1525 X46.815 Y138.268 Z-0.15
N1530 X46.8 Y138.44
N1535 X46.787 Y138.612
N1540 X46.757 Y139.302 Z-0.151
N1545 X46.755 Y139.647 Z-0.152
N1550 Y139.993
N1555 X46.763 Y140.338 Z-0.153
N1560 X46.778 Y140.683
N1565 X46.797 Y141.028 Z-0.154
N1570 X46.857 Y141.716 Z-0.155
N1575 X46.902 Y142.058
N1580 X46.946 Y142.401
N1585 X47.001 Y142.742 Z-0.156
N1590 X47.061 Y143.082
N1595 X47.126 Y143.421 Z-0.157
N1600 X47.2 Y143.758
N1605 X47.276 Y144.095 Z-0.158
N1610 X47.454 Y144.762 Z-0.159
N1615 X47.554 Y145.093
N1620 X47.658 Y145.422
N1625 X47.768 Y145.749 Z-0.16
N1630 X47.886 Y146.074
N1635 X48.006 Y146.398 Z-0.161
N1640 X48.269 Y147.036 Z-0.162
N1645 X48.413 Y147.35
N1650 X48.558 Y147.664 Z-0.163
N1655 X48.712 Y147.973
N1660 X48.871 Y148.28 Z-0.164
N1665 X49.034 Y148.584
N1670 X49.205 Y148.883
N1675 X49.378 Y149.182 Z-0.165
N1680 X49.747 Y149.766 Z-0.166
N1685 X49.941 Y150.052
N1690 X50.138 Y150.336 Z-0.167
N1695 X50.341 Y150.615
N1700 X50.55 Y150.89 Z-0.168
N1705 X50.762 Y151.163
N1710 X51.203 Y151.694 Z-0.169
N1715 X51.434 Y151.951
N1720 X51.666 Y152.206 Z-0.17
N1725 X51.905 Y152.456
N1730 X52.148 Y152.701 Z-0.171
N1735 X52.394 Y152.943
N1740 X52.648 Y153.178 Z-0.172
N1745 X52.901 Y153.412
N1750 X53.428 Y153.859 Z-0.173
N1755 X53.698 Y154.074
N1760 X53.971 Y154.286 Z-0.174
N1765 X54.248 Y154.492
N1770 X54.529 Y154.692 Z-0.175
N1775 X54.813 Y154.89
N1780 X55.392 Y155.265 Z-0.176
N1785 X55.689 Y155.441 Z-0.177
N1790 X55.987 Y155.616
N1795 X56.29 Y155.783 Z-0.178
N1800 X56.595 Y155.944
N1805 X56.902 Y156.102
N1810 X57.214 Y156.25 Z-0.179
N1815 X57.526 Y156.398
N1820 X58.162 Y156.668 Z-0.18
N1825 X58.484 Y156.792 Z-0.181
N1830 X58.807 Y156.913
N1835 X59.133 Y157.028 Z-0.182
N1840 X59.462 Y157.134
N1845 X59.791 Y157.239 Z-0.183
N1850 X60.456 Y157.424
N1855 X60.792 Y157.503 Z-0.184
N1860 X61.129 Y157.581
N1865 X61.467 Y157.651 Z-0.185
N1870 X61.806 Y157.714
N1875 X62.146 Y157.773 Z-0.186
N1880 X62.83 Y157.87 Z-0.187
N1885 X63.518 Y157.937 Z-0.188
N1890 X63.862 Y157.96
N1895 X64.207 Y157.979
N1900 X64.552 Y157.991 Z-0.189
N1905 X64.897 Y157.995
N1910 X65.243 Y157.997 Z-0.19
N1915 X65.933 Y157.974 Z-0.191
N1920 X66.277 Y157.951
N1925 X66.622 Y157.924 Z-0.192
N1930 X66.965 Y157.89
N1935 X67.308 Y157.849
N1940 X67.651 Y157.804 Z-0.193
N1945 X68.332 Y157.692 Z-0.194
N1950 X68.67 Y157.622
N1955 X69.008 Y157.552 Z-0.195
N1960 X69.344 Y157.471
N1965 X69.679 Y157.386 Z-0.196
N1970 X70.012 Y157.295
N1975 X70.343 Y157.195 Z-0.197
N1980 X70.673 Y157.094
N1985 X71.325 Y156.867 Z-0.198
N1990 X71.647 Y156.742
N1995 X71.968 Y156.614 Z-0.199
N2000 X72.285 Y156.479
N2005 X72.6 Y156.337 Z-0.2
N2010 X72.914 Y156.192
N2015 X73.531 Y155.882 Z-0.201
N2020 X73.833 Y155.715 Z-0.202
N2025 X74.134 Y155.546
N2030 X74.431 Y155.369
N2035 X74.725 Y155.188 Z-0.203
N2040 X75.016 Y155.002
N2045 X75.302 Y154.809 Z-0.204
N2050 X75.587 Y154.614
N2055 X76.141 Y154.202 Z-0.205
N2060 X76.411 Y153.987 Z-0.206
N2065 X76.679 Y153.769
N2070 X76.942 Y153.545
N2075 X77.201 Y153.316 Z-0.207
N2080 X77.457 Y153.085
N2085 X77.953 Y152.604 Z-0.208
N2090 X78.192 Y152.354 Z-0.209
N2095 X78.429 Y152.104
N2100 X78.66 Y151.846 Z-0.21
N2105 X78.886 Y151.586
N2110 X79.109 Y151.322 Z-0.211
N2115 X79.324 Y151.051
N2120 X79.538 Y150.781
N2125 X79.944 Y150.222 Z-0.212
N2130 X80.138 Y149.936 Z-0.213
N2135 X80.328 Y149.648
N2140 X80.513 Y149.356 Z-0.214
N2145 X80.691 Y149.06
N2150 X80.867 Y148.763 Z-0.215
N2155 X81.197 Y148.157 Z-0.216
N2160 X81.35 Y147.847
N2165 X81.502 Y147.537
N2170 X81.645 Y147.223 Z-0.217
N2175 X81.784 Y146.906
N2180 X81.918 Y146.588 Z-0.218
N2185 X82.042 Y146.266
N2190 X82.166 Y145.944 Z-0.219
N2195 X82.387 Y145.289 Z-0.22
N2200 X82.486 Y144.959
N2205 X82.582 Y144.627
N2210 X82.672 Y144.293 Z-0.221
N2215 X82.753 Y143.958
N2220 X82.833 Y143.622 Z-0.222
N2225 X82.967 Y142.944 Z-0.223
N2230 X83.021 Y142.603
N2235 X83.073 Y142.262 Z-0.224
N2240 X83.117 Y141.919
N2245 X83.154 Y141.576 Z-0.225
N2250 X83.187 Y141.232
N2255 X83.232 Y140.543 Z-0.226
N2260 X83.24 Y140.198
N2265 X83.247 Y139.853 Z-0.227
N2270 X83.244 Y139.507
N2275 X83.237 Y139.162 Z-0.228
N2280 X83.223 Y138.817
N2285 X83.2 Y138.472 Z-0.229
N2290 X83.176 Y138.128
N2295 X83.102 Y137.441 Z-0.23
N2300 X83.052 Y137.1
N2305 X83. Y136.758 Z-0.231
N2310 X82.939 Y136.418
N2315 X82.873 Y136.079 Z-0.232
N2320 X82.802 Y135.742
N2325 X82.639 Y135.07 Z-0.233
N2330 X82.543 Y134.738 Z-0.234
N2335 X82.447 Y134.407
N2340 X82.342 Y134.078
N2345 X82.231 Y133.751 Z-0.235
N2350 X82.116 Y133.425
N2355 X81.991 Y133.103 Z-0.236
N2360 X81.866 Y132.782
N2365 X81.589 Y132.149 Z-0.237
N2370 X81.44 Y131.837 Z-0.238
N2375 X81.288 Y131.527
N2380 X81.13 Y131.22 Z-0.239
N2385 X80.965 Y130.917
N2390 X80.797 Y130.615
N2395 X80.441 Y130.023 Z-0.24
N2400 X80.251 Y129.735 Z-0.241
N2405 X80.06 Y129.447
N2410 X79.861 Y129.165 Z-0.242
N2415 X79.658 Y128.885
N2420 X79.451 Y128.609 Z-0.243
N2425 X79.236 Y128.339
N2430 X79.021 Y128.069 Z-0.244
N2435 X78.568 Y127.548
N2440 X78.333 Y127.295 Z-0.245
N2445 X78.095 Y127.044
N2450 X77.852 Y126.798 Z-0.246
N2455 X77.604 Y126.558
N2460 X77.354 Y126.32 Z-0.247
N2465 X76.838 Y125.862 Z-0.248
N2470 X76.57 Y125.643
N2475 X76.302 Y125.425
N2480 X76.029 Y125.215 Z-0.249
N2485 X75.752 Y125.009
N2490 X75.472 Y124.807 Z-0.25
N2495 X75.186 Y124.613
N2500 X74.899 Y124.419 Z-0.251
N2505 X74.312 Y124.057 Z-0.252
N2510 X74.012 Y123.885
N2515 X73.71 Y123.717 Z-0.253
N2520 X73.406 Y123.555
N2525 X73.097 Y123.4
N2530 X72.787 Y123.247 Z-0.254
N2535 X72.157 Y122.964 Z-0.255
N2540 X71.837 Y122.834
N2545 X71.516 Y122.706 Z-0.256
N2550 X71.192 Y122.587
N2555 X70.866 Y122.473 Z-0.257
N2560 X70.539 Y122.364
N2565 X70.208 Y122.264 Z-0.258
N2570 X69.878 Y122.165
N2575 X69.208 Y121.994 Z-0.259
N2580 X68.871 Y121.92
N2585 X68.533 Y121.849 Z-0.26
N2590 X68.194 Y121.785
N2595 X67.853 Y121.729 Z-0.261
N2600 X67.512 Y121.675
N2605 X66.826 Y121.593 Z-0.262
N2610 X66.482 Y121.565
N2615 X66.138 Y121.539 Z-0.263
N2620 X65.793 Y121.521
N2625 X65.448 Y121.51 Z-0.264
N2630 X65.102 Y121.503
N2635 X64.412 Y121.51 Z-0.265
N2640 X64.067 Y121.529 Z-0.266
N2645 X63.722 Y121.547
N2650 X63.378 Y121.577 Z-0.267
N2655 X63.034 Y121.61
N2660 X62.691 Y121.65
N2665 X62.35 Y121.698 Z-0.268
N2670 X62.008 Y121.749
N2675 X61.329 Y121.875 Z-0.269
N2680 X60.992 Y121.95 Z-0.27
N2685 X60.655 Y122.028
N2690 X60.321 Y122.114 Z-0.271
N2695 X59.988 Y122.206
N2700 X59.657 Y122.302 Z-0.272
N2705 X59. Y122.516
N2710 X58.676 Y122.636 Z-0.273
N2715 X58.352 Y122.757
N2720 X58.033 Y122.887 Z-0.274
N2725 X57.715 Y123.022
N2730 X57.399 Y123.162 Z-0.275
N2735 X57.087 Y123.31
N2740 X56.776 Y123.46 Z-0.276
N2745 X56.166 Y123.783 Z-0.277
N2750 X55.866 Y123.955
N2755 X55.569 Y124.13
N2760 X55.275 Y124.311 Z-0.278
N2765 X54.985 Y124.499
N2770 X54.697 Y124.689 Z-0.279
N2775 X54.134 Y125.089 Z-0.28
N2780 X53.86 Y125.3
N2785 X53.588 Y125.512 Z-0.281
N2790 X53.321 Y125.732
N2795 X53.058 Y125.955
N2800 X52.798 Y126.183 Z-0.282
N2805 X52.545 Y126.418
N2810 X52.292 Y126.653 Z-0.283
N2815 X51.806 Y127.144 Z-0.284
N2820 X51.572 Y127.398
N2825 X51.34 Y127.653 Z-0.285
N2830 X51.113 Y127.914
N2835 X50.893 Y128.179 Z-0.286
N2840 X50.674 Y128.447
N2845 X50.256 Y128.997 Z-0.287
N2850 X50.058 Y129.28
N2855 X49.861 Y129.563 Z-0.288
N2860 X49.672 Y129.852
N2865 X49.488 Y130.144 Z-0.289
N2870 X49.307 Y130.439
N2875 X49.136 Y130.738 Z-0.29
N2880 X48.965 Y131.038
N2885 X48.648 Y131.652 Z-0.291
N2890 X48.499 Y131.964
N2895 X48.354 Y132.277 Z-0.292
N2900 X48.216 Y132.593
N2905 X48.084 Y132.913 Z-0.293
N2910 X47.955 Y133.233
N2915 X47.721 Y133.883 Z-0.294
N2920 X47.616 Y134.212 Z-0.295
N2925 X47.513 Y134.541
N2930 X47.418 Y134.873
N2935 X47.329 Y135.207 Z-0.296
N2940 X47.245 Y135.542
N2945 X47.17 Y135.879 Z-0.297
N2950 X47.096 Y136.216
N2955 X46.977 Y136.897 Z-0.298
N2960 X46.928 Y137.238 Z-0.299
N2965 X46.883 Y137.581
N2970 X46.845 Y137.924 Z-0.3
N2975 X46.8 Y138.44
N2980 X46.787 Y138.612
N2985 X46.757 Y139.302 Z-0.301
N2990 X46.755 Y139.647 Z-0.302
N2995 Y139.993
N3000 X46.763 Y140.338 Z-0.303
N3005 X46.778 Y140.683
N3010 X46.797 Y141.028 Z-0.304
N3015 X46.857 Y141.716 Z-0.305
N3020 X46.902 Y142.058
N3025 X46.946 Y142.401
N3030 X47.001 Y142.742 Z-0.306
N3035 X47.061 Y143.082
N3040 X47.126 Y143.421 Z-0.307
N3045 X47.2 Y143.758
N3050 X47.276 Y144.095 Z-0.308
N3055 X47.454 Y144.762 Z-0.309
N3060 X47.554 Y145.093
N3065 X47.658 Y145.422
N3070 X47.768 Y145.749 Z-0.31
N3075 X47.886 Y146.074
N3080 X48.006 Y146.398 Z-0.311
N3085 X48.269 Y147.036 Z-0.312
N3090 X48.413 Y147.35
N3095 X48.558 Y147.664 Z-0.313
N3100 X48.712 Y147.973
N3105 X48.871 Y148.28 Z-0.314
N3110 X49.034 Y148.584
N3115 X49.205 Y148.883
N3120 X49.378 Y149.182 Z-0.315
N3125 X49.747 Y149.766 Z-0.316
N3130 X49.941 Y150.052
N3135 X50.138 Y150.336 Z-0.317
N3140 X50.341 Y150.615
N3145 X50.55 Y150.89 Z-0.318
N3150 X50.762 Y151.163
N3155 X51.203 Y151.694 Z-0.319
N3160 X51.434 Y151.951
N3165 X51.666 Y152.206 Z-0.32
N3170 X51.905 Y152.456
N3175 X52.148 Y152.701 Z-0.321
N3180 X52.394 Y152.943
N3185 X52.648 Y153.178 Z-0.322
N3190 X52.901 Y153.412
N3195 X53.428 Y153.859 Z-0.323
N3200 X53.698 Y154.074
N3205 X53.971 Y154.286 Z-0.324
N3210 X54.248 Y154.492
N3215 X54.529 Y154.692 Z-0.325
N3220 X54.813 Y154.89
N3225 X55.392 Y155.265 Z-0.326
N3230 X55.689 Y155.441 Z-0.327
N3235 X55.987 Y155.616
N3240 X56.29 Y155.783 Z-0.328
N3245 X56.595 Y155.944
N3250 X56.902 Y156.102
N3255 X57.214 Y156.25 Z-0.329
N3260 X57.526 Y156.398
N3265 X58.162 Y156.668 Z-0.33
N3270 X58.484 Y156.792 Z-0.331
N3275 X58.807 Y156.913
N3280 X59.133 Y157.028 Z-0.332
N3285 X59.462 Y157.134
N3290 X59.791 Y157.239 Z-0.333
N3295 X60.456 Y157.424
N3300 X60.792 Y157.503 Z-0.334
N3305 X61.129 Y157.581
N3310 X61.467 Y157.651 Z-0.335
N3315 X61.806 Y157.714
N3320 X62.146 Y157.773 Z-0.336
N3325 X62.83 Y157.87 Z-0.337
N3330 X63.518 Y157.937 Z-0.338
N3335 X63.862 Y157.96
N3340 X64.207 Y157.979
N3345 X64.552 Y157.991 Z-0.339
N3350 X64.897 Y157.995
N3355 X65.243 Y157.997 Z-0.34
N3360 X65.933 Y157.974 Z-0.341
N3365 X66.277 Y157.951
N3370 X66.622 Y157.924 Z-0.342
N3375 X66.965 Y157.89
N3380 X67.308 Y157.849
N3385 X67.651 Y157.804 Z-0.343
N3390 X68.332 Y157.692 Z-0.344
N3395 X68.67 Y157.622
N3400 X69.008 Y157.552 Z-0.345
N3405 X69.344 Y157.471
N3410 X69.679 Y157.386 Z-0.346
N3415 X70.012 Y157.295
N3420 X70.343 Y157.195 Z-0.347
N3425 X70.673 Y157.094
N3430 X71.325 Y156.867 Z-0.348
N3435 X71.647 Y156.742
N3440 X71.968 Y156.614 Z-0.349
N3445 X72.285 Y156.479
N3450 X72.6 Y156.337 Z-0.35
N3455 X72.914 Y156.192
N3460 X73.531 Y155.882 Z-0.351
N3465 X73.833 Y155.715 Z-0.352
N3470 X74.134 Y155.546
N3475 X74.431 Y155.369
N3480 X74.725 Y155.188 Z-0.353
N3485 X75.016 Y155.002
N3490 X75.302 Y154.809 Z-0.354
N3495 X75.587 Y154.614
N3500 X76.141 Y154.202 Z-0.355
N3505 X76.411 Y153.987 Z-0.356
N3510 X76.679 Y153.769
N3515 X76.942 Y153.545
N3520 X77.201 Y153.316 Z-0.357
N3525 X77.457 Y153.085
N3530 X77.953 Y152.604 Z-0.358
N3535 X78.192 Y152.354 Z-0.359
N3540 X78.429 Y152.104
N3545 X78.66 Y151.846 Z-0.36
N3550 X78.886 Y151.586
N3555 X79.109 Y151.322 Z-0.361
N3560 X79.324 Y151.051
N3565 X79.538 Y150.781
N3570 X79.944 Y150.222 Z-0.362
N3575 X80.138 Y149.936 Z-0.363
N3580 X80.328 Y149.648
N3585 X80.513 Y149.356 Z-0.364
N3590 X80.691 Y149.06
N3595 X80.867 Y148.763 Z-0.365
N3600 X81.197 Y148.157 Z-0.366
N3605 X81.35 Y147.847
N3610 X81.502 Y147.537
N3615 X81.645 Y147.223 Z-0.367
N3620 X81.784 Y146.906
N3625 X81.918 Y146.588 Z-0.368
N3630 X82.042 Y146.266
N3635 X82.166 Y145.944 Z-0.369
N3640 X82.387 Y145.289 Z-0.37
N3645 X82.486 Y144.959
N3650 X82.582 Y144.627
N3655 X82.672 Y144.293 Z-0.371
N3660 X82.753 Y143.958
N3665 X82.833 Y143.622 Z-0.372
N3670 X82.967 Y142.944 Z-0.373
N3675 X83.021 Y142.603
N3680 X83.073 Y142.262 Z-0.374
N3685 X83.117 Y141.919
N3690 X83.154 Y141.576 Z-0.375
N3695 X83.187 Y141.232
N3700 X83.232 Y140.543 Z-0.376
N3705 X83.24 Y140.198
N3710 X83.247 Y139.853 Z-0.377
N3715 X83.244 Y139.507
N3720 X83.237 Y139.162 Z-0.378
N3725 X83.223 Y138.817
N3730 X83.2 Y138.472 Z-0.379
N3735 X83.176 Y138.128
N3740 X83.102 Y137.441 Z-0.38
N3745 X83.052 Y137.1
N3750 X83. Y136.758 Z-0.381
N3755 X82.939 Y136.418
N3760 X82.873 Y136.079 Z-0.382
N3765 X82.802 Y135.742
N3770 X82.639 Y135.07 Z-0.383
N3775 X82.543 Y134.738 Z-0.384
N3780 X82.447 Y134.407
N3785 X82.342 Y134.078
N3790 X82.231 Y133.751 Z-0.385
N3795 X82.116 Y133.425
N3800 X81.991 Y133.103 Z-0.386
N3805 X81.866 Y132.782
N3810 X81.589 Y132.149 Z-0.387
N3815 X81.44 Y131.837 Z-0.388
N3820 X81.288 Y131.527
N3825 X81.13 Y131.22 Z-0.389
N3830 X80.965 Y130.917
N3835 X80.797 Y130.615
N3840 X80.441 Y130.023 Z-0.39
N3845 X80.251 Y129.735 Z-0.391
N3850 X80.06 Y129.447
N3855 X79.861 Y129.165 Z-0.392
N3860 X79.658 Y128.885
N3865 X79.451 Y128.609 Z-0.393
N3870 X79.236 Y128.339
N3875 X79.021 Y128.069 Z-0.394
N3880 X78.568 Y127.548
N3885 X78.333 Y127.295 Z-0.395
N3890 X78.095 Y127.044
N3895 X77.852 Y126.798 Z-0.396
N3900 X77.604 Y126.558
N3905 X77.354 Y126.32 Z-0.397
N3910 X76.838 Y125.862 Z-0.398
N3915 X76.57 Y125.643
N3920 X76.302 Y125.425
N3925 X76.029 Y125.215 Z-0.399
N3930 X75.752 Y125.009
N3935 X75.472 Y124.807 Z-0.4
N3940 X75.186 Y124.613
N3945 X74.899 Y124.419 Z-0.401
N3950 X74.312 Y124.057 Z-0.402
N3955 X74.012 Y123.885
N3960 X73.71 Y123.717 Z-0.403
N3965 X73.406 Y123.555
N3970 X73.097 Y123.4
N3975 X72.787 Y123.247 Z-0.404
N3980 X72.157 Y122.964 Z-0.405
N3985 X71.837 Y122.834
N3990 X71.516 Y122.706 Z-0.406
N3995 X71.192 Y122.587
N4000 X70.866 Y122.473 Z-0.407
N4005 X70.539 Y122.364
N4010 X70.208 Y122.264 Z-0.408
N4015 X69.878 Y122.165
N4020 X69.208 Y121.994 Z-0.409
N4025 X68.871 Y121.92
N4030 X68.533 Y121.849 Z-0.41
N4035 X68.194 Y121.785
N4040 X67.853 Y121.729 Z-0.411
N4045 X67.512 Y121.675
N4050 X66.826 Y121.593 Z-0.412
N4055 X66.482 Y121.565
N4060 X66.138 Y121.539 Z-0.413
N4065 X65.793 Y121.521
N4070 X65.448 Y121.51 Z-0.414
N4075 X65.102 Y121.503
N4080 X64.412 Y121.51 Z-0.415
N4085 X64.067 Y121.529 Z-0.416
N4090 X63.722 Y121.547
N4095 X63.378 Y121.577 Z-0.417
N4100 X63.034 Y121.61
N4105 X62.691 Y121.65
N4110 X62.35 Y121.698 Z-0.418
N4115 X62.008 Y121.749
N4120 X61.329 Y121.875 Z-0.419
N4125 X60.992 Y121.95 Z-0.42
N4130 X60.655 Y122.028
N4135 X60.321 Y122.114 Z-0.421
N4140 X59.988 Y122.206
N4145 X59.657 Y122.302 Z-0.422
N4150 X59. Y122.516
N4155 X58.676 Y122.636 Z-0.423
N4160 X58.352 Y122.757
N4165 X58.033 Y122.887 Z-0.424
N4170 X57.715 Y123.022
N4175 X57.399 Y123.162 Z-0.425
N4180 X57.087 Y123.31
N4185 X56.776 Y123.46 Z-0.426
N4190 X56.166 Y123.783 Z-0.427
N4195 X55.866 Y123.955
N4200 X55.569 Y124.13
N4205 X55.275 Y124.311 Z-0.428
N4210 X54.985 Y124.499
N4215 X54.697 Y124.689 Z-0.429
N4220 X54.134 Y125.089 Z-0.43
N4225 X53.86 Y125.3
N4230 X53.588 Y125.512 Z-0.431
N4235 X53.321 Y125.732
N4240 X53.058 Y125.955
N4245 X52.798 Y126.183 Z-0.432
N4250 X52.545 Y126.418
N4255 X52.292 Y126.653 Z-0.433
N4260 X51.806 Y127.144 Z-0.434
N4265 X51.572 Y127.398
N4270 X51.34 Y127.653 Z-0.435
N4275 X51.113 Y127.914
N4280 X50.893 Y128.179 Z-0.436
N4285 X50.674 Y128.447
N4290 X50.256 Y128.997 Z-0.437
N4295 X50.058 Y129.28
N4300 X49.861 Y129.563 Z-0.438
N4305 X49.672 Y129.852
N4310 X49.488 Y130.144 Z-0.439
N4315 X49.307 Y130.439
N4320 X49.136 Y130.738 Z-0.44
N4325 X48.965 Y131.038
N4330 X48.648 Y131.652 Z-0.441
N4335 X48.499 Y131.964
N4340 X48.354 Y132.277 Z-0.442
N4345 X48.216 Y132.593
N4350 X48.084 Y132.913 Z-0.443
N4355 X47.955 Y133.233
N4360 X47.721 Y133.883 Z-0.444
N4365 X47.616 Y134.212 Z-0.445
N4370 X47.513 Y134.541
N4375 X47.418 Y134.873
N4380 X47.329 Y135.207 Z-0.446
N4385 X47.245 Y135.542
N4390 X47.17 Y135.879 Z-0.447
N4395 X47.096 Y136.216
N4400 X46.977 Y136.897 Z-0.448
N4405 X46.928 Y137.238 Z-0.449
N4410 X46.883 Y137.581
N4415 X46.845 Y137.924 Z-0.45
N4420 X46.8 Y138.44
N4425 X46.787 Y138.612
N4430 X46.757 Y139.302 Z-0.451
N4435 X46.755 Y139.647 Z-0.452
N4440 Y139.993
N4445 X46.763 Y140.338 Z-0.453
N4450 X46.778 Y140.683
N4455 X46.797 Y141.028 Z-0.454
N4460 X46.857 Y141.716 Z-0.455
N4465 X46.902 Y142.058
N4470 X46.946 Y142.401
N4475 X47.001 Y142.742 Z-0.456
N4480 X47.061 Y143.082
N4485 X47.126 Y143.421 Z-0.457
N4490 X47.2 Y143.758
N4495 X47.276 Y144.095 Z-0.458
N4500 X47.454 Y144.762 Z-0.459
N4505 X47.554 Y145.093
N4510 X47.658 Y145.422
N4515 X47.768 Y145.749 Z-0.46
N4520 X47.886 Y146.074
N4525 X48.006 Y146.398 Z-0.461
N4530 X48.269 Y147.036 Z-0.462
N4535 X48.413 Y147.35
N4540 X48.558 Y147.664 Z-0.463
N4545 X48.712 Y147.973
N4550 X48.871 Y148.28 Z-0.464
N4555 X49.034 Y148.584
N4560 X49.205 Y148.883
N4565 X49.378 Y149.182 Z-0.465
N4570 X49.747 Y149.766 Z-0.466
N4575 X49.941 Y150.052
N4580 X50.138 Y150.336 Z-0.467
N4585 X50.341 Y150.615
N4590 X50.55 Y150.89 Z-0.468
N4595 X50.762 Y151.163
N4600 X51.203 Y151.694 Z-0.469
N4605 X51.434 Y151.951
N4610 X51.666 Y152.206 Z-0.47
N4615 X51.905 Y152.456
N4620 X52.148 Y152.701 Z-0.471
N4625 X52.394 Y152.943
N4630 X52.648 Y153.178 Z-0.472
N4635 X52.901 Y153.412
N4640 X53.428 Y153.859 Z-0.473
N4645 X53.698 Y154.074
N4650 X53.971 Y154.286 Z-0.474
N4655 X54.248 Y154.492
N4660 X54.529 Y154.692 Z-0.475
N4665 X54.813 Y154.89
N4670 X55.392 Y155.265 Z-0.476
N4675 X55.689 Y155.441 Z-0.477
N4680 X55.987 Y155.616
N4685 X56.29 Y155.783 Z-0.478
N4690 X56.595 Y155.944
N4695 X56.902 Y156.102
N4700 X57.214 Y156.25 Z-0.479
N4705 X57.526 Y156.398
N4710 X58.162 Y156.668 Z-0.48
N4715 X58.484 Y156.792 Z-0.481
N4720 X58.807 Y156.913
N4725 X59.133 Y157.028 Z-0.482
N4730 X59.462 Y157.134
N4735 X59.791 Y157.239 Z-0.483
N4740 X60.456 Y157.424
N4745 X60.792 Y157.503 Z-0.484
N4750 X61.129 Y157.581
N4755 X61.467 Y157.651 Z-0.485
N4760 X61.806 Y157.714
N4765 X62.146 Y157.773 Z-0.486
N4770 X62.83 Y157.87 Z-0.487
N4775 X63.518 Y157.937 Z-0.488
N4780 X63.862 Y157.96
N4785 X64.207 Y157.979
N4790 X64.552 Y157.991 Z-0.489
N4795 X64.897 Y157.995
N4800 X65.243 Y157.997 Z-0.49
N4805 X65.933 Y157.974 Z-0.491
N4810 X66.277 Y157.951
N4815 X66.622 Y157.924 Z-0.492
N4820 X66.965 Y157.89
N4825 X67.308 Y157.849
N4830 X67.651 Y157.804 Z-0.493
N4835 X68.332 Y157.692 Z-0.494
N4840 X68.67 Y157.622
N4845 X69.008 Y157.552 Z-0.495
N4850 X69.344 Y157.471
N4855 X69.679 Y157.386 Z-0.496
N4860 X70.012 Y157.295
N4865 X70.343 Y157.195 Z-0.497
N4870 X70.673 Y157.094
N4875 X71.325 Y156.867 Z-0.498
N4880 X71.647 Y156.742
N4885 X71.968 Y156.614 Z-0.499
N4890 X72.285 Y156.479
N4895 X72.6 Y156.337 Z-0.5
N4900 X72.914 Y156.192
N4905 X73.531 Y155.882 Z-0.501
N4910 X73.833 Y155.715 Z-0.502
N4915 X74.134 Y155.546
N4920 X74.431 Y155.369
N4925 X74.725 Y155.188 Z-0.503
N4930 X75.016 Y155.002
N4935 X75.302 Y154.809 Z-0.504
N4940 X75.587 Y154.614
N4945 X76.141 Y154.202 Z-0.505
N4950 X76.411 Y153.987 Z-0.506
N4955 X76.679 Y153.769
N4960 X76.942 Y153.545
N4965 X77.201 Y153.316 Z-0.507
N4970 X77.457 Y153.085
N4975 X77.953 Y152.604 Z-0.508
N4980 X78.192 Y152.354 Z-0.509
N4985 X78.429 Y152.104
N4990 X78.66 Y151.846 Z-0.51
N4995 X78.886 Y151.586
N5000 X79.109 Y151.322 Z-0.511
N5005 X79.324 Y151.051
N5010 X79.538 Y150.781
N5015 X79.944 Y150.222 Z-0.512
N5020 X80.138 Y149.936 Z-0.513
N5025 X80.328 Y149.648
N5030 X80.513 Y149.356 Z-0.514
N5035 X80.691 Y149.06
N5040 X80.867 Y148.763 Z-0.515
N5045 X81.197 Y148.157 Z-0.516
N5050 X81.35 Y147.847
N5055 X81.502 Y147.537
N5060 X81.645 Y147.223 Z-0.517
N5065 X81.784 Y146.906
N5070 X81.918 Y146.588 Z-0.518
N5075 X82.042 Y146.266
N5080 X82.166 Y145.944 Z-0.519
N5085 X82.387 Y145.289 Z-0.52
N5090 X82.486 Y144.959
N5095 X82.582 Y144.627
N5100 X82.672 Y144.293 Z-0.521
N5105 X82.753 Y143.958
N5110 X82.833 Y143.622 Z-0.522
N5115 X82.967 Y142.944 Z-0.523
N5120 X83.021 Y142.603
N5125 X83.073 Y142.262 Z-0.524
N5130 X83.117 Y141.919
N5135 X83.154 Y141.576 Z-0.525
N5140 X83.187 Y141.232
N5145 X83.232 Y140.543 Z-0.526
N5150 X83.24 Y140.198
N5155 X83.247 Y139.853 Z-0.527
N5160 X83.244 Y139.507
N5165 X83.237 Y139.162 Z-0.528
N5170 X83.223 Y138.817
N5175 X83.2 Y138.472 Z-0.529
N5180 X83.176 Y138.128
N5185 X83.102 Y137.441 Z-0.53
N5190 X83.052 Y137.1
N5195 X83. Y136.758 Z-0.531
N5200 X82.939 Y136.418
N5205 X82.873 Y136.079 Z-0.532
N5210 X82.802 Y135.742
N5215 X82.639 Y135.07 Z-0.533
N5220 X82.543 Y134.738 Z-0.534
N5225 X82.447 Y134.407
N5230 X82.342 Y134.078
N5235 X82.231 Y133.751 Z-0.535
N5240 X82.116 Y133.425
N5245 X81.991 Y133.103 Z-0.536
N5250 X81.866 Y132.782
N5255 X81.589 Y132.149 Z-0.537
N5260 X81.44 Y131.837 Z-0.538
N5265 X81.288 Y131.527
N5270 X81.13 Y131.22 Z-0.539
N5275 X80.965 Y130.917
N5280 X80.797 Y130.615
N5285 X80.441 Y130.023 Z-0.54
N5290 X80.251 Y129.735 Z-0.541
N5295 X80.06 Y129.447
N5300 X79.861 Y129.165 Z-0.542
N5305 X79.658 Y128.885
N5310 X79.451 Y128.609 Z-0.543
N5315 X79.236 Y128.339
N5320 X79.021 Y128.069 Z-0.544
N5325 X78.568 Y127.548
N5330 X78.333 Y127.295 Z-0.545
N5335 X78.095 Y127.044
N5340 X77.852 Y126.798 Z-0.546
N5345 X77.604 Y126.558
N5350 X77.354 Y126.32 Z-0.547
N5355 X76.838 Y125.862 Z-0.548
N5360 X76.57 Y125.643
N5365 X76.302 Y125.425
N5370 X76.029 Y125.215 Z-0.549
N5375 X75.752 Y125.009
N5380 X75.472 Y124.807 Z-0.55
N5385 X75.186 Y124.613
N5390 X74.899 Y124.419 Z-0.551
N5395 X74.312 Y124.057 Z-0.552
N5400 X74.012 Y123.885
N5405 X73.71 Y123.717 Z-0.553
N5410 X73.406 Y123.555
N5415 X73.097 Y123.4
N5420 X72.787 Y123.247 Z-0.554
N5425 X72.157 Y122.964 Z-0.555
N5430 X71.837 Y122.834
N5435 X71.516 Y122.706 Z-0.556
N5440 X71.192 Y122.587
N5445 X70.866 Y122.473 Z-0.557
N5450 X70.539 Y122.364
N5455 X70.208 Y122.264 Z-0.558
N5460 X69.878 Y122.165
N5465 X69.208 Y121.994 Z-0.559
N5470 X68.871 Y121.92
N5475 X68.533 Y121.849 Z-0.56
N5480 X68.194 Y121.785
N5485 X67.853 Y121.729 Z-0.561
N5490 X67.512 Y121.675
N5495 X66.826 Y121.593 Z-0.562
N5500 X66.482 Y121.565 Z-0.563
N5505 X66.138 Y121.539
N5510 X65.793 Y121.521
N5515 X65.448 Y121.51 Z-0.564
N5520 X65.102 Y121.503
N5525 X64.412 Y121.51 Z-0.565
N5530 X64.067 Y121.529 Z-0.566
N5535 X63.722 Y121.547
N5540 X63.378 Y121.577 Z-0.567
N5545 X63.034 Y121.61
N5550 X62.691 Y121.65
N5555 X62.35 Y121.698 Z-0.568
N5560 X62.008 Y121.749
N5565 X61.329 Y121.875 Z-0.569
N5570 X60.992 Y121.95 Z-0.57
N5575 X60.655 Y122.028
N5580 X60.321 Y122.114 Z-0.571
N5585 X59.988 Y122.206
N5590 X59.657 Y122.302 Z-0.572
N5595 X59. Y122.516
N5600 X58.676 Y122.636 Z-0.573
N5605 X58.352 Y122.757
N5610 X58.033 Y122.887 Z-0.574
N5615 X57.715 Y123.022
N5620 X57.399 Y123.162 Z-0.575
N5625 X57.087 Y123.31
N5630 X56.776 Y123.46 Z-0.576
N5635 X56.166 Y123.783 Z-0.577
N5640 X55.866 Y123.955
N5645 X55.569 Y124.13
N5650 X55.275 Y124.311 Z-0.578
N5655 X54.985 Y124.499
N5660 X54.697 Y124.689 Z-0.579
N5665 X54.134 Y125.089 Z-0.58
N5670 X53.86 Y125.3
N5675 X53.588 Y125.512 Z-0.581
N5680 X53.321 Y125.732
N5685 X53.058 Y125.955
N5690 X52.798 Y126.183 Z-0.582
N5695 X52.545 Y126.418
N5700 X52.292 Y126.653 Z-0.583
N5705 X51.806 Y127.144 Z-0.584
N5710 X51.572 Y127.398
N5715 X51.34 Y127.653 Z-0.585
N5720 X51.113 Y127.914
N5725 X50.893 Y128.179 Z-0.586
N5730 X50.674 Y128.447
N5735 X50.256 Y128.997 Z-0.587
N5740 X50.058 Y129.28
N5745 X49.861 Y129.563 Z-0.588
N5750 X49.672 Y129.852
N5755 X49.488 Y130.144 Z-0.589
N5760 X49.307 Y130.439
N5765 X49.136 Y130.738 Z-0.59
N5770 X48.965 Y131.038
N5775 X48.648 Y131.652 Z-0.591
N5780 X48.499 Y131.964
N5785 X48.354 Y132.277 Z-0.592
N5790 X48.216 Y132.593
N5795 X48.084 Y132.913 Z-0.593
N5800 X47.955 Y133.233
N5805 X47.721 Y133.883 Z-0.594
N5810 X47.616 Y134.212 Z-0.595
N5815 X47.513 Y134.541
N5820 X47.418 Y134.873
N5825 X47.329 Y135.207 Z-0.596
N5830 X47.245 Y135.542
N5835 X47.17 Y135.879 Z-0.597
N5840 X47.096 Y136.216
N5845 X46.977 Y136.897 Z-0.598
N5850 X46.928 Y137.238 Z-0.599
N5855 X46.883 Y137.581
N5860 X46.845 Y137.924 Z-0.6
N5865 X46.8 Y138.44
N5870 X46.787 Y138.612
N5875 X46.757 Y139.302 Z-0.601
N5880 X46.755 Y139.647 Z-0.602
N5885 Y139.993
N5890 X46.763 Y140.338 Z-0.603
N5895 X46.778 Y140.683
N5900 X46.797 Y141.028 Z-0.604
N5905 X46.857 Y141.716 Z-0.605
N5910 X46.902 Y142.058
N5915 X46.946 Y142.401
N5920 X47.001 Y142.742 Z-0.606
N5925 X47.061 Y143.082
N5930 X47.126 Y143.421 Z-0.607
N5935 X47.2 Y143.758
N5940 X47.276 Y144.095 Z-0.608
N5945 X47.454 Y144.762 Z-0.609
N5950 X47.554 Y145.093
N5955 X47.658 Y145.422
N5960 X47.768 Y145.749 Z-0.61
N5965 X47.886 Y146.074
N5970 X48.006 Y146.398 Z-0.611
N5975 X48.269 Y147.036 Z-0.612
N5980 X48.413 Y147.35
N5985 X48.558 Y147.664 Z-0.613
N5990 X48.712 Y147.973
N5995 X48.871 Y148.28 Z-0.614
N6000 X49.034 Y148.584
N6005 X49.205 Y148.883
N6010 X49.378 Y149.182 Z-0.615
N6015 X49.747 Y149.766 Z-0.616
N6020 X49.941 Y150.052
N6025 X50.138 Y150.336 Z-0.617
N6030 X50.341 Y150.615
N6035 X50.55 Y150.89 Z-0.618
N6040 X50.762 Y151.163
N6045 X51.203 Y151.694 Z-0.619
N6050 X51.434 Y151.951
N6055 X51.666 Y152.206 Z-0.62
N6060 X51.905 Y152.456
N6065 X52.148 Y152.701 Z-0.621
N6070 X52.394 Y152.943
N6075 X52.648 Y153.178 Z-0.622
N6080 X52.901 Y153.412
N6085 X53.428 Y153.859 Z-0.623
N6090 X53.698 Y154.074
N6095 X53.971 Y154.286 Z-0.624
N6100 X54.248 Y154.492
N6105 X54.529 Y154.692 Z-0.625
N6110 X54.813 Y154.89
N6115 X55.392 Y155.265 Z-0.626
N6120 X55.689 Y155.441 Z-0.627
N6125 X55.987 Y155.616
N6130 X56.29 Y155.783 Z-0.628
N6135 X56.595 Y155.944
N6140 X56.902 Y156.102
N6145 X57.214 Y156.25 Z-0.629
N6150 X57.526 Y156.398
N6155 X58.162 Y156.668 Z-0.63
N6160 X58.484 Y156.792 Z-0.631
N6165 X58.807 Y156.913
N6170 X59.133 Y157.028 Z-0.632
N6175 X59.462 Y157.134
N6180 X59.791 Y157.239 Z-0.633
N6185 X60.456 Y157.424
N6190 X60.792 Y157.503 Z-0.634
N6195 X61.129 Y157.581
N6200 X61.467 Y157.651 Z-0.635
N6205 X61.806 Y157.714
N6210 X62.146 Y157.773 Z-0.636
N6215 X62.83 Y157.87 Z-0.637
N6220 X63.518 Y157.937
N6225 X63.862 Y157.96 Z-0.638
N6230 X64.207 Y157.979
N6235 X64.552 Y157.991 Z-0.639
N6240 X64.897 Y157.995
N6245 X65.243 Y157.997 Z-0.64
N6250 X65.933 Y157.974 Z-0.641
N6255 X66.277 Y157.951
N6260 X66.622 Y157.924 Z-0.642
N6265 X66.965 Y157.89
N6270 X67.308 Y157.849
N6275 X67.651 Y157.804 Z-0.643
N6280 X68.332 Y157.692 Z-0.644
N6285 X68.67 Y157.622
N6290 X69.008 Y157.552 Z-0.645
N6295 X69.344 Y157.471
N6300 X69.679 Y157.386 Z-0.646
N6305 X70.012 Y157.295
N6310 X70.343 Y157.195 Z-0.647
N6315 X70.673 Y157.094
N6320 X71.325 Y156.867 Z-0.648
N6325 X71.647 Y156.742
N6330 X71.968 Y156.614 Z-0.649
N6335 X72.285 Y156.479
N6340 X72.6 Y156.337 Z-0.65
N6345 X72.914 Y156.192
N6350 X73.531 Y155.882 Z-0.651
N6355 X73.833 Y155.715 Z-0.652
N6360 X74.134 Y155.546
N6365 X74.431 Y155.369
N6370 X74.725 Y155.188 Z-0.653
N6375 X75.016 Y155.002
N6380 X75.302 Y154.809 Z-0.654
N6385 X75.587 Y154.614
N6390 X76.141 Y154.202 Z-0.655
N6395 X76.411 Y153.987 Z-0.656
N6400 X76.679 Y153.769
N6405 X76.942 Y153.545
N6410 X77.201 Y153.316 Z-0.657
N6415 X77.457 Y153.085
N6420 X77.953 Y152.604 Z-0.658
N6425 X78.192 Y152.354 Z-0.659
N6430 X78.429 Y152.104
N6435 X78.66 Y151.846 Z-0.66
N6440 X78.886 Y151.586
N6445 X79.109 Y151.322 Z-0.661
N6450 X79.324 Y151.051
N6455 X79.538 Y150.781
N6460 X79.944 Y150.222 Z-0.662
N6465 X80.138 Y149.936 Z-0.663
N6470 X80.328 Y149.648
N6475 X80.513 Y149.356 Z-0.664
N6480 X80.691 Y149.06
N6485 X80.867 Y148.763 Z-0.665
N6490 X81.197 Y148.157 Z-0.666
N6495 X81.35 Y147.847
N6500 X81.502 Y147.537
N6505 X81.645 Y147.223 Z-0.667
N6510 X81.784 Y146.906
N6515 X81.918 Y146.588 Z-0.668
N6520 X82.042 Y146.266
N6525 X82.166 Y145.944 Z-0.669
N6530 X82.387 Y145.289 Z-0.67
N6535 X82.486 Y144.959
N6540 X82.582 Y144.627
N6545 X82.672 Y144.293 Z-0.671
N6550 X82.753 Y143.958
N6555 X82.833 Y143.622 Z-0.672
N6560 X82.967 Y142.944 Z-0.673
N6565 X83.021 Y142.603
N6570 X83.073 Y142.262 Z-0.674
N6575 X83.117 Y141.919
N6580 X83.154 Y141.576 Z-0.675
N6585 X83.187 Y141.232
N6590 X83.232 Y140.543 Z-0.676
N6595 X83.24 Y140.198
N6600 X83.247 Y139.853 Z-0.677
N6605 X83.244 Y139.507
N6610 X83.237 Y139.162 Z-0.678
N6615 X83.223 Y138.817
N6620 X83.2 Y138.472 Z-0.679
N6625 X83.176 Y138.128
N6630 X83.102 Y137.441 Z-0.68
N6635 X83.052 Y137.1
N6640 X83. Y136.758 Z-0.681
N6645 X82.939 Y136.418
N6650 X82.873 Y136.079 Z-0.682
N6655 X82.802 Y135.742
N6660 X82.639 Y135.07 Z-0.683
N6665 X82.543 Y134.738 Z-0.684
N6670 X82.447 Y134.407
N6675 X82.342 Y134.078
N6680 X82.231 Y133.751 Z-0.685
N6685 X82.116 Y133.425
N6690 X81.991 Y133.103 Z-0.686
N6695 X81.866 Y132.782
N6700 X81.589 Y132.149 Z-0.687
N6705 X81.44 Y131.837 Z-0.688
N6710 X81.288 Y131.527
N6715 X81.13 Y131.22 Z-0.689
N6720 X80.965 Y130.917
N6725 X80.797 Y130.615
N6730 X80.441 Y130.023 Z-0.69
N6735 X80.251 Y129.735 Z-0.691
N6740 X80.06 Y129.447
N6745 X79.861 Y129.165 Z-0.692
N6750 X79.658 Y128.885
N6755 X79.451 Y128.609 Z-0.693
N6760 X79.236 Y128.339
N6765 X79.021 Y128.069 Z-0.694
N6770 X78.568 Y127.548
N6775 X78.333 Y127.295 Z-0.695
N6780 X78.095 Y127.044
N6785 X77.852 Y126.798 Z-0.696
N6790 X77.604 Y126.558
N6795 X77.354 Y126.32 Z-0.697
N6800 X76.838 Y125.862 Z-0.698
N6805 X76.57 Y125.643
N6810 X76.302 Y125.425
N6815 X76.029 Y125.215 Z-0.699
N6820 X75.752 Y125.009
N6825 X75.472 Y124.807 Z-0.7
N6830 X75.186 Y124.613
N6835 X74.899 Y124.419 Z-0.701
N6840 X74.312 Y124.057 Z-0.702
N6845 X74.012 Y123.885
N6850 X73.71 Y123.717 Z-0.703
N6855 X73.406 Y123.555
N6860 X73.097 Y123.4
N6865 X72.787 Y123.247 Z-0.704
N6870 X72.157 Y122.964 Z-0.705
N6875 X71.837 Y122.834
N6880 X71.516 Y122.706 Z-0.706
N6885 X71.192 Y122.587
N6890 X70.866 Y122.473 Z-0.707
N6895 X70.539 Y122.364
N6900 X70.208 Y122.264 Z-0.708
N6905 X69.878 Y122.165
N6910 X69.208 Y121.994 Z-0.709
N6915 X68.871 Y121.92
N6920 X68.533 Y121.849 Z-0.71
N6925 X68.194 Y121.785
N6930 X67.853 Y121.729 Z-0.711
N6935 X67.512 Y121.675
N6940 X66.826 Y121.593 Z-0.712
N6945 X66.482 Y121.565
N6950 X66.138 Y121.539 Z-0.713
N6955 X65.793 Y121.521
N6960 X65.448 Y121.51 Z-0.714
N6965 X65.102 Y121.503
N6970 X64.412 Y121.51 Z-0.715
N6975 X64.067 Y121.529 Z-0.716
N6980 X63.722 Y121.547
N6985 X63.378 Y121.577 Z-0.717
N6990 X63.034 Y121.61
N6995 X62.691 Y121.65
N7000 X62.35 Y121.698 Z-0.718
N7005 X62.008 Y121.749
N7010 X61.329 Y121.875 Z-0.719
N7015 X60.992 Y121.95 Z-0.72
N7020 X60.655 Y122.028
N7025 X60.321 Y122.114 Z-0.721
N7030 X59.988 Y122.206
N7035 X59.657 Y122.302 Z-0.722
N7040 X59. Y122.516
N7045 X58.676 Y122.636 Z-0.723
N7050 X58.352 Y122.757
N7055 X58.033 Y122.887 Z-0.724
N7060 X57.715 Y123.022
N7065 X57.399 Y123.162 Z-0.725
N7070 X57.087 Y123.31
N7075 X56.776 Y123.46 Z-0.726
N7080 X56.166 Y123.783 Z-0.727
N7085 X55.866 Y123.955
N7090 X55.569 Y124.13
N7095 X55.275 Y124.311 Z-0.728
N7100 X54.985 Y124.499
N7105 X54.697 Y124.689 Z-0.729
N7110 X54.134 Y125.089 Z-0.73
N7115 X53.86 Y125.3
N7120 X53.588 Y125.512 Z-0.731
N7125 X53.321 Y125.732
N7130 X53.058 Y125.955
N7135 X52.798 Y126.183 Z-0.732
N7140 X52.545 Y126.418
N7145 X52.292 Y126.653 Z-0.733
N7150 X51.806 Y127.144 Z-0.734
N7155 X51.572 Y127.398
N7160 X51.34 Y127.653 Z-0.735
N7165 X51.113 Y127.914
N7170 X50.893 Y128.179 Z-0.736
N7175 X50.674 Y128.447
N7180 X50.256 Y128.997 Z-0.737
N7185 X50.058 Y129.28
N7190 X49.861 Y129.563 Z-0.738
N7195 X49.672 Y129.852
N7200 X49.488 Y130.144 Z-0.739
N7205 X49.307 Y130.439
N7210 X49.136 Y130.738 Z-0.74
N7215 X48.965 Y131.038
N7220 X48.648 Y131.652 Z-0.741
N7225 X48.499 Y131.964
N7230 X48.354 Y132.277 Z-0.742
N7235 X48.216 Y132.593
N7240 X48.084 Y132.913 Z-0.743
N7245 X47.955 Y133.233
N7250 X47.721 Y133.883 Z-0.744
N7255 X47.616 Y134.212 Z-0.745
N7260 X47.513 Y134.541
N7265 X47.418 Y134.873
N7270 X47.329 Y135.207 Z-0.746
N7275 X47.245 Y135.542
N7280 X47.17 Y135.879 Z-0.747
N7285 X47.096 Y136.216
N7290 X46.977 Y136.897 Z-0.748
N7295 X46.928 Y137.238 Z-0.749
N7300 X46.883 Y137.581
N7305 X46.845 Y137.924 Z-0.75
N7310 X46.8 Y138.44
N7315 X46.787 Y138.612
N7320 X46.757 Y139.302 Z-0.751
N7325 X46.755 Y139.647 Z-0.752
N7330 Y139.993
N7335 X46.763 Y140.338 Z-0.753
N7340 X46.778 Y140.683
N7345 X46.797 Y141.028 Z-0.754
N7350 X46.857 Y141.716 Z-0.755
N7355 X46.902 Y142.058
N7360 X46.946 Y142.401
N7365 X47.001 Y142.742 Z-0.756
N7370 X47.061 Y143.082
N7375 X47.126 Y143.421 Z-0.757
N7380 X47.2 Y143.758
N7385 X47.276 Y144.095 Z-0.758
N7390 X47.454 Y144.762 Z-0.759
N7395 X47.554 Y145.093
N7400 X47.658 Y145.422
N7405 X47.768 Y145.749 Z-0.76
N7410 X47.886 Y146.074
N7415 X48.006 Y146.398 Z-0.761
N7420 X48.269 Y147.036 Z-0.762
N7425 X48.413 Y147.35
N7430 X48.558 Y147.664 Z-0.763
N7435 X48.712 Y147.973
N7440 X48.871 Y148.28 Z-0.764
N7445 X49.034 Y148.584
N7450 X49.205 Y148.883
N7455 X49.378 Y149.182 Z-0.765
N7460 X49.747 Y149.766 Z-0.766
N7465 X49.941 Y150.052
N7470 X50.138 Y150.336 Z-0.767
N7475 X50.341 Y150.615
N7480 X50.55 Y150.89 Z-0.768
N7485 X50.762 Y151.163
N7490 X51.203 Y151.694 Z-0.769
N7495 X51.434 Y151.951
N7500 X51.666 Y152.206 Z-0.77
N7505 X51.905 Y152.456
N7510 X52.148 Y152.701 Z-0.771
N7515 X52.394 Y152.943
N7520 X52.648 Y153.178 Z-0.772
N7525 X52.901 Y153.412
N7530 X53.428 Y153.859 Z-0.773
N7535 X53.698 Y154.074
N7540 X53.971 Y154.286 Z-0.774
N7545 X54.248 Y154.492
N7550 X54.529 Y154.692 Z-0.775
N7555 X54.813 Y154.89
N7560 X55.392 Y155.265 Z-0.776
N7565 X55.689 Y155.441 Z-0.777
N7570 X55.987 Y155.616
N7575 X56.29 Y155.783 Z-0.778
N7580 X56.595 Y155.944
N7585 X56.902 Y156.102
N7590 X57.214 Y156.25 Z-0.779
N7595 X57.526 Y156.398
N7600 X58.162 Y156.668 Z-0.78
N7605 X58.484 Y156.792 Z-0.781
N7610 X58.807 Y156.913
N7615 X59.133 Y157.028 Z-0.782
N7620 X59.462 Y157.134
N7625 X59.791 Y157.239 Z-0.783
N7630 X60.456 Y157.424
N7635 X60.792 Y157.503 Z-0.784
N7640 X61.129 Y157.581
N7645 X61.467 Y157.651 Z-0.785
N7650 X61.806 Y157.714
N7655 X62.146 Y157.773 Z-0.786
N7660 X62.83 Y157.87 Z-0.787
N7665 X63.518 Y157.937 Z-0.788
N7670 X63.862 Y157.96
N7675 X64.207 Y157.979
N7680 X64.552 Y157.991 Z-0.789
N7685 X64.897 Y157.995
N7690 X65.243 Y157.997 Z-0.79
N7695 X65.933 Y157.974 Z-0.791
N7700 X66.277 Y157.951
N7705 X66.622 Y157.924 Z-0.792
N7710 X66.965 Y157.89
N7715 X67.308 Y157.849
N7720 X67.651 Y157.804 Z-0.793
N7725 X68.332 Y157.692 Z-0.794
N7730 X68.67 Y157.622
N7735 X69.008 Y157.552 Z-0.795
N7740 X69.344 Y157.471
N7745 X69.679 Y157.386 Z-0.796
N7750 X70.012 Y157.295
N7755 X70.343 Y157.195 Z-0.797
N7760 X70.673 Y157.094
N7765 X71.325 Y156.867 Z-0.798
N7770 X71.647 Y156.742
N7775 X71.968 Y156.614 Z-0.799
N7780 X72.285 Y156.479
N7785 X72.6 Y156.337 Z-0.8
N7790 X72.914 Y156.192
N7795 X73.531 Y155.882 Z-0.801
N7800 X73.833 Y155.715 Z-0.802
N7805 X74.134 Y155.546
N7810 X74.431 Y155.369
N7815 X74.725 Y155.188 Z-0.803
N7820 X75.016 Y155.002
N7825 X75.302 Y154.809 Z-0.804
N7830 X75.587 Y154.614
N7835 X76.141 Y154.202 Z-0.805
N7840 X76.411 Y153.987 Z-0.806
N7845 X76.679 Y153.769
N7850 X76.942 Y153.545
N7855 X77.201 Y153.316 Z-0.807
N7860 X77.457 Y153.085
N7865 X77.953 Y152.604 Z-0.808
N7870 X78.192 Y152.354 Z-0.809
N7875 X78.429 Y152.104
N7880 X78.66 Y151.846 Z-0.81
N7885 X78.886 Y151.586
N7890 X79.109 Y151.322 Z-0.811
N7895 X79.324 Y151.051
N7900 X79.538 Y150.781
N7905 X79.944 Y150.222 Z-0.812
N7910 X80.138 Y149.936 Z-0.813
N7915 X80.328 Y149.648
N7920 X80.513 Y149.356 Z-0.814
N7925 X80.691 Y149.06
N7930 X80.867 Y148.763 Z-0.815
N7935 X81.197 Y148.157 Z-0.816
N7940 X81.35 Y147.847
N7945 X81.502 Y147.537
N7950 X81.645 Y147.223 Z-0.817
N7955 X81.784 Y146.906
N7960 X81.918 Y146.588 Z-0.818
N7965 X82.042 Y146.266
N7970 X82.166 Y145.944 Z-0.819
N7975 X82.387 Y145.289 Z-0.82
N7980 X82.486 Y144.959
N7985 X82.582 Y144.627
N7990 X82.672 Y144.293 Z-0.821
N7995 X82.753 Y143.958
N8000 X82.833 Y143.622 Z-0.822
N8005 X82.967 Y142.944 Z-0.823
N8010 X83.021 Y142.603
N8015 X83.073 Y142.262 Z-0.824
N8020 X83.117 Y141.919
N8025 X83.154 Y141.576 Z-0.825
N8030 X83.187 Y141.232
N8035 X83.232 Y140.543 Z-0.826
N8040 X83.24 Y140.198
N8045 X83.247 Y139.853 Z-0.827
N8050 X83.244 Y139.507
N8055 X83.237 Y139.162 Z-0.828
N8060 X83.223 Y138.817
N8065 X83.2 Y138.472 Z-0.829
N8070 X83.176 Y138.128
N8075 X83.102 Y137.441 Z-0.83
N8080 X83.052 Y137.1
N8085 X83. Y136.758 Z-0.831
N8090 X82.939 Y136.418
N8095 X82.873 Y136.079 Z-0.832
N8100 X82.802 Y135.742
N8105 X82.639 Y135.07 Z-0.833
N8110 X82.543 Y134.738 Z-0.834
N8115 X82.447 Y134.407
N8120 X82.342 Y134.078
N8125 X82.231 Y133.751 Z-0.835
N8130 X82.116 Y133.425
N8135 X81.991 Y133.103 Z-0.836
N8140 X81.866 Y132.782
N8145 X81.589 Y132.149 Z-0.837
N8150 X81.44 Y131.837 Z-0.838
N8155 X81.288 Y131.527
N8160 X81.13 Y131.22 Z-0.839
N8165 X80.965 Y130.917
N8170 X80.797 Y130.615
N8175 X80.441 Y130.023 Z-0.84
N8180 X80.251 Y129.735 Z-0.841
N8185 X80.06 Y129.447
N8190 X79.861 Y129.165 Z-0.842
N8195 X79.658 Y128.885
N8200 X79.451 Y128.609 Z-0.843
N8205 X79.236 Y128.339
N8210 X79.021 Y128.069 Z-0.844
N8215 X78.568 Y127.548
N8220 X78.333 Y127.295 Z-0.845
N8225 X78.095 Y127.044
N8230 X77.852 Y126.798 Z-0.846
N8235 X77.604 Y126.558
N8240 X77.354 Y126.32 Z-0.847
N8245 X76.838 Y125.862 Z-0.848
N8250 X76.57 Y125.643
N8255 X76.302 Y125.425
N8260 X76.029 Y125.215 Z-0.849
N8265 X75.752 Y125.009
N8270 X75.472 Y124.807 Z-0.85
N8275 X75.186 Y124.613
N8280 X74.899 Y124.419 Z-0.851
N8285 X74.312 Y124.057 Z-0.852
N8290 X74.012 Y123.885
N8295 X73.71 Y123.717 Z-0.853
N8300 X73.406 Y123.555
N8305 X73.097 Y123.4
N8310 X72.787 Y123.247 Z-0.854
N8315 X72.157 Y122.964 Z-0.855
N8320 X71.837 Y122.834
N8325 X71.516 Y122.706 Z-0.856
N8330 X71.192 Y122.587
N8335 X70.866 Y122.473 Z-0.857
N8340 X70.539 Y122.364
N8345 X70.208 Y122.264 Z-0.858
N8350 X69.878 Y122.165
N8355 X69.208 Y121.994 Z-0.859
N8360 X68.871 Y121.92
N8365 X68.533 Y121.849 Z-0.86
N8370 X68.194 Y121.785
N8375 X67.853 Y121.729 Z-0.861
N8380 X67.512 Y121.675
N8385 X66.826 Y121.593 Z-0.862
N8390 X66.482 Y121.565 Z-0.863
N8395 X66.138 Y121.539
N8400 X65.793 Y121.521
N8405 X65.448 Y121.51 Z-0.864
N8410 X65.102 Y121.503
N8415 X64.412 Y121.51 Z-0.865
N8420 X64.067 Y121.529 Z-0.866
N8425 X63.722 Y121.547
N8430 X63.378 Y121.577 Z-0.867
N8435 X63.034 Y121.61
N8440 X62.691 Y121.65
N8445 X62.35 Y121.698 Z-0.868
N8450 X62.008 Y121.749
N8455 X61.329 Y121.875 Z-0.869
N8460 X60.992 Y121.95 Z-0.87
N8465 X60.655 Y122.028
N8470 X60.321 Y122.114 Z-0.871
N8475 X59.988 Y122.206
N8480 X59.657 Y122.302 Z-0.872
N8485 X59. Y122.516
N8490 X58.676 Y122.636 Z-0.873
N8495 X58.352 Y122.757
N8500 X58.033 Y122.887 Z-0.874
N8505 X57.715 Y123.022
N8510 X57.399 Y123.162 Z-0.875
N8515 X57.087 Y123.31
N8520 X56.776 Y123.46 Z-0.876
N8525 X56.166 Y123.783 Z-0.877
N8530 X55.866 Y123.955
N8535 X55.569 Y124.13
N8540 X55.275 Y124.311 Z-0.878
N8545 X54.985 Y124.499
N8550 X54.697 Y124.689 Z-0.879
N8555 X54.134 Y125.089 Z-0.88
N8560 X53.86 Y125.3
N8565 X53.588 Y125.512 Z-0.881
N8570 X53.321 Y125.732
N8575 X53.058 Y125.955
N8580 X52.798 Y126.183 Z-0.882
N8585 X52.545 Y126.418
N8590 X52.292 Y126.653 Z-0.883
N8595 X51.806 Y127.144 Z-0.884
N8600 X51.572 Y127.398
N8605 X51.34 Y127.653 Z-0.885
N8610 X51.113 Y127.914
N8615 X50.893 Y128.179 Z-0.886
N8620 X50.674 Y128.447
N8625 X50.256 Y128.997 Z-0.887
N8630 X50.058 Y129.28
N8635 X49.861 Y129.563 Z-0.888
N8640 X49.672 Y129.852
N8645 X49.488 Y130.144 Z-0.889
N8650 X49.307 Y130.439
N8655 X49.136 Y130.738 Z-0.89
N8660 X48.965 Y131.038
N8665 X48.648 Y131.652 Z-0.891
N8670 X48.499 Y131.964
N8675 X48.354 Y132.277 Z-0.892
N8680 X48.216 Y132.593
N8685 X48.084 Y132.913 Z-0.893
N8690 X47.955 Y133.233
N8695 X47.721 Y133.883 Z-0.894
N8700 X47.616 Y134.212 Z-0.895
N8705 X47.513 Y134.541
N8710 X47.418 Y134.873
N8715 X47.329 Y135.207 Z-0.896
N8720 X47.245 Y135.542
N8725 X47.17 Y135.879 Z-0.897
N8730 X47.096 Y136.216
N8735 X46.977 Y136.897 Z-0.898
N8740 X46.928 Y137.238 Z-0.899
N8745 X46.883 Y137.581
N8750 X46.845 Y137.924 Z-0.9
N8755 X46.8 Y138.44
N8760 X46.787 Y138.612
N8765 X46.757 Y139.302 Z-0.901
N8770 X46.755 Y139.647 Z-0.902
N8775 Y139.993
N8780 X46.763 Y140.338 Z-0.903
N8785 X46.778 Y140.683
N8790 X46.797 Y141.028 Z-0.904
N8795 X46.857 Y141.716 Z-0.905
N8800 X46.902 Y142.058
N8805 X46.946 Y142.401
N8810 X47.001 Y142.742 Z-0.906
N8815 X47.061 Y143.082
N8820 X47.126 Y143.421 Z-0.907
N8825 X47.2 Y143.758
N8830 X47.276 Y144.095 Z-0.908
N8835 X47.454 Y144.762 Z-0.909
N8840 X47.554 Y145.093
N8845 X47.658 Y145.422
N8850 X47.768 Y145.749 Z-0.91
N8855 X47.886 Y146.074
N8860 X48.006 Y146.398 Z-0.911
N8865 X48.269 Y147.036 Z-0.912
N8870 X48.413 Y147.35
N8875 X48.558 Y147.664 Z-0.913
N8880 X48.712 Y147.973
N8885 X48.871 Y148.28 Z-0.914
N8890 X49.034 Y148.584
N8895 X49.205 Y148.883
N8900 X49.378 Y149.182 Z-0.915
N8905 X49.747 Y149.766 Z-0.916
N8910 X49.941 Y150.052
N8915 X50.138 Y150.336 Z-0.917
N8920 X50.341 Y150.615
N8925 X50.55 Y150.89 Z-0.918
N8930 X50.762 Y151.163
N8935 X51.203 Y151.694 Z-0.919
N8940 X51.434 Y151.951
N8945 X51.666 Y152.206 Z-0.92
N8950 X51.905 Y152.456
N8955 X52.148 Y152.701 Z-0.921
N8960 X52.394 Y152.943
N8965 X52.648 Y153.178 Z-0.922
N8970 X52.901 Y153.412
N8975 X53.428 Y153.859 Z-0.923
N8980 X53.698 Y154.074
N8985 X53.971 Y154.286 Z-0.924
N8990 X54.248 Y154.492
N8995 X54.529 Y154.692 Z-0.925
N9000 X54.813 Y154.89
N9005 X55.392 Y155.265 Z-0.926
N9010 X55.689 Y155.441 Z-0.927
N9015 X55.987 Y155.616
N9020 X56.29 Y155.783 Z-0.928
N9025 X56.595 Y155.944
N9030 X56.902 Y156.102
N9035 X57.214 Y156.25 Z-0.929
N9040 X57.526 Y156.398
N9045 X58.162 Y156.668 Z-0.93
N9050 X58.484 Y156.792 Z-0.931
N9055 X58.807 Y156.913
N9060 X59.133 Y157.028 Z-0.932
N9065 X59.462 Y157.134
N9070 X59.791 Y157.239 Z-0.933
N9075 X60.456 Y157.424
N9080 X60.792 Y157.503 Z-0.934
N9085 X61.129 Y157.581
N9090 X61.467 Y157.651 Z-0.935
N9095 X61.806 Y157.714
N9100 X62.146 Y157.773 Z-0.936
N9105 X62.83 Y157.87 Z-0.937
N9110 X63.518 Y157.937 Z-0.938
N9115 X63.862 Y157.96
N9120 X64.207 Y157.979
N9125 X64.552 Y157.991 Z-0.939
N9130 X64.897 Y157.995
N9135 X65.243 Y157.997 Z-0.94
N9140 X65.933 Y157.974 Z-0.941
N9145 X66.277 Y157.951
N9150 X66.622 Y157.924 Z-0.942
N9155 X66.965 Y157.89
N9160 X67.308 Y157.849
N9165 X67.651 Y157.804 Z-0.943
N9170 X68.332 Y157.692 Z-0.944
N9175 X68.67 Y157.622
N9180 X69.008 Y157.552 Z-0.945
N9185 X69.344 Y157.471
N9190 X69.679 Y157.386 Z-0.946
N9195 X70.012 Y157.295
N9200 X70.343 Y157.195 Z-0.947
N9205 X70.673 Y157.094
N9210 X71.325 Y156.867 Z-0.948
N9215 X71.647 Y156.742
N9220 X71.968 Y156.614 Z-0.949
N9225 X72.285 Y156.479
N9230 X72.6 Y156.337 Z-0.95
N9235 X72.914 Y156.192
N9240 X73.531 Y155.882 Z-0.951
N9245 X73.833 Y155.715 Z-0.952
N9250 X74.134 Y155.546
N9255 X74.431 Y155.369
N9260 X74.725 Y155.188 Z-0.953
N9265 X75.016 Y155.002
N9270 X75.302 Y154.809 Z-0.954
N9275 X75.587 Y154.614
N9280 X76.141 Y154.202 Z-0.955
N9285 X76.411 Y153.987 Z-0.956
N9290 X76.679 Y153.769
N9295 X76.942 Y153.545
N9300 X77.201 Y153.316 Z-0.957
N9305 X77.457 Y153.085
N9310 X77.953 Y152.604 Z-0.958
N9315 X78.192 Y152.354 Z-0.959
N9320 X78.429 Y152.104
N9325 X78.66 Y151.846 Z-0.96
N9330 X78.886 Y151.586
N9335 X79.109 Y151.322 Z-0.961
N9340 X79.324 Y151.051
N9345 X79.538 Y150.781
N9350 X79.944 Y150.222 Z-0.962
N9355 X80.138 Y149.936 Z-0.963
N9360 X80.328 Y149.648
N9365 X80.513 Y149.356 Z-0.964
N9370 X80.691 Y149.06
N9375 X80.867 Y148.763 Z-0.965
N9380 X81.197 Y148.157 Z-0.966
N9385 X81.35 Y147.847
N9390 X81.502 Y147.537
N9395 X81.645 Y147.223 Z-0.967
N9400 X81.784 Y146.906
N9405 X81.918 Y146.588 Z-0.968
N9410 X82.042 Y146.266
N9415 X82.166 Y145.944 Z-0.969
N9420 X82.387 Y145.289 Z-0.97
N9425 X82.486 Y144.959
N9430 X82.582 Y144.627
N9435 X82.672 Y144.293 Z-0.971
N9440 X82.753 Y143.958
N9445 X82.833 Y143.622 Z-0.972
N9450 X82.967 Y142.944 Z-0.973
N9455 X83.021 Y142.603
N9460 X83.073 Y142.262 Z-0.974
N9465 X83.117 Y141.919
N9470 X83.154 Y141.576 Z-0.975
N9475 X83.187 Y141.232
N9480 X83.232 Y140.543 Z-0.976
N9485 X83.24 Y140.198
N9490 X83.247 Y139.853 Z-0.977
N9495 X83.244 Y139.507
N9500 X83.237 Y139.162 Z-0.978
N9505 X83.223 Y138.817
N9510 X83.2 Y138.472 Z-0.979
N9515 X83.176 Y138.128
N9520 X83.102 Y137.441 Z-0.98
N9525 X83.052 Y137.1
N9530 X83. Y136.758 Z-0.981
N9535 X82.939 Y136.418
N9540 X82.873 Y136.079 Z-0.982
N9545 X82.802 Y135.742
N9550 X82.639 Y135.07 Z-0.983
N9555 X82.543 Y134.738 Z-0.984
N9560 X82.447 Y134.407
N9565 X82.342 Y134.078
N9570 X82.231 Y133.751 Z-0.985
N9575 X82.116 Y133.425
N9580 X81.991 Y133.103 Z-0.986
N9585 X81.866 Y132.782
N9590 X81.589 Y132.149 Z-0.987
N9595 X81.44 Y131.837 Z-0.988
N9600 X81.288 Y131.527
N9605 X81.13 Y131.22 Z-0.989
N9610 X80.965 Y130.917
N9615 X80.797 Y130.615
N9620 X80.441 Y130.023 Z-0.99
N9625 X80.251 Y129.735 Z-0.991
N9630 X80.06 Y129.447
N9635 X79.861 Y129.165 Z-0.992
N9640 X79.658 Y128.885
N9645 X79.451 Y128.609 Z-0.993
N9650 X79.236 Y128.339
N9655 X79.021 Y128.069 Z-0.994
N9660 X78.568 Y127.548
N9665 X78.333 Y127.295 Z-0.995
N9670 X78.095 Y127.044
N9675 X77.852 Y126.798 Z-0.996
N9680 X77.604 Y126.558
N9685 X77.354 Y126.32 Z-0.997
N9690 X76.838 Y125.862 Z-0.998
N9695 X76.57 Y125.643
N9700 X76.302 Y125.425
N9705 X76.029 Y125.215 Z-0.999
N9710 X75.752 Y125.009
N9715 X75.472 Y124.807 Z-1.
N9720 X75.186 Y124.613
N9725 X74.899 Y124.419 Z-1.001
N9730 X74.312 Y124.057 Z-1.002
N9735 X74.012 Y123.885
N9740 X73.71 Y123.717 Z-1.003
N9745 X73.406 Y123.555
N9750 X73.097 Y123.4
N9755 X72.787 Y123.247 Z-1.004
N9760 X72.157 Y122.964 Z-1.005
N9765 X71.837 Y122.834
N9770 X71.516 Y122.706 Z-1.006
N9775 X71.192 Y122.587
N9780 X70.866 Y122.473 Z-1.007
N9785 X70.539 Y122.364
N9790 X70.208 Y122.264 Z-1.008
N9795 X69.878 Y122.165
N9800 X69.208 Y121.994 Z-1.009
N9805 X68.871 Y121.92
N9810 X68.533 Y121.849 Z-1.01
N9815 X68.194 Y121.785
N9820 X67.853 Y121.729 Z-1.011
N9825 X67.512 Y121.675
N9830 X66.826 Y121.593 Z-1.012
N9835 X66.482 Y121.565 Z-1.013
N9840 X66.138 Y121.539
N9845 X65.793 Y121.521
N9850 X65.448 Y121.51 Z-1.014
N9855 X65.102 Y121.503
N9860 X64.412 Y121.51 Z-1.015
N9865 X64.067 Y121.529 Z-1.016
N9870 X63.722 Y121.547
N9875 X63.378 Y121.577 Z-1.017
N9880 X63.034 Y121.61
N9885 X62.691 Y121.65
N9890 X62.35 Y121.698 Z-1.018
N9895 X62.008 Y121.749
N9900 X61.329 Y121.875 Z-1.019
N9905 X60.992 Y121.95 Z-1.02
N9910 X60.655 Y122.028
N9915 X60.321 Y122.114 Z-1.021
N9920 X59.988 Y122.206
N9925 X59.657 Y122.302 Z-1.022
N9930 X59. Y122.516
N9935 X58.676 Y122.636 Z-1.023
N9940 X58.352 Y122.757
N9945 X58.033 Y122.887 Z-1.024
N9950 X57.715 Y123.022
N9955 X57.399 Y123.162 Z-1.025
N9960 X57.087 Y123.31
N9965 X56.776 Y123.46 Z-1.026
N9970 X56.166 Y123.783 Z-1.027
N9975 X55.866 Y123.955
N9980 X55.569 Y124.13
N9985 X55.275 Y124.311 Z-1.028
N9990 X54.985 Y124.499
N9995 X54.697 Y124.689 Z-1.029
N10000 X54.134 Y125.089 Z-1.03
N10005 X53.86 Y125.3
N10010 X53.588 Y125.512 Z-1.031
N10015 X53.321 Y125.732
N10020 X53.058 Y125.955
N10025 X52.798 Y126.183 Z-1.032
N10030 X52.545 Y126.418
N10035 X52.292 Y126.653 Z-1.033
N10040 X51.806 Y127.144 Z-1.034
N10045 X51.572 Y127.398
N10050 X51.34 Y127.653 Z-1.035
N10055 X51.113 Y127.914
N10060 X50.893 Y128.179 Z-1.036
N10065 X50.674 Y128.447
N10070 X50.256 Y128.997 Z-1.037
N10075 X50.058 Y129.28
N10080 X49.861 Y129.563 Z-1.038
N10085 X49.672 Y129.852
N10090 X49.488 Y130.144 Z-1.039
N10095 X49.307 Y130.439
N10100 X49.136 Y130.738 Z-1.04
N10105 X48.965 Y131.038
N10110 X48.648 Y131.652 Z-1.041
N10115 X48.499 Y131.964
N10120 X48.354 Y132.277 Z-1.042
N10125 X48.216 Y132.593
N10130 X48.084 Y132.913 Z-1.043
N10135 X47.955 Y133.233
N10140 X47.721 Y133.883 Z-1.044
N10145 X47.616 Y134.212 Z-1.045
N10150 X47.513 Y134.541
N10155 X47.418 Y134.873
N10160 X47.329 Y135.207 Z-1.046
N10165 X47.245 Y135.542
N10170 X47.17 Y135.879 Z-1.047
N10175 X47.096 Y136.216
N10180 X46.977 Y136.897 Z-1.048
N10185 X46.928 Y137.238 Z-1.049
N10190 X46.883 Y137.581
N10195 X46.845 Y137.924 Z-1.05
N10200 X46.8 Y138.44
N10205 X46.787 Y138.612
N10210 X46.757 Y139.302 Z-1.051
N10215 X46.755 Y139.647 Z-1.052
N10220 Y139.993
N10225 X46.763 Y140.338 Z-1.053
N10230 X46.778 Y140.683
N10235 X46.797 Y141.028 Z-1.054
N10240 X46.857 Y141.716 Z-1.055
N10245 X46.902 Y142.058
N10250 X46.946 Y142.401
N10255 X47.001 Y142.742 Z-1.056
N10260 X47.061 Y143.082
N10265 X47.126 Y143.421 Z-1.057
N10270 X47.2 Y143.758
N10275 X47.276 Y144.095 Z-1.058
N10280 X47.454 Y144.762 Z-1.059
N10285 X47.554 Y145.093
N10290 X47.658 Y145.422
N10295 X47.768 Y145.749 Z-1.06
N10300 X47.886 Y146.074
N10305 X48.006 Y146.398 Z-1.061
N10310 X48.269 Y147.036 Z-1.062
N10315 X48.413 Y147.35
N10320 X48.558 Y147.664 Z-1.063
N10325 X48.712 Y147.973
N10330 X48.871 Y148.28 Z-1.064
N10335 X49.034 Y148.584
N10340 X49.205 Y148.883
N10345 X49.378 Y149.182 Z-1.065
N10350 X49.747 Y149.766 Z-1.066
N10355 X49.941 Y150.052
N10360 X50.138 Y150.336 Z-1.067
N10365 X50.341 Y150.615
N10370 X50.55 Y150.89 Z-1.068
N10375 X50.762 Y151.163
N10380 X51.203 Y151.694 Z-1.069
N10385 X51.434 Y151.951
N10390 X51.666 Y152.206 Z-1.07
N10395 X51.905 Y152.456
N10400 X52.148 Y152.701 Z-1.071
N10405 X52.394 Y152.943
N10410 X52.648 Y153.178 Z-1.072
N10415 X52.901 Y153.412
N10420 X53.428 Y153.859 Z-1.073
N10425 X53.698 Y154.074
N10430 X53.971 Y154.286 Z-1.074
N10435 X54.248 Y154.492
N10440 X54.529 Y154.692 Z-1.075
N10445 X54.813 Y154.89
N10450 X55.392 Y155.265 Z-1.076
N10455 X55.689 Y155.441 Z-1.077
N10460 X55.987 Y155.616
N10465 X56.29 Y155.783 Z-1.078
N10470 X56.595 Y155.944
N10475 X56.902 Y156.102
N10480 X57.214 Y156.25 Z-1.079
N10485 X57.526 Y156.398
N10490 X58.162 Y156.668 Z-1.08
N10495 X58.484 Y156.792 Z-1.081
N10500 X58.807 Y156.913
N10505 X59.133 Y157.028 Z-1.082
N10510 X59.462 Y157.134
N10515 X59.791 Y157.239 Z-1.083
N10520 X60.456 Y157.424
N10525 X60.792 Y157.503 Z-1.084
N10530 X61.129 Y157.581
N10535 X61.467 Y157.651 Z-1.085
N10540 X61.806 Y157.714
N10545 X62.146 Y157.773 Z-1.086
N10550 X62.83 Y157.87 Z-1.087
N10555 X63.518 Y157.937
N10560 X63.862 Y157.96 Z-1.088
N10565 X64.207 Y157.979
N10570 X64.552 Y157.991 Z-1.089
N10575 X64.897 Y157.995
N10580 X65.243 Y157.997 Z-1.09
N10585 X65.933 Y157.974 Z-1.091
N10590 X66.277 Y157.951
N10595 X66.622 Y157.924 Z-1.092
N10600 X66.965 Y157.89
N10605 X67.308 Y157.849
N10610 X67.651 Y157.804 Z-1.093
N10615 X68.332 Y157.692 Z-1.094
N10620 X68.67 Y157.622
N10625 X69.008 Y157.552 Z-1.095
N10630 X69.344 Y157.471
N10635 X69.679 Y157.386 Z-1.096
N10640 X70.012 Y157.295
N10645 X70.343 Y157.195 Z-1.097
N10650 X70.673 Y157.094
N10655 X71.325 Y156.867 Z-1.098
N10660 X71.647 Y156.742
N10665 X71.968 Y156.614 Z-1.099
N10670 X72.285 Y156.479
N10675 X72.6 Y156.337 Z-1.1
N10680 X72.914 Y156.192
N10685 X73.531 Y155.882 Z-1.101
N10690 X73.833 Y155.715 Z-1.102
N10695 X74.134 Y155.546
N10700 X74.431 Y155.369
N10705 X74.725 Y155.188 Z-1.103
N10710 X75.016 Y155.002
N10715 X75.302 Y154.809 Z-1.104
N10720 X75.587 Y154.614
N10725 X76.141 Y154.202 Z-1.105
N10730 X76.411 Y153.987 Z-1.106
N10735 X76.679 Y153.769
N10740 X76.942 Y153.545
N10745 X77.201 Y153.316 Z-1.107
N10750 X77.457 Y153.085
N10755 X77.953 Y152.604 Z-1.108
N10760 X78.192 Y152.354 Z-1.109
N10765 X78.429 Y152.104
N10770 X78.66 Y151.846 Z-1.11
N10775 X78.886 Y151.586
N10780 X79.109 Y151.322 Z-1.111
N10785 X79.324 Y151.051
N10790 X79.538 Y150.781
N10795 X79.944 Y150.222 Z-1.112
N10800 X80.138 Y149.936 Z-1.113
N10805 X80.328 Y149.648
N10810 X80.513 Y149.356 Z-1.114
N10815 X80.691 Y149.06
N10820 X80.867 Y148.763 Z-1.115
N10825 X81.197 Y148.157 Z-1.116
N10830 X81.35 Y147.847
N10835 X81.502 Y147.537
N10840 X81.645 Y147.223 Z-1.117
N10845 X81.784 Y146.906
N10850 X81.918 Y146.588 Z-1.118
N10855 X82.042 Y146.266
N10860 X82.166 Y145.944 Z-1.119
N10865 X82.387 Y145.289 Z-1.12
N10870 X82.486 Y144.959
N10875 X82.582 Y144.627
N10880 X82.672 Y144.293 Z-1.121
N10885 X82.753 Y143.958
N10890 X82.833 Y143.622 Z-1.122
N10895 X82.967 Y142.944 Z-1.123
N10900 X83.021 Y142.603
N10905 X83.073 Y142.262 Z-1.124
N10910 X83.117 Y141.919
N10915 X83.154 Y141.576 Z-1.125
N10920 X83.187 Y141.232
N10925 X83.232 Y140.543 Z-1.126
N10930 X83.24 Y140.198
N10935 X83.247 Y139.853 Z-1.127
N10940 X83.244 Y139.507
N10945 X83.237 Y139.162 Z-1.128
N10950 X83.223 Y138.817
N10955 X83.2 Y138.472 Z-1.129
N10960 X83.176 Y138.128
N10965 X83.102 Y137.441 Z-1.13
N10970 X83.052 Y137.1
N10975 X83. Y136.758 Z-1.131
N10980 X82.939 Y136.418
N10985 X82.873 Y136.079 Z-1.132
N10990 X82.802 Y135.742
N10995 X82.639 Y135.07 Z-1.133
N11000 X82.543 Y134.738 Z-1.134
N11005 X82.447 Y134.407
N11010 X82.342 Y134.078
N11015 X82.231 Y133.751 Z-1.135
N11020 X82.116 Y133.425
N11025 X81.991 Y133.103 Z-1.136
N11030 X81.866 Y132.782
N11035 X81.589 Y132.149 Z-1.137
N11040 X81.44 Y131.837 Z-1.138
N11045 X81.288 Y131.527
N11050 X81.13 Y131.22 Z-1.139
N11055 X80.965 Y130.917
N11060 X80.797 Y130.615
N11065 X80.441 Y130.023 Z-1.14
N11070 X80.251 Y129.735 Z-1.141
N11075 X80.06 Y129.447
N11080 X79.861 Y129.165 Z-1.142
N11085 X79.658 Y128.885
N11090 X79.451 Y128.609 Z-1.143
N11095 X79.236 Y128.339
N11100 X79.021 Y128.069 Z-1.144
N11105 X78.568 Y127.548
N11110 X78.333 Y127.295 Z-1.145
N11115 X78.095 Y127.044
N11120 X77.852 Y126.798 Z-1.146
N11125 X77.604 Y126.558
N11130 X77.354 Y126.32 Z-1.147
N11135 X76.838 Y125.862 Z-1.148
N11140 X76.57 Y125.643
N11145 X76.302 Y125.425
N11150 X76.029 Y125.215 Z-1.149
N11155 X75.752 Y125.009
N11160 X75.472 Y124.807 Z-1.15
N11165 X75.186 Y124.613
N11170 X74.899 Y124.419 Z-1.151
N11175 X74.312 Y124.057 Z-1.152
N11180 X74.012 Y123.885
N11185 X73.71 Y123.717 Z-1.153
N11190 X73.406 Y123.555
N11195 X73.097 Y123.4
N11200 X72.787 Y123.247 Z-1.154
N11205 X72.157 Y122.964 Z-1.155
N11210 X71.837 Y122.834
N11215 X71.516 Y122.706 Z-1.156
N11220 X71.192 Y122.587
N11225 X70.866 Y122.473 Z-1.157
N11230 X70.539 Y122.364
N11235 X70.208 Y122.264 Z-1.158
N11240 X69.878 Y122.165
N11245 X69.208 Y121.994 Z-1.159
N11250 X68.871 Y121.92
N11255 X68.533 Y121.849 Z-1.16
N11260 X68.194 Y121.785
N11265 X67.853 Y121.729 Z-1.161
N11270 X67.512 Y121.675
N11275 X66.826 Y121.593 Z-1.162
N11280 X66.482 Y121.565 Z-1.163
N11285 X66.138 Y121.539
N11290 X65.793 Y121.521
N11295 X65.448 Y121.51 Z-1.164
N11300 X65.102 Y121.503
N11305 X64.412 Y121.51 Z-1.165
N11310 X64.067 Y121.529 Z-1.166
N11315 X63.722 Y121.547
N11320 X63.378 Y121.577 Z-1.167
N11325 X63.034 Y121.61
N11330 X62.691 Y121.65
N11335 X62.35 Y121.698 Z-1.168
N11340 X62.008 Y121.749
N11345 X61.329 Y121.875 Z-1.169
N11350 X60.992 Y121.95 Z-1.17
N11355 X60.655 Y122.028
N11360 X60.321 Y122.114 Z-1.171
N11365 X59.988 Y122.206
N11370 X59.657 Y122.302 Z-1.172
N11375 X59. Y122.516
N11380 X58.676 Y122.636 Z-1.173
N11385 X58.352 Y122.757
N11390 X58.033 Y122.887 Z-1.174
N11395 X57.715 Y123.022
N11400 X57.399 Y123.162 Z-1.175
N11405 X57.087 Y123.31
N11410 X56.776 Y123.46 Z-1.176
N11415 X56.166 Y123.783 Z-1.177
N11420 X55.866 Y123.955
N11425 X55.569 Y124.13
N11430 X55.275 Y124.311 Z-1.178
N11435 X54.985 Y124.499
N11440 X54.697 Y124.689 Z-1.179
N11445 X54.134 Y125.089 Z-1.18
N11450 X53.86 Y125.3
N11455 X53.588 Y125.512 Z-1.181
N11460 X53.321 Y125.732
N11465 X53.058 Y125.955
N11470 X52.798 Y126.183 Z-1.182
N11475 X52.545 Y126.418
N11480 X52.292 Y126.653 Z-1.183
N11485 X51.806 Y127.144 Z-1.184
N11490 X51.572 Y127.398
N11495 X51.34 Y127.653 Z-1.185
N11500 X51.113 Y127.914
N11505 X50.893 Y128.179 Z-1.186
N11510 X50.674 Y128.447
N11515 X50.256 Y128.997 Z-1.187
N11520 X50.058 Y129.28
N11525 X49.861 Y129.563 Z-1.188
N11530 X49.672 Y129.852
N11535 X49.488 Y130.144 Z-1.189
N11540 X49.307 Y130.439
N11545 X49.136 Y130.738 Z-1.19
N11550 X48.965 Y131.038
N11555 X48.648 Y131.652 Z-1.191
N11560 X48.499 Y131.964
N11565 X48.354 Y132.277 Z-1.192
N11570 X48.216 Y132.593
N11575 X48.084 Y132.913 Z-1.193
N11580 X47.955 Y133.233
N11585 X47.721 Y133.883 Z-1.194
N11590 X47.616 Y134.212 Z-1.195
N11595 X47.513 Y134.541
N11600 X47.418 Y134.873
N11605 X47.329 Y135.207 Z-1.196
N11610 X47.245 Y135.542
N11615 X47.17 Y135.879 Z-1.197
N11620 X47.096 Y136.216
N11625 X46.977 Y136.897 Z-1.198
N11630 X46.928 Y137.238 Z-1.199
N11635 X46.883 Y137.581
N11640 X46.845 Y137.924 Z-1.2
N11645 X46.8 Y138.44
N11650 X46.787 Y138.612
N11655 X46.757 Y139.302 Z-1.201
N11660 X46.755 Y139.647 Z-1.202
N11665 Y139.993
N11670 X46.763 Y140.338 Z-1.203
N11675 X46.778 Y140.683
N11680 X46.797 Y141.028 Z-1.204
N11685 X46.857 Y141.716 Z-1.205
N11690 X46.902 Y142.058
N11695 X46.946 Y142.401
N11700 X47.001 Y142.742 Z-1.206
N11705 X47.061 Y143.082
N11710 X47.126 Y143.421 Z-1.207
N11715 X47.2 Y143.758
N11720 X47.276 Y144.095 Z-1.208
N11725 X47.454 Y144.762 Z-1.209
N11730 X47.554 Y145.093
N11735 X47.658 Y145.422
N11740 X47.768 Y145.749 Z-1.21
N11745 X47.886 Y146.074
N11750 X48.006 Y146.398 Z-1.211
N11755 X48.269 Y147.036 Z-1.212
N11760 X48.413 Y147.35
N11765 X48.558 Y147.664 Z-1.213
N11770 X48.712 Y147.973
N11775 X48.871 Y148.28 Z-1.214
N11780 X49.034 Y148.584
N11785 X49.205 Y148.883
N11790 X49.378 Y149.182 Z-1.215
N11795 X49.747 Y149.766 Z-1.216
N11800 X49.941 Y150.052
N11805 X50.138 Y150.336 Z-1.217
N11810 X50.341 Y150.615
N11815 X50.55 Y150.89 Z-1.218
N11820 X50.762 Y151.163
N11825 X51.203 Y151.694 Z-1.219
N11830 X51.434 Y151.951
N11835 X51.666 Y152.206 Z-1.22
N11840 X51.905 Y152.456
N11845 X52.148 Y152.701 Z-1.221
N11850 X52.394 Y152.943
N11855 X52.648 Y153.178 Z-1.222
N11860 X52.901 Y153.412
N11865 X53.428 Y153.859 Z-1.223
N11870 X53.698 Y154.074
N11875 X53.971 Y154.286 Z-1.224
N11880 X54.248 Y154.492
N11885 X54.529 Y154.692 Z-1.225
N11890 X54.813 Y154.89
N11895 X55.392 Y155.265 Z-1.226
N11900 X55.689 Y155.441 Z-1.227
N11905 X55.987 Y155.616
N11910 X56.29 Y155.783 Z-1.228
N11915 X56.595 Y155.944
N11920 X56.902 Y156.102
N11925 X57.214 Y156.25 Z-1.229
N11930 X57.526 Y156.398
N11935 X58.162 Y156.668 Z-1.23
N11940 X58.484 Y156.792 Z-1.231
N11945 X58.807 Y156.913
N11950 X59.133 Y157.028 Z-1.232
N11955 X59.462 Y157.134
N11960 X59.791 Y157.239 Z-1.233
N11965 X60.456 Y157.424
N11970 X60.792 Y157.503 Z-1.234
N11975 X61.129 Y157.581
N11980 X61.467 Y157.651 Z-1.235
N11985 X61.806 Y157.714
N11990 X62.146 Y157.773 Z-1.236
N11995 X62.83 Y157.87 Z-1.237
N12000 X63.518 Y157.937
N12005 X63.862 Y157.96 Z-1.238
N12010 X64.207 Y157.979
N12015 X64.552 Y157.991 Z-1.239
N12020 X64.897 Y157.995
N12025 X65.243 Y157.997 Z-1.24
N12030 X65.933 Y157.974 Z-1.241
N12035 X66.277 Y157.951
N12040 X66.622 Y157.924 Z-1.242
N12045 X66.965 Y157.89
N12050 X67.308 Y157.849
N12055 X67.651 Y157.804 Z-1.243
N12060 X68.332 Y157.692 Z-1.244
N12065 X68.67 Y157.622
N12070 X69.008 Y157.552 Z-1.245
N12075 X69.344 Y157.471
N12080 X69.679 Y157.386 Z-1.246
N12085 X70.012 Y157.295
N12090 X70.343 Y157.195 Z-1.247
N12095 X70.673 Y157.094
N12100 X71.325 Y156.867 Z-1.248
N12105 X71.647 Y156.742
N12110 X71.968 Y156.614 Z-1.249
N12115 X72.285 Y156.479
N12120 X72.6 Y156.337 Z-1.25
N12125 X72.914 Y156.192
N12130 X73.531 Y155.882 Z-1.251
N12135 X73.833 Y155.715 Z-1.252
N12140 X74.134 Y155.546
N12145 X74.431 Y155.369
N12150 X74.725 Y155.188 Z-1.253
N12155 X75.016 Y155.002
N12160 X75.302 Y154.809 Z-1.254
N12165 X75.587 Y154.614
N12170 X76.141 Y154.202 Z-1.255
N12175 X76.411 Y153.987 Z-1.256
N12180 X76.679 Y153.769
N12185 X76.942 Y153.545
N12190 X77.201 Y153.316 Z-1.257
N12195 X77.457 Y153.085
N12200 X77.953 Y152.604 Z-1.258
N12205 X78.192 Y152.354 Z-1.259
N12210 X78.429 Y152.104
N12215 X78.66 Y151.846 Z-1.26
N12220 X78.886 Y151.586
N12225 X79.109 Y151.322 Z-1.261
N12230 X79.324 Y151.051
N12235 X79.538 Y150.781
N12240 X79.944 Y150.222 Z-1.262
N12245 X80.138 Y149.936 Z-1.263
N12250 X80.328 Y149.648
N12255 X80.513 Y149.356 Z-1.264
N12260 X80.691 Y149.06
N12265 X80.867 Y148.763 Z-1.265
N12270 X81.197 Y148.157 Z-1.266
N12275 X81.35 Y147.847
N12280 X81.502 Y147.537
N12285 X81.645 Y147.223 Z-1.267
N12290 X81.784 Y146.906
N12295 X81.918 Y146.588 Z-1.268
N12300 X82.042 Y146.266
N12305 X82.166 Y145.944 Z-1.269
N12310 X82.387 Y145.289 Z-1.27
N12315 X82.486 Y144.959
N12320 X82.582 Y144.627
N12325 X82.672 Y144.293 Z-1.271
N12330 X82.753 Y143.958
N12335 X82.833 Y143.622 Z-1.272
N12340 X82.967 Y142.944 Z-1.273
N12345 X83.021 Y142.603
N12350 X83.073 Y142.262 Z-1.274
N12355 X83.117 Y141.919
N12360 X83.154 Y141.576 Z-1.275
N12365 X83.187 Y141.232
N12370 X83.232 Y140.543 Z-1.276
N12375 X83.24 Y140.198
N12380 X83.247 Y139.853 Z-1.277
N12385 X83.244 Y139.507
N12390 X83.237 Y139.162 Z-1.278
N12395 X83.223 Y138.817
N12400 X83.2 Y138.472 Z-1.279
N12405 X83.176 Y138.128
N12410 X83.102 Y137.441 Z-1.28
N12415 X83.052 Y137.1
N12420 X83. Y136.758 Z-1.281
N12425 X82.939 Y136.418
N12430 X82.873 Y136.079 Z-1.282
N12435 X82.802 Y135.742
N12440 X82.639 Y135.07 Z-1.283
N12445 X82.543 Y134.738 Z-1.284
N12450 X82.447 Y134.407
N12455 X82.342 Y134.078
N12460 X82.231 Y133.751 Z-1.285
N12465 X82.116 Y133.425
N12470 X81.991 Y133.103 Z-1.286
N12475 X81.866 Y132.782
N12480 X81.589 Y132.149 Z-1.287
N12485 X81.44 Y131.837 Z-1.288
N12490 X81.288 Y131.527
N12495 X81.13 Y131.22 Z-1.289
N12500 X80.965 Y130.917
N12505 X80.797 Y130.615
N12510 X80.441 Y130.023 Z-1.29
N12515 X80.251 Y129.735 Z-1.291
N12520 X80.06 Y129.447
N12525 X79.861 Y129.165 Z-1.292
N12530 X79.658 Y128.885
N12535 X79.451 Y128.609 Z-1.293
N12540 X79.236 Y128.339
N12545 X79.021 Y128.069 Z-1.294
N12550 X78.568 Y127.548
N12555 X78.333 Y127.295 Z-1.295
N12560 X78.095 Y127.044
N12565 X77.852 Y126.798 Z-1.296
N12570 X77.604 Y126.558
N12575 X77.354 Y126.32 Z-1.297
N12580 X76.838 Y125.862 Z-1.298
N12585 X76.57 Y125.643
N12590 X76.302 Y125.425
N12595 X76.029 Y125.215 Z-1.299
N12600 X75.752 Y125.009
N12605 X75.472 Y124.807 Z-1.3
N12610 X75.186 Y124.613
N12615 X74.899 Y124.419 Z-1.301
N12620 X74.312 Y124.057 Z-1.302
N12625 X74.012 Y123.885
N12630 X73.71 Y123.717 Z-1.303
N12635 X73.406 Y123.555
N12640 X73.097 Y123.4
N12645 X72.787 Y123.247 Z-1.304
N12650 X72.157 Y122.964 Z-1.305
N12655 X71.837 Y122.834
N12660 X71.516 Y122.706 Z-1.306
N12665 X71.192 Y122.587
N12670 X70.866 Y122.473 Z-1.307
N12675 X70.539 Y122.364
N12680 X70.208 Y122.264 Z-1.308
N12685 X69.878 Y122.165
N12690 X69.208 Y121.994 Z-1.309
N12695 X68.871 Y121.92
N12700 X68.533 Y121.849 Z-1.31
N12705 X68.194 Y121.785
N12710 X67.853 Y121.729 Z-1.311
N12715 X67.512 Y121.675
N12720 X66.826 Y121.593 Z-1.312
N12725 X66.482 Y121.565 Z-1.313
N12730 X66.138 Y121.539
N12735 X65.793 Y121.521
N12740 X65.448 Y121.51 Z-1.314
N12745 X65.102 Y121.503
N12750 X64.412 Y121.51 Z-1.315
N12755 X64.067 Y121.529 Z-1.316
N12760 X63.722 Y121.547
N12765 X63.378 Y121.577 Z-1.317
N12770 X63.034 Y121.61
N12775 X62.691 Y121.65
N12780 X62.35 Y121.698 Z-1.318
N12785 X62.008 Y121.749
N12790 X61.329 Y121.875 Z-1.319
N12795 X60.992 Y121.95 Z-1.32
N12800 X60.655 Y122.028
N12805 X60.321 Y122.114 Z-1.321
N12810 X59.988 Y122.206
N12815 X59.657 Y122.302 Z-1.322
N12820 X59. Y122.516
N12825 X58.676 Y122.636 Z-1.323
N12830 X58.352 Y122.757
N12835 X58.033 Y122.887 Z-1.324
N12840 X57.715 Y123.022
N12845 X57.399 Y123.162 Z-1.325
N12850 X57.087 Y123.31
N12855 X56.776 Y123.46 Z-1.326
N12860 X56.166 Y123.783 Z-1.327
N12865 X55.866 Y123.955
N12870 X55.569 Y124.13
N12875 X55.275 Y124.311 Z-1.328
N12880 X54.985 Y124.499
N12885 X54.697 Y124.689 Z-1.329
N12890 X54.134 Y125.089 Z-1.33
N12895 X53.86 Y125.3
N12900 X53.588 Y125.512 Z-1.331
N12905 X53.321 Y125.732
N12910 X53.058 Y125.955
N12915 X52.798 Y126.183 Z-1.332
N12920 X52.545 Y126.418
N12925 X52.292 Y126.653 Z-1.333
N12930 X51.806 Y127.144 Z-1.334
N12935 X51.572 Y127.398
N12940 X51.34 Y127.653 Z-1.335
N12945 X51.113 Y127.914
N12950 X50.893 Y128.179 Z-1.336
N12955 X50.674 Y128.447
N12960 X50.256 Y128.997 Z-1.337
N12965 X50.058 Y129.28
N12970 X49.861 Y129.563 Z-1.338
N12975 X49.672 Y129.852
N12980 X49.488 Y130.144 Z-1.339
N12985 X49.307 Y130.439
N12990 X49.136 Y130.738 Z-1.34
N12995 X48.965 Y131.038
N13000 X48.648 Y131.652 Z-1.341
N13005 X48.499 Y131.964
N13010 X48.354 Y132.277 Z-1.342
N13015 X48.216 Y132.593
N13020 X48.084 Y132.913 Z-1.343
N13025 X47.955 Y133.233
N13030 X47.721 Y133.883 Z-1.344
N13035 X47.616 Y134.212 Z-1.345
N13040 X47.513 Y134.541
N13045 X47.418 Y134.873
N13050 X47.329 Y135.207 Z-1.346
N13055 X47.245 Y135.542
N13060 X47.17 Y135.879 Z-1.347
N13065 X47.096 Y136.216
N13070 X46.977 Y136.897 Z-1.348
N13075 X46.928 Y137.238 Z-1.349
N13080 X46.883 Y137.581
N13085 X46.845 Y137.924 Z-1.35
N13090 X46.8 Y138.445
N13095 X46.787 Y138.617
N13100 X46.757 Y139.307 Z-1.351
N13105 X46.755 Y139.652 Z-1.352
N13110 Y139.998
N13115 X46.764 Y140.343 Z-1.353
N13120 X46.779 Y140.688
N13125 X46.798 Y141.033 Z-1.354
N13130 X46.857 Y141.721 Z-1.355
N13135 X46.902 Y142.063
N13140 X46.947 Y142.406
N13145 X47.002 Y142.746 Z-1.356
N13150 X47.062 Y143.087
N13155 X47.127 Y143.426 Z-1.357
N13160 X47.202 Y143.763
N13165 X47.278 Y144.1 Z-1.358
N13170 X47.455 Y144.767 Z-1.359
N13175 X47.556 Y145.097
N13180 X47.659 Y145.427
N13185 X47.77 Y145.754 Z-1.36
N13190 X47.887 Y146.079
N13195 X48.008 Y146.402 Z-1.361
N13200 X48.271 Y147.041 Z-1.362
N13205 X48.415 Y147.355
N13210 X48.56 Y147.668 Z-1.363
N13215 X48.714 Y147.977
N13220 X48.873 Y148.284 Z-1.364
N13225 X49.036 Y148.588
N13230 X49.208 Y148.888
N13235 X49.381 Y149.187 Z-1.365
N13240 X49.75 Y149.771 Z-1.366
N13245 X49.944 Y150.056
N13250 X50.141 Y150.34 Z-1.367
N13255 X50.344 Y150.619
N13260 X50.553 Y150.894 Z-1.368
N13265 X50.765 Y151.167
N13270 X51.206 Y151.698 Z-1.369
N13275 X51.438 Y151.954
N13280 X51.669 Y152.21 Z-1.37
N13285 X51.909 Y152.459
N13290 X52.151 Y152.705 Z-1.371
N13295 X52.398 Y152.946
N13300 X52.651 Y153.181 Z-1.372
N13305 X52.905 Y153.415
N13310 X53.432 Y153.862 Z-1.373
N13315 X53.702 Y154.077
N13320 X53.975 Y154.289 Z-1.374
N13325 X54.252 Y154.495
N13330 X54.533 Y154.695 Z-1.375
N13335 X54.817 Y154.892
N13340 X55.397 Y155.267 Z-1.376
N13345 X55.694 Y155.443 Z-1.377
N13350 X55.992 Y155.618
N13355 X56.294 Y155.785 Z-1.378
N13360 X56.599 Y155.947
N13365 X56.906 Y156.104
N13370 X57.218 Y156.252 Z-1.379
N13375 X57.53 Y156.4
N13380 X58.166 Y156.67 Z-1.38
N13385 X58.489 Y156.794 Z-1.381
N13390 X58.812 Y156.915
N13395 X59.138 Y157.029 Z-1.382
N13400 X59.466 Y157.136
N13405 X59.795 Y157.24 Z-1.383
N13410 X60.461 Y157.425
N13415 X60.797 Y157.505 Z-1.384
N13420 X61.133 Y157.582
N13425 X61.472 Y157.652 Z-1.385
N13430 X61.811 Y157.715
N13435 X62.151 Y157.774 Z-1.386
N13440 X62.493 Y157.822
N13445 X62.835 Y157.87 Z-1.387
N13450 X63.523 Y157.938 Z-1.388
N13455 X63.867 Y157.96
N13460 X64.212 Y157.979
N13465 X64.557 Y157.991 Z-1.389
N13470 X64.902 Y157.995
N13475 X65.248 Y157.997 Z-1.39
N13480 X65.938 Y157.974 Z-1.391
N13485 X66.282 Y157.95
N13490 X66.627 Y157.924 Z-1.392
N13495 X66.97 Y157.889
N13500 X67.313 Y157.848
N13505 X67.656 Y157.803 Z-1.393
N13510 X68.337 Y157.691 Z-1.394
N13515 X68.675 Y157.621
N13520 X69.013 Y157.551 Z-1.395
N13525 X69.349 Y157.47
N13530 X69.684 Y157.385 Z-1.396
N13535 X70.017 Y157.294
N13540 X70.347 Y157.194 Z-1.397
N13545 X70.678 Y157.093
N13550 X71.33 Y156.865 Z-1.398
N13555 X71.651 Y156.74
N13560 X71.972 Y156.612 Z-1.399
N13565 X72.29 Y156.477
N13570 X72.605 Y156.335 Z-1.4
N13575 X72.918 Y156.19
N13580 X73.535 Y155.88 Z-1.401
N13585 X73.837 Y155.712 Z-1.402
N13590 X74.139 Y155.544
N13595 X74.435 Y155.367
N13600 X74.729 Y155.186 Z-1.403
N13605 X75.02 Y155.
N13610 X75.306 Y154.806 Z-1.404
N13615 X75.591 Y154.611
N13620 X76.145 Y154.199 Z-1.405
N13625 X76.415 Y153.983 Z-1.406
N13630 X76.683 Y153.766
N13635 X76.946 Y153.542
N13640 X77.204 Y153.313 Z-1.407
N13645 X77.461 Y153.081
N13650 X77.957 Y152.601 Z-1.408
N13655 X78.195 Y152.351 Z-1.409
N13660 X78.433 Y152.1
N13665 X78.663 Y151.843 Z-1.41
N13670 X78.889 Y151.582
N13675 X79.112 Y151.318 Z-1.411
N13680 X79.327 Y151.047
N13685 X79.541 Y150.777
N13690 X79.947 Y150.218 Z-1.412
N13695 X80.14 Y149.932 Z-1.413
N13700 X80.331 Y149.644
N13705 X80.516 Y149.352 Z-1.414
N13710 X80.694 Y149.056
N13715 X80.869 Y148.759 Z-1.415
N13720 X81.199 Y148.152 Z-1.416
N13725 X81.352 Y147.843
N13730 X81.504 Y147.532
N13735 X81.647 Y147.218 Z-1.417
N13740 X81.786 Y146.902
N13745 X81.919 Y146.583 Z-1.418
N13750 X82.044 Y146.261
N13755 X82.168 Y145.939 Z-1.419
N13760 X82.388 Y145.284 Z-1.42
N13765 X82.488 Y144.954
N13770 X82.584 Y144.622
N13775 X82.673 Y144.289 Z-1.421
N13780 X82.755 Y143.953
N13785 X82.834 Y143.617 Z-1.422
N13790 X82.968 Y142.939 Z-1.423
N13795 X83.022 Y142.598
N13800 X83.074 Y142.257 Z-1.424
N13805 X83.117 Y141.914
N13810 X83.155 Y141.571 Z-1.425
N13815 X83.187 Y141.227
N13820 X83.21 Y140.883
N13825 X83.232 Y140.538 Z-1.426
N13830 X83.247 Y139.848 Z-1.427
N13835 X83.244 Y139.502
N13840 X83.236 Y139.157 Z-1.428
N13845 X83.223 Y138.812
N13850 X83.2 Y138.467 Z-1.429
N13855 X83.176 Y138.123
N13860 X83.101 Y137.436 Z-1.43
N13865 X83.051 Y137.095
N13870 X82.999 Y136.753 Z-1.431
N13875 X82.938 Y136.413
N13880 X82.872 Y136.075 Z-1.432
N13885 X82.801 Y135.737
N13890 X82.638 Y135.065 Z-1.433
N13895 X82.542 Y134.734 Z-1.434
N13900 X82.446 Y134.402
N13905 X82.34 Y134.073
N13910 X82.23 Y133.746 Z-1.435
N13915 X82.114 Y133.421
N13920 X81.99 Y133.099 Z-1.436
N13925 X81.864 Y132.777
N13930 X81.587 Y132.144 Z-1.437
N13935 X81.438 Y131.833 Z-1.438
N13940 X81.286 Y131.522
N13945 X81.127 Y131.216 Z-1.439
N13950 X80.962 Y130.913
N13955 X80.794 Y130.611
N13960 X80.438 Y130.019 Z-1.44
N13965 X80.248 Y129.731 Z-1.441
N13970 X80.057 Y129.443
N13975 X79.858 Y129.161 Z-1.442
N13980 X79.656 Y128.881
N13985 X79.448 Y128.605 Z-1.443
N13990 X79.233 Y128.335
N13995 X79.017 Y128.065 Z-1.444
N14000 X78.564 Y127.544
N14005 X78.329 Y127.291 Z-1.445
N14010 X78.092 Y127.04
N14015 X77.849 Y126.795 Z-1.446
N14020 X77.601 Y126.555
N14025 X77.35 Y126.317 Z-1.447
N14030 X76.834 Y125.858 Z-1.448
N14035 X76.567 Y125.64
N14040 X76.299 Y125.422
N14045 X76.025 Y125.212 Z-1.449
N14050 X75.748 Y125.006
N14055 X75.467 Y124.804 Z-1.45
N14060 X75.182 Y124.61
N14065 X74.895 Y124.417 Z-1.451
N14070 X74.307 Y124.054 Z-1.452
N14075 X74.008 Y123.883
N14080 X73.706 Y123.715 Z-1.453
N14085 X73.401 Y123.553
N14090 X73.093 Y123.397
N14095 X72.783 Y123.245 Z-1.454
N14100 X72.153 Y122.962 Z-1.455
N14105 X71.833 Y122.832
N14110 X71.512 Y122.705 Z-1.456
N14115 X71.188 Y122.585
N14120 X70.862 Y122.472 Z-1.457
N14125 X70.534 Y122.362
N14130 X70.204 Y122.263 Z-1.458
N14135 X69.873 Y122.163
N14140 X69.203 Y121.993 Z-1.459
N14145 X68.866 Y121.919
N14150 X68.528 Y121.848 Z-1.46
N14155 X68.189 Y121.784
N14160 X67.848 Y121.728 Z-1.461
N14165 X67.507 Y121.675
N14170 X66.821 Y121.593 Z-1.462
N14175 X66.477 Y121.565
N14180 X66.133 Y121.538 Z-1.463
N14185 X65.788 Y121.521
N14190 X65.443 Y121.51 Z-1.464
N14195 X65.097 Y121.503
N14200 X64.752 Y121.507 Z-1.465
N14205 X64.407 Y121.51
N14210 X64.062 Y121.529 Z-1.466
N14215 X63.717 Y121.548
N14220 X63.373 Y121.577 Z-1.467
N14225 X63.029 Y121.611
N14230 X62.686 Y121.651
N14235 X62.345 Y121.699 Z-1.468
N14240 X62.003 Y121.749
N14245 X61.324 Y121.876 Z-1.469
N14250 X60.987 Y121.951 Z-1.47
N14255 X60.651 Y122.029
N14260 X60.316 Y122.115 Z-1.471
N14265 X59.983 Y122.208
N14270 X59.652 Y122.304 Z-1.472
N14275 X58.995 Y122.517
N14280 X58.671 Y122.638 Z-1.473
N14285 X58.348 Y122.759
N14290 X58.028 Y122.889 Z-1.474
N14295 X57.71 Y123.024
N14300 X57.394 Y123.164 Z-1.475
N14305 X57.083 Y123.312
N14310 X56.771 Y123.462 Z-1.476
N14315 X56.161 Y123.785 Z-1.477
N14320 X55.862 Y123.958
N14325 X55.564 Y124.133
N14330 X55.271 Y124.314 Z-1.478
N14335 X54.981 Y124.502
N14340 X54.693 Y124.692 Z-1.479
N14345 X54.129 Y125.092 Z-1.48
N14350 X53.856 Y125.303
N14355 X53.584 Y125.515 Z-1.481
N14360 X53.317 Y125.735
N14365 X53.054 Y125.959
N14370 X52.794 Y126.186 Z-1.482
N14375 X52.541 Y126.421
N14380 X52.289 Y126.657 Z-1.483
N14385 X51.803 Y127.148 Z-1.484
N14390 X51.569 Y127.401
N14395 X51.337 Y127.657 Z-1.485
N14400 X51.11 Y127.918
N14405 X50.889 Y128.183 Z-1.486
N14410 X50.671 Y128.451
N14415 X50.253 Y129.001 Z-1.487
N14420 X50.055 Y129.284
N14425 X49.858 Y129.567 Z-1.488
N14430 X49.669 Y129.856
N14435 X49.485 Y130.148 Z-1.489
N14440 X49.305 Y130.443
N14445 X49.133 Y130.743 Z-1.49
N14450 X48.962 Y131.043
N14455 X48.645 Y131.656 Z-1.491
N14460 X48.497 Y131.968
N14465 X48.352 Y132.282 Z-1.492
N14470 X48.214 Y132.598
N14475 X48.082 Y132.917 Z-1.493
N14480 X47.954 Y133.238
N14485 X47.719 Y133.887 Z-1.494
N14490 X47.614 Y134.216 Z-1.495
N14495 X47.511 Y134.546
N14500 X47.417 Y134.878
N14505 X47.328 Y135.212 Z-1.496
N14510 X47.243 Y135.547
N14515 X47.169 Y135.884 Z-1.497
N14520 X47.095 Y136.221
N14525 X46.976 Y136.901 Z-1.498
N14530 X46.927 Y137.243 Z-1.499
N14535 X46.883 Y137.586
N14540 X46.844 Y137.929 Z-1.5
N14545 X46.799 Y138.45
N14550 X46.787 Y138.622
N14555 X46.757 Y139.312 Z-1.501
N14560 X46.755 Y139.657 Z-1.502
N14565 Y140.003
N14570 X46.764 Y140.348 Z-1.503
N14575 X46.779 Y140.693
N14580 X46.798 Y141.038 Z-1.504
N14585 X46.828 Y141.382
N14590 X46.858 Y141.726 Z-1.505
N14595 X46.948 Y142.411
N14600 X47.003 Y142.751 Z-1.506
N14605 X47.063 Y143.092
N14610 X47.128 Y143.431 Z-1.507
N14615 X47.203 Y143.768
N14620 X47.279 Y144.105 Z-1.508
N14625 X47.456 Y144.772 Z-1.509
N14630 X47.557 Y145.102
N14635 X47.661 Y145.432
N14640 X47.772 Y145.759 Z-1.51
N14645 X47.889 Y146.084
N14650 X48.01 Y146.407 Z-1.511
N14655 X48.141 Y146.726
N14660 X48.273 Y147.046 Z-1.512
N14665 X48.417 Y147.359
N14670 X48.562 Y147.673 Z-1.513
N14675 X48.717 Y147.982
N14680 X48.875 Y148.288 Z-1.514
N14685 X49.039 Y148.592
N14690 X49.21 Y148.892
N14695 X49.383 Y149.191 Z-1.515
N14700 X49.752 Y149.775 Z-1.516
N14705 X49.947 Y150.06
N14710 X50.144 Y150.344 Z-1.517
N14715 X50.347 Y150.623
N14720 X50.556 Y150.898 Z-1.518
N14725 X50.768 Y151.17
N14730 X51.209 Y151.702 Z-1.519
N14735 X51.441 Y151.958
N14740 X51.673 Y152.214 Z-1.52
N14745 X51.912 Y152.463
N14750 X52.155 Y152.708 Z-1.521
N14755 X52.402 Y152.95
N14760 X52.655 Y153.185 Z-1.522
N14765 X52.909 Y153.418
N14770 X53.435 Y153.866 Z-1.523
N14775 X53.706 Y154.08
N14780 X53.979 Y154.292 Z-1.524
N14785 X54.256 Y154.498
N14790 X54.538 Y154.698 Z-1.525
N14795 X54.821 Y154.895
N14800 X55.401 Y155.27 Z-1.526
N14805 X55.698 Y155.446 Z-1.527
N14810 X55.996 Y155.621
N14815 X56.298 Y155.787 Z-1.528
N14820 X56.604 Y155.949
N14825 X56.911 Y156.106
N14830 X57.223 Y156.255 Z-1.529
N14835 X57.535 Y156.402
N14840 X58.171 Y156.672 Z-1.53
N14845 X58.493 Y156.796 Z-1.531
N14850 X58.817 Y156.917
N14855 X59.143 Y157.031 Z-1.532
N14860 X59.471 Y157.137
N14865 X59.8 Y157.242 Z-1.533
N14870 X60.466 Y157.426
N14875 X60.802 Y157.506 Z-1.534
N14880 X61.138 Y157.584
N14885 X61.477 Y157.653 Z-1.535
N14890 X61.816 Y157.716
N14895 X62.156 Y157.774 Z-1.536
N14900 X62.498 Y157.823
N14905 X62.84 Y157.871 Z-1.537
N14910 X63.528 Y157.938 Z-1.538
N14915 X63.872 Y157.961
N14920 X64.217 Y157.979
N14925 X64.562 Y157.991 Z-1.539
N14930 X64.907 Y157.995
N14935 X65.253 Y157.996 Z-1.54
N14940 X65.943 Y157.974 Z-1.541
N14945 X66.287 Y157.95
N14950 X66.632 Y157.924 Z-1.542
N14955 X66.975 Y157.889
N14960 X67.318 Y157.848
N14965 X67.66 Y157.802 Z-1.543
N14970 X68.001 Y157.747
N14975 X68.342 Y157.691 Z-1.544
N14980 X68.68 Y157.62
N14985 X69.018 Y157.549 Z-1.545
N14990 X69.354 Y157.469
N14995 X69.688 Y157.383 Z-1.546
N15000 X70.021 Y157.292
N15005 X70.352 Y157.193 Z-1.547
N15010 X70.682 Y157.091
N15015 X71.334 Y156.864 Z-1.548
N15020 X71.656 Y156.738
N15025 X71.977 Y156.61 Z-1.549
N15030 X72.294 Y156.475
N15035 X72.609 Y156.333 Z-1.55
N15040 X72.923 Y156.188
N15045 X73.54 Y155.878 Z-1.551
N15050 X73.842 Y155.71 Z-1.552
N15055 X74.143 Y155.541
N15060 X74.439 Y155.364
N15065 X74.733 Y155.183 Z-1.553
N15070 X75.024 Y154.997
N15075 X75.31 Y154.803 Z-1.554
N15080 X75.595 Y154.608
N15085 X76.149 Y154.196 Z-1.555
N15090 X76.419 Y153.98 Z-1.556
N15095 X76.687 Y153.762
N15100 X76.95 Y153.539
N15105 X77.208 Y153.309 Z-1.557
N15110 X77.464 Y153.078
N15115 X77.96 Y152.597 Z-1.558
N15120 X78.199 Y152.347 Z-1.559
N15125 X78.436 Y152.096
N15130 X78.666 Y151.839 Z-1.56
N15135 X78.893 Y151.578
N15140 X79.115 Y151.314 Z-1.561
N15145 X79.33 Y151.044
N15150 X79.544 Y150.773
N15155 X79.95 Y150.214 Z-1.562
N15160 X80.143 Y149.928 Z-1.563
N15165 X80.334 Y149.64
N15170 X80.518 Y149.348 Z-1.564
N15175 X80.696 Y149.052
N15180 X80.872 Y148.754 Z-1.565
N15185 X81.202 Y148.148 Z-1.566
N15190 X81.354 Y147.838
N15195 X81.506 Y147.528
N15200 X81.649 Y147.214 Z-1.567
N15205 X81.788 Y146.897
N15210 X81.921 Y146.579 Z-1.568
N15215 X82.046 Y146.257
N15220 X82.169 Y145.934 Z-1.569
N15225 X82.39 Y145.28 Z-1.57
N15230 X82.489 Y144.949
N15235 X82.585 Y144.617
N15240 X82.674 Y144.284 Z-1.571
N15245 X82.756 Y143.948
N15250 X82.835 Y143.612 Z-1.572
N15255 X82.969 Y142.934 Z-1.573
N15260 X83.022 Y142.593
N15265 X83.075 Y142.252 Z-1.574
N15270 X83.118 Y141.909
N15275 X83.155 Y141.566 Z-1.575
N15280 X83.188 Y141.222
N15285 X83.21 Y140.878
N15290 X83.232 Y140.533 Z-1.576
N15295 X83.247 Y139.843 Z-1.577
N15300 X83.244 Y139.497
N15305 X83.236 Y139.152 Z-1.578
N15310 X83.222 Y138.807
N15315 X83.2 Y138.462 Z-1.579
N15320 X83.175 Y138.118
N15325 X83.1 Y137.431 Z-1.58
N15330 X83.05 Y137.09
N15335 X82.998 Y136.748 Z-1.581
N15340 X82.937 Y136.408
N15345 X82.871 Y136.07 Z-1.582
N15350 X82.8 Y135.732
N15355 X82.718 Y135.396 Z-1.583
N15360 X82.636 Y135.061
N15365 X82.541 Y134.729 Z-1.584
N15370 X82.445 Y134.397
N15375 X82.339 Y134.069
N15380 X82.228 Y133.741 Z-1.585
N15385 X82.112 Y133.416
N15390 X81.988 Y133.094 Z-1.586
N15395 X81.862 Y132.772
N15400 X81.585 Y132.139 Z-1.587
N15405 X81.436 Y131.828 Z-1.588
N15410 X81.284 Y131.518
N15415 X81.125 Y131.211 Z-1.589
N15420 X80.96 Y130.908
N15425 X80.792 Y130.607
N15430 X80.436 Y130.015 Z-1.59
N15435 X80.245 Y129.727 Z-1.591
N15440 X80.055 Y129.439
N15445 X79.856 Y129.157 Z-1.592
N15450 X79.653 Y128.877
N15455 X79.445 Y128.601 Z-1.593
N15460 X79.23 Y128.331
N15465 X79.014 Y128.062 Z-1.594
N15470 X78.561 Y127.54
N15475 X78.326 Y127.287 Z-1.595
N15480 X78.088 Y127.037
N15485 X77.845 Y126.791 Z-1.596
N15490 X77.597 Y126.551
N15495 X77.347 Y126.313 Z-1.597
N15500 X76.83 Y125.855 Z-1.598
N15505 X76.563 Y125.637
N15510 X76.295 Y125.419
N15515 X76.021 Y125.209 Z-1.599
N15520 X75.744 Y125.003
N15525 X75.463 Y124.801 Z-1.6
N15530 X75.177 Y124.607
N15535 X74.891 Y124.414 Z-1.601
N15540 X74.303 Y124.052 Z-1.602
N15545 X74.003 Y123.881
N15550 X73.702 Y123.712 Z-1.603
N15555 X73.397 Y123.55
N15560 X73.088 Y123.395
N15565 X72.778 Y123.243 Z-1.604
N15570 X72.148 Y122.96 Z-1.605
N15575 X71.828 Y122.831
N15580 X71.507 Y122.703 Z-1.606
N15585 X71.183 Y122.584
N15590 X70.857 Y122.47 Z-1.607
N15595 X70.529 Y122.361
N15600 X70.199 Y122.261 Z-1.608
N15605 X69.868 Y122.162
N15610 X69.199 Y121.992 Z-1.609
N15615 X68.861 Y121.918
N15620 X68.523 Y121.847 Z-1.61
N15625 X68.184 Y121.783
N15630 X67.843 Y121.728 Z-1.611
N15635 X67.502 Y121.674
N15640 X66.816 Y121.592 Z-1.612
N15645 X66.472 Y121.564
N15650 X66.128 Y121.538 Z-1.613
N15655 X65.783 Y121.521
N15660 X65.438 Y121.51 Z-1.614
N15665 X65.092 Y121.503
N15670 X64.747 Y121.507 Z-1.615
N15675 X64.402 Y121.511
N15680 X63.712 Y121.548 Z-1.616
N15685 X63.368 Y121.578 Z-1.617
N15690 X63.024 Y121.611
N15695 X62.682 Y121.651
N15700 X62.34 Y121.7 Z-1.618
N15705 X61.998 Y121.75
N15710 X61.319 Y121.877 Z-1.619
N15715 X60.982 Y121.953 Z-1.62
N15720 X60.646 Y122.03
N15725 X60.311 Y122.117 Z-1.621
N15730 X59.979 Y122.209
N15735 X59.647 Y122.305 Z-1.622
N15740 X59.319 Y122.412
N15745 X58.99 Y122.519
N15750 X58.667 Y122.639 Z-1.623
N15755 X58.343 Y122.76
N15760 X58.023 Y122.891 Z-1.624
N15765 X57.705 Y123.026
N15770 X57.39 Y123.166 Z-1.625
N15775 X57.078 Y123.314
N15780 X56.767 Y123.464 Z-1.626
N15785 X56.157 Y123.788 Z-1.627
N15790 X55.858 Y123.96
N15795 X55.56 Y124.135
N15800 X55.266 Y124.317 Z-1.628
N15805 X54.976 Y124.504
N15810 X54.688 Y124.695 Z-1.629
N15815 X54.125 Y125.095 Z-1.63
N15820 X53.852 Y125.307
N15825 X53.58 Y125.518 Z-1.631
N15830 X53.313 Y125.738
N15835 X53.05 Y125.962
N15840 X52.791 Y126.19 Z-1.632
N15845 X52.537 Y126.424
N15850 X52.285 Y126.66 Z-1.633
N15855 X51.799 Y127.151 Z-1.634
N15860 X51.565 Y127.405
N15865 X51.333 Y127.661 Z-1.635
N15870 X51.107 Y127.922
N15875 X50.886 Y128.187 Z-1.636
N15880 X50.668 Y128.455
N15885 X50.25 Y129.005 Z-1.637
N15890 X50.052 Y129.288
N15895 X49.856 Y129.572 Z-1.638
N15900 X49.667 Y129.861
N15905 X49.482 Y130.153 Z-1.639
N15910 X49.302 Y130.447
N15915 X49.131 Y130.747 Z-1.64
N15920 X48.96 Y131.047
N15925 X48.643 Y131.661 Z-1.641
N15930 X48.495 Y131.973
N15935 X48.35 Y132.286 Z-1.642
N15940 X48.212 Y132.603
N15945 X48.08 Y132.922 Z-1.643
N15950 X47.952 Y133.242
N15955 X47.717 Y133.892 Z-1.644
N15960 X47.613 Y134.221 Z-1.645
N15965 X47.51 Y134.551
N15970 X47.415 Y134.883
N15975 X47.326 Y135.217 Z-1.646
N15980 X47.242 Y135.551
N15985 X47.168 Y135.889 Z-1.647
N15990 X47.094 Y136.226
N15995 X46.975 Y136.906 Z-1.648
N16000 X46.927 Y137.248 Z-1.649
N16005 X46.882 Y137.591
N16010 X46.844 Y137.934 Z-1.65
N16015 X46.799 Y138.455
N16020 X46.787 Y138.627
N16025 X46.757 Y139.317 Z-1.651
N16030 X46.755 Y139.662 Z-1.652
N16035 Y140.008
N16040 X46.764 Y140.353 Z-1.653
N16045 X46.779 Y140.698
N16050 X46.799 Y141.043 Z-1.654
N16055 X46.828 Y141.387
N16060 X46.859 Y141.731 Z-1.655
N16065 X46.948 Y142.416
N16070 X47.004 Y142.756 Z-1.656
N16075 X47.063 Y143.097
N16080 X47.129 Y143.435 Z-1.657
N16085 X47.204 Y143.773
N16090 X47.28 Y144.109 Z-1.658
N16095 X47.458 Y144.777 Z-1.659
N16100 X47.559 Y145.107
N16105 X47.662 Y145.437
N16110 X47.773 Y145.763 Z-1.66
N16115 X47.891 Y146.088
N16120 X48.012 Y146.411 Z-1.661
N16125 X48.143 Y146.731
N16130 X48.275 Y147.05 Z-1.662
N16135 X48.419 Y147.364
N16140 X48.564 Y147.677 Z-1.663
N16145 X48.719 Y147.986
N16150 X48.877 Y148.293 Z-1.664
N16155 X49.041 Y148.597
N16160 X49.213 Y148.896
N16165 X49.386 Y149.195 Z-1.665
N16170 X49.755 Y149.779 Z-1.666
N16175 X49.95 Y150.064
N16180 X50.147 Y150.348 Z-1.667
N16185 X50.35 Y150.627
N16190 X50.559 Y150.902 Z-1.668
N16195 X50.771 Y151.174
N16200 X50.992 Y151.44 Z-1.669
N16205 X51.213 Y151.706
N16210 X51.444 Y151.962
N16215 X51.676 Y152.217 Z-1.67
N16220 X51.916 Y152.466
N16225 X52.158 Y152.712 Z-1.671
N16230 X52.405 Y152.953
N16235 X52.659 Y153.188 Z-1.672
N16240 X52.913 Y153.422
N16245 X53.439 Y153.869 Z-1.673
N16250 X53.71 Y154.083
N16255 X53.983 Y154.295 Z-1.674
N16260 X54.26 Y154.501
N16265 X54.542 Y154.701 Z-1.675
N16270 X54.825 Y154.898
N16275 X55.405 Y155.273 Z-1.676
N16280 X55.702 Y155.448 Z-1.677
N16285 X56. Y155.623
N16290 X56.303 Y155.79 Z-1.678
N16295 X56.608 Y155.951
N16300 X56.916 Y156.108
N16305 X57.227 Y156.257 Z-1.679
N16310 X57.54 Y156.404
N16315 X58.176 Y156.674 Z-1.68
N16320 X58.498 Y156.798 Z-1.681
N16325 X58.821 Y156.918
N16330 X59.147 Y157.032 Z-1.682
N16335 X59.476 Y157.139
N16340 X59.805 Y157.243 Z-1.683
N16345 X60.471 Y157.428
N16350 X60.807 Y157.507 Z-1.684
N16355 X61.143 Y157.585
N16360 X61.482 Y157.653 Z-1.685
N16365 X61.821 Y157.717
N16370 X62.161 Y157.775 Z-1.686
N16375 X62.503 Y157.823
N16380 X62.845 Y157.871 Z-1.687
N16385 X63.533 Y157.939 Z-1.688
N16390 X63.877 Y157.961
N16395 X64.222 Y157.98
N16400 X64.567 Y157.991 Z-1.689
N16405 X64.912 Y157.995
N16410 X65.258 Y157.996 Z-1.69
N16415 X65.948 Y157.974 Z-1.691
N16420 X66.292 Y157.949
N16425 X66.637 Y157.923 Z-1.692
N16430 X66.98 Y157.888
N16435 X67.323 Y157.847
N16440 X67.665 Y157.802 Z-1.693
N16445 X68.006 Y157.746
N16450 X68.347 Y157.69 Z-1.694
N16455 X69.023 Y157.548 Z-1.695
N16460 X69.359 Y157.467
N16465 X69.693 Y157.382 Z-1.696
N16470 X70.026 Y157.291
N16475 X70.357 Y157.191 Z-1.697
N16480 X70.687 Y157.089
N16485 X71.339 Y156.862 Z-1.698
N16490 X71.661 Y156.736
N16495 X71.981 Y156.608 Z-1.699
N16500 X72.299 Y156.473
N16505 X72.614 Y156.331 Z-1.7
N16510 X72.927 Y156.186
N16515 X73.236 Y156.031 Z-1.701
N16520 X73.544 Y155.875
N16525 X73.846 Y155.707 Z-1.702
N16530 X74.147 Y155.539
N16535 X74.444 Y155.362
N16540 X74.738 Y155.18 Z-1.703
N16545 X75.028 Y154.994
N16550 X75.314 Y154.8 Z-1.704
N16555 X75.599 Y154.605
N16560 X76.153 Y154.193 Z-1.705
N16565 X76.423 Y153.977 Z-1.706
N16570 X76.691 Y153.759
N16575 X76.954 Y153.535
N16580 X77.212 Y153.306 Z-1.707
N16585 X77.468 Y153.074
N16590 X77.716 Y152.834 Z-1.708
N16595 X77.964 Y152.594
N16600 X78.202 Y152.343 Z-1.709
N16605 X78.439 Y152.093
N16610 X78.67 Y151.835 Z-1.71
N16615 X78.896 Y151.574
N16620 X79.118 Y151.31 Z-1.711
N16625 X79.333 Y151.04
N16630 X79.547 Y150.768
N16635 X79.953 Y150.21 Z-1.712
N16640 X80.146 Y149.923 Z-1.713
N16645 X80.337 Y149.636
N16650 X80.521 Y149.343 Z-1.714
N16655 X80.699 Y149.048
N16660 X80.874 Y148.75 Z-1.715
N16665 X81.204 Y148.143 Z-1.716
N16670 X81.357 Y147.834
N16675 X81.508 Y147.523
N16680 X81.651 Y147.209 Z-1.717
N16685 X81.79 Y146.893
N16690 X81.923 Y146.574 Z-1.718
N16695 X82.047 Y146.252
N16700 X82.171 Y145.929 Z-1.719
N16705 X82.391 Y145.275 Z-1.72
N16710 X82.491 Y144.944
N16715 X82.586 Y144.612
N16720 X82.675 Y144.279 Z-1.721
N16725 X82.757 Y143.943
N16730 X82.836 Y143.607 Z-1.722
N16735 X82.97 Y142.929 Z-1.723
N16740 X83.023 Y142.588
N16745 X83.075 Y142.247 Z-1.724
N16750 X83.118 Y141.904
N16755 X83.156 Y141.561 Z-1.725
N16760 X83.188 Y141.217
N16765 X83.211 Y140.873
N16770 X83.232 Y140.528 Z-1.726
N16775 X83.247 Y139.838 Z-1.727
N16780 X83.244 Y139.492
N16785 X83.236 Y139.147 Z-1.728
N16790 X83.222 Y138.802
N16795 X83.199 Y138.457 Z-1.729
N16800 X83.175 Y138.113
N16805 X83.1 Y137.426 Z-1.73
N16810 X83.05 Y137.085
N16815 X82.997 Y136.743 Z-1.731
N16820 X82.937 Y136.404
N16825 X82.87 Y136.065 Z-1.732
N16830 X82.798 Y135.727
N16835 X82.717 Y135.391 Z-1.733
N16840 X82.635 Y135.056
N16845 X82.539 Y134.724 Z-1.734
N16850 X82.443 Y134.392
N16855 X82.337 Y134.064
N16860 X82.227 Y133.737 Z-1.735
N16865 X82.11 Y133.411
N16870 X81.986 Y133.089 Z-1.736
N16875 X81.86 Y132.768
N16880 X81.583 Y132.135 Z-1.737
N16885 X81.434 Y131.824 Z-1.738
N16890 X81.282 Y131.513
N16895 X81.123 Y131.207 Z-1.739
N16900 X80.958 Y130.904
N16905 X80.789 Y130.602
N16910 X80.611 Y130.307 Z-1.74
N16915 X80.433 Y130.011
N16920 X80.242 Y129.723 Z-1.741
N16925 X80.052 Y129.435
N16930 X79.853 Y129.153 Z-1.742
N16935 X79.65 Y128.873
N16940 X79.442 Y128.597 Z-1.743
N16945 X79.227 Y128.327
N16950 X79.011 Y128.058 Z-1.744
N16955 X78.558 Y127.536
N16960 X78.322 Y127.284 Z-1.745
N16965 X78.085 Y127.033
N16970 X77.842 Y126.788 Z-1.746
N16975 X77.594 Y126.548
N16980 X77.343 Y126.31 Z-1.747
N16985 X76.826 Y125.852 Z-1.748
N16990 X76.559 Y125.633
N16995 X76.291 Y125.416
N17000 X76.017 Y125.206 Z-1.749
N17005 X75.74 Y125.
N17010 X75.459 Y124.798 Z-1.75
N17015 X75.173 Y124.604
N17020 X74.887 Y124.412 Z-1.751
N17025 X74.299 Y124.049 Z-1.752
N17030 X73.999 Y123.878
N17035 X73.697 Y123.71 Z-1.753
N17040 X73.392 Y123.548
N17045 X73.084 Y123.393
N17050 X72.774 Y123.241 Z-1.754
N17055 X72.144 Y122.958 Z-1.755
N17060 X71.823 Y122.829
N17065 X71.502 Y122.701 Z-1.756
N17070 X71.178 Y122.582
N17075 X70.852 Y122.468 Z-1.757
N17080 X70.525 Y122.359
N17085 X70.194 Y122.26 Z-1.758
N17090 X69.863 Y122.161
N17095 X69.194 Y121.991 Z-1.759
N17100 X68.856 Y121.917
N17105 X68.518 Y121.846 Z-1.76
N17110 X68.179 Y121.783
N17115 X67.838 Y121.727 Z-1.761
N17120 X67.497 Y121.674
N17125 X66.811 Y121.592 Z-1.762
N17130 X66.467 Y121.564
N17135 X66.123 Y121.538 Z-1.763
N17140 X65.778 Y121.521
N17145 X65.433 Y121.509 Z-1.764
N17150 X65.087 Y121.503
N17155 X64.742 Y121.507 Z-1.765
N17160 X64.397 Y121.511
N17165 X63.707 Y121.548 Z-1.766
N17170 X63.363 Y121.578 Z-1.767
N17175 X63.019 Y121.612
N17180 X62.677 Y121.652
N17185 X62.335 Y121.7 Z-1.768
N17190 X61.993 Y121.751
N17195 X61.314 Y121.878 Z-1.769
N17200 X60.977 Y121.954 Z-1.77
N17205 X60.641 Y122.032
N17210 X60.307 Y122.118 Z-1.771
N17215 X59.974 Y122.21
N17220 X59.642 Y122.307 Z-1.772
N17225 X59.314 Y122.414
N17230 X58.985 Y122.521
N17235 X58.662 Y122.641 Z-1.773
N17240 X58.338 Y122.762
N17245 X58.019 Y122.893 Z-1.774
N17250 X57.701 Y123.028
N17255 X57.385 Y123.168 Z-1.775
N17260 X57.074 Y123.316
N17265 X56.763 Y123.467 Z-1.776
N17270 X56.152 Y123.79 Z-1.777
N17275 X55.853 Y123.963
N17280 X55.556 Y124.138
N17285 X55.262 Y124.32 Z-1.778
N17290 X54.972 Y124.507
N17295 X54.684 Y124.698 Z-1.779
N17300 X54.403 Y124.898
N17305 X54.121 Y125.098 Z-1.78
N17310 X53.848 Y125.31
N17315 X53.576 Y125.522 Z-1.781
N17320 X53.31 Y125.741
N17325 X53.046 Y125.965
N17330 X52.787 Y126.193 Z-1.782
N17335 X52.534 Y126.428
N17340 X52.282 Y126.664 Z-1.783
N17345 X51.796 Y127.155 Z-1.784
N17350 X51.562 Y127.409
N17355 X51.33 Y127.664 Z-1.785
N17360 X51.104 Y127.925
N17365 X50.883 Y128.191 Z-1.786
N17370 X50.665 Y128.459
N17375 X50.247 Y129.009 Z-1.787
N17380 X50.05 Y129.292
N17385 X49.853 Y129.576 Z-1.788
N17390 X49.664 Y129.865
N17395 X49.48 Y130.157 Z-1.789
N17400 X49.3 Y130.452
N17405 X49.128 Y130.751 Z-1.79
N17410 X48.958 Y131.052
N17415 X48.641 Y131.665 Z-1.791
N17420 X48.493 Y131.977
N17425 X48.348 Y132.291 Z-1.792
N17430 X48.21 Y132.607
N17435 X48.079 Y132.927 Z-1.793
N17440 X47.95 Y133.247
N17445 X47.715 Y133.897 Z-1.794
N17450 X47.611 Y134.226 Z-1.795
N17455 X47.508 Y134.555
N17460 X47.414 Y134.888
N17465 X47.325 Y135.221 Z-1.796
N17470 X47.241 Y135.556
N17475 X47.167 Y135.894 Z-1.797
N17480 X47.094 Y136.231
N17485 X46.974 Y136.911 Z-1.798
N17490 X46.926 Y137.253 Z-1.799
N17495 X46.881 Y137.596
N17500 X46.844 Y137.939 Z-1.8
N17505 X46.798 Y138.46
N17510 X46.786 Y138.632
N17515 X46.756 Y139.322 Z-1.801
N17520 X46.755 Y139.667 Z-1.802
N17525 Y140.013
N17530 X46.764 Y140.358 Z-1.803
N17535 X46.779 Y140.703
N17540 X46.799 Y141.048 Z-1.804
N17545 X46.829 Y141.392
N17550 X46.859 Y141.736 Z-1.805
N17555 X46.949 Y142.421
N17560 X47.005 Y142.761 Z-1.806
N17565 X47.064 Y143.101
N17570 X47.131 Y143.44 Z-1.807
N17575 X47.205 Y143.778
N17580 X47.281 Y144.114 Z-1.808
N17585 X47.459 Y144.782 Z-1.809
N17590 X47.56 Y145.112
N17595 X47.664 Y145.441
N17600 X47.775 Y145.768 Z-1.81
N17605 X47.892 Y146.093
N17610 X48.014 Y146.416 Z-1.811
N17615 X48.145 Y146.736
N17620 X48.277 Y147.055 Z-1.812
N17625 X48.422 Y147.368
N17630 X48.567 Y147.682 Z-1.813
N17635 X48.721 Y147.99
N17640 X48.88 Y148.297 Z-1.814
N17645 X49.044 Y148.601
N17650 X49.215 Y148.901
N17655 X49.389 Y149.199 Z-1.815
N17660 X49.758 Y149.783 Z-1.816
N17665 X49.953 Y150.068
N17670 X50.15 Y150.352 Z-1.817
N17675 X50.353 Y150.631
N17680 X50.562 Y150.906 Z-1.818
N17685 X50.774 Y151.178
N17690 X50.995 Y151.444 Z-1.819
N17695 X51.216 Y151.709
N17700 X51.448 Y151.965
N17705 X51.68 Y152.221 Z-1.82
N17710 X51.919 Y152.47
N17715 X52.162 Y152.715 Z-1.821
N17720 X52.409 Y152.957
N17725 X52.662 Y153.191 Z-1.822
N17730 X52.917 Y153.425
