%
(RAMP)
(T10  D=6. CR=3. - ZMIN=-25. - BALL END MILL)
N10 G90 G94 G17 G91.1
N15 G21
N20 G53 G0 Z0.
(RAMP1)
N25 M9
N30 T10 M6
N35 S22000 M3
N40 G54
N45 M8
N50 G0 X44.044 Y137.524
N55 G43 Z15. H10
N60 G0 Z1.997
N65 G1 Z0. F500.
N70 G3 X45.027 Y138.036 I0.386 J0.459
N75 G1 X45. Y138.35 Z-0.001 F1000.
N80 X44.989 Y138.515
N85 X44.96 Y139.172 Z-0.002
N90 X44.954 Y139.337 Z-0.003
N95 Y140.158 Z-0.004
N100 X44.96 Y140.323 Z-0.005
N105 X44.988 Y140.98 Z-0.006
N110 X45. Y141.145
N115 X45.057 Y141.802 Z-0.007
N120 X45.073 Y141.967 Z-0.008
N125 X45.159 Y142.624 Z-0.009
N130 X45.181 Y142.788
N135 X45.325 Y143.61 Z-0.011
N140 X45.356 Y143.757
N145 X45.505 Y144.432 Z-0.013
N150 X45.521 Y144.501
N155 X45.721 Y145.254 Z-0.014
N160 X45.769 Y145.418 Z-0.015
N165 X45.975 Y146.076 Z-0.016
N170 X46.014 Y146.193
N175 X46.268 Y146.898 Z-0.018
N180 X46.332 Y147.062
N185 X46.602 Y147.72 Z-0.02
N190 X46.671 Y147.874
N195 X46.98 Y148.542 Z-0.021
N200 X47. Y148.582 Z-0.022
N205 X47.329 Y149.219 Z-0.023
N210 X47.405 Y149.363
N215 X47.781 Y150.021 Z-0.025
N220 X47.822 Y150.091
N225 X48.193 Y150.678 Z-0.026
N230 X48.298 Y150.843 Z-0.027
N235 X48.754 Y151.5 Z-0.028
N240 X48.808 Y151.574 Z-0.029
N245 X49.301 Y152.223 Z-0.03
N250 X49.383 Y152.322
N255 X49.795 Y152.817 Z-0.032
N260 X49.936 Y152.98
N265 X50.383 Y153.473 Z-0.033
N270 X50.452 Y153.548 Z-0.034
N275 X51.028 Y154.13 Z-0.035
N280 X51.11 Y154.208
N285 X51.603 Y154.665 Z-0.037
N290 X51.739 Y154.788
N295 X52.32 Y155.281 Z-0.039
N300 X52.425 Y155.365
N305 X52.951 Y155.774 Z-0.04
N310 X53.082 Y155.873 Z-0.041
N315 X53.74 Y156.34 Z-0.042
N320 X53.88 Y156.432 Z-0.043
N325 X54.397 Y156.766 Z-0.044
N330 X54.562 Y156.867
N335 X55.22 Y157.253 Z-0.046
N340 X55.384 Y157.341
N345 X55.877 Y157.602 Z-0.047
N350 X56.041 Y157.687
N355 X56.699 Y158. Z-0.049
N360 X56.863 Y158.074
N365 X57.521 Y158.352 Z-0.051
N370 X57.652 Y158.404
N375 X58.342 Y158.662 Z-0.052
N380 X58.507 Y158.718 Z-0.053
N385 X59.164 Y158.932 Z-0.054
N390 X59.329 Y158.98
N395 X59.986 Y159.162 Z-0.056
N400 X60.151 Y159.204
N405 X60.808 Y159.356 Z-0.058
N410 X60.971 Y159.39
N415 X61.63 Y159.513 Z-0.059
N420 X61.795 Y159.542 Z-0.06
N425 X62.616 Y159.659 Z-0.061
N430 X63.438 Y159.739 Z-0.063
N435 X63.603 Y159.75
N440 X64.26 Y159.785 Z-0.064
N445 X64.425 Y159.791 Z-0.065
N450 X65.082 Y159.798 Z-0.066
N455 X65.247 Y159.799
N460 X66.068 Y159.772 Z-0.068
N465 X66.233 Y159.76
N470 X66.89 Y159.71 Z-0.07
N475 X67.055 Y159.693
N480 X67.712 Y159.614 Z-0.071
N485 X67.877 Y159.592 Z-0.072
N490 X68.534 Y159.484 Z-0.073
N495 X68.699 Y159.456
N500 X69.521 Y159.284 Z-0.075
N505 X69.685 Y159.243
N510 X70.342 Y159.075 Z-0.077
N515 X70.392 Y159.062
N520 X71.164 Y158.829 Z-0.078
N525 X71.329 Y158.773 Z-0.079
N530 X71.986 Y158.544 Z-0.08
N535 X72.151 Y158.48
N540 X72.808 Y158.218 Z-0.082
N545 X72.973 Y158.144
N550 X73.492 Y157.911 Z-0.083
N555 X73.63 Y157.848 Z-0.084
N560 X74.288 Y157.518 Z-0.085
N565 X74.452 Y157.432
N570 X75.11 Y157.064 Z-0.087
N575 X75.274 Y156.965
N580 X75.873 Y156.596 Z-0.089
N585 X75.932 Y156.558
N590 X76.602 Y156.103 Z-0.09
N595 X76.753 Y155.991 Z-0.091
N600 X77.266 Y155.61 Z-0.092
N605 X77.411 Y155.495
N610 X77.904 Y155.094 Z-0.094
N615 X78.069 Y154.954
N620 X78.626 Y154.459 Z-0.096
N625 X78.726 Y154.363
N630 X79.219 Y153.885 Z-0.097
N635 X79.301 Y153.802 Z-0.098
N640 X79.769 Y153.308 Z-0.099
N645 X79.877 Y153.192
N650 X80.37 Y152.624 Z-0.101
N655 X80.483 Y152.487
N660 X80.875 Y151.993 Z-0.102
N665 X81.002 Y151.829 Z-0.103
N670 X81.361 Y151.336 Z-0.104
N675 X81.479 Y151.172
N680 X81.915 Y150.514 Z-0.106
N685 X82.014 Y150.356
N690 X82.342 Y149.809 Z-0.107
N695 X82.412 Y149.692 Z-0.108
N700 X82.769 Y149.035 Z-0.109
N705 X82.836 Y148.909 Z-0.11
N710 X83.176 Y148.213 Z-0.111
N715 X83.25 Y148.048
N720 X83.537 Y147.391 Z-0.113
N725 X83.602 Y147.227
N730 X83.855 Y146.569 Z-0.115
N735 X83.911 Y146.405
N740 X84.133 Y145.747 Z-0.116
N745 X84.151 Y145.686
N750 X84.371 Y144.925 Z-0.118
N755 X84.412 Y144.761
N760 X84.572 Y144.103 Z-0.12
N765 X84.606 Y143.939
N770 X84.736 Y143.282 Z-0.121
N775 X84.764 Y143.117 Z-0.122
N780 X84.865 Y142.46 Z-0.123
N785 X84.887 Y142.295
N790 X84.973 Y141.512 Z-0.125
N795 X84.976 Y141.473
N800 X85.03 Y140.652 Z-0.127
N805 X85.035 Y140.487
N810 X85.049 Y139.83 Z-0.128
N815 Y139.665 Z-0.129
N820 X85.035 Y139.008 Z-0.13
N825 X85.029 Y138.843
N830 X84.976 Y138.022 Z-0.132
N835 X84.973 Y137.988
N840 X84.887 Y137.2 Z-0.133
N845 X84.864 Y137.035 Z-0.134
N850 X84.763 Y136.378 Z-0.135
N855 X84.735 Y136.213
N860 X84.605 Y135.556 Z-0.137
N865 X84.57 Y135.392
N870 X84.411 Y134.734 Z-0.138
N875 X84.369 Y134.57 Z-0.139
N880 X84.151 Y133.814 Z-0.14
N885 X84.131 Y133.748 Z-0.141
N890 X83.909 Y133.09 Z-0.142
N895 X83.854 Y132.926
N900 X83.6 Y132.268 Z-0.144
N905 X83.535 Y132.104
N910 X83.248 Y131.447 Z-0.145
N915 X83.174 Y131.282 Z-0.146
N920 X82.836 Y130.591 Z-0.147
N925 X82.767 Y130.46 Z-0.148
N930 X82.409 Y129.803 Z-0.149
N935 X82.342 Y129.691
N940 X82.014 Y129.144 Z-0.151
N945 X81.912 Y128.981
N950 X81.476 Y128.323 Z-0.153
N955 X81.357 Y128.159
N960 X80.999 Y127.666 Z-0.154
N965 X80.871 Y127.502 Z-0.155
N970 X80.479 Y127.008 Z-0.156
N975 X80.37 Y126.876
N980 X79.877 Y126.308 Z-0.158
N985 X79.764 Y126.187
N990 X79.297 Y125.693 Z-0.159
N995 X79.219 Y125.615 Z-0.16
N1000 X78.726 Y125.137 Z-0.161
N1005 X78.62 Y125.036
N1010 X78.065 Y124.543 Z-0.163
N1015 X77.904 Y124.406
N1020 X77.411 Y124.005 Z-0.164
N1025 X77.26 Y123.885 Z-0.165
N1030 X76.753 Y123.509 Z-0.166
N1035 X76.595 Y123.392
N1040 X75.932 Y122.942 Z-0.168
N1045 X75.865 Y122.899
N1050 X75.274 Y122.535 Z-0.169
N1055 X75.11 Y122.436 Z-0.17
N1060 X74.452 Y122.068 Z-0.171
N1065 X74.288 Y121.982 Z-0.172
N1070 X73.63 Y121.652 Z-0.173
N1075 X73.481 Y121.584 Z-0.174
N1080 X72.973 Y121.356 Z-0.175
N1085 X72.808 Y121.282
N1090 X72.151 Y121.02 Z-0.176
N1095 X71.986 Y120.956 Z-0.177
N1100 X71.329 Y120.727 Z-0.178
N1105 X71.164 Y120.671
N1110 X70.375 Y120.433 Z-0.18
N1115 X70.342 Y120.425
N1120 X69.685 Y120.257 Z-0.182
N1125 X69.521 Y120.216
N1130 X68.699 Y120.044 Z-0.184
N1135 X68.534 Y120.016
N1140 X67.877 Y119.908 Z-0.185
N1145 X67.712 Y119.886 Z-0.186
N1150 X67.055 Y119.807 Z-0.187
N1155 X66.89 Y119.79
N1160 X66.233 Y119.74 Z-0.188
N1165 X66.068 Y119.728 Z-0.189
N1170 X65.247 Y119.701 Z-0.19
N1175 X65.082 Y119.702 Z-0.191
N1180 X64.425 Y119.709 Z-0.192
N1185 X64.26 Y119.715
N1190 X63.603 Y119.75 Z-0.194
N1195 X63.438 Y119.761
N1200 X62.616 Y119.841 Z-0.196
N1205 X61.795 Y119.958 Z-0.197
N1210 X61.63 Y119.987 Z-0.198
N1215 X60.973 Y120.109 Z-0.199
N1220 X60.808 Y120.144
N1225 X60.151 Y120.296 Z-0.201
N1230 X59.986 Y120.338
N1235 X59.329 Y120.52 Z-0.202
N1240 X59.164 Y120.568 Z-0.203
N1245 X58.507 Y120.782 Z-0.204
N1250 X58.342 Y120.838
N1255 X57.665 Y121.091 Z-0.206
N1260 X57.521 Y121.148
N1265 X56.863 Y121.426 Z-0.208
N1270 X56.699 Y121.5
N1275 X56.041 Y121.813 Z-0.209
N1280 X55.877 Y121.898 Z-0.21
N1285 X55.228 Y122.242 Z-0.211
N1290 X55.219 Y122.247
N1295 X54.562 Y122.633 Z-0.213
N1300 X54.397 Y122.734
N1305 X53.888 Y123.063 Z-0.214
N1310 X53.74 Y123.16 Z-0.215
N1315 X53.082 Y123.627 Z-0.216
N1320 X52.957 Y123.721 Z-0.217
N1325 X52.425 Y124.135 Z-0.218
N1330 X52.326 Y124.214
N1335 X51.745 Y124.707 Z-0.22
N1340 X51.603 Y124.835
N1345 X51.11 Y125.292 Z-0.221
N1350 X51.033 Y125.365 Z-0.222
N1355 X50.452 Y125.952 Z-0.223
N1360 X50.388 Y126.022
N1365 X49.941 Y126.515 Z-0.225
N1370 X49.797 Y126.68
N1375 X49.387 Y127.173 Z-0.226
N1380 X49.301 Y127.277 Z-0.227
N1385 X48.808 Y127.926 Z-0.228
N1390 X48.758 Y127.995
N1395 X48.301 Y128.652 Z-0.23
N1400 X48.196 Y128.817
N1405 X47.822 Y129.409 Z-0.232
N1410 X47.784 Y129.474
N1415 X47.408 Y130.132 Z-0.233
N1420 X47.329 Y130.281 Z-0.234
N1425 X47. Y130.918 Z-0.235
N1430 X46.982 Y130.953
N1435 X46.671 Y131.626 Z-0.237
N1440 X46.604 Y131.775
N1445 X46.334 Y132.433 Z-0.239
N1450 X46.27 Y132.597
N1455 X46.014 Y133.307 Z-0.24
N1460 X45.977 Y133.419 Z-0.241
N1465 X45.771 Y134.077 Z-0.242
N1470 X45.722 Y134.241
N1475 X45.521 Y134.999 Z-0.244
N1480 X45.506 Y135.063
N1485 X45.356 Y135.743 Z-0.245
N1490 X45.326 Y135.885 Z-0.246
N1495 X45.182 Y136.707 Z-0.247
N1500 X45.16 Y136.871 Z-0.248
N1505 X45.074 Y137.528 Z-0.249
N1510 X45.057 Y137.693
N1515 X45.027 Y138.036 Z-0.25
N1520 G3 X46.085 Y137.702 I0.598 J0.052 F500.
N1525 G0 Z5.
N1530 X46.011 Y138.547
N1535 Z1.479
N1540 G1 Z-0.25 F500.
N1545 G3 X45.027 Y138.036 I-0.386 J-0.459
N1550 G1 X44.999 Y138.385 Z-0.251 F1000.
N1555 X44.989 Y138.565
N1560 X44.961 Y139.273 Z-0.252
N1565 X44.96 Y139.456 Z-0.253
N1570 X44.964 Y140.148 Z-0.254
N1575 X44.971 Y140.33 Z-0.255
N1580 X45.005 Y141.04 Z-0.256
N1585 X45.021 Y141.222
N1590 X45.069 Y141.745 Z-0.257
N1595 X45.085 Y141.925 Z-0.258
N1600 X45.179 Y142.615 Z-0.259
N1605 X45.204 Y142.795
N1610 X45.329 Y143.489 Z-0.261
N1615 X45.361 Y143.662
N1620 X45.515 Y144.348 Z-0.263
N1625 X45.558 Y144.526
N1630 X45.743 Y145.211 Z-0.264
N1635 X45.794 Y145.386 Z-0.265
N1640 X46.006 Y146.052 Z-0.266
N1645 X46.063 Y146.221
N1650 X46.304 Y146.88 Z-0.268
N1655 X46.37 Y147.046
N1660 X46.638 Y147.691 Z-0.27
N1665 X46.713 Y147.857
N1670 X47.013 Y148.5 Z-0.271
N1675 X47.096 Y148.662 Z-0.272
N1680 X47.419 Y149.281 Z-0.273
N1685 X47.507 Y149.436 Z-0.274
N1690 X47.86 Y150.047 Z-0.275
N1695 X47.957 Y150.2
N1700 X48.24 Y150.643 Z-0.276
N1705 X48.336 Y150.794 Z-0.277
N1710 X48.735 Y151.364 Z-0.278
N1715 X48.84 Y151.512
N1720 X49.269 Y152.071 Z-0.28
N1725 X49.378 Y152.211
N1730 X49.831 Y152.752 Z-0.282
N1735 X49.947 Y152.887
N1740 X50.423 Y153.407 Z-0.283
N1745 X50.548 Y153.539 Z-0.284
N1750 X51.036 Y154.028 Z-0.285
N1755 X51.167 Y154.154
N1760 X51.688 Y154.633 Z-0.287
N1765 X51.824 Y154.753
N1770 X52.353 Y155.198 Z-0.289
N1775 X52.495 Y155.311
N1780 X53.055 Y155.743 Z-0.29
N1785 X53.202 Y155.849 Z-0.291
N1790 X53.775 Y156.252 Z-0.292
N1795 X53.923 Y156.348
N1800 X54.514 Y156.727 Z-0.294
N1805 X54.67 Y156.819
N1810 X55.122 Y157.082 Z-0.295
N1815 X55.276 Y157.171 Z-0.296
N1820 X55.894 Y157.495 Z-0.297
N1825 X56.054 Y157.579
N1830 X56.689 Y157.878 Z-0.299
N1835 X56.849 Y157.952
N1840 X57.495 Y158.222 Z-0.3
N1845 X57.662 Y158.29 Z-0.301
N1850 X58.324 Y158.534 Z-0.302
N1855 X58.493 Y158.594 Z-0.303
N1860 X59.154 Y158.805 Z-0.304
N1865 X59.326 Y158.857
N1870 X60.007 Y159.043 Z-0.306
N1875 X60.181 Y159.086
N1880 X60.857 Y159.24 Z-0.307
N1885 X61.034 Y159.275 Z-0.308
N1890 X61.726 Y159.401 Z-0.309
N1895 X61.903 Y159.428 Z-0.31
N1900 X62.601 Y159.524 Z-0.311
N1905 X62.775 Y159.542
N1910 X63.473 Y159.607 Z-0.313
N1915 X63.652 Y159.617
N1920 X64.348 Y159.652 Z-0.314
N1925 X64.525 Y159.653 Z-0.315
N1930 X65.048 Y159.657 Z-0.316
N1935 X65.228 Y159.658
N1940 X65.933 Y159.632 Z-0.318
N1945 X66.112 Y159.624
N1950 X66.802 Y159.569 Z-0.319
N1955 X66.98 Y159.553 Z-0.32
N1960 X67.678 Y159.466 Z-0.321
N1965 X67.855 Y159.442
N1970 X68.54 Y159.327 Z-0.323
N1975 X68.716 Y159.294
N1980 X69.403 Y159.147 Z-0.325
N1985 X69.575 Y159.107
N1990 X70.249 Y158.932 Z-0.326
N1995 X70.422 Y158.883 Z-0.327
N2000 X71.095 Y158.677 Z-0.328
N2005 X71.265 Y158.62
N2010 X71.917 Y158.389 Z-0.33
N2015 X72.084 Y158.324
N2020 X72.737 Y158.061 Z-0.332
N2025 X72.9 Y157.988
N2030 X73.533 Y157.7 Z-0.333
N2035 X73.691 Y157.62 Z-0.334
N2040 X74.158 Y157.384 Z-0.335
N2045 X74.317 Y157.302
N2050 X74.926 Y156.959 Z-0.336
N2055 X75.077 Y156.873 Z-0.337
N2060 X75.672 Y156.503 Z-0.338
N2065 X75.823 Y156.407
N2070 X76.402 Y156.012 Z-0.34
N2075 X76.546 Y155.91
N2080 X77.107 Y155.49 Z-0.342
N2085 X77.246 Y155.381
N2090 X77.788 Y154.937 Z-0.343
N2095 X77.924 Y154.821 Z-0.344
N2100 X78.439 Y154.36 Z-0.345
N2105 X78.569 Y154.238
N2110 X79.072 Y153.747 Z-0.347
N2115 X79.196 Y153.619
N2120 X79.673 Y153.112 Z-0.349
N2125 X79.789 Y152.98
N2130 X80.246 Y152.449 Z-0.35
N2135 X80.358 Y152.31 Z-0.351
N2140 X80.79 Y151.761 Z-0.352
N2145 X80.893 Y151.62
N2150 X81.197 Y151.197 Z-0.353
N2155 X81.301 Y151.053 Z-0.354
N2160 X81.684 Y150.469 Z-0.355
N2165 X81.779 Y150.323 Z-0.356
N2170 X82.138 Y149.723 Z-0.357
N2175 X82.227 Y149.569
N2180 X82.56 Y148.951 Z-0.359
N2185 X82.643 Y148.793
N2190 X82.944 Y148.171 Z-0.36
N2195 X83.019 Y148.01 Z-0.361
N2200 X83.297 Y147.367 Z-0.362
N2205 X83.364 Y147.203
N2210 X83.611 Y146.555 Z-0.364
N2215 X83.67 Y146.387
N2220 X83.892 Y145.722 Z-0.366
N2225 X83.943 Y145.552
N2230 X84.133 Y144.886 Z-0.367
N2235 X84.176 Y144.714 Z-0.368
N2240 X84.339 Y144.033 Z-0.369
N2245 X84.374 Y143.859
N2250 X84.505 Y143.179 Z-0.371
N2255 X84.532 Y143.004
N2260 X84.609 Y142.487 Z-0.372
N2265 X84.635 Y142.312 Z-0.373
N2270 X84.708 Y141.616 Z-0.374
N2275 X84.726 Y141.44
N2280 X84.768 Y140.748 Z-0.376
N2285 X84.778 Y140.571
N2290 X84.79 Y139.873 Z-0.377
N2295 X84.791 Y139.698 Z-0.378
N2300 X84.774 Y139. Z-0.379
N2305 X84.766 Y138.824
N2310 X84.718 Y138.127 Z-0.381
N2315 X84.702 Y137.951
N2320 X84.625 Y137.263 Z-0.383
N2325 X84.601 Y137.088
N2330 X84.493 Y136.397 Z-0.384
N2335 X84.461 Y136.223 Z-0.385
N2340 X84.324 Y135.545 Z-0.386
N2345 X84.284 Y135.373
N2350 X84.117 Y134.694 Z-0.388
N2355 X84.068 Y134.525
N2360 X83.871 Y133.854 Z-0.39
N2365 X83.816 Y133.689
N2370 X83.648 Y133.198 Z-0.391
N2375 X83.591 Y133.031
N2380 X83.338 Y132.382 Z-0.393
N2385 X83.275 Y132.221
N2390 X82.993 Y131.583 Z-0.394
N2395 X82.921 Y131.422 Z-0.395
N2400 X82.612 Y130.796 Z-0.396
N2405 X82.532 Y130.639
N2410 X82.199 Y130.032 Z-0.398
N2415 X82.111 Y129.878
N2420 X81.749 Y129.281 Z-0.4
N2425 X81.655 Y129.132
N2430 X81.269 Y128.554 Z-0.401
N2435 X81.168 Y128.411 Z-0.402
N2440 X80.757 Y127.849 Z-0.403
N2445 X80.649 Y127.71
N2450 X80.216 Y127.169 Z-0.405
N2455 X80.102 Y127.035
N2460 X79.643 Y126.51 Z-0.407
N2465 X79.523 Y126.382
N2470 X79.043 Y125.88 Z-0.408
N2475 X78.918 Y125.758 Z-0.409
N2480 X78.543 Y125.397 Z-0.41
N2485 X78.416 Y125.275
N2490 X77.893 Y124.815 Z-0.411
N2495 X77.762 Y124.7 Z-0.412
N2500 X77.222 Y124.264 Z-0.413
N2505 X77.084 Y124.155
N2510 X76.524 Y123.741 Z-0.415
N2515 X76.383 Y123.64
N2520 X75.806 Y123.251 Z-0.417
N2525 X75.659 Y123.156
N2530 X75.065 Y122.792 Z-0.418
N2535 X74.914 Y122.704 Z-0.419
N2540 X74.307 Y122.367 Z-0.42
N2545 X74.152 Y122.286
N2550 X73.529 Y121.976 Z-0.422
N2555 X73.371 Y121.902
N2560 X72.738 Y121.62 Z-0.423
N2565 X72.576 Y121.554 Z-0.424
N2570 X71.928 Y121.298 Z-0.425
N2575 X71.762 Y121.24 Z-0.426
N2580 X71.107 Y121.013 Z-0.427
N2585 X70.94 Y120.963
N2590 X70.273 Y120.764 Z-0.429
N2595 X70.103 Y120.722
N2600 X69.599 Y120.595 Z-0.43
N2605 X69.431 Y120.554
N2610 X68.75 Y120.414 Z-0.432
N2615 X68.578 Y120.38
N2620 X67.891 Y120.269 Z-0.433
N2625 X67.718 Y120.244 Z-0.434
N2630 X67.031 Y120.164 Z-0.435
N2635 X66.857 Y120.146 Z-0.436
N2640 X66.163 Y120.096 Z-0.437
N2645 X65.988 Y120.086
N2650 X65.297 Y120.066 Z-0.439
N2655 X65.122 Y120.065
N2660 X64.427 Y120.075 Z-0.44
N2665 X64.252 Y120.082 Z-0.441
N2670 X63.56 Y120.122 Z-0.442
N2675 X63.386 Y120.137
N2680 X62.696 Y120.207 Z-0.444
N2685 X62.522 Y120.23
N2690 X61.837 Y120.33 Z-0.446
N2695 X61.666 Y120.361
N2700 X60.983 Y120.491 Z-0.447
N2705 X60.813 Y120.531 Z-0.448
N2710 X60.307 Y120.649 Z-0.449
N2715 X60.138 Y120.69
N2720 X59.471 Y120.877 Z-0.45
N2725 X59.303 Y120.926 Z-0.451
N2730 X58.643 Y121.142 Z-0.452
N2735 X58.478 Y121.199
N2740 X57.831 Y121.443 Z-0.454
N2745 X57.669 Y121.506
N2750 X57.03 Y121.78 Z-0.456
N2755 X56.871 Y121.851
N2760 X56.248 Y122.15 Z-0.457
N2765 X56.092 Y122.229 Z-0.458
N2770 X55.48 Y122.556 Z-0.459
N2775 X55.329 Y122.642
N2780 X54.733 Y122.994 Z-0.461
N2785 X54.586 Y123.087
N2790 X54.005 Y123.466 Z-0.462
N2795 X53.862 Y123.566 Z-0.463
N2800 X53.299 Y123.968 Z-0.464
N2805 X53.162 Y124.075 Z-0.465
N2810 X52.615 Y124.502 Z-0.466
N2815 X52.483 Y124.615
N2820 X52.088 Y124.952 Z-0.467
N2825 X51.957 Y125.065 Z-0.468
N2830 X51.45 Y125.538 Z-0.469
N2835 X51.324 Y125.657
N2840 X50.838 Y126.151 Z-0.471
N2845 X50.717 Y126.277
N2850 X50.254 Y126.79 Z-0.472
N2855 X50.14 Y126.921 Z-0.473
N2860 X49.698 Y127.456 Z-0.474
N2865 X49.59 Y127.592
N2870 X49.173 Y128.144 Z-0.476
N2875 X49.071 Y128.284
N2880 X48.678 Y128.855 Z-0.478
N2885 X48.583 Y129.
N2890 X48.216 Y129.586 Z-0.479
N2895 X48.128 Y129.735 Z-0.48
N2900 X47.786 Y130.338 Z-0.481
N2905 X47.705 Y130.491
N2910 X47.389 Y131.108 Z-0.483
N2915 X47.244 Y131.421
N2920 X47.027 Y131.893 Z-0.484
N2925 X46.962 Y132.054 Z-0.485
N2930 X46.831 Y132.374
N2935 X46.701 Y132.695 Z-0.486
N2940 X46.468 Y133.346 Z-0.488
N2945 X46.41 Y133.51
N2950 X46.205 Y134.171 Z-0.489
N2955 X46.156 Y134.337 Z-0.49
N2960 X45.98 Y135.006 Z-0.491
N2965 X45.938 Y135.174
N2970 X45.828 Y135.681 Z-0.492
N2975 X45.758 Y136.019 Z-0.493
N2980 X45.641 Y136.701 Z-0.494
N2985 X45.593 Y137.044 Z-0.495
N2990 X45.549 Y137.387 Z-0.496
N2995 X45.51 Y137.73
N3000 X45.452 Y138.42 Z-0.498
N3005 X45.435 Y138.765 Z-0.499
N3010 X45.421 Y139.11
N3015 X45.413 Y139.456 Z-0.5
N3020 X45.415 Y140.025 Z-0.501
N3025 X45.417 Y140.204
N3030 X45.449 Y140.893 Z-0.503
N3035 X45.459 Y141.072
N3040 X45.522 Y141.773 Z-0.505
N3045 X45.542 Y141.951
N3050 X45.633 Y142.635 Z-0.506
N3055 X45.662 Y142.812 Z-0.507
N3060 X45.785 Y143.504 Z-0.508
N3065 X45.822 Y143.68 Z-0.509
N3070 X45.975 Y144.363 Z-0.51
N3075 X46.02 Y144.531
N3080 X46.155 Y145.032 Z-0.511
N3085 X46.202 Y145.205 Z-0.512
N3090 X46.414 Y145.875 Z-0.513
N3095 X46.47 Y146.045 Z-0.514
N3100 X46.706 Y146.693 Z-0.515
N3105 X46.77 Y146.86
N3110 X47.039 Y147.507 Z-0.517
N3115 X47.111 Y147.669
N3120 X47.404 Y148.298 Z-0.518
N3125 X47.484 Y148.457 Z-0.519
N3130 X47.808 Y149.081 Z-0.52
N3135 X47.897 Y149.236 Z-0.521
N3140 X48.156 Y149.686 Z-0.522
N3145 X48.243 Y149.837
N3150 X48.618 Y150.426 Z-0.523
N3155 X48.715 Y150.576 Z-0.524
N3160 X49.115 Y151.149 Z-0.525
N3165 X49.218 Y151.292 Z-0.526
N3170 X49.644 Y151.848 Z-0.527
N3175 X49.754 Y151.986
N3180 X50.202 Y152.523 Z-0.529
N3185 X50.321 Y152.656
N3190 X50.786 Y153.166 Z-0.531
N3195 X50.911 Y153.293
N3200 X51.406 Y153.791 Z-0.532
N3205 X51.537 Y153.912 Z-0.533
N3210 X51.92 Y154.265 Z-0.534
N3215 X52.05 Y154.383
N3220 X52.581 Y154.831 Z-0.536
N3225 X52.718 Y154.944
N3230 X53.271 Y155.371 Z-0.537
N3235 X53.411 Y155.475 Z-0.538
N3240 X53.983 Y155.879 Z-0.539
N3245 X54.13 Y155.977
N3250 X54.718 Y156.355 Z-0.541
N3255 X54.871 Y156.446
N3260 X55.471 Y156.796 Z-0.543
N3265 X55.627 Y156.878
N3270 X56.087 Y157.121 Z-0.544
N3275 X56.245 Y157.203
N3280 X56.877 Y157.501 Z-0.546
N3285 X57.036 Y157.574
N3290 X57.677 Y157.844 Z-0.548
N3295 X57.842 Y157.91
N3300 X58.499 Y158.153 Z-0.549
N3305 X58.667 Y158.211 Z-0.55
N3310 X59.327 Y158.423 Z-0.551
N3315 X59.496 Y158.471 Z-0.552
N3320 X60.17 Y158.657 Z-0.553
N3325 X60.343 Y158.697
N3330 X60.85 Y158.813 Z-0.554
N3335 X61.02 Y158.851 Z-0.555
N3340 X61.705 Y158.977 Z-0.556
N3345 X61.88 Y159.007 Z-0.557
N3350 X62.57 Y159.103 Z-0.558
N3355 X62.744 Y159.124
N3360 X63.44 Y159.191 Z-0.56
N3365 X63.615 Y159.203
N3370 X64.312 Y159.239 Z-0.561
N3375 X64.49 Y159.243 Z-0.562
N3380 X65.182 Y159.248 Z-0.563
N3385 X65.358 Y159.243 Z-0.564
N3390 X65.879 Y159.225 Z-0.565
N3395 X66.056 Y159.219
N3400 X66.754 Y159.164 Z-0.566
N3405 X66.93 Y159.148 Z-0.567
N3410 X67.615 Y159.064 Z-0.568
N3415 X67.791 Y159.04 Z-0.569
N3420 X68.48 Y158.925 Z-0.57
N3425 X68.655 Y158.892
N3430 X69.33 Y158.749 Z-0.572
N3435 X69.502 Y158.708
N3440 X70.179 Y158.534 Z-0.574
N3445 X70.349 Y158.484
N3450 X71.016 Y158.281 Z-0.575
N3455 X71.179 Y158.223 Z-0.576
N3460 X71.668 Y158.051 Z-0.577
N3465 X71.835 Y157.992
N3470 X72.482 Y157.732 Z-0.578
N3475 X72.645 Y157.664 Z-0.579
N3480 X73.276 Y157.378 Z-0.58
N3485 X73.436 Y157.302 Z-0.581
N3490 X74.058 Y156.987 Z-0.582
N3495 X74.214 Y156.903
N3500 X74.817 Y156.565 Z-0.584
N3505 X74.967 Y156.473
N3510 X75.56 Y156.106 Z-0.586
N3515 X75.706 Y156.007
N3520 X76.135 Y155.715 Z-0.587
N3525 X76.278 Y155.617
N3530 X76.836 Y155.2 Z-0.589
N3535 X76.976 Y155.093
N3540 X77.516 Y154.651 Z-0.591
N3545 X77.65 Y154.538
N3550 X78.166 Y154.077 Z-0.592
N3555 X78.295 Y153.957 Z-0.593
N3560 X78.796 Y153.47 Z-0.594
N3565 X78.918 Y153.343
N3570 X79.394 Y152.838 Z-0.596
N3575 X79.509 Y152.707
N3580 X79.848 Y152.314 Z-0.597
N3585 X79.963 Y152.18 Z-0.598
N3590 X80.394 Y151.635 Z-0.599
N3595 X80.501 Y151.498
N3600 X80.91 Y150.932 Z-0.601
N3605 X81.01 Y150.789
N3610 X81.393 Y150.207 Z-0.603
N3615 X81.487 Y150.058
N3620 X81.841 Y149.466 Z-0.604
N3625 X81.927 Y149.312 Z-0.605
N3630 X82.259 Y148.699 Z-0.606
N3635 X82.337 Y148.541
N3640 X82.64 Y147.917 Z-0.608
N3645 X82.71 Y147.757
N3650 X82.916 Y147.281 Z-0.609
N3655 X82.985 Y147.119 Z-0.61
N3660 X83.234 Y146.47 Z-0.611
N3665 X83.294 Y146.308
N3670 X83.514 Y145.649 Z-0.613
N3675 X83.566 Y145.481
N3680 X83.758 Y144.812 Z-0.615
N3685 X83.802 Y144.643
N3690 X83.964 Y143.967 Z-0.616
N3695 X83.999 Y143.796 Z-0.617
N3700 X84.132 Y143.114 Z-0.618
N3705 X84.159 Y142.94
N3710 X84.236 Y142.426 Z-0.62
N3715 X84.261 Y142.253
N3720 X84.334 Y141.565 Z-0.621
N3725 X84.351 Y141.39 Z-0.622
N3730 X84.394 Y140.697 Z-0.623
N3735 X84.402 Y140.522
N3740 X84.415 Y139.827 Z-0.625
N3745 X84.414 Y139.653
N3750 X84.397 Y138.958 Z-0.627
N3755 X84.388 Y138.783
N3760 X84.341 Y138.093 Z-0.628
N3765 X84.323 Y137.919 Z-0.629
N3770 X84.265 Y137.403 Z-0.63
N3775 X84.246 Y137.229
N3780 X84.139 Y136.543 Z-0.632
N3785 X84.111 Y136.371
N3790 X83.975 Y135.692 Z-0.633
N3795 X83.938 Y135.52 Z-0.634
N3800 X83.772 Y134.844 Z-0.635
N3805 X83.726 Y134.675
N3810 X83.532 Y134.01 Z-0.637
N3815 X83.478 Y133.845
N3820 X83.255 Y133.188 Z-0.639
N3825 X83.193 Y133.024
N3830 X82.941 Y132.376 Z-0.64
N3835 X82.663 Y131.744 Z-0.642
N3840 X82.591 Y131.584
N3845 X82.285 Y130.961 Z-0.644
N3850 X82.206 Y130.806
N3855 X81.873 Y130.198 Z-0.645
N3860 X81.786 Y130.047 Z-0.646
N3865 X81.427 Y129.453 Z-0.647
N3870 X81.332 Y129.306
N3875 X80.948 Y128.729 Z-0.649
N3880 X80.847 Y128.588
N3885 X80.438 Y128.028 Z-0.651
N3890 X80.329 Y127.891
N3895 X80.005 Y127.486 Z-0.652
N3900 X79.896 Y127.351
N3905 X79.441 Y126.83 Z-0.654
N3910 X79.325 Y126.699
N3915 X78.846 Y126.196 Z-0.656
N3920 X78.723 Y126.072
N3925 X78.226 Y125.592 Z-0.657
N3930 X78.097 Y125.475 Z-0.658
N3935 X77.577 Y125.015 Z-0.659
N3940 X77.443 Y124.904
N3945 X76.906 Y124.47 Z-0.661
N3950 X76.766 Y124.366
N3955 X76.349 Y124.057 Z-0.662
N3960 X76.208 Y123.953 Z-0.663
N3965 X75.633 Y123.565 Z-0.664
N3970 X75.487 Y123.469
N3975 X74.899 Y123.109 Z-0.666
N3980 X74.749 Y123.02
N3985 X74.142 Y122.683 Z-0.668
N3990 X73.987 Y122.602
N3995 X73.37 Y122.294 Z-0.669
N4000 X73.212 Y122.22 Z-0.67
N4005 X72.579 Y121.937 Z-0.671
N4010 X72.417 Y121.872
N4015 X71.774 Y121.618 Z-0.673
N4020 X71.61 Y121.561
N4025 X71.12 Y121.391 Z-0.674
N4030 X70.955 Y121.335 Z-0.675
N4035 X70.291 Y121.137 Z-0.676
N4040 X70.124 Y121.09
N4045 X69.454 Y120.921 Z-0.678
N4050 X69.284 Y120.882
N4055 X68.605 Y120.742 Z-0.679
N4060 X68.434 Y120.712 Z-0.68
N4065 X67.753 Y120.602 Z-0.681
N4070 X67.58 Y120.58 Z-0.682
N4075 X66.892 Y120.499 Z-0.683
N4080 X66.718 Y120.486
N4085 X66.201 Y120.448 Z-0.684
N4090 X66.028 Y120.436 Z-0.685
N4095 X65.338 Y120.415 Z-0.686
N4100 X65.164 Y120.412 Z-0.687
N4105 X64.471 Y120.421 Z-0.688
N4110 X64.298 Y120.427
N4115 X63.609 Y120.466 Z-0.69
N4120 X63.435 Y120.48
N4125 X62.746 Y120.549 Z-0.691
N4130 X62.574 Y120.572 Z-0.692
N4135 X61.889 Y120.671 Z-0.693
N4140 X61.549 Y120.734 Z-0.694
N4145 X61.21 Y120.798 Z-0.695
N4150 X61.04 Y120.831
N4155 X60.535 Y120.949 Z-0.696
N4160 X60.198 Y121.029 Z-0.697
N4165 X59.533 Y121.216 Z-0.698
N4170 X59.366 Y121.266
N4175 X58.708 Y121.481 Z-0.7
N4180 X58.545 Y121.539
N4185 X57.899 Y121.782 Z-0.702
N4190 X57.738 Y121.848
N4195 X57.102 Y122.119 Z-0.703
N4200 X56.945 Y122.193 Z-0.704
N4205 X56.478 Y122.417 Z-0.705
N4210 X56.321 Y122.492
N4215 X55.712 Y122.817 Z-0.707
N4220 X55.56 Y122.9
N4225 X54.964 Y123.251 Z-0.708
N4230 X54.816 Y123.341 Z-0.709
N4235 X54.238 Y123.717 Z-0.71
N4240 X54.095 Y123.815
N4245 X53.673 Y124.116 Z-0.711
N4250 X53.394 Y124.321 Z-0.712
N4255 X52.849 Y124.747 Z-0.714
N4260 X52.585 Y124.97
N4265 X52.191 Y125.306 Z-0.715
N4270 X52.064 Y125.424 Z-0.716
N4275 X51.685 Y125.777 Z-0.717
N4280 X51.559 Y125.896
N4285 X51.075 Y126.388 Z-0.718
N4290 X50.839 Y126.641 Z-0.719
N4295 X50.608 Y126.897 Z-0.72
N4300 X50.378 Y127.156 Z-0.721
N4305 X49.939 Y127.688 Z-0.722
N4310 X49.728 Y127.962 Z-0.723
N4315 X49.52 Y128.237
N4320 X49.315 Y128.516 Z-0.724
N4325 X48.923 Y129.084 Z-0.725
N4330 X48.739 Y129.376 Z-0.726
N4335 X48.555 Y129.668 Z-0.727
N4340 X48.378 Y129.965 Z-0.728
N4345 X48.208 Y130.265
N4350 X48.038 Y130.566 Z-0.729
N4355 X47.723 Y131.18 Z-0.73
N4360 X47.574 Y131.492 Z-0.731
N4365 X47.43 Y131.806 Z-0.732
N4370 X47.29 Y132.121 Z-0.733
N4375 X47.029 Y132.76 Z-0.734
N4380 X46.91 Y133.084 Z-0.735
N4385 X46.794 Y133.409
N4390 X46.683 Y133.736 Z-0.736
N4395 X46.581 Y134.066 Z-0.737
N4400 X46.479 Y134.395
N4405 X46.303 Y135.063 Z-0.739
N4410 X46.224 Y135.398 Z-0.74
N4415 X46.15 Y135.735
N4420 X46.08 Y136.073 Z-0.741
N4425 X45.962 Y136.753 Z-0.742
N4430 X45.915 Y137.095 Z-0.743
N4435 X45.871 Y137.437 Z-0.744
N4440 X45.832 Y137.78
N4445 X45.773 Y138.467 Z-0.746
N4450 X45.758 Y138.811 Z-0.747
N4455 X45.744 Y139.156
N4460 X45.737 Y139.501 Z-0.748
N4465 X45.738 Y139.846 Z-0.749
N4470 X45.74 Y140.19
N4475 X45.77 Y140.864 Z-0.751
N4480 X45.78 Y141.042
N4485 X45.843 Y141.74 Z-0.753
N4490 X45.862 Y141.917
N4495 X45.953 Y142.602 Z-0.754
N4500 X45.982 Y142.777 Z-0.755
N4505 X46.104 Y143.468 Z-0.756
N4510 X46.142 Y143.642 Z-0.757
N4515 X46.255 Y144.148 Z-0.758
N4520 X46.294 Y144.318
N4525 X46.476 Y144.996 Z-0.759
N4530 X46.524 Y145.165 Z-0.76
N4535 X46.735 Y145.832 Z-0.761
N4540 X46.793 Y146. Z-0.762
N4545 X47.029 Y146.649 Z-0.763
N4550 X47.095 Y146.813
N4555 X47.295 Y147.297 Z-0.764
N4560 X47.364 Y147.461 Z-0.765
N4565 X47.659 Y148.094 Z-0.766
N4570 X47.735 Y148.253 Z-0.767
N4575 X48.055 Y148.87 Z-0.768
N4580 X48.14 Y149.025
N4585 X48.489 Y149.631 Z-0.77
N4590 X48.582 Y149.781
N4595 X48.957 Y150.373 Z-0.772
N4600 X49.056 Y150.515
N4605 X49.353 Y150.94 Z-0.773
N4610 X49.456 Y151.085
N4615 X49.881 Y151.642 Z-0.775
N4620 X49.991 Y151.781
N4625 X50.434 Y152.311 Z-0.777
N4630 X50.551 Y152.444
N4635 X51.022 Y152.961 Z-0.779
N4640 X51.147 Y153.088
N4645 X51.515 Y153.458 Z-0.78
N4650 X51.64 Y153.583
N4655 X52.148 Y154.052 Z-0.782
N4660 X52.28 Y154.17
N4665 X52.815 Y154.622 Z-0.784
N4670 X52.953 Y154.733
N4675 X53.503 Y155.158 Z-0.785
N4680 X53.645 Y155.26 Z-0.786
N4685 X54.069 Y155.561 Z-0.787
N4690 X54.214 Y155.663
N4695 X54.802 Y156.041 Z-0.789
N4700 X54.952 Y156.136
N4705 X55.549 Y156.484 Z-0.79
N4710 X55.703 Y156.57 Z-0.791
N4715 X56.322 Y156.896 Z-0.792
N4720 X56.481 Y156.974 Z-0.793
N4725 X57.105 Y157.269 Z-0.794
N4730 X57.268 Y157.339
N4735 X57.749 Y157.541 Z-0.795
N4740 X57.913 Y157.609 Z-0.796
N4745 X58.567 Y157.852 Z-0.797
N4750 X58.732 Y157.91 Z-0.798
N4755 X59.392 Y158.123 Z-0.799
N4760 X59.562 Y158.173
N4765 X60.236 Y158.358 Z-0.801
N4770 X60.408 Y158.399
N4775 X60.913 Y158.515 Z-0.802
N4780 X61.082 Y158.553 Z-0.803
N4785 X61.77 Y158.68 Z-0.804
N4790 X61.944 Y158.709
N4795 X62.635 Y158.806 Z-0.806
N4800 X62.81 Y158.826
N4805 X63.5 Y158.892 Z-0.808
N4810 X63.675 Y158.903
N4815 X64.372 Y158.939 Z-0.81
N4820 X64.548 Y158.941
N4825 X65.067 Y158.946 Z-0.811
N4830 X65.241
N4835 X65.939 Y158.921 Z-0.813
N4840 X66.114 Y158.912
N4845 X66.809 Y158.858 Z-0.815
N4850 X66.985 Y158.839
N4855 X67.672 Y158.755 Z-0.816
N4860 X67.845 Y158.727 Z-0.817
N4865 X68.359 Y158.642 Z-0.818
N4870 X68.533 Y158.612
N4875 X69.214 Y158.468 Z-0.82
N4880 X69.384 Y158.43
N4885 X70.057 Y158.257 Z-0.821
N4890 X70.227 Y158.209 Z-0.822
N4895 X70.895 Y158.006 Z-0.823
N4900 X71.061 Y157.949 Z-0.824
N4905 X71.387 Y157.835
N4910 X71.713 Y157.72 Z-0.825
N4915 X72.361 Y157.461 Z-0.826
N4920 X72.523 Y157.393 Z-0.827
N4925 X73.159 Y157.106 Z-0.828
N4930 X73.318 Y157.03 Z-0.829
N4935 X73.937 Y156.717 Z-0.83
N4940 X74.09 Y156.634
N4945 X74.698 Y156.293 Z-0.832
N4950 X74.848 Y156.201
N4955 X75.29 Y155.927 Z-0.833
N4960 X75.438 Y155.833 Z-0.834
N4965 X76.01 Y155.444 Z-0.835
N4970 X76.154 Y155.342
N4975 X76.712 Y154.925 Z-0.837
N4980 X76.85 Y154.817
N4985 X77.389 Y154.376 Z-0.839
N4990 X77.52 Y154.262
N4995 X77.907 Y153.916 Z-0.84
N5000 X78.038 Y153.799
N5005 X78.537 Y153.314 Z-0.842
N5010 X78.661 Y153.19
N5015 X79.136 Y152.686 Z-0.844
N5020 X79.254 Y152.556
N5025 X79.71 Y152.028 Z-0.845
N5030 X79.821 Y151.892 Z-0.846
N5035 X80.251 Y151.348 Z-0.847
N5040 X80.353 Y151.207 Z-0.848
N5045 X80.658 Y150.786 Z-0.849
N5050 X80.76 Y150.642
N5055 X81.143 Y150.061 Z-0.851
N5060 X81.237 Y149.912
N5065 X81.592 Y149.32 Z-0.852
N5070 X81.678 Y149.167 Z-0.853
N5075 X82.009 Y148.554 Z-0.854
N5080 X82.087 Y148.396
N5085 X82.315 Y147.928 Z-0.856
N5090 X82.391 Y147.77
N5095 X82.666 Y147.136 Z-0.857
N5100 X82.733 Y146.974 Z-0.858
N5105 X82.982 Y146.325 Z-0.859
N5110 X83.041 Y146.16 Z-0.86
N5115 X83.26 Y145.504 Z-0.861
N5120 X83.31 Y145.336
N5125 X83.454 Y144.835 Z-0.862
N5130 X83.502 Y144.667 Z-0.863
N5135 X83.665 Y143.991 Z-0.864
N5140 X83.703 Y143.822 Z-0.865
N5145 X83.837 Y143.139 Z-0.866
N5150 X83.867 Y142.967
N5155 X83.97 Y142.28 Z-0.868
N5160 X83.991 Y142.106
N5165 X84.064 Y141.417 Z-0.87
N5170 X84.076 Y141.243
N5175 X84.108 Y140.725 Z-0.871
N5180 X84.118 Y140.55
N5185 X84.132 Y139.856 Z-0.873
N5190 Y139.682
N5195 X84.116 Y138.986 Z-0.875
N5200 X84.107 Y138.813
N5205 X84.06 Y138.12 Z-0.876
N5210 X84.042 Y137.946 Z-0.877
N5215 X83.985 Y137.43 Z-0.878
N5220 X83.965 Y137.257
N5225 X83.859 Y136.572 Z-0.88
N5230 X83.83 Y136.399
N5235 X83.694 Y135.718 Z-0.881
N5240 X83.656 Y135.548 Z-0.882
N5245 X83.491 Y134.876 Z-0.883
N5250 X83.444 Y134.708 Z-0.884
N5255 X83.249 Y134.04 Z-0.885
N5260 X83.193 Y133.874
N5265 X83.082 Y133.548 Z-0.886
N5270 X82.97 Y133.22 Z-0.887
N5275 X82.718 Y132.573 Z-0.888
N5280 X82.652 Y132.411 Z-0.889
N5285 X82.373 Y131.775 Z-0.89
N5290 X82.298 Y131.617
N5295 X81.992 Y130.996 Z-0.892
N5300 X81.909 Y130.843
N5305 X81.66 Y130.387 Z-0.893
N5310 X81.576 Y130.234 Z-0.894
N5315 X81.217 Y129.64 Z-0.895
N5320 X81.124 Y129.493
N5325 X80.74 Y128.915 Z-0.897
N5330 X80.64 Y128.773
N5335 X80.231 Y128.213 Z-0.899
N5340 X80.124 Y128.075
N5345 X79.8 Y127.67 Z-0.9
N5350 X79.691 Y127.534
N5355 X79.236 Y127.012 Z-0.902
N5360 X79.12 Y126.882
N5365 X78.641 Y126.379 Z-0.904
N5370 X78.518 Y126.255
N5375 X78.021 Y125.775 Z-0.905
N5380 X77.892 Y125.658 Z-0.906
N5385 X77.372 Y125.199 Z-0.907
N5390 X77.236 Y125.089 Z-0.908
N5395 X76.833 Y124.762 Z-0.909
N5400 X76.698 Y124.654
N5405 X76.14 Y124.241 Z-0.91
N5410 X75.998 Y124.14 Z-0.911
N5415 X75.424 Y123.752 Z-0.912
N5420 X75.277 Y123.659 Z-0.913
N5425 X74.688 Y123.298 Z-0.914
N5430 X74.536 Y123.212
N5435 X74.082 Y122.96 Z-0.915
N5440 X73.929 Y122.876 Z-0.916
N5445 X73.309 Y122.565 Z-0.917
N5450 X73.152 Y122.489 Z-0.918
N5455 X72.522 Y122.208 Z-0.919
N5460 X72.361 Y122.14
N5465 X71.716 Y121.885 Z-0.921
N5470 X71.552 Y121.826
N5475 X70.899 Y121.599 Z-0.923
N5480 X70.733 Y121.55
N5485 X70.235 Y121.401 Z-0.924
N5490 X70.068 Y121.353
N5495 X69.396 Y121.183 Z-0.926
N5500 X69.227 Y121.144
N5505 X68.55 Y121.004 Z-0.928
N5510 X68.378 Y120.974
N5515 X67.694 Y120.863 Z-0.929
N5520 X67.521 Y120.842 Z-0.93
N5525 X67.006 Y120.781 Z-0.931
N5530 X66.833 Y120.762
N5535 X66.144 Y120.711 Z-0.933
N5540 X65.97 Y120.701
N5545 X65.278 Y120.68 Z-0.934
N5550 X65.104 Y120.679 Z-0.935
N5555 X64.411 Y120.688 Z-0.936
N5560 X64.066 Y120.706 Z-0.937
N5565 X63.721 Y120.725 Z-0.938
N5570 X63.548 Y120.735
N5575 X62.858 Y120.804 Z-0.939
N5580 X62.686 Y120.823 Z-0.94
N5585 X62.002 Y120.921 Z-0.941
N5590 X61.83 Y120.95 Z-0.942
N5595 X61.15 Y121.078 Z-0.943
N5600 X60.98 Y121.116
N5605 X60.308 Y121.273 Z-0.945
N5610 X60.14 Y121.319
N5615 X59.64 Y121.459 Z-0.946
N5620 X59.473 Y121.507 Z-0.947
N5625 X58.815 Y121.722 Z-0.948
N5630 X58.651 Y121.779
N5635 X58.005 Y122.022 Z-0.95
N5640 X57.844 Y122.088
N5645 X57.207 Y122.359 Z-0.952
N5650 X57.05 Y122.433
N5655 X56.582 Y122.657 Z-0.953
N5660 X56.427 Y122.732
N5665 X55.816 Y123.057 Z-0.955
N5670 X55.664 Y123.141
N5675 X55.068 Y123.492 Z-0.957
N5680 X54.921 Y123.584
N5685 X54.341 Y123.96 Z-0.958
N5690 X54.058 Y124.16 Z-0.959
N5695 X53.777 Y124.36 Z-0.96
N5700 X53.636 Y124.461
N5705 X53.227 Y124.78 Z-0.961
N5710 X52.956 Y124.994 Z-0.962
N5715 X52.43 Y125.443 Z-0.963
N5720 X52.3 Y125.558 Z-0.964
N5725 X51.794 Y126.029 Z-0.965
N5730 X51.67 Y126.151 Z-0.966
N5735 X51.186 Y126.643 Z-0.967
N5740 X51.069 Y126.771
N5745 X50.721 Y127.156 Z-0.968
N5750 X50.495 Y127.418 Z-0.969
N5755 X50.275 Y127.684 Z-0.97
N5760 X50.057 Y127.953 Z-0.971
N5765 X49.64 Y128.503 Z-0.972
N5770 X49.539 Y128.644
N5775 X49.244 Y129.07 Z-0.973
N5780 X49.052 Y129.359 Z-0.974
N5785 X48.869 Y129.651 Z-0.975
N5790 X48.685 Y129.943 Z-0.976
N5795 X48.343 Y130.544 Z-0.977
N5800 X48.18 Y130.849 Z-0.978
N5805 X48.022 Y131.156
N5810 X47.867 Y131.466 Z-0.979
N5815 X47.578 Y132.093 Z-0.981
N5820 X47.446 Y132.413
N5825 X47.315 Y132.732 Z-0.982
N5830 X47.191 Y133.055 Z-0.983
N5835 X47.074 Y133.38
N5840 X46.959 Y133.706 Z-0.984
N5845 X46.753 Y134.365 Z-0.986
N5850 X46.661 Y134.698
N5855 X46.573 Y135.032 Z-0.987
N5860 X46.489 Y135.368 Z-0.988
N5865 X46.342 Y136.042 Z-0.989
N5870 X46.282 Y136.383 Z-0.99
N5875 X46.223 Y136.723 Z-0.991
N5880 X46.172 Y137.065
N5885 X46.128 Y137.407 Z-0.992
N5890 X46.087 Y137.75 Z-0.993
N5895 X46.028 Y138.438 Z-0.994
N5900 X46.01 Y138.783 Z-0.995
N5905 X45.996 Y139.128 Z-0.996
N5910 X45.988 Y139.473
N5915 Y139.818 Z-0.997
N5920 X45.989 Y140.164 Z-0.998
N5925 X46.02 Y140.853 Z-0.999
N5930 X46.045 Y141.198 Z-1.
N5935 X46.084 Y141.637 Z-1.001
N5940 X46.1 Y141.814
N5945 X46.192 Y142.507 Z-1.003
N5950 X46.218 Y142.682
N5955 X46.339 Y143.366 Z-1.004
N5960 X46.374 Y143.538 Z-1.005
N5965 X46.525 Y144.22 Z-1.006
N5970 X46.571 Y144.391 Z-1.007
N5975 X46.705 Y144.894 Z-1.008
N5980 X46.752 Y145.063
N5985 X46.961 Y145.725 Z-1.009
N5990 X47.017 Y145.893 Z-1.01
N5995 X47.256 Y146.55 Z-1.011
N6000 X47.322 Y146.715 Z-1.012
N6005 X47.521 Y147.196 Z-1.013
N6010 X47.588 Y147.359
N6015 X47.881 Y147.989 Z-1.015
N6020 X47.958 Y148.148
N6025 X48.279 Y148.768 Z-1.016
N6030 X48.365 Y148.923 Z-1.017
N6035 X48.711 Y149.525 Z-1.018
N6040 X48.804 Y149.673 Z-1.019
N6045 X49.083 Y150.113 Z-1.02
N6050 X49.178 Y150.261
N6055 X49.578 Y150.835 Z-1.022
N6060 X49.682 Y150.978
N6065 X50.102 Y151.528 Z-1.023
N6070 X50.213 Y151.665 Z-1.024
N6075 X50.547 Y152.066 Z-1.025
N6080 X50.66 Y152.201
N6085 X51.13 Y152.717 Z-1.027
N6090 X51.25 Y152.846
N6095 X51.739 Y153.338 Z-1.028
N6100 X51.866 Y153.46 Z-1.029
N6105 X52.379 Y153.934 Z-1.03
N6110 X52.513 Y154.049 Z-1.031
N6115 X52.911 Y154.385 Z-1.032
N6120 X53.045 Y154.498
N6125 X53.594 Y154.923 Z-1.034
N6130 X53.735 Y155.028
N6135 X54.305 Y155.431 Z-1.035
N6140 X54.451 Y155.528 Z-1.036
N6145 X55.035 Y155.904 Z-1.037
N6150 X55.186 Y155.993 Z-1.038
N6155 X55.638 Y156.257 Z-1.039
N6160 X55.791 Y156.344
N6165 X56.407 Y156.669 Z-1.041
N6170 X56.565 Y156.748
N6175 X57.192 Y157.045 Z-1.042
N6180 X57.353 Y157.114 Z-1.043
N6185 X57.833 Y157.316 Z-1.044
N6190 X57.995 Y157.384
N6195 X58.65 Y157.627 Z-1.046
N6200 X58.816 Y157.686
N6205 X59.478 Y157.899 Z-1.047
N6210 X59.645 Y157.948 Z-1.048
N6215 X60.316 Y158.133 Z-1.049
N6220 X60.488 Y158.172 Z-1.05
N6225 X60.996 Y158.289 Z-1.051
N6230 X61.168 Y158.327
N6235 X61.848 Y158.452 Z-1.053
N6240 X62.022 Y158.48
N6245 X62.713 Y158.577 Z-1.054
N6250 X62.888 Y158.595 Z-1.055
N6255 X63.405 Y158.645 Z-1.056
N6260 X63.577 Y158.661
N6265 X64.275 Y158.697 Z-1.058
N6270 X64.45 Y158.704
N6275 X65.147 Y158.71 Z-1.06
N6280 X65.323 Y158.706
N6285 X66.015 Y158.683 Z-1.061
N6290 X66.19 Y158.669 Z-1.062
N6295 X66.709 Y158.629 Z-1.063
N6300 X66.884 Y158.614
N6305 X67.577 Y158.53 Z-1.065
N6310 X67.751 Y158.505
N6315 X68.434 Y158.391 Z-1.066
N6320 X68.606 Y158.357 Z-1.067
N6325 X69.115 Y158.249 Z-1.068
N6330 X69.287 Y158.213
N6335 X69.962 Y158.04 Z-1.07
N6340 X70.132 Y157.993
N6345 X70.795 Y157.792 Z-1.072
N6350 X70.961 Y157.737
N6355 X71.618 Y157.506 Z-1.073
N6360 X71.782 Y157.441 Z-1.074
N6365 X72.265 Y157.248 Z-1.075
N6370 X72.427 Y157.181
N6375 X73.058 Y156.896 Z-1.077
N6380 X73.217 Y156.821
N6385 X73.839 Y156.507 Z-1.078
N6390 X73.992 Y156.422 Z-1.079
N6395 X74.446 Y156.168 Z-1.08
N6400 X74.598 Y156.083
N6405 X75.19 Y155.716 Z-1.082
N6410 X75.337 Y155.622
N6415 X75.912 Y155.231 Z-1.084
N6420 X76.055 Y155.128
N6425 X76.611 Y154.713 Z-1.085
N6430 X76.747 Y154.603 Z-1.086
N6435 X77.149 Y154.275 Z-1.087
N6440 X77.284 Y154.163
N6445 X77.804 Y153.7 Z-1.089
N6450 X77.932 Y153.582
N6455 X78.429 Y153.099 Z-1.09
N6460 X78.551 Y152.973 Z-1.091
N6465 X78.908 Y152.594 Z-1.092
N6470 X79.029 Y152.466
N6475 X79.484 Y151.94 Z-1.094
N6480 X79.596 Y151.807
N6485 X80.026 Y151.263 Z-1.096
N6490 X80.132 Y151.123
N6495 X80.54 Y150.559 Z-1.097
N6500 X80.637 Y150.413 Z-1.098
N6505 X80.924 Y149.979 Z-1.099
N6510 X81.019 Y149.833
N6515 X81.376 Y149.237 Z-1.101
N6520 X81.463 Y149.086
N6525 X81.794 Y148.474 Z-1.102
N6530 X81.872 Y148.318 Z-1.103
N6535 X82.1 Y147.851 Z-1.104
N6540 X82.176 Y147.694
N6545 X82.453 Y147.058 Z-1.106
N6550 X82.52 Y146.896
N6555 X82.77 Y146.247 Z-1.108
N6560 X82.828 Y146.082
N6565 X83.049 Y145.423 Z-1.109
N6570 X83.098 Y145.257 Z-1.11
N6575 X83.241 Y144.758 Z-1.111
N6580 X83.289 Y144.589
N6585 X83.452 Y143.913 Z-1.113
N6590 X83.49 Y143.742
N6595 X83.623 Y143.063 Z-1.114
N6600 X83.651 Y142.891 Z-1.115
N6605 X83.755 Y142.203 Z-1.116
N6610 X83.773 Y142.029 Z-1.117
N6615 X83.829 Y141.513 Z-1.118
N6620 X83.845 Y141.34
N6625 X83.889 Y140.646 Z-1.12
N6630 X83.896 Y140.472
N6635 X83.91 Y139.778 Z-1.121
N6640 X83.907 Y139.603 Z-1.122
N6645 X83.895 Y139.083 Z-1.123
N6650 X83.89 Y138.91
N6655 X83.844 Y138.218 Z-1.125
N6660 X83.829 Y138.044
N6665 X83.753 Y137.353 Z-1.126
N6670 X83.728 Y137.18 Z-1.127
N6675 X83.622 Y136.493 Z-1.128
N6680 X83.589 Y136.324 Z-1.129
N6685 X83.487 Y135.815 Z-1.13
N6690 X83.451 Y135.644
N6695 X83.286 Y134.969 Z-1.132
N6700 X83.24 Y134.8
N6705 X83.047 Y134.135 Z-1.133
N6710 X82.992 Y133.97 Z-1.134
N6715 X82.826 Y133.478 Z-1.135
N6720 X82.769 Y133.312
N6725 X82.518 Y132.664 Z-1.137
N6730 X82.452 Y132.503
N6735 X82.173 Y131.868 Z-1.138
N6740 X82.099 Y131.711 Z-1.139
N6745 X81.793 Y131.088 Z-1.14
N6750 X81.71 Y130.935 Z-1.141
N6755 X81.461 Y130.479 Z-1.142
N6760 X81.376 Y130.327
N6765 X81.017 Y129.733 Z-1.144
N6770 X80.924 Y129.587
N6775 X80.54 Y129.009 Z-1.145
N6780 X80.438 Y128.867 Z-1.146
N6785 X80.132 Y128.447 Z-1.147
N6790 X80.03 Y128.308
N6795 X79.597 Y127.765 Z-1.149
N6800 X79.486 Y127.63
N6805 X79.03 Y127.107 Z-1.15
N6810 X78.912 Y126.979 Z-1.151
N6815 X78.436 Y126.478 Z-1.152
N6820 X78.311 Y126.356 Z-1.153
N6825 X77.937 Y125.996 Z-1.154
N6830 X77.81 Y125.876
N6835 X77.29 Y125.416 Z-1.156
N6840 X77.157 Y125.303
N6845 X76.619 Y124.867 Z-1.157
N6850 X76.48 Y124.762 Z-1.158
N6855 X76.063 Y124.453 Z-1.159
N6860 X75.923 Y124.35
N6865 X75.348 Y123.962 Z-1.161
N6870 X75.203 Y123.867
N6875 X74.613 Y123.504 Z-1.162
N6880 X74.462 Y123.417 Z-1.163
N6885 X73.856 Y123.08 Z-1.164
N6890 X73.7 Y123.001 Z-1.165
N6895 X73.236 Y122.769 Z-1.166
N6900 X73.08 Y122.693
N6905 X72.448 Y122.409 Z-1.168
N6910 X72.288 Y122.342
N6915 X71.643 Y122.086 Z-1.169
N6920 X71.479 Y122.027 Z-1.17
N6925 X70.988 Y121.857 Z-1.171
N6930 X70.824 Y121.8
N6935 X70.161 Y121.602 Z-1.173
N6940 X69.994 Y121.554
N6945 X69.322 Y121.384 Z-1.174
N6950 X69.152 Y121.346 Z-1.175
N6955 X68.475 Y121.206 Z-1.176
N6960 X68.304 Y121.177 Z-1.177
N6965 X67.791 Y121.094 Z-1.178
N6970 X67.619 Y121.067
N6975 X66.931 Y120.986 Z-1.18
N6980 X66.758 Y120.969
N6985 X66.066 Y120.918 Z-1.181
N6990 X65.72 Y120.905 Z-1.182
N6995 X65.375 Y120.894 Z-1.183
N7000 X65.201 Y120.889
N7005 X64.508 Y120.898 Z-1.185
N7010 X64.334 Y120.902
N7015 X63.644 Y120.941 Z-1.186
N7020 X63.471 Y120.955 Z-1.187
N7025 X62.781 Y121.023 Z-1.188
N7030 X62.609 Y121.047 Z-1.189
N7035 X62.095 Y121.121 Z-1.19
N7040 X61.923 Y121.146
N7045 X61.243 Y121.274 Z-1.191
N7050 X61.073 Y121.309 Z-1.192
N7055 X60.399 Y121.467 Z-1.193
N7060 X60.231 Y121.511 Z-1.194
N7065 X59.564 Y121.697 Z-1.195
N7070 X59.4 Y121.751
N7075 X58.906 Y121.912 Z-1.197
N7080 X58.742 Y121.968
N7085 X58.093 Y122.212 Z-1.198
N7090 X57.932 Y122.277 Z-1.199
N7095 X57.295 Y122.548 Z-1.2
N7100 X56.983 Y122.696 Z-1.201
N7105 X56.671 Y122.845 Z-1.202
N7110 X56.515 Y122.921
N7115 X55.903 Y123.246 Z-1.203
N7120 X55.752 Y123.33 Z-1.204
N7125 X55.156 Y123.681 Z-1.205
N7130 X55.009 Y123.774 Z-1.206
N7135 X54.428 Y124.151 Z-1.207
N7140 X54.287 Y124.251
N7145 X54.005 Y124.452 Z-1.208
N7150 X53.725 Y124.654 Z-1.209
N7155 X53.179 Y125.08 Z-1.21
N7160 X53.045 Y125.19 Z-1.211
N7165 X52.518 Y125.639 Z-1.212
N7170 X52.39 Y125.756
N7175 X52.01 Y126.109 Z-1.214
N7180 X51.883 Y126.228
N7185 X51.398 Y126.72 Z-1.215
N7190 X51.278 Y126.846 Z-1.216
N7195 X50.814 Y127.359 Z-1.217
N7200 X50.702 Y127.491 Z-1.218
N7205 X50.26 Y128.024 Z-1.219
N7210 X50.051 Y128.299 Z-1.22
N7215 X49.843 Y128.575
N7220 X49.739 Y128.714 Z-1.221
N7225 X49.346 Y129.283 Z-1.222
N7230 X49.25 Y129.428 Z-1.223
N7235 X48.882 Y130.013 Z-1.224
N7240 X48.709 Y130.313 Z-1.225
N7245 X48.538 Y130.613 Z-1.226
N7250 X48.453 Y130.764
N7255 X48.215 Y131.225 Z-1.227
N7260 X48.06 Y131.534 Z-1.228
N7265 X47.77 Y132.162 Z-1.229
N7270 X47.637 Y132.481 Z-1.23
N7275 X47.506 Y132.801 Z-1.231
N7280 X47.381 Y133.124
N7285 X47.264 Y133.449 Z-1.232
N7290 X47.149 Y133.775 Z-1.233
N7295 X46.943 Y134.436 Z-1.234
N7300 X46.851 Y134.769 Z-1.235
N7305 X46.763 Y135.103 Z-1.236
N7310 X46.68 Y135.439
N7315 X46.606 Y135.777 Z-1.237
N7320 X46.533 Y136.115 Z-1.238
N7325 X46.415 Y136.796 Z-1.239
N7330 X46.366 Y137.138 Z-1.24
N7335 X46.322 Y137.481 Z-1.241
N7340 X46.282 Y137.824
N7345 X46.223 Y138.513 Z-1.243
N7350 X46.208 Y138.859 Z-1.244
N7355 X46.194 Y139.204
N7360 X46.188 Y139.55 Z-1.245
N7365 X46.189 Y139.895 Z-1.246
N7370 X46.193 Y140.241 Z-1.247
N7375 X46.224 Y140.931 Z-1.248
N7380 X46.252 Y141.276 Z-1.249
N7385 X46.295 Y141.76 Z-1.25
N7390 X46.303 Y141.83
N7395 X46.403 Y142.585 Z-1.251
N7400 X46.433 Y142.757 Z-1.252
N7405 X46.524 Y143.269 Z-1.253
N7410 X46.556 Y143.441
N7415 X46.707 Y144.12 Z-1.255
N7420 X46.749 Y144.29
N7425 X46.928 Y144.957 Z-1.257
N7430 X46.98 Y145.125
N7435 X47.136 Y145.622 Z-1.258
N7440 X47.19 Y145.789
N7445 X47.427 Y146.442 Z-1.26
N7450 X47.49 Y146.604
N7455 X47.754 Y147.244 Z-1.262
N7460 X47.827 Y147.404
N7465 X48.046 Y147.875 Z-1.263
N7470 X48.121 Y148.034 Z-1.264
N7475 X48.441 Y148.652 Z-1.265
N7480 X48.525 Y148.806
N7485 X48.868 Y149.404 Z-1.267
N7490 X48.961 Y149.553
N7495 X49.239 Y149.993 Z-1.268
N7500 X49.333 Y150.141 Z-1.269
N7505 X49.73 Y150.711 Z-1.27
N7510 X49.832 Y150.852 Z-1.271
N7515 X50.252 Y151.402 Z-1.272
N7520 X50.362 Y151.538
N7525 X50.695 Y151.938 Z-1.274
N7530 X50.808 Y152.073
N7535 X51.275 Y152.587 Z-1.275
N7540 X51.394 Y152.714 Z-1.276
N7545 X51.881 Y153.205 Z-1.277
N7550 X52.007 Y153.326 Z-1.278
N7555 X52.518 Y153.798 Z-1.279
N7560 X52.652 Y153.911
N7565 X53.048 Y154.248 Z-1.28
N7570 X53.184 Y154.359 Z-1.281
N7575 X53.729 Y154.782 Z-1.282
N7580 X53.87 Y154.886 Z-1.283
N7585 X54.437 Y155.287 Z-1.284
N7590 X54.584 Y155.383 Z-1.285
N7595 X55.021 Y155.665 Z-1.286
N7600 X55.169 Y155.759
N7605 X55.764 Y156.107 Z-1.287
N7610 X55.917 Y156.192 Z-1.288
N7615 X56.531 Y156.517 Z-1.289
N7620 X56.689 Y156.593 Z-1.29
N7625 X57.159 Y156.816 Z-1.291
N7630 X57.317 Y156.89
N7635 X57.952 Y157.158 Z-1.293
N7640 X58.115 Y157.223
N7645 X58.766 Y157.466 Z-1.294
N7650 X58.932 Y157.521 Z-1.295
N7655 X59.425 Y157.681 Z-1.296
N7660 X59.59 Y157.734
N7665 X60.258 Y157.918 Z-1.298
N7670 X60.427 Y157.962
N7675 X61.104 Y158.118 Z-1.3
N7680 X61.274 Y158.152
N7685 X61.958 Y158.279 Z-1.301
N7690 X62.301 Y158.327 Z-1.302
N7695 X62.642 Y158.375 Z-1.303
N7700 X62.815 Y158.397
N7705 X63.507 Y158.463 Z-1.305
N7710 X63.681 Y158.476
N7715 X64.371 Y158.512 Z-1.307
N7720 X64.545 Y158.515
N7725 X65.064 Y158.519 Z-1.308
N7730 X65.239 Y158.52
N7735 X65.933 Y158.496 Z-1.31
N7740 X66.108 Y158.486
N7745 X66.797 Y158.433 Z-1.312
N7750 X66.97 Y158.413
N7755 X67.485 Y158.351 Z-1.313
N7760 X67.658 Y158.329 Z-1.314
N7765 X68.343 Y158.215 Z-1.315
N7770 X68.515 Y158.183
N7775 X69.189 Y158.042 Z-1.317
N7780 X69.359 Y158.
N7785 X69.862 Y157.871 Z-1.318
N7790 X70.032 Y157.827 Z-1.319
N7795 X70.695 Y157.627 Z-1.32
N7800 X70.86 Y157.574
N7805 X71.513 Y157.345 Z-1.322
N7810 X71.676 Y157.282
N7815 X72.32 Y157.024 Z-1.324
N7820 X72.953 Y156.739 Z-1.325
N7825 X73.111 Y156.665 Z-1.326
N7830 X73.728 Y156.353 Z-1.327
N7835 X73.881 Y156.271
N7840 X74.486 Y155.932 Z-1.329
N7845 X74.635 Y155.841
N7850 X75.076 Y155.568 Z-1.33
N7855 X75.223 Y155.475 Z-1.331
N7860 X75.794 Y155.087 Z-1.332
N7865 X75.936 Y154.985 Z-1.333
N7870 X76.492 Y154.571 Z-1.334
N7875 X76.628 Y154.461
N7880 X77.03 Y154.133 Z-1.336
N7885 X77.165 Y154.022
N7890 X77.679 Y153.564 Z-1.337
N7895 X77.807 Y153.445 Z-1.338
N7900 X78.305 Y152.962 Z-1.339
N7905 X78.426 Y152.836 Z-1.34
N7910 X78.782 Y152.459 Z-1.341
N7915 X78.901 Y152.332
N7920 X79.353 Y151.81 Z-1.342
N7925 X79.465 Y151.676 Z-1.343
N7930 X79.895 Y151.133 Z-1.344
N7935 X79.999 Y150.993 Z-1.345
N7940 X80.202 Y150.714
N7945 X80.404 Y150.434 Z-1.346
N7950 X80.786 Y149.855 Z-1.348
N7955 X80.88 Y149.709
N7960 X81.236 Y149.114 Z-1.349
N7965 X81.322 Y148.962 Z-1.35
N7970 X81.651 Y148.354 Z-1.351
N7975 X81.727 Y148.199 Z-1.352
N7980 X81.954 Y147.733 Z-1.353
N7985 X82.029 Y147.576
N7990 X82.305 Y146.941 Z-1.355
N7995 X82.37 Y146.78
N8000 X82.618 Y146.135 Z-1.356
N8005 X82.674 Y145.97 Z-1.357
N8010 X82.839 Y145.478 Z-1.358
N8015 X82.893 Y145.313
N8020 X83.085 Y144.647 Z-1.36
N8025 X83.129 Y144.479
N8030 X83.291 Y143.808 Z-1.362
N8035 X83.326 Y143.638
N8040 X83.426 Y143.128 Z-1.363
N8045 X83.458 Y142.957
N8050 X83.562 Y142.272 Z-1.365
N8055 X83.584 Y142.1
N8060 X83.658 Y141.413 Z-1.367
N8065 X83.671 Y141.24
N8070 X83.704 Y140.723 Z-1.368
N8075 X83.715 Y140.549 Z-1.369
N8080 X83.729 Y139.858 Z-1.37
N8085 Y139.684
N8090 X83.713 Y138.992 Z-1.372
N8095 X83.693 Y138.646 Z-1.373
N8100 X83.658 Y138.129 Z-1.374
N8105 X83.582 Y137.44 Z-1.375
N8110 X83.561 Y137.268
N8115 X83.456 Y136.586 Z-1.377
N8120 X83.425 Y136.415
N8125 X83.29 Y135.736 Z-1.379
N8130 X83.249 Y135.567
N8135 X83.167 Y135.232 Z-1.38
N8140 X83.083 Y134.897 Z-1.381
N8145 X82.89 Y134.233 Z-1.382
N8150 X82.838 Y134.067
N8155 X82.616 Y133.411 Z-1.384
N8160 X82.554 Y133.249
N8165 X82.429 Y132.928 Z-1.385
N8170 X82.303 Y132.606 Z-1.386
N8175 X82.026 Y131.973 Z-1.387
N8180 X81.953 Y131.815 Z-1.388
N8185 X81.648 Y131.194 Z-1.389
N8190 X81.566 Y131.04
N8195 X81.318 Y130.586 Z-1.39
N8200 X81.234 Y130.434 Z-1.391
N8205 X80.877 Y129.843 Z-1.392
N8210 X80.785 Y129.696 Z-1.393
N8215 X80.402 Y129.12 Z-1.394
N8220 X80.302 Y128.978
N8225 X79.996 Y128.559 Z-1.396
N8230 X79.894 Y128.419
N8235 X79.464 Y127.88 Z-1.397
N8240 X79.354 Y127.746 Z-1.398
N8245 X78.899 Y127.224 Z-1.399
N8250 X78.782 Y127.096 Z-1.4
N8255 X78.306 Y126.596 Z-1.401
N8260 X78.182 Y126.475
N8265 X77.809 Y126.116 Z-1.403
N8270 X77.683 Y125.996
N8275 X77.165 Y125.538 Z-1.404
N8280 X77.032 Y125.426 Z-1.405
N8285 X76.497 Y124.992 Z-1.406
N8290 X76.358 Y124.888 Z-1.407
N8295 X75.942 Y124.58 Z-1.408
N8300 X75.801 Y124.478
N8305 X75.228 Y124.09 Z-1.409
N8310 X75.082 Y123.996 Z-1.41
N8315 X74.495 Y123.635 Z-1.411
N8320 X74.344 Y123.55 Z-1.412
N8325 X73.892 Y123.298 Z-1.413
N8330 X73.739 Y123.215
N8335 X73.121 Y122.905 Z-1.415
N8340 X72.965 Y122.83
N8345 X72.336 Y122.548 Z-1.416
N8350 X72.175 Y122.483 Z-1.417
N8355 X71.694 Y122.292 Z-1.418
N8360 X71.532 Y122.228
N8365 X71.043 Y122.058 Z-1.419
N8370 X70.715 Y121.947 Z-1.42
N8375 X70.054 Y121.749 Z-1.422
N8380 X69.887 Y121.704
N8385 X69.217 Y121.535 Z-1.423
N8390 X68.54 Y121.394 Z-1.425
N8395 X68.37 Y121.361
N8400 X67.689 Y121.251 Z-1.427
N8405 X67.346 Y121.207
N8410 X66.831 Y121.146 Z-1.428
N8415 X66.659 Y121.133 Z-1.429
N8420 X66.315 Y121.107 Z-1.43
N8425 X65.97 Y121.083
N8430 X65.28 Y121.062 Z-1.432
N8435 X65.107 Y121.06
N8440 X64.416 Y121.069 Z-1.434
N8445 X64.243 Y121.077
N8450 X63.899 Y121.096 Z-1.435
N8455 X63.554 Y121.117
N8460 X62.868 Y121.185 Z-1.437
N8465 X62.524 Y121.23 Z-1.438
N8470 X62.183 Y121.279
N8475 X61.841 Y121.334 Z-1.439
N8480 X61.503 Y121.397 Z-1.44
N8485 X61.164 Y121.462 Z-1.441
N8490 X60.491 Y121.618 Z-1.442
N8495 X60.157 Y121.707 Z-1.443
N8500 X59.825 Y121.8
N8505 X59.493 Y121.898 Z-1.444
N8510 X59.165 Y122.005 Z-1.445
N8515 X58.838 Y122.112 Z-1.446
N8520 X58.191 Y122.355 Z-1.447
N8525 X57.871 Y122.485 Z-1.448
N8530 X57.554 Y122.62 Z-1.449
N8535 X57.237 Y122.76
N8540 X56.615 Y123.058 Z-1.451
N8545 X56.31 Y123.219 Z-1.452
N8550 X56.005 Y123.381
N8555 X55.705 Y123.552 Z-1.453
N8560 X55.408 Y123.727 Z-1.454
N8565 X55.112 Y123.906
N8570 X54.533 Y124.282 Z-1.456
N8575 X54.252 Y124.481 Z-1.457
N8580 X53.971 Y124.681
N8585 X53.695 Y124.889 Z-1.458
N8590 X53.423 Y125.101 Z-1.459
N8595 X53.153 Y125.316 Z-1.46
N8600 X52.628 Y125.763 Z-1.461
N8605 X52.374 Y125.997 Z-1.462
N8610 X52.121 Y126.232
N8615 X51.874 Y126.473 Z-1.463
N8620 X51.632 Y126.719 Z-1.464
N8625 X51.392 Y126.967 Z-1.465
N8630 X50.929 Y127.478 Z-1.466
N8635 X50.708 Y127.743 Z-1.467
N8640 X50.488 Y128.008 Z-1.468
N8645 X50.273 Y128.279
N8650 X50.065 Y128.554 Z-1.469
N8655 X49.859 Y128.831 Z-1.47
N8660 X49.467 Y129.398 Z-1.471
N8665 X49.281 Y129.689 Z-1.472
N8670 X49.097 Y129.98 Z-1.473
N8675 X48.919 Y130.276
N8680 X48.748 Y130.575 Z-1.474
N8685 X48.579 Y130.876 Z-1.475
N8690 X48.264 Y131.49 Z-1.476
N8695 X48.117 Y131.802 Z-1.477
N8700 X47.972 Y132.115 Z-1.478
N8705 X47.834 Y132.431 Z-1.479
N8710 X47.704 Y132.75
N8715 X47.575 Y133.07 Z-1.48
N8720 X47.341 Y133.718 Z-1.481
N8725 X47.235 Y134.047 Z-1.482
N8730 X47.133 Y134.376 Z-1.483
N8735 X47.036 Y134.707 Z-1.484
N8740 X46.948 Y135.04
N8745 X46.861 Y135.374 Z-1.485
N8750 X46.714 Y136.048 Z-1.487
N8755 X46.651 Y136.387
N8760 X46.592 Y136.726 Z-1.488
N8765 X46.539 Y137.067 Z-1.489
N8770 X46.494 Y137.409
N8775 X46.451 Y137.751 Z-1.49
N8780 X46.392 Y138.438 Z-1.492
N8785 X46.373 Y138.782
N8790 X46.359 Y139.126 Z-1.493
N8795 X46.349 Y139.471 Z-1.494
N8800 X46.35 Y139.816 Z-1.495
N8805 X46.351 Y140.16
N8810 X46.381 Y140.849 Z-1.497
N8815 X46.407 Y141.193
N8820 X46.437 Y141.536 Z-1.498
N8825 X46.472 Y141.879 Z-1.499
N8830 X46.561 Y142.554 Z-1.5
N8835 X46.591 Y142.727 Z-1.501
N8840 X46.682 Y143.24 Z-1.502
N8845 X46.714 Y143.412
N8850 X46.863 Y144.087 Z-1.504
N8855 X46.906 Y144.257
N8860 X47.086 Y144.929 Z-1.506
N8865 X47.138 Y145.097
N8870 X47.294 Y145.592 Z-1.507
N8875 X47.348 Y145.757
N8880 X47.585 Y146.409 Z-1.509
N8885 X47.649 Y146.572
N8890 X47.848 Y147.053 Z-1.51
N8895 X47.915 Y147.215 Z-1.511
N8900 X48.208 Y147.847 Z-1.512
N8905 X48.284 Y148.004 Z-1.513
N8910 X48.603 Y148.62 Z-1.514
N8915 X48.688 Y148.772
N8920 X48.946 Y149.222 Z-1.516
N8925 X49.034 Y149.374
N8930 X49.407 Y149.962 Z-1.517
N8935 X49.503 Y150.108 Z-1.518
N8940 X49.899 Y150.676 Z-1.519
N8945 X50.003 Y150.816 Z-1.52
N8950 X50.318 Y151.229 Z-1.521
N8955 X50.425 Y151.368
N8960 X50.87 Y151.901 Z-1.523
N8965 X50.984 Y152.033
N8970 X51.45 Y152.545 Z-1.524
N8975 X51.572 Y152.671 Z-1.525
N8980 X51.939 Y153.04 Z-1.526
N8985 X52.063 Y153.163
N8990 X52.574 Y153.636 Z-1.528
N8995 X52.705 Y153.751
N9000 X53.232 Y154.198 Z-1.53
N9005 X53.37 Y154.306
N9010 X53.781 Y154.625 Z-1.531
N9015 X53.92 Y154.73 Z-1.532
N9020 X54.488 Y155.132 Z-1.533
N9025 X54.633 Y155.23
N9030 X55.216 Y155.606 Z-1.535
N9035 X55.366 Y155.694
N9040 X55.814 Y155.956 Z-1.536
N9045 X55.966 Y156.042 Z-1.537
N9050 X56.58 Y156.367 Z-1.538
N9055 X56.737 Y156.444 Z-1.539
N9060 X57.207 Y156.667 Z-1.54
N9065 X57.364 Y156.742
N9070 X58.002 Y157.011 Z-1.542
N9075 X58.164 Y157.076
N9080 X58.815 Y157.319 Z-1.543
N9085 X58.981 Y157.375 Z-1.544
N9090 X59.476 Y157.535 Z-1.545
N9095 X59.643 Y157.588
N9100 X60.309 Y157.773 Z-1.547
N9105 X60.478 Y157.816
N9110 X61.155 Y157.972 Z-1.549
N9115 X61.326 Y158.005
N9120 X61.837 Y158.1 Z-1.55
N9125 X62.009 Y158.131
N9130 X62.694 Y158.227 Z-1.552
N9135 X62.867 Y158.248
N9140 X63.559 Y158.315 Z-1.554
N9145 X63.734 Y158.325
N9150 X64.253 Y158.353 Z-1.555
N9155 X64.427 Y158.361 Z-1.556
N9160 X65.119 Y158.367 Z-1.557
N9165 X65.293 Y158.365
N9170 X65.987 Y158.342 Z-1.559
N9175 X66.161 Y158.329
N9180 X66.679 Y158.289 Z-1.56
N9185 X66.852 Y158.274 Z-1.561
N9190 X67.54 Y158.191 Z-1.562
N9195 X67.712 Y158.166 Z-1.563
N9200 X68.398 Y158.052 Z-1.564
N9205 X68.569 Y158.017
N9210 X69.078 Y157.91 Z-1.566
N9215 X69.248 Y157.872
N9220 X69.918 Y157.701 Z-1.567
N9225 X70.086 Y157.653 Z-1.568
N9230 X70.75 Y157.452 Z-1.569
N9235 X70.915 Y157.394 Z-1.57
N9240 X71.405 Y157.222 Z-1.571
N9245 X71.569 Y157.162
N9250 X72.212 Y156.905 Z-1.573
N9255 X72.372 Y156.836
N9260 X72.845 Y156.622 Z-1.574
N9265 X73.004 Y156.55
N9270 X73.623 Y156.238 Z-1.576
N9275 X73.778 Y156.157
N9280 X74.382 Y155.819 Z-1.578
N9285 X74.531 Y155.729
N9290 X74.972 Y155.456 Z-1.579
N9295 X75.12 Y155.364 Z-1.58
N9300 X75.694 Y154.973 Z-1.581
N9305 X75.837 Y154.872 Z-1.582
N9310 X76.392 Y154.459 Z-1.583
N9315 X76.527 Y154.35
N9320 X76.93 Y154.023 Z-1.584
N9325 X77.064 Y153.912 Z-1.585
N9330 X77.583 Y153.45 Z-1.586
N9335 X77.711 Y153.331 Z-1.587
N9340 X78.208 Y152.849 Z-1.588
N9345 X78.328 Y152.724 Z-1.589
N9350 X78.684 Y152.347 Z-1.59
N9355 X78.802 Y152.219
N9360 X79.256 Y151.695 Z-1.592
N9365 X79.367 Y151.561
N9370 X79.798 Y151.017 Z-1.593
N9375 X80.002 Y150.737 Z-1.594
N9380 X80.205 Y150.457 Z-1.595
N9385 X80.305 Y150.315
N9390 X80.688 Y149.736 Z-1.597
N9395 X80.78 Y149.588
N9400 X81.136 Y148.995 Z-1.599
N9405 X81.219 Y148.842
N9410 X81.467 Y148.386 Z-1.6
N9415 X81.548 Y148.232
N9420 X81.852 Y147.609 Z-1.602
N9425 X81.923 Y147.45
N9430 X82.13 Y146.974 Z-1.603
N9435 X82.199 Y146.816 Z-1.604
N9440 X82.448 Y146.169 Z-1.605
N9445 X82.508 Y146.006 Z-1.606
N9450 X82.729 Y145.348 Z-1.607
N9455 X82.779 Y145.181
N9460 X82.922 Y144.683 Z-1.609
N9465 X82.97 Y144.516
N9470 X83.132 Y143.843 Z-1.61
N9475 X83.17 Y143.673 Z-1.611
N9480 X83.304 Y142.993 Z-1.612
N9485 X83.332 Y142.821 Z-1.613
N9490 X83.409 Y142.307 Z-1.614
N9495 X83.435 Y142.135
N9500 X83.509 Y141.448 Z-1.616
N9505 X83.523 Y141.275
N9510 X83.568 Y140.583 Z-1.617
N9515 X83.572 Y140.409 Z-1.618
N9520 X83.583 Y139.89 Z-1.619
N9525 X83.585 Y139.717
N9530 X83.57 Y139.025 Z-1.621
N9535 X83.562 Y138.852
N9540 X83.516 Y138.16 Z-1.623
N9545 X83.498 Y137.987
N9550 X83.441 Y137.471 Z-1.624
N9555 X83.42 Y137.298
N9560 X83.315 Y136.615 Z-1.626
N9565 X83.284 Y136.444
N9570 X83.149 Y135.764 Z-1.628
N9575 X83.108 Y135.595
N9580 X82.985 Y135.091 Z-1.629
N9585 X82.942 Y134.923 Z-1.63
N9590 X82.749 Y134.259 Z-1.631
N9595 X82.696 Y134.094
N9600 X82.529 Y133.602 Z-1.633
N9605 X82.474 Y133.437
N9610 X82.223 Y132.791 Z-1.634
N9615 X82.158 Y132.63 Z-1.635
N9620 X81.881 Y131.996 Z-1.636
N9625 X81.806 Y131.84 Z-1.637
N9630 X81.578 Y131.374 Z-1.638
N9635 X81.501 Y131.218
N9640 X81.169 Y130.61 Z-1.64
N9645 X81.084 Y130.46
N9650 X80.726 Y129.866 Z-1.641
N9655 X80.631 Y129.721 Z-1.642
N9660 X80.345 Y129.289 Z-1.643
N9665 X80.248 Y129.145
N9670 X79.84 Y128.585 Z-1.645
N9675 X79.735 Y128.446
N9680 X79.304 Y127.906 Z-1.647
N9685 X79.191 Y127.774
N9690 X78.851 Y127.383 Z-1.648
N9695 X78.736 Y127.252
N9700 X78.259 Y126.75 Z-1.65
N9705 X78.137 Y126.627
N9710 X77.639 Y126.147 Z-1.652
N9715 X77.51 Y126.031
N9720 X77.122 Y125.687 Z-1.653
N9725 X76.991 Y125.573 Z-1.654
N9730 X76.453 Y125.137 Z-1.655
N9735 X76.316 Y125.032
N9740 X75.759 Y124.619 Z-1.657
N9745 X75.473 Y124.425 Z-1.658
N9750 X75.187 Y124.231
N9755 X75.042 Y124.136 Z-1.659
N9760 X74.453 Y123.773 Z-1.66
N9765 X74.302 Y123.686 Z-1.661
N9770 X73.698 Y123.349 Z-1.662
N9775 X73.389 Y123.194 Z-1.663
N9780 X73.08 Y123.04 Z-1.664
N9785 X72.924 Y122.964
N9790 X72.292 Y122.681 Z-1.665
N9795 X72.132 Y122.615 Z-1.666
N9800 X71.649 Y122.423 Z-1.667
N9805 X71.488 Y122.359
N9810 X70.835 Y122.132 Z-1.669
N9815 X70.671 Y122.078
N9820 X70.008 Y121.879 Z-1.671
N9825 X69.84 Y121.835
N9830 X69.337 Y121.708 Z-1.672
N9835 X69.169 Y121.666
N9840 X68.493 Y121.525 Z-1.674
N9845 X68.322 Y121.493
N9850 X67.639 Y121.382 Z-1.676
N9855 X67.467 Y121.36
N9860 X67.124 Y121.319 Z-1.677
N9865 X66.781 Y121.28 Z-1.678
N9870 X66.091 Y121.228 Z-1.679
N9875 X65.918 Y121.219
N9880 X65.226 Y121.197 Z-1.681
N9885 X65.053 Y121.198
N9890 X64.535 Y121.204 Z-1.682
N9895 X64.361 Y121.208 Z-1.683
N9900 X63.672 Y121.246 Z-1.684
N9905 X63.499 Y121.26 Z-1.685
N9910 X62.81 Y121.328 Z-1.686
N9915 X62.639 Y121.351
N9920 X62.297 Y121.4 Z-1.687
N9925 X61.955 Y121.451 Z-1.688
N9930 X61.275 Y121.578 Z-1.689
N9935 X60.937 Y121.654 Z-1.69
N9940 X60.432 Y121.771 Z-1.691
N9945 X60.265 Y121.818 Z-1.692
N9950 X59.766 Y121.957 Z-1.693
N9955 X59.599 Y122.006
N9960 X58.942 Y122.22 Z-1.695
N9965 X58.618 Y122.339
N9970 X58.294 Y122.46 Z-1.696
N9975 X58.132 Y122.521
N9980 X57.495 Y122.792 Z-1.698
N9985 X57.337 Y122.862
N9990 X56.714 Y123.159 Z-1.7
N9995 X56.56 Y123.239
N10000 X56.102 Y123.482 Z-1.701
N10005 X55.8 Y123.652 Z-1.702
N10010 X55.503 Y123.827 Z-1.703
N10015 X55.206 Y124.005
N10020 X54.626 Y124.381 Z-1.705
N10025 X54.343 Y124.58 Z-1.706
N10030 X54.062 Y124.78
N10035 X53.785 Y124.988 Z-1.707
N10040 X53.513 Y125.2 Z-1.708
N10045 X53.242 Y125.415 Z-1.709
N10050 X52.716 Y125.864 Z-1.71
N10055 X52.462 Y126.098 Z-1.711
N10060 X52.209 Y126.333 Z-1.712
N10065 X51.961 Y126.575
N10070 X51.719 Y126.82 Z-1.713
N10075 X51.478 Y127.069 Z-1.714
N10080 X51.015 Y127.582 Z-1.715
N10085 X50.793 Y127.847 Z-1.716
N10090 X50.573 Y128.113 Z-1.717
N10095 X50.359 Y128.385
N10100 X50.151 Y128.66 Z-1.718
N10105 X49.945 Y128.938 Z-1.719
N10110 X49.552 Y129.507 Z-1.72
N10115 X49.367 Y129.799 Z-1.721
N10120 X49.183 Y130.091 Z-1.722
N10125 X49.007 Y130.388 Z-1.723
N10130 X48.836 Y130.688
N10135 X48.669 Y130.991 Z-1.724
N10140 X48.352 Y131.605 Z-1.726
N10145 X48.207 Y131.919
N10150 X48.063 Y132.232 Z-1.727
N10155 X47.927 Y132.55 Z-1.728
N10160 X47.796 Y132.87 Z-1.729
N10165 X47.67 Y133.192
N10170 X47.553 Y133.516 Z-1.73
N10175 X47.436 Y133.842 Z-1.731
N10180 X47.231 Y134.501 Z-1.732
N10185 X47.138 Y134.834 Z-1.733
N10190 X47.049 Y135.168 Z-1.734
N10195 X46.966 Y135.503
N10200 X46.892 Y135.841 Z-1.735
N10205 X46.819 Y136.178 Z-1.736
N10210 X46.701 Y136.859 Z-1.737
N10215 X46.652 Y137.201 Z-1.738
N10220 X46.608 Y137.543 Z-1.739
N10225 X46.569 Y137.886 Z-1.74
N10230 X46.54 Y138.231
N10235 X46.512 Y138.575 Z-1.741
N10240 X46.482 Y139.265 Z-1.743
N10245 X46.479 Y139.61
N10250 Y139.955 Z-1.744
N10255 X46.486 Y140.301 Z-1.745
N10260 X46.502 Y140.646
N10265 X46.518 Y140.991 Z-1.746
N10270 X46.579 Y141.679 Z-1.748
N10275 X46.621 Y142.021
N10280 X46.666 Y142.364 Z-1.749
N10285 X46.718 Y142.705 Z-1.75
N10290 X46.818 Y143.272 Z-1.751
N10295 X46.852 Y143.442
N10300 X47.001 Y144.116 Z-1.753
N10305 X47.046 Y144.284
N10310 X47.18 Y144.785 Z-1.754
N10315 X47.227 Y144.953 Z-1.755
N10320 X47.435 Y145.614 Z-1.756
N10325 X47.492 Y145.778 Z-1.757
N10330 X47.61 Y146.103
N10335 X47.727 Y146.427 Z-1.758
N10340 X47.991 Y147.067 Z-1.76
N10345 X48.061 Y147.227
N10350 X48.352 Y147.856 Z-1.762
N10355 X48.431 Y148.011
N10360 X48.67 Y148.472 Z-1.763
N10365 X48.751 Y148.626
N10370 X49.094 Y149.224 Z-1.765
N10375 X49.184 Y149.373
N10380 X49.554 Y149.958 Z-1.767
N10385 X49.653 Y150.102
N10390 X49.949 Y150.528 Z-1.768
N10395 X50.051 Y150.67 Z-1.769
N10400 X50.468 Y151.218 Z-1.77
N10405 X50.577 Y151.353
N10410 X51.021 Y151.886 Z-1.772
N10415 X51.138 Y152.015
N10420 X51.486 Y152.398 Z-1.773
N10425 X51.605 Y152.525 Z-1.774
N10430 X52.09 Y153.015 Z-1.775
N10435 X52.217 Y153.135 Z-1.776
N10440 X52.598 Y153.487 Z-1.777
N10445 X52.726 Y153.605
N10450 X53.254 Y154.052 Z-1.779
N10455 X53.389 Y154.162
N10460 X53.935 Y154.586 Z-1.78
N10465 X54.075 Y154.687 Z-1.781
N10470 X54.498 Y154.986 Z-1.782
N10475 X54.641 Y155.086
N10480 X55.223 Y155.462 Z-1.784
N10485 X55.371 Y155.552
N10490 X55.966 Y155.901 Z-1.786
N10495 X56.119 Y155.983
N10500 X56.577 Y156.225 Z-1.787
N10505 X56.732 Y156.304 Z-1.788
N10510 X57.358 Y156.601 Z-1.789
N10515 X57.517 Y156.672
N10520 X57.994 Y156.873 Z-1.791
N10525 X58.155 Y156.941
N10530 X58.8 Y157.181 Z-1.792
N10535 X58.964 Y157.24 Z-1.793
N10540 X59.623 Y157.453 Z-1.794
N10545 X59.79 Y157.501 Z-1.795
N10550 X60.122 Y157.593
N10555 X60.455 Y157.684 Z-1.796
N10560 X61.13 Y157.84 Z-1.798
N10565 X61.3 Y157.875
N10570 X61.98 Y158.001 Z-1.799
N10575 X62.152 Y158.027 Z-1.8
N10580 X62.665 Y158.099 Z-1.801
N10585 X62.837 Y158.122
N10590 X63.524 Y158.188 Z-1.803
N10595 X63.697 Y158.201
N10600 X64.388 Y158.237 Z-1.805
N10605 X64.562 Y158.24
N10610 X65.08 Y158.245 Z-1.806
N10615 X65.254 Y158.244 Z-1.807
N10620 X65.944 Y158.221 Z-1.808
N10625 X66.117 Y158.21
N10630 X66.633 Y158.171 Z-1.809
N10635 X66.806 Y158.157 Z-1.81
N10640 X67.493 Y158.074 Z-1.811
N10645 X67.665 Y158.05 Z-1.812
N10650 X68.345 Y157.938 Z-1.813
N10655 X68.516 Y157.904 Z-1.814
N10660 X69.023 Y157.798 Z-1.815
N10665 X69.193 Y157.761
N10670 X69.695 Y157.633 Z-1.816
N10675 X70.029 Y157.544 Z-1.817
N10680 X70.69 Y157.344 Z-1.818
N10685 X70.854 Y157.288 Z-1.819
N10690 X71.343 Y157.117 Z-1.82
N10695 X71.507 Y157.058
N10700 X72.149 Y156.801 Z-1.822
N10705 X72.308 Y156.733
N10710 X72.938 Y156.449 Z-1.824
N10715 X73.093 Y156.371
N10720 X73.555 Y156.138 Z-1.825
N10725 X73.709 Y156.058
N10730 X74.313 Y155.72 Z-1.827
N10735 X74.462 Y155.631
N10740 X74.902 Y155.359 Z-1.828
N10745 X75.049 Y155.267 Z-1.829
N10750 X75.62 Y154.88 Z-1.83
N10755 X75.762 Y154.78 Z-1.831
N10760 X76.316 Y154.367 Z-1.832
N10765 X76.452 Y154.258 Z-1.833
N10770 X76.854 Y153.931 Z-1.834
N10775 X76.987 Y153.821
N10780 X77.502 Y153.363 Z-1.835
N10785 X77.63 Y153.245 Z-1.836
N10790 X78.126 Y152.763 Z-1.837
N10795 X78.246 Y152.638 Z-1.838
N10800 X78.602 Y152.262 Z-1.839
N10805 X78.719 Y152.134
N10810 X79.171 Y151.613 Z-1.841
N10815 X79.281 Y151.479
N10820 X79.711 Y150.937 Z-1.843
N10825 X79.813 Y150.797
N10830 X80.015 Y150.518 Z-1.844
N10835 X80.216 Y150.237
N10840 X80.597 Y149.66 Z-1.846
N10845 X80.777 Y149.365 Z-1.847
N10850 X80.954 Y149.069
N10855 X81.043 Y148.92 Z-1.848
N10860 X81.373 Y148.313 Z-1.849
N10865 X81.453 Y148.159 Z-1.85
N10870 X81.756 Y147.538 Z-1.851
N10875 X81.895 Y147.222 Z-1.852
N10880 X82.032 Y146.907 Z-1.853
N10885 X82.101 Y146.747
N10890 X82.349 Y146.102 Z-1.854
N10895 X82.407 Y145.939 Z-1.855
N10900 X82.627 Y145.286 Z-1.856
N10905 X82.676 Y145.119 Z-1.857
N10910 X82.819 Y144.622 Z-1.858
N10915 X82.865 Y144.455
N10920 X83.028 Y143.783 Z-1.86
N10925 X83.064 Y143.613
N10930 X83.164 Y143.105 Z-1.861
N10935 X83.197 Y142.935
N10940 X83.301 Y142.254 Z-1.863
N10945 X83.324 Y142.082
N10950 X83.398 Y141.395 Z-1.865
N10955 X83.411 Y141.222
N10960 X83.433 Y140.878 Z-1.866
N10965 X83.455 Y140.534 Z-1.867
N10970 X83.469 Y139.844 Z-1.868
N10975 Y139.67 Z-1.869
N10980 X83.454 Y138.98 Z-1.87
N10985 X83.443 Y138.807
N10990 X83.421 Y138.463 Z-1.871
N10995 X83.397 Y138.118 Z-1.872
N11000 X83.321 Y137.433 Z-1.873
N11005 X83.298 Y137.261 Z-1.874
N11010 X83.193 Y136.578 Z-1.875
N11015 X83.16 Y136.408 Z-1.876
N11020 X83.093 Y136.07
N11025 X83.024 Y135.731 Z-1.877
N11030 X82.86 Y135.061 Z-1.879
N11035 X82.815 Y134.894
N11040 X82.67 Y134.397 Z-1.88
N11045 X82.622 Y134.231
N11050 X82.456 Y133.741 Z-1.882
N11055 X82.343 Y133.414
N11060 X82.094 Y132.771 Z-1.884
N11065 X82.026 Y132.612
N11070 X81.819 Y132.137 Z-1.885
N11075 X81.672 Y131.824 Z-1.886
N11080 X81.521 Y131.514 Z-1.887
N11085 X81.365 Y131.205
N11090 X81.035 Y130.599 Z-1.889
N11095 X80.858 Y130.303 Z-1.89
N11100 X80.68 Y130.008
N11105 X80.493 Y129.717 Z-1.891
N11110 X80.303 Y129.43 Z-1.892
N11115 X80.108 Y129.144 Z-1.893
N11120 X79.702 Y128.586 Z-1.894
N11125 X79.487 Y128.315 Z-1.895
N11130 X79.273 Y128.046 Z-1.896
N11135 X79.049 Y127.782
N11140 X78.823 Y127.522 Z-1.897
N11145 X78.593 Y127.264 Z-1.898
N11150 X78.355 Y127.014 Z-1.899
N11155 X78.118 Y126.764
N11160 X77.622 Y126.285 Z-1.901
N11165 X77.366 Y126.052 Z-1.902
N11170 X77.108 Y125.823
N11175 X76.845 Y125.598 Z-1.903
N11180 X76.578 Y125.381 Z-1.904
N11185 X76.308 Y125.164 Z-1.905
N11190 X75.755 Y124.753 Z-1.906
N11195 X75.471 Y124.557 Z-1.907
N11200 X75.185 Y124.364
N11205 X74.895 Y124.175 Z-1.908
N11210 X74.602 Y123.995 Z-1.909
N11215 X74.307 Y123.815 Z-1.91
N11220 X73.705 Y123.48 Z-1.911
N11225 X73.397 Y123.322 Z-1.912
N11230 X73.089 Y123.168 Z-1.913
N11235 X72.777 Y123.019
N11240 X72.463 Y122.878 Z-1.914
N11245 X72.146 Y122.739 Z-1.915
N11250 X71.506 Y122.484 Z-1.916
N11255 X71.18 Y122.368 Z-1.917
N11260 X70.855 Y122.255 Z-1.918
N11265 X70.526 Y122.149 Z-1.919
N11270 X70.196 Y122.05
N11275 X69.865 Y121.954 Z-1.92
N11280 X69.195 Y121.784 Z-1.922
N11285 X68.858 Y121.713
N11290 X68.521 Y121.642 Z-1.923
N11295 X68.181 Y121.581 Z-1.924
N11300 X67.841 Y121.525 Z-1.925
N11305 X67.499 Y121.473
N11310 X66.814 Y121.392 Z-1.927
N11315 X66.471 Y121.365
N11320 X66.127 Y121.339 Z-1.928
N11325 X65.782 Y121.323 Z-1.929
N11330 X65.438 Y121.312 Z-1.93
N11335 X65.093 Y121.306
N11340 X64.403 Y121.314 Z-1.932
N11345 X64.059 Y121.333 Z-1.933
N11350 X63.715 Y121.352
N11355 X63.37 Y121.381 Z-1.934
N11360 X63.028 Y121.414 Z-1.935
N11365 X62.685 Y121.454 Z-1.936
N11370 X62.344 Y121.502
N11375 X62.002 Y121.552 Z-1.937
N11380 X61.325 Y121.678 Z-1.939
N11385 X60.987 Y121.753
N11390 X60.652 Y121.831 Z-1.94
N11395 X60.317 Y121.915 Z-1.941
N11400 X59.985 Y122.007 Z-1.942
N11405 X59.653 Y122.101
N11410 X58.998 Y122.314 Z-1.944
N11415 X58.673 Y122.432 Z-1.945
N11420 X58.351 Y122.553
N11425 X58.03 Y122.68 Z-1.946
N11430 X57.713 Y122.815 Z-1.947
N11435 X57.396 Y122.952
N11440 X56.774 Y123.249 Z-1.949
N11445 X56.468 Y123.408 Z-1.95
N11450 X56.164 Y123.57
N11455 X55.862 Y123.738 Z-1.951
N11460 X55.566 Y123.913 Z-1.952
N11465 X55.27 Y124.09 Z-1.953
N11470 X54.691 Y124.465 Z-1.954
N11475 X54.409 Y124.663 Z-1.955
N11480 X54.128 Y124.863 Z-1.956
N11485 X53.852 Y125.069
N11490 X53.58 Y125.281 Z-1.957
N11495 X53.31 Y125.496 Z-1.958
N11500 X52.785 Y125.942 Z-1.959
N11505 X52.532 Y126.176 Z-1.96
N11510 X52.279 Y126.41 Z-1.961
N11515 X52.033 Y126.652 Z-1.962
N11520 X51.791 Y126.897
N11525 X51.551 Y127.145 Z-1.963
N11530 X51.089 Y127.656 Z-1.965
N11535 X50.868 Y127.921
N11540 X50.648 Y128.186 Z-1.966
N11545 X50.436 Y128.458 Z-1.967
N11550 X50.227 Y128.732
N11555 X50.023 Y129.01 Z-1.968
N11560 X49.827 Y129.293 Z-1.969
N11565 X49.631 Y129.576 Z-1.97
N11570 X49.263 Y130.159 Z-1.971
N11575 X49.088 Y130.456 Z-1.972
N11580 X48.917 Y130.755 Z-1.973
N11585 X48.751 Y131.057
N11590 X48.593 Y131.363 Z-1.974
N11595 X48.436 Y131.67 Z-1.975
N11600 X48.147 Y132.296 Z-1.976
N11605 X48.013 Y132.613 Z-1.977
N11610 X47.882 Y132.932 Z-1.978
N11615 X47.757 Y133.253 Z-1.979
N11620 X47.641 Y133.577
N11625 X47.525 Y133.902 Z-1.98
N11630 X47.32 Y134.56 Z-1.982
N11635 X47.229 Y134.892
N11640 X47.14 Y135.225 Z-1.983
N11645 X47.059 Y135.56 Z-1.984
N11650 X46.985 Y135.896 Z-1.985
N11655 X46.914 Y136.234
N11660 X46.795 Y136.912 Z-1.987
N11665 X46.749 Y137.254
N11670 X46.704 Y137.595 Z-1.988
N11675 X46.668 Y137.938 Z-1.989
N11680 X46.638 Y138.281 Z-1.99
N11685 X46.612 Y138.624
N11690 X46.582 Y139.313 Z-1.992
N11695 X46.581 Y139.657 Z-1.993
N11700 Y140.002
N11705 X46.59 Y140.346 Z-1.994
N11710 X46.605 Y140.69 Z-1.995
N11715 X46.624 Y141.034 Z-1.996
N11720 X46.684 Y141.72 Z-1.997
N11725 X46.728 Y142.062 Z-1.998
N11730 X46.773 Y142.404 Z-1.999
N11735 X46.827 Y142.744
N11740 X46.912 Y143.227 Z-2.
N11745 X46.946 Y143.398 Z-2.001
N11750 X47.095 Y144.073 Z-2.002
N11755 X47.139 Y144.241 Z-2.003
N11760 X47.272 Y144.742 Z-2.004
N11765 X47.319 Y144.91
N11770 X47.526 Y145.571 Z-2.006
N11775 X47.583 Y145.736
N11780 X47.701 Y146.061 Z-2.007
N11785 X47.819 Y146.386
N11790 X48.083 Y147.026 Z-2.009
N11795 X48.152 Y147.186
N11800 X48.443 Y147.815 Z-2.011
N11805 X48.522 Y147.97
N11810 X48.761 Y148.431 Z-2.012
N11815 X48.842 Y148.585 Z-2.013
N11820 X49.185 Y149.184 Z-2.014
N11825 X49.276 Y149.332 Z-2.015
N11830 X49.647 Y149.918 Z-2.016
N11835 X49.746 Y150.061
N11840 X50.042 Y150.487 Z-2.018
N11845 X50.144 Y150.628
N11850 X50.562 Y151.178 Z-2.019
N11855 X50.672 Y151.313 Z-2.02
N11860 X51.004 Y151.712 Z-2.021
N11865 X51.116 Y151.844
N11870 X51.582 Y152.357 Z-2.023
N11875 X51.702 Y152.483
N11880 X52.188 Y152.974 Z-2.025
N11885 X52.316 Y153.092
N11890 X52.697 Y153.445 Z-2.026
N11895 X52.826 Y153.561 Z-2.027
N11900 X53.354 Y154.009 Z-2.028
N11905 X53.491 Y154.117
N11910 X53.901 Y154.435 Z-2.03
N11915 X54.039 Y154.541
N11920 X54.602 Y154.941 Z-2.031
N11925 X54.746 Y155.038 Z-2.032
N11930 X55.328 Y155.414 Z-2.033
N11935 X55.478 Y155.502 Z-2.034
N11940 X55.926 Y155.764 Z-2.035
N11945 X56.077 Y155.85
N11950 X56.688 Y156.174 Z-2.037
N11955 X57. Y156.324
N11960 X57.312 Y156.472 Z-2.038
N11965 X57.469 Y156.546 Z-2.039
N11970 X58.107 Y156.816 Z-2.04
N11975 X58.268 Y156.88
N11980 X58.916 Y157.122 Z-2.042
N11985 X59.081 Y157.176
N11990 X59.574 Y157.336 Z-2.043
N11995 X59.74 Y157.387 Z-2.044
N12000 X60.408 Y157.572 Z-2.045
N12005 X60.577 Y157.614 Z-2.046
N12010 X60.913 Y157.691
N12015 X61.25 Y157.768 Z-2.047
N12020 X61.931 Y157.895 Z-2.049
N12025 X62.102 Y157.923
N12030 X62.788 Y158.02 Z-2.051
N12035 X62.961 Y158.037
N12040 X63.477 Y158.088 Z-2.052
N12045 X63.65 Y158.102
N12050 X64.34 Y158.139 Z-2.054
N12055 X64.513 Y158.144
N12060 X65.032 Y158.149 Z-2.055
N12065 X65.206 Y158.151 Z-2.056
N12070 X65.724 Y158.133 Z-2.057
N12075 X66.07 Y158.119 Z-2.058
N12080 X66.761 Y158.066 Z-2.059
N12085 X67.105 Y158.025 Z-2.06
N12090 X67.447 Y157.984 Z-2.061
N12095 X67.62 Y157.962
N12100 X68.303 Y157.849 Z-2.062
N12105 X68.474 Y157.817 Z-2.063
N12110 X69.15 Y157.675 Z-2.064
N12115 X69.82 Y157.504 Z-2.066
N12120 X69.988 Y157.458
N12125 X70.65 Y157.258 Z-2.068
N12130 X70.815 Y157.202
N12135 X71.305 Y157.031 Z-2.069
N12140 X71.468 Y156.972 Z-2.07
N12145 X72.109 Y156.716 Z-2.071
N12150 X72.269 Y156.648
N12155 X72.9 Y156.363 Z-2.073
N12160 X73.055 Y156.286
N12165 X73.518 Y156.052 Z-2.074
N12170 X73.672 Y155.972 Z-2.075
N12175 X74.275 Y155.635 Z-2.076
N12180 X74.423 Y155.545 Z-2.077
N12185 X74.865 Y155.273 Z-2.078
N12190 X75.012 Y155.181
N12195 X75.584 Y154.792 Z-2.08
N12200 X75.725 Y154.691
N12205 X76.279 Y154.279 Z-2.082
N12210 X76.414 Y154.17
N12215 X76.816 Y153.842 Z-2.083
N12220 X76.949 Y153.731
N12225 X77.467 Y153.271 Z-2.085
N12230 X77.593 Y153.152
N12235 X77.965 Y152.791 Z-2.086
N12240 X78.089 Y152.669 Z-2.087
N12245 X78.564 Y152.168 Z-2.088
N12250 X78.68 Y152.039 Z-2.089
N12255 X79.133 Y151.516 Z-2.09
N12260 X79.242 Y151.381 Z-2.091
N12265 X79.564 Y150.975 Z-2.092
N12270 X79.67 Y150.837
N12275 X80.076 Y150.279 Z-2.093
N12280 X80.173 Y150.136 Z-2.094
N12285 X80.46 Y149.703 Z-2.095
N12290 X80.555 Y149.558
N12295 X80.911 Y148.965 Z-2.097
N12300 X80.997 Y148.814
N12305 X81.327 Y148.207 Z-2.099
N12310 X81.48 Y147.897
N12315 X81.631 Y147.586 Z-2.1
N12320 X81.706 Y147.43 Z-2.101
N12325 X81.982 Y146.796 Z-2.102
N12330 X82.047 Y146.635
N12335 X82.171 Y146.313 Z-2.103
N12340 X82.295 Y145.99 Z-2.104
N12345 X82.515 Y145.335 Z-2.105
N12350 X82.567 Y145.169 Z-2.106
N12355 X82.759 Y144.504 Z-2.107
N12360 X82.801 Y144.336 Z-2.108
N12365 X82.882 Y144.001
N12370 X82.962 Y143.664 Z-2.109
N12375 X83.096 Y142.986 Z-2.111
N12380 X83.125 Y142.815
N12385 X83.203 Y142.303 Z-2.112
N12390 X83.229 Y142.131 Z-2.113
N12395 X83.303 Y141.444 Z-2.114
N12400 X83.319 Y141.271
N12405 X83.363 Y140.582 Z-2.116
N12410 X83.372 Y140.236 Z-2.117
N12415 X83.379 Y139.891
N12420 X83.381 Y139.717 Z-2.118
N12425 X83.37 Y139.199 Z-2.119
N12430 X83.358 Y138.853 Z-2.12
N12435 X83.312 Y138.163 Z-2.121
N12440 X83.275 Y137.819 Z-2.122
N12445 X83.237 Y137.476 Z-2.123
N12450 X83.216 Y137.304
N12455 X83.111 Y136.621 Z-2.124
N12460 X83.079 Y136.45 Z-2.125
N12465 X83.012 Y136.112 Z-2.126
N12470 X82.943 Y135.773
N12475 X82.78 Y135.102 Z-2.128
N12480 X82.735 Y134.934
N12485 X82.542 Y134.27 Z-2.13
N12490 X82.487 Y134.106
N12495 X82.377 Y133.779 Z-2.131
N12500 X82.264 Y133.452 Z-2.132
N12505 X82.015 Y132.808 Z-2.133
N12510 X81.947 Y132.648
N12515 X81.739 Y132.173 Z-2.135
N12520 X81.669 Y132.015
N12525 X81.365 Y131.394 Z-2.136
N12530 X81.285 Y131.24 Z-2.137
N12535 X80.955 Y130.634 Z-2.138
N12540 X80.866 Y130.486 Z-2.139
N12545 X80.599 Y130.042 Z-2.14
N12550 X80.507 Y129.895
N12555 X80.125 Y129.318 Z-2.142
N12560 X80.025 Y129.177
N12565 X79.72 Y128.758 Z-2.143
N12570 X79.618 Y128.618 Z-2.144
N12575 X79.188 Y128.078 Z-2.145
N12580 X78.964 Y127.814 Z-2.146
N12585 X78.738 Y127.554 Z-2.147
N12590 X78.505 Y127.297
N12595 X78.268 Y127.047 Z-2.148
N12600 X78.028 Y126.797 Z-2.149
N12605 X77.532 Y126.317 Z-2.15
N12610 X77.275 Y126.086 Z-2.151
N12615 X77.016 Y125.857 Z-2.152
N12620 X76.752 Y125.633 Z-2.153
N12625 X76.484 Y125.416
N12630 X76.213 Y125.2 Z-2.154
N12635 X75.659 Y124.789 Z-2.155
N12640 X75.373 Y124.594 Z-2.156
N12645 X75.088 Y124.4 Z-2.157
N12650 X74.796 Y124.214 Z-2.158
N12655 X74.502 Y124.033
N12660 X74.205 Y123.856 Z-2.159
N12665 X73.904 Y123.688 Z-2.16
N12670 X73.601 Y123.519 Z-2.161
N12675 X72.984 Y123.21 Z-2.162
N12680 X72.67 Y123.064 Z-2.163
N12685 X72.356 Y122.923 Z-2.164
N12690 X72.038 Y122.786
N12695 X71.717 Y122.659 Z-2.165
N12700 X71.395 Y122.532 Z-2.166
N12705 X70.743 Y122.305 Z-2.167
N12710 X70.413 Y122.203 Z-2.168
N12715 X70.082 Y122.104 Z-2.169
N12720 X69.749 Y122.011 Z-2.17
N12725 X69.414 Y121.926
N12730 X69.079 Y121.844 Z-2.171
N12735 X68.403 Y121.703 Z-2.173
N12740 X68.062 Y121.646
N12745 X67.721 Y121.59 Z-2.174
N12750 X67.378 Y121.543 Z-2.175
N12755 X67.036 Y121.502 Z-2.176
N12760 X66.692 Y121.465
N12765 X66.003 Y121.413 Z-2.178
N12770 X65.658 Y121.402 Z-2.179
N12775 X65.313 Y121.391
N12780 X64.967 Y121.39 Z-2.18
N12785 X64.622 Y121.394 Z-2.181
N12790 X64.276 Y121.403 Z-2.182
N12795 X63.932 Y121.422
N12800 X63.587 Y121.442 Z-2.183
N12805 X62.9 Y121.51 Z-2.185
N12810 X62.557 Y121.555
N12815 X62.215 Y121.604 Z-2.186
N12820 X61.874 Y121.659 Z-2.187
N12825 X61.535 Y121.723 Z-2.188
N12830 X61.196 Y121.788
N12835 X60.523 Y121.944 Z-2.19
N12840 X60.19 Y122.035 Z-2.191
N12845 X59.857 Y122.127
N12850 X59.526 Y122.228 Z-2.192
N12855 X59.198 Y122.335 Z-2.193
N12860 X58.871 Y122.445 Z-2.194
N12865 X58.224 Y122.687 Z-2.195
N12870 X57.906 Y122.821 Z-2.196
N12875 X57.588 Y122.956 Z-2.197
N12880 X57.274 Y123.1
N12885 X56.962 Y123.248 Z-2.198
N12890 X56.653 Y123.402 Z-2.199
N12895 X56.348 Y123.563 Z-2.2
N12900 X56.043 Y123.726
N12905 X55.448 Y124.076 Z-2.202
N12910 X55.155 Y124.26 Z-2.203
N12915 X54.866 Y124.448
N12920 X54.579 Y124.641 Z-2.204
N12925 X54.298 Y124.841 Z-2.205
N12930 X54.018 Y125.042
N12935 X53.473 Y125.466 Z-2.207
N12940 X53.208 Y125.688 Z-2.208
N12945 X52.945 Y125.912
N12950 X52.687 Y126.141 Z-2.209
N12955 X52.434 Y126.376 Z-2.21
N12960 X52.183 Y126.613 Z-2.211
N12965 X51.698 Y127.104 Z-2.212
N12970 X51.465 Y127.359 Z-2.213
N12975 X51.233 Y127.615 Z-2.214
N12980 X51.008 Y127.877
N12985 X50.788 Y128.142 Z-2.215
N12990 X50.571 Y128.411 Z-2.216
N12995 X50.153 Y128.961 Z-2.217
N13000 X49.956 Y129.245 Z-2.218
N13005 X49.76 Y129.528 Z-2.219
N13010 X49.572 Y129.818 Z-2.22
N13015 X49.388 Y130.11
N13020 X49.208 Y130.405 Z-2.221
N13025 X49.037 Y130.704 Z-2.222
N13030 X48.867 Y131.005 Z-2.223
N13035 X48.55 Y131.618 Z-2.224
N13040 X48.403 Y131.93 Z-2.225
N13045 X48.258 Y132.243 Z-2.226
N13050 X48.12 Y132.56
N13055 X47.989 Y132.879 Z-2.227
N13060 X47.86 Y133.199 Z-2.228
N13065 X47.626 Y133.849 Z-2.229
N13070 X47.521 Y134.178 Z-2.23
N13075 X47.418 Y134.507 Z-2.231
N13080 X47.323 Y134.839 Z-2.232
N13085 X47.235 Y135.173
N13090 X47.15 Y135.507 Z-2.233
N13095 X47.002 Y136.181 Z-2.235
N13100 X46.942 Y136.521
N13105 X46.883 Y136.861 Z-2.236
N13110 X46.833 Y137.203 Z-2.237
N13115 X46.789 Y137.545 Z-2.238
N13120 X46.749 Y137.888
N13125 X46.72 Y138.232 Z-2.239
N13130 X46.691 Y138.576 Z-2.24
N13135 X46.661 Y139.265 Z-2.241
N13140 X46.658 Y139.61 Z-2.242
N13145 Y139.955 Z-2.243
N13150 X46.665 Y140.3 Z-2.244
N13155 X46.68 Y140.645
N13160 X46.697 Y140.99 Z-2.245
N13165 X46.757 Y141.677 Z-2.247
N13170 X46.8 Y142.02
N13175 X46.845 Y142.362 Z-2.248
N13180 X46.897 Y142.703 Z-2.249
N13185 X47.002 Y143.298 Z-2.25
N13190 X47.006 Y143.319
N13195 X47.146 Y143.954 Z-2.252
N13200 X47.186 Y144.123
N13205 X47.364 Y144.791 Z-2.253
N13210 X47.413 Y144.958 Z-2.254
N13215 X47.569 Y145.453 Z-2.255
N13220 X47.621 Y145.618
N13225 X47.856 Y146.268 Z-2.257
N13230 X47.919 Y146.43
N13235 X48.182 Y147.07 Z-2.259
N13240 X48.254 Y147.228
N13245 X48.472 Y147.698 Z-2.26
N13250 X48.547 Y147.854 Z-2.261
N13255 X48.864 Y148.469 Z-2.262
N13260 X48.949 Y148.62
N13265 X49.206 Y149.07 Z-2.264
N13270 X49.293 Y149.22
N13275 X49.663 Y149.805 Z-2.265
N13280 X49.759 Y149.95 Z-2.266
N13285 X50.153 Y150.517 Z-2.267
N13290 X50.258 Y150.655 Z-2.268
N13295 X50.572 Y151.068 Z-2.269
N13300 X50.679 Y151.205
N13305 X51.122 Y151.737 Z-2.271
N13310 X51.237 Y151.867
N13315 X51.585 Y152.251 Z-2.272
N13320 X51.703 Y152.378 Z-2.273
N13325 X52.189 Y152.869 Z-2.274
N13330 X52.314 Y152.99
N13335 X52.821 Y153.46 Z-2.276
N13340 X52.954 Y153.572
N13345 X53.349 Y153.908 Z-2.277
N13350 X53.483 Y154.018 Z-2.278
N13355 X54.028 Y154.441 Z-2.279
N13360 X54.169 Y154.543 Z-2.28
N13365 X54.592 Y154.843 Z-2.281
N13370 X54.734 Y154.943
N13375 X55.315 Y155.318 Z-2.283
N13380 X55.463 Y155.409
N13385 X56.06 Y155.759 Z-2.285
N13390 X56.365 Y155.921
N13395 X56.67 Y156.082 Z-2.286
N13400 X56.825 Y156.161
N13405 X57.45 Y156.458 Z-2.288
N13410 X57.609 Y156.527
N13415 X57.927 Y156.661 Z-2.289
N13420 X58.246 Y156.795 Z-2.29
N13425 X58.894 Y157.036 Z-2.291
N13430 X59.058 Y157.092 Z-2.292
N13435 X59.551 Y157.252 Z-2.293
N13440 X59.716 Y157.306
N13445 X60.383 Y157.491 Z-2.295
N13450 X60.551 Y157.534
N13455 X61.224 Y157.689 Z-2.297
N13460 X61.394 Y157.722
N13465 X61.904 Y157.817 Z-2.298
N13470 X62.074 Y157.847
N13475 X62.76 Y157.943 Z-2.3
N13480 X62.932 Y157.963
N13485 X63.448 Y158.013 Z-2.301
N13490 X63.621 Y158.03 Z-2.302
N13495 X64.31 Y158.067 Z-2.303
N13500 X64.483 Y158.072 Z-2.304
N13505 X65.175 Y158.08 Z-2.305
N13510 X65.348 Y158.075 Z-2.306
N13515 X65.693 Y158.063
N13520 X66.039 Y158.05 Z-2.307
N13525 X66.728 Y157.997 Z-2.309
N13530 X66.9 Y157.979
N13535 X67.415 Y157.917 Z-2.31
N13540 X67.587 Y157.896
N13545 X68.27 Y157.784 Z-2.312
N13550 X68.44 Y157.752
N13555 X69.117 Y157.61 Z-2.314
N13560 X69.452 Y157.525 Z-2.315
N13565 X69.786 Y157.44
N13570 X69.954 Y157.395 Z-2.316
N13575 X70.616 Y157.195 Z-2.317
N13580 X70.78 Y157.14 Z-2.318
N13585 X71.106 Y157.026
N13590 X71.432 Y156.911 Z-2.319
N13595 X72.074 Y156.655 Z-2.321
N13600 X72.234 Y156.587
N13605 X72.864 Y156.303 Z-2.322
N13610 X73.019 Y156.226 Z-2.323
N13615 X73.328 Y156.071 Z-2.324
N13620 X73.635 Y155.913
N13625 X74.239 Y155.576 Z-2.326
N13630 X74.387 Y155.487
N13635 X74.828 Y155.214 Z-2.327
N13640 X74.975 Y155.122 Z-2.328
N13645 X75.547 Y154.734 Z-2.329
N13650 X75.688 Y154.633 Z-2.33
N13655 X76.242 Y154.221 Z-2.331
N13660 X76.511 Y154.003 Z-2.332
N13665 X76.779 Y153.784 Z-2.333
N13670 X77.041 Y153.558
N13675 X77.428 Y153.214 Z-2.334
N13680 X77.554 Y153.095 Z-2.335
N13685 X77.802 Y152.855 Z-2.336
N13690 X78.049 Y152.613
N13695 X78.524 Y152.111 Z-2.338
N13700 X78.64 Y151.982
N13705 X79.093 Y151.46 Z-2.34
N13710 X79.415 Y151.054 Z-2.341
N13715 X79.628 Y150.781 Z-2.342
N13720 X80.034 Y150.222 Z-2.343
N13725 X80.13 Y150.079
N13730 X80.416 Y149.646 Z-2.345
N13735 X80.511 Y149.501
N13740 X80.778 Y149.057 Z-2.346
N13745 X80.952 Y148.758 Z-2.347
N13750 X81.117 Y148.454 Z-2.348
N13755 X81.282 Y148.15
N13760 X81.585 Y147.529 Z-2.35
N13765 X81.727 Y147.214 Z-2.351
N13770 X81.934 Y146.739 Z-2.352
N13775 X81.998 Y146.578
N13780 X82.122 Y146.256 Z-2.353
N13785 X82.244 Y145.932 Z-2.354
N13790 X82.464 Y145.278 Z-2.355
N13795 X82.515 Y145.112
N13800 X82.659 Y144.614 Z-2.357
N13805 X82.747 Y144.279
N13810 X82.828 Y143.944 Z-2.358
N13815 X82.906 Y143.607 Z-2.359
N13820 X83.04 Y142.929 Z-2.36
N13825 X83.093 Y142.587 Z-2.361
N13830 X83.145 Y142.246 Z-2.362
N13835 X83.187 Y141.903 Z-2.363
N13840 X83.225 Y141.559
N13845 X83.257 Y141.215 Z-2.364
N13850 X83.279 Y140.87 Z-2.365
N13855 X83.3 Y140.526 Z-2.366
N13860 X83.315 Y139.835 Z-2.367
N13865 X83.311 Y139.489 Z-2.368
N13870 X83.303 Y139.144 Z-2.369
N13875 X83.289 Y138.798
N13880 X83.266 Y138.453 Z-2.37
N13885 X83.241 Y138.108 Z-2.371
N13890 X83.166 Y137.422 Z-2.372
N13895 X83.116 Y137.08 Z-2.373
N13900 X83.063 Y136.739 Z-2.374
N13905 X83.003 Y136.398 Z-2.375
N13910 X82.936 Y136.059
N13915 X82.864 Y135.721 Z-2.376
N13920 X82.701 Y135.05 Z-2.378
N13925 X82.605 Y134.718
N13930 X82.509 Y134.386 Z-2.379
N13935 X82.403 Y134.057 Z-2.38
N13940 X82.293 Y133.73 Z-2.381
N13945 X82.177 Y133.404
N13950 X82.052 Y133.082 Z-2.382
N13955 X81.926 Y132.76 Z-2.383
N13960 X81.65 Y132.127 Z-2.384
N13965 X81.5 Y131.815 Z-2.385
N13970 X81.349 Y131.505 Z-2.386
N13975 X81.19 Y131.198 Z-2.387
N13980 X81.025 Y130.895
N13985 X80.857 Y130.592 Z-2.388
N13990 X80.5 Y130.001 Z-2.39
N13995 X80.311 Y129.712
N14000 X80.12 Y129.424 Z-2.391
N14005 X79.921 Y129.141 Z-2.392
N14010 X79.718 Y128.862 Z-2.393
N14015 X79.511 Y128.585
N14020 X79.296 Y128.315 Z-2.394
N14025 X79.081 Y128.045 Z-2.395
N14030 X78.628 Y127.523 Z-2.396
N14035 X78.393 Y127.269 Z-2.397
N14040 X78.156 Y127.019 Z-2.398
N14045 X77.913 Y126.772 Z-2.399
N14050 X77.665 Y126.533
N14055 X77.415 Y126.293 Z-2.4
N14060 X76.899 Y125.835 Z-2.402
N14065 X76.632 Y125.615
N14070 X76.364 Y125.398 Z-2.403
N14075 X76.091 Y125.186 Z-2.404
N14080 X75.814 Y124.98 Z-2.405
N14085 X75.534 Y124.777
N14090 X74.963 Y124.39 Z-2.407
N14095 X74.669 Y124.208 Z-2.408
N14100 X74.375 Y124.027
N14105 X74.076 Y123.854 Z-2.409
N14110 X73.774 Y123.686 Z-2.41
N14115 X73.47 Y123.522 Z-2.411
N14120 X73.161 Y123.367
N14125 X72.852 Y123.212 Z-2.412
N14130 X72.222 Y122.929 Z-2.414
N14135 X71.903 Y122.798
N14140 X71.582 Y122.671 Z-2.415
N14145 X71.258 Y122.549 Z-2.416
N14150 X70.932 Y122.435 Z-2.417
N14155 X70.605 Y122.324
N14160 X69.944 Y122.125 Z-2.419
N14165 X69.61 Y122.038 Z-2.42
N14170 X69.275 Y121.953
N14175 X68.938 Y121.876 Z-2.421
N14180 X68.6 Y121.806 Z-2.422
N14185 X68.261 Y121.739 Z-2.423
N14190 X67.58 Y121.628 Z-2.424
N14195 X67.237 Y121.586 Z-2.425
N14200 X66.894 Y121.546
N14205 X66.55 Y121.515 Z-2.426
N14210 X66.206 Y121.489 Z-2.427
N14215 X65.861 Y121.468 Z-2.428
N14220 X65.516 Y121.457
N14225 X65.171 Y121.447 Z-2.429
N14230 X64.48 Y121.455 Z-2.431
N14235 X64.135 Y121.471
N14240 X63.79 Y121.489 Z-2.432
N14245 X63.446 Y121.516 Z-2.433
N14250 X63.102 Y121.549 Z-2.434
N14255 X62.759 Y121.586
N14260 X62.075 Y121.683 Z-2.436
N14265 X61.735 Y121.745 Z-2.437
N14270 X61.396 Y121.808
N14275 X61.058 Y121.881 Z-2.438
N14280 X60.722 Y121.958 Z-2.439
N14285 X60.387 Y122.041 Z-2.44
N14290 X60.054 Y122.133
N14295 X59.722 Y122.226 Z-2.441
N14300 X59.065 Y122.44 Z-2.443
N14305 X58.74 Y122.556
N14310 X58.417 Y122.677 Z-2.444
N14315 X58.095 Y122.804 Z-2.445
N14320 X57.778 Y122.939 Z-2.446
N14325 X57.46 Y123.075
N14330 X56.837 Y123.372 Z-2.448
N14335 X56.531 Y123.532 Z-2.449
N14340 X56.226 Y123.694
N14345 X55.924 Y123.862 Z-2.45
N14350 X55.627 Y124.037 Z-2.451
N14355 X55.331 Y124.215 Z-2.452
N14360 X54.751 Y124.59 Z-2.453
N14365 X54.469 Y124.789 Z-2.454
N14370 X54.188 Y124.989 Z-2.455
N14375 X53.912 Y125.197
N14380 X53.64 Y125.409 Z-2.456
N14385 X53.37 Y125.625 Z-2.457
N14390 X53.107 Y125.848 Z-2.458
N14395 X52.845 Y126.073
N14400 X52.338 Y126.542 Z-2.46
N14405 X52.093 Y126.785 Z-2.461
N14410 X51.85 Y127.03
N14415 X51.612 Y127.281 Z-2.462
N14420 X51.381 Y127.536 Z-2.463
N14425 X51.151 Y127.794 Z-2.464
N14430 X50.709 Y128.325 Z-2.465
N14435 X50.499 Y128.598 Z-2.466
N14440 X50.29 Y128.873 Z-2.467
N14445 X50.088 Y129.153
N14450 X49.891 Y129.437 Z-2.468
N14455 X49.698 Y129.723 Z-2.469
N14460 X49.329 Y130.306 Z-2.47
N14465 X49.158 Y130.606 Z-2.471
N14470 X48.986 Y130.905 Z-2.472
N14475 X48.823 Y131.21 Z-2.473
N14480 X48.665 Y131.516
N14485 X48.512 Y131.826 Z-2.474
N14490 X48.367 Y132.139 Z-2.475
N14495 X48.223 Y132.453 Z-2.476
N14500 X47.961 Y133.091 Z-2.477
N14505 X47.841 Y133.415 Z-2.478
N14510 X47.724 Y133.74 Z-2.479
N14515 X47.613 Y134.067
N14520 X47.51 Y134.396 Z-2.48
N14525 X47.41 Y134.726 Z-2.481
N14530 X47.233 Y135.393 Z-2.482
N14535 X47.157 Y135.73 Z-2.483
N14540 X47.083 Y136.067 Z-2.484
N14545 X47.018 Y136.406 Z-2.485
N14550 X46.958 Y136.746
N14555 X46.903 Y137.087 Z-2.486
N14560 X46.814 Y137.771 Z-2.488
N14565 X46.784 Y138.115
N14570 X46.754 Y138.459 Z-2.489
N14575 X46.735 Y138.803 Z-2.49
N14580 X46.72 Y139.148 Z-2.491
N14585 X46.712 Y139.493
N14590 Y139.838 Z-2.492
N14595 X46.713 Y140.183 Z-2.493
N14600 X46.744 Y140.873 Z-2.494
N14605 X46.771 Y141.217 Z-2.495
N14610 X46.801 Y141.561 Z-2.496
N14615 X46.838 Y141.904 Z-2.497
N14620 X46.883 Y142.246
N14625 X46.931 Y142.588 Z-2.498
N14630 X47.051 Y143.267 Z-2.5
N14635 X47.067 Y143.348
N14640 X47.085 Y143.429
N14645 X47.16 Y143.767 Z-2.501
N14650 X47.236 Y144.104 Z-2.502
N14655 X47.414 Y144.774 Z-2.503
N14660 X47.515 Y145.105 Z-2.504
N14665 X47.618 Y145.434 Z-2.505
N14670 X47.67 Y145.6
N14675 X47.906 Y146.251 Z-2.506
N14680 X47.968 Y146.413 Z-2.507
N14685 X48.231 Y147.052 Z-2.508
N14690 X48.303 Y147.209 Z-2.509
N14695 X48.522 Y147.68 Z-2.51
N14700 X48.597 Y147.837
N14705 X48.914 Y148.452 Z-2.512
N14710 X48.999 Y148.603
N14715 X49.171 Y148.903 Z-2.513
N14720 X49.344 Y149.202 Z-2.514
N14725 X49.714 Y149.788 Z-2.515
N14730 X49.81 Y149.932
N14735 X50.106 Y150.358 Z-2.517
N14740 X50.205 Y150.5
N14745 X50.519 Y150.913 Z-2.518
N14750 X50.731 Y151.187 Z-2.519
N14755 X51.174 Y151.719 Z-2.52
N14760 X51.405 Y151.976 Z-2.521
N14765 X51.638 Y152.232 Z-2.522
N14770 X51.756 Y152.359
N14775 X52.243 Y152.851 Z-2.524
N14780 X52.368 Y152.97
N14785 X52.622 Y153.205 Z-2.525
N14790 X52.876 Y153.44 Z-2.526
N14795 X53.404 Y153.888 Z-2.527
N14800 X53.675 Y154.103 Z-2.528
N14805 X54.085 Y154.421 Z-2.529
N14810 X54.226 Y154.522
N14815 X54.649 Y154.822 Z-2.53
N14820 X54.792 Y154.92 Z-2.531
N14825 X55.372 Y155.295 Z-2.532
N14830 X55.521 Y155.384 Z-2.533
N14835 X55.969 Y155.647 Z-2.534
N14840 X56.119 Y155.733
N14845 X56.731 Y156.057 Z-2.536
N14850 X56.886 Y156.134
N14855 X57.355 Y156.357 Z-2.537
N14860 X57.511 Y156.431 Z-2.538
N14865 X58.148 Y156.701 Z-2.539
N14870 X58.309 Y156.765 Z-2.54
N14875 X58.957 Y157.007 Z-2.541
N14880 X59.122 Y157.061
N14885 X59.45 Y157.168 Z-2.542
N14890 X59.78 Y157.272 Z-2.543
N14895 X60.447 Y157.457 Z-2.544
N14900 X60.615 Y157.498 Z-2.545
N14905 X61.121 Y157.615 Z-2.546
N14910 X61.29 Y157.653
N14915 X61.97 Y157.779 Z-2.548
N14920 X62.141 Y157.807
N14925 X62.826 Y157.904 Z-2.55
N14930 X63.514 Y157.971 Z-2.551
N14935 X63.687 Y157.984 Z-2.552
N14940 X64.378 Y158.022 Z-2.553
N14945 X64.551 Y158.025
N14950 X64.897 Y158.028 Z-2.554
N14955 X65.243 Y158.03 Z-2.555
N14960 X65.934 Y158.007 Z-2.556
N14965 X66.28 Y157.983 Z-2.557
N14970 X66.624 Y157.957 Z-2.558
N14975 X66.797 Y157.943
N14980 X67.484 Y157.861 Z-2.56
N14985 X67.655 Y157.836
N14990 X68.338 Y157.724 Z-2.562
N14995 X68.507 Y157.689
N15000 X69.015 Y157.583 Z-2.563
N15005 X69.184 Y157.545 Z-2.564
N15010 X69.854 Y157.374 Z-2.565
N15015 X70.021 Y157.325
N15020 X70.517 Y157.176 Z-2.567
N15025 X70.683 Y157.124
N15030 X71.335 Y156.896 Z-2.569
N15035 X71.497 Y156.835
N15040 X71.979 Y156.643 Z-2.57
N15045 X72.14 Y156.578
N15050 X72.613 Y156.365 Z-2.572
N15055 X72.927 Y156.22
N15060 X73.545 Y155.909 Z-2.574
N15065 X73.847 Y155.741 Z-2.575
N15070 X74.149 Y155.573
N15075 X74.446 Y155.395 Z-2.576
N15080 X74.888 Y155.123 Z-2.577
N15085 X75.032 Y155.027 Z-2.578
N15090 X75.462 Y154.736 Z-2.579
N15095 X75.604 Y154.638
N15100 X76.159 Y154.225 Z-2.581
N15105 X76.43 Y154.01
N15110 X76.832 Y153.682 Z-2.582
N15115 X76.962 Y153.567 Z-2.583
N15120 X77.349 Y153.223 Z-2.584
N15125 X77.477 Y153.106
N15130 X77.973 Y152.624 Z-2.586
N15135 X78.212 Y152.374 Z-2.587
N15140 X78.45 Y152.123
N15145 X78.681 Y151.865 Z-2.588
N15150 X78.907 Y151.604 Z-2.589
N15155 X79.13 Y151.34 Z-2.59
N15160 X79.345 Y151.069
N15165 X79.56 Y150.798 Z-2.591
N15170 X79.966 Y150.238 Z-2.593
N15175 X80.16 Y149.952
N15180 X80.351 Y149.664 Z-2.594
N15185 X80.536 Y149.371 Z-2.595
N15190 X80.714 Y149.075 Z-2.596
N15195 X80.89 Y148.777
N15200 X81.221 Y148.169 Z-2.598
N15205 X81.374 Y147.859 Z-2.599
N15210 X81.526 Y147.549
N15215 X81.67 Y147.234 Z-2.6
N15220 X81.808 Y146.917 Z-2.601
N15225 X81.942 Y146.598 Z-2.602
N15230 X82.066 Y146.276
N15235 X82.191 Y145.953 Z-2.603
N15240 X82.411 Y145.298 Z-2.605
N15245 X82.511 Y144.966
N15250 X82.607 Y144.634 Z-2.606
N15255 X82.697 Y144.3 Z-2.607
N15260 X82.778 Y143.964 Z-2.608
N15265 X82.858 Y143.627
N15270 X82.992 Y142.949 Z-2.61
N15275 X83.046 Y142.607 Z-2.611
N15280 X83.098 Y142.266
N15285 X83.142 Y141.923 Z-2.612
N15290 X83.179 Y141.579 Z-2.613
N15295 X83.212 Y141.234 Z-2.614
N15300 X83.257 Y140.545 Z-2.615
N15305 X83.264 Y140.199 Z-2.616
N15310 X83.272 Y139.853 Z-2.617
N15315 X83.269 Y139.507
N15320 X83.261 Y139.162 Z-2.618
N15325 X83.247 Y138.816 Z-2.619
N15330 X83.225 Y138.471 Z-2.62
N15335 X83.2 Y138.126
N15340 X83.125 Y137.439 Z-2.622
N15345 X83.075 Y137.096 Z-2.623
N15350 X83.023 Y136.755
N15355 X82.963 Y136.414 Z-2.624
N15360 X82.896 Y136.075 Z-2.625
N15365 X82.825 Y135.737 Z-2.626
N15370 X82.661 Y135.065 Z-2.627
N15375 X82.566 Y134.732 Z-2.628
N15380 X82.47 Y134.4 Z-2.629
N15385 X82.364 Y134.071
N15390 X82.253 Y133.744 Z-2.63
N15395 X82.137 Y133.418 Z-2.631
N15400 X82.013 Y133.095 Z-2.632
N15405 X81.887 Y132.773
N15410 X81.61 Y132.14 Z-2.634
N15415 X81.46 Y131.828 Z-2.635
N15420 X81.309 Y131.517
N15425 X81.15 Y131.21 Z-2.636
N15430 X80.984 Y130.907 Z-2.637
N15435 X80.816 Y130.604 Z-2.638
N15440 X80.459 Y130.012 Z-2.639
N15445 X80.269 Y129.723 Z-2.64
N15450 X80.078 Y129.435 Z-2.641
N15455 X79.879 Y129.152
N15460 X79.676 Y128.873 Z-2.642
N15465 X79.468 Y128.596 Z-2.643
N15470 X79.253 Y128.326 Z-2.644
N15475 X79.037 Y128.056 Z-2.645
N15480 X78.584 Y127.534 Z-2.646
N15485 X78.348 Y127.281 Z-2.647
N15490 X78.111 Y127.03 Z-2.648
N15495 X77.867 Y126.784
N15500 X77.619 Y126.544 Z-2.649
N15505 X77.368 Y126.305 Z-2.65
N15510 X76.851 Y125.846 Z-2.651
N15515 X76.584 Y125.627 Z-2.652
N15520 X76.315 Y125.41 Z-2.653
N15525 X76.041 Y125.199 Z-2.654
N15530 X75.764 Y124.993
N15535 X75.483 Y124.791 Z-2.655
N15540 X75.197 Y124.597 Z-2.656
N15545 X74.911 Y124.403 Z-2.657
N15550 X74.322 Y124.041 Z-2.658
N15555 X74.022 Y123.869 Z-2.659
N15560 X73.72 Y123.7 Z-2.66
N15565 X73.415 Y123.538
N15570 X73.106 Y123.383 Z-2.661
N15575 X72.796 Y123.23 Z-2.662
N15580 X72.166 Y122.947 Z-2.663
N15585 X71.845 Y122.817 Z-2.664
N15590 X71.524 Y122.689 Z-2.665
N15595 X71.199 Y122.57 Z-2.666
N15600 X70.873 Y122.456
N15605 X70.545 Y122.346 Z-2.667
N15610 X70.214 Y122.247 Z-2.668
N15615 X69.883 Y122.147 Z-2.669
N15620 X69.213 Y121.977 Z-2.67
N15625 X68.875 Y121.902 Z-2.671
N15630 X68.537 Y121.832 Z-2.672
N15635 X68.197 Y121.767
N15640 X67.856 Y121.712 Z-2.673
N15645 X67.515 Y121.658 Z-2.674
N15650 X66.828 Y121.576 Z-2.675
N15655 X66.484 Y121.548 Z-2.676
N15660 X66.139 Y121.521 Z-2.677
N15665 X65.794 Y121.504 Z-2.678
N15670 X65.449 Y121.493
N15675 X65.103 Y121.486 Z-2.679
N15680 X64.412 Y121.493 Z-2.681
N15685 X64.067 Y121.512
N15690 X63.722 Y121.531 Z-2.682
N15695 X63.377 Y121.56 Z-2.683
N15700 X63.033 Y121.593 Z-2.684
N15705 X62.69 Y121.633
N15710 X62.348 Y121.682 Z-2.685
N15715 X62.006 Y121.732 Z-2.686
N15720 X61.326 Y121.859 Z-2.687
N15725 X60.989 Y121.934 Z-2.688
N15730 X60.652 Y122.012 Z-2.689
N15735 X60.317 Y122.098 Z-2.69
N15740 X59.984 Y122.191
N15745 X59.652 Y122.287 Z-2.691
N15750 X58.995 Y122.501 Z-2.693
N15755 X58.671 Y122.621
N15760 X58.347 Y122.742 Z-2.694
N15765 X58.027 Y122.872 Z-2.695
N15770 X57.709 Y123.007 Z-2.696
N15775 X57.393 Y123.147
N15780 X57.081 Y123.296 Z-2.697
N15785 X56.769 Y123.446 Z-2.698
N15790 X56.159 Y123.77 Z-2.699
N15795 X55.859 Y123.942 Z-2.7
N15800 X55.561 Y124.117 Z-2.701
N15805 X55.267 Y124.299 Z-2.702
N15810 X54.977 Y124.486
N15815 X54.689 Y124.677 Z-2.703
N15820 X54.125 Y125.077 Z-2.705
N15825 X53.852 Y125.289
N15830 X53.579 Y125.501 Z-2.706
N15835 X53.312 Y125.72 Z-2.707
N15840 X53.049 Y125.944 Z-2.708
N15845 X52.789 Y126.172
N15850 X52.536 Y126.407 Z-2.709
N15855 X52.283 Y126.643 Z-2.71
N15860 X51.797 Y127.134 Z-2.711
N15865 X51.562 Y127.388 Z-2.712
N15870 X51.33 Y127.644 Z-2.713
N15875 X51.103 Y127.905 Z-2.714
N15880 X50.882 Y128.17
N15885 X50.664 Y128.438 Z-2.715
N15890 X50.246 Y128.988 Z-2.717
N15895 X50.047 Y129.272
N15900 X49.851 Y129.556 Z-2.718
N15905 X49.661 Y129.845 Z-2.719
N15910 X49.477 Y130.137 Z-2.72
N15915 X49.296 Y130.432
N15920 X49.125 Y130.731 Z-2.721
N15925 X48.953 Y131.032 Z-2.722
N15930 X48.637 Y131.646 Z-2.723
N15935 X48.488 Y131.958 Z-2.724
N15940 X48.343 Y132.272 Z-2.725
N15945 X48.204 Y132.588 Z-2.726
N15950 X48.073 Y132.908
N15955 X47.944 Y133.228 Z-2.727
N15960 X47.709 Y133.878 Z-2.729
N15965 X47.604 Y134.207
N15970 X47.501 Y134.537 Z-2.73
N15975 X47.406 Y134.87 Z-2.731
N15980 X47.317 Y135.203 Z-2.732
N15985 X47.233 Y135.539
N15990 X47.159 Y135.876 Z-2.733
N15995 X47.085 Y136.214 Z-2.734
N16000 X46.966 Y136.894 Z-2.736
N16005 X46.917 Y137.236
N16010 X46.872 Y137.579 Z-2.737
N16015 X46.834 Y137.922 Z-2.738
N16020 X46.804 Y138.267 Z-2.739
N16025 X46.776 Y138.611
N16030 X46.746 Y139.301 Z-2.741
N16035 X46.744 Y139.647 Z-2.742
N16040 Y139.993
N16045 X46.752 Y140.338 Z-2.743
N16050 X46.767 Y140.683 Z-2.744
N16055 X46.786 Y141.028 Z-2.745
N16060 X46.846 Y141.717 Z-2.746
N16065 X46.891 Y142.059 Z-2.747
N16070 X46.936 Y142.402 Z-2.748
N16075 X46.991 Y142.743
N16080 X47.05 Y143.083 Z-2.749
N16085 X47.116 Y143.423 Z-2.75
N16090 X47.212 Y143.857 Z-2.751
N16095 X47.292 Y144.193 Z-2.752
N16100 X47.381 Y144.527
N16105 X47.471 Y144.86 Z-2.753
N16110 X47.677 Y145.519 Z-2.755
N16115 X47.792 Y145.845
N16120 X47.91 Y146.17 Z-2.756
N16125 X48.035 Y146.493 Z-2.757
N16130 X48.166 Y146.812 Z-2.758
N16135 X48.301 Y147.13
N16140 X48.591 Y147.757 Z-2.76
N16145 X48.749 Y148.065 Z-2.761
N16150 X48.907 Y148.371
N16155 X49.075 Y148.674 Z-2.762
N16160 X49.246 Y148.974 Z-2.763
N16165 X49.423 Y149.271 Z-2.764
N16170 X49.607 Y149.563
N16175 X49.793 Y149.854 Z-2.765
N16180 X50.187 Y150.422 Z-2.767
N16185 X50.394 Y150.699
N16190 X50.603 Y150.974 Z-2.768
N16195 X50.818 Y151.244 Z-2.769
N16200 X51.038 Y151.51 Z-2.77
N16205 X51.262 Y151.774
N16210 X51.726 Y152.285 Z-2.772
N16215 X51.968 Y152.532 Z-2.773
N16220 X52.211 Y152.777
N16225 X52.461 Y153.016 Z-2.774
N16230 X52.714 Y153.251 Z-2.775
N16235 X52.971 Y153.482 Z-2.776
N16240 X53.234 Y153.706
N16245 X53.498 Y153.929 Z-2.777
N16250 X54.044 Y154.353 Z-2.779
N16255 X54.324 Y154.556
N16260 X54.605 Y154.756 Z-2.78
N16265 X54.891 Y154.95 Z-2.781
N16270 X55.181 Y155.137 Z-2.782
N16275 X55.473 Y155.323
N16280 X56.069 Y155.672 Z-2.784
N16285 X56.373 Y155.836 Z-2.785
N16290 X56.678 Y155.997
N16295 X56.988 Y156.151 Z-2.786
N16300 X57.3 Y156.299 Z-2.787
N16305 X57.614 Y156.444 Z-2.788
N16310 X57.932 Y156.578
N16315 X58.25 Y156.713 Z-2.789
N16320 X58.897 Y156.954 Z-2.791
N16325 X59.225 Y157.065
N16330 X59.553 Y157.172 Z-2.792
N16335 X59.884 Y157.272 Z-2.793
N16340 X60.216 Y157.364 Z-2.794
N16345 X60.55 Y157.455
N16350 X61.223 Y157.61 Z-2.796
N16355 X61.562 Y157.676 Z-2.797
N16360 X61.902 Y157.739
N16365 X62.243 Y157.793 Z-2.798
N16370 X62.585 Y157.842 Z-2.799
N16375 X62.928 Y157.886 Z-2.8
N16380 X63.615 Y157.953 Z-2.801
N16385 X63.96 Y157.972 Z-2.802
N16390 X64.305 Y157.991 Z-2.803
N16395 X64.651 Y157.999
N16400 X64.996 Y158.002 Z-2.804
N16405 X65.341 Y158. Z-2.805
N16410 X65.687 Y157.989 Z-2.806
N16415 X66.032 Y157.975
N16420 X66.721 Y157.923 Z-2.808
N16425 X67.064 Y157.884 Z-2.809
N16430 X67.407 Y157.843
N16435 X67.749 Y157.794 Z-2.81
N16440 X68.09 Y157.738 Z-2.811
N16445 X68.43 Y157.678 Z-2.812
N16450 X69.106 Y157.537 Z-2.813
N16455 X69.441 Y157.452 Z-2.814
N16460 X69.776 Y157.367 Z-2.815
N16465 X70.108 Y157.272 Z-2.816
N16470 X70.439 Y157.172
N16475 X70.768 Y157.067 Z-2.817
N16480 X71.094 Y156.953 Z-2.818
N16485 X71.42 Y156.838 Z-2.819
N16490 X72.061 Y156.582 Z-2.82
N16495 X72.378 Y156.443 Z-2.821
N16500 X72.692 Y156.302 Z-2.822
N16505 X73.004 Y156.153
N16510 X73.313 Y155.998 Z-2.823
N16515 X73.62 Y155.839 Z-2.824
N16520 X74.223 Y155.503 Z-2.825
N16525 X74.518 Y155.322 Z-2.826
N16530 X74.812 Y155.141 Z-2.827
N16535 X75.1 Y154.951 Z-2.828
N16540 X75.386 Y154.757
N16545 X75.669 Y154.559 Z-2.829
N16550 X75.946 Y154.353 Z-2.83
N16555 X76.223 Y154.146 Z-2.831
N16560 X76.759 Y153.71 Z-2.832
N16565 X77.019 Y153.483 Z-2.833
N16570 X77.278 Y153.254 Z-2.834
N16575 X77.531 Y153.019
N16580 X77.779 Y152.779 Z-2.835
N16585 X78.025 Y152.537 Z-2.836
N16590 X78.5 Y152.035 Z-2.837
N16595 X78.728 Y151.775 Z-2.838
N16600 X78.954 Y151.514 Z-2.839
N16605 X79.173 Y151.247 Z-2.84
N16610 X79.388 Y150.977
N16615 X79.599 Y150.703 Z-2.841
N16620 X79.802 Y150.424 Z-2.842
N16625 X80.005 Y150.144 Z-2.843
N16630 X80.386 Y149.568 Z-2.844
N16635 X80.567 Y149.274 Z-2.845
N16640 X80.745 Y148.978 Z-2.846
N16645 X80.917 Y148.679
N16650 X81.082 Y148.375 Z-2.847
N16655 X81.245 Y148.071 Z-2.848
N16660 X81.549 Y147.45 Z-2.849
N16665 X81.688 Y147.134 Z-2.85
N16670 X81.826 Y146.818 Z-2.851
N16675 X81.956 Y146.498 Z-2.852
N16680 X82.081 Y146.175
N16685 X82.201 Y145.851 Z-2.853
N16690 X82.311 Y145.524 Z-2.854
N16695 X82.421 Y145.197 Z-2.855
N16700 X82.613 Y144.533 Z-2.856
N16705 X82.699 Y144.198 Z-2.857
N16710 X82.78 Y143.863 Z-2.858
N16715 X82.855 Y143.526
N16720 X82.922 Y143.187 Z-2.859
N16725 X82.987 Y142.848 Z-2.86
N16730 X83.091 Y142.165 Z-2.861
N16735 X83.13 Y141.822 Z-2.862
N16740 X83.168 Y141.478 Z-2.863
N16745 X83.197 Y141.134 Z-2.864
N16750 X83.219 Y140.79
N16755 X83.237 Y140.445 Z-2.865
N16760 X83.252 Y139.754 Z-2.867
N16765 X83.245 Y139.409
N16770 X83.237 Y139.063 Z-2.868
N16775 X83.219 Y138.718 Z-2.869
N16780 X83.197 Y138.374 Z-2.87
N16785 X83.168 Y138.03
N16790 X83.131 Y137.686 Z-2.871
N16795 X83.092 Y137.343 Z-2.872
N16800 X82.987 Y136.66 Z-2.873
N16805 X82.923 Y136.321 Z-2.874
N16810 X82.856 Y135.982 Z-2.875
