(Exported by FreeCAD)
(Post Processor: linuxcnc_post)
(Output Time:2019-06-12 12:19:49.576391)
(begin preamble)
G17 G54 G40 G49 G80 G90
G21
(begin operation: T1: 6mm end mill001)
(machine: not set, mm/min)
(T1: 6mm end mill001)
M6 T1
M3 S18000
(finish operation: T1: 6mm end mill001)
(begin operation: TagDressup)
(machine: not set, mm/min)
G0 Z15.000
G0 X202.114 Y462.165 Z15.000
G0 X202.114 Y462.165 Z10.000
G1 X202.114 Y462.165 Z-18.000 F600.000
G2 X202.993 Y460.044 Z-18.000 I-2.121 J-2.121 F600.000
G1 X202.993 Y210.045 Z-18.000 F600.000
G2 X199.993 Y207.045 Z-18.000 I-3.000 J0.000 F600.000
G1 X100.021 Y207.045 Z-18.000 F600.000
G2 X97.021 Y210.045 Z-18.000 I0.000 J3.000 F600.000
G1 X97.021 Y460.044 Z-18.000 F600.000
G2 X100.021 Y463.044 Z-18.000 I3.000 J-0.000 F600.000
G1 X199.993 Y463.044 Z-18.000 F600.000
G2 X202.114 Y462.165 Z-18.000 I-0.000 J-3.000 F600.000
G1 X202.114 Y462.165 Z-20.000 F600.000
G2 X202.993 Y460.044 Z-20.000 I-2.121 J-2.121 F600.000
G1 X202.993 Y410.712 Z-20.000 F600.000
G1 X202.993 Y409.862 Z-19.150 F600.000
G1 X202.993 Y385.225 Z-19.150 F600.000
G1 X202.993 Y384.375 Z-20.000 F600.000
G1 X202.993 Y285.713 Z-20.000 F600.000
G1 X202.993 Y284.863 Z-19.150 F600.000
G1 X202.993 Y260.226 Z-19.150 F600.000
G1 X202.993 Y259.376 Z-20.000 F600.000
G1 X202.993 Y210.045 Z-20.000 F600.000
G2 X199.993 Y207.045 Z-20.000 I-3.000 J0.000 F600.000
G1 X100.021 Y207.045 Z-20.000 F600.000
G2 X97.021 Y210.045 Z-20.000 I0.000 J3.000 F600.000
G1 X97.021 Y259.376 Z-20.000 F600.000
G1 X97.021 Y260.226 Z-19.150 F600.000
G1 X97.021 Y284.863 Z-19.150 F600.000
G1 X97.021 Y285.713 Z-20.000 F600.000
G1 X97.021 Y384.375 Z-20.000 F600.000
G1 X97.021 Y385.225 Z-19.150 F600.000
G1 X97.021 Y409.862 Z-19.150 F600.000
G1 X97.021 Y410.712 Z-20.000 F600.000
G1 X97.021 Y460.044 Z-20.000 F600.000
G2 X100.021 Y463.044 Z-20.000 I3.000 J-0.000 F600.000
G1 X199.993 Y463.044 Z-20.000 F600.000
G2 X202.114 Y462.165 Z-20.000 I-0.000 J-3.000 F600.000
G1 X202.114 Y462.165 Z-22.000 F600.000
G2 X202.993 Y460.044 Z-22.000 I-2.121 J-2.121 F600.000
G1 X202.993 Y412.712 Z-22.000 F600.000
G1 X202.993 Y409.862 Z-19.150 F600.000
G1 X202.993 Y385.225 Z-19.150 F600.000
G1 X202.993 Y382.375 Z-22.000 F600.000
G1 X202.993 Y287.713 Z-22.000 F600.000
G1 X202.993 Y284.863 Z-19.150 F600.000
G1 X202.993 Y260.226 Z-19.150 F600.000
G1 X202.993 Y257.376 Z-22.000 F600.000
G1 X202.993 Y210.045 Z-22.000 F600.000
G2 X199.993 Y207.045 Z-22.000 I-3.000 J0.000 F600.000
G1 X100.021 Y207.045 Z-22.000 F600.000
G2 X97.021 Y210.045 Z-22.000 I0.000 J3.000 F600.000
G1 X97.021 Y257.376 Z-22.000 F600.000
G1 X97.021 Y260.226 Z-19.150 F600.000
G1 X97.021 Y284.863 Z-19.150 F600.000
G1 X97.021 Y287.713 Z-22.000 F600.000
G1 X97.021 Y382.375 Z-22.000 F600.000
G1 X97.021 Y385.225 Z-19.150 F600.000
G1 X97.021 Y409.862 Z-19.150 F600.000
G1 X97.021 Y412.712 Z-22.000 F600.000
G1 X97.021 Y460.044 Z-22.000 F600.000
G2 X100.021 Y463.044 Z-22.000 I3.000 J-0.000 F600.000
G1 X199.993 Y463.044 Z-22.000 F600.000
G2 X202.114 Y462.165 Z-22.000 I-0.000 J-3.000 F600.000
G1 X202.114 Y462.165 Z-22.300 F600.000
G2 X202.993 Y460.044 Z-22.300 I-2.121 J-2.121 F600.000
G1 X202.993 Y413.012 Z-22.300 F600.000
G1 X202.993 Y409.862 Z-19.150 F600.000
G1 X202.993 Y385.225 Z-19.150 F600.000
G1 X202.993 Y382.075 Z-22.300 F600.000
G1 X202.993 Y288.013 Z-22.300 F600.000
G1 X202.993 Y284.863 Z-19.150 F600.000
G1 X202.993 Y260.226 Z-19.150 F600.000
G1 X202.993 Y257.076 Z-22.300 F600.000
G1 X202.993 Y210.045 Z-22.300 F600.000
G2 X199.993 Y207.045 Z-22.300 I-3.000 J0.000 F600.000
G1 X100.021 Y207.045 Z-22.300 F600.000
G2 X97.021 Y210.045 Z-22.300 I0.000 J3.000 F600.000
G1 X97.021 Y257.076 Z-22.300 F600.000
G1 X97.021 Y260.226 Z-19.150 F600.000
G1 X97.021 Y284.863 Z-19.150 F600.000
G1 X97.021 Y288.013 Z-22.300 F600.000
G1 X97.021 Y382.075 Z-22.300 F600.000
G1 X97.021 Y385.225 Z-19.150 F600.000
G1 X97.021 Y409.862 Z-19.150 F600.000
G1 X97.021 Y413.012 Z-22.300 F600.000
G1 X97.021 Y460.044 Z-22.300 F600.000
G2 X100.021 Y463.044 Z-22.300 I3.000 J-0.000 F600.000
G1 X199.993 Y463.044 Z-22.300 F600.000
G2 X202.114 Y462.165 Z-22.300 I-0.000 J-3.000 F600.000
G0 X202.114 Y462.165 Z15.000
(finish operation: TagDressup)
(begin postamble)
M05
G17 G54 G90 G80 G40
M2
