%
(SETUP_POCKETS)
(T5  D=19.05 CR=9.525 - ZMIN=-50. - BALL END MILL)
N10 G90 G94 G17 G91.1
N15 G21
N20 G53 G0 Z0.
(2D POCKET1)
N25 M9
N30 T5 M6
N35 S24000 M3
N40 G54
N45 G0 X-339.618 Y21.47
N50 G43 Z21. H5
N55 G1 Z-14.762 F1000.
N60 G18 G2 X-337.713 Z-16.667 I1.905 K0.
N65 G1 X-318.491
N70 X-313.849 F4000.
N75 G17 G2 X-313.53 Y21.151 I0. J-0.319 F1000.
N80 G1 Y-71.151 F4000.
N85 G2 X-313.849 Y-71.47 I-0.319 J0. F1000.
N90 G1 X-318.455 F4000.
N95 G3 X-320.455 Y-73.448 I0. J-2.
N100 G1 X-320.514 Y-78.848
N105 G3 X-318.514 Y-80.87 I2. J-0.022
N110 G1 X-308.259
N115 X-304.449 F1000.
N120 G3 X-304.13 Y-80.551 I0. J0.319
N125 G1 Y30.551 F4000.
N130 G3 X-304.449 Y30.87 I-0.319 J0. F1000.
N135 G1 X-318.492 F4000.
N140 G2 X-320.492 Y32.892 I0. J2.
N145 G1 X-320.433 Y38.292
N150 G2 X-318.433 Y40.27 I2. J-0.022
N155 G1 X-295.049
N160 G2 X-294.73 Y39.951 I0. J-0.319 F1000.
N165 G1 Y-89.951 F4000.
N170 G2 X-295.049 Y-90.27 I-0.319 J0. F1000.
N175 G1 X-318.449 F4000.
N180 G3 X-320.449 Y-92.248 I0. J-2.
N185 G1 X-320.509 Y-97.648
N190 G3 X-318.509 Y-99.67 I2. J-0.022
N195 G1 X-285.649
N200 G3 X-285.33 Y-99.351 I0. J0.319 F1000.
N205 G1 Y45.541 F4000.
N210 Y49.351 F1000.
N215 G3 X-285.649 Y49.67 I-0.319 J0.
N220 G1 X-318.498 F4000.
N225 G2 X-320.497 Y51.692 I0. J2.
N230 G1 X-320.438 Y57.092
N235 G2 X-318.438 Y59.07 I2. J-0.022
N240 G1 X-276.249
N245 G2 X-275.93 Y58.751 I0. J-0.319 F1000.
N250 G1 Y-108.751 F4000.
N255 G2 X-276.249 Y-109.07 I-0.319 J0. F1000.
N260 G1 X-318.444 F4000.
N265 G3 X-320.444 Y-111.048 I0. J-2.
N270 G1 X-320.504 Y-116.448
N275 G3 X-318.504 Y-118.47 I2. J-0.022
N280 G1 X-266.849
N285 G3 X-266.53 Y-118.151 I0. J0.319 F1000.
N290 G1 Y68.151 F4000.
N295 G3 X-266.849 Y68.47 I-0.319 J0. F1000.
N300 G1 X-318.503 F4000.
N305 G2 X-320.503 Y70.492 I0. J2.
N310 G1 X-320.443 Y75.892
N315 G2 X-318.443 Y77.87 I2. J-0.022
N320 G1 X-257.449
N325 G2 X-257.13 Y77.551 I0. J-0.319 F1000.
N330 G1 Y-127.551 F4000.
N335 G2 X-257.449 Y-127.87 I-0.319 J0. F1000.
N340 G1 X-318.439 F4000.
N345 G3 X-320.439 Y-129.848 I0. J-2.
N350 G1 X-320.498 Y-135.248
N355 G3 X-318.499 Y-137.27 I2. J-0.022
N360 G1 X-248.049
N365 G3 X-247.73 Y-136.951 I0. J0.319 F1000.
N370 G1 Y86.951 F4000.
N375 G3 X-248.049 Y87.27 I-0.319 J0. F1000.
N380 G1 X-318.508 F4000.
N385 G2 X-320.508 Y89.292 I0. J2.
N390 G1 X-320.448 Y94.692
N395 G2 X-318.448 Y96.67 I2. J-0.022
N400 G1 X-238.649
N405 G2 X-238.33 Y96.351 I0. J-0.319 F1000.
N410 G1 Y-146.351 F4000.
N415 G2 X-238.649 Y-146.67 I-0.319 J0. F1000.
N420 G1 X-318.434 F4000.
N425 G3 X-320.434 Y-148.648 I0. J-2.
N430 G1 X-320.493 Y-154.048
N435 G3 X-318.493 Y-156.07 I2. J-0.022
N440 G1 X-229.249
N445 G3 X-228.93 Y-155.751 I0. J0.319 F1000.
N450 G1 Y105.751 F4000.
N455 G3 X-229.249 Y106.07 I-0.319 J0. F1000.
N460 G1 X-318.513 F4000.
N465 G2 X-320.513 Y108.11 I0. J2.
N470 G1 X-320.404 Y113.515
N475 G2 X-318.405 Y115.475 I2. J-0.04
N480 G1 X-219.525
N485 Y-165.475
N490 X-310.
N495 X-318.464
N500 G2 X-318.762 Y-165.452 I0. J1.905 F1000.
N505 G1 X-328.17 Y-163.962
N510 X-328.334 Y-163.936 Z-16.659
N515 X-328.496 Y-163.91 Z-16.638
N520 X-328.657 Y-163.884 Z-16.602
N525 X-328.813 Y-163.86 Z-16.552
N530 X-328.965 Y-163.836 Z-16.488
N535 X-329.11 Y-163.812 Z-16.411
N540 X-329.249 Y-163.791 Z-16.322
N545 X-329.379 Y-163.77 Z-16.221
N550 X-329.5 Y-163.751 Z-16.109
N555 X-329.611 Y-163.733 Z-15.986
N560 X-329.711 Y-163.717 Z-15.854
N565 X-329.799 Y-163.703 Z-15.714
N570 X-329.875 Y-163.691 Z-15.567
N575 X-329.938 Y-163.681 Z-15.413
N580 X-329.987 Y-163.674 Z-15.255
N585 X-330.023 Y-163.668 Z-15.092
N590 X-330.044 Y-163.665 Z-14.928
N595 X-330.051 Y-163.663 Z-14.762
N600 G0 Z21.
N605 X-339.581 Y-71.47
N610 G1 Z-31.428 F333.33
N615 G18 G2 X-337.676 Z-33.333 I1.905 K0. F1000.
N620 G1 X-318.455
N625 X-313.849 F4000.
N630 G17 G3 X-313.53 Y-71.151 I0. J0.319 F1000.
N635 G1 Y17.341 F4000.
N640 Y21.151 F1000.
N645 G3 X-313.849 Y21.47 I-0.319 J0.
N650 G1 X-318.491 F4000.
N655 G2 X-320.491 Y23.47 I0. J2.
N660 G1 X-320.492 Y28.87
N665 G2 X-318.492 Y30.87 I2. J0.
N670 G1 X-304.449
N675 G2 X-304.13 Y30.551 I0. J-0.319 F1000.
N680 G1 Y-80.551 F4000.
N685 G2 X-304.449 Y-80.87 I-0.319 J0. F1000.
N690 G1 X-318.514 F4000.
N695 G3 X-320.514 Y-82.894 I0. J-2.
N700 G1 X-320.449 Y-88.294
N705 G3 X-318.449 Y-90.27 I2. J0.024
N710 G1 X-295.049
N715 G3 X-294.73 Y-89.951 I0. J0.319 F1000.
N720 G1 Y39.951 F4000.
N725 G3 X-295.049 Y40.27 I-0.319 J0. F1000.
N730 G1 X-318.433 F4000.
N735 G2 X-320.433 Y42.246 I0. J2.
N740 G1 X-320.497 Y47.646
N745 G2 X-318.498 Y49.67 I2. J0.024
N750 G1 X-285.649
N755 G2 X-285.33 Y49.351 I0. J-0.319 F1000.
N760 G1 Y-99.351 F4000.
N765 G2 X-285.649 Y-99.67 I-0.319 J0. F1000.
N770 G1 X-318.509 F4000.
N775 G3 X-320.509 Y-101.694 I0. J-2.
N780 G1 X-320.444 Y-107.094
N785 G3 X-318.444 Y-109.07 I2. J0.024
N790 G1 X-276.249
N795 G3 X-275.93 Y-108.751 I0. J0.319 F1000.
N800 G1 Y58.751 F4000.
N805 G3 X-276.249 Y59.07 I-0.319 J0. F1000.
N810 G1 X-318.438 F4000.
N815 G2 X-320.438 Y61.046 I0. J2.
N820 G1 X-320.503 Y66.446
N825 G2 X-318.503 Y68.47 I2. J0.024
N830 G1 X-266.849
N835 G2 X-266.53 Y68.151 I0. J-0.319 F1000.
N840 G1 Y-118.151 F4000.
N845 G2 X-266.849 Y-118.47 I-0.319 J0. F1000.
N850 G1 X-318.504 F4000.
N855 G3 X-320.504 Y-120.494 I0. J-2.
N860 G1 X-320.439 Y-125.894
N865 G3 X-318.439 Y-127.87 I2. J0.024
N870 G1 X-261.259
N875 X-257.449 F1000.
N880 G3 X-257.13 Y-127.551 I0. J0.319
N885 G1 Y73.741 F4000.
N890 Y77.551 F1000.
N895 G3 X-257.449 Y77.87 I-0.319 J0.
N900 G1 X-318.443 F4000.
N905 G2 X-320.443 Y79.846 I0. J2.
N910 G1 X-320.508 Y85.246
N915 G2 X-318.508 Y87.27 I2. J0.024
N920 G1 X-248.049
N925 G2 X-247.73 Y86.951 I0. J-0.319 F1000.
N930 G1 Y-136.951 F4000.
N935 G2 X-248.049 Y-137.27 I-0.319 J0. F1000.
N940 G1 X-318.499 F4000.
N945 G3 X-320.498 Y-139.294 I0. J-2.
N950 G1 X-320.434 Y-144.694
N955 G3 X-318.434 Y-146.67 I2. J0.024
N960 G1 X-238.649
N965 G3 X-238.33 Y-146.351 I0. J0.319 F1000.
N970 G1 Y96.351 F4000.
N975 G3 X-238.649 Y96.67 I-0.319 J0. F1000.
N980 G1 X-318.448 F4000.
N985 G2 X-320.448 Y98.646 I0. J2.
N990 G1 X-320.513 Y104.046
N995 G2 X-318.513 Y106.07 I2. J0.024
N1000 G1 X-229.249
N1005 G2 X-228.93 Y105.751 I0. J-0.319 F1000.
N1010 G1 Y-155.751 F4000.
N1015 G2 X-229.249 Y-156.07 I-0.319 J0. F1000.
N1020 G1 X-318.493 F4000.
N1025 G3 X-320.493 Y-158.081 I0. J-2.
N1030 G1 X-320.464 Y-163.486
N1035 G3 X-318.464 Y-165.475 I2. J0.011
N1040 G1 X-219.525
N1045 Y115.475
N1050 X-310.
N1055 X-318.405
N1060 G3 X-318.703 Y115.452 I0. J-1.905 F1000.
N1065 G1 X-328.11 Y113.962
N1070 X-328.274 Y113.936 Z-33.326
N1075 X-328.437 Y113.91 Z-33.304
N1080 X-328.597 Y113.884 Z-33.268
N1085 X-328.754 Y113.86 Z-33.218
N1090 X-328.905 Y113.836 Z-33.155
N1095 X-329.051 Y113.813 Z-33.078
N1100 X-329.19 Y113.791 Z-32.989
N1105 X-329.32 Y113.77 Z-32.888
N1110 X-329.441 Y113.751 Z-32.775
N1115 X-329.552 Y113.733 Z-32.653
N1120 X-329.652 Y113.717 Z-32.521
N1125 X-329.74 Y113.703 Z-32.381
N1130 X-329.816 Y113.691 Z-32.233
N1135 X-329.878 Y113.681 Z-32.08
N1140 X-329.928 Y113.674 Z-31.921
N1145 X-329.963 Y113.668 Z-31.759
N1150 X-329.985 Y113.665 Z-31.594
N1155 X-329.992 Y113.663 Z-31.428
N1160 G0 Z21.
N1165 X-339.618 Y21.47
N1170 G1 Z-48.095 F333.33
N1175 G18 G2 X-337.713 Z-50. I1.905 K0. F1000.
N1180 G1 X-318.491
N1185 X-313.849 F4000.
N1190 G17 G2 X-313.53 Y21.151 I0. J-0.319 F1000.
N1195 G1 Y-71.151 F4000.
N1200 G2 X-313.849 Y-71.47 I-0.319 J0. F1000.
N1205 G1 X-318.455 F4000.
N1210 G3 X-320.455 Y-73.448 I0. J-2.
N1215 G1 X-320.514 Y-78.848
N1220 G3 X-318.514 Y-80.87 I2. J-0.022
N1225 G1 X-308.259
N1230 X-304.449 F1000.
N1235 G3 X-304.13 Y-80.551 I0. J0.319
N1240 G1 Y30.551 F4000.
N1245 G3 X-304.449 Y30.87 I-0.319 J0. F1000.
N1250 G1 X-318.492 F4000.
N1255 G2 X-320.492 Y32.892 I0. J2.
N1260 G1 X-320.433 Y38.292
N1265 G2 X-318.433 Y40.27 I2. J-0.022
N1270 G1 X-295.049
N1275 G2 X-294.73 Y39.951 I0. J-0.319 F1000.
N1280 G1 Y-89.951 F4000.
N1285 G2 X-295.049 Y-90.27 I-0.319 J0. F1000.
N1290 G1 X-318.449 F4000.
N1295 G3 X-320.449 Y-92.248 I0. J-2.
N1300 G1 X-320.509 Y-97.648
N1305 G3 X-318.509 Y-99.67 I2. J-0.022
N1310 G1 X-285.649
N1315 G3 X-285.33 Y-99.351 I0. J0.319 F1000.
N1320 G1 Y45.541 F4000.
N1325 Y49.351 F1000.
N1330 G3 X-285.649 Y49.67 I-0.319 J0.
N1335 G1 X-318.498 F4000.
N1340 G2 X-320.497 Y51.692 I0. J2.
N1345 G1 X-320.438 Y57.092
N1350 G2 X-318.438 Y59.07 I2. J-0.022
N1355 G1 X-276.249
N1360 G2 X-275.93 Y58.751 I0. J-0.319 F1000.
N1365 G1 Y-108.751 F4000.
N1370 G2 X-276.249 Y-109.07 I-0.319 J0. F1000.
N1375 G1 X-318.444 F4000.
N1380 G3 X-320.444 Y-111.048 I0. J-2.
N1385 G1 X-320.504 Y-116.448
N1390 G3 X-318.504 Y-118.47 I2. J-0.022
N1395 G1 X-266.849
N1400 G3 X-266.53 Y-118.151 I0. J0.319 F1000.
N1405 G1 Y68.151 F4000.
N1410 G3 X-266.849 Y68.47 I-0.319 J0. F1000.
N1415 G1 X-318.503 F4000.
N1420 G2 X-320.503 Y70.492 I0. J2.
N1425 G1 X-320.443 Y75.892
N1430 G2 X-318.443 Y77.87 I2. J-0.022
N1435 G1 X-257.449
N1440 G2 X-257.13 Y77.551 I0. J-0.319 F1000.
N1445 G1 Y-127.551 F4000.
N1450 G2 X-257.449 Y-127.87 I-0.319 J0. F1000.
N1455 G1 X-318.439 F4000.
N1460 G3 X-320.439 Y-129.848 I0. J-2.
N1465 G1 X-320.498 Y-135.248
N1470 G3 X-318.499 Y-137.27 I2. J-0.022
N1475 G1 X-248.049
N1480 G3 X-247.73 Y-136.951 I0. J0.319 F1000.
N1485 G1 Y86.951 F4000.
N1490 G3 X-248.049 Y87.27 I-0.319 J0. F1000.
N1495 G1 X-318.508 F4000.
N1500 G2 X-320.508 Y89.292 I0. J2.
N1505 G1 X-320.448 Y94.692
N1510 G2 X-318.448 Y96.67 I2. J-0.022
N1515 G1 X-238.649
N1520 G2 X-238.33 Y96.351 I0. J-0.319 F1000.
N1525 G1 Y-146.351 F4000.
N1530 G2 X-238.649 Y-146.67 I-0.319 J0. F1000.
N1535 G1 X-318.434 F4000.
N1540 G3 X-320.434 Y-148.648 I0. J-2.
N1545 G1 X-320.493 Y-154.048
N1550 G3 X-318.493 Y-156.07 I2. J-0.022
N1555 G1 X-229.249
N1560 G3 X-228.93 Y-155.751 I0. J0.319 F1000.
N1565 G1 Y105.751 F4000.
N1570 G3 X-229.249 Y106.07 I-0.319 J0. F1000.
N1575 G1 X-318.513 F4000.
N1580 G2 X-320.513 Y108.11 I0. J2.
N1585 G1 X-320.404 Y113.515
N1590 G2 X-318.405 Y115.475 I2. J-0.04
N1595 G1 X-219.525
N1600 Y-165.475
N1605 X-310.
N1610 X-318.464
N1615 G2 X-318.762 Y-165.452 I0. J1.905 F1000.
N1620 G1 X-328.17 Y-163.962
N1625 X-328.334 Y-163.936 Z-49.993
N1630 X-328.496 Y-163.91 Z-49.971
N1635 X-328.657 Y-163.884 Z-49.935
N1640 X-328.813 Y-163.86 Z-49.885
N1645 X-328.965 Y-163.836 Z-49.822
N1650 X-329.11 Y-163.812 Z-49.745
N1655 X-329.249 Y-163.791 Z-49.655
N1660 X-329.379 Y-163.77 Z-49.554
N1665 X-329.5 Y-163.751 Z-49.442
N1670 X-329.611 Y-163.733 Z-49.32
N1675 X-329.711 Y-163.717 Z-49.188
N1680 X-329.799 Y-163.703 Z-49.047
N1685 X-329.875 Y-163.691 Z-48.9
N1690 X-329.938 Y-163.681 Z-48.747
N1695 X-329.987 Y-163.674 Z-48.588
N1700 X-330.023 Y-163.668 Z-48.426
N1705 X-330.044 Y-163.665 Z-48.261
N1710 X-330.051 Y-163.663 Z-48.095
N1715 G0 Z21.
N1720 X-339.618 Y1756.47
N1725 G1 Z-14.762 F1000.
N1730 G18 G2 X-337.713 Z-16.667 I1.905 K0.
N1735 G1 X-318.491
N1740 X-313.849 F4000.
N1745 G17 G2 X-313.53 Y1756.151 I0. J-0.319 F1000.
N1750 G1 Y1643.849 F4000.
N1755 G2 X-313.849 Y1643.53 I-0.319 J0. F1000.
N1760 G1 X-318.455 F4000.
N1765 G3 X-320.455 Y1641.552 I0. J-2.
N1770 G1 X-320.514 Y1636.152
N1775 G3 X-318.514 Y1634.13 I2. J-0.022
N1780 G1 X-304.449
N1785 G3 X-304.13 Y1634.449 I0. J0.319 F1000.
N1790 G1 Y1765.551 F4000.
N1795 G3 X-304.449 Y1765.87 I-0.319 J0. F1000.
N1800 G1 X-318.458 F4000.
N1805 G2 X-320.457 Y1767.846 I0. J2.
N1810 G1 X-320.522 Y1773.246
N1815 G2 X-318.522 Y1775.27 I2. J0.024
N1820 G1 X-295.049
N1825 G2 X-294.73 Y1774.951 I0. J-0.319 F1000.
N1830 G1 Y1625.049 F4000.
N1835 G2 X-295.049 Y1624.73 I-0.319 J0. F1000.
N1840 G1 X-318.449 F4000.
N1845 G3 X-320.449 Y1622.752 I0. J-2.
N1850 G1 X-320.509 Y1617.352
N1855 G3 X-318.509 Y1615.33 I2. J-0.022
N1860 G1 X-285.649
N1865 G3 X-285.33 Y1615.649 I0. J0.319 F1000.
N1870 G1 Y1784.351 F4000.
N1875 G3 X-285.649 Y1784.67 I-0.319 J0. F1000.
N1880 G1 X-318.463 F4000.
N1885 G2 X-320.463 Y1786.692 I0. J2.
N1890 G1 X-320.403 Y1792.092
N1895 G2 X-318.403 Y1794.07 I2. J-0.022
N1900 G1 X-276.249
N1905 G2 X-275.93 Y1793.751 I0. J-0.319 F1000.
N1910 G1 Y1606.249 F4000.
N1915 G2 X-276.249 Y1605.93 I-0.319 J0. F1000.
N1920 G1 X-318.444 F4000.
N1925 G3 X-320.444 Y1603.952 I0. J-2.
N1930 G1 X-320.504 Y1598.552
N1935 G3 X-318.504 Y1596.53 I2. J-0.022
N1940 G1 X-266.849
N1945 G3 X-266.53 Y1596.849 I0. J0.319 F1000.
N1950 G1 Y1799.341 F4000.
N1955 Y1803.151 F1000.
N1960 G3 X-266.849 Y1803.47 I-0.319 J0.
N1965 G1 X-318.468 F4000.
N1970 G2 X-320.468 Y1805.492 I0. J2.
N1975 G1 X-320.408 Y1810.892
N1980 G2 X-318.408 Y1812.87 I2. J-0.022
N1985 G1 X-257.449
N1990 G2 X-257.13 Y1812.551 I0. J-0.319 F1000.
N1995 G1 Y1587.449 F4000.
N2000 G2 X-257.449 Y1587.13 I-0.319 J0. F1000.
N2005 G1 X-318.439 F4000.
N2010 G3 X-320.439 Y1585.152 I0. J-2.
N2015 G1 X-320.498 Y1579.752
N2020 G3 X-318.499 Y1577.73 I2. J-0.022
N2025 G1 X-248.049
N2030 G3 X-247.73 Y1578.049 I0. J0.319 F1000.
N2035 G1 Y1821.951 F4000.
N2040 G3 X-248.049 Y1822.27 I-0.319 J0. F1000.
N2045 G1 X-318.473 F4000.
N2050 G2 X-320.473 Y1824.292 I0. J2.
N2055 G1 X-320.414 Y1829.692
N2060 G2 X-318.414 Y1831.67 I2. J-0.022
N2065 G1 X-238.649
N2070 G2 X-238.33 Y1831.351 I0. J-0.319 F1000.
N2075 G1 Y1568.649 F4000.
N2080 G2 X-238.649 Y1568.33 I-0.319 J0. F1000.
N2085 G1 X-318.434 F4000.
N2090 G3 X-320.434 Y1566.352 I0. J-2.
N2095 G1 X-320.493 Y1560.952
N2100 G3 X-318.493 Y1558.93 I2. J-0.022
N2105 G1 X-229.249
N2110 G3 X-228.93 Y1559.249 I0. J0.319 F1000.
N2115 G1 Y1840.751 F4000.
N2120 G3 X-229.249 Y1841.07 I-0.319 J0. F1000.
N2125 G1 X-318.479 F4000.
N2130 G2 X-320.479 Y1843.064 I0. J2.
N2135 G1 X-320.494 Y1848.469
N2140 G2 X-318.494 Y1850.475 I2. J0.006
N2145 G1 X-219.525
N2150 Y1549.525
N2155 X-310.
N2160 X-318.464
N2165 G2 X-318.762 Y1549.548 I0. J1.905 F1000.
N2170 G1 X-328.17 Y1551.038
N2175 X-328.334 Y1551.064 Z-16.659
N2180 X-328.496 Y1551.09 Z-16.638
N2185 X-328.657 Y1551.116 Z-16.602
N2190 X-328.813 Y1551.14 Z-16.552
N2195 X-328.965 Y1551.164 Z-16.488
N2200 X-329.11 Y1551.187 Z-16.411
N2205 X-329.249 Y1551.209 Z-16.322
N2210 X-329.379 Y1551.23 Z-16.221
N2215 X-329.5 Y1551.249 Z-16.109
N2220 X-329.611 Y1551.267 Z-15.986
N2225 X-329.711 Y1551.283 Z-15.854
N2230 X-329.799 Y1551.297 Z-15.714
N2235 X-329.875 Y1551.309 Z-15.567
N2240 X-329.938 Y1551.319 Z-15.413
N2245 X-329.987 Y1551.326 Z-15.255
N2250 X-330.023 Y1551.332 Z-15.092
N2255 X-330.044 Y1551.335 Z-14.928
N2260 X-330.051 Y1551.337 Z-14.762
N2265 G0 Z21.
N2270 X-339.581 Y1643.53
N2275 G1 Z-31.428 F333.33
N2280 G18 G2 X-337.676 Z-33.333 I1.905 K0. F1000.
N2285 G1 X-318.455
N2290 X-313.849 F4000.
N2295 G17 G3 X-313.53 Y1643.849 I0. J0.319 F1000.
N2300 G1 Y1756.151 F4000.
N2305 G3 X-313.849 Y1756.47 I-0.319 J0. F1000.
N2310 G1 X-318.491 F4000.
N2315 G2 X-320.491 Y1758.482 I0. J2.
N2320 G1 X-320.458 Y1763.882
N2325 G2 X-318.458 Y1765.87 I2. J-0.012
N2330 G1 X-304.449
N2335 G2 X-304.13 Y1765.551 I0. J-0.319 F1000.
N2340 G1 Y1634.449 F4000.
N2345 G2 X-304.449 Y1634.13 I-0.319 J0. F1000.
N2350 G1 X-318.514 F4000.
N2355 G3 X-320.514 Y1632.106 I0. J-2.
N2360 G1 X-320.449 Y1626.706
N2365 G3 X-318.449 Y1624.73 I2. J0.024
N2370 G1 X-295.049
N2375 G3 X-294.73 Y1625.049 I0. J0.319 F1000.
N2380 G1 Y1774.951 F4000.
N2385 G3 X-295.049 Y1775.27 I-0.319 J0. F1000.
N2390 G1 X-318.522 F4000.
N2395 G2 X-320.522 Y1777.292 I0. J2.
N2400 G1 X-320.463 Y1782.692
N2405 G2 X-318.463 Y1784.67 I2. J-0.022
N2410 G1 X-285.649
N2415 G2 X-285.33 Y1784.351 I0. J-0.319 F1000.
N2420 G1 Y1615.649 F4000.
N2425 G2 X-285.649 Y1615.33 I-0.319 J0. F1000.
N2430 G1 X-318.509 F4000.
N2435 G3 X-320.509 Y1613.306 I0. J-2.
N2440 G1 X-320.444 Y1607.906
N2445 G3 X-318.444 Y1605.93 I2. J0.024
N2450 G1 X-276.249
N2455 G3 X-275.93 Y1606.249 I0. J0.319 F1000.
N2460 G1 Y1793.751 F4000.
N2465 G3 X-276.249 Y1794.07 I-0.319 J0. F1000.
N2470 G1 X-318.403 F4000.
N2475 G2 X-320.403 Y1796.046 I0. J2.
N2480 G1 X-320.468 Y1801.446
N2485 G2 X-318.468 Y1803.47 I2. J0.024
N2490 G1 X-266.849
N2495 G2 X-266.53 Y1803.151 I0. J-0.319 F1000.
N2500 G1 Y1596.849 F4000.
N2505 G2 X-266.849 Y1596.53 I-0.319 J0. F1000.
N2510 G1 X-318.504 F4000.
N2515 G3 X-320.504 Y1594.506 I0. J-2.
N2520 G1 X-320.439 Y1589.106
N2525 G3 X-318.439 Y1587.13 I2. J0.024
N2530 G1 X-257.449
N2535 G3 X-257.13 Y1587.449 I0. J0.319 F1000.
N2540 G1 Y1812.551 F4000.
N2545 G3 X-257.449 Y1812.87 I-0.319 J0. F1000.
N2550 G1 X-318.408 F4000.
N2555 G2 X-320.408 Y1814.846 I0. J2.
N2560 G1 X-320.473 Y1820.246
N2565 G2 X-318.473 Y1822.27 I2. J0.024
N2570 G1 X-248.049
N2575 G2 X-247.73 Y1821.951 I0. J-0.319 F1000.
N2580 G1 Y1578.049 F4000.
N2585 G2 X-248.049 Y1577.73 I-0.319 J0. F1000.
N2590 G1 X-318.499 F4000.
N2595 G3 X-320.498 Y1575.706 I0. J-2.
N2600 G1 X-320.434 Y1570.306
N2605 G3 X-318.434 Y1568.33 I2. J0.024
N2610 G1 X-238.649
N2615 G3 X-238.33 Y1568.649 I0. J0.319 F1000.
N2620 G1 Y1831.351 F4000.
N2625 G3 X-238.649 Y1831.67 I-0.319 J0. F1000.
N2630 G1 X-318.414 F4000.
N2635 G2 X-320.414 Y1833.646 I0. J2.
N2640 G1 X-320.478 Y1839.046
N2645 G2 X-318.479 Y1841.07 I2. J0.024
N2650 G1 X-229.249
N2655 G2 X-228.93 Y1840.751 I0. J-0.319 F1000.
N2660 G1 Y1559.249 F4000.
N2665 G2 X-229.249 Y1558.93 I-0.319 J0. F1000.
N2670 G1 X-318.493 F4000.
N2675 G3 X-320.493 Y1556.919 I0. J-2.
N2680 G1 X-320.464 Y1551.514
N2685 G3 X-318.464 Y1549.525 I2. J0.011
N2690 G1 X-219.525
N2695 Y1850.475
N2700 X-310.
N2705 X-318.494
N2710 G3 X-318.792 Y1850.452 I0. J-1.905 F1000.
N2715 G1 X-328.2 Y1848.962
N2720 X-328.364 Y1848.936 Z-33.326
N2725 X-328.527 Y1848.91 Z-33.304
N2730 X-328.687 Y1848.884 Z-33.268
N2735 X-328.844 Y1848.86 Z-33.218
N2740 X-328.995 Y1848.836 Z-33.155
N2745 X-329.141 Y1848.813 Z-33.078
N2750 X-329.279 Y1848.791 Z-32.989
N2755 X-329.41 Y1848.77 Z-32.888
N2760 X-329.531 Y1848.751 Z-32.775
N2765 X-329.641 Y1848.733 Z-32.653
N2770 X-329.741 Y1848.717 Z-32.521
N2775 X-329.83 Y1848.703 Z-32.381
N2780 X-329.905 Y1848.691 Z-32.233
N2785 X-329.968 Y1848.681 Z-32.08
N2790 X-330.018 Y1848.674 Z-31.921
N2795 X-330.053 Y1848.668 Z-31.759
N2800 X-330.074 Y1848.665 Z-31.594
N2805 X-330.082 Y1848.663 Z-31.428
N2810 G0 Z21.
N2815 X-339.618 Y1756.47
N2820 G1 Z-48.095 F333.33
N2825 G18 G2 X-337.713 Z-50. I1.905 K0. F1000.
N2830 G1 X-318.491
N2835 X-313.849 F4000.
N2840 G17 G2 X-313.53 Y1756.151 I0. J-0.319 F1000.
N2845 G1 Y1643.849 F4000.
N2850 G2 X-313.849 Y1643.53 I-0.319 J0. F1000.
N2855 G1 X-318.455 F4000.
N2860 G3 X-320.455 Y1641.552 I0. J-2.
N2865 G1 X-320.514 Y1636.152
N2870 G3 X-318.514 Y1634.13 I2. J-0.022
N2875 G1 X-304.449
N2880 G3 X-304.13 Y1634.449 I0. J0.319 F1000.
N2885 G1 Y1765.551 F4000.
N2890 G3 X-304.449 Y1765.87 I-0.319 J0. F1000.
N2895 G1 X-318.458 F4000.
N2900 G2 X-320.457 Y1767.846 I0. J2.
N2905 G1 X-320.522 Y1773.246
N2910 G2 X-318.522 Y1775.27 I2. J0.024
N2915 G1 X-295.049
N2920 G2 X-294.73 Y1774.951 I0. J-0.319 F1000.
N2925 G1 Y1625.049 F4000.
N2930 G2 X-295.049 Y1624.73 I-0.319 J0. F1000.
N2935 G1 X-318.449 F4000.
N2940 G3 X-320.449 Y1622.752 I0. J-2.
N2945 G1 X-320.509 Y1617.352
N2950 G3 X-318.509 Y1615.33 I2. J-0.022
N2955 G1 X-285.649
N2960 G3 X-285.33 Y1615.649 I0. J0.319 F1000.
N2965 G1 Y1784.351 F4000.
N2970 G3 X-285.649 Y1784.67 I-0.319 J0. F1000.
N2975 G1 X-318.463 F4000.
N2980 G2 X-320.463 Y1786.692 I0. J2.
N2985 G1 X-320.403 Y1792.092
N2990 G2 X-318.403 Y1794.07 I2. J-0.022
N2995 G1 X-276.249
N3000 G2 X-275.93 Y1793.751 I0. J-0.319 F1000.
N3005 G1 Y1606.249 F4000.
N3010 G2 X-276.249 Y1605.93 I-0.319 J0. F1000.
N3015 G1 X-318.444 F4000.
N3020 G3 X-320.444 Y1603.952 I0. J-2.
N3025 G1 X-320.504 Y1598.552
N3030 G3 X-318.504 Y1596.53 I2. J-0.022
N3035 G1 X-266.849
N3040 G3 X-266.53 Y1596.849 I0. J0.319 F1000.
N3045 G1 Y1799.341 F4000.
N3050 Y1803.151 F1000.
N3055 G3 X-266.849 Y1803.47 I-0.319 J0.
N3060 G1 X-318.468 F4000.
N3065 G2 X-320.468 Y1805.492 I0. J2.
N3070 G1 X-320.408 Y1810.892
N3075 G2 X-318.408 Y1812.87 I2. J-0.022
N3080 G1 X-257.449
N3085 G2 X-257.13 Y1812.551 I0. J-0.319 F1000.
N3090 G1 Y1587.449 F4000.
N3095 G2 X-257.449 Y1587.13 I-0.319 J0. F1000.
N3100 G1 X-318.439 F4000.
N3105 G3 X-320.439 Y1585.152 I0. J-2.
N3110 G1 X-320.498 Y1579.752
N3115 G3 X-318.499 Y1577.73 I2. J-0.022
N3120 G1 X-248.049
N3125 G3 X-247.73 Y1578.049 I0. J0.319 F1000.
N3130 G1 Y1821.951 F4000.
N3135 G3 X-248.049 Y1822.27 I-0.319 J0. F1000.
N3140 G1 X-318.473 F4000.
N3145 G2 X-320.473 Y1824.292 I0. J2.
N3150 G1 X-320.414 Y1829.692
N3155 G2 X-318.414 Y1831.67 I2. J-0.022
N3160 G1 X-238.649
N3165 G2 X-238.33 Y1831.351 I0. J-0.319 F1000.
N3170 G1 Y1568.649 F4000.
N3175 G2 X-238.649 Y1568.33 I-0.319 J0. F1000.
N3180 G1 X-318.434 F4000.
N3185 G3 X-320.434 Y1566.352 I0. J-2.
N3190 G1 X-320.493 Y1560.952
N3195 G3 X-318.493 Y1558.93 I2. J-0.022
N3200 G1 X-229.249
N3205 G3 X-228.93 Y1559.249 I0. J0.319 F1000.
N3210 G1 Y1840.751 F4000.
N3215 G3 X-229.249 Y1841.07 I-0.319 J0. F1000.
N3220 G1 X-318.479 F4000.
N3225 G2 X-320.479 Y1843.064 I0. J2.
N3230 G1 X-320.494 Y1848.469
N3235 G2 X-318.494 Y1850.475 I2. J0.006
N3240 G1 X-219.525
N3245 Y1549.525
N3250 X-310.
N3255 X-318.464
N3260 G2 X-318.762 Y1549.548 I0. J1.905 F1000.
N3265 G1 X-328.17 Y1551.038
N3270 X-328.334 Y1551.064 Z-49.993
N3275 X-328.496 Y1551.09 Z-49.971
N3280 X-328.657 Y1551.116 Z-49.935
N3285 X-328.813 Y1551.14 Z-49.885
N3290 X-328.965 Y1551.164 Z-49.822
N3295 X-329.11 Y1551.187 Z-49.745
N3300 X-329.249 Y1551.209 Z-49.655
N3305 X-329.379 Y1551.23 Z-49.554
N3310 X-329.5 Y1551.249 Z-49.442
N3315 X-329.611 Y1551.267 Z-49.32
N3320 X-329.711 Y1551.283 Z-49.188
N3325 X-329.799 Y1551.297 Z-49.048
N3330 X-329.875 Y1551.309 Z-48.9
N3335 X-329.938 Y1551.319 Z-48.747
N3340 X-329.987 Y1551.326 Z-48.588
N3345 X-330.023 Y1551.332 Z-48.426
N3350 X-330.044 Y1551.335 Z-48.261
N3355 X-330.051 Y1551.337 Z-48.095
N3360 G0 Z21.
N3365 G53 Z0.
N3370 M30
%
