%
(SLOT_TEST)
(T1  D=6. CR=0. - ZMIN=-3. - FLAT END MILL)
N10 G90 G94 G17 G91.1
N15 G21
N20 G53 G0 Z0.
(2D POCKET2)
N25 M9
N30 T1 M6
N35 S22000 M3
N40 G54
N45 M8
N50 G0 X316.823 Y148.772
N55 G43 Z15. H1
N60 G0 Z5.
N65 G1 Z3.1 F500.
N70 X316.811 Y148.747 Z2.918 F333.33
N75 X316.774 Y148.674 Z2.754
N80 X316.712 Y148.563 Z2.622
N85 X316.627 Y148.426 Z2.534
N90 X316.522 Y148.278 Z2.5
N95 G2 X311.981 Y151.723 Z2.187 I-2.271 J1.722
N100 X316.522 Y148.278 Z1.875 I2.271 J-1.722
N105 X311.981 Y151.723 Z1.562 I-2.271 J1.722
N110 X316.522 Y148.278 Z1.249 I2.271 J-1.722
N115 X311.981 Y151.723 Z0.937 I-2.271 J1.722
N120 X316.522 Y148.278 Z0.624 I2.271 J-1.722
N125 X311.981 Y151.723 Z0.311 I-2.271 J1.722
N130 X316.522 Y148.278 Z-0.001 I2.271 J-1.722
N135 X311.981 Y151.723 Z-0.314 I-2.271 J1.722
N140 X316.522 Y148.278 Z-0.627 I2.271 J-1.722
N145 X311.981 Y151.723 Z-0.939 I-2.271 J1.722
N150 X316.522 Y148.278 Z-1.252 I2.271 J-1.722
N155 X311.402 Y149.999 Z-1.5 I-2.271 J1.722
N160 G3 X243.763 Y267.832 I-136.579 J-0.07 F1000.
N165 X113.769 Y271.916 I-68.774 J-118.168
N170 X41.855 Y120.247 I61.034 J-121.823
N175 X257.37 Y41.244 I133.107 J29.651
N180 X271.491 Y53.552 I-80.949 J107.126
N185 X306.014 Y111.948 I-97.631 J97.122
N190 X311.402 Y149.999 I-131.192 J37.981
N195 X310.252 Y151.714 I-1.855 J-0.001
N200 G2 X309.081 Y153.415 I0.719 J1.748
N205 G3 X278.605 Y235.219 I-134.119 J-3.386
N210 X54.781 Y209.529 I-103.596 J-85.302
N215 X123.135 Y26.281 I120.312 J-59.494
N220 X309.081 Y153.415 I51.826 J123.748
N225 X306.092 Y157.604 I-4.593 J-0.116
N230 G2 X302.967 Y161.693 I1.688 J4.529
N235 G3 X175. Y278.5 I-127.967 J-11.693
N240 Y21.5 I0. J-128.5
N245 X303.5 Y150. I0. J128.5
N250 Y150.357 I-128.5 J0.178
N255 X302.967 Y161.693 I-128.5 J-0.357
N260 G2 X303.238 Y162.019 I0.299 J0.027
N265 G1 X312.652 Y162.918
N270 G2 X312.98 Y162.648 I0.029 J-0.299
N275 X313.567 Y151.213 I-138.314 J-12.835
N280 X272.96 Y51.989 I-138.011 J-1.44
N285 X213.648 Y16.927 I-98.632 J99.148
N290 X54.922 Y80.838 I-38.577 J133.25
N295 X78.719 Y249.661 I120.237 J69.14
N300 X248.262 Y267.622 I96.305 J-99.889
N305 X312.98 Y162.648 I-73.596 J-117.809
N310 G3 X314.283 Y161.028 I1.875 J0.174
N315 G2 X315.565 Y159.391 I-0.56 J-1.759
N320 X308.319 Y104.562 I-140.486 J-9.329
N325 X305.205 Y96.283 I-134.566 J45.908
N330 X301.576 Y88.216 I-130.654 J53.919
N335 X297.449 Y80.393 I-126.278 J61.626
N340 X292.838 Y72.845 I-121.462 J69.003
N345 X287.763 Y65.601 I-116.227 J76.026
N350 X51.388 Y82.481 I-112.771 J84.294
N355 X34.15 Y150.44 I123.039 J67.374
N360 X64.72 Y237.619 I141.704 J-0.74
N365 X70.437 Y244.368 I116.836 J-93.173
N370 X76.567 Y250.745 I110.089 J-99.681
N375 X83.084 Y256.725 I102.996 J-105.719
N380 X89.964 Y262.284 I95.589 J-111.272
N385 X97.18 Y267.4 I87.9 J-116.324
N390 X104.702 Y272.053 I79.961 J-120.861
N395 X112.501 Y276.225 I71.806 J-124.873
N400 X120.547 Y279.899 I63.469 J-128.35
N405 X128.808 Y283.06 I54.983 J-131.286
N410 X137.251 Y285.697 I46.384 J-133.675
N415 X145.843 Y287.799 I37.705 J-135.516
N420 X154.55 Y289.357 I28.98 J-136.806
N425 X163.337 Y290.366 I20.243 J-137.549
N430 X315.565 Y159.391 I11.742 J-140.304
N435 G3 X318.587 Y155.407 I4.534 J0.301
N440 G2 X321.494 Y151.338 I-1.45 J-4.109
N445 X175.669 Y3.502 I-146.494 J-1.338
N450 X28.5 Y150. I-0.669 J146.498
N455 Y150.357 I146.5 J0.178
N460 X175. Y296.5 I146.5 J-0.357
N465 X321.494 Y151.338 I0. J-146.5
N470 X321.195 Y151.035 I-0.3 J-0.003
N475 G1 X314.625 Y151.01
N480 X314.596 Y151.008
N485 X314.567 Y151.01
N490 X314.538 Y151.015
N495 X308.591 Y152.261
N500 G2 X308.41 Y152.731 I0.062 J0.294
N505 X313.027 Y149.388 Z-1.813 I2.308 J-1.672 F333.33
N510 X308.41 Y152.731 Z-2.125 I-2.308 J1.672
N515 X313.027 Y149.388 Z-2.438 I2.308 J-1.672
N520 X308.41 Y152.731 Z-2.751 I-2.308 J1.672
N525 X313.568 Y151.087 Z-3. I2.308 J-1.672
N530 X272.96 Y51.989 I-138.012 J-1.314 F1000.
N535 X213.648 Y16.927 I-98.632 J99.148
N540 X54.922 Y80.838 I-38.577 J133.25
N545 X78.719 Y249.661 I120.237 J69.14
N550 X248.262 Y267.622 I96.305 J-99.889
N555 X313.567 Y151.213 I-73.596 J-117.809
N560 G1 X313.568 Y151.087
N565 G3 X314.722 Y149.378 I1.867 J0.018
N570 G2 X315.854 Y147.655 I-0.699 J-1.692
N575 X308.319 Y104.562 I-140.774 J2.407
N580 X305.205 Y96.283 I-134.566 J45.908
N585 X301.576 Y88.216 I-130.654 J53.919
N590 X297.449 Y80.393 I-126.278 J61.626
N595 X292.838 Y72.845 I-121.462 J69.003
N600 X287.763 Y65.601 I-116.227 J76.026
N605 X51.388 Y82.481 I-112.771 J84.294
N610 X34.15 Y150.44 I123.039 J67.374
N615 X64.72 Y237.619 I141.704 J-0.74
N620 X70.437 Y244.368 I116.836 J-93.173
N625 X76.567 Y250.745 I110.089 J-99.681
N630 X83.084 Y256.725 I102.996 J-105.719
N635 X89.964 Y262.284 I95.589 J-111.272
N640 X97.18 Y267.4 I87.9 J-116.324
N645 X104.702 Y272.053 I79.961 J-120.861
N650 X112.501 Y276.225 I71.806 J-124.873
N655 X120.547 Y279.899 I63.469 J-128.35
N660 X128.808 Y283.06 I54.983 J-131.286
N665 X137.251 Y285.697 I46.384 J-133.675
N670 X145.843 Y287.799 I37.705 J-135.516
N675 X154.55 Y289.357 I28.98 J-136.806
N680 X163.337 Y290.366 I20.243 J-137.549
N685 X315.854 Y147.655 I11.742 J-140.304
N690 G3 X318.536 Y143.429 I4.547 J-0.078
N695 G2 X321.096 Y139.129 I-1.788 J-3.977
N700 X28.5 Y150. I-146.096 J10.871
N705 Y150.357 I146.5 J0.178
N710 X175. Y296.5 I146.5 J-0.357
N715 X321.096 Y139.129 I0. J-146.5
N720 X320.781 Y138.851 I-0.299 J0.022
N725 G1 X311.3 Y139.355
N730 G2 X311.016 Y139.677 I0.016 J0.3
N735 G3 X243.763 Y267.832 I-136.194 J10.252
N740 X113.769 Y271.916 I-68.774 J-118.168
N745 X41.855 Y120.247 I61.034 J-121.823
N750 X257.37 Y41.244 I133.107 J29.651
N755 X271.491 Y53.552 I-80.949 J107.126
N760 X306.014 Y111.948 I-97.631 J97.122
N765 X311.016 Y139.677 I-131.192 J37.981
N770 X309.996 Y141.48 I-1.856 J0.14
N775 G2 X308.953 Y143.271 I0.852 J1.695
N780 G3 X278.605 Y235.219 I-133.992 J6.758
N785 X54.781 Y209.529 I-103.596 J-85.302
N790 X123.135 Y26.281 I120.312 J-59.494
N795 X308.953 Y143.271 I51.826 J123.748
N800 X306.291 Y147.673 I-4.588 J0.231
N805 G2 X303.485 Y151.985 I2.025 J4.387
N810 G3 X175. Y278.5 I-128.485 J-1.985
N815 Y21.5 I0. J-128.5
N820 X303.5 Y150. I0. J128.5
N825 Y150.357 I-128.5 J0.178
N830 X303.485 Y151.985 I-128.5 J-0.357
N835 G1 X303.491 Y152.077 Z-2.985 F500.
N840 X303.511 Y152.168 Z-2.971
N845 X303.54 Y152.246 Z-2.928
N850 X303.581 Y152.319 Z-2.885
N855 X303.62 Y152.373 Z-2.819
N860 X303.664 Y152.422 Z-2.753
N865 X303.729 Y152.477 Z-2.585
N870 X303.753 Y152.494 Z-2.4
N875 G0 Z15.
N880 X173.765 Y58.189
N885 Z5.
N890 G1 Z3.1 F500.
N895 X173.74 Y58.201 Z2.918 F333.33
N900 X173.667 Y58.238 Z2.754
N905 X173.556 Y58.3 Z2.622
N910 X173.419 Y58.386 Z2.534
N915 X173.272 Y58.49 Z2.5
N920 G2 X176.724 Y63.026 Z2.187 I1.726 J2.268
N925 X173.272 Y58.49 Z1.875 I-1.726 J-2.268
N930 X176.724 Y63.026 Z1.562 I1.726 J2.268
N935 X173.272 Y58.49 Z1.249 I-1.726 J-2.268
N940 X176.724 Y63.026 Z0.937 I1.726 J2.268
N945 X173.272 Y58.49 Z0.624 I-1.726 J-2.268
N950 X176.724 Y63.026 Z0.311 I1.726 J2.268
N955 X173.272 Y58.49 Z-0.001 I-1.726 J-2.268
N960 X176.724 Y63.026 Z-0.314 I1.726 J2.268
N965 X173.272 Y58.49 Z-0.627 I-1.726 J-2.268
N970 X176.724 Y63.026 Z-0.939 I1.726 J2.268
N975 X173.272 Y58.49 Z-1.252 I-1.726 J-2.268
N980 X175.001 Y63.608 Z-1.5 I1.726 J2.268
N985 G3 X198.825 Y66.921 I0.089 J86.69 F1000.
N990 X220.97 Y223.189 I-23.879 J83.087
N995 X95.379 Y183.621 I-45.932 J-73.31
N1000 X97.423 Y111.899 I79.171 J-33.634
N1005 X109.019 Y94.176 I77.202 J37.855
N1010 X175.001 Y63.608 I66.072 J56.122
N1015 X176.675 Y64.731 I0.002 J1.807
N1020 G2 X178.327 Y65.887 I1.723 J-0.705
N1025 G3 X241.21 Y98.063 I-3.246 J83.88
N1030 X249.534 Y189.064 I-66.465 J51.96
N1035 X96.016 Y179.032 I-74.532 J-39.085
N1040 X155.19 Y68.215 I79. J-29.023
N1045 X178.327 Y65.887 I19.891 J81.552
N1050 X182.544 Y69.01 I-0.18 J4.652
N1055 G2 X186.584 Y72.359 I4.788 J-1.664
N1060 G3 X175. Y228.5 I-11.584 J77.641
N1065 G1 X174.788
N1070 G3 X96.5 Y150. I0.212 J-78.5
N1075 X186.584 Y72.359 I78.5 J0.
N1080 G2 X186.925 Y72.103 I0.044 J-0.297
N1085 G1 X188.207 Y62.737
N1090 G2 X187.954 Y62.399 I-0.297 J-0.041
N1095 X107.345 Y92.835 I-12.936 J87.701
N1100 X87.545 Y164.022 I68.049 J57.274
N1105 X202.505 Y234.193 I87.394 J-13.923
N1110 X219.342 Y73.327 I-27.525 J-84.195
N1115 X187.954 Y62.399 I-44.325 J76.773
N1120 G3 X186.431 Y61.035 I0.27 J-1.833
N1125 G2 X184.883 Y59.7 I-1.743 J0.456
N1130 X84.623 Y140.738 I-9.825 J90.384
N1135 X84.15 Y150. I87.435 J9.11
N1140 X84.623 Y159.262 I90.875 J0.
N1145 X147.227 Y236.501 I90.596 J-9.439
N1150 X175.267 Y240.85 I27.704 J-86.056
N1155 X258.326 Y186.201 I-0.411 J-91.068
N1160 X198.192 Y62.16 I-83.229 J-36.248
N1165 X184.883 Y59.7 I-23.134 J87.924
N1170 G3 X181.021 Y56.525 I0.493 J-4.536
N1175 G2 X177.024 Y53.521 I-4.087 J1.277
N1180 X78.505 Y148.988 I-2.024 J96.479
N1185 X175. Y246.5 I96.495 J1.012
N1190 G1 X175.196
N1195 G2 X271.5 Y150. I-0.196 J-96.5
N1200 X177.024 Y53.521 I-96.5 J0.
N1205 X176.718 Y53.819 I-0.006 J0.3
N1210 G1 X176.675 Y60.399
N1215 X176.674 Y60.427
N1220 X176.676 Y60.456
N1225 X176.68 Y60.484
N1230 X177.921 Y66.46
N1235 G2 X178.388 Y66.643 I0.294 J-0.061
N1240 X175.094 Y61.992 Z-1.813 I-1.647 J-2.326 F333.33
N1245 X178.388 Y66.643 Z-2.125 I1.647 J2.326
N1250 X175.094 Y61.992 Z-2.438 I-1.647 J-2.326
N1255 X178.388 Y66.643 Z-2.751 I1.647 J2.326
N1260 X176.798 Y61.468 Z-3. I-1.647 J-2.326
N1265 X107.345 Y92.835 I-1.781 J88.632 F1000.
N1270 X87.545 Y164.022 I68.049 J57.274
N1275 X202.505 Y234.193 I87.394 J-13.923
N1280 X219.342 Y73.327 I-27.525 J-84.195
N1285 X176.798 Y61.468 I-44.325 J76.773
N1290 G3 X175.12 Y60.309 I0.037 J-1.849
N1295 G2 X173.419 Y59.182 I-1.668 J0.671
N1300 X84.623 Y140.738 I1.639 J90.902
N1305 X84.15 Y150. I87.435 J9.11
N1310 X84.623 Y159.262 I90.875 J0.
N1315 X147.227 Y236.501 I90.596 J-9.439
N1320 X175.267 Y240.85 I27.704 J-86.056
N1325 X258.326 Y186.201 I-0.411 J-91.068
N1330 X198.192 Y62.16 I-83.229 J-36.248
N1335 X173.419 Y59.182 I-23.134 J87.924
N1340 G3 X169.182 Y56.516 I-0.082 J-4.568
N1345 G2 X164.833 Y54.037 I-3.898 J1.784
N1350 X175. Y246.5 I10.167 J95.963
N1355 G1 X175.196
N1360 G2 X271.5 Y150. I-0.196 J-96.5
N1365 X164.833 Y54.037 I-96.5 J0.
N1370 X164.566 Y54.365 I0.032 J0.298
N1375 G1 X165.515 Y63.834
N1380 G2 X165.845 Y64.103 I0.299 J-0.03
N1385 G3 X198.825 Y66.921 I9.246 J86.196
N1390 X220.97 Y223.189 I-23.879 J83.087
N1395 X95.379 Y183.621 I-45.932 J-73.31
N1400 X97.423 Y111.899 I79.171 J-33.634
N1405 X109.019 Y94.176 I77.202 J37.855
N1410 X165.845 Y64.103 I66.072 J56.122
N1415 X167.63 Y65.042 I0.193 J1.798
N1420 G2 X169.396 Y66.017 I1.64 J-0.884
N1425 G3 X241.21 Y98.063 I5.685 J83.75
N1430 X249.534 Y189.064 I-66.465 J51.96
N1435 X96.016 Y179.032 I-74.532 J-39.085
N1440 X155.19 Y68.215 I79. J-29.023
N1445 X169.396 Y66.017 I19.891 J81.552
N1450 X173.914 Y68.671 I0.315 J4.637
N1455 G2 X178.28 Y71.569 I4.577 J-2.159
N1460 G3 X175. Y228.5 I-3.28 J78.431
N1465 G1 X174.788
N1470 G3 X96.5 Y150. I0.212 J-78.5
N1475 X178.28 Y71.569 I78.5 J0.
N1480 G1 X178.372 Y71.565 Z-2.985 F500.
N1485 X178.463 Y71.548 Z-2.971
N1490 X178.542 Y71.52 Z-2.928
N1495 X178.616 Y71.482 Z-2.885
N1500 X178.671 Y71.444 Z-2.819
N1505 X178.721 Y71.401 Z-2.753
N1510 X178.778 Y71.338 Z-2.585
N1515 X178.796 Y71.314 Z-2.4
N1520 G0 Z15.
N1525 X176.229 Y191.815
N1530 Z5.
N1535 G1 Z3.1 F500.
N1540 X176.254 Y191.803 Z2.918 F333.33
N1545 X176.327 Y191.766 Z2.754
N1550 X176.438 Y191.704 Z2.622
N1555 X176.575 Y191.618 Z2.534
N1560 X176.722 Y191.514 Z2.5
N1565 G2 X173.277 Y186.973 Z2.187 I-1.723 J-2.27
N1570 X176.722 Y191.514 Z1.875 I1.723 J2.27
N1575 X173.277 Y186.973 Z1.562 I-1.723 J-2.27
N1580 X176.722 Y191.514 Z1.249 I1.723 J2.27
N1585 X173.277 Y186.973 Z0.937 I-1.723 J-2.27
N1590 X176.722 Y191.514 Z0.624 I1.723 J2.27
N1595 X173.277 Y186.973 Z0.311 I-1.723 J-2.27
N1600 X176.722 Y191.514 Z-0.001 I1.723 J2.27
N1605 X173.277 Y186.973 Z-0.314 I-1.723 J-2.27
N1610 X176.722 Y191.514 Z-0.627 I1.723 J2.27
N1615 X173.277 Y186.973 Z-0.939 I-1.723 J-2.27
N1620 X176.722 Y191.514 Z-1.252 I1.723 J2.27
N1625 X175. Y186.394 Z-1.5 I-1.723 J-2.27
N1630 G3 X139.561 Y158.432 I0.011 J-36.453 F1000.
N1635 X191.477 Y117.511 I35.411 J-8.468
N1640 X204.714 Y171.073 I-16.48 J32.49
N1645 X175. Y186.394 I-29.702 J-21.133
N1650 X173.312 Y185.246 I0.001 J-1.817
N1655 G2 X171.681 Y184.019 I-1.82 J0.721
N1660 G3 X142.347 Y160. I3.278 J-33.926
N1665 X188.477 Y118.622 I32.635 J-10.02
N1670 X189.688 Y180.83 I-13.498 J31.379
N1675 X171.681 Y184.019 I-14.729 J-30.737
N1680 X167.548 Y180.443 I0.454 J-4.701
N1685 G2 X163.996 Y176.29 I-5.896 J1.447
N1690 G3 X186.004 Y123.71 I11.004 J-26.29
N1695 X203.5 Y150. I-11.004 J26.29
N1700 G1 Y150.08
N1705 G3 X175. Y178.5 I-28.5 J-0.08
N1710 X163.996 Y176.29 I0. J-28.5
N1715 G2 X163.603 Y176.452 I-0.116 J0.277
N1720 G1 X159.992 Y185.195
N1725 G2 X160.153 Y185.586 I0.277 J0.115
N1730 X168.97 Y188.098 I14.908 J-35.603
N1735 X207.816 Y129.729 I6.066 J-38.074
N1740 X150.34 Y120.341 I-32.831 J20.365
N1745 X160.153 Y185.586 I24.721 J29.643
N1750 G3 X161.276 Y187.247 I-0.707 J1.689
N1755 G2 X162.469 Y188.858 I1.721 J-0.026
N1760 X202.051 Y180.61 I12.546 J-38.892
N1765 X180.332 Y109.499 I-26.985 J-30.63
N1770 X134.15 Y150.151 I-5.332 J40.501
N1775 X162.469 Y188.858 I40.865 J-0.184
N1780 G3 X165.577 Y192.636 I-1.391 J4.312
N1785 G2 X169.017 Y196.113 I3.952 J-0.469
N1790 X175. Y196.5 I5.983 J-46.114
N1795 Y103.5 I0. J-46.5
N1800 X128.5 Y150. I0. J46.5
N1805 G1 Y150.08
N1810 G2 X169.017 Y196.113 I46.5 J-0.08
N1815 X169.354 Y195.849 I0.039 J-0.298
N1820 G1 X170.082 Y189.323
N1825 X170.086 Y189.295
N1830 X170.087 Y189.267
N1835 X170.085 Y189.239
N1840 X169.48 Y183.169
N1845 G2 X169.036 Y182.936 I-0.299 J0.03
N1850 X171.802 Y187.92 Z-1.813 I1.383 J2.492 F333.33
N1855 X169.036 Y182.936 Z-2.125 I-1.383 J-2.492
N1860 X171.802 Y187.92 Z-2.438 I1.383 J2.492
N1865 X169.036 Y182.936 Z-2.751 I-1.383 J-2.492
N1870 X170.05 Y188.254 Z-3. I1.383 J2.492
N1875 X207.816 Y129.729 I4.985 J-38.231 F1000.
N1880 X150.34 Y120.341 I-32.831 J20.365
N1885 X168.97 Y188.098 I24.721 J29.643
N1890 X170.05 Y188.254 I6.066 J-38.074
N1895 G3 X171.564 Y189.554 I-0.235 J1.805
N1900 G2 X173.13 Y190.788 I1.645 J-0.476
N1905 X202.051 Y180.61 I1.884 J-40.822
N1910 X180.332 Y109.499 I-26.985 J-30.63
N1915 X134.15 Y150.151 I-5.332 J40.501
N1920 X173.13 Y190.788 I40.865 J-0.184
N1925 G3 X177.12 Y193.615 I-0.209 J4.524
N1930 G2 X181.351 Y196.064 I3.688 J-1.491
N1935 X168.649 Y103.936 I-6.351 J-46.064
N1940 X128.5 Y150. I6.351 J46.064
N1945 G1 Y150.08
N1950 G2 X175. Y196.5 I46.5 J-0.08
N1955 X181.351 Y196.064 I0. J-46.5
N1960 X181.607 Y195.722 I-0.041 J-0.297
N1965 G1 X180.179 Y186.324
N1970 G2 X179.842 Y186.072 I-0.297 J0.045
N1975 G3 X139.561 Y158.432 I-4.831 J-36.132
N1980 X191.477 Y117.511 I35.411 J-8.468
N1985 X204.714 Y171.073 I-16.48 J32.49
N1990 X179.842 Y186.072 I-29.702 J-21.133
N1995 X178.01 Y185.156 I-0.242 J-1.808
N2000 G2 X176.223 Y184.153 I-1.714 J0.96
N2005 G3 X142.347 Y160. I-1.264 J-34.06
N2010 X188.477 Y118.622 I32.635 J-10.02
N2015 X189.688 Y180.83 I-13.498 J31.379
N2020 X176.223 Y184.153 I-14.729 J-30.737
N2025 X171.655 Y181.161 I-0.175 J-4.715
N2030 G2 X167.586 Y177.519 I-5.647 J2.215
N2035 G3 X182.414 Y122.481 I7.414 J-27.519
N2040 X203.5 Y150. I-7.414 J27.519
N2045 G1 Y150.08
N2050 G3 X175. Y178.5 I-28.5 J-0.08
N2055 X167.586 Y177.519 I0. J-28.5
N2060 G1 X167.495 Y177.502 Z-2.985 F500.
N2065 X167.403 Y177.499 Z-2.971
N2070 X167.32 Y177.508 Z-2.928
N2075 X167.239 Y177.53 Z-2.885
N2080 X167.177 Y177.554 Z-2.819
N2085 X167.119 Y177.585 Z-2.753
N2090 X167.049 Y177.635 Z-2.585
N2095 X167.027 Y177.654 Z-2.4
N2100 G0 Z15.
N2105 X522.646 Y146.109
N2110 Z5.
N2115 G1 Z3.1 F500.
N2120 X522.63 Y146.086 Z2.918 F333.33
N2125 X522.581 Y146.021 Z2.754
N2130 X522.5 Y145.922 Z2.622
N2135 X522.392 Y145.802 Z2.534
N2140 X522.263 Y145.676 Z2.5
N2145 G2 X518.398 Y149.865 Z2.187 I-1.932 J2.095
N2150 X522.263 Y145.676 Z1.875 I1.932 J-2.095
N2155 X518.398 Y149.865 Z1.562 I-1.932 J2.095
N2160 X522.263 Y145.676 Z1.249 I1.933 J-2.095
N2165 X518.398 Y149.865 Z0.937 I-1.933 J2.095
N2170 X522.263 Y145.676 Z0.624 I1.933 J-2.095
N2175 X518.398 Y149.865 Z0.311 I-1.933 J2.095
N2180 X522.263 Y145.676 Z-0.001 I1.933 J-2.095
N2185 X518.398 Y149.865 Z-0.314 I-1.933 J2.095
N2190 X522.263 Y145.676 Z-0.627 I1.933 J-2.095
N2195 X518.398 Y149.865 Z-0.939 I-1.933 J2.095
N2200 X522.263 Y145.676 Z-1.252 I1.933 J-2.095
N2205 X517.525 Y148.27 Z-1.5 I-1.933 J2.095
N2210 G3 X517.638 Y150.478 I-8.718 J1.552 F1000.
N2215 G2 X517.874 Y150.581 I0.136 J0.01
N2220 G1 X521.105 Y147.12
N2225 G2 X520.986 Y146.892 I-0.1 J-0.093
N2230 G3 X517.364 Y146.661 I-1.259 J-8.765
N2235 G2 X517.159 Y146.88 I-0.045 J0.163
N2240 G3 X517.525 Y148.27 I-8.352 J2.942
N2245 X516.502 Y150.33 I-1.903 J0.339
N2250 G2 X514.981 Y152.055 I1.427 J2.792
N2255 G3 X513.605 Y154.302 I-6.174 J-2.233
N2260 G1 X447.123 Y225.503
N2265 G2 X447.193 Y227.531 I1.049 J0.979
N2270 X449.221 Y227.461 I0.979 J-1.049
N2275 G1 X593.106 Y73.366
N2280 G2 X593.036 Y71.337 I-1.049 J-0.98
N2285 X591.007 Y71.407 I-0.979 J1.049
N2290 G1 X524.525 Y142.607
N2295 G3 X515.247 Y142.925 I-4.798 J-4.48
N2300 G1 X438.151 Y70.939
N2305 G2 X436.123 Y71.009 I-0.979 J1.049
N2310 X436.193 Y73.037 I1.049 J0.979
N2315 G1 X513.287 Y145.024
N2320 G3 X514.981 Y152.055 I-4.48 J4.798
N2325 X512.212 Y153.589 I-2.263 J-0.819
N2330 G2 X509.193 Y154.537 I-0.674 J3.139
N2335 G1 X444.883 Y223.411
N2340 G2 X445.101 Y229.771 I3.289 J3.071
N2345 X451.461 Y229.553 I3.071 J-3.289
N2350 G1 X595.346 Y75.458
N2355 G2 X595.128 Y69.097 I-3.289 J-3.072
N2360 X588.767 Y69.315 I-3.071 J3.289
N2365 G1 X522.285 Y140.516
N2370 G3 X517.338 Y140.685 I-2.558 J-2.389
N2375 G1 X440.242 Y68.699
N2380 G2 X434.101 Y75.277 I-3.071 J3.289
N2385 G1 X511.196 Y147.264
N2390 G3 X511.365 Y152.211 I-2.389 J2.558
N2395 G1 X509.193 Y154.537
N2400 G2 X509.482 Y154.969 I0.195 J0.182
N2405 G1 X510.355 Y154.641
N2410 X510.378 Y154.632
N2415 X510.4 Y154.62
N2420 X510.421 Y154.606
N2425 X521.818 Y146.121
N2430 X522.269 Y145.871
N2435 X522.3 Y145.846
N2440 X522.319 Y145.811
N2445 X522.324 Y145.772
N2450 X522.314 Y145.733
N2455 X522.291 Y145.701
N2460 G2 X518.371 Y149.839 Z-1.813 I-1.96 J2.069 F333.33
N2465 X522.291 Y145.701 Z-2.125 I1.96 J-2.069
N2470 X518.371 Y149.839 Z-2.438 I-1.96 J2.069
N2475 X522.291 Y145.701 Z-2.751 I1.96 J-2.069
N2480 X517.525 Y148.27 Z-3. I-1.96 J2.069
N2485 G3 X517.638 Y150.478 I-8.718 J1.552 F1000.
N2490 G2 X517.874 Y150.581 I0.136 J0.01
N2495 G1 X521.105 Y147.12
N2500 G2 X520.986 Y146.892 I-0.1 J-0.093
N2505 G3 X517.364 Y146.661 I-1.259 J-8.765
N2510 G2 X517.159 Y146.88 I-0.045 J0.163
N2515 G3 X517.525 Y148.27 I-8.352 J2.942
N2520 X516.502 Y150.33 I-1.903 J0.339
N2525 G2 X514.981 Y152.055 I1.427 J2.792
N2530 G3 X513.605 Y154.302 I-6.174 J-2.233
N2535 G1 X447.123 Y225.503
N2540 G2 X447.193 Y227.531 I1.049 J0.979
N2545 X449.221 Y227.461 I0.979 J-1.049
N2550 G1 X593.106 Y73.366
N2555 G2 X593.036 Y71.337 I-1.049 J-0.98
N2560 X591.007 Y71.407 I-0.979 J1.049
N2565 G1 X524.525 Y142.607
N2570 G3 X515.247 Y142.925 I-4.798 J-4.48
N2575 G1 X438.151 Y70.939
N2580 G2 X436.123 Y71.009 I-0.979 J1.049
N2585 X436.193 Y73.037 I1.049 J0.979
N2590 G1 X513.287 Y145.024
N2595 G3 X514.981 Y152.055 I-4.48 J4.798
N2600 X512.212 Y153.589 I-2.263 J-0.819
N2605 G2 X509.193 Y154.537 I-0.674 J3.139
N2610 G1 X444.883 Y223.411
N2615 G2 X445.101 Y229.771 I3.289 J3.071
N2620 X451.461 Y229.553 I3.071 J-3.289
N2625 G1 X595.346 Y75.458
N2630 G2 X595.128 Y69.097 I-3.289 J-3.072
N2635 X588.767 Y69.315 I-3.071 J3.289
N2640 G1 X522.285 Y140.516
N2645 G3 X517.338 Y140.685 I-2.558 J-2.389
N2650 G1 X440.242 Y68.699
N2655 G2 X434.101 Y75.277 I-3.071 J3.289
N2660 G1 X511.196 Y147.264
N2665 G3 X511.365 Y152.211 I-2.389 J2.558
N2670 G1 X509.193 Y154.537
N2675 X509.135 Y154.61 Z-2.985 F500.
N2680 X509.089 Y154.69 Z-2.971
N2685 X509.059 Y154.768 Z-2.928
N2690 X509.039 Y154.849 Z-2.885
N2695 X509.032 Y154.915 Z-2.819
N2700 Y154.981 Z-2.753
N2705 X509.043 Y155.066 Z-2.585
N2710 X509.05 Y155.095 Z-2.4
N2715 G0 Z15.
(2D CONTOUR2)
N2720 G0 X320.2 Y150.6
N2725 Z15.
N2730 Z5.
N2735 G1 Z1. F333.33
N2740 Z-2.4
N2745 G18 G2 X320.8 Z-3. I0.6 K0.
N2750 G1 X321.4 F500.
N2755 G17 G2 X322. Y150. I0. J-0.6
N2760 X28. I-147. J0. F1000.
N2765 Y150.503 I147. J0.252
N2770 X175. Y297. I147. J-0.504
N2775 X322. Y150. I0. J-147.
N2780 X321.4 Y149.4 I-0.6 J0. F500.
N2785 G1 X320.8
N2790 G18 G3 X320.2 Z-2.4 I0. K0.6
N2795 G0 Z5.
N2800 X304.797 Y148.921
N2805 G1 Z1. F333.33
N2810 Z-2.4
N2815 X304.79 Z-2.494
N2820 X304.768 Z-2.585
N2825 X304.732 Y148.922 Z-2.672
N2830 X304.682 Z-2.753
N2835 X304.621 Z-2.824
N2840 X304.55 Z-2.885
N2845 X304.469 Y148.923 Z-2.935
N2850 X304.382 Z-2.971
N2855 X304.291 Z-2.993
N2860 X304.197 Y148.924 Z-3.
N2865 X303.597 Y148.926 F500.
N2870 G17 G2 X302.999 Y149.528 I0.002 J0.6
N2875 G3 X175.236 Y278. I-127.999 J0.472 F1000.
N2880 X47. Y150. I-0.236 J-128.
N2885 Y149.497 I128. J-0.252
N2890 X175. Y22. I127.999 J0.504
N2895 X302.999 Y149.528 I0. J128.
N2900 G2 X303.601 Y150.126 I0.6 J-0.002 F500.
N2905 G1 X304.201 Y150.124
N2910 X304.295 Y150.123 Z-2.993
N2915 X304.387 Z-2.971
N2920 X304.474 Z-2.935
N2925 X304.554 Y150.122 Z-2.885
N2930 X304.626 Z-2.824
N2935 X304.687 Z-2.753
N2940 X304.736 Z-2.672
N2945 X304.772 Y150.121 Z-2.585
N2950 X304.794 Z-2.494
N2955 X304.801 Z-2.4
N2960 G0 Z5.
N2965 X270.2 Y150.6
N2970 G1 Z1. F333.33
N2975 Z-2.4
N2980 G18 G2 X270.8 Z-3. I0.6 K0.
N2985 G1 X271.4 F500.
N2990 G17 G2 X272. Y150. I0. J-0.6
N2995 X78. I-97. J0. F1000.
N3000 X78.001 Y150.589 I97. J0.07
N3005 X175. Y247. I96.998 J-0.589
N3010 X272. Y150. I0. J-97.
N3015 X271.4 Y149.4 I-0.6 J0. F500.
N3020 G1 X270.8
N3025 G18 G3 X270.2 Z-2.4 I0. K0.6
N3030 G0 Z5.
N3035 X254.796 Y149.04
N3040 G1 Z1. F333.33
N3045 Z-2.4
N3050 X254.789 Z-2.494
N3055 X254.767 Z-2.585
N3060 X254.731 Z-2.672
N3065 X254.682 Z-2.753
N3070 X254.621 Y149.041 Z-2.824
N3075 X254.549 Z-2.885
N3080 X254.469 Z-2.935
N3085 X254.382 Y149.042 Z-2.971
N3090 X254.29 Z-2.993
N3095 X254.196 Y149.043 Z-3.
N3100 X253.596 Y149.045 F500.
N3105 G17 G2 X252.999 Y149.648 I0.003 J0.6
N3110 G3 X175.176 Y228. I-77.999 J0.352 F1000.
N3115 X97. Y150. I-0.176 J-78.
N3120 Y149.583 I78. J-0.186
N3125 X175. Y72. I77.999 J0.418
N3130 X252.999 Y149.648 I0. J78.
N3135 G2 X253.602 Y150.245 I0.6 J-0.003 F500.
N3140 G1 X254.202 Y150.243
N3145 X254.296 Y150.242 Z-2.993
N3150 X254.387 Z-2.971
N3155 X254.474 Y150.241 Z-2.935
N3160 X254.555 Z-2.885
N3165 X254.626 Z-2.824
N3170 X254.687 Y150.24 Z-2.753
N3175 X254.737 Z-2.672
N3180 X254.773 Z-2.585
N3185 X254.795 Z-2.494
N3190 X254.802 Z-2.4
N3195 G0 Z5.
N3200 X220.196 Y150.872
N3205 G1 Z1. F333.33
N3210 Z-2.4
N3215 X220.203 Z-2.494
N3220 X220.225 Z-2.585
N3225 X220.261 Z-2.672
N3230 X220.31 Y150.873 Z-2.753
N3235 X220.371 Z-2.824
N3240 X220.443 Y150.874 Z-2.885
N3245 X220.523 Z-2.935
N3250 X220.61 Y150.875 Z-2.971
N3255 X220.702 Z-2.993
N3260 X220.796 Y150.876 Z-3.
N3265 X221.396 Y150.879 F500.
N3270 G2 X221.999 Y150.283 I0.004 J-0.6
N3275 X222. Y150. I-46.999 J-0.283 F1000.
N3280 G1 Y149.774
N3285 G2 X175. Y103. I-47. J0.226
N3290 Y197. I0. J47.
N3295 X221.999 Y150.283 I0. J-47.
N3300 X221.403 Y149.679 I-0.6 J-0.004 F500.
N3305 G1 X220.803 Y149.676
N3310 X220.709 Y149.675 Z-2.993
N3315 X220.617 Z-2.971
N3320 X220.53 Y149.674 Z-2.935
N3325 X220.45 Z-2.885
N3330 X220.379 Y149.673 Z-2.824
N3335 X220.317 Z-2.753
N3340 X220.268 Y149.672 Z-2.672
N3345 X220.232 Z-2.585
N3350 X220.21 Z-2.494
N3355 X220.203 Z-2.4
N3360 G0 Z5.
N3365 X204.796 Y149.21
N3370 G1 Z1. F333.33
N3375 Z-2.4
N3380 X204.788 Z-2.494
N3385 X204.766 Z-2.585
N3390 X204.73 Z-2.672
N3395 X204.681 Z-2.753
N3400 X204.62 Y149.211 Z-2.824
N3405 X204.548 Z-2.885
N3410 X204.468 Y149.212 Z-2.935
N3415 X204.381 Z-2.971
N3420 X204.289 Y149.213 Z-2.993
N3425 X204.196 Y149.214 Z-3.
N3430 X203.596 Y149.217 F500.
N3435 G2 X202.999 Y149.821 I0.004 J0.6
N3440 G3 X175.089 Y178. I-27.999 J0.179 F1000.
N3445 X147. Y150. I-0.089 J-28.
N3450 G1 Y149.774
N3455 G3 X175. Y122. I28. J0.226
N3460 X202.999 Y149.821 I0. J28.
N3465 G2 X203.603 Y150.417 I0.6 J-0.004 F500.
N3470 G1 X204.203 Y150.414
N3475 X204.297 Y150.413 Z-2.993
N3480 X204.389 Y150.412 Z-2.971
N3485 X204.476 Z-2.935
N3490 X204.556 Y150.411 Z-2.885
N3495 X204.627 Z-2.824
N3500 X204.689 Y150.41 Z-2.753
N3505 X204.738 Z-2.672
N3510 X204.774 Z-2.585
N3515 X204.796 Z-2.494
N3520 X204.803 Z-2.4
N3525 G0 Z5.
N3530 X519.082 Y144.092
N3535 G1 Z1. F333.33
N3540 Z-2.4
N3545 X519.087 Y144.087 Z-2.494
N3550 X519.102 Y144.071 Z-2.585
N3555 X519.127 Y144.044 Z-2.672
N3560 X519.161 Y144.009 Z-2.753
N3565 X519.202 Y143.964 Z-2.824
N3570 X519.251 Y143.911 Z-2.885
N3575 X519.306 Y143.853 Z-2.935
N3580 X519.365 Y143.789 Z-2.971
N3585 X519.428 Y143.722 Z-2.993
N3590 X519.492 Y143.654 Z-3.
N3595 X519.901 Y143.215 F500.
N3600 G2 X519.872 Y142.367 I-0.439 J-0.409
N3605 G1 X517.68 Y140.32 F1000.
N3610 X440.584 Y68.333
N3615 G2 X433.759 Y75.642 I-3.412 J3.655
N3620 G1 X510.854 Y147.629
N3625 X513.047 Y149.677
N3630 X444.518 Y223.069
N3635 G2 X444.759 Y230.136 I3.654 J3.413
N3640 X451.826 Y229.895 I3.413 J-3.654
N3645 G1 X595.711 Y75.799
N3650 G2 X595.469 Y68.731 I-3.654 J-3.413
N3655 X588.402 Y68.974 I-3.412 J3.655
N3660 G1 X521.92 Y140.174
N3665 X519.872 Y142.367
N3670 G2 X519.901 Y143.215 I0.439 J0.409 F500.
N3675 G1 X520.34 Y143.625
N3680 X520.409 Y143.689 Z-2.993
N3685 X520.475 Y143.751 Z-2.971
N3690 X520.539 Y143.811 Z-2.935
N3695 X520.598 Y143.865 Z-2.885
N3700 X520.65 Y143.914 Z-2.824
N3705 X520.695 Y143.956 Z-2.753
N3710 X520.731 Y143.99 Z-2.672
N3715 X520.757 Y144.014 Z-2.585
N3720 X520.773 Y144.029 Z-2.494
N3725 X520.778 Y144.034 Z-2.4
N3730 G0 Z15.
N3735 M9
N3740 G53 Z0.
N3745 M30
%
