%
(SLOT_1)
(T1  D=6. CR=0. - ZMIN=-28. - FLAT END MILL)
N10 G90 G94 G17 G91.1
N15 G21
N20 G53 G0 Z0.
(2D POCKET1)
N25 M9
N30 T1 M6
N35 S22000 M3
N40 G54
N45 G0 X41.424 Y145.34
N50 G43 Z15. H1
N55 G0 Z5.
N60 G1 Z1. F200.
N65 Y60.001 Z-1.98 F150.
N70 G2 X41.358 Y59.436 Z-2. I-2.482 J0.
N75 X36.46 Y60.001 I-2.417 J0.565 F600.
N80 G1 Y574.964
N85 G2 X41.424 I2.482 J0.
N90 G1 Y60.001
N95 G2 X41.358 Y59.436 I-2.482 J0.
N100 X36.46 Y60.001 Z-2.111 I-2.417 J0.565 F150.
N105 G1 Y183.464 Z-4.
N110 Y574.964 F600.
N115 G2 X41.424 I2.482 J0.
N120 G1 Y60.001
N125 G2 X36.46 I-2.482 J0.
N130 G1 Y183.464
N135 Y314.154 Z-6. F150.
N140 Y574.964 F600.
N145 G2 X41.424 I2.482 J0.
N150 G1 Y60.001
N155 G2 X36.46 I-2.482 J0.
N160 G1 Y314.154
N165 Y444.844 Z-8. F150.
N170 Y574.964 F600.
N175 G2 X41.424 I2.482 J0.
N180 G1 Y60.001
N185 G2 X36.46 I-2.482 J0.
N190 G1 Y314.154
N195 Y444.844
N200 Y574.964 Z-9.991 F150.
N205 G2 X36.525 Y575.529 Z-10. I2.482 J0.
N210 X41.424 Y574.964 I2.417 J-0.565 F600.
N215 G1 Y60.001
N220 G2 X36.46 I-2.482 J0.
N225 G1 Y444.844
N230 Y574.964
N235 G2 X36.525 Y575.529 I2.482 J0.
N240 X41.424 Y574.964 Z-10.111 I2.417 J-0.565 F150.
N245 G1 Y451.501 Z-12.
N250 Y60.001 F600.
N255 G2 X36.46 I-2.482 J0.
N260 G1 Y574.964
N265 G2 X41.424 I2.482 J0.
N270 G1 Y451.501
N275 Y320.811 Z-14. F150.
N280 Y60.001 F600.
N285 G2 X36.46 I-2.482 J0.
N290 G1 Y574.964
N295 G2 X41.424 I2.482 J0.
N300 G1 Y320.811
N305 Y190.121 Z-16. F150.
N310 Y60.001 F600.
N315 G2 X36.46 I-2.482 J0.
N320 G1 Y574.964
N325 G2 X41.424 I2.482 J0.
N330 G1 Y320.811
N335 Y190.121
N340 Y60.001 Z-17.991 F150.
N345 G2 X41.358 Y59.436 Z-18. I-2.482 J0.
N350 X36.46 Y60.001 I-2.417 J0.565 F600.
N355 G1 Y574.964
N360 G2 X41.424 I2.482 J0.
N365 G1 Y190.121
N370 Y60.001
N375 G2 X41.358 Y59.436 I-2.482 J0.
N380 X36.46 Y60.001 Z-18.111 I-2.417 J0.565 F150.
N385 G1 Y183.464 Z-20.
N390 Y574.964 F600.
N395 G2 X41.424 I2.482 J0.
N400 G1 Y60.001
N405 G2 X36.46 I-2.482 J0.
N410 G1 Y183.464
N415 Y314.154 Z-22. F150.
N420 Y574.964 F600.
N425 G2 X41.424 I2.482 J0.
N430 G1 Y60.001
N435 G2 X36.46 I-2.482 J0.
N440 G1 Y314.154
N445 Y444.844 Z-24. F150.
N450 Y574.964 F600.
N455 G2 X41.424 I2.482 J0.
N460 G1 Y60.001
N465 G2 X36.46 I-2.482 J0.
N470 G1 Y314.154
N475 Y444.844
N480 Y574.964 Z-25.991 F150.
N485 G2 X36.525 Y575.529 Z-26. I2.482 J0.
N490 X41.424 Y574.964 I2.417 J-0.565 F600.
N495 G1 Y60.001
N500 G2 X36.46 I-2.482 J0.
N505 G1 Y444.844
N510 Y574.964
N515 G2 X36.525 Y575.529 I2.482 J0.
N520 X41.424 Y574.964 Z-26.111 I2.417 J-0.565 F150.
N525 G1 Y451.501 Z-28.
N530 Y60.001 F600.
N535 G2 X36.46 I-2.482 J0.
N540 G1 Y574.964
N545 G2 X41.424 I2.482 J0.
N550 G1 Y451.501
N555 G0 Z15.
N560 G53 Z0.
N565 M30
%
