%
(1001)
(T1  D=6. CR=0. - ZMIN=-3. - FLAT END MILL)
N10 G90 G94 G17 G91.1
N15 G21
N20 G53 G0 Z0.
(2D POCKET2)
N25 M9
N30 T1 M6
N35 S22000 M3
N40 G54
N45 M8
N50 G0 X291.823 Y173.772
N55 G43 Z15. H1
N60 G0 Z5.
N65 G1 Z3.1 F500.
N70 X291.811 Y173.747 Z2.918 F333.33
N75 X291.774 Y173.674 Z2.754
N80 X291.712 Y173.563 Z2.622
N85 X291.627 Y173.426 Z2.534
N90 X291.522 Y173.278 Z2.5
N95 G2 X286.981 Y176.723 Z2.187 I-2.271 J1.722
N100 X291.522 Y173.278 Z1.875 I2.271 J-1.722
N105 X286.981 Y176.723 Z1.562 I-2.271 J1.722
N110 X291.522 Y173.278 Z1.249 I2.271 J-1.722
N115 X286.981 Y176.723 Z0.937 I-2.271 J1.722
N120 X291.522 Y173.278 Z0.624 I2.271 J-1.722
N125 X286.981 Y176.723 Z0.311 I-2.271 J1.722
N130 X291.522 Y173.278 Z-0.001 I2.271 J-1.722
N135 X286.981 Y176.723 Z-0.314 I-2.271 J1.722
N140 X291.522 Y173.278 Z-0.627 I2.271 J-1.722
N145 X286.981 Y176.723 Z-0.939 I-2.271 J1.722
N150 X291.522 Y173.278 Z-1.252 I2.271 J-1.722
N155 X286.402 Y174.999 Z-1.5 I-2.271 J1.722
N160 G3 X218.763 Y292.832 I-136.579 J-0.07 F1000.
N165 X88.769 Y296.916 I-68.774 J-118.168
N170 X16.855 Y145.247 I61.034 J-121.823
N175 X231.752 Y65.778 I133.107 J29.651
N180 X246.491 Y78.552 I-80.942 J108.287
N185 X281.014 Y136.948 I-97.631 J97.122
N190 X286.402 Y174.999 I-131.192 J37.981
N195 X285.245 Y176.724 I-1.866 J-0.001
N200 G2 X284.068 Y178.435 I0.723 J1.758
N205 G3 X271.54 Y231.783 I-134.277 J-3.387
N210 X167.211 Y308.042 I-121.754 J-57.076
N215 X82.383 Y290.863 I-17.36 J-132.307
N220 X26.281 Y226.865 I67.239 J-115.532
N225 X234.629 Y70.912 I123.748 J-51.826
N230 X284.068 Y178.435 I-84.838 J104.135
N235 X281.085 Y182.615 I-4.583 J-0.116
N240 G2 X277.967 Y186.695 I1.684 J4.519
N245 G3 X22.033 Y163.305 I-127.967 J-11.695
N250 X150. Y46.5 I127.967 J11.695
N255 X150.357 I0.178 J128.5
N260 X278.5 Y175. I-0.357 J128.5
N265 X277.967 Y186.695 I-128.5 J0.
N270 G2 X278.237 Y187.021 I0.299 J0.027
N275 G1 X287.712 Y187.923
N280 G2 X288.039 Y187.652 I0.028 J-0.299
N285 X260.938 Y91.965 I-137.938 J-12.614
N290 X247.96 Y76.989 I-110.034 J82.248
N295 X188.648 Y41.927 I-98.632 J99.148
N300 X30.315 Y105.159 I-38.577 J133.251
N305 X26.168 Y237.191 I120.021 J69.852
N310 X180.219 Y310.237 I123.739 J-61.995
N315 X288.039 Y187.652 I-30.117 J-135.199
N320 G3 X289.297 Y186.086 I1.809 J0.165
N325 G2 X290.535 Y184.506 I-0.542 J-1.7
N330 X290.85 Y174.643 I-140.359 J-9.419
N335 X273.612 Y107.481 I-139.456 J0.
N340 X269.13 Y99.856 I-127.812 J69.988
N345 X264.179 Y92.526 I-122.437 J77.378
N350 X258.777 Y85.522 I-116.649 J84.379
N355 X252.946 Y78.871 I-110.476 J90.967
N360 X246.71 Y72.599 I-103.945 J97.122
N365 X240.092 Y66.731 I-97.087 J102.826
N370 X233.118 Y61.289 I-89.93 J108.063
N375 X225.817 Y56.297 I-82.507 J112.817
N380 X218.217 Y51.772 I-74.848 J117.076
N385 X9.634 Y163.337 I-68.265 J123.137
N390 X195.438 Y308.319 I140.304 J11.742
N395 X203.717 Y305.205 I-45.908 J-134.566
N400 X211.784 Y301.576 I-53.919 J-130.654
N405 X219.607 Y297.449 I-61.626 J-126.278
N410 X227.155 Y292.838 I-69.003 J-121.462
N415 X234.399 Y287.763 I-76.026 J-116.227
N420 X290.535 Y184.506 I-84.223 J-112.675
N425 G3 X293.572 Y180.509 I4.552 J0.305
N430 G2 X296.493 Y176.426 I-1.452 J-4.125
N435 X296.5 Y175. I-146.493 J-1.426
N440 Y174.643 I-146.5 J-0.178
N445 X150. Y28.5 I-146.5 J0.357
N450 Y321.5 I0. J146.5
N455 X296.493 Y176.426 I0. J-146.5
N460 X296.196 Y176.123 I-0.3 J-0.003
N465 G1 X289.647 Y176.057
N470 X289.617 Y176.055
N475 X289.587 Y176.057
N480 X289.557 Y176.061
N485 X283.639 Y177.269
N490 G2 X283.456 Y177.739 I0.06 J0.294
N495 X288.066 Y174.387 Z-1.813 I2.305 J-1.676 F333.33
N500 X283.456 Y177.739 Z-2.125 I-2.305 J1.676
N505 X288.066 Y174.387 Z-2.438 I2.305 J-1.676
N510 X283.456 Y177.739 Z-2.751 I-2.305 J1.676
N515 X288.611 Y176.085 Z-3. I2.305 J-1.676
N520 X260.938 Y91.965 I-138.509 J-1.047 F1000.
N525 X247.96 Y76.989 I-110.034 J82.248
N530 X188.648 Y41.927 I-98.632 J99.148
N535 X30.315 Y105.159 I-38.577 J133.251
N540 X26.168 Y237.191 I120.021 J69.852
N545 X180.219 Y310.237 I123.739 J-61.995
N550 X288.611 Y176.085 I-30.117 J-135.199
N555 G3 X289.733 Y174.422 I1.813 J0.014
N560 G2 X290.837 Y172.748 I-0.681 J-1.65
N565 X273.612 Y107.481 I-139.443 J1.895
N570 X269.13 Y99.856 I-127.812 J69.988
N575 X264.179 Y92.526 I-122.437 J77.378
N580 X258.777 Y85.522 I-116.649 J84.379
N585 X252.946 Y78.871 I-110.476 J90.967
N590 X246.71 Y72.599 I-103.945 J97.122
N595 X240.092 Y66.731 I-97.087 J102.826
N600 X233.118 Y61.289 I-89.93 J108.063
N605 X225.817 Y56.297 I-82.507 J112.817
N610 X218.217 Y51.772 I-74.848 J117.076
N615 X9.634 Y163.337 I-68.265 J123.137
N620 X195.438 Y308.319 I140.304 J11.742
N625 X203.717 Y305.205 I-45.908 J-134.566
N630 X211.784 Y301.576 I-53.919 J-130.654
N635 X219.607 Y297.449 I-61.626 J-126.278
N640 X227.155 Y292.838 I-69.003 J-121.462
N645 X234.399 Y287.763 I-76.026 J-116.227
N650 X290.85 Y174.643 I-84.223 J-112.675
N655 X290.837 Y172.748 I-139.456 J0.
N660 G3 X293.534 Y168.52 I4.565 J-0.062
N665 G2 X296.103 Y164.213 I-1.787 J-3.985
N670 X150. Y28.5 I-146.103 J10.788
N675 Y321.5 I0. J146.5
N680 X296.5 Y175. I0. J-146.5
N685 Y174.643 I-146.5 J-0.178
N690 X296.103 Y164.213 I-146.5 J0.357
N695 X295.79 Y163.935 I-0.299 J0.022
N700 G1 X286.302 Y164.355
N705 G2 X286.016 Y164.677 I0.013 J0.3
N710 G3 X218.763 Y292.832 I-136.194 J10.252
N715 X88.769 Y296.916 I-68.774 J-118.168
N720 X16.855 Y145.247 I61.034 J-121.823
N725 X231.752 Y65.778 I133.107 J29.651
N730 X246.491 Y78.552 I-80.942 J108.287
N735 X281.014 Y136.948 I-97.631 J97.122
N740 X286.016 Y164.677 I-131.192 J37.981
N745 X284.99 Y166.492 I-1.868 J0.141
N750 G2 X283.941 Y168.293 I0.857 J1.705
N755 G3 X271.54 Y231.783 I-134.15 J6.755
N760 X167.211 Y308.042 I-121.754 J-57.076
N765 X82.383 Y290.863 I-17.36 J-132.307
N770 X26.281 Y226.865 I67.239 J-115.532
N775 X234.629 Y70.912 I123.748 J-51.826
N780 X283.941 Y168.293 I-84.838 J104.135
N785 X281.284 Y172.684 I-4.576 J0.23
N790 G2 X278.485 Y176.985 I2.019 J4.376
N795 G3 X21.515 Y173.015 I-128.485 J-1.985
N800 X150. Y46.5 I128.485 J1.985
N805 X150.357 I0.178 J128.5
N810 X278.5 Y175. I-0.357 J128.5
N815 X278.485 Y176.985 I-128.5 J0.
N820 G1 X278.49 Y177.077 Z-2.985 F500.
N825 X278.51 Y177.168 Z-2.971
N830 X278.54 Y177.246 Z-2.928
N835 X278.58 Y177.319 Z-2.885
N840 X278.619 Y177.373 Z-2.819
N845 X278.664 Y177.422 Z-2.753
N850 X278.729 Y177.477 Z-2.585
N855 X278.753 Y177.494 Z-2.4
N860 G0 Z15.
N865 X151.235 Y266.811
N870 Z5.
N875 G1 Z3.1 F500.
N880 X151.26 Y266.799 Z2.918 F333.33
N885 X151.333 Y266.762 Z2.754
N890 X151.444 Y266.7 Z2.622
N895 X151.581 Y266.614 Z2.534
N900 X151.728 Y266.51 Z2.5
N905 G2 X148.276 Y261.974 Z2.187 I-1.726 J-2.268
N910 X151.728 Y266.51 Z1.875 I1.726 J2.268
N915 X148.276 Y261.974 Z1.562 I-1.726 J-2.268
N920 X151.728 Y266.51 Z1.249 I1.726 J2.268
N925 X148.276 Y261.974 Z0.937 I-1.726 J-2.268
N930 X151.728 Y266.51 Z0.624 I1.726 J2.268
N935 X148.276 Y261.974 Z0.311 I-1.726 J-2.268
N940 X151.728 Y266.51 Z-0.001 I1.726 J2.268
N945 X148.276 Y261.974 Z-0.314 I-1.726 J-2.268
N950 X151.728 Y266.51 Z-0.627 I1.726 J2.268
N955 X148.276 Y261.974 Z-0.939 I-1.726 J-2.268
N960 X151.728 Y266.51 Z-1.252 I1.726 J2.268
N965 X149.999 Y261.392 Z-1.5 I-1.726 J-2.268
N970 G3 X126.175 Y258.079 I-0.089 J-86.69 F1000.
N975 X104.03 Y101.811 I23.879 J-83.087
N980 X229.621 Y141.379 I45.932 J73.31
N985 X227.577 Y213.101 I-79.171 J33.634
N990 X215.981 Y230.824 I-77.202 J-37.855
N995 X149.999 Y261.392 I-66.072 J-56.122
N1000 X148.319 Y260.263 I-0.002 J-1.811
N1005 G2 X146.664 Y259.1 I-1.732 J0.705
N1010 G3 X132.34 Y257.276 I3.416 J-83.995
N1015 X68.318 Y195.23 I17.739 J-82.357
N1020 X142.335 Y91.2 I81.595 J-20.292
N1025 X233.999 Y180.035 I7.593 J83.875
N1030 X146.664 Y259.1 I-83.92 J-4.93
N1035 X142.463 Y255.982 I0.189 J-4.643
N1040 G2 X138.436 Y252.644 I-4.771 J1.657
N1045 G3 X161.564 Y97.356 I11.564 J-77.644
N1050 X228.5 Y175. I-11.564 J77.644
N1055 G1 Y175.196
N1060 G3 X150. Y253.5 I-78.5 J-0.196
N1065 X138.436 Y252.644 I0. J-78.5
N1070 G2 X138.095 Y252.899 I-0.044 J0.297
N1075 G1 X136.793 Y262.263
N1080 G2 X137.046 Y262.601 I0.297 J0.041
N1085 X217.655 Y232.165 I12.936 J-87.701
N1090 X237.455 Y160.978 I-68.049 J-57.274
N1095 X122.495 Y90.807 I-87.394 J13.923
N1100 X105.658 Y251.673 I27.525 J84.195
N1105 X137.046 Y262.601 I44.325 J-76.773
N1110 G3 X138.587 Y263.983 I-0.274 J1.855
N1115 G2 X140.153 Y265.336 I1.765 J-0.46
N1120 X237.84 Y198.192 I9.894 J-90.239
N1125 X159.262 Y84.623 I-87.924 J-23.134
N1130 X149.804 Y84.15 I-9.12 J87.531
N1135 X80.648 Y116.314 I0. J90.429
N1140 X59.15 Y175.267 I68.895 J58.52
N1145 X113.799 Y258.326 I91.068 J-0.411
N1150 X140.153 Y265.336 I36.248 J-83.229
N1155 G3 X143.99 Y268.493 I-0.495 J4.511
N1160 G2 X147.962 Y271.478 I4.062 J-1.27
N1165 X150. Y271.5 I2.038 J-96.479
N1170 Y78.5 I0. J-96.5
N1175 X53.5 Y175. I0. J96.5
N1180 G1 Y175.196
N1185 G2 X147.962 Y271.478 I96.5 J-0.196
N1190 X148.268 Y271.181 I0.006 J-0.3
N1195 G1 X148.319 Y264.601
N1200 X148.32 Y264.573
N1205 X148.318 Y264.544
N1210 X148.314 Y264.516
N1215 X147.079 Y258.541
N1220 G2 X146.612 Y258.357 I-0.294 J0.061
N1225 X149.906 Y263.008 Z-1.813 I1.647 J2.326 F333.33
N1230 X146.612 Y258.357 Z-2.125 I-1.647 J-2.326
N1235 X149.906 Y263.008 Z-2.438 I1.647 J2.326
N1240 X146.612 Y258.357 Z-2.751 I-1.647 J-2.326
N1245 X148.202 Y263.532 Z-3. I1.647 J2.326
N1250 X217.655 Y232.165 I1.781 J-88.632 F1000.
N1255 X237.455 Y160.978 I-68.049 J-57.274
N1260 X122.495 Y90.807 I-87.394 J13.923
N1265 X105.658 Y251.673 I27.525 J84.195
N1270 X148.202 Y263.532 I44.325 J-76.773
N1275 G3 X149.912 Y264.714 I-0.038 J1.883
N1280 G2 X151.643 Y265.863 I1.7 J-0.682
N1285 X237.84 Y198.192 I-1.596 J-90.766
N1290 X159.262 Y84.623 I-87.924 J-23.134
N1295 X149.804 Y84.15 I-9.12 J87.531
N1300 X80.648 Y116.314 I0. J90.429
N1305 X59.15 Y175.267 I68.895 J58.52
N1310 X113.799 Y258.326 I91.068 J-0.411
N1315 X151.643 Y265.863 I36.248 J-83.229
N1320 G3 X155.844 Y268.507 I0.08 J4.532
N1325 G2 X160.157 Y270.964 I3.865 J-1.771
N1330 X139.843 Y79.036 I-10.157 J-95.964
N1335 X53.5 Y175. I10.157 J95.964
N1340 G1 Y175.196
N1345 G2 X150. Y271.5 I96.5 J-0.196
N1350 X160.157 Y270.964 I0. J-96.5
N1355 X160.424 Y270.636 I-0.032 J-0.298
N1360 G1 X159.486 Y261.166
N1365 G2 X159.155 Y260.897 I-0.299 J0.03
N1370 G3 X126.175 Y258.079 I-9.246 J-86.196
N1375 X104.03 Y101.811 I23.879 J-83.087
N1380 X229.621 Y141.379 I45.932 J73.31
N1385 X227.577 Y213.101 I-79.171 J33.634
N1390 X215.981 Y230.824 I-77.202 J-37.855
N1395 X159.155 Y260.897 I-66.072 J-56.122
N1400 X157.379 Y259.96 I-0.192 J-1.788
N1405 G2 X155.622 Y258.987 I-1.634 J0.878
N1410 G3 X132.34 Y257.276 I-5.542 J-83.882
N1415 X68.318 Y195.23 I17.739 J-82.357
N1420 X142.335 Y91.2 I81.595 J-20.292
N1425 X233.999 Y180.035 I7.593 J83.875
N1430 X155.622 Y258.987 I-83.92 J-4.93
N1435 X151.107 Y256.329 I-0.307 J-4.643
N1440 G2 X146.741 Y253.432 I-4.576 J2.159
N1445 G3 X153.259 Y96.568 I3.259 J-78.432
N1450 X228.5 Y175. I-3.259 J78.432
N1455 G1 Y175.196
N1460 G3 X150. Y253.5 I-78.5 J-0.196
N1465 X146.741 Y253.432 I0. J-78.5
N1470 G1 X146.648 Y253.436 Z-2.985 F500.
N1475 X146.557 Y253.453 Z-2.971
N1480 X146.479 Y253.481 Z-2.928
N1485 X146.404 Y253.519 Z-2.885
N1490 X146.35 Y253.557 Z-2.819
N1495 X146.299 Y253.6 Z-2.753
N1500 X146.243 Y253.663 Z-2.585
N1505 X146.225 Y253.687 Z-2.4
N1510 G0 Z15.
N1515 X191.833 Y173.765
N1520 Z5.
N1525 G1 Z3.1 F500.
N1530 X191.82 Y173.739 Z2.918 F333.33
N1535 X191.783 Y173.667 Z2.754
N1540 X191.721 Y173.555 Z2.622
N1545 X191.636 Y173.418 Z2.534
N1550 X191.531 Y173.272 Z2.5
N1555 G2 X186.996 Y176.724 Z2.187 I-2.268 J1.726
N1560 X191.531 Y173.272 Z1.875 I2.268 J-1.726
N1565 X186.996 Y176.724 Z1.562 I-2.268 J1.726
N1570 X191.531 Y173.272 Z1.249 I2.268 J-1.726
N1575 X186.996 Y176.724 Z0.937 I-2.268 J1.726
N1580 X191.531 Y173.272 Z0.624 I2.268 J-1.726
N1585 X186.996 Y176.724 Z0.311 I-2.268 J1.726
N1590 X191.531 Y173.272 Z-0.001 I2.268 J-1.726
N1595 X186.996 Y176.724 Z-0.314 I-2.268 J1.726
N1600 X191.531 Y173.272 Z-0.627 I2.268 J-1.726
N1605 X186.996 Y176.724 Z-0.939 I-2.268 J1.726
N1610 X191.531 Y173.272 Z-1.252 I2.268 J-1.726
N1615 X186.413 Y175.001 Z-1.5 I-2.268 J1.726
N1620 G3 X184.907 Y185.417 I-36.453 J0.044 F1000.
N1625 X119.117 Y194.32 I-34.901 J-10.372
N1630 X134.804 Y141.893 I30.851 J-19.33
N1635 X186.413 Y175.001 I15.157 J33.153
N1640 X185.231 Y176.742 I-1.869 J0.002
N1645 G2 X183.962 Y178.421 I0.742 J1.88
N1650 G3 X175.555 Y197.653 I-33.995 J-3.406
N1655 X116.111 Y179.217 I-25.539 J-22.705
N1660 X150.121 Y140.85 I33.955 J-4.159
N1665 X183.962 Y178.421 I-0.154 J34.165
N1670 X180.405 Y182.506 I-4.661 J-0.467
N1675 G2 X176.284 Y186.019 I1.416 J5.835
N1680 G3 X123.716 Y163.981 I-26.284 J-11.019
N1685 X150. Y146.5 I26.284 J11.019
N1690 G1 X150.096
N1695 G3 X178.5 Y175. I-0.096 J28.5
N1700 X176.284 Y186.019 I-28.5 J0.
N1705 G2 X176.446 Y186.413 I0.277 J0.116
N1710 G1 X185.181 Y190.002
N1715 G2 X185.571 Y189.84 I0.114 J-0.277
N1720 X187.024 Y164.184 I-35.611 J-14.886
N1725 X117.418 Y154.355 I-37.025 J10.822
N1730 X133.912 Y210.057 I32.61 J20.637
N1735 X185.571 Y189.84 I16.048 J-35.103
N1740 G3 X187.234 Y188.715 I1.69 J0.706
N1745 G2 X188.848 Y187.522 I-0.026 J-1.723
N1750 X187.001 Y157.69 I-38.899 J-12.565
N1755 X112.559 Y158.663 I-37.001 J17.322
N1760 X138.836 Y214.295 I37.474 J16.321
N1765 X188.848 Y187.522 I11.114 J-39.338
N1770 G3 X192.633 Y184.408 I4.321 J1.396
N1775 G2 X196.116 Y180.961 I-0.47 J-3.959
N1780 X150. Y128.5 I-46.116 J-5.961
N1785 G1 X149.92
N1790 G2 X103.5 Y175. I0.08 J46.5
N1795 X196.116 Y180.961 I46.5 J0.
N1800 X195.852 Y180.624 I-0.298 J-0.038
N1805 G1 X189.314 Y179.905
N1810 X189.286 Y179.901
N1815 X189.258 Y179.9
N1820 X189.23 Y179.902
N1825 X183.147 Y180.517
N1830 G2 X182.915 Y180.961 I0.03 J0.298
N1835 X187.899 Y178.196 Z-1.813 I2.492 J-1.383 F333.33
N1840 X182.915 Y180.961 Z-2.125 I-2.492 J1.383
N1845 X187.899 Y178.196 Z-2.438 I2.492 J-1.383
N1850 X182.915 Y180.961 Z-2.751 I-2.492 J1.383
N1855 X188.233 Y179.947 Z-3. I2.492 J-1.383
N1860 X187.024 Y164.184 I-38.273 J-4.993 F1000.
N1865 X117.418 Y154.355 I-37.025 J10.822
N1870 X133.912 Y210.057 I32.61 J20.637
N1875 X188.233 Y179.947 I16.048 J-35.103
N1880 G3 X189.541 Y178.425 I1.815 J0.237
N1885 G2 X190.783 Y176.85 I-0.478 J-1.655
N1890 X187.001 Y157.69 I-40.834 J-1.893
N1895 X112.559 Y158.663 I-37.001 J17.322
N1900 X138.836 Y214.295 I37.474 J16.321
N1905 X190.783 Y176.85 I11.114 J-39.338
N1910 G3 X193.611 Y172.857 I4.529 J0.21
N1915 G2 X196.06 Y168.621 I-1.494 J-3.69
N1920 X150. Y128.5 I-46.06 J6.379
N1925 G1 X149.92
N1930 G2 X103.5 Y175. I0.08 J46.5
N1935 X153.197 Y221.39 I46.5 J0.
N1940 X196.06 Y168.621 I-3.197 J-46.39
N1945 X195.717 Y168.366 I-0.297 J0.041
N1950 G1 X186.336 Y169.821
N1955 G2 X186.084 Y170.158 I0.046 J0.296
N1960 G3 X184.907 Y185.417 I-36.124 J4.888
N1965 X119.117 Y194.32 I-34.901 J-10.372
N1970 X134.804 Y141.893 I30.851 J-19.33
N1975 X186.084 Y170.158 I15.157 J33.153
N1980 X185.145 Y172.037 I-1.849 J0.25
N1985 G2 X184.113 Y173.866 I0.984 J1.761
N1990 G3 X175.555 Y197.653 I-34.146 J1.149
N1995 X116.111 Y179.217 I-25.539 J-22.705
N2000 X150.121 Y140.85 I33.955 J-4.159
N2005 X184.113 Y173.866 I-0.154 J34.165
N2010 X181.133 Y178.386 I-4.68 J0.157
N2015 G2 X177.518 Y182.416 I2.179 J5.591
N2020 G3 X122.482 Y167.584 I-27.518 J-7.416
N2025 X150. Y146.5 I27.518 J7.416
N2030 G1 X150.096
N2035 G3 X178.5 Y175. I-0.096 J28.5
N2040 X177.518 Y182.416 I-28.5 J0.
N2045 G1 X177.501 Y182.507 Z-2.985 F500.
N2050 X177.498 Y182.6 Z-2.971
N2055 X177.508 Y182.683 Z-2.928
N2060 X177.529 Y182.764 Z-2.885
N2065 X177.553 Y182.825 Z-2.819
N2070 X177.585 Y182.884 Z-2.753
N2075 X177.634 Y182.953 Z-2.585
N2080 X177.653 Y182.975 Z-2.4
N2085 G0 Z15.
N2090 X153.891 Y522.646
N2095 Z5.
N2100 G1 Z3.1 F500.
N2105 X153.914 Y522.63 Z2.918 F333.33
N2110 X153.979 Y522.581 Z2.754
N2115 X154.078 Y522.5 Z2.622
N2120 X154.198 Y522.392 Z2.534
N2125 X154.324 Y522.263 Z2.5
N2130 G2 X150.135 Y518.398 Z2.187 I-2.095 J-1.933
N2135 X154.324 Y522.263 Z1.875 I2.095 J1.933
N2140 X150.135 Y518.398 Z1.562 I-2.095 J-1.933
N2145 X154.324 Y522.263 Z1.249 I2.095 J1.933
N2150 X150.135 Y518.398 Z0.937 I-2.095 J-1.933
N2155 X154.324 Y522.263 Z0.624 I2.095 J1.933
N2160 X150.135 Y518.398 Z0.311 I-2.095 J-1.933
N2165 X154.324 Y522.263 Z-0.001 I2.095 J1.933
N2170 X150.135 Y518.398 Z-0.314 I-2.095 J-1.933
N2175 X154.324 Y522.263 Z-0.627 I2.095 J1.933
N2180 X150.135 Y518.398 Z-0.939 I-2.095 J-1.933
N2185 X154.324 Y522.263 Z-1.252 I2.095 J1.933
N2190 X151.73 Y517.525 Z-1.5 I-2.095 J-1.933
N2195 G3 X149.522 Y517.638 I-1.552 J-8.718 F1000.
N2200 G2 X149.419 Y517.874 I-0.01 J0.136
N2205 G1 X152.88 Y521.105
N2210 G2 X153.108 Y520.986 I0.093 J-0.1
N2215 G3 X153.339 Y517.364 I8.765 J-1.259
N2220 G2 X153.12 Y517.159 I-0.163 J-0.045
N2225 G3 X151.73 Y517.525 I-2.942 J-8.352
N2230 X149.67 Y516.502 I-0.339 J-1.903
N2235 G2 X147.945 Y514.98 I-2.792 J1.427
N2240 G3 X145.698 Y513.605 I2.233 J-6.173
N2245 G1 X74.497 Y447.123
N2250 G2 X72.469 Y447.193 I-0.979 J1.049
N2255 X72.539 Y449.221 I1.049 J0.979
N2260 G1 X226.635 Y593.106
N2265 G2 X228.663 Y593.036 I0.979 J-1.049
N2270 X228.593 Y591.007 I-1.049 J-0.979
N2275 G1 X157.393 Y524.525
N2280 G3 X157.075 Y515.247 I4.48 J-4.798
N2285 G1 X229.061 Y438.151
N2290 G2 X226.963 Y436.193 I-1.049 J-0.979
N2295 G1 X154.976 Y513.287
N2300 G3 X147.945 Y514.98 I-4.798 J-4.48
N2305 X146.411 Y512.212 I0.819 J-2.263
N2310 G2 X145.463 Y509.193 I-3.138 J-0.673
N2315 G1 X76.589 Y444.883
N2320 G2 X70.229 Y445.101 I-3.071 J3.289
N2325 X70.447 Y451.461 I3.289 J3.071
N2330 G1 X224.543 Y595.346
N2335 G2 X230.903 Y595.128 I3.071 J-3.289
N2340 X230.685 Y588.768 I-3.289 J-3.071
N2345 G1 X159.484 Y522.285
N2350 G3 X159.315 Y517.338 I2.389 J-2.558
N2355 G1 X231.301 Y440.242
N2360 G2 X224.723 Y434.101 I-3.289 J-3.071
N2365 G1 X152.736 Y511.196
N2370 G3 X147.789 Y511.365 I-2.558 J-2.389
N2375 G1 X145.463 Y509.193
N2380 G2 X145.031 Y509.482 I-0.182 J0.195
N2385 G1 X145.359 Y510.355
N2390 X145.369 Y510.378
N2395 X145.38 Y510.4
N2400 X145.394 Y510.421
N2405 X153.879 Y521.818
N2410 X154.129 Y522.269
N2415 X154.154 Y522.3
N2420 X154.189 Y522.319
N2425 X154.228 Y522.324
N2430 X154.267 Y522.314
N2435 X154.299 Y522.291
N2440 G2 X150.161 Y518.371 Z-1.813 I-2.069 J-1.96 F333.33
N2445 X154.299 Y522.291 Z-2.125 I2.069 J1.96
N2450 X150.161 Y518.371 Z-2.438 I-2.069 J-1.96
N2455 X154.299 Y522.291 Z-2.751 I2.069 J1.96
N2460 X151.73 Y517.525 Z-3. I-2.069 J-1.96
N2465 G3 X149.522 Y517.638 I-1.552 J-8.718 F1000.
N2470 G2 X149.419 Y517.874 I-0.01 J0.136
N2475 G1 X152.88 Y521.105
N2480 G2 X153.108 Y520.986 I0.093 J-0.1
N2485 G3 X153.339 Y517.364 I8.765 J-1.259
N2490 G2 X153.12 Y517.159 I-0.163 J-0.045
N2495 G3 X151.73 Y517.525 I-2.942 J-8.352
N2500 X149.67 Y516.502 I-0.339 J-1.903
N2505 G2 X147.945 Y514.98 I-2.792 J1.427
N2510 G3 X145.698 Y513.605 I2.233 J-6.173
N2515 G1 X74.497 Y447.123
N2520 G2 X72.469 Y447.193 I-0.979 J1.049
N2525 X72.539 Y449.221 I1.049 J0.979
N2530 G1 X226.635 Y593.106
N2535 G2 X228.663 Y593.036 I0.979 J-1.049
N2540 X228.593 Y591.007 I-1.049 J-0.979
N2545 G1 X157.393 Y524.525
N2550 G3 X157.075 Y515.247 I4.48 J-4.798
N2555 G1 X229.061 Y438.151
N2560 G2 X226.963 Y436.193 I-1.049 J-0.979
N2565 G1 X154.976 Y513.287
N2570 G3 X147.945 Y514.98 I-4.798 J-4.48
N2575 X146.411 Y512.212 I0.819 J-2.263
N2580 G2 X145.463 Y509.193 I-3.138 J-0.673
N2585 G1 X76.589 Y444.883
N2590 G2 X70.229 Y445.101 I-3.071 J3.289
N2595 X70.447 Y451.461 I3.289 J3.071
N2600 G1 X224.543 Y595.346
N2605 G2 X230.903 Y595.128 I3.071 J-3.289
N2610 X230.685 Y588.768 I-3.289 J-3.071
N2615 G1 X159.484 Y522.285
N2620 G3 X159.315 Y517.338 I2.389 J-2.558
N2625 G1 X231.301 Y440.242
N2630 G2 X224.723 Y434.101 I-3.289 J-3.071
N2635 G1 X152.736 Y511.196
N2640 G3 X147.789 Y511.365 I-2.558 J-2.389
N2645 G1 X145.463 Y509.193
N2650 X145.39 Y509.135 Z-2.985 F500.
N2655 X145.31 Y509.089 Z-2.971
N2660 X145.232 Y509.059 Z-2.928
N2665 X145.151 Y509.039 Z-2.885
N2670 X145.085 Y509.032 Z-2.819
N2675 X145.019 Z-2.753
N2680 X144.934 Y509.043 Z-2.585
N2685 X144.906 Y509.05 Z-2.4
N2690 G0 Z15.
(2D CONTOUR2)
N2695 G0 X149.897 Y320.202
N2700 Z15.
N2705 Z5.
N2710 G1 Z1. F333.33
N2715 Z-2.4
N2720 Y320.209 Z-2.494
N2725 Y320.231 Z-2.585
N2730 X149.898 Y320.267 Z-2.672
N2735 Y320.317 Z-2.753
N2740 Y320.378 Z-2.824
N2745 Y320.449 Z-2.885
N2750 Y320.53 Z-2.935
N2755 X149.899 Y320.617 Z-2.971
N2760 Y320.708 Z-2.993
N2765 Y320.802 Z-3.
N2770 X149.901 Y321.402 F500.
N2775 G2 X150.503 Y322. I0.6 J-0.002
N2780 X297. Y175. I-0.504 J-147. F1000.
N2785 X3. I-147. J0.
N2790 X150. Y322. I147. J0.
N2795 X150.503 I0.252 J-147.
N2800 X151.102 Y321.399 I-0.001 J-0.6 F500.
N2805 G1 X151.101 Y320.799
N2810 Y320.705 Z-2.993
N2815 Y320.614 Z-2.971
N2820 Y320.527 Z-2.935
N2825 Y320.446 Z-2.885
N2830 Y320.375 Z-2.824
N2835 Y320.314 Z-2.753
N2840 X151.1 Y320.264 Z-2.672
N2845 Y320.228 Z-2.585
N2850 Y320.206 Z-2.494
N2855 Y320.199 Z-2.4
N2860 G0 Z5.
N2865 X152.036 Y304.785
N2870 G1 Z1. F333.33
N2875 Z-2.4
N2880 Y304.778 Z-2.494
N2885 X152.035 Y304.756 Z-2.585
N2890 Y304.72 Z-2.672
N2895 Y304.671 Z-2.753
N2900 X152.034 Y304.61 Z-2.824
N2905 X152.033 Y304.538 Z-2.885
N2910 X152.032 Y304.458 Z-2.935
N2915 X152.031 Y304.371 Z-2.971
N2920 X152.03 Y304.279 Z-2.993
N2925 X152.029 Y304.185 Z-3.
N2930 X152.023 Y303.585 F500.
N2935 G2 X151.416 Y302.992 I-0.6 J0.007
N2940 G3 X22.002 Y175.708 I-1.416 J-127.992 F1000.
N2945 X150. Y47. I127.998 J-0.708
N2950 X150.503 I0.252 J128.
N2955 X278. Y175. I-0.504 J127.999
N2960 X151.416 Y302.992 I-128. J0.
N2965 G2 X150.823 Y303.599 I0.007 J0.6 F500.
N2970 G1 X150.829 Y304.199
N2975 X150.83 Y304.293 Z-2.993
N2980 X150.831 Y304.384 Z-2.971
N2985 X150.832 Y304.471 Z-2.935
N2990 X150.833 Y304.551 Z-2.885
N2995 X150.834 Y304.623 Z-2.824
N3000 X150.835 Y304.684 Z-2.753
N3005 Y304.733 Z-2.672
N3010 X150.836 Y304.769 Z-2.585
N3015 Y304.791 Z-2.494
N3020 Y304.799 Z-2.4
N3025 G0 Z5.
N3030 X149.83 Y270.202
N3035 G1 Z1. F333.33
N3040 Z-2.4
N3045 Y270.209 Z-2.494
N3050 Y270.231 Z-2.585
N3055 Y270.267 Z-2.672
N3060 Y270.316 Z-2.753
N3065 X149.831 Y270.377 Z-2.824
N3070 Y270.449 Z-2.885
N3075 Y270.529 Z-2.935
N3080 X149.832 Y270.616 Z-2.971
N3085 Y270.708 Z-2.993
N3090 Y270.802 Z-3.
N3095 X149.835 Y271.402 F500.
N3100 G2 X150.438 Y271.999 I0.6 J-0.003
N3105 X149.562 Y78.001 I-0.438 J-96.999 F1000.
N3110 X53. Y175. I0.438 J96.999
N3115 Y175.39 I97. J0.195
N3120 X150. Y272. I97. J-0.391
N3125 X150.438 Y271.999 I0. J-97.
N3130 X151.035 Y271.396 I-0.003 J-0.6 F500.
N3135 G1 X151.032 Y270.796
N3140 Y270.702 Z-2.993
N3145 Y270.611 Z-2.971
N3150 X151.031 Y270.524 Z-2.935
N3155 Y270.444 Z-2.885
N3160 X151.03 Y270.372 Z-2.824
N3165 Y270.311 Z-2.753
N3170 Y270.262 Z-2.672
N3175 Y270.226 Z-2.585
N3180 Y270.204 Z-2.494
N3185 Y270.196 Z-2.4
N3190 G0 Z5.
N3195 X151.681 Y254.785
N3200 G1 Z1. F333.33
N3205 Z-2.4
N3210 X151.68 Y254.777 Z-2.494
N3215 Y254.755 Z-2.585
N3220 Y254.719 Z-2.672
N3225 X151.679 Y254.67 Z-2.753
N3230 X151.678 Y254.609 Z-2.824
N3235 X151.677 Y254.537 Z-2.885
N3240 X151.676 Y254.457 Z-2.935
N3245 X151.675 Y254.37 Z-2.971
N3250 X151.674 Y254.278 Z-2.993
N3255 X151.672 Y254.185 Z-3.
N3260 X151.664 Y253.585 F500.
N3265 G2 X151.056 Y252.993 I-0.6 J0.008
N3270 G3 X150. Y253. I-1.056 J-77.993 F1000.
N3275 Y97. I0. J-78.
N3280 X228. Y175. I0. J78.
N3285 Y175.39 I-78. J0.195
N3290 X151.056 Y252.993 I-78. J-0.391
N3295 G2 X150.464 Y253.601 I0.008 J0.6 F500.
N3300 G1 X150.473 Y254.201
N3305 X150.474 Y254.295 Z-2.993
N3310 X150.475 Y254.386 Z-2.971
N3315 X150.476 Y254.473 Z-2.935
N3320 X150.477 Y254.554 Z-2.885
N3325 X150.478 Y254.625 Z-2.824
N3330 X150.479 Y254.686 Z-2.753
N3335 X150.48 Y254.735 Z-2.672
N3340 Y254.771 Z-2.585
N3345 X150.481 Y254.793 Z-2.494
N3350 Y254.801 Z-2.4
N3355 G0 Z5.
N3360 X149.4 Y220.2
N3365 G1 Z1. F333.33
N3370 Z-2.4
N3375 G19 G3 Y220.8 Z-3. J0.6 K0.
N3380 G1 Y221.4 F500.
N3385 G17 G2 X150. Y222. I0.6 J0.
N3390 X197. Y175. I0. J-47. F1000.
N3395 G1 Y174.774
N3400 G2 X150. Y128. I-47. J0.226
N3405 Y222. I0. J47.
N3410 X150.6 Y221.4 I0. J-0.6 F500.
N3415 G1 Y220.8
N3420 G19 G2 Y220.2 Z-2.4 J0. K0.6
N3425 G0 Z5.
N3430 X151.171 Y204.783
N3435 G1 Z1. F333.33
N3440 Z-2.4
N3445 Y204.776 Z-2.494
N3450 X151.17 Y204.754 Z-2.585
N3455 X151.169 Y204.718 Z-2.672
N3460 Y204.668 Z-2.753
N3465 X151.167 Y204.607 Z-2.824
N3470 X151.166 Y204.536 Z-2.885
N3475 X151.164 Y204.455 Z-2.935
N3480 X151.163 Y204.369 Z-2.971
N3485 X151.161 Y204.277 Z-2.993
N3490 X151.159 Y204.183 Z-3.
N3495 X151.148 Y203.583 F500.
N3500 G17 G2 X150.536 Y202.995 I-0.6 J0.011
N3505 G3 X150. Y203. I-0.536 J-27.995 F1000.
N3510 X149.736 I-0.106 J-28.
N3515 X122. Y175. I0.265 J-27.999
N3520 X178. I28. J0.
N3525 X150.536 Y202.995 I-28. J0.
N3530 G2 X149.948 Y203.606 I0.012 J0.6 F500.
N3535 G1 X149.959 Y204.206
N3540 X149.961 Y204.3 Z-2.993
N3545 X149.963 Y204.392 Z-2.971
N3550 X149.965 Y204.478 Z-2.935
N3555 X149.966 Y204.559 Z-2.885
N3560 X149.968 Y204.63 Z-2.824
N3565 X149.969 Y204.691 Z-2.753
N3570 X149.97 Y204.741 Z-2.672
N3575 Y204.777 Z-2.585
N3580 X149.971 Y204.799 Z-2.494
N3585 Y204.806 Z-2.4
N3590 G0 Z5.
N3595 X149.533 Y514.772
N3600 G1 Z1. F333.33
N3605 Z-2.4
N3610 X149.538 Y514.767 Z-2.494
N3615 X149.553 Y514.751 Z-2.585
N3620 X149.578 Y514.724 Z-2.672
N3625 X149.612 Y514.689 Z-2.753
N3630 X149.653 Y514.644 Z-2.824
N3635 X149.702 Y514.592 Z-2.885
N3640 X149.757 Y514.533 Z-2.935
N3645 X149.816 Y514.469 Z-2.971
N3650 X149.879 Y514.402 Z-2.993
N3655 X149.943 Y514.334 Z-3.
N3660 X150.352 Y513.895 F500.
N3665 G2 X150.323 Y513.047 I-0.439 J-0.409
N3670 G1 X76.93 Y444.518 F1000.
N3675 G2 X69.864 Y444.76 I-3.412 J3.654
N3680 X70.105 Y451.826 I3.654 J3.412
N3685 G1 X224.201 Y595.711
N3690 G2 X231.269 Y595.469 I3.413 J-3.654
N3695 X231.026 Y588.402 I-3.655 J-3.412
N3700 G1 X159.826 Y521.92
N3705 X157.633 Y519.872
N3710 X159.68 Y517.68
N3715 X231.666 Y440.584
N3720 G2 X224.358 Y433.759 I-3.655 J-3.412
N3725 G1 X152.371 Y510.854
N3730 X150.323 Y513.047
N3735 G2 X150.352 Y513.895 I0.439 J0.409 F500.
N3740 G1 X150.791 Y514.305
N3745 X150.859 Y514.369 Z-2.993
N3750 X150.926 Y514.431 Z-2.971
N3755 X150.99 Y514.491 Z-2.935
N3760 X151.049 Y514.545 Z-2.885
N3765 X151.101 Y514.594 Z-2.824
N3770 X151.146 Y514.636 Z-2.753
N3775 X151.182 Y514.669 Z-2.672
N3780 X151.208 Y514.694 Z-2.585
N3785 X151.224 Y514.709 Z-2.494
N3790 X151.229 Y514.714 Z-2.4
N3795 G0 Z15.
N3800 M9
N3805 G53 Z0.
N3810 M30
%
