%
(BOARD1-TOP)
(T5  D=19.05 CR=9.525 - ZMIN=-67. - BALL END MILL)
N10 G90 G94 G17 G91.1
N15 G21
N20 G53 G0 Z0.
(PARALLEL1)
N25 M9
N30 T5 M6
N35 S24000 M3
N40 G54
N45 G0 X309.45 Y1802.954
N50 G43 Z15. H5
N55 G0 Z-18.095
N60 G19 G2 Y1801.049 Z-20. J-1.905 K0. F1000.
N65 G1 Y-1.049 F4000.
N70 G2 Y-1.468 Z-19.903 J0. K0.952
N75 G3 Y-1.887 Z-19.806 J-0.419 K-0.855
N80 G1 Y-10.363
N85 G17 G2 X306.592 Y-13.221 I-2.858 J0.
N90 G1 X297.311
N95 G2 X294.454 Y-10.363 I0. J2.858
N100 G19 G2 Y-9.944 Z-19.903 J0. K-0.952
N105 G3 Y-9.525 Z-20. J0.419 K0.855
N110 G1 Y1809.525
N115 G3 Y1809.944 Z-19.903 J0. K0.952
N120 G2 Y1810.363 Z-19.806 J0.419 K-0.855
N125 G17 G3 X291.596 Y1813.221 I-2.858 J0.
N130 G1 X282.315
N135 G3 X279.457 Y1810.363 I0. J-2.857
N140 G19 G3 Y1809.944 Z-19.903 J0. K-0.952
N145 G2 Y1809.525 Z-20. J-0.419 K0.855
N150 G1 Y-9.525
N155 G2 Y-9.944 Z-19.903 J0. K0.952
N160 G3 Y-10.363 Z-19.806 J-0.419 K-0.855
N165 G17 G2 X276.6 Y-13.221 I-2.858 J0.
N170 G1 X267.318
N175 G2 X264.461 Y-10.363 I0. J2.858
N180 G19 G2 Y-9.944 Z-19.903 J0. K-0.952
N185 G3 Y-9.525 Z-20. J0.419 K0.855
N190 G1 Y1809.525
N195 G3 Y1809.944 Z-19.903 J0. K0.952
N200 G2 Y1810.363 Z-19.806 J0.419 K-0.855
N205 G17 G3 X261.603 Y1813.221 I-2.858 J0.
N210 G1 X252.322
N215 G3 X249.465 Y1810.363 I0. J-2.857
N220 G19 G3 Y1809.944 Z-19.903 J0. K-0.952
N225 G2 Y1809.525 Z-20. J-0.419 K0.855
N230 G1 Y-9.525
N235 G2 Y-9.944 Z-19.903 J0. K0.952
N240 G3 Y-10.363 Z-19.806 J-0.419 K-0.855
N245 G17 G2 X246.607 Y-13.221 I-2.857 J0.
N250 G1 X237.326
N255 G2 X234.468 Y-10.363 I0. J2.858
N260 G19 G2 Y-9.944 Z-19.903 J0. K-0.952
N265 G3 Y-9.525 Z-20. J0.419 K0.855
N270 G1 Y1809.525
N275 G3 Y1809.944 Z-19.903 J0. K0.952
N280 G2 Y1810.363 Z-19.806 J0.419 K-0.855
N285 G17 G3 X231.611 Y1813.221 I-2.857 J0.
N290 G1 X222.329
N295 G3 X219.472 Y1810.363 I0. J-2.857
N300 G19 G3 Y1809.944 Z-19.903 J0. K-0.952
N305 G2 Y1809.525 Z-20. J-0.419 K0.855
N310 G1 Y-9.525
N315 G2 Y-9.944 Z-19.903 J0. K0.952
N320 G3 Y-10.363 Z-19.806 J-0.419 K-0.855
N325 G17 G2 X216.614 Y-13.221 I-2.858 J0.
N330 G1 X207.333
N335 G2 X204.475 Y-10.363 I0. J2.858
N340 G19 G2 Y-9.944 Z-19.903 J0. K-0.952
N345 G3 Y-9.525 Z-20. J0.419 K0.855
N350 G1 Y1809.525
N355 G3 Y1809.944 Z-19.903 J0. K0.952
N360 G2 Y1810.363 Z-19.806 J0.419 K-0.855
N365 G17 G3 X201.618 Y1813.221 I-2.857 J0.
N370 G1 X192.337
N375 G3 X189.479 Y1810.363 I0. J-2.858
N380 G19 G3 Y1809.944 Z-19.903 J0. K-0.952
N385 G2 Y1809.525 Z-20. J-0.419 K0.855
N390 G1 Y803.687 Z-19.951
N395 Y670.259 Z-19.384
N400 Y582.552 Z-19.27
N405 Y499.509 Z-19.484
N410 Y425.798 Z-20.
N415 Y-9.525
N420 G2 Y-9.944 Z-19.903 J0. K0.952
N425 G3 Y-10.363 Z-19.806 J-0.419 K-0.855
N430 G17 G2 X186.622 Y-13.221 I-2.857 J0.
N435 G1 X177.34
N440 G2 X174.483 Y-10.363 I0. J2.858
N445 G19 G2 Y-9.944 Z-19.903 J0. K-0.952
N450 G3 Y-9.525 Z-20. J0.419 K0.855
N455 G1 Y328.961
N460 Y353.221 Z-19.44
N465 Y407.339 Z-18.285
N470 Y450.259 Z-17.908
N475 Y514.64 Z-17.655
N480 Y605.147 Z-17.666
N485 Y725.512 Z-18.129
N490 Y1023.158 Z-19.953
N495 Y1403.846 Z-20.
N500 Y1471.026 Z-19.609
N505 Y1509.282 Z-19.539
N510 Y1529.809 Z-19.689
N515 Y1543.805 Z-19.95
N520 Y1809.525 Z-20.
N525 G3 Y1809.944 Z-19.903 J0. K0.952
N530 G2 Y1810.364 Z-19.806 J0.419 K-0.855
N535 G17 G3 X171.625 Y1813.221 I-2.857 J0.
N540 G1 X162.344
N545 G3 X159.486 Y1810.364 I0. J-2.858
N550 G1 Y1810.363
N555 G19 G3 Y1809.944 Z-19.903 J0. K-0.952
N560 G2 Y1809.525 Z-20. J-0.419 K0.855
N565 G1 Y1609.196
N570 Y1604.623 Z-19.324
N575 Y1595.986 Z-18.452
N580 Y1585.373 Z-17.803
N585 Y1571.494 Z-17.368
N590 Y1555.632 Z-17.181
N595 Y1530.439 Z-17.222
N600 Y1480.054 Z-17.778
N605 Y1388.614 Z-18.818
N610 Y1311.17 Z-19.336
N615 Y1220.664 Z-19.533
N620 Y1118.236 Z-19.345
N625 Y993.206 Z-18.68
N630 Y687.162 Z-16.753
N635 Y577.061 Z-16.32
N640 Y486.554 Z-16.283
N645 Y419.374 Z-16.55
N650 Y394.182 Z-16.878
N655 Y336.332 Z-18.015
N660 Y283.147 Z-19.384
N665 Y261.734 Z-20.
N670 Y-9.525
N675 G2 Y-9.944 Z-19.903 J0. K0.952
N680 G3 Y-10.363 Z-19.806 J-0.419 K-0.855
N685 G17 G2 X156.629 Y-13.221 I-2.857 J0.
N690 G1 X147.347
N695 G2 X144.49 Y-10.363 I0. J2.858
N700 G19 G2 Y-9.944 Z-19.903 J0. K-0.952
N705 G3 Y-9.525 Z-20. J0.419 K0.855
N710 G1 Y211.676
N715 Y225.875 Z-19.501
N720 Y252.554 Z-18.602
N725 Y300.14 Z-17.314
N730 Y351.459 Z-16.255
N735 Y409.308 Z-15.387
N740 Y466.225 Z-15.169
N745 Y555.799 Z-15.226
N750 Y662.168 Z-15.656
N755 Y989.671 Z-17.771
N760 Y1114.701 Z-18.419
N765 Y1215.536 Z-18.59
N770 Y1298.579 Z-18.403
N775 Y1376.956 Z-17.862
N780 Y1448.801 Z-16.985
N785 Y1535.576 Z-15.448
N790 Y1570.099 Z-14.917
N795 Y1589.693 Z-14.873
N800 Y1601.823 Z-15.074
N805 Y1612.066 Z-15.492
N810 Y1619.814 Z-16.073
N815 Y1625.715 Z-16.768
N820 Y1628.53 Z-17.193
N825 Y1633.608 Z-18.175
N830 Y1637.132 Z-19.113
N835 Y1639.802 Z-19.965
N840 Y1809.525 Z-20.
N845 G3 Y1809.944 Z-19.903 J0. K0.952
N850 G2 Y1810.364 Z-19.806 J0.419 K-0.855
N855 G17 G3 X141.632 Y1813.221 I-2.857 J0.
N860 G1 X132.351
N865 G3 X129.494 Y1810.364 I0. J-2.858
N870 G1 Y1810.363
N875 G19 G3 Y1809.944 Z-19.903 J0. K-0.952
N880 G2 Y1809.525 Z-20. J-0.419 K0.855
N885 G1 Y1661.313 Z-19.998
N890 Y1659.004 Z-18.709
N895 Y1656.344 Z-17.49
N900 Y1652.056 Z-16.04
N905 Y1650.302 Z-15.587
N910 Y1646.289 Z-14.709
N915 Y1640.873 Z-13.894
N920 Y1636.06 Z-13.407
N925 Y1629.357 Z-12.969
N930 Y1621.537 Z-12.703
N935 Y1608.474 Z-12.611
N940 Y1589.813 Z-12.855
N945 Y1492.775 Z-15.203
N950 Y1431.193 Z-16.308
N955 Y1364.946 Z-17.109
N960 Y1289.368 Z-17.624
N965 Y1209.125 Z-17.805
N970 Y1107.25 Z-17.634
N975 Y978.488 Z-16.966
N980 Y643.52 Z-14.775
N985 Y536.218 Z-14.341
N990 Y448.51 Z-14.284
N995 Y404.656 Z-14.455
N1000 Y341.208 Z-15.296
N1005 Y289.89 Z-16.265
N1010 Y243.237 Z-17.466
N1015 Y217.322 Z-18.302
N1020 Y189.967 Z-19.367
N1025 Y175.268 Z-20.
N1030 Y-9.525
N1035 G2 Y-9.944 Z-19.903 J0. K0.952
N1040 G3 Y-10.363 Z-19.806 J-0.419 K-0.855
N1045 G17 G2 X126.636 Y-13.221 I-2.857 J0.
N1050 G1 X117.355
N1055 G2 X114.497 Y-10.363 I0. J2.858
N1060 G19 G2 Y-9.944 Z-19.903 J0. K-0.952
N1065 G3 Y-9.525 Z-20. J0.419 K0.855
N1070 G1 Y147.216
N1075 Y155.732 Z-19.599
N1080 Y187.334 Z-18.207
N1085 Y210.747 Z-17.329
N1090 Y237.646 Z-16.493
N1095 Y282.433 Z-15.4
N1100 Y335.617 Z-14.484
N1105 Y399.065 Z-13.753
N1110 Y435.455 Z-13.593
N1115 Y521.296 Z-13.642
N1120 Y630.464 Z-14.08
N1125 Y969.165 Z-16.304
N1130 Y1099.793 Z-16.977
N1135 Y1203.446 Z-17.15
N1140 Y1282.756 Z-16.971
N1145 Y1358.334 Z-16.453
N1150 Y1423.648 Z-15.658
N1155 Y1478.699 Z-14.664
N1160 Y1533.749 Z-13.309
N1165 Y1595.891 Z-11.323
N1170 Y1616.386 Z-10.697
N1175 Y1631.315 Z-10.443
N1180 Y1641.578 Z-10.527
N1185 Y1648.105 Z-10.776
N1190 Y1653.459 Z-11.178
N1195 Y1658.103 Z-11.744
N1200 Y1663.474 Z-12.763
N1205 Y1667.297 Z-13.846
N1210 Y1671.184 Z-15.403
N1215 Y1673.935 Z-16.912
N1220 Y1676.013 Z-18.36
N1225 Y1677.856 Z-19.974
N1230 Y1809.525 Z-20.
N1235 G3 Y1809.944 Z-19.903 J0. K0.952
N1240 G2 Y1810.364 Z-19.806 J0.419 K-0.855
N1245 G17 G3 X111.64 Y1813.221 I-2.857 J0.
N1250 G1 X102.358
N1255 G3 X99.501 Y1810.364 I0. J-2.858
N1260 G1 Y1810.363
N1265 G19 G3 Y1809.944 Z-19.903 J0. K-0.952
N1270 G2 Y1809.525 Z-20. J-0.419 K0.855
N1275 G1 Y1691.251
N1280 Y1689.84 Z-18.133
N1285 Y1688.056 Z-16.314
N1290 Y1686.238 Z-14.879
N1295 Y1684.384 Z-13.656
N1300 Y1681.165 Z-12.059
N1305 Y1677.753 Z-10.848
N1310 Y1673.22 Z-9.762
N1315 Y1668.83 Z-9.102
N1320 Y1665.194 Z-8.746
N1325 Y1660.611 Z-8.49
N1330 Y1652.214 Z-8.349
N1335 Y1641.017 Z-8.541
N1340 Y1626.328 Z-9.062
N1345 Y1566.741 Z-11.443
N1350 Y1521.14 Z-12.912
N1355 Y1468.889 Z-14.191
N1360 Y1410.106 Z-15.226
N1365 Y1347.591 Z-15.955
N1370 Y1271.08 Z-16.449
N1375 Y1191.77 Z-16.605
N1380 Y1088.177 Z-16.414
N1385 Y941.687 Z-15.647
N1390 Y624.446 Z-13.552
N1395 Y512.479 Z-13.102
N1400 Y426.638 Z-13.058
N1405 Y388.382 Z-13.254
N1410 Y325.867 Z-13.916
N1415 Y273.616 Z-14.779
N1420 Y231.628 Z-15.769
N1425 Y203.758 Z-16.625
N1430 Y180.459 Z-17.498
N1435 Y157.485 Z-18.496
N1440 Y140.672 Z-19.369
N1445 Y129.993 Z-20.
N1450 Y-9.525
N1455 G2 Y-9.944 Z-19.903 J0. K0.952
N1460 G3 Y-10.363 Z-19.806 J-0.419 K-0.855
N1465 G17 G2 X96.643 Y-13.221 I-2.858 J0.
N1470 G1 X87.362
N1475 G2 X84.505 Y-10.363 I0. J2.858
N1480 G19 G2 Y-9.944 Z-19.903 J0. K-0.952
N1485 G3 Y-9.525 Z-20. J0.419 K0.855
N1490 G1 Y117.47
N1495 Y120.971 Z-19.939
N1500 Y127.519 Z-19.398
N1505 Y143.95 Z-18.409
N1510 Y161.026 Z-17.559
N1515 Y189.148 Z-16.409
N1520 Y212.04 Z-15.637
N1525 Y251.228 Z-14.617
N1530 Y298.814 Z-13.741
N1535 Y355.731 Z-13.06
N1540 Y416.38 Z-12.661
N1545 Y500.355 Z-12.676
N1550 Y609.523 Z-13.089
N1555 Y798.934 Z-14.304
N1560 Y1015.404 Z-15.675
N1565 Y1133.902 Z-16.109
N1570 Y1229.776 Z-16.108
N1575 Y1311.885 Z-15.751
N1580 Y1382.797 Z-15.073
N1585 Y1442.513 Z-14.161
N1590 Y1497.564 Z-12.951
N1595 Y1545.999 Z-11.513
N1600 Y1589.346 Z-9.829
N1605 Y1651.302 Z-6.85
N1610 Y1662.063 Z-6.438
N1615 Y1670.417 Z-6.344
N1620 Y1675.104 Z-6.48
N1625 Y1678.759 Z-6.735
N1630 Y1683.056 Z-7.274
N1635 Y1686.834 Z-8.064
N1640 Y1690.281 Z-9.16
N1645 Y1693.539 Z-10.658
N1650 Y1695.816 Z-12.085
N1655 Y1697.918 Z-13.812
N1660 Y1699.65 Z-15.649
N1665 Y1701.137 Z-17.772
N1670 Y1702.253 Z-19.972
N1675 Y1809.525 Z-20.
N1680 G3 Y1809.944 Z-19.903 J0. K0.952
N1685 G2 Y1810.364 Z-19.806 J0.419 K-0.855
N1690 G17 G3 X81.647 Y1813.221 I-2.857 J0.
N1695 G1 X72.366
N1700 G3 X69.508 Y1810.364 I0. J-2.858
N1705 G19 G3 Y1809.944 Z-19.903 J0. K-0.952
N1710 G2 Y1809.525 Z-20. J-0.419 K0.855
N1715 G1 Y1711.405 Z-19.969
N1720 Y1710.621 Z-17.524
N1725 Y1709.528 Z-15.281
N1730 Y1708.239 Z-13.35
N1735 Y1706.831 Z-11.731
N1740 Y1704.883 Z-10.002
N1745 Y1703.074 Z-8.749
N1750 Y1700.714 Z-7.472
N1755 Y1698.632 Z-6.611
N1760 Y1695.16 Z-5.597
N1765 Y1692.026 Z-5.016
N1770 Y1688.911 Z-4.664
N1775 Y1684.253 Z-4.433
N1780 Y1677.721 Z-4.48
N1785 Y1669.794 Z-4.811
N1790 Y1652.204 Z-5.83
N1795 Y1612.622 Z-8.089
N1800 Y1574.207 Z-9.891
N1805 Y1533.686 Z-11.402
N1810 Y1485.167 Z-12.787
N1815 Y1430.117 Z-13.939
N1820 Y1366.669 Z-14.849
N1825 Y1293.89 Z-15.471
N1830 Y1209.915 Z-15.771
N1835 Y1109.647 Z-15.707
N1840 Y982.751 Z-15.177
N1845 Y607.661 Z-12.786
N1850 Y498.493 Z-12.373
N1855 Y415.45 Z-12.355
N1860 Y351.069 Z-12.729
N1865 Y295.086 Z-13.362
N1870 Y248.433 Z-14.191
N1875 Y209.244 Z-15.192
N1880 Y187.114 Z-15.925
N1885 Y162.406 Z-16.926
N1890 Y143.647 Z-17.856
N1895 Y126.396 Z-18.902
N1900 Y117.394 Z-19.652
N1905 Y114.127 Z-20.
N1910 Y-9.525
N1915 G2 Y-9.944 Z-19.903 J0. K0.952
N1920 G3 Y-10.363 Z-19.806 J-0.419 K-0.855
N1925 G17 G2 X66.651 Y-13.221 I-2.858 J0.
N1930 G1 X57.369
N1935 G2 X54.512 Y-10.363 I0. J2.858
N1940 G19 G2 Y-9.944 Z-19.903 J0. K-0.952
N1945 G3 Y-9.525 Z-20. J0.419 K0.855
N1950 G1 Y111.413
N1955 Y114.254 Z-19.551
N1960 Y117.523 Z-19.19
N1965 Y127.348 Z-18.432
N1970 Y143.777 Z-17.436
N1975 Y162.548 Z-16.508
N1980 Y185.437 Z-15.587
N1985 Y208.362 Z-14.834
N1990 Y246.618 Z-13.875
N1995 Y293.271 Z-13.07
N2000 Y349.254 Z-12.475
N2005 Y414.568 Z-12.135
N2010 Y496.678 Z-12.152
N2015 Y605.846 Z-12.561
N2020 Y973.471 Z-14.884
N2025 Y1102.233 Z-15.42
N2030 Y1193.399 Z-15.5
N2035 Y1279.24 Z-15.244
N2040 Y1353.885 Z-14.66
N2045 Y1418.266 Z-13.79
N2050 Y1469.584 Z-12.782
N2055 Y1519.037 Z-11.46
N2060 Y1560.92 Z-9.991
N2065 Y1598.614 Z-8.301
N2070 Y1631.491 Z-6.476
N2075 Y1665.602 Z-4.185
N2080 Y1682.916 Z-2.984
N2085 Y1689.722 Z-2.641
N2090 Y1694.854 Z-2.579
N2095 Y1698.992 Z-2.81
N2100 Y1700.803 Z-3.033
N2105 Y1703.146 Z-3.46
N2110 Y1706.088 Z-4.281
N2115 Y1708.57 Z-5.3
N2120 Y1710.912 Z-6.619
N2125 Y1712.83 Z-8.056
N2130 Y1714.405 Z-9.576
N2135 Y1715.884 Z-11.404
N2140 Y1717.126 Z-13.468
N2145 Y1718.085 Z-15.725
N2150 Y1718.621 Z-17.588
N2155 Y1719.019 Z-19.999
N2160 Y1809.525 Z-20.
N2165 G3 Y1809.944 Z-19.903 J0. K0.952
N2170 G2 Y1810.363 Z-19.806 J0.419 K-0.855
N2175 G17 G3 X51.654 Y1813.221 I-2.857 J0.
N2180 G1 X42.373
N2185 G3 X39.515 Y1810.363 I0. J-2.857
N2190 G19 G3 Y1809.944 Z-19.903 J0. K-0.952
N2195 G2 Y1809.525 Z-20. J-0.419 K0.855
N2200 G1 Y1725.32
N2205 Y1725.163 Z-16.985
N2210 Y1724.675 Z-14.396
N2215 Y1723.917 Z-12.128
N2220 Y1722.736 Z-9.793
N2225 Y1721.404 Z-7.904
N2230 Y1719.941 Z-6.321
N2235 Y1717.927 Z-4.675
N2240 Y1715.634 Z-3.305
N2245 Y1713.176 Z-2.264
N2250 Y1710.366 Z-1.48
N2255 Y1707.421 Z-1.016
N2260 Y1703.764 Z-0.814
N2265 Y1700.499 Z-0.861
N2270 Y1695.384 Z-1.143
N2275 Y1681.917 Z-2.231
N2280 Y1651.672 Z-4.658
N2285 Y1622.66 Z-6.588
N2290 Y1589.714 Z-8.374
N2295 Y1551.651 Z-10.02
N2300 Y1507.797 Z-11.495
N2305 Y1456.478 Z-12.79
N2310 Y1398.629 Z-13.838
N2315 Y1331.448 Z-14.633
N2320 Y1253.071 Z-15.138
N2325 Y1160.845 Z-15.3
N2330 Y1049.811 Z-15.061
N2335 Y918.249 Z-14.397
N2340 Y613.139 Z-12.448
N2345 Y501.172 Z-12.01
N2350 Y416.263 Z-11.98
N2355 Y349.083 Z-12.292
N2360 Y293.099 Z-12.857
N2365 Y246.447 Z-13.635
N2370 Y208.191 Z-14.574
N2375 Y185.135 Z-15.321
N2380 Y163.034 Z-16.207
N2385 Y143.536 Z-17.173
N2390 Y127.118 Z-18.172
N2395 Y116.473 Z-18.979
N2400 Y114.023 Z-19.272
N2405 Y110.671 Z-19.847
N2410 Y109.924 Z-20.
N2415 Y-9.525
N2420 G2 Y-9.944 Z-19.903 J0. K0.952
N2425 G3 Y-10.363 Z-19.806 J-0.419 K-0.855
N2430 G17 G2 X36.658 Y-13.221 I-2.857 J0.
N2435 G1 X27.377
N2440 G2 X24.519 Y-10.363 I0. J2.858
N2445 G19 G2 Y-9.944 Z-19.903 J0. K-0.952
N2450 G3 Y-9.525 Z-20. J0.419 K0.855
N2455 G1 Y109.086
N2460 Y110.686 Z-19.648
N2465 Y114.033 Z-19.081
N2470 Y116.073 Z-18.834
N2475 Y127.129 Z-18.001
N2480 Y143.547 Z-16.999
N2485 Y162.852 Z-16.04
N2490 Y185.066 Z-15.152
N2495 Y207.259 Z-14.437
N2500 Y245.514 Z-13.504
N2505 Y292.167 Z-12.735
N2510 Y348.151 Z-12.184
N2515 Y415.331 Z-11.889
N2520 Y499.307 Z-11.913
N2525 Y610.341 Z-12.338
N2530 Y921.982 Z-14.311
N2535 Y1067.54 Z-14.998
N2540 Y1174.892 Z-15.157
N2545 Y1263.533 Z-14.936
N2550 Y1340.044 Z-14.385
N2555 Y1406.291 Z-13.538
N2560 Y1463.208 Z-12.447
N2565 Y1512.66 Z-11.134
N2570 Y1555.316 Z-9.646
N2575 Y1592.509 Z-7.979
N2580 Y1623.725 Z-6.234
N2585 Y1650.905 Z-4.368
N2590 Y1674.411 Z-2.413
N2595 Y1700.596 Z0.156
N2600 Y1707.142 Z0.726
N2605 Y1710.687 Z0.895
N2610 Y1714.075 Z0.801
N2615 Y1716.975 Z0.378
N2620 Y1719.656 Z-0.392
N2625 Y1721.885 Z-1.39
N2630 Y1723.945 Z-2.689
N2635 Y1725.612 Z-4.096
N2640 Y1726.778 Z-5.349
N2645 Y1727.793 Z-6.711
N2650 Y1728.965 Z-8.8
N2655 Y1729.748 Z-10.824
N2660 Y1730.259 Z-12.836
N2665 Y1730.565 Z-15.227
N2670 Y1730.618 Z-20.
N2675 Y1809.525
N2680 G3 Y1809.944 Z-19.903 J0. K0.952
N2685 G2 Y1810.363 Z-19.806 J0.419 K-0.855
N2690 G17 G3 X21.662 Y1813.221 I-2.858 J0.
N2695 G1 X12.38
N2700 G3 X9.523 Y1810.363 I0. J-2.857
N2705 G19 G3 Y1809.944 Z-19.903 J0. K-0.952
N2710 G2 Y1809.525 Z-20. J-0.419 K0.855
N2715 G1 Y1735.133
N2720 Y1735.076 Z-11.633
N2725 Y1734.73 Z-9.23
N2730 Y1734.081 Z-7.036
N2735 Y1733.281 Z-5.286
N2740 Y1732.018 Z-3.338
N2745 Y1730.753 Z-1.904
N2750 Y1728.944 Z-0.379
N2755 Y1726.865 Z0.866
N2760 Y1724.566 Z1.789
N2765 Y1722.192 Z2.356
N2770 Y1719.419 Z2.615
N2775 Y1715.878 Z2.493
N2780 Y1710.162 Z1.857
N2785 Y1690.932 Z-0.466
N2790 Y1670.92 Z-2.487
N2795 Y1647.228 Z-4.455
N2800 Y1619.859 Z-6.311
N2805 Y1591.027 Z-7.911
N2810 Y1554.387 Z-9.553
N2815 Y1511.466 Z-11.055
N2820 Y1462.014 Z-12.366
N2825 Y1405.098 Z-13.457
N2830 Y1338.85 Z-14.304
N2835 Y1262.339 Z-14.858
N2840 Y1173.699 Z-15.082
N2845 Y1065.671 Z-14.927
N2850 Y921.98 Z-14.256
N2855 Y609.405 Z-12.286
N2860 Y498.371 Z-11.865
N2865 Y414.396 Z-11.846
N2870 Y347.215 Z-12.134
N2875 Y292.165 Z-12.669
N2880 Y245.512 Z-13.43
N2885 Y207.256 Z-14.358
N2890 Y185.14 Z-15.067
N2895 Y163.94 Z-15.909
N2900 Y145.164 Z-16.828
N2905 Y128.735 Z-17.812
N2910 Y117.268 Z-18.633
N2915 Y114. Z-18.993
N2920 Y110.652 Z-19.561
N2925 Y108.676 Z-20.
N2930 Y-9.525
N2935 G2 Y-9.944 Z-19.903 J0. K0.952
N2940 G3 Y-10.363 Z-19.806 J-0.419 K-0.855
N2945 G17 G2 X6.665 Y-13.221 I-2.858 J0.
N2950 G1 X-2.616
N2955 G2 X-5.474 Y-10.363 I0. J2.858
N2960 G19 G2 Y-9.944 Z-19.903 J0. K-0.952
N2965 G3 Y-9.525 Z-20. J0.419 K0.855
N2970 G1 Y108.621
N2975 Y112.442 Z-19.219
N2980 Y116.52 Z-18.687
N2985 Y128.805 Z-17.797
N2990 Y145.241 Z-16.813
N2995 Y163.666 Z-15.911
N3000 Y185.037 Z-15.061
N3005 Y207.258 Z-14.348
N3010 Y245.514 Z-13.421
N3015 Y291.234 Z-12.673
N3020 Y346.284 Z-12.134
N3025 Y412.531 Z-11.845
N3030 Y495.574 Z-11.855
N3035 Y603.809 Z-12.252
N3040 Y959.304 Z-14.46
N3045 Y1091.799 Z-14.991
N3050 Y1193.899 Z-15.054
N3055 Y1279.74 Z-14.755
N3060 Y1354.385 Z-14.129
N3065 Y1417.833 Z-13.233
N3070 Y1472.883 Z-12.096
N3075 Y1521.402 Z-10.725
N3080 Y1562.285 Z-9.212
N3085 Y1598.257 Z-7.521
N3090 Y1628.632 Z-5.737
N3095 Y1655.06 Z-3.822
N3100 Y1676.733 Z-1.905
N3105 Y1694.916 Z0.036
N3110 Y1712.866 Z2.347
N3115 Y1718.585 Z3.036
N3120 Y1721.705 Z3.109
N3125 Y1724.438 Z2.794
N3130 Y1726.613 Z2.226
N3135 Y1728.252 Z1.54
N3140 Y1730.124 Z0.424
N3145 Y1731.782 Z-0.949
N3150 Y1732.932 Z-2.2
N3155 Y1734.129 Z-3.915
N3160 Y1735.114 Z-5.906
N3165 Y1735.777 Z-7.989
N3170 Y1736.163 Z-10.46
N3175 Y1736.217 Z-20.
N3180 Y1809.525
N3185 G3 Y1809.944 Z-19.903 J0. K0.952
N3190 G2 Y1810.363 Z-19.806 J0.419 K-0.855
N3195 G17 G3 X-8.331 Y1813.221 I-2.858 J0.
N3200 G1 X-17.613
N3205 G3 X-20.47 Y1810.363 I0. J-2.857
N3210 G19 G3 Y1809.944 Z-19.903 J0. K-0.952
N3215 G2 Y1809.525 Z-20. J-0.419 K0.855
N3220 G1 Y1731.91
N3225 Y1731.84 Z-14.168
N3230 Y1731.469 Z-11.615
N3235 Y1730.751 Z-9.188
N3240 Y1730.044 Z-7.589
N3245 Y1728.973 Z-5.794
N3250 Y1727.646 Z-4.134
N3255 Y1726.082 Z-2.65
N3260 Y1724.121 Z-1.262
N3265 Y1722.764 Z-0.53
N3270 Y1720.689 Z0.313
N3275 Y1718.071 Z0.982
N3280 Y1715.083 Z1.323
N3285 Y1712.135 Z1.337
N3290 Y1708.658 Z1.127
N3295 Y1700.459 Z0.32
N3300 Y1675.917 Z-2.184
N3305 Y1654.239 Z-4.042
N3310 Y1629.447 Z-5.813
N3315 Y1599.442 Z-7.571
N3320 Y1564.283 Z-9.232
N3325 Y1522.586 Z-10.781
N3330 Y1475.016 Z-12.129
N3335 Y1420.899 Z-13.257
N3340 Y1357.45 Z-14.164
N3345 Y1283.739 Z-14.798
N3350 Y1196.964 Z-15.11
N3355 Y1094.598 Z-15.049
N3360 Y963.036 Z-14.524
N3365 Y603.808 Z-12.288
N3370 Y495.573 Z-11.889
N3375 Y413.464 Z-11.876
N3380 Y346.284 Z-12.176
N3385 Y291.233 Z-12.721
N3390 Y245.514 Z-13.476
N3395 Y207.258 Z-14.408
N3400 Y185.046 Z-15.123
N3405 Y163.951 Z-15.962
N3410 Y145.519 Z-16.862
N3415 Y129.077 Z-17.841
N3420 Y117.61 Z-18.663
N3425 Y114.339 Z-19.005
N3430 Y111.092 Z-19.532
N3435 Y108.931 Z-20.
N3440 Y-9.525
N3445 G2 Y-9.944 Z-19.903 J0. K0.952
N3450 G3 Y-10.363 Z-19.806 J-0.419 K-0.855
N3455 G17 G2 X-23.328 Y-13.221 I-2.858 J0.
N3460 G1 X-32.609
N3465 G2 X-35.466 Y-10.363 I0. J2.858
N3470 G19 G2 Y-9.944 Z-19.903 J0. K-0.952
N3475 G3 Y-9.525 Z-20. J0.419 K0.855
N3480 G1 Y109.499
N3485 Y112.53 Z-19.438
N3490 Y115.993 Z-18.968
N3495 Y124.18 Z-18.32
N3500 Y138.94 Z-17.375
N3505 Y157.209 Z-16.417
N3510 Y177.794 Z-15.54
N3515 Y199.795 Z-14.774
N3520 Y236.182 Z-13.807
N3525 Y280.036 Z-12.997
N3530 Y333.221 Z-12.379
N3535 Y397.602 Z-11.999
N3540 Y473.18 Z-11.933
N3545 Y574.883 Z-12.231
N3550 Y729.771 Z-13.125
N3555 Y977.032 Z-14.693
N3560 Y1104.861 Z-15.189
N3565 Y1206.53 Z-15.223
N3570 Y1290.506 Z-14.895
N3575 Y1362.351 Z-14.26
N3580 Y1417.402 Z-13.48
N3585 Y1473.385 Z-12.345
N3590 Y1521.894 Z-10.994
N3595 Y1563.751 Z-9.465
N3600 Y1599.869 Z-7.781
N3605 Y1631.538 Z-5.943
N3610 Y1658.528 Z-4.027
N3615 Y1688.575 Z-1.472
N3620 Y1698.582 Z-0.645
N3625 Y1702.839 Z-0.403
N3630 Y1707.038 Z-0.369
N3635 Y1710.223 Z-0.625
N3640 Y1712.896 Z-1.124
N3645 Y1715.466 Z-1.925
N3650 Y1717.911 Z-3.056
N3655 Y1720.11 Z-4.488
N3660 Y1721.757 Z-5.924
N3665 Y1723.204 Z-7.561
N3670 Y1724.524 Z-9.545
N3675 Y1725.55 Z-11.694
N3680 Y1726.308 Z-14.14
N3685 Y1726.724 Z-16.67
N3690 Y1726.831 Z-20.
N3695 Y1809.525
N3700 G3 Y1809.944 Z-19.903 J0. K0.952
N3705 G2 Y1810.363 Z-19.806 J0.419 K-0.855
N3710 G17 G3 X-38.324 Y1813.221 I-2.858 J0.
N3715 G1 X-47.605
N3720 G3 X-50.463 Y1810.363 I0. J-2.857
N3725 G19 G3 Y1809.944 Z-19.903 J0. K-0.952
N3730 G2 Y1809.525 Z-20. J-0.419 K0.855
N3735 G1 Y1720.842
N3740 Y1720.694 Z-18.573
N3745 Y1720.23 Z-16.26
N3750 Y1719.443 Z-13.947
N3755 Y1718.308 Z-11.721
N3760 Y1716.969 Z-9.799
N3765 Y1715.383 Z-8.072
N3770 Y1713.405 Z-6.439
N3775 Y1711.482 Z-5.23
N3780 Y1708.631 Z-3.926
N3785 Y1705.822 Z-3.067
N3790 Y1702.59 Z-2.456
N3795 Y1699.303 Z-2.161
N3800 Y1696.061 Z-2.084
N3805 Y1689.752 Z-2.289
N3810 Y1680.936 Z-2.86
N3815 Y1641.664 Z-5.693
N3820 Y1609.866 Z-7.601
N3825 Y1573.088 Z-9.383
N3830 Y1533.123 Z-10.913
N3835 Y1485.606 Z-12.309
N3840 Y1431.489 Z-13.481
N3845 Y1368.974 Z-14.412
N3850 Y1296.195 Z-15.074
N3855 Y1213.153 Z-15.409
N3860 Y1115.123 Z-15.389
N3865 Y991.959 Z-14.93
N3870 Y773.624 Z-13.561
N3875 Y595.409 Z-12.463
N3880 Y489.04 Z-12.089
N3885 Y408.797 Z-12.102
N3890 Y342.55 Z-12.471
N3895 Y287.5 Z-13.086
N3900 Y241.78 Z-13.904
N3905 Y204.457 Z-14.867
N3910 Y181.553 Z-15.642
N3915 Y160.6 Z-16.509
N3920 Y142.257 Z-17.435
N3925 Y125.84 Z-18.448
N3930 Y116.016 Z-19.237
N3935 Y112.554 Z-19.715
N3940 Y110.733 Z-20.
N3945 Y-9.525
N3950 G2 Y-9.944 Z-19.903 J0. K0.952
N3955 G3 Y-10.363 Z-19.806 J-0.419 K-0.855
N3960 G17 G2 X-53.32 Y-13.221 I-2.858 J0.
N3965 G1 X-62.602
N3970 G2 X-65.459 Y-10.363 I0. J2.858
N3975 G19 G2 Y-9.944 Z-19.903 J0. K-0.952
N3980 G3 Y-9.525 Z-20. J0.419 K0.855
N3985 G1 Y113.389
N3990 Y116.242 Z-19.625
N3995 Y123.606 Z-18.987
N4000 Y132.619 Z-18.373
N4005 Y149.111 Z-17.439
N4010 Y169.378 Z-16.5
N4015 Y192.588 Z-15.611
N4020 Y216.71 Z-14.858
N4025 Y256.832 Z-13.91
N4030 Y305.351 Z-13.128
N4035 Y363.201 Z-12.556
N4040 Y422.917 Z-12.273
N4045 Y506.892 Z-12.325
N4050 Y618.859 Z-12.782
N4055 Y858.655 Z-14.346
N4060 Y1042.468 Z-15.4
N4065 Y1154.435 Z-15.702
N4070 Y1246.627 Z-15.599
N4075 Y1325.937 Z-15.15
N4080 Y1386.586 Z-14.505
N4085 Y1447.235 Z-13.516
N4090 Y1494.821 Z-12.429
N4095 Y1542.289 Z-10.99
N4100 Y1583.271 Z-9.365
N4105 Y1620.531 Z-7.508
N4110 Y1670.932 Z-4.456
N4115 Y1679.584 Z-4.028
N4120 Y1685.182 Z-3.905
N4125 Y1689.829 Z-4.018
N4130 Y1693.949 Z-4.387
N4135 Y1697.503 Z-5.032
N4140 Y1699.688 Z-5.624
N4145 Y1701.393 Z-6.208
N4150 Y1703.839 Z-7.317
N4155 Y1705.761 Z-8.465
N4160 Y1707.563 Z-9.816
N4165 Y1709.393 Z-11.58
N4170 Y1710.974 Z-13.615
N4175 Y1711.991 Z-15.356
N4180 Y1712.954 Z-17.61
N4185 Y1713.596 Z-19.961
N4190 Y1809.525 Z-20.
N4195 G3 Y1809.945 Z-19.903 J0. K0.952
N4200 G2 Y1810.364 Z-19.806 J0.419 K-0.855
N4205 G17 G3 X-68.317 Y1813.221 I-2.858 J0.
N4210 G1 X-77.598
N4215 G3 X-80.455 Y1810.364 I0. J-2.857
N4220 G1 Y1810.363
N4225 G19 G3 Y1809.944 Z-19.903 J0. K-0.952
N4230 G2 Y1809.525 Z-20. J-0.419 K0.855
N4235 G1 Y1704.905
N4240 Y1703.856 Z-17.687
N4245 Y1702.71 Z-15.841
N4250 Y1701.128 Z-13.916
N4255 Y1699.191 Z-12.12
N4260 Y1697.033 Z-10.599
N4265 Y1694.673 Z-9.329
N4270 Y1692.182 Z-8.298
N4275 Y1689.359 Z-7.431
N4280 Y1686.024 Z-6.724
N4285 Y1683.318 Z-6.334
N4290 Y1681.499 Z-6.147
N4295 Y1677.388 Z-5.895
N4300 Y1670.856 Z-5.816
N4305 Y1661.201 Z-6.091
N4310 Y1645.224 Z-6.868
N4315 Y1597.471 Z-9.285
N4320 Y1555.484 Z-11.021
N4325 Y1510.781 Z-12.452
N4330 Y1459.463 Z-13.697
N4335 Y1399.747 Z-14.728
N4340 Y1331.634 Z-15.481
N4345 Y1252.324 Z-15.94
N4350 Y1160.03 Z-16.042
N4355 Y1048.996 Z-15.737
N4360 Y859.585 Z-14.633
N4365 Y621.655 Z-13.068
N4370 Y509.688 Z-12.607
N4375 Y425.712 Z-12.552
N4380 Y375.327 Z-12.794
N4385 Y315.611 Z-13.381
N4390 Y265.226 Z-14.179
N4395 Y223.238 Z-15.158
N4400 Y198.119 Z-15.925
N4405 Y173.626 Z-16.847
N4410 Y153.499 Z-17.743
N4415 Y135.308 Z-18.734
N4420 Y124.652 Z-19.429
N4425 Y118.11 Z-20.
N4430 Y-9.525
N4435 G2 Y-9.944 Z-19.903 J0. K0.952
N4440 G3 Y-10.363 Z-19.806 J-0.419 K-0.855
N4445 G17 G2 X-83.313 Y-13.221 I-2.857 J0.
N4450 G1 X-92.594
N4455 G2 X-95.452 Y-10.363 I0. J2.858
N4460 G19 G2 Y-9.944 Z-19.903 J0. K-0.952
N4465 G3 Y-9.525 Z-20. J0.419 K0.855
N4470 G1 Y126.009
N4475 Y137.49 Z-19.316
N4480 Y155.735 Z-18.349
N4485 Y180.205 Z-17.284
N4490 Y203.678 Z-16.409
N4495 Y230.698 Z-15.592
N4500 Y274.552 Z-14.578
N4505 Y324.937 Z-13.766
N4510 Y387.452 Z-13.129
N4515 Y428.507 Z-12.932
N4520 Y512.482 Z-12.982
N4525 Y625.382 Z-13.447
N4530 Y939.823 Z-15.519
N4535 Y1087.247 Z-16.286
N4540 Y1191.612 Z-16.476
N4545 Y1278.386 Z-16.281
N4550 Y1354.897 Z-15.742
N4555 Y1420.211 Z-14.921
N4560 Y1478.061 Z-13.83
N4565 Y1526.58 Z-12.576
N4570 Y1570.354 Z-11.109
N4575 Y1632.85 Z-8.489
N4580 Y1647.33 Z-7.957
N4585 Y1657.594 Z-7.796
N4590 Y1665.058 Z-7.951
N4595 Y1668.707 Z-8.169
N4600 Y1673.245 Z-8.636
N4605 Y1677.064 Z-9.276
N4610 Y1681.245 Z-10.351
N4615 Y1684.627 Z-11.63
N4620 Y1687.404 Z-13.077
N4625 Y1689.6 Z-14.591
N4630 Y1691.266 Z-16.011
N4635 Y1692.981 Z-17.886
N4640 Y1694.418 Z-19.971
N4645 Y1809.525 Z-20.
N4650 G3 Y1809.944 Z-19.903 J0. K0.952
N4655 G2 Y1810.364 Z-19.806 J0.419 K-0.855
N4660 G17 G3 X-98.309 Y1813.221 I-2.858 J0.
N4665 G1 X-107.591
N4670 G3 X-110.448 Y1810.364 I0. J-2.857
N4675 G19 G3 Y1809.944 Z-19.903 J0. K-0.952
N4680 G2 Y1809.525 Z-20. J-0.419 K0.855
N4685 G1 Y1681.743 Z-19.969
N4690 Y1679.73 Z-18.037
N4695 Y1677.692 Z-16.514
N4700 Y1674.775 Z-14.832
N4705 Y1671.556 Z-13.46
N4710 Y1667.219 Z-12.151
N4715 Y1662.417 Z-11.197
N4720 Y1657.976 Z-10.619
N4725 Y1654.59 Z-10.324
N4730 Y1649.072 Z-10.021
N4735 Y1640.674 Z-9.872
N4740 Y1628.544 Z-9.993
N4745 Y1611.805 Z-10.469
N4750 Y1541.257 Z-12.865
N4755 Y1487.14 Z-14.28
N4760 Y1429.29 Z-15.384
N4765 Y1363.976 Z-16.227
N4770 Y1296.796 Z-16.737
N4775 Y1211.887 Z-16.988
N4780 Y1111.917 Z-16.862
N4785 Y985.954 Z-16.262
N4790 Y628.593 Z-13.927
N4795 Y516.625 Z-13.475
N4800 Y434.516 Z-13.434
N4805 Y397.194 Z-13.599
N4810 Y333.746 Z-14.3
N4815 Y281.494 Z-15.189
N4820 Y236.708 Z-16.254
N4825 Y210.684 Z-17.053
N4830 Y185.292 Z-18.
N4835 Y156.93 Z-19.237
N4840 Y141.796 Z-20.
N4845 Y-9.525
N4850 G2 Y-9.944 Z-19.903 J0. K0.952
N4855 G3 Y-10.363 Z-19.806 J-0.419 K-0.855
N4860 G17 G2 X-113.306 Y-13.221 I-2.857 J0.
N4865 G1 X-122.587
N4870 G2 X-125.445 Y-10.363 I0. J2.858
N4875 G19 G2 Y-9.944 Z-19.903 J0. K-0.952
N4880 G3 Y-9.525 Z-20. J0.419 K0.855
N4885 G1 Y166.556
N4890 Y189.299 Z-19.018
N4895 Y216.305 Z-17.99
N4900 Y243.238 Z-17.13
N4905 Y287.092 Z-16.03
N4910 Y341.21 Z-15.029
N4915 Y403.725 Z-14.243
N4920 Y445.712 Z-14.082
N4925 Y527.822 Z-14.124
N4930 Y640.722 Z-14.579
N4935 Y1012.079 Z-16.997
N4940 Y1122.18 Z-17.497
N4945 Y1222.864 Z-17.608
N4950 Y1306.84 Z-17.338
N4955 Y1381.484 Z-16.734
N4960 Y1448.665 Z-15.806
N4965 Y1509.314 Z-14.583
N4970 Y1587.691 Z-12.499
N4975 Y1610.084 Z-12.059
N4980 Y1623.147 Z-12.042
N4985 Y1632.477 Z-12.274
N4990 Y1637.993 Z-12.574
N4995 Y1641.637 Z-12.854
N5000 Y1645.273 Z-13.244
N5005 Y1647.079 Z-13.483
N5010 Y1650.461 Z-14.037
N5015 Y1655.122 Z-15.084
N5020 Y1658.162 Z-16.027
N5025 Y1661.116 Z-17.156
N5030 Y1664.328 Z-18.79
N5035 Y1666.146 Z-19.969
N5040 Y1809.525 Z-20.
N5045 G3 Y1809.944 Z-19.903 J0. K0.952
N5050 G2 Y1810.364 Z-19.806 J0.419 K-0.855
N5055 G17 G3 X-128.302 Y1813.221 I-2.857 J0.
N5060 G1 X-137.583
N5065 G3 X-140.441 Y1810.364 I0. J-2.858
N5070 G1 Y1810.363
N5075 G19 G3 Y1809.944 Z-19.903 J0. K-0.952
N5080 G2 Y1809.525 Z-20. J-0.419 K0.855
N5085 G1 Y1646.28 Z-19.999
N5090 Y1642.89 Z-18.72
N5095 Y1638.061 Z-17.389
N5100 Y1633.136 Z-16.426
N5105 Y1627.028 Z-15.598
N5110 Y1619.973 Z-14.978
N5115 Y1610.962 Z-14.522
N5120 Y1599.065 Z-14.277
N5125 Y1582.27 Z-14.27
N5130 Y1555.212 Z-14.672
N5135 Y1465.638 Z-16.434
N5140 Y1398.458 Z-17.381
N5145 Y1326.612 Z-18.011
N5150 Y1243.57 Z-18.337
N5155 Y1147.364 Z-18.292
N5160 Y1029.799 Z-17.803
N5165 Y658.441 Z-15.408
N5170 Y543.675 Z-14.951
N5175 Y469.545 Z-14.901
N5180 Y409.829 Z-15.094
N5185 Y355.712 Z-15.854
N5190 Y300.661 Z-16.931
N5195 Y256.808 Z-18.066
N5200 Y228.012 Z-18.992
N5205 Y200.883 Z-20.
N5210 Y-9.525
N5215 G2 Y-9.944 Z-19.903 J0. K0.952
N5220 G3 Y-10.363 Z-19.806 J-0.419 K-0.855
N5225 G17 G2 X-143.298 Y-13.221 I-2.857 J0.
N5230 G1 X-152.58
N5235 G2 X-155.437 Y-10.363 I0. J2.858
N5240 G19 G2 Y-9.944 Z-19.903 J0. K-0.952
N5245 G3 Y-9.525 Z-20. J0.419 K0.855
N5250 G1 Y246.905
N5255 Y274.756 Z-19.149
N5260 Y320.475 Z-17.942
N5265 Y379.258 Z-16.746
N5270 Y414.714 Z-16.212
N5275 Y484.694 Z-15.953
N5280 Y564.937 Z-15.992
N5285 Y679.703 Z-16.429
N5290 Y1031.467 Z-18.664
N5295 Y1149.032 Z-19.171
N5300 Y1246.498 Z-19.242
N5305 Y1333.273 Z-18.928
N5310 Y1411.65 Z-18.272
N5315 Y1501.224 Z-17.082
N5320 Y1545.077 Z-16.568
N5325 Y1567.471 Z-16.563
N5330 Y1582.4 Z-16.782
N5335 Y1593.462 Z-17.187
N5340 Y1603.31 Z-17.842
N5345 Y1610.581 Z-18.609
N5350 Y1615.999 Z-19.444
N5355 Y1618.897 Z-19.98
N5360 Y1809.525 Z-20.
N5365 G3 Y1809.944 Z-19.903 J0. K0.952
N5370 G2 Y1810.363 Z-19.806 J0.419 K-0.855
N5375 G1 Y1810.364
N5380 G17 G3 X-158.295 Y1813.221 I-2.857 J0.
N5385 G1 X-167.576
N5390 G3 X-170.434 Y1810.364 I0. J-2.857
N5395 G19 G3 Y1809.944 Z-19.903 J0. K-0.952
N5400 G2 Y1809.525 Z-20. J-0.419 K0.855
N5405 G1 Y1570.662 Z-19.962
N5410 Y1561.575 Z-19.521
N5415 Y1545.713 Z-19.106
N5420 Y1527.052 Z-18.913
N5425 Y1499.993
N5430 Y1430.014 Z-19.422
N5435 Y1349.771 Z-20.
N5440 Y1078.25 Z-19.951
N5445 Y699.428 Z-17.648
N5450 Y586.528 Z-17.264
N5455 Y505.352 Z-17.258
N5460 Y430.707 Z-17.579
N5465 Y404.581 Z-17.853
N5470 Y341.133 Z-19.205
N5475 Y308.476 Z-20.
N5480 Y-9.525
N5485 G2 Y-9.944 Z-19.903 J0. K0.952
N5490 G3 Y-10.363 Z-19.806 J-0.419 K-0.855
N5495 G17 G2 X-173.291 Y-13.221 I-2.857 J0.
N5500 G1 X-182.573
N5505 G2 X-185.43 Y-10.363 I0. J2.858
N5510 G19 G2 Y-9.944 Z-19.903 J0. K-0.952
N5515 G3 Y-9.525 Z-20. J0.419 K0.855
N5520 G1 Y392.208
N5525 Y407.137 Z-19.74
N5530 Y443.526 Z-19.318
N5535 Y517.238 Z-18.893
N5540 Y595.615 Z-18.801
N5545 Y701.983 Z-19.046
N5550 Y872.733 Z-19.953
N5555 Y1809.525 Z-20.
N5560 G3 Y1809.944 Z-19.903 J0. K0.952
N5565 G2 Y1810.363 Z-19.806 J0.419 K-0.855
N5570 G17 G3 X-188.288 Y1813.221 I-2.857 J0.
N5575 G1 X-197.569
N5580 G3 X-200.426 Y1810.363 I0. J-2.858
N5585 G19 G3 Y1809.944 Z-19.903 J0. K-0.952
N5590 G2 Y1809.525 Z-20. J-0.419 K0.855
N5595 G1 Y-9.525
N5600 G2 Y-9.944 Z-19.903 J0. K0.952
N5605 G3 Y-10.363 Z-19.806 J-0.419 K-0.855
N5610 G17 G2 X-203.284 Y-13.221 I-2.857 J0.
N5615 G1 X-212.565
N5620 G2 X-215.423 Y-10.363 I0. J2.858
N5625 G19 G2 Y-9.944 Z-19.903 J0. K-0.952
N5630 G3 Y-9.525 Z-20. J0.419 K0.855
N5635 G1 Y1809.525
N5640 G3 Y1809.944 Z-19.903 J0. K0.952
N5645 G2 Y1810.363 Z-19.806 J0.419 K-0.855
N5650 G17 G3 X-218.28 Y1813.221 I-2.857 J0.
N5655 G1 X-227.562
N5660 G3 X-230.419 Y1810.363 I0. J-2.857
N5665 G19 G3 Y1809.944 Z-19.903 J0. K-0.952
N5670 G2 Y1809.525 Z-20. J-0.419 K0.855
N5675 G1 Y-9.525
N5680 G2 Y-9.944 Z-19.903 J0. K0.952
N5685 G3 Y-10.363 Z-19.806 J-0.419 K-0.855
N5690 G17 G2 X-233.277 Y-13.221 I-2.857 J0.
N5695 G1 X-242.558
N5700 G2 X-245.415 Y-10.363 I0. J2.858
N5705 G19 G2 Y-9.944 Z-19.903 J0. K-0.952
N5710 G3 Y-9.525 Z-20. J0.419 K0.855
N5715 G1 Y1809.525
N5720 G3 Y1809.944 Z-19.903 J0. K0.952
N5725 G2 Y1810.363 Z-19.806 J0.419 K-0.855
N5730 G17 G3 X-248.273 Y1813.221 I-2.858 J0.
N5735 G1 X-257.554
N5740 G3 X-260.412 Y1810.363 I0. J-2.857
N5745 G19 G3 Y1809.944 Z-19.903 J0. K-0.952
N5750 G2 Y1809.525 Z-20. J-0.419 K0.855
N5755 G1 Y-9.525
N5760 G2 Y-9.944 Z-19.903 J0. K0.952
N5765 G3 Y-10.363 Z-19.806 J-0.419 K-0.855
N5770 G17 G2 X-263.269 Y-13.221 I-2.858 J0.
N5775 G1 X-272.551
N5780 G2 X-275.408 Y-10.363 I0. J2.858
N5785 G19 G2 Y-9.944 Z-19.903 J0. K-0.952
N5790 G3 Y-9.525 Z-20. J0.419 K0.855
N5795 G1 Y1809.525
N5800 G3 Y1809.944 Z-19.903 J0. K0.952
N5805 G2 Y1810.363 Z-19.806 J0.419 K-0.855
N5810 G17 G3 X-278.266 Y1813.221 I-2.858 J0.
N5815 G1 X-287.547
N5820 G3 X-290.405 Y1810.363 I0. J-2.857
N5825 G19 G3 Y1809.944 Z-19.903 J0. K-0.952
N5830 G2 Y1809.525 Z-20. J-0.419 K0.855
N5835 G1 Y-9.525
N5840 G2 Y-9.944 Z-19.903 J0. K0.952
N5845 G3 Y-10.363 Z-19.806 J-0.419 K-0.855
N5850 G17 G2 X-293.262 Y-13.221 I-2.857 J0.
N5855 G1 X-302.543
N5860 G2 X-305.401 Y-10.363 I0. J2.858
N5865 G1 Y-8.663
N5870 G19 G2 Y-8.244 Z-19.903 J0. K-0.952
N5875 G3 Y-7.825 Z-20. J0.419 K0.855
N5880 G1 Y1807.825
N5885 G3 Y1809.73 Z-18.095 J0. K1.905 F1000.
N5890 G0 Z15.
N5895 G17
(PARALLEL1 2)
N5900 G0 X313.523 Y1802.894
N5905 Z15.
N5910 Z-38.095
N5915 G19 G2 Y1800.99 Z-40. J-1.905 K0. F1000.
N5920 G1 Y-0.993 F4000.
N5925 G2 Y-1.412 Z-39.903 J0. K0.952
N5930 G3 Y-1.831 Z-39.806 J-0.419 K-0.855
N5935 G1 Y-15.354
N5940 G17 G2 X310.666 Y-18.212 I-2.858 J0.
N5945 G1 X301.384
N5950 G2 X298.527 Y-15.354 I0. J2.857
N5955 G19 G2 Y-14.935 Z-39.903 J0. K-0.953
N5960 G3 Y-14.516 Z-40. J0.419 K0.855
N5965 G1 Y1814.513
N5970 G3 Y1814.932 Z-39.903 J0. K0.952
N5975 G2 Y1815.351 Z-39.806 J0.419 K-0.855
N5980 G17 G3 X295.669 Y1818.209 I-2.858 J0.
N5985 G1 X286.388
N5990 G3 X283.53 Y1815.351 I0. J-2.858
N5995 G19 G3 Y1814.932 Z-39.903 J0. K-0.953
N6000 G2 Y1814.513 Z-40. J-0.419 K0.855
N6005 G1 Y-14.516
N6010 G2 Y-14.935 Z-39.903 J0. K0.952
N6015 G3 Y-15.354 Z-39.806 J-0.419 K-0.855
N6020 G17 G2 X280.673 Y-18.212 I-2.858 J0.
N6025 G1 X271.391
N6030 G2 X268.534 Y-15.354 I0. J2.857
N6035 G1 Y-15.353
N6040 G19 G2 Y-14.933 Z-39.903 J0. K-0.953
N6045 G3 Y-14.514 Z-40. J0.419 K0.855
N6050 G1 Y685.481
N6055 Y704.448 Z-39.743
N6060 Y741.121 Z-39.308
N6065 Y802.55 Z-39.025
N6070 Y861.228 Z-39.067
N6075 Y933.658 Z-39.493
N6080 Y979.5 Z-39.954
N6085 Y1814.513 Z-40.
N6090 G3 Y1814.932 Z-39.903 J0. K0.952
N6095 G2 Y1815.351 Z-39.806 J0.419 K-0.855
N6100 G17 G3 X265.676 Y1818.209 I-2.857 J0.
N6105 G1 X256.395
N6110 G3 X253.537 Y1815.351 I0. J-2.857
N6115 G19 G3 Y1814.932 Z-39.903 J0. K-0.953
N6120 G2 Y1814.513 Z-40. J-0.419 K0.855
N6125 G1 Y1315.736 Z-39.987
N6130 Y1303.191 Z-39.357
N6135 Y1257.349 Z-37.76
N6140 Y1233.511 Z-37.133
N6145 Y1160.163 Z-35.739
N6150 Y1104.236 Z-34.918
N6155 Y960.292 Z-33.318
N6160 Y854.855 Z-32.746
N6165 Y776.006 Z-32.642
N6170 Y704.493 Z-32.849
N6175 Y651.316 Z-33.358
N6180 Y592.638 Z-34.225
N6185 Y556.881 Z-34.951
N6190 Y518.391 Z-36.122
N6195 Y485.695 Z-37.275
N6200 Y468.774 Z-38.096
N6205 Y440.182 Z-39.659
N6210 Y434.309 Z-40.
N6215 Y-14.516
N6220 G2 Y-14.935 Z-39.903 J0. K0.952
N6225 G3 Y-15.354 Z-39.806 J-0.419 K-0.855
N6230 G1 Y-15.358
N6235 G17 G2 X250.68 Y-18.215 I-2.857 J0.
N6240 G1 X241.398
N6245 G2 X238.541 Y-15.358 I0. J2.857
N6250 G19 G2 Y-14.939 Z-39.903 J0. K-0.953
N6255 G3 Y-14.519 Z-40. J0.419 K0.855
N6260 G1 Y307.101
N6265 Y320.773 Z-38.775
N6270 Y341.788 Z-37.029
N6275 Y354.417 Z-36.193
N6280 Y380.298 Z-34.655
N6285 Y400.601 Z-33.564
N6290 Y422.943 Z-32.663
N6295 Y460.304 Z-31.37
N6300 Y485.975 Z-30.71
N6305 Y545.57 Z-29.534
N6310 Y581.327 Z-29.054
N6315 Y653.757 Z-28.468
N6320 Y730.772 Z-28.182
N6325 Y825.207 Z-28.308
N6330 Y951.731 Z-28.884
N6335 Y1106.678 Z-30.245
N6340 Y1246.038 Z-31.767
N6345 Y1279.961 Z-32.294
N6350 Y1332.679 Z-33.392
N6355 Y1374.396 Z-34.844
N6360 Y1396.98 Z-36.093
N6365 Y1405.955 Z-36.663
N6370 Y1420.275 Z-37.918
N6375 Y1428.321 Z-38.703
N6380 Y1438.241 Z-39.971
N6385 Y1814.513 Z-40.
N6390 G3 Y1814.932 Z-39.903 J0. K0.952
N6395 G2 Y1815.351 Z-39.806 J0.419 K-0.855
N6400 G17 G3 X235.683 Y1818.209 I-2.857 J0.
N6405 G1 X226.401
N6410 G3 X223.544 Y1815.351 I0. J-2.857
N6415 G19 G3 Y1814.932 Z-39.903 J0. K-0.953
N6420 G2 Y1814.513 Z-40. J-0.419 K0.855
N6425 G1 Y1506.033
N6430 Y1500.749 Z-38.517
N6435 Y1494.619 Z-37.138
N6440 Y1486.663 Z-35.732
N6445 Y1481.326 Z-35.008
N6450 Y1469.955 Z-33.637
N6455 Y1454.51 Z-32.368
N6460 Y1447.338 Z-31.875
N6465 Y1424.53 Z-30.726
N6470 Y1386.94 Z-29.578
N6475 Y1332.846 Z-28.684
N6480 Y1242.078 Z-27.865
N6485 Y1004.616 Z-26.134
N6490 Y943.188 Z-25.701
N6495 Y791.909 Z-25.036
N6500 Y702.975 Z-24.906
N6505 Y614.958 Z-25.088
N6510 Y563.615 Z-25.407
N6515 Y493.935 Z-26.174
N6520 Y460.012 Z-26.724
N6525 Y409.586 Z-27.878
N6530 Y385.956 Z-28.642
N6535 Y350.421 Z-30.095
N6540 Y318.62 Z-31.562
N6545 Y295.071 Z-32.953
N6550 Y273.034 Z-34.382
N6555 Y253.004 Z-36.043
N6560 Y240.402 Z-37.18
N6565 Y222.656 Z-39.199
N6570 Y216.068 Z-40.
N6575 Y-14.512
N6580 G2 Y-14.931 Z-39.903 J0. K0.952
N6585 G3 Y-15.35 Z-39.806 J-0.419 K-0.855
N6590 G17 G2 X220.686 Y-18.208 I-2.858 J0.
N6595 G1 X211.405
N6600 G2 X208.547 Y-15.35 I0. J2.858
N6605 G1 Y-15.348
N6610 G19 G2 Y-14.929 Z-39.903 J0. K-0.953
N6615 G3 Y-14.509 Z-40. J0.419 K0.855
N6620 G1 Y145.424
N6625 Y150.199 Z-39.209
N6630 Y165.572 Z-37.096
N6635 Y186.358 Z-34.856
N6640 Y206.566 Z-33.128
N6645 Y219.805 Z-32.13
N6650 Y248.622 Z-30.292
N6655 Y264.47 Z-29.457
N6660 Y299.535 Z-27.804
N6665 Y320.67 Z-26.969
N6670 Y358.622 Z-25.653
N6675 Y406.28 Z-24.241
N6680 Y444.788 Z-23.587
N6685 Y492.463 Z-23.021
N6690 Y567.644 Z-22.507
N6695 Y656.578 Z-22.359
N6700 Y756.514 Z-22.535
N6705 Y923.379 Z-23.312
N6710 Y997.643 Z-23.769
N6715 Y1140.671 Z-24.673
N6720 Y1326.79 Z-25.41
N6725 Y1386.385 Z-25.741
N6730 Y1429.476 Z-26.252
N6735 Y1460.649 Z-26.972
N6740 Y1485.389 Z-27.988
N6745 Y1501.977 Z-29.109
N6750 Y1507.789 Z-29.652
N6755 Y1518.503 Z-30.831
N6760 Y1525.6 Z-31.941
N6765 Y1530.899 Z-32.879
N6770 Y1536.148 Z-34.069
N6775 Y1539.602 Z-35.025
N6780 Y1542.16 Z-35.811
N6785 Y1545.933 Z-37.191
N6790 Y1549.223 Z-38.708
N6795 Y1551.557 Z-40.
N6800 Y1814.513
N6805 G3 Y1814.932 Z-39.903 J0. K0.952
N6810 G2 Y1815.351 Z-39.806 J0.419 K-0.855
N6815 G17 G3 X205.69 Y1818.209 I-2.857 J0.
N6820 G1 X196.408
N6825 G3 X193.551 Y1815.351 I0. J-2.858
N6830 G19 G3 Y1814.932 Z-39.903 J0. K-0.953
N6835 G2 Y1814.513 Z-40. J-0.419 K0.855
N6840 G1 Y1585.241
N6845 Y1583.454 Z-38.228
N6850 Y1580.981 Z-36.333
N6855 Y1577.546 Z-34.356
N6860 Y1574.31 Z-32.88
N6865 Y1569.261 Z-31.097
N6870 Y1564.945 Z-29.904
N6875 Y1561.443 Z-29.144
N6880 Y1556.161 Z-28.092
N6885 Y1547.269 Z-26.842
N6890 Y1543.703 Z-26.429
N6895 Y1532.068 Z-25.4
N6900 Y1515.839 Z-24.48
N6905 Y1493.834 Z-23.772
N6910 Y1466.329 Z-23.327
N6915 Y1433.323 Z-23.112
N6920 Y1379.229 Z-23.056
N6925 Y1225.976 Z-23.064
N6930 Y1104.036 Z-22.659
N6935 Y845.486 Z-21.109
N6940 Y702.459 Z-20.443
N6945 Y598.856 Z-20.278
N6950 Y527.342 Z-20.421
N6955 Y453.88 Z-20.893
N6960 Y408.152 Z-21.461
N6965 Y354.059 Z-22.797
N6970 Y307.348 Z-24.226
N6975 Y280.34 Z-25.181
N6980 Y243.689 Z-26.695
N6985 Y225.352 Z-27.573
N6990 Y195.426 Z-29.186
N6995 Y162.51 Z-31.335
N7000 Y141.132 Z-33.041
N7005 Y124.626 Z-34.684
N7010 Y123.027 Z-34.997
N7015 Y120.998 Z-35.711
N7020 Y118.5 Z-36.943
N7025 Y115.74 Z-38.711
N7030 Y114.042 Z-40.
N7035 Y-14.517
N7040 G2 Y-14.936 Z-39.903 J0. K0.952
N7045 G3 Y-15.355 Z-39.806 J-0.419 K-0.855
N7050 G17 G2 X190.693 Y-18.212 I-2.857 J0.
N7055 G1 X181.412
N7060 G2 X178.554 Y-15.355 I0. J2.858
N7065 G1 Y-15.347
N7070 G19 G2 Y-14.927 Z-39.903 J0. K-0.953
N7075 G3 Y-14.508 Z-40. J0.419 K0.855
N7080 G1 Y103.777
N7085 Y105.358 Z-38.653
N7090 Y108.365 Z-36.523
N7095 Y110.847 Z-35.126
N7100 Y113.039 Z-34.027
N7105 Y116.685 Z-32.531
N7110 Y120.613 Z-31.181
N7115 Y123.355 Z-30.429
N7120 Y125.359 Z-30.127
N7125 Y144.238 Z-28.836
N7130 Y157.368 Z-28.062
N7135 Y197.865 Z-25.939
N7140 Y222.309 Z-24.803
N7145 Y257.177 Z-23.405
N7150 Y287.018 Z-22.376
N7155 Y342.02 Z-20.775
N7160 Y405.283 Z-19.337
N7165 Y437.372 Z-18.979
N7170 Y510.719 Z-18.608
N7175 Y584.067 Z-18.549
N7180 Y692.254 Z-18.838
N7185 Y852.702 Z-19.712
N7190 Y1102.083 Z-21.217
N7195 Y1210.27 Z-21.527
N7200 Y1307.335 Z-21.44
N7205 Y1464.115 Z-20.712
N7210 Y1498.038 Z-20.707
N7215 Y1520.959 Z-20.896
N7220 Y1540.213 Z-21.313
N7225 Y1556.676 Z-22.021
N7230 Y1568.32 Z-22.897
N7235 Y1577.687 Z-23.972
N7240 Y1584.771 Z-25.159
N7245 Y1588.713 Z-26.01
N7250 Y1593.91 Z-27.379
N7255 Y1598.119 Z-28.869
N7260 Y1601.365 Z-30.321
N7265 Y1604.434 Z-32.057
N7270 Y1606.567 Z-33.591
N7275 Y1607.982 Z-34.839
N7280 Y1609.665 Z-36.661
N7285 Y1610.753 Z-38.206
N7290 Y1611.676 Z-39.962
N7295 Y1814.513 Z-40.
N7300 G3 Y1814.932 Z-39.903 J0. K0.952
N7305 G2 Y1815.351 Z-39.806 J0.419 K-0.855
N7310 G17 G3 X175.697 Y1818.209 I-2.857 J0.
N7315 G1 X166.415
N7320 G3 X163.558 Y1815.351 I0. J-2.857
N7325 G19 G3 Y1814.932 Z-39.903 J0. K-0.953
N7330 G2 Y1814.513 Z-40. J-0.419 K0.855
N7335 G1 Y1633.154
N7340 Y1632.648 Z-37.821
N7345 Y1631.878 Z-35.888
N7350 Y1630.847 Z-34.08
N7355 Y1629.415 Z-32.215
N7360 Y1627.634 Z-30.46
N7365 Y1626.851 Z-29.808
N7370 Y1625.472 Z-28.78
N7375 Y1623.016 Z-27.262
N7380 Y1619.929 Z-25.749
N7385 Y1616.71 Z-24.496
N7390 Y1612.43 Z-23.191
N7395 Y1608.949 Z-22.379
N7400 Y1604.729 Z-21.523
N7405 Y1597.622 Z-20.501
N7410 Y1591.368 Z-19.883
N7415 Y1585.996 Z-19.456
N7420 Y1576.533 Z-18.935
N7425 Y1562.322 Z-18.519
N7430 Y1545.819 Z-18.33
N7435 Y1518.886 Z-18.349
N7440 Y1455.968 Z-18.976
N7445 Y1365.201 Z-19.833
N7450 Y1279.018 Z-20.249
N7455 Y1185.997 Z-20.299
N7460 Y1085.145 Z-19.983
N7465 Y800.007 Z-18.204
N7470 Y654.229 Z-17.399
N7475 Y548.792 Z-17.106
N7480 Y469.026 Z-17.196
N7485 Y413.099 Z-17.5
N7490 Y368.174 Z-18.291
N7495 Y312.246 Z-19.575
N7500 Y264.587 Z-20.983
N7505 Y235.685 Z-22.003
N7510 Y204.528 Z-23.281
N7515 Y180.281 Z-24.427
N7520 Y151.004 Z-25.855
N7525 Y131.391 Z-26.977
N7530 Y124.948 Z-27.412
N7535 Y123.344 Z-27.659
N7540 Y120.177 Z-28.319
N7545 Y114.245 Z-29.789
N7550 Y110.826 Z-30.898
N7555 Y107.711 Z-32.144
N7560 Y104.16 Z-33.903
N7565 Y101.041 Z-35.876
N7570 Y98.744 Z-37.638
N7575 Y96.321 Z-39.821
N7580 Y96.109 Z-40.
N7585 Y-14.519
N7590 G2 Y-14.939 Z-39.903 J0. K0.952
N7595 G3 Y-15.358 Z-39.806 J-0.419 K-0.855
N7600 G17 G2 X160.7 Y-18.215 I-2.857 J0.
N7605 G1 X151.419
N7610 G2 X148.561 Y-15.358 I0. J2.858
N7615 G1 Y-15.345
N7620 G19 G2 Y-14.925 Z-39.903 J0. K-0.953
N7625 G3 Y-14.506 Z-40. J0.419 K0.855
N7630 G1 Y91.398
N7635 Y92.912 Z-38.406
N7640 Y96.002 Z-35.625
N7645 Y98.995 Z-33.477
N7650 Y101.625 Z-31.907
N7655 Y105.309 Z-30.12
N7660 Y108.511 Z-28.904
N7665 Y111.607 Z-27.951
N7670 Y114.75 Z-27.177
N7675 Y121.097 Z-25.967
N7680 Y124.285 Z-25.449
N7685 Y126.079 Z-25.274
N7690 Y134.505 Z-24.743
N7695 Y152.551 Z-23.734
N7700 Y195.84 Z-21.686
N7705 Y224.581 Z-20.509
N7710 Y255.413 Z-19.459
N7715 Y302.172 Z-18.161
N7720 Y358.099 Z-16.994
N7725 Y411.276 Z-16.175
N7730 Y475.455 Z-15.945
N7735 Y557.971 Z-15.994
N7740 Y675.327 Z-16.469
N7745 Y930.209 Z-18.114
N7750 Y1092.49 Z-19.06
N7755 Y1197.927 Z-19.329
N7760 Y1288.349 Z-19.192
N7765 Y1368.114 Z-18.707
N7770 Y1440.545 Z-17.894
N7775 Y1526.728 Z-16.501
N7780 Y1562.485 Z-16.02
N7785 Y1581.739 Z-16.004
N7790 Y1594.574 Z-16.207
N7795 Y1605.113 Z-16.616
N7800 Y1613.212 Z-17.187
N7805 Y1619.879 Z-17.926
N7810 Y1623.424 Z-18.471
N7815 Y1627.828 Z-19.285
N7820 Y1632.598 Z-20.507
N7825 Y1637.222 Z-22.157
N7830 Y1639.824 Z-23.377
N7835 Y1642.348 Z-24.843
N7840 Y1644.495 Z-26.405
N7845 Y1646.327 Z-28.093
N7850 Y1647.686 Z-29.682
N7855 Y1648.856 Z-31.43
N7860 Y1649.696 Z-33.098
N7865 Y1650.384 Z-35.075
N7870 Y1650.785 Z-37.098
N7875 Y1650.91 Z-40.
N7880 Y1814.513
N7885 G3 Y1814.932 Z-39.903 J0. K0.952
N7890 G2 Y1815.351 Z-39.806 J0.419 K-0.855
N7895 G17 G3 X145.704 Y1818.209 I-2.858 J0.
N7900 G1 X136.422
N7905 G3 X133.565 Y1815.351 I0. J-2.858
N7910 G19 G3 Y1814.932 Z-39.903 J0. K-0.953
N7915 G2 Y1814.513 Z-40. J-0.419 K0.855
N7920 G1 Y1666.098
N7925 Y1666.066 Z-35.118
N7930 Y1665.71 Z-32.599
N7935 Y1665.037 Z-30.371
N7940 Y1664.264 Z-28.667
N7945 Y1663.457 Z-27.306
N7950 Y1662.475 Z-25.945
N7955 Y1660.854 Z-24.187
N7960 Y1659.058 Z-22.639
N7965 Y1657.001 Z-21.218
N7970 Y1654.587 Z-19.877
N7975 Y1651.32 Z-18.456
N7980 Y1647.286 Z-17.164
N7985 Y1643.149 Z-16.206
N7990 Y1640.513 Z-15.704
N7995 Y1636.068 Z-15.066
N8000 Y1629.812 Z-14.459
N8005 Y1621.694 Z-14.005
N8010 Y1611.609 Z-13.762
N8015 Y1597.856 Z-13.729
N8020 Y1574.018 Z-14.101
N8025 Y1484.168 Z-16.137
N8030 Y1425.49 Z-17.126
N8035 Y1361.311 Z-17.863
N8040 Y1287.964 Z-18.337
N8045 Y1198.735 Z-18.508
N8050 Y1094.215 Z-18.274
N8055 Y979.61 Z-17.655
N8060 Y652.297 Z-15.52
N8065 Y538.608 Z-15.054
N8070 Y454.259 Z-15.007
N8075 Y405.208 Z-15.188
N8080 Y343.321 Z-16.045
N8085 Y289.227 Z-17.104
N8090 Y246.136 Z-18.239
N8095 Y218.904 Z-19.129
N8100 Y193.949 Z-20.094
N8105 Y154.956 Z-21.869
N8110 Y134.225 Z-23.024
N8115 Y126.037 Z-23.544
N8120 Y124.426 Z-23.694
N8125 Y118.04 Z-24.659
N8130 Y114.856 Z-25.211
N8135 Y111.305 Z-26.001
N8140 Y107.805 Z-27.025
N8145 Y104.008 Z-28.459
N8150 Y102.522 Z-29.133
N8155 Y101.06 Z-29.862
N8160 Y98.928 Z-31.068
N8165 Y95.71 Z-33.261
N8170 Y93.05 Z-35.507
N8175 Y90.433 Z-38.209
N8180 Y88.967 Z-40.
N8185 Y-14.509
N8190 G2 Y-14.928 Z-39.903 J0. K0.952
N8195 G3 Y-15.348 Z-39.806 J-0.419 K-0.855
N8200 G1 Y-15.354
N8205 G17 G2 X130.707 Y-18.211 I-2.857 J0.
N8210 G1 X121.425
N8215 G2 X118.568 Y-15.354 I0. J2.858
N8220 G19 G2 Y-14.934 Z-39.903 J0. K-0.953
N8225 G3 Y-14.515 Z-40. J0.419 K0.855
N8230 G1 Y87.682
N8235 Y87.853 Z-39.745
N8240 Y89.954 Z-36.912
N8245 Y92.406 Z-34.239
N8250 Y94.382 Z-32.449
N8255 Y97.336 Z-30.229
N8260 Y100.498 Z-28.321
N8265 Y103.449 Z-26.892
N8270 Y107.229 Z-25.455
N8275 Y110.341 Z-24.547
N8280 Y113.102 Z-23.907
N8285 Y116.687 Z-23.292
N8290 Y123.087 Z-22.433
N8295 Y126.301 Z-22.112
N8300 Y140.828 Z-21.215
N8305 Y157.369 Z-20.35
N8310 Y186.946 Z-19.039
N8315 Y211.43 Z-18.109
N8320 Y236.977 Z-17.293
N8325 Y280.069 Z-16.211
N8330 Y332.329 Z-15.255
N8335 Y393.299 Z-14.497
N8340 Y426.764 Z-14.29
N8345 Y509.738 Z-14.279
N8350 Y617.467 Z-14.672
N8355 Y791.667 Z-15.765
N8360 Y1038.298 Z-17.363
N8365 Y1152.903 Z-17.778
N8370 Y1246.092 Z-17.765
N8375 Y1327.691 Z-17.388
N8380 Y1397.371 Z-16.711
N8385 Y1459.717 Z-15.747
N8390 Y1517.478 Z-14.477
N8395 Y1572.462 Z-12.888
N8400 Y1608.191 Z-11.814
N8405 Y1625.153 Z-11.527
N8410 Y1636.614 Z-11.621
N8415 Y1641.97 Z-11.81
N8420 Y1646.471 Z-12.091
N8425 Y1650.048 Z-12.401
N8430 Y1654.498 Z-12.961
N8435 Y1658.901 Z-13.783
N8440 Y1663.208 Z-14.948
N8445 Y1665.723 Z-15.881
N8450 Y1667.343 Z-16.569
N8455 Y1670.443 Z-18.263
N8460 Y1672.238 Z-19.522
N8465 Y1674.471 Z-21.532
N8470 Y1676.059 Z-23.428
N8475 Y1677.323 Z-25.453
N8480 Y1678.289 Z-27.623
N8485 Y1678.863 Z-29.632
N8490 Y1679.214 Z-32.021
N8495 Y1679.262 Z-40.
N8500 Y1814.513
N8505 G3 Y1814.932 Z-39.903 J0. K0.952
N8510 G2 Y1815.351 Z-39.806 J0.419 K-0.855
N8515 G17 G3 X115.71 Y1818.209 I-2.858 J0.
N8520 G1 X106.429
N8525 G3 X103.571 Y1815.351 I0. J-2.858
N8530 G19 G3 Y1814.932 Z-39.903 J0. K-0.953
N8535 G2 Y1814.513 Z-40. J-0.419 K0.855
N8540 G1 Y1690.697
N8545 Y1690.645 Z-29.254
N8550 Y1690.381 Z-27.214
N8555 Y1689.808 Z-25.02
N8560 Y1688.863 Z-22.748
N8565 Y1687.583 Z-20.625
N8570 Y1686.164 Z-18.859
N8575 Y1684.471 Z-17.218
N8580 Y1682.737 Z-15.884
N8585 Y1680.517 Z-14.495
N8590 Y1677.309 Z-12.999
N8595 Y1673.932 Z-11.865
N8600 Y1669.361 Z-10.817
N8605 Y1666.928 Z-10.437
N8610 Y1665.151 Z-10.2
N8615 Y1660.232 Z-9.761
N8620 Y1656.189 Z-9.553
N8625 Y1647.937 Z-9.407
N8630 Y1635.102 Z-9.612
N8635 Y1619.588 Z-10.137
N8640 Y1556.211 Z-12.525
N8645 Y1506.743 Z-13.986
N8650 Y1450.816 Z-15.219
N8655 Y1386.637 Z-16.197
N8660 Y1316.04 Z-16.853
N8665 Y1233.524 Z-17.206
N8670 Y1137.513 Z-17.188
N8675 Y1020.157 Z-16.733
N8680 Y782.695 Z-15.191
N8685 Y608.495 Z-14.095
N8690 Y500.307 Z-13.701
N8695 Y416.874 Z-13.716
N8700 Y360.947 Z-14.162
N8705 Y305.02 Z-14.904
N8710 Y256.427 Z-15.857
N8715 Y217.003 Z-16.919
N8720 Y191.862 Z-17.792
N8725 Y159.072 Z-19.169
N8730 Y142.313 Z-20.03
N8735 Y125.979 Z-21.028
N8740 Y120.173 Z-21.622
N8745 Y113.97 Z-22.432
N8750 Y109.813 Z-23.314
N8755 Y108.248 Z-23.737
N8760 Y105.55 Z-24.608
N8765 Y102.161 Z-26.004
N8770 Y100.693 Z-26.727
N8775 Y99.257 Z-27.513
N8780 Y97.002 Z-28.939
N8785 Y94.064 Z-31.2
N8790 Y92.696 Z-32.447
N8795 Y90.838 Z-34.392
N8800 Y88.618 Z-37.205
N8805 Y86.806 Z-40.
N8810 Y-14.52
N8815 G2 Y-14.939 Z-39.903 J0. K0.952
N8820 G3 Y-15.358 Z-39.806 J-0.419 K-0.855
N8825 G17 G2 X100.714 Y-18.216 I-2.857 J0.
N8830 G1 X91.432
N8835 G2 X88.575 Y-15.358 I0. J2.858
N8840 G1 Y-15.348
N8845 G19 G2 Y-14.929 Z-39.903 J0. K-0.953
N8850 G3 Y-14.51 Z-40. J0.419 K0.855
N8855 G1 Y86.257
N8860 Y86.797 Z-39.007
N8865 Y88.629 Z-36.077
N8870 Y90.734 Z-33.369
N8875 Y92.877 Z-31.122
N8880 Y94.888 Z-29.361
N8885 Y96.19 Z-28.363
N8890 Y97.536 Z-27.432
N8895 Y98.926 Z-26.57
N8900 Y100.353 Z-25.778
N8905 Y101.811 Z-25.052
N8910 Y103.299 Z-24.391
N8915 Y104.813 Z-23.793
N8920 Y106.349 Z-23.254
N8925 Y109.464 Z-22.362
N8930 Y112.63 Z-21.679
N8935 Y115.823 Z-21.18
N8940 Y125.059 Z-20.258
N8945 Y139.981 Z-19.322
N8950 Y158.172 Z-18.382
N8955 Y181.75 Z-17.374
N8960 Y204.172 Z-16.563
N8965 Y241.757 Z-15.499
N8970 Y287.599 Z-14.562
N8975 Y341.693 Z-13.825
N8980 Y406.788 Z-13.3
N8985 Y479.219 Z-13.238
N8990 Y579.155 Z-13.539
N8995 Y728.6 Z-14.413
N9000 Y997.235 Z-16.177
N9005 Y1119.175 Z-16.687
N9010 Y1219.088 Z-16.747
N9015 Y1303.437 Z-16.426
N9020 Y1371.284 Z-15.84
N9025 Y1433.629 Z-14.954
N9030 Y1488.639 Z-13.82
N9035 Y1537.214 Z-12.463
N9040 Y1577.968 Z-10.989
N9045 Y1624.247 Z-8.919
N9050 Y1649.598 Z-7.753
N9055 Y1661.4 Z-7.402
N9060 Y1669.422 Z-7.446
N9065 Y1675.069 Z-7.768
N9070 Y1679.076 Z-8.229
N9075 Y1682.593 Z-8.876
N9080 Y1685.616 Z-9.69
N9085 Y1688.111 Z-10.6
N9090 Y1690.505 Z-11.717
N9095 Y1692.742 Z-13.08
N9100 Y1694.458 Z-14.43
N9105 Y1696.015 Z-15.934
N9110 Y1697.555 Z-17.853
N9115 Y1698.8 Z-19.967
N9120 Y1699.435 Z-21.406
N9125 Y1699.893 Z-22.749
N9130 Y1700.438 Z-25.24
N9135 Y1700.629 Z-27.644
N9140 Y1700.634 Z-40.
N9145 Y1814.513
N9150 G3 Y1814.932 Z-39.903 J0. K0.952
N9155 G2 Y1815.351 Z-39.806 J0.419 K-0.855
N9160 G17 G3 X85.717 Y1818.209 I-2.857 J0.
N9165 G1 X76.436
N9170 G3 X73.578 Y1815.351 I0. J-2.858
N9175 G19 G3 Y1814.932 Z-39.903 J0. K-0.953
N9180 G2 Y1814.513 Z-40. J-0.419 K0.855
N9185 G1 Y1709.262
N9190 Y1709.219 Z-24.111
N9195 Y1708.861 Z-21.455
N9200 Y1708.145 Z-18.95
N9205 Y1707.442 Z-17.301
N9210 Y1706.671 Z-15.896
N9215 Y1705.75 Z-14.544
N9220 Y1704.69 Z-13.271
N9225 Y1703.457 Z-12.024
N9230 Y1701.416 Z-10.413
N9235 Y1699.08 Z-9.022
N9240 Y1696.767 Z-7.979
N9245 Y1694.256 Z-7.126
N9250 Y1691.649 Z-6.482
N9255 Y1688.115 Z-5.916
N9260 Y1685.438 Z-5.657
N9265 Y1682.729 Z-5.505
N9270 Y1677.228 Z-5.438
N9275 Y1669.104 Z-5.674
N9280 Y1655.584 Z-6.372
N9285 Y1607.676 Z-9.007
N9290 Y1567.418 Z-10.812
N9295 Y1525.466 Z-12.292
N9300 Y1475.956 Z-13.625
N9305 Y1424.613 Z-14.645
N9310 Y1360.434 Z-15.52
N9315 Y1294.421 Z-16.066
N9320 Y1210.072 Z-16.365
N9325 Y1110.012 Z-16.296
N9330 Y982.571 Z-15.755
N9335 Y608.499 Z-13.364
N9340 Y498.478 Z-12.944
N9345 Y415.962 Z-12.928
N9350 Y352.7 Z-13.308
N9355 Y295.856 Z-13.955
N9360 Y249.097 Z-14.793
N9365 Y209.673 Z-15.809
N9370 Y186.181 Z-16.597
N9375 Y160.958 Z-17.627
N9380 Y141.81 Z-18.596
N9385 Y125.675 Z-19.59
N9390 Y117.635 Z-20.284
N9395 Y114.425 Z-20.657
N9400 Y111.238 Z-21.208
N9405 Y108.137 Z-21.94
N9410 Y106.531 Z-22.415
N9415 Y104.99 Z-22.936
N9420 Y103.471 Z-23.518
N9425 Y101.977 Z-24.164
N9430 Y100.514 Z-24.876
N9435 Y99.084 Z-25.656
N9440 Y97.692 Z-26.503
N9445 Y96.339 Z-27.423
N9450 Y95.035 Z-28.411
N9455 Y93.778 Z-29.466
N9460 Y91.994 Z-31.172
N9465 Y89.68 Z-33.844
N9470 Y87.769 Z-36.587
N9475 Y86.015 Z-39.747
N9480 Y85.883 Z-40.
N9485 Y-14.515
N9490 G2 Y-14.934 Z-39.903 J0. K0.952
N9495 G3 Y-15.353 Z-39.806 J-0.419 K-0.855
N9500 G17 G2 X70.721 Y-18.211 I-2.857 J0.
N9505 G1 X61.439
N9510 G2 X58.582 Y-15.353 I0. J2.858
N9515 G1 Y-15.349
N9520 G19 G2 Y-14.93 Z-39.903 J0. K-0.953
N9525 G3 Y-14.511 Z-40. J0.419 K0.855
N9530 G1 Y85.642
N9535 Y87.1 Z-37.174
N9540 Y88.525 Z-34.883
N9545 Y90.022 Z-32.848
N9550 Y91.639 Z-30.975
N9555 Y92.505 Z-30.082
N9560 Y94.966 Z-27.887
N9565 Y97.722 Z-25.907
N9570 Y100.835 Z-24.14
N9575 Y104.189 Z-22.673
N9580 Y106.875 Z-21.759
N9585 Y108.437 Z-21.319
N9590 Y110.013 Z-20.934
N9595 Y113.19 Z-20.328
N9600 Y115.543 Z-20.
N9605 Y122.828 Z-19.36
N9610 Y132.489 Z-18.696
N9615 Y148.895 Z-17.764
N9620 Y167.492 Z-16.892
N9625 Y190.335 Z-16.007
N9630 Y213.178 Z-15.283
N9635 Y252.602 Z-14.336
N9640 Y300.278 Z-13.553
N9645 Y358.039 Z-12.973
N9650 Y421.301 Z-12.675
N9655 Y504.734 Z-12.72
N9660 Y615.672 Z-13.166
N9665 Y917.313 Z-15.118
N9670 Y1070.425 Z-15.891
N9675 Y1177.758 Z-16.081
N9680 Y1266.691 Z-15.883
N9685 Y1343.706 Z-15.341
N9690 Y1409.719 Z-14.516
N9695 Y1466.563 Z-13.442
N9700 Y1516.989 Z-12.124
N9705 Y1556.162 Z-10.787
N9710 Y1595.561 Z-9.074
N9715 Y1629.98 Z-7.21
N9720 Y1672.109 Z-4.447
N9725 Y1683.653 Z-3.757
N9730 Y1689.04 Z-3.575
N9735 Y1693.912 Z-3.636
N9740 Y1698.072 Z-4.008
N9745 Y1699.838 Z-4.298
N9750 Y1701.142 Z-4.567
N9755 Y1704.021 Z-5.409
N9760 Y1706.561 Z-6.48
N9765 Y1708.826 Z-7.785
N9770 Y1710.884 Z-9.374
N9775 Y1712.533 Z-11.055
N9780 Y1714.119 Z-13.232
N9785 Y1714.904 Z-14.656
N9790 Y1715.823 Z-16.935
N9795 Y1716.396 Z-19.189
N9800 Y1716.685 Z-21.448
N9805 Y1716.737 Z-40.
N9810 Y1814.513
N9815 G3 Y1814.932 Z-39.903 J0. K0.952
N9820 G2 Y1815.351 Z-39.806 J0.419 K-0.855
N9825 G17 G3 X55.724 Y1818.209 I-2.858 J0.
N9830 G1 X46.443
N9835 G3 X43.585 Y1815.351 I0. J-2.858
N9840 G19 G3 Y1814.932 Z-39.903 J0. K-0.953
N9845 G2 Y1814.513 Z-40. J-0.419 K0.855
N9850 G1 Y1723.192
N9855 Y1723.147 Z-18.955
N9860 Y1722.792 Z-16.259
N9865 Y1722.086 Z-13.738
N9870 Y1721.156 Z-11.645
N9875 Y1720.074 Z-9.864
N9880 Y1718.563 Z-8.004
N9885 Y1716.92 Z-6.471
N9890 Y1715.164 Z-5.207
N9895 Y1712.864 Z-3.973
N9900 Y1710.273 Z-3.003
N9905 Y1709.534 Z-2.793
N9910 Y1707.804 Z-2.393
N9915 Y1706.042 Z-2.105
N9920 Y1704.261 Z-1.917
N9925 Y1701.381 Z-1.785
N9930 Y1696.969 Z-1.869
N9935 Y1690.405 Z-2.263
N9940 Y1648.869 Z-5.482
N9945 Y1618.367 Z-7.443
N9950 Y1583.652 Z-9.249
N9955 Y1544.62 Z-10.864
N9960 Y1499.695 Z-12.298
N9965 Y1447.435 Z-13.548
N9970 Y1387.84 Z-14.554
N9975 Y1326.412 Z-15.237
N9980 Y1247.563 Z-15.713
N9985 Y1155.407 Z-15.848
N9990 Y1043.553 Z-15.584
N9995 Y875.771 Z-14.673
N10000 Y616.304 Z-13.001
N10005 Y504.449 Z-12.552
N10010 Y420.1 Z-12.508
N10015 Y354.087 Z-12.798
N10020 Y297.243 Z-13.353
N10025 Y250.484 Z-14.111
N10030 Y211.06 Z-15.053
N10035 Y187.354 Z-15.805
N10040 Y164.49 Z-16.706
N10045 Y145.958 Z-17.606
N10050 Y129.782 Z-18.561
N10055 Y118.516 Z-19.378
N10060 Y113.798 Z-19.879
N10065 Y110.513 Z-20.464
N10070 Y107.517 Z-21.2
N10075 Y105.818 Z-21.719
N10080 Y104.282 Z-22.26
N10085 Y102.77 Z-22.865
N10090 Y101.285 Z-23.537
N10095 Y99.834 Z-24.278
N10100 Y98.418 Z-25.088
N10105 Y97.044 Z-25.968
N10110 Y95.714 Z-26.919
N10115 Y94.431 Z-27.94
N10120 Y93.2 Z-29.031
N10125 Y91.462 Z-30.787
N10130 Y89.281 Z-33.448
N10135 Y87.927 Z-35.44
N10140 Y87.06 Z-36.899
N10145 Y86.279 Z-38.371
N10150 Y85.503 Z-40.
N10155 Y-14.518
N10160 G2 Y-14.938 Z-39.903 J0. K0.952
N10165 G3 Y-15.357 Z-39.806 J-0.419 K-0.855
N10170 G17 G2 X40.728 Y-18.215 I-2.857 J0.
N10175 G1 X31.446
N10180 G2 X28.588 Y-15.357 I0. J2.858
N10185 G19 G2 Y-14.938 Z-39.903 J0. K-0.953
N10190 G3 Y-14.519 Z-40. J0.419 K0.855
N10195 G1 Y85.416
N10200 Y86.711 Z-37.326
N10205 Y88.486 Z-34.357
N10210 Y90.42 Z-31.755
N10215 Y92.138 Z-29.836
N10220 Y94.712 Z-27.468
N10225 Y97.397 Z-25.494
N10230 Y100.528 Z-23.674
N10235 Y102.921 Z-22.563
N10240 Y104.434 Z-21.967
N10245 Y105.971 Z-21.435
N10250 Y107.527 Z-20.965
N10255 Y110.674 Z-20.203
N10260 Y113.663 Z-19.678
N10265 Y117.074 Z-19.279
N10270 Y129.95 Z-18.352
N10275 Y146.126 Z-17.398
N10280 Y164.665 Z-16.5
N10285 Y185.608 Z-15.672
N10290 Y207.393 Z-14.97
N10295 Y245.901 Z-14.029
N10300 Y292.66 Z-13.258
N10305 Y348.587 Z-12.704
N10310 Y415.517 Z-12.408
N10315 Y500.783 Z-12.436
N10320 Y612.638 Z-12.871
N10325 Y843.682 Z-14.343
N10330 Y1019.716 Z-15.346
N10335 Y1137.072 Z-15.678
N10340 Y1232.201 Z-15.593
N10345 Y1313.8 Z-15.155
N10350 Y1383.48 Z-14.412
N10355 Y1443.075 Z-13.421
N10360 Y1495.335 Z-12.188
N10365 Y1540.26 Z-10.768
N10370 Y1579.407 Z-9.169
N10375 Y1613.246 Z-7.425
N10380 Y1641.778 Z-5.611
N10385 Y1666.677 Z-3.69
N10390 Y1694.577 Z-1.115
N10395 Y1703.821 Z-0.303
N10400 Y1707.652 Z-0.092
N10405 Y1710.619 Z-0.083
N10410 Y1713.745 Z-0.361
N10415 Y1716.571 Z-0.977
N10420 Y1718.844 Z-1.8
N10425 Y1720.977 Z-2.915
N10430 Y1722.741 Z-4.161
N10435 Y1724.43 Z-5.749
N10440 Y1725.866 Z-7.566
N10445 Y1726.899 Z-9.332
N10450 Y1727.784 Z-11.458
N10455 Y1728.397 Z-13.829
N10460 Y1728.696 Z-16.327
N10465 Y1728.733 Z-40.
N10470 Y1814.513
N10475 G3 Y1814.932 Z-39.903 J0. K0.952
N10480 G2 Y1815.351 Z-39.806 J0.419 K-0.855
N10485 G17 G3 X25.731 Y1818.209 I-2.858 J0.
N10490 G1 X16.449
N10495 G3 X13.592 Y1815.351 I0. J-2.858
N10500 G19 G3 Y1814.932 Z-39.903 J0. K-0.953
N10505 G2 Y1814.513 Z-40. J-0.419 K0.855
N10510 G1 Y1733.458
N10515 Y1733.413 Z-12.98
N10520 Y1733.358 Z-12.311
N10525 Y1733.129 Z-10.73
N10530 Y1732.556 Z-8.563
N10535 Y1731.624 Z-6.402
N10540 Y1730.401 Z-4.479
N10545 Y1728.949 Z-2.828
N10550 Y1727.265 Z-1.414
N10555 Y1725.418 Z-0.277
N10560 Y1723.208 Z0.669
N10565 Y1720.753 Z1.307
N10570 Y1717.981 Z1.617
N10575 Y1715.477 Z1.616
N10580 Y1712.179 Z1.38
N10585 Y1702.375 Z0.27
N10590 Y1682.911 Z-1.881
N10595 Y1661.441 Z-3.864
N10600 Y1636.356 Z-5.773
N10605 Y1609.611 Z-7.446
N10610 Y1575.909 Z-9.163
N10615 Y1536.259 Z-10.76
N10620 Y1490.417 Z-12.181
N10625 Y1437.24 Z-13.406
N10630 Y1376.728 Z-14.386
N10635 Y1306.131 Z-15.104
N10640 Y1224.533 Z-15.515
N10645 Y1126.987 Z-15.577
N10650 Y1005.047 Z-15.204
N10655 Y818.011 Z-14.106
N10660 Y607.137 Z-12.782
N10665 Y497.116 Z-12.371
N10670 Y413.683 Z-12.355
N10675 Y346.754 Z-12.646
N10680 Y291.743 Z-13.185
N10685 Y245.901 Z-13.934
N10690 Y207.394 Z-14.867
N10695 Y185.522 Z-15.568
N10700 Y164.477 Z-16.4
N10705 Y145.948 Z-17.301
N10710 Y129.775 Z-18.259
N10715 Y116.497 Z-19.219
N10720 Y113.688 Z-19.558
N10725 Y110.502 Z-20.12
N10730 Y107.504 Z-20.849
N10735 Y104.268 Z-21.905
N10740 Y102.755 Z-22.51
N10745 Y101.27 Z-23.182
N10750 Y99.817 Z-23.924
N10755 Y98.4 Z-24.736
N10760 Y97.025 Z-25.618
N10765 Y95.695 Z-26.572
N10770 Y94.414 Z-27.595
N10775 Y93.184 Z-28.689
N10780 Y91.378 Z-30.526
N10785 Y89.21 Z-33.203
N10790 Y87.547 Z-35.732
N10795 Y85.921 Z-38.795
N10800 Y85.377 Z-40.
N10805 Y-14.517
N10810 G2 Y-14.936 Z-39.903 J0. K0.952
N10815 G3 Y-15.356 Z-39.806 J-0.419 K-0.855
N10820 G17 G2 X10.734 Y-18.213 I-2.858 J0.
N10825 G1 X1.453
N10830 G2 X-1.405 Y-15.356 I0. J2.858
N10835 G1 Y-15.348
N10840 G19 G2 Y-14.929 Z-39.903 J0. K-0.953
N10845 G3 Y-14.51 Z-40. J0.419 K0.855
N10850 G1 Y85.356
N10855 Y86.37 Z-37.85
N10860 Y87.602 Z-35.613
N10865 Y89.46 Z-32.831
N10870 Y91.024 Z-30.895
N10875 Y92.732 Z-29.089
N10880 Y94.718 Z-27.309
N10885 Y97.447 Z-25.305
N10890 Y100.536 Z-23.513
N10895 Y102.929 Z-22.403
N10900 Y104.443 Z-21.808
N10905 Y105.98 Z-21.277
N10910 Y107.537 Z-20.808
N10915 Y110.684 Z-20.05
N10920 Y113.474 Z-19.559
N10925 Y117.085 Z-19.134
N10930 Y129.962 Z-18.219
N10935 Y146.135 Z-17.262
N10940 Y164.307 Z-16.379
N10945 Y184.602 Z-15.573
N10950 Y207.394 Z-14.84
N10955 Y245.901 Z-13.91
N10960 Y292.66 Z-13.152
N10965 Y348.588 Z-12.615
N10970 Y416.434 Z-12.334
N10975 Y501.701 Z-12.364
N10980 Y613.555 Z-12.799
N10985 Y888.608 Z-14.545
N10990 Y1043.554 Z-15.34
N10995 Y1155.409 Z-15.571
N11000 Y1247.44 Z-15.408
N11005 Y1326.288 Z-14.907
N11010 Y1394.135 Z-14.107
N11015 Y1452.813 Z-13.05
N11020 Y1503.239 Z-11.78
N11025 Y1547.031 Z-10.316
N11030 Y1584.44 Z-8.711
N11035 Y1617.419 Z-6.932
N11040 Y1645.196 Z-5.074
N11045 Y1668.112 Z-3.201
N11050 Y1687.781 Z-1.253
N11055 Y1703.837 Z0.667
N11060 Y1717.883 Z2.682
N11065 Y1721.297 Z3.126
N11070 Y1723.088 Z3.105
N11075 Y1724.849 Z2.858
N11080 Y1726.549 Z2.395
N11085 Y1728.164 Z1.728
N11090 Y1729.67 Z0.875
N11095 Y1731.045 Z-0.146
N11100 Y1732.668 Z-1.756
N11105 Y1733.885 Z-3.409
N11110 Y1734.934 Z-5.42
N11115 Y1735.65 Z-7.59
N11120 Y1736.008 Z-9.853
N11125 Y1736.051 Z-40.
N11130 Y1814.513
N11135 G3 Y1814.932 Z-39.903 J0. K0.952
N11140 G2 Y1815.351 Z-39.806 J0.419 K-0.855
N11145 G17 G3 X-4.262 Y1818.209 I-2.858 J0.
N11150 G1 X-13.544
N11155 G3 X-16.401 Y1815.351 I0. J-2.858
N11160 G19 G3 Y1814.932 Z-39.903 J0. K-0.953
N11165 G2 Y1814.513 Z-40. J-0.419 K0.855
N11170 G1 Y1732.63
N11175 Y1732.579 Z-13.557
N11180 Y1732.269 Z-11.209
N11185 Y1731.69 Z-9.063
N11190 Y1731.397 Z-8.29
N11195 Y1730.602 Z-6.63
N11200 Y1729.473 Z-4.9
N11205 Y1728.096 Z-3.328
N11210 Y1726.492 Z-1.952
N11215 Y1724.662 Z-0.785
N11220 Y1722.499 Z0.19
N11225 Y1719.998 Z0.899
N11230 Y1717.502 Z1.245
N11235 Y1714.088 Z1.294
N11240 Y1711.324 Z1.12
N11245 Y1704.901 Z0.464
N11250 Y1682.406 Z-1.98
N11255 Y1660.934 Z-3.942
N11260 Y1636.398 Z-5.798
N11265 Y1606.961 Z-7.622
N11270 Y1572.482 Z-9.337
N11275 Y1532.613 Z-10.907
N11280 Y1486.865 Z-12.296
N11285 Y1433.688 Z-13.494
N11290 Y1372.26 Z-14.459
N11295 Y1301.663 Z-15.152
N11300 Y1217.313 Z-15.547
N11305 Y1118.736 Z-15.575
N11310 Y996.796 Z-15.174
N11315 Y802.425 Z-14.009
N11320 Y604.387 Z-12.776
N11325 Y495.283 Z-12.375
N11330 Y412.767 Z-12.365
N11335 Y345.837 Z-12.663
N11340 Y290.827 Z-13.209
N11345 Y244.985 Z-13.966
N11350 Y206.477 Z-14.908
N11355 Y184.608 Z-15.615
N11360 Y162.908 Z-16.484
N11365 Y144.781 Z-17.378
N11370 Y128.624 Z-18.348
N11375 Y116.552 Z-19.227
N11380 Y114.145 Z-19.508
N11385 Y110.806 Z-20.071
N11390 Y107.799 Z-20.783
N11395 Y104.97 Z-21.664
N11400 Y101.457 Z-23.107
N11405 Y98.796 Z-24.515
N11410 Y97.4 Z-25.384
N11415 Y95.394 Z-26.818
N11420 Y92.749 Z-29.119
N11425 Y91.161 Z-30.784
N11430 Y90.098 Z-32.05
N11435 Y88.621 Z-34.057
N11440 Y86.879 Z-36.921
N11445 Y85.374 Z-40.
N11450 Y-14.509
N11455 G2 Y-14.928 Z-39.903 J0. K0.952
N11460 G3 Y-15.347 Z-39.806 J-0.419 K-0.855
N11465 G17 G2 X-19.259 Y-18.205 I-2.858 J0.
N11470 G1 X-28.54
N11475 G2 X-31.398 Y-15.347 I0. J2.857
N11480 G1 Y-15.345
N11485 G19 G2 Y-14.926 Z-39.903 J0. K-0.953
N11490 G3 Y-14.507 Z-40. J0.419 K0.855
N11495 G1 Y85.43
N11500 Y86.698 Z-37.381
N11505 Y88.472 Z-34.411
N11510 Y90.468 Z-31.732
N11515 Y92.121 Z-29.889
N11520 Y93.298 Z-28.738
N11525 Y94.694 Z-27.519
N11530 Y97.376 Z-25.544
N11535 Y100.504 Z-23.722
N11540 Y102.897 Z-22.608
N11545 Y104.41 Z-22.01
N11550 Y106.724 Z-21.232
N11555 Y110.649 Z-20.242
N11560 Y113.437 Z-19.746
N11565 Y117.048 Z-19.313
N11570 Y125.094 Z-18.708
N11575 Y141.224 Z-17.697
N11580 Y159.43 Z-16.764
N11585 Y180.207 Z-15.898
N11590 Y202.81 Z-15.133
N11595 Y240.401 Z-14.17
N11600 Y285.326 Z-13.381
N11605 Y339.42 Z-12.795
N11610 Y405.432 Z-12.449
N11615 Y486.115 Z-12.425
N11620 Y592.468 Z-12.785
N11625 Y768.502 Z-13.854
N11630 Y987.627 Z-15.215
N11635 Y1113.235 Z-15.664
N11640 Y1212.24 Z-15.668
N11645 Y1295.673 Z-15.316
N11650 Y1368.104 Z-14.643
N11655 Y1430.449 Z-13.698
N11660 Y1484.543 Z-12.511
N11665 Y1531.277 Z-11.123
N11670 Y1571.414 Z-9.571
N11675 Y1606.661 Z-7.844
N11680 Y1634.138 Z-6.188
N11685 Y1660.29 Z-4.284
N11690 Y1683.38 Z-2.286
N11695 Y1699.999 Z-0.776
N11700 Y1704.905 Z-0.457
N11705 Y1708.343 Z-0.386
N11710 Y1711.698 Z-0.592
N11715 Y1713.9 Z-0.959
N11720 Y1714.76 Z-1.159
N11725 Y1717.405 Z-2.042
N11730 Y1719.621 Z-3.145
N11735 Y1721.44 Z-4.379
N11740 Y1723.021 Z-5.782
N11745 Y1724.138 Z-7.035
N11750 Y1725.109 Z-8.397
N11755 Y1726.204 Z-10.424
N11760 Y1726.94 Z-12.385
N11765 Y1727.399 Z-14.227
N11770 Y1727.708 Z-16.625
N11775 Y1727.76 Z-40.
N11780 Y1814.513
N11785 G3 Y1814.932 Z-39.903 J0. K0.952
N11790 G2 Y1815.351 Z-39.806 J0.419 K-0.855
N11795 G17 G3 X-34.255 Y1818.209 I-2.857 J0.
N11800 G1 X-43.537
N11805 G3 X-46.394 Y1815.351 I0. J-2.858
N11810 G19 G3 Y1814.932 Z-39.903 J0. K-0.953
N11815 G2 Y1814.513 Z-40. J-0.419 K0.855
N11820 G1 Y1722.056
N11825 Y1722.005 Z-19.373
N11830 Y1721.668 Z-16.82
N11835 Y1720.957 Z-14.264
N11840 Y1720.023 Z-12.139
N11845 Y1718.726 Z-10.056
N11850 Y1717.248 Z-8.296
N11855 Y1715.489 Z-6.708
N11860 Y1713.351 Z-5.263
N11865 Y1710.979 Z-4.098
N11870 Y1708.265 Z-3.18
N11875 Y1705.425 Z-2.568
N11880 Y1701.752 Z-2.183
N11885 Y1697.291 Z-2.126
N11890 Y1692.443 Z-2.327
N11895 Y1684.195 Z-2.89
N11900 Y1646.235 Z-5.752
N11905 Y1615.198 Z-7.695
N11910 Y1580.403 Z-9.463
N11915 Y1541.137 Z-11.046
N11920 Y1495.352 Z-12.472
N11925 Y1442.176 Z-13.702
N11930 Y1381.664 Z-14.683
N11935 Y1311.067 Z-15.404
N11940 Y1229.468 Z-15.809
N11945 Y1145.321 Z-15.878
N11950 Y1028.882 Z-15.554
N11955 Y851.015 Z-14.539
N11960 Y615.386 Z-13.021
N11965 Y503.531 Z-12.577
N11970 Y419.182 Z-12.537
N11975 Y354.086 Z-12.832
N11980 Y297.242 Z-13.39
N11985 Y250.483 Z-14.151
N11990 Y211.059 Z-15.099
N11995 Y187.329 Z-15.856
N12000 Y164.652 Z-16.751
N12005 Y146.467 Z-17.628
N12010 Y130.287 Z-18.576
N12015 Y120.629 Z-19.262
N12020 Y115.403 Z-19.725
N12025 Y111.707 Z-20.283
N12030 Y109.428 Z-20.763
N12035 Y107.856 Z-21.163
N12040 Y105.149 Z-22.003
N12045 Y101.751 Z-23.376
N12050 Y100.283 Z-24.099
N12055 Y98.849 Z-24.892
N12060 Y97.454 Z-25.757
N12065 Y96.101 Z-26.693
N12070 Y94.166 Z-28.225
N12075 Y91.698 Z-30.59
N12080 Y89.541 Z-33.152
N12085 Y87.736 Z-35.802
N12090 Y86.118 Z-38.745
N12095 Y85.528 Z-40.
N12100 Y-14.517
N12105 G2 Y-14.936 Z-39.903 J0. K0.952
N12110 G3 Y-15.355 Z-39.806 J-0.419 K-0.855
N12115 G17 G2 X-49.252 Y-18.213 I-2.858 J0.
N12120 G1 X-58.533
N12125 G2 X-61.391 Y-15.355 I0. J2.857
N12130 G1 Y-15.354
N12135 G19 G2 Y-14.935 Z-39.903 J0. K-0.953
N12140 G3 Y-14.516 Z-40. J0.419 K0.855
N12145 G1 Y85.659
N12150 Y85.84 Z-39.684
N12155 Y87.452 Z-36.656
N12160 Y88.926 Z-34.392
N12165 Y90.463 Z-32.395
N12170 Y92.123 Z-30.555
N12175 Y93.304 Z-29.408
N12180 Y95.731 Z-27.385
N12185 Y98.709 Z-25.392
N12190 Y101.982 Z-23.684
N12195 Y104.418 Z-22.674
N12200 Y105.952 Z-22.137
N12205 Y107.506 Z-21.661
N12210 Y110.65 Z-20.883
N12215 Y113.836 Z-20.311
N12220 Y117.044 Z-19.919
N12225 Y121.869 Z-19.513
N12230 Y129.917 Z-18.934
N12235 Y146.094 Z-17.983
N12240 Y164.444 Z-17.095
N12245 Y189.203 Z-16.119
N12250 Y212.895 Z-15.362
N12255 Y252.319 Z-14.405
N12260 Y299.995 Z-13.609
N12265 Y356.839 Z-13.029
N12270 Y420.102 Z-12.717
N12275 Y504.451 Z-12.759
N12280 Y616.077 Z-13.205
N12285 Y848.267 Z-14.712
N12290 Y1032.552 Z-15.786
N12295 Y1148.074 Z-16.118
N12300 Y1242.315 Z-16.028
N12305 Y1321.164 Z-15.6
N12310 Y1389.927 Z-14.867
N12315 Y1450.438 Z-13.852
N12320 Y1502.698 Z-12.609
N12325 Y1546.566 Z-11.222
N12330 Y1586.784 Z-9.576
N12335 Y1622.463 Z-7.75
N12340 Y1660.132 Z-5.401
N12345 Y1677.354 Z-4.305
N12350 Y1684.105 Z-3.987
N12355 Y1689.893 Z-3.915
N12360 Y1693.233 Z-4.055
N12365 Y1695.02 Z-4.206
N12370 Y1697.678 Z-4.568
N12375 Y1700.728 Z-5.236
N12380 Y1703.669 Z-6.227
N12385 Y1706.039 Z-7.362
N12390 Y1708.213 Z-8.763
N12395 Y1709.95 Z-10.225
N12400 Y1711.478 Z-11.863
N12405 Y1712.811 Z-13.737
N12410 Y1713.586 Z-15.15
N12415 Y1714.333 Z-16.918
N12420 Y1715.021 Z-19.377
N12425 Y1715.368 Z-21.92
N12430 Y1715.419 Z-40.
N12435 Y1814.513
N12440 G3 Y1814.932 Z-39.903 J0. K0.952
N12445 G2 Y1815.351 Z-39.806 J0.419 K-0.855
N12450 G17 G3 X-64.248 Y1818.209 I-2.857 J0.
N12455 G1 X-73.53
N12460 G3 X-76.388 Y1815.351 I0. J-2.858
N12465 G19 G3 Y1814.932 Z-39.903 J0. K-0.953
N12470 G2 Y1814.513 Z-40. J-0.419 K0.855
N12475 G1 Y1707.737
N12480 Y1707.686 Z-24.471
N12485 Y1707.457 Z-22.585
N12490 Y1706.942 Z-20.399
N12495 Y1706.009 Z-17.986
N12500 Y1704.871 Z-15.96
N12505 Y1703.617 Z-14.271
N12510 Y1701.503 Z-12.144
N12515 Y1698.961 Z-10.295
N12520 Y1695.938 Z-8.732
N12525 Y1693.441 Z-7.802
N12530 Y1689.585 Z-6.823
N12535 Y1686.465 Z-6.327
N12540 Y1682.894 Z-5.991
N12545 Y1677.454 Z-5.796
N12550 Y1670.119 Z-5.894
N12555 Y1660.474 Z-6.3
N12560 Y1603.156 Z-9.346
N12565 Y1562.381 Z-11.111
N12570 Y1518.418 Z-12.598
N12575 Y1473.493 Z-13.766
N12580 Y1416.648 Z-14.852
N12585 Y1351.553 Z-15.689
N12590 Y1276.372 Z-16.233
N12595 Y1200.274 Z-16.443
N12600 Y1098.091 Z-16.325
N12605 Y967.899 Z-15.727
N12610 Y611.247 Z-13.429
N12615 Y501.226 Z-13.004
N12620 Y416.877 Z-12.981
N12625 Y354.532 Z-13.357
N12630 Y298.604 Z-13.994
N12635 Y250.928 Z-14.844
N12640 Y211.504 Z-15.848
N12645 Y189.677 Z-16.566
N12650 Y163.384 Z-17.623
N12655 Y143.61 Z-18.599
N12660 Y126.244 Z-19.65
N12665 Y117.803 Z-20.382
N12670 Y114.244 Z-20.799
N12675 Y110.812 Z-21.418
N12680 Y108.253 Z-22.038
N12685 Y106.694 Z-22.493
N12690 Y105.153 Z-23.005
N12695 Y102.699 Z-23.971
N12700 Y99.326 Z-25.651
N12705 Y96.31 Z-27.58
N12710 Y93.896 Z-29.493
N12715 Y92.687 Z-30.609
N12720 Y90.984 Z-32.397
N12725 Y88.762 Z-35.218
N12730 Y87.107 Z-37.817
N12735 Y85.934 Z-40.
N12740 Y-14.519
N12745 G2 Y-14.938 Z-39.903 J0. K0.952
N12750 G3 Y-15.357 Z-39.806 J-0.419 K-0.855
N12755 G17 G2 X-79.245 Y-18.214 I-2.857 J0.
N12760 G1 X-88.527
N12765 G2 X-91.384 Y-15.357 I0. J2.858
N12770 G1 Y-15.351
N12775 G19 G2 Y-14.932 Z-39.903 J0. K-0.953
N12780 G3 Y-14.513 Z-40. J0.419 K0.855
N12785 G1 Y86.348
N12790 Y86.769 Z-39.231
N12795 Y88.691 Z-36.168
N12800 Y90.326 Z-34.038
N12805 Y92.003 Z-32.177
N12810 Y93.786 Z-30.478
N12815 Y95.045 Z-29.42
N12820 Y96.269 Z-28.493
N12825 Y99.274 Z-26.557
N12830 Y102.703 Z-24.825
N12835 Y105.753 Z-23.635
N12840 Y109.641 Z-22.488
N12845 Y112.806 Z-21.81
N12850 Y116.001 Z-21.319
N12855 Y124.029 Z-20.49
N12860 Y132.081 Z-19.934
N12865 Y149.921 Z-18.922
N12870 Y170.267 Z-17.983
N12875 Y196.923 Z-16.943
N12880 Y220.668 Z-16.18
N12885 Y261.926 Z-15.16
N12890 Y311.435 Z-14.299
N12895 Y371.03 Z-13.63
N12900 Y421.456 Z-13.328
N12905 Y504.889 Z-13.356
N12910 Y613.076 Z-13.772
N12915 Y995.4 Z-16.24
N12920 Y1117.34 Z-16.761
N12925 Y1215.623 Z-16.833
N12930 Y1291.721 Z-16.582
N12935 Y1365.068 Z-16.002
N12940 Y1431.081 Z-15.098
N12945 Y1487.925 Z-13.943
N12950 Y1538.352 Z-12.544
N12955 Y1578.519 Z-11.096
N12960 Y1638.852 Z-8.428
N12965 Y1652.228 Z-7.915
N12970 Y1662.314 Z-7.755
N12975 Y1669.648 Z-7.942
N12980 Y1673.231 Z-8.195
N12985 Y1676.796 Z-8.612
N12990 Y1678.562 Z-8.9
N12995 Y1680.487 Z-9.275
N13000 Y1684.614 Z-10.427
N13005 Y1687.881 Z-11.779
N13010 Y1690.193 Z-13.075
N13015 Y1692.419 Z-14.71
N13020 Y1694.194 Z-16.383
N13025 Y1695.533 Z-18.
N13030 Y1696.842 Z-20.085
N13035 Y1697.773 Z-22.169
N13040 Y1698.461 Z-24.536
N13045 Y1698.82 Z-27.039
N13050 Y1698.875 Z-40.
N13055 Y1814.513
N13060 G3 Y1814.932 Z-39.903 J0. K0.952
N13065 G2 Y1815.351 Z-39.806 J0.419 K-0.855
N13070 G17 G3 X-94.242 Y1818.209 I-2.857 J0.
N13075 G1 X-103.523
N13080 G3 X-106.381 Y1815.351 I0. J-2.858
N13085 G19 G3 Y1814.932 Z-39.903 J0. K-0.953
N13090 G2 Y1814.513 Z-40. J-0.419 K0.855
N13095 G1 Y1688.675
N13100 Y1688.619 Z-29.697
N13105 Y1688.318 Z-27.525
N13110 Y1687.691 Z-25.281
N13115 Y1686.842 Z-23.287
N13120 Y1685.577 Z-21.178
N13125 Y1685.108 Z-20.551
N13130 Y1683.625 Z-18.858
N13135 Y1681.762 Z-17.187
N13140 Y1679.422 Z-15.59
N13145 Y1677.343 Z-14.458
N13150 Y1674.436 Z-13.212
N13155 Y1671.896 Z-12.393
N13160 Y1670.18 Z-11.934
N13165 Y1666.671 Z-11.199
N13170 Y1662.229 Z-10.574
N13175 Y1657.76 Z-10.178
N13180 Y1652.322 Z-9.919
N13185 Y1643.612 Z-9.799
N13190 Y1630.318 Z-10.024
N13195 Y1613.934 Z-10.566
N13200 Y1548.667 Z-12.922
N13205 Y1497.323 Z-14.349
N13210 Y1443.23 Z-15.475
N13215 Y1379.968 Z-16.386
N13220 Y1308.454 Z-17.01
N13225 Y1229.605 Z-17.311
N13230 Y1133.837 Z-17.277
N13235 Y1015.564 Z-16.802
N13240 Y763.432 Z-15.146
N13245 Y599.317 Z-14.137
N13250 Y496.631 Z-13.794
N13255 Y415.949 Z-13.817
N13260 Y360.938 Z-14.28
N13265 Y303.177 Z-15.072
N13270 Y255.502 Z-16.027
N13275 Y215.171 Z-17.15
N13280 Y189.885 Z-18.043
N13285 Y160.142 Z-19.306
N13290 Y140.484 Z-20.316
N13295 Y125.963 Z-21.212
N13300 Y121.143 Z-21.71
N13305 Y115.354 Z-22.429
N13310 Y111.775 Z-23.08
N13315 Y109.802 Z-23.544
N13320 Y106.886 Z-24.392
N13325 Y103.649 Z-25.589
N13330 Y102.156 Z-26.252
N13335 Y100.694 Z-26.978
N13340 Y99.262 Z-27.767
N13345 Y97.865 Z-28.621
N13350 Y95.67 Z-30.154
N13355 Y93.312 Z-32.127
N13360 Y90.99 Z-34.473
N13365 Y88.718 Z-37.308
N13370 Y86.954 Z-40.
N13375 Y-14.515
N13380 G2 Y-14.934 Z-39.903 J0. K0.952
N13385 G3 Y-15.353 Z-39.806 J-0.419 K-0.855
N13390 G17 G2 X-109.238 Y-18.211 I-2.858 J0.
N13395 G1 X-118.52
N13400 G2 X-121.377 Y-15.353 I0. J2.858
N13405 G1 Y-15.352
N13410 G19 G2 Y-14.933 Z-39.903 J0. K-0.953
N13415 G3 Y-14.514 Z-40. J0.419 K0.855
N13420 G1 Y87.843
N13425 Y89.65 Z-37.595
N13430 Y91.978 Z-34.98
N13435 Y94.606 Z-32.585
N13440 Y97.399 Z-30.507
N13445 Y100.643 Z-28.565
N13450 Y104.163 Z-26.901
N13455 Y107.08 Z-25.811
N13460 Y108.625 Z-25.319
N13465 Y110.188 Z-24.879
N13470 Y113.339 Z-24.149
N13475 Y115.528 Z-23.741
N13480 Y123.14 Z-22.667
N13485 Y126.317 Z-22.351
N13490 Y135.987 Z-21.741
N13495 Y154.668 Z-20.715
N13500 Y188.263 Z-19.216
N13505 Y212.304 Z-18.294
N13510 Y239.725 Z-17.423
N13515 Y285.396 Z-16.278
N13520 Y339.661 Z-15.311
N13525 Y403.84 Z-14.532
N13530 Y444.181 Z-14.386
N13535 Y531.281 Z-14.45
N13540 Y640.385 Z-14.904
N13545 Y873.263 Z-16.445
N13550 Y1069.468 Z-17.628
N13555 Y1176.738 Z-17.929
N13560 Y1268.416 Z-17.823
N13565 Y1346.347 Z-17.374
N13570 Y1409.609 Z-16.69
N13575 Y1468.287 Z-15.732
N13580 Y1521.464 Z-14.537
N13585 Y1603.292 Z-12.213
N13590 Y1621.4 Z-11.929
N13595 Y1633.319 Z-12.034
N13600 Y1640.613 Z-12.323
N13605 Y1644.868 Z-12.624
N13610 Y1650.11 Z-13.189
N13615 Y1654.869 Z-13.969
N13620 Y1656.613 Z-14.345
N13625 Y1660.073 Z-15.25
N13630 Y1664.24 Z-16.782
N13635 Y1666.439 Z-17.879
N13640 Y1668.495 Z-19.09
N13645 Y1670.609 Z-20.668
N13650 Y1672.445 Z-22.433
N13655 Y1673.894 Z-24.217
N13660 Y1675.1 Z-26.192
N13665 Y1676.055 Z-28.444
N13670 Y1676.521 Z-30.105
N13675 Y1676.889 Z-32.572
N13680 Y1676.934 Z-40.
N13685 Y1814.513
N13690 G3 Y1814.932 Z-39.903 J0. K0.952
N13695 G2 Y1815.351 Z-39.806 J0.419 K-0.855
N13700 G17 G3 X-124.235 Y1818.209 I-2.857 J0.
N13705 G1 X-133.516
N13710 G3 X-136.374 Y1815.351 I0. J-2.858
N13715 G19 G3 Y1814.932 Z-39.903 J0. K-0.953
N13720 G2 Y1814.513 Z-40. J-0.419 K0.855
N13725 G1 Y1663.416
N13730 Y1663.356 Z-35.262
N13735 Y1663.22 Z-34.172
N13740 Y1662.761 Z-32.113
N13745 Y1662.303 Z-30.807
N13750 Y1661.582 Z-29.251
N13755 Y1660.447 Z-27.398
N13760 Y1658.89 Z-25.499
N13765 Y1656.673 Z-23.46
N13770 Y1654.553 Z-21.957
N13775 Y1651.667 Z-20.357
N13780 Y1648.182 Z-18.882
N13785 Y1644.775 Z-17.814
N13790 Y1642.178 Z-17.137
N13795 Y1637.454 Z-16.193
N13800 Y1631.119 Z-15.35
N13805 Y1624.632 Z-14.795
N13810 Y1617.166 Z-14.415
N13815 Y1606.164 Z-14.173
N13820 Y1590.577 Z-14.166
N13825 Y1565.823 Z-14.556
N13830 Y1481.473 Z-16.373
N13835 Y1416.377 Z-17.417
N13840 Y1347.614 Z-18.133
N13845 Y1268.766 Z-18.555
N13850 Y1176.728 Z-18.634
N13855 Y1068.54 Z-18.303
N13860 Y851.249 Z-16.949
N13865 Y647.71 Z-15.637
N13870 Y542.273 Z-15.216
N13875 Y454.256 Z-15.169
N13880 Y406.58 Z-15.352
N13885 Y343.318 Z-16.254
N13890 Y292.892 Z-17.254
N13895 Y246.133 Z-18.498
N13900 Y220.647 Z-19.338
N13905 Y193.928 Z-20.386
N13910 Y155.804 Z-22.133
N13915 Y137.52 Z-23.123
N13920 Y126.055 Z-23.847
N13925 Y124.445 Z-23.999
N13930 Y119.655 Z-24.722
N13935 Y114.881 Z-25.543
N13940 Y111.725 Z-26.251
N13945 Y108.604 Z-27.126
N13950 Y105.543 Z-28.205
N13955 Y104.036 Z-28.822
N13960 Y102.551 Z-29.494
N13965 Y101.098 Z-30.23
N13970 Y98.626 Z-31.65
N13975 Y95.756 Z-33.64
N13980 Y93.048 Z-35.924
N13985 Y90.445 Z-38.635
N13990 Y89.308 Z-40.
N13995 Y-14.517
N14000 G2 Y-14.936 Z-39.903 J0. K0.952
N14005 G3 Y-15.355 Z-39.806 J-0.419 K-0.855
N14010 G17 G2 X-139.231 Y-18.213 I-2.857 J0.
N14015 G1 X-148.513
N14020 G2 X-151.37 Y-15.355 I0. J2.858
N14025 G19 G2 Y-14.936 Z-39.903 J0. K-0.953
N14030 G3 Y-14.517 Z-40. J0.419 K0.855
N14035 G1 Y92.095
N14040 Y94.105 Z-37.938
N14045 Y96.035 Z-36.258
N14050 Y97.323 Z-35.242
N14055 Y98.662 Z-34.274
N14060 Y101.254 Z-32.663
N14065 Y104.328 Z-31.067
N14070 Y107.321 Z-29.794
N14075 Y110.392 Z-28.748
N14080 Y114.305 Z-27.689
N14085 Y119.844 Z-26.569
N14090 Y124.47 Z-25.774
N14095 Y131.065 Z-25.309
N14100 Y152.502 Z-24.093
N14105 Y194.266 Z-22.1
N14110 Y223.691 Z-20.885
N14115 Y253.579 Z-19.829
N14120 Y301.255 Z-18.479
N14125 Y351.681 Z-17.369
N14130 Y409.442 Z-16.426
N14135 Y461.702 Z-16.177
N14140 Y547.886 Z-16.166
N14145 Y646.905 Z-16.502
N14150 Y817.437 Z-17.525
N14155 Y1075.987 Z-19.155
N14160 Y1185.091 Z-19.489
N14165 Y1279.061 Z-19.401
N14170 Y1357.909 Z-18.976
N14175 Y1431.257 Z-18.229
N14180 Y1518.357 Z-16.916
N14185 Y1555.947 Z-16.445
N14190 Y1576.118 Z-16.438
N14195 Y1589.87 Z-16.652
N14200 Y1600.376 Z-17.052
N14205 Y1609.672 Z-17.7
N14210 Y1615.923 Z-18.39
N14215 Y1619.469 Z-18.927
N14220 Y1623.879 Z-19.712
N14225 Y1629.09 Z-21.008
N14230 Y1633.216 Z-22.428
N14235 Y1636.359 Z-23.825
N14240 Y1638.843 Z-25.219
N14245 Y1641.104 Z-26.805
N14250 Y1642.937 Z-28.423
N14255 Y1644.378 Z-30.034
N14260 Y1645.597 Z-31.774
N14265 Y1646.492 Z-33.464
N14270 Y1647.219 Z-35.43
N14275 Y1647.66 Z-37.495
N14280 Y1647.812 Z-40.
N14285 Y1814.513
N14290 G3 Y1814.932 Z-39.903 J0. K0.952
N14295 G2 Y1815.351 Z-39.806 J0.419 K-0.855
N14300 G17 G3 X-154.228 Y1818.209 I-2.857 J0.
N14305 G1 X-163.51
N14310 G3 X-166.367 Y1815.351 I0. J-2.858
N14315 G19 G3 Y1814.932 Z-39.903 J0. K-0.953
N14320 G2 Y1814.513 Z-40. J-0.419 K0.855
N14325 G1 Y1629.437 Z-39.997
N14330 Y1628.992 Z-38.277
N14335 Y1628.199 Z-36.364
N14340 Y1627.151 Z-34.582
N14345 Y1625.704 Z-32.744
N14350 Y1623.804 Z-30.926
N14355 Y1621.597 Z-29.261
N14360 Y1619.391 Z-27.914
N14365 Y1615.998 Z-26.274
N14370 Y1612.874 Z-25.078
N14375 Y1607.724 Z-23.557
N14380 Y1605.112 Z-22.971
N14385 Y1600.005 Z-21.97
N14390 Y1591.959 Z-20.87
N14395 Y1582.036 Z-19.994
N14400 Y1570.664 Z-19.385
N14405 Y1556.702 Z-18.98
N14410 Y1539.282 Z-18.778
N14415 Y1514.527 Z-18.775
N14420 Y1461.351 Z-19.208
N14425 Y1365.082 Z-20.066
N14430 Y1279.816 Z-20.462
N14435 Y1181.409 Z-20.5
N14440 Y1070.471 Z-20.112
N14445 Y698.233 Z-17.824
N14450 Y583.628 Z-17.394
N14455 Y501.544 Z-17.377
N14460 Y436.449 Z-17.619
N14465 Y405.276 Z-17.895
N14470 Y345.681 Z-19.096
N14475 Y290.671 Z-20.538
N14480 Y259.582 Z-21.527
N14485 Y225.573 Z-22.791
N14490 Y199.693 Z-23.905
N14495 Y151.571 Z-26.251
N14500 Y135.174 Z-27.19
N14505 Y125.325 Z-27.822
N14510 Y123.717 Z-28.042
N14515 Y122.126 Z-28.341
N14520 Y117.415 Z-29.486
N14525 Y112.748 Z-30.847
N14530 Y111.214 Z-31.382
N14535 Y108.217 Z-32.625
N14540 Y106.02 Z-33.692
N14545 Y102.858 Z-35.541
N14550 Y99.409 Z-38.11
N14555 Y97.368 Z-40.
N14560 Y-14.513
N14565 G2 Y-14.932 Z-39.903 J0. K0.952
N14570 G3 Y-15.352 Z-39.806 J-0.419 K-0.855
N14575 G17 G2 X-169.225 Y-18.209 I-2.857 J0.
N14580 G1 X-178.506
N14585 G2 X-181.364 Y-15.352 I0. J2.858
N14590 G1 Y-15.345
N14595 G19 G2 Y-14.926 Z-39.903 J0. K-0.953
N14600 G3 Y-14.507 Z-40. J0.419 K0.855
N14605 G1 Y105.528
N14610 Y106.172 Z-39.44
N14615 Y108.139 Z-37.943
N14620 Y110.883 Z-36.155
N14625 Y114.32 Z-34.391
N14630 Y118.264 Z-32.737
N14635 Y121.696 Z-31.532
N14640 Y124.467 Z-30.908
N14645 Y135.291 Z-30.04
N14650 Y157.407 Z-28.623
N14655 Y189.772 Z-26.853
N14660 Y216.89 Z-25.535
N14665 Y243.069 Z-24.408
N14670 Y277.958 Z-23.116
N14675 Y307.177 Z-22.172
N14680 Y366.771 Z-20.563
N14685 Y411.697 Z-19.608
N14690 Y469.458 Z-19.109
N14695 Y545.556 Z-18.858
N14700 Y628.071 Z-18.906
N14705 Y750.928 Z-19.381
N14710 Y1073.657 Z-21.324
N14715 Y1188.262 Z-21.75
N14720 Y1291.456 Z-21.757
N14725 Y1454.654 Z-21.151
N14730 Y1488.577 Z-21.161
N14735 Y1512.415 Z-21.354
N14740 Y1533.503 Z-21.795
N14745 Y1547.873 Z-22.381
N14750 Y1554.871 Z-22.82
N14755 Y1562.748 Z-23.416
N14760 Y1572.647 Z-24.528
N14765 Y1580.878 Z-25.894
N14770 Y1584.194 Z-26.646
N14775 Y1588.534 Z-27.738
N14780 Y1592.778 Z-29.143
N14785 Y1596.074 Z-30.513
N14790 Y1599.219 Z-32.151
N14795 Y1602.116 Z-34.106
N14800 Y1604.064 Z-35.805
N14805 Y1605.745 Z-37.697
N14810 Y1607.178 Z-40.
N14815 Y1814.513
N14820 G3 Y1814.932 Z-39.903 J0. K0.952
N14825 G2 Y1815.351 Z-39.806 J0.419 K-0.855
N14830 G17 G3 X-184.221 Y1818.209 I-2.857 J0.
N14835 G1 X-193.503
N14840 G3 X-196.36 Y1815.351 I0. J-2.858
N14845 G19 G3 Y1814.932 Z-39.903 J0. K-0.953
N14850 G2 Y1814.513 Z-40. J-0.419 K0.855
N14855 G1 Y1579.55
N14860 Y1577.953 Z-38.534
N14865 Y1575.379 Z-36.686
N14870 Y1572.287 Z-34.975
N14875 Y1568.216 Z-33.206
N14880 Y1563.233 Z-31.543
N14885 Y1557.916 Z-30.175
N14890 Y1550.166 Z-28.662
N14895 Y1544.126 Z-27.821
N14900 Y1537.399 Z-26.994
N14905 Y1523.889 Z-25.855
N14910 Y1507.283 Z-24.964
N14915 Y1485.292 Z-24.269
N14920 Y1454.119 Z-23.787
N14925 Y1417.445 Z-23.558
N14930 Y1362.47 Z-23.479
N14935 Y1208.009 Z-23.356
N14940 Y1087.902 Z-22.885
N14945 Y910.035 Z-21.772
N14950 Y739.502 Z-20.911
N14955 Y628.564 Z-20.639
N14960 Y550.633 Z-20.733
N14965 Y480.036 Z-21.099
N14970 Y414.94 Z-21.79
N14975 Y385.601 Z-22.454
N14980 Y326.006 Z-24.137
N14985 Y296.918 Z-25.134
N14990 Y259.54 Z-26.594
N14995 Y226.584 Z-28.171
N15000 Y208.719 Z-29.122
N15005 Y181.037 Z-30.884
N15010 Y155.179 Z-32.799
N15015 Y136.337 Z-34.566
N15020 Y124.534 Z-35.948
N15025 Y122.548 Z-36.387
N15030 Y120.441 Z-37.221
N15035 Y118.27 Z-38.394
N15040 Y116.104 Z-40.
N15045 Y-14.517
N15050 G2 Y-14.936 Z-39.903 J0. K0.952
N15055 G3 Y-15.355 Z-39.806 J-0.419 K-0.855
N15060 G17 G2 X-199.218 Y-18.213 I-2.857 J0.
N15065 G1 X-208.499
N15070 G2 X-211.357 Y-15.355 I0. J2.857
N15075 G1 Y-15.347
N15080 G19 G2 Y-14.928 Z-39.903 J0. K-0.953
N15085 G3 Y-14.508 Z-40. J0.419 K0.855
N15090 G1 Y157.66
N15095 Y160.832 Z-39.475
N15100 Y177.59 Z-37.211
N15105 Y191.191 Z-35.742
N15110 Y202.615 Z-34.604
N15115 Y228.059 Z-32.565
N15120 Y241.091 Z-31.704
N15125 Y269.65 Z-30.006
N15130 Y296.78 Z-28.714
N15135 Y332.796 Z-27.194
N15140 Y369.912 Z-25.95
N15145 Y413.921 Z-24.693
N15150 Y447.844 Z-24.104
N15155 Y512.94 Z-23.343
N15160 Y592.705 Z-22.894
N15165 Y666.052 Z-22.794
N15170 Y774.24 Z-23.005
N15175 Y939.271 Z-23.764
N15180 Y1107.053 Z-24.906
N15185 Y1296.84 Z-25.792
N15190 Y1366.52 Z-26.179
N15195 Y1415.112 Z-26.723
N15200 Y1450.869 Z-27.514
N15205 Y1475.237 Z-28.49
N15210 Y1491.015 Z-29.496
N15215 Y1496.389 Z-29.903
N15220 Y1509.875 Z-31.288
N15225 Y1517.246 Z-32.374
N15230 Y1522.561 Z-33.24
N15235 Y1528.525 Z-34.504
N15240 Y1532.861 Z-35.641
N15245 Y1535.341 Z-36.376
N15250 Y1539.566 Z-37.872
N15255 Y1542.572 Z-39.216
N15260 Y1544.089 Z-39.968
N15265 Y1814.513 Z-40.
N15270 G3 Y1814.932 Z-39.903 J0. K0.952
N15275 G2 Y1815.351 Z-39.806 J0.419 K-0.855
N15280 G17 G3 X-214.214 Y1818.209 I-2.857 J0.
N15285 G1 X-223.496
N15290 G3 X-226.353 Y1815.351 I0. J-2.858
N15295 G19 G3 Y1814.932 Z-39.903 J0. K-0.953
N15300 G2 Y1814.513 Z-40. J-0.419 K0.855
N15305 G1 Y1495.437 Z-39.975
N15310 Y1491.181 Z-38.91
N15315 Y1485.214 Z-37.65
N15320 Y1477.424 Z-36.345
N15325 Y1471.193 Z-35.533
N15330 Y1459.954 Z-34.245
N15335 Y1448.495 Z-33.329
N15340 Y1437.925 Z-32.558
N15345 Y1420.039 Z-31.673
N15350 Y1405.541 Z-31.067
N15355 Y1366.117 Z-30.002
N15360 Y1306.522 Z-29.096
N15365 Y1191.917 Z-28.102
N15370 Y967.29 Z-26.345
N15375 Y820.596 Z-25.655
N15380 Y716.076 Z-25.463
N15385 Y631.726 Z-25.599
N15390 Y555.628 Z-26.13
N15395 Y498.784 Z-26.787
N15400 Y437.355 Z-27.977
N15405 Y412.624 Z-28.612
N15410 Y385.308 Z-29.601
N15415 Y348.255 Z-31.132
N15420 Y331.275 Z-31.998
N15425 Y303.174 Z-33.615
N15430 Y289.731 Z-34.487
N15435 Y265.566 Z-36.413
N15440 Y254.352 Z-37.432
N15445 Y233.974 Z-39.681
N15450 Y231.445 Z-40.
N15455 Y-14.513
N15460 G2 Y-14.932 Z-39.903 J0. K0.952
N15465 G3 Y-15.351 Z-39.806 J-0.419 K-0.855
N15470 G17 G2 X-229.211 Y-18.208 I-2.857 J0.
N15475 G1 X-238.492
N15480 G2 X-241.35 Y-15.351 I0. J2.858
N15485 G1 Y-15.347
N15490 G19 G2 Y-14.928 Z-39.903 J0. K-0.953
N15495 G3 Y-14.509 Z-40. J0.419 K0.855
N15500 G1 Y327.33
N15505 Y337.709 Z-39.125
N15510 Y360.45 Z-37.335
N15515 Y375.138 Z-36.359
N15520 Y403.517 Z-34.794
N15525 Y425.632 Z-33.713
N15530 Y451.805 Z-32.787
N15535 Y493.942 Z-31.499
N15540 Y540.701 Z-30.556
N15545 Y603.046 Z-29.634
N15550 Y670.892 Z-29.157
N15555 Y751.574 Z-28.933
N15560 Y839.591 Z-29.037
N15565 Y948.695 Z-29.553
N15570 Y1025.71 Z-30.232
N15575 Y1218.247 Z-32.245
N15580 Y1288.844 Z-33.435
N15585 Y1313.599 Z-33.991
N15590 Y1352.99 Z-35.233
N15595 Y1366.531 Z-35.867
N15600 Y1388.809 Z-37.066
N15605 Y1396.688 Z-37.669
N15610 Y1413.514 Z-39.103
N15615 Y1421.364 Z-39.999
N15620 Y1814.513 Z-40.
N15625 G3 Y1814.932 Z-39.903 J0. K0.952
N15630 G2 Y1815.351 Z-39.806 J0.419 K-0.855
N15635 G17 G3 X-244.207 Y1818.209 I-2.857 J0.
N15640 G1 X-253.489
N15645 G3 X-256.346 Y1815.351 I0. J-2.857
N15650 G19 G3 Y1814.932 Z-39.903 J0. K-0.953
N15655 G2 Y1814.513 Z-40. J-0.419 K0.855
N15660 G1 Y1279.791 Z-39.972
N15665 Y1253.036 Z-39.08
N15670 Y1205.36 Z-37.754
N15675 Y1128.345 Z-36.411
N15680 Y1024.742 Z-34.986
N15685 Y954.145 Z-34.231
N15690 Y852.376 Z-33.686
N15695 Y783.612 Z-33.603
N15700 Y715.766 Z-33.894
N15705 Y653.421 Z-34.478
N15710 Y603.911 Z-35.196
N15715 Y554.402 Z-36.431
N15720 Y518.701 Z-37.522
N15725 Y499.396 Z-38.338
N15730 Y470.13 Z-39.777
N15735 Y464.677 Z-40.
N15740 Y-14.511
N15745 G2 Y-14.93 Z-39.903 J0. K0.952
N15750 G3 Y-15.35 Z-39.806 J-0.419 K-0.855
N15755 G1 Y-15.354
N15760 G17 G2 X-259.204 Y-18.212 I-2.857 J0.
N15765 G1 X-268.486
N15770 G2 X-271.343 Y-15.354 I0. J2.857
N15775 G19 G2 Y-14.935 Z-39.903 J0. K-0.953
N15780 G3 Y-14.516 Z-40. J0.419 K0.855
N15785 G1 Y1814.513
N15790 G3 Y1814.932 Z-39.903 J0. K0.952
N15795 G2 Y1815.351 Z-39.806 J0.419 K-0.855
N15800 G17 G3 X-274.201 Y1818.209 I-2.857 J0.
N15805 G1 X-283.482
N15810 G3 X-286.34 Y1815.351 I0. J-2.858
N15815 G19 G3 Y1814.932 Z-39.903 J0. K-0.953
N15820 G2 Y1814.513 Z-40. J-0.419 K0.855
N15825 G1 Y-14.516
N15830 G2 Y-14.935 Z-39.903 J0. K0.952
N15835 G3 Y-15.354 Z-39.806 J-0.419 K-0.855
N15840 G17 G2 X-289.197 Y-18.212 I-2.858 J0.
N15845 G1 X-298.479
N15850 G2 X-301.336 Y-15.354 I0. J2.857
N15855 G1 Y-14.008
N15860 G19 G2 Y-13.589 Z-39.903 J0. K-0.953
N15865 G3 Y-13.169 Z-40. J0.419 K0.855
N15870 G1 Y1813.181
N15875 G3 Y1815.086 Z-38.095 J0. K1.905 F1000.
N15880 G0 Z15.
N15885 G17
(PARALLEL1 3)
N15890 G0 X302.024 Y1804.394
N15895 Z15.
N15900 Z-55.095
N15905 G19 G2 Y1802.489 Z-57. J-1.905 K0. F1000.
N15910 G1 Y-2.489 F4000.
N15915 G2 Y-2.908 Z-56.903 J0. K0.952
N15920 G3 Y-3.327 Z-56.806 J-0.419 K-0.855
N15925 G1 Y-5.349
N15930 G17 G2 X299.166 Y-8.206 I-2.858 J0.
N15935 G1 X289.885
N15940 G2 X287.027 Y-5.349 I0. J2.858
N15945 G19 G2 Y-4.93 Z-56.903 J0. K-0.953
N15950 G3 Y-4.51 Z-57. J0.419 K0.855
N15955 G1 Y755.765
N15960 Y762.406 Z-56.802
N15965 Y790.13 Z-56.139
N15970 Y818.721 Z-55.725
N15975 Y845.578 Z-55.525
N15980 Y873.302 Z-55.51
N15985 Y907.957 Z-55.745
N15990 Y946.944 Z-56.344
N15995 Y974.667 Z-56.955
N16000 Y1804.519 Z-57.
N16005 G3 Y1804.938 Z-56.903 J0. K0.952
N16010 G2 Y1805.357 Z-56.806 J0.419 K-0.855
N16015 G1 Y1805.358
N16020 G17 G3 X284.17 Y1808.215 I-2.858 J0.
N16025 G1 X274.888
N16030 G3 X272.031 Y1805.358 I0. J-2.857
N16035 G19 G3 Y1804.938 Z-56.903 J0. K-0.953
N16040 G2 Y1804.519 Z-57. J-0.419 K0.855
N16045 G1 Y1282.572 Z-56.963
N16050 Y1270.15 Z-55.103
N16055 Y1262.563 Z-54.228
N16060 Y1249.401 Z-52.831
N16065 Y1234.169 Z-51.594
N16070 Y1218.925 Z-50.501
N16075 Y1195.712 Z-49.242
N16080 Y1175.785 Z-48.309
N16085 Y1141.154 Z-47.075
N16090 Y1107.365 Z-46.082
N16095 Y1043.254 Z-44.76
N16100 Y970.479 Z-43.583
N16105 Y908.966 Z-42.966
N16110 Y853.518 Z-42.699
N16115 Y801.536 Z-42.752
N16120 Y749.554 Z-43.115
N16125 Y698.438 Z-43.786
N16130 Y669.848 Z-44.41
N16135 Y626.529 Z-45.716
N16140 Y608.165 Z-46.418
N16145 Y578.786 Z-47.866
N16150 Y561.25 Z-48.889
N16155 Y537.644 Z-50.615
N16160 Y525.318 Z-51.694
N16165 Y508.098 Z-53.47
N16170 Y498.175 Z-54.715
N16175 Y485.239 Z-56.559
N16180 Y482.582 Z-57.
N16185 Y-4.511
N16190 G2 Y-4.93 Z-56.903 J0. K0.952
N16195 G3 Y-5.349 Z-56.806 J-0.419 K-0.855
N16200 G1 Y-5.355
N16205 G17 G2 X269.173 Y-8.212 I-2.857 J0.
N16210 G1 X259.892
N16215 G2 X257.034 Y-5.355 I0. J2.858
N16220 G19 G2 Y-4.935 Z-56.903 J0. K-0.953
N16225 G3 Y-4.516 Z-57. J0.419 K0.855
N16230 G1 Y349.901
N16235 Y357.146 Z-54.998
N16240 Y366.434 Z-53.006
N16245 Y372.429 Z-51.857
N16250 Y385.918 Z-49.721
N16255 Y395.92 Z-48.423
N16260 Y410.826 Z-46.683
N16265 Y427.974 Z-45.065
N16270 Y440.225 Z-44.027
N16275 Y466.133 Z-42.237
N16280 Y486.561 Z-41.148
N16285 Y520.056 Z-39.618
N16290 Y539.513 Z-38.888
N16295 Y591.496 Z-37.495
N16300 Y633.948 Z-36.63
N16305 Y693.727 Z-35.966
N16310 Y758.705 Z-35.573
N16315 Y828.015 Z-35.496
N16320 Y898.191 Z-35.744
N16325 Y974.432 Z-36.307
N16330 Y1087.927 Z-37.733
N16335 Y1177.163 Z-39.142
N16340 Y1213.55 Z-39.998
N16345 Y1263.8 Z-41.477
N16350 Y1290.658 Z-42.706
N16355 Y1311.364 Z-43.79
N16360 Y1325.762 Z-44.829
N16365 Y1336.761 Z-45.729
N16370 Y1351.96 Z-47.309
N16375 Y1364.403 Z-49.01
N16380 Y1370.917 Z-50.142
N16385 Y1377.58 Z-51.429
N16390 Y1380.704 Z-52.198
N16395 Y1386.43 Z-53.725
N16400 Y1390.446 Z-55.066
N16405 Y1392.022 Z-55.649
N16410 Y1394.92 Z-56.995
N16415 Y1804.519 Z-57.
N16420 G3 Y1804.938 Z-56.903 J0. K0.952
N16425 G2 Y1805.357 Z-56.806 J0.419 K-0.855
N16430 G17 G3 X254.177 Y1808.215 I-2.857 J0.
N16435 G1 X244.895
N16440 G3 X242.038 Y1805.357 I0. J-2.858
N16445 G19 G3 Y1804.938 Z-56.903 J0. K-0.953
N16450 G2 Y1804.519 Z-57. J-0.419 K0.855
N16455 G1 Y1463.359 Z-56.98
N16460 Y1462.479 Z-55.838
N16465 Y1460.699 Z-54.14
N16470 Y1457.991 Z-52.293
N16475 Y1455.804 Z-51.114
N16480 Y1452.744 Z-49.684
N16485 Y1447.96 Z-47.989
N16490 Y1442.877 Z-46.534
N16495 Y1438.144 Z-45.401
N16500 Y1431.49 Z-44.059
N16505 Y1421.431 Z-42.477
N16510 Y1413.007 Z-41.443
N16515 Y1406.257 Z-40.699
N16520 Y1392.721 Z-39.568
N16525 Y1380.869 Z-38.672
N16530 Y1348.012 Z-37.009
N16535 Y1307.293 Z-35.729
N16540 Y1283.901 Z-35.166
N16545 Y1203.328 Z-33.836
N16550 Y984.136 Z-31.579
N16555 Y930.421 Z-31.199
N16560 Y829.056 Z-30.755
N16565 Y742.419 Z-30.689
N16570 Y662.712 Z-30.945
N16575 Y614.196 Z-31.314
N16580 Y550.084 Z-32.209
N16585 Y507.632 Z-33.024
N16590 Y454.783 Z-34.588
N16595 Y435.149 Z-35.288
N16600 Y404.733 Z-36.75
N16605 Y380.949 Z-38.064
N16610 Y364.454 Z-39.239
N16615 Y340.286 Z-41.127
N16620 Y329.472 Z-42.186
N16625 Y315.137 Z-43.725
N16630 Y300.088 Z-45.721
N16635 Y293.307 Z-46.788
N16640 Y283.779 Z-48.448
N16645 Y276.149 Z-50.079
N16650 Y271.519 Z-51.158
N16655 Y263.555 Z-53.432
N16660 Y259.685 Z-54.835
N16665 Y255.968 Z-56.308
N16670 Y254.567 Z-57.
N16675 Y-4.513
N16680 G2 Y-4.932 Z-56.903 J0. K0.952
N16685 G3 Y-5.351 Z-56.806 J-0.419 K-0.855
N16690 G17 G2 X239.18 Y-8.209 I-2.857 J0.
N16695 G1 X229.899
N16700 G2 X227.041 Y-5.351 I0. J2.858
N16705 G1 Y-5.35
N16710 G19 G2 Y-4.93 Z-56.903 J0. K-0.953
N16715 G3 Y-4.511 Z-57. J0.419 K0.855
N16720 G1 Y180.31
N16725 Y180.497 Z-56.89
N16730 Y184.234 Z-54.477
N16735 Y187.836 Z-52.747
N16740 Y190.447 Z-51.658
N16745 Y196.082 Z-49.699
N16750 Y203.421 Z-47.66
N16755 Y210.287 Z-46.112
N16760 Y215.188 Z-45.102
N16765 Y226.556 Z-43.143
N16770 Y240.08 Z-41.247
N16775 Y248. Z-40.338
N16780 Y266.302 Z-38.414
N16785 Y278.218 Z-37.424
N16790 Y301.301 Z-35.658
N16795 Y318.071 Z-34.645
N16800 Y346.086 Z-33.11
N16805 Y363.142 Z-32.307
N16810 Y398.861 Z-30.899
N16815 Y421.339 Z-30.151
N16820 Y448.196 Z-29.489
N16825 Y510.575 Z-28.343
N16830 Y559.958 Z-27.79
N16835 Y637.932 Z-27.269
N16840 Y702.043 Z-27.13
N16845 Y806.008 Z-27.274
N16850 Y947.226 Z-27.895
N16855 Y1168.151 Z-29.607
N16860 Y1295.508 Z-30.698
N16865 Y1358.753 Z-31.633
N16870 Y1401.205 Z-32.758
N16875 Y1431.504 Z-34.138
N16880 Y1449.288 Z-35.421
N16885 Y1455.629 Z-35.969
N16890 Y1469.545 Z-37.556
N16895 Y1476.255 Z-38.589
N16900 Y1480.432 Z-39.301
N16905 Y1487.583 Z-40.819
N16910 Y1493.603 Z-42.48
N16915 Y1498.387 Z-44.163
N16920 Y1502.962 Z-46.272
N16925 Y1505.126 Z-47.574
N16930 Y1506.451 Z-48.499
N16935 Y1508.284 Z-50.09
N16940 Y1509.349 Z-51.325
N16945 Y1510.372 Z-52.77
N16950 Y1511.239 Z-54.812
N16955 Y1511.55 Z-57.
N16960 Y1804.519
N16965 G3 Y1804.938 Z-56.903 J0. K0.952
N16970 G2 Y1805.357 Z-56.806 J0.419 K-0.855
N16975 G17 G3 X224.184 Y1808.215 I-2.857 J0.
N16980 G1 X214.902
N16985 G3 X212.045 Y1805.357 I0. J-2.858
N16990 G19 G3 Y1804.938 Z-56.903 J0. K-0.953
N16995 G2 Y1804.519 Z-57. J-0.419 K0.855
N17000 G1 Y1548.783
N17005 Y1548.736 Z-52.494
N17010 Y1548.493 Z-50.802
N17015 Y1547.807 Z-48.898
N17020 Y1546.601 Z-46.932
N17025 Y1545.014 Z-45.185
N17030 Y1543.82 Z-44.151
N17035 Y1541.788 Z-42.656
N17040 Y1538.894 Z-40.992
N17045 Y1535.053 Z-39.286
N17050 Y1531.27 Z-37.948
N17055 Y1528.639 Z-37.17
N17060 Y1524.539 Z-36.087
N17065 Y1517.691 Z-34.67
N17070 Y1506.994 Z-33.055
N17075 Y1501.936 Z-32.485
N17080 Y1490.952 Z-31.414
N17085 Y1478.235 Z-30.566
N17090 Y1469.281 Z-30.049
N17095 Y1442.857 Z-29.068
N17100 Y1408.202 Z-28.338
N17105 Y1358.819 Z-27.799
N17110 Y1285.177 Z-27.389
N17115 Y1094.575 Z-26.45
N17120 Y940.361 Z-25.386
N17125 Y774.018 Z-24.623
N17130 Y664.855 Z-24.416
N17135 Y590.347 Z-24.545
N17140 Y514.973 Z-24.981
N17145 Y445.663 Z-25.803
N17150 Y405.81 Z-26.583
N17155 Y348.629 Z-28.344
N17160 Y319.831 Z-29.47
N17165 Y283.43 Z-31.08
N17170 Y263.58 Z-32.172
N17175 Y238.302 Z-33.704
N17180 Y215.047 Z-35.496
N17185 Y204.999 Z-36.361
N17190 Y185.005 Z-38.438
N17195 Y167.689 Z-40.743
N17200 Y156.816 Z-42.567
N17205 Y148.594 Z-44.254
N17210 Y141.193 Z-46.114
N17215 Y135.01 Z-48.041
N17220 Y130.034 Z-49.988
N17225 Y126.523 Z-51.731
N17230 Y124.448 Z-53.008
N17235 Y122.572 Z-54.381
N17240 Y121.72 Z-55.407
N17245 Y120.763 Z-57.
N17250 Y-4.509
N17255 G2 Y-4.928 Z-56.903 J0. K0.952
N17260 G3 Y-5.347 Z-56.806 J-0.419 K-0.855
N17265 G1 Y-5.356
N17270 G17 G2 X209.187 Y-8.213 I-2.857 J0.
N17275 G1 X199.906
N17280 G2 X197.048 Y-5.356 I0. J2.857
N17285 G19 G2 Y-4.937 Z-56.903 J0. K-0.953
N17290 G3 Y-4.517 Z-57. J0.419 K0.855
N17295 G1 Y108.043
N17300 Y108.413 Z-55.204
N17305 Y109.258 Z-52.503
N17310 Y110.203 Z-50.321
N17315 Y110.983 Z-48.877
N17320 Y111.417 Z-48.149
N17325 Y112.754 Z-46.232
N17330 Y114.295 Z-44.403
N17335 Y116.56 Z-42.172
N17340 Y118.992 Z-40.282
N17345 Y121.357 Z-38.935
N17350 Y123.176 Z-38.232
N17355 Y124.678 Z-37.908
N17360 Y139.235 Z-36.179
N17365 Y157.418 Z-34.453
N17370 Y183.925 Z-32.442
N17375 Y210.663 Z-30.756
N17380 Y229.244 Z-29.742
N17385 Y263.69 Z-28.109
N17390 Y292.191 Z-26.982
N17395 Y327.465 Z-25.746
N17400 Y385.512 Z-24.104
N17405 Y416.701 Z-23.397
N17410 Y479.947 Z-22.727
N17415 Y542.325 Z-22.371
N17420 Y628.963 Z-22.236
N17425 Y739.858 Z-22.506
N17430 Y912.266 Z-23.373
N17435 Y1088.14 Z-24.476
N17440 Y1208.565 Z-24.947
N17445 Y1367.607 Z-25.102
N17450 Y1411.762 Z-25.184
N17455 Y1449.016 Z-25.412
N17460 Y1479.339 Z-25.865
N17465 Y1503.598 Z-26.589
N17470 Y1519.558 Z-27.425
N17475 Y1525.906 Z-27.909
N17480 Y1535.206 Z-28.724
N17485 Y1545.307 Z-30.012
N17490 Y1549.484 Z-30.742
N17495 Y1555.302 Z-31.895
N17500 Y1560.214 Z-33.19
N17505 Y1565.01 Z-34.816
N17510 Y1568.105 Z-36.146
N17515 Y1571.051 Z-37.724
N17520 Y1573.776 Z-39.602
N17525 Y1575.755 Z-41.39
N17530 Y1577.317 Z-43.35
N17535 Y1578.394 Z-45.336
N17540 Y1579.035 Z-47.358
N17545 Y1579.249 Z-49.146
N17550 Y1579.272 Z-57.
N17555 Y1804.519
N17560 G3 Y1804.938 Z-56.903 J0. K0.952
N17565 G2 Y1805.357 Z-56.806 J0.419 K-0.855
N17570 G17 G3 X194.191 Y1808.215 I-2.857 J0.
N17575 G1 X184.909
N17580 G3 X182.052 Y1805.357 I0. J-2.858
N17585 G19 G3 Y1804.938 Z-56.903 J0. K-0.953
N17590 G2 Y1804.519 Z-57. J-0.419 K0.855
N17595 G1 Y1604.75
N17600 Y1604.721 Z-45.678
N17605 Y1604.495 Z-43.852
N17610 Y1603.94 Z-41.966
N17615 Y1603.507 Z-40.964
N17620 Y1602.448 Z-39.181
N17625 Y1601.076 Z-37.49
N17630 Y1599.959 Z-36.387
N17635 Y1597.908 Z-34.76
N17640 Y1595.266 Z-33.106
N17645 Y1592.156 Z-31.589
N17650 Y1588.625 Z-30.214
N17655 Y1584.995 Z-29.082
N17660 Y1578.307 Z-27.499
N17665 Y1570.449 Z-26.205
N17670 Y1566.662 Z-25.739
N17675 Y1559.064 Z-24.938
N17680 Y1546.36 Z-24.064
N17685 Y1529.033 Z-23.386
N17690 Y1509.106 Z-22.982
N17695 Y1483.981 Z-22.787
N17700 Y1444.995
N17705 Y1289.914 Z-23.336
N17710 Y1190.019 Z-23.321
N17715 Y1075.658 Z-22.904
N17720 Y753.367 Z-20.965
N17725 Y629.476 Z-20.485
N17730 Y540.24 Z-20.453
N17735 Y470.93 Z-20.701
N17740 Y412.017 Z-21.205
N17745 Y370.431 Z-22.093
N17750 Y310.651 Z-23.688
N17755 Y274.322 Z-24.877
N17760 Y241.82 Z-26.093
N17765 Y208.232 Z-27.589
N17770 Y190.211 Z-28.5
N17775 Y159.3 Z-30.203
N17780 Y139.111 Z-31.477
N17785 Y125.082 Z-32.557
N17790 Y122.824 Z-33.004
N17795 Y120.434 Z-33.751
N17800 Y116.009 Z-35.569
N17805 Y112.243 Z-37.492
N17810 Y109.018 Z-39.605
N17815 Y106.052 Z-42.121
N17820 Y103.677 Z-44.737
N17825 Y102.955 Z-45.702
N17830 Y102.051 Z-47.036
N17835 Y100.702 Z-49.458
N17840 Y99.848 Z-51.413
N17845 Y99.109 Z-53.595
N17850 Y98.47 Z-56.47
N17855 Y98.382 Z-57.
N17860 Y-4.52
N17865 G2 Y-4.939 Z-56.903 J0. K0.952
N17870 G3 Y-5.358 Z-56.806 J-0.419 K-0.855
N17875 G17 G2 X179.194 Y-8.215 I-2.858 J0.
N17880 G1 X169.913
N17885 G2 X167.055 Y-5.358 I0. J2.857
N17890 G1 Y-5.354
N17895 G19 G2 Y-4.935 Z-56.903 J0. K-0.953
N17900 G3 Y-4.515 Z-57. J0.419 K0.855
N17905 G1 Y90.418
N17910 Y90.529 Z-56.385
N17915 Y91.058 Z-54.144
N17920 Y91.545 Z-52.574
N17925 Y92.119 Z-51.044
N17930 Y93.073 Z-48.945
N17935 Y94.655 Z-46.185
N17940 Y96.164 Z-44.072
N17945 Y97.54 Z-42.412
N17950 Y99.881 Z-40.075
N17955 Y101.46 Z-38.731
N17960 Y104.188 Z-36.756
N17965 Y107.787 Z-34.715
N17970 Y111.301 Z-33.176
N17975 Y113.916 Z-32.228
N17980 Y115.38 Z-31.791
N17985 Y119.803 Z-30.589
N17990 Y123.716 Z-29.692
N17995 Y125.803 Z-29.421
N18000 Y148.325 Z-28.048
N18005 Y193.2 Z-25.828
N18010 Y223.345 Z-24.493
N18015 Y255.634 Z-23.277
N18020 Y291.98 Z-22.101
N18025 Y347.428 Z-20.652
N18030 Y404.608 Z-19.487
N18035 Y433.199 Z-19.219
N18040 Y499.909 Z-18.95
N18045 Y590.878 Z-18.975
N18050 Y704.373 Z-19.414
N18055 Y1047.456 Z-21.543
N18060 Y1162.684 Z-22.018
N18065 Y1263.006 Z-22.055
N18070 Y1347.423 Z-21.737
N18075 Y1437.146 Z-21.029
N18080 Y1507.323 Z-20.413
N18085 Y1535.046 Z-20.398
N18090 Y1553.24 Z-20.59
N18095 Y1568.402 Z-21.011
N18100 Y1579.577 Z-21.6
N18105 Y1589.302 Z-22.435
N18110 Y1596.613 Z-23.389
N18115 Y1601.875 Z-24.356
N18120 Y1605.182 Z-25.072
N18125 Y1609.656 Z-26.354
N18130 Y1613.021 Z-27.592
N18135 Y1616.066 Z-28.998
N18140 Y1618.483 Z-30.418
N18145 Y1620.584 Z-31.946
N18150 Y1622.208 Z-33.452
N18155 Y1623.535 Z-34.999
N18160 Y1624.598 Z-36.601
N18165 Y1625.315 Z-38.027
N18170 Y1625.943 Z-39.896
N18175 Y1626.279 Z-41.966
N18180 Y1626.33 Z-57.
N18185 Y1804.519
N18190 G3 Y1804.938 Z-56.903 J0. K0.952
N18195 G2 Y1805.357 Z-56.806 J0.419 K-0.855
N18200 G17 G3 X164.198 Y1808.215 I-2.857 J0.
N18205 G1 X154.917
N18210 G3 X152.059 Y1805.357 I0. J-2.858
N18215 G19 G3 Y1804.938 Z-56.903 J0. K-0.953
N18220 G2 Y1804.519 Z-57. J-0.419 K0.855
N18225 G1 Y1644.765
N18230 Y1644.715 Z-38.8
N18235 Y1644.335 Z-36.514
N18240 Y1643.631 Z-34.47
N18245 Y1642.824 Z-32.873
N18250 Y1641.657 Z-31.175
N18255 Y1641.235 Z-30.667
N18260 Y1639.842 Z-29.217
N18265 Y1638.26 Z-27.873
N18270 Y1637.604 Z-27.386
N18275 Y1636.234 Z-26.488
N18280 Y1633.84 Z-25.163
N18285 Y1630.808 Z-23.848
N18290 Y1626.963 Z-22.539
N18295 Y1622.86 Z-21.516
N18300 Y1619.543 Z-20.851
N18305 Y1614.514 Z-20.049
N18310 Y1606.83 Z-19.231
N18315 Y1598.409 Z-18.667
N18320 Y1586.497 Z-18.243
N18325 Y1572.635 Z-18.052
N18330 Y1550.109 Z-18.104
N18335 Y1509.39 Z-18.638
N18340 Y1420.153 Z-19.919
N18345 Y1346.512 Z-20.611
N18350 Y1265.939 Z-20.986
N18355 Y1170.497 Z-21.013
N18360 Y1057.869 Z-20.611
N18365 Y667.135 Z-18.149
N18370 Y562.412 Z-17.747
N18375 Y473.934 Z-17.708
N18380 Y412.422 Z-17.959
N18385 Y362.172 Z-18.741
N18390 Y308.457 Z-19.882
N18395 Y259.074 Z-21.243
N18400 Y229.853 Z-22.249
N18405 Y201.328 Z-23.387
N18410 Y153.398 Z-25.653
N18415 Y134.694 Z-26.691
N18420 Y125.536 Z-27.267
N18425 Y124.016 Z-27.458
N18430 Y119.336 Z-28.298
N18435 Y114.852 Z-29.219
N18440 Y111.889 Z-29.996
N18445 Y108.257 Z-31.191
N18450 Y104.381 Z-32.848
N18455 Y102.002 Z-34.136
N18460 Y99.635 Z-35.61
N18465 Y96.344 Z-38.147
N18470 Y93.561 Z-40.856
N18475 Y91.903 Z-42.793
N18480 Y89.944 Z-45.471
N18485 Y88.195 Z-48.365
N18490 Y86.538 Z-51.713
N18495 Y85.65 Z-54.085
N18500 Y85.152 Z-56.48
N18505 Y85.086 Z-57.
N18510 Y-4.514
N18515 G2 Y-4.933 Z-56.903 J0. K0.952
N18520 G3 Y-5.353 Z-56.806 J-0.419 K-0.855
N18525 G17 G2 X149.202 Y-8.21 I-2.857 J0.
N18530 G1 X139.92
N18535 G2 X137.063 Y-5.353 I0. J2.858
N18540 G1 Y-5.346
N18545 G19 G2 Y-4.927 Z-56.903 J0. K-0.953
N18550 G3 Y-4.508 Z-57. J0.419 K0.855
N18555 G1 Y84.441
N18560 Y84.486 Z-56.511
N18565 Y85.071 Z-52.031
N18570 Y85.591 Z-49.817
N18575 Y86.309 Z-47.908
N18580 Y88.07 Z-44.588
N18585 Y90.185 Z-41.468
N18590 Y92.323 Z-38.911
N18595 Y94.906 Z-36.385
N18600 Y97.709 Z-34.182
N18605 Y100.635 Z-32.309
N18610 Y104.227 Z-30.48
N18615 Y107.076 Z-29.336
N18620 Y109.987 Z-28.374
N18625 Y112.948 Z-27.596
N18630 Y115.939 Z-26.964
N18635 Y121.958 Z-25.959
N18640 Y125.359 Z-25.486
N18645 Y139.065 Z-24.622
N18650 Y154.899 Z-23.764
N18655 Y194.174 Z-21.956
N18660 Y220.83 Z-20.911
N18665 Y245.874 Z-20.075
N18670 Y292.658 Z-18.826
N18675 Y342.907 Z-17.815
N18680 Y406.152 Z-16.904
N18685 Y455.535 Z-16.71
N18690 Y543.905 Z-16.762
N18695 Y652.202 Z-17.197
N18700 Y1002.216 Z-19.472
N18705 Y1124.375 Z-20.06
N18710 Y1224.34 Z-20.178
N18715 Y1310.111 Z-19.923
N18720 Y1387.218 Z-19.309
N18725 Y1452.196 Z-18.439
N18730 Y1518.907 Z-17.164
N18735 Y1577.82 Z-15.917
N18740 Y1596.88 Z-15.753
N18745 Y1610.742 Z-15.893
N18750 Y1619.406 Z-16.211
N18755 Y1624.543 Z-16.515
N18760 Y1630.458 Z-17.051
N18765 Y1636.336 Z-17.875
N18770 Y1641.079 Z-18.841
N18775 Y1645.363 Z-20.075
N18780 Y1648.504 Z-21.309
N18785 Y1650.577 Z-22.287
N18790 Y1652.942 Z-23.699
N18795 Y1654.865 Z-25.151
N18800 Y1656.336 Z-26.523
N18805 Y1657.811 Z-28.304
N18810 Y1658.922 Z-30.082
N18815 Y1659.794 Z-32.028
N18820 Y1660.4 Z-34.229
N18825 Y1660.633 Z-36.336
N18830 Y1660.655 Z-57.
N18835 Y1804.519
N18840 G3 Y1804.938 Z-56.903 J0. K0.952
N18845 G2 Y1805.357 Z-56.806 J0.419 K-0.855
N18850 G17 G3 X134.205 Y1808.215 I-2.857 J0.
N18855 G1 X124.924
N18860 G3 X122.066 Y1805.357 I0. J-2.858
N18865 G19 G3 Y1804.938 Z-56.903 J0. K-0.953
