%
(1001)
(T5  D=19.05 CR=9.525 - ZMIN=-67. - BALL END MILL)
N10 G90 G94 G17 G91.1
N15 G21
N20 G53 G0 Z0.
(PARALLEL1)
N25 M9
N30 T5 M6
N35 S24000 M3
N40 G54
N45 G0 X319.45 Y1954.794
N50 G43 Z15. H5
N55 G0 Z-18.095
N60 G19 G2 Y1952.889 Z-20. J-1.905 K0. F1000.
N65 G1 Y-249.212 F4000.
N70 G2 Y-249.631 Z-19.903 J0. K0.952
N75 G3 Y-250.05 Z-19.806 J-0.419 K-0.855
N80 G1 Y-258.526
N85 G17 G2 X316.592 Y-261.384 I-2.858 J0.
N90 G1 X307.311
N95 G2 X304.454 Y-258.526 I0. J2.858
N100 G19 G2 Y-258.107 Z-19.903 J0. K-0.952
N105 G3 Y-257.688 Z-20. J0.419 K0.855
N110 G1 Y1961.365
N115 G3 Y1961.784 Z-19.903 J0. K0.952
N120 G2 Y1962.203 Z-19.806 J0.419 K-0.855
N125 G17 G3 X301.596 Y1965.061 I-2.858 J0.
N130 G1 X292.315
N135 G3 X289.457 Y1962.203 I0. J-2.857
N140 G19 G3 Y1961.784 Z-19.903 J0. K-0.952
N145 G2 Y1961.365 Z-20. J-0.419 K0.855
N150 G1 Y-257.688
N155 G2 Y-258.107 Z-19.903 J0. K0.952
N160 G3 Y-258.526 Z-19.806 J-0.419 K-0.855
N165 G17 G2 X286.6 Y-261.384 I-2.857 J0.
N170 G1 X277.318
N175 G2 X274.461 Y-258.526 I0. J2.858
N180 G19 G2 Y-258.107 Z-19.903 J0. K-0.952
N185 G3 Y-257.688 Z-20. J0.419 K0.855
N190 G1 Y1961.365
N195 G3 Y1961.784 Z-19.903 J0. K0.952
N200 G2 Y1962.203 Z-19.806 J0.419 K-0.855
N205 G17 G3 X271.603 Y1965.061 I-2.858 J0.
N210 G1 X262.322
N215 G3 X259.464 Y1962.203 I0. J-2.857
N220 G19 G3 Y1961.784 Z-19.903 J0. K-0.952
N225 G2 Y1961.365 Z-20. J-0.419 K0.855
N230 G1 Y-257.688
N235 G2 Y-258.107 Z-19.903 J0. K0.952
N240 G3 Y-258.526 Z-19.806 J-0.419 K-0.855
N245 G17 G2 X256.607 Y-261.384 I-2.857 J0.
N250 G1 X247.325
N255 G2 X244.468 Y-258.526 I0. J2.858
N260 G19 G2 Y-258.107 Z-19.903 J0. K-0.952
N265 G3 Y-257.688 Z-20. J0.419 K0.855
N270 G1 Y1961.365
N275 G3 Y1961.784 Z-19.903 J0. K0.952
N280 G2 Y1962.203 Z-19.806 J0.419 K-0.855
N285 G17 G3 X241.61 Y1965.061 I-2.857 J0.
N290 G1 X232.329
N295 G3 X229.471 Y1962.203 I0. J-2.857
N300 G19 G3 Y1961.784 Z-19.903 J0. K-0.952
N305 G2 Y1961.365 Z-20. J-0.419 K0.855
N310 G1 Y-257.688
N315 G2 Y-258.107 Z-19.903 J0. K0.952
N320 G3 Y-258.526 Z-19.806 J-0.419 K-0.855
N325 G17 G2 X226.614 Y-261.384 I-2.857 J0.
N330 G1 X217.332
N335 G2 X214.475 Y-258.526 I0. J2.858
N340 G19 G2 Y-258.107 Z-19.903 J0. K-0.952
N345 G3 Y-257.688 Z-20. J0.419 K0.855
N350 G1 Y1961.365
N355 G3 Y1961.784 Z-19.903 J0. K0.952
N360 G2 Y1962.203 Z-19.806 J0.419 K-0.855
N365 G17 G3 X211.617 Y1965.061 I-2.858 J0.
N370 G1 X202.336
N375 G3 X199.478 Y1962.203 I0. J-2.858
N380 G19 G3 Y1961.784 Z-19.903 J0. K-0.952
N385 G2 Y1961.365 Z-20. J-0.419 K0.855
N390 G1 Y677.475 Z-19.95
N395 Y583.236 Z-19.865
N400 Y499.261 Z-20.
N405 Y-257.688
N410 G2 Y-258.107 Z-19.903 J0. K0.952
N415 G3 Y-258.526 Z-19.806 J-0.419 K-0.855
N420 G17 G2 X196.621 Y-261.384 I-2.857 J0.
N425 G1 X187.339
N430 G2 X184.482 Y-258.526 I0. J2.858
N435 G19 G2 Y-258.107 Z-19.903 J0. K-0.952
N440 G3 Y-257.688 Z-20. J0.419 K0.855
N445 G1 Y337.841
N450 Y358.369 Z-19.553
N455 Y394.758 Z-18.793
N460 Y450.742 Z-18.307
N465 Y520.721 Z-18.023
N470 Y614.027 Z-18.049
N475 Y722.262 Z-18.438
N480 Y979.786 Z-19.952
N485 Y1961.365 Z-20.
N490 G3 Y1961.784 Z-19.903 J0. K0.952
N495 G2 Y1962.203 Z-19.806 J0.419 K-0.855
N500 G17 G3 X181.624 Y1965.061 I-2.857 J0.
N505 G1 X172.343
N510 G3 X169.485 Y1962.203 I0. J-2.857
N515 G19 G3 Y1961.784 Z-19.903 J0. K-0.952
N520 G2 Y1961.365 Z-20. J-0.419 K0.855
N525 G1 Y1564.402 Z-19.955
N530 Y1556.033 Z-19.275
N535 Y1544.501 Z-18.687
N540 Y1527.939 Z-18.251
N545 Y1509.278 Z-18.064
N550 Y1478.72 Z-18.082
N555 Y1330.131 Z-19.238
N560 Y1237.758 Z-19.559
N565 Y1137.966 Z-19.484
N570 Y1022.267 Z-18.99
N575 Y687.298 Z-16.917
N580 Y577.197 Z-16.504
N585 Y486.691 Z-16.464
N590 Y412.046 Z-16.778
N595 Y384.987 Z-17.045
N600 Y322.472 Z-18.37
N605 Y272.087 Z-19.724
N610 Y261.823 Z-20.
N615 Y-257.688
N620 G2 Y-258.107 Z-19.903 J0. K0.952
N625 G3 Y-258.526 Z-19.806 J-0.419 K-0.855
N630 G17 G2 X166.628 Y-261.384 I-2.857 J0.
N635 G1 X157.346
N640 G2 X154.489 Y-258.526 I0. J2.858
N645 G19 G2 Y-258.107 Z-19.903 J0. K-0.952
N650 G3 Y-257.688 Z-20. J0.419 K0.855
N655 G1 Y204.652
N660 Y214.63 Z-19.674
N665 Y245.816 Z-18.625
N670 Y290.603 Z-17.39
N675 Y348.453 Z-16.159
N680 Y393.24 Z-15.457
N685 Y458.554 Z-15.192
N690 Y540.663 Z-15.218
N695 Y653.563 Z-15.636
N700 Y1023.055 Z-17.977
N705 Y1136.888 Z-18.435
N710 Y1235.651 Z-18.471
N715 Y1320.559 Z-18.124
N720 Y1397.07 Z-17.447
N725 Y1484.778 Z-16.247
N730 Y1526.765 Z-15.74
N735 Y1549.159 Z-15.715
N740 Y1563.155 Z-15.91
N745 Y1575.284 Z-16.331
N750 Y1584.862 Z-16.96
N755 Y1592.585 Z-17.781
N760 Y1598.902 Z-18.78
N765 Y1604.322 Z-20.
N770 Y1961.365
N775 G3 Y1961.784 Z-19.903 J0. K0.952
N780 G2 Y1962.203 Z-19.806 J0.419 K-0.855
N785 G17 G3 X151.631 Y1965.061 I-2.857 J0.
N790 G1 X142.35
N795 G3 X139.492 Y1962.203 I0. J-2.857
N800 G19 G3 Y1961.784 Z-19.903 J0. K-0.952
N805 G2 Y1961.365 Z-20. J-0.419 K0.855
N810 G1 Y1629.665
N815 Y1628.025 Z-19.273
N820 Y1625.488 Z-18.245
N825 Y1622.898 Z-17.437
N830 Y1620.263 Z-16.701
N835 Y1615.129 Z-15.651
N840 Y1610.386 Z-14.975
N845 Y1606.757 Z-14.564
N850 Y1600.378 Z-14.051
N855 Y1592.978 Z-13.687
N860 Y1580.848 Z-13.436
N865 Y1564.986 Z-13.43
N870 Y1537.927 Z-13.837
N875 Y1447.421 Z-15.65
N880 Y1380.24 Z-16.614
N885 Y1307.462 Z-17.259
N890 Y1225.352 Z-17.587
N895 Y1128.687 Z-17.549
N900 Y1012.055 Z-17.073
N905 Y634.166 Z-14.636
N910 Y521.266 Z-14.196
N915 Y440.089 Z-14.159
N920 Y386.905 Z-14.363
N925 Y326.256 Z-15.251
N930 Y272.139 Z-16.358
N935 Y228.285 Z-17.546
N940 Y199.046 Z-18.534
N945 Y174.034 Z-19.529
N950 Y162.6 Z-20.
N955 Y-257.688
N960 G2 Y-258.107 Z-19.903 J0. K0.952
N965 G3 Y-258.526 Z-19.806 J-0.419 K-0.855
N970 G17 G2 X136.635 Y-261.384 I-2.857 J0.
N975 G1 X127.353
N980 G2 X124.496 Y-258.526 I0. J2.858
N985 G19 G2 Y-258.107 Z-19.903 J0. K-0.952
N990 G3 Y-257.688 Z-20. J0.419 K0.855
N995 G1 Y130.637
N1000 Y136.655 Z-19.724
N1005 Y168.181 Z-18.306
N1010 Y194.023 Z-17.309
N1015 Y220.831 Z-16.44
N1020 Y266.551 Z-15.287
N1025 Y319.735 Z-14.303
N1030 Y384.116 Z-13.498
N1035 Y425.171 Z-13.341
N1040 Y506.347 Z-13.383
N1045 Y618.314 Z-13.827
N1050 Y1007.4 Z-16.349
N1055 Y1123.099 Z-16.813
N1060 Y1220.816 Z-16.844
N1065 Y1301.992 Z-16.509
N1070 Y1374.771 Z-15.844
N1075 Y1433.553 Z-14.983
N1080 Y1493.269 Z-13.745
N1085 Y1575.379 Z-11.53
N1090 Y1594.973 Z-11.195
N1095 Y1607.103 Z-11.244
N1100 Y1615.5 Z-11.493
N1105 Y1621.429 Z-11.866
N1110 Y1626.994 Z-12.435
N1115 Y1631.845 Z-13.192
N1120 Y1633.625 Z-13.546
N1125 Y1638.03 Z-14.679
N1130 Y1641.452 Z-15.89
N1135 Y1644.314 Z-17.243
N1140 Y1646.258 Z-18.343
N1145 Y1648.558 Z-19.999
N1150 Y1961.365 Z-20.
N1155 G3 Y1961.784 Z-19.903 J0. K0.952
N1160 G2 Y1962.203 Z-19.806 J0.419 K-0.855
N1165 G17 G3 X121.638 Y1965.061 I-2.857 J0.
N1170 G1 X112.357
N1175 G3 X109.499 Y1962.203 I0. J-2.858
N1180 G19 G3 Y1961.784 Z-19.903 J0. K-0.952
N1185 G2 Y1961.365 Z-20. J-0.419 K0.855
N1190 G1 Y1663.602 Z-19.998
N1195 Y1661.954 Z-18.169
N1200 Y1660.115 Z-16.575
N1205 Y1658.108 Z-15.211
N1210 Y1655.747 Z-13.894
N1215 Y1652.42 Z-12.497
N1220 Y1648.95 Z-11.437
N1225 Y1644.048 Z-10.414
N1230 Y1640.886 Z-9.968
N1235 Y1637.252 Z-9.604
N1240 Y1633.606 Z-9.345
N1245 Y1628.981 Z-9.15
N1250 Y1619.651 Z-9.037
N1255 Y1605.655 Z-9.273
N1260 Y1588.916 Z-9.805
N1265 Y1524.222 Z-12.042
N1270 Y1471.038 Z-13.459
N1275 Y1414.121 Z-14.575
N1280 Y1350.673 Z-15.426
N1285 Y1281.627 Z-15.98
N1290 Y1196.719 Z-16.253
N1295 Y1096.982 Z-16.146
N1300 Y974.751 Z-15.587
N1305 Y608.992 Z-13.199
N1310 Y497.025 Z-12.747
N1315 Y414.916 Z-12.702
N1320 Y377.593 Z-12.865
N1325 Y314.145 Z-13.561
N1330 Y262.827 Z-14.421
N1335 Y218.04 Z-15.476
N1340 Y191.055 Z-16.294
N1345 Y165.775 Z-17.236
N1350 Y135.99 Z-18.537
N1355 Y119.219 Z-19.434
N1360 Y109.184 Z-20.
N1365 Y-257.688
N1370 G2 Y-258.107 Z-19.903 J0. K0.952
N1375 G3 Y-258.526 Z-19.806 J-0.419 K-0.855
N1380 G17 G2 X106.642 Y-261.384 I-2.857 J0.
N1385 G1 X97.36
N1390 G2 X94.503 Y-258.526 I0. J2.858
N1395 G19 G2 Y-258.107 Z-19.903 J0. K-0.952
N1400 G3 Y-257.688 Z-20. J0.419 K0.855
N1405 G1 Y98.882
N1410 Y105.42 Z-19.367
N1415 Y118.952 Z-18.51
N1420 Y136.648 Z-17.579
N1425 Y160.664 Z-16.534
N1430 Y184.073 Z-15.668
N1435 Y209.221 Z-14.903
N1440 Y252.142 Z-13.894
N1445 Y303.46 Z-13.06
N1450 Y365.042 Z-12.426
N1455 Y407.03 Z-12.212
N1460 Y490.072 Z-12.256
N1465 Y600.173 Z-12.697
N1470 Y962.2 Z-15.048
N1475 Y1073.234 Z-15.582
N1480 Y1175.959 Z-15.751
N1485 Y1262.734 Z-15.538
N1490 Y1338.311 Z-14.983
N1495 Y1402.693 Z-14.16
N1500 Y1454.944 Z-13.176
N1505 Y1507.195 Z-11.835
N1510 Y1550.697 Z-10.371
N1515 Y1621.935 Z-7.371
N1520 Y1634.884 Z-7.001
N1525 Y1643.515 Z-7.026
N1530 Y1649.734 Z-7.328
N1535 Y1654.274 Z-7.79
N1540 Y1658.137 Z-8.434
N1545 Y1662.058 Z-9.424
N1550 Y1665.658 Z-10.772
N1555 Y1668.438 Z-12.222
N1560 Y1670.457 Z-13.603
N1565 Y1672.297 Z-15.155
N1570 Y1673.756 Z-16.724
N1575 Y1675.075 Z-18.535
N1580 Y1675.916 Z-19.999
N1585 Y1961.365 Z-20.
N1590 G3 Y1961.784 Z-19.903 J0. K0.952
N1595 G2 Y1962.203 Z-19.806 J0.419 K-0.855
N1600 G17 G3 X91.645 Y1965.061 I-2.857 J0.
N1605 G1 X82.364
N1610 G3 X79.506 Y1962.203 I0. J-2.858
N1615 G19 G3 Y1961.784 Z-19.903 J0. K-0.952
N1620 G2 Y1961.365 Z-20. J-0.419 K0.855
N1625 G1 Y1686.12 Z-19.999
N1630 Y1685.468 Z-18.231
N1635 Y1684.324 Z-16.013
N1640 Y1683.953 Z-15.439
N1645 Y1682.67 Z-13.735
N1650 Y1680.84 Z-11.877
N1655 Y1679.133 Z-10.525
N1660 Y1677.634 Z-9.531
N1665 Y1675.246 Z-8.294
N1670 Y1672.734 Z-7.31
N1675 Y1670.126 Z-6.539
N1680 Y1667.464 Z-5.964
N1685 Y1663.852 Z-5.453
N1690 Y1660.209 Z-5.156
N1695 Y1655.817 Z-5.004
N1700 Y1648.12 Z-5.078
N1705 Y1638.376 Z-5.462
N1710 Y1611.432 Z-6.874
N1715 Y1569.271 Z-8.939
N1720 Y1526.793 Z-10.616
N1725 Y1483.049 Z-11.951
N1730 Y1429.865 Z-13.173
N1735 Y1369.216 Z-14.153
N1740 Y1305.768 Z-14.813
N1745 Y1226.458 Z-15.239
N1750 Y1133.887 Z-15.317
N1755 Y1020.054 Z-14.98
N1760 Y826.911 Z-13.828
N1765 Y601.11 Z-12.349
N1770 Y489.143 Z-11.891
N1775 Y405.168 Z-11.837
N1780 Y352.917 Z-12.096
N1785 Y293.201 Z-12.695
N1790 Y243.749 Z-13.492
N1795 Y202.694 Z-14.454
N1800 Y177.622 Z-15.225
N1805 Y153.551 Z-16.135
N1810 Y134.347 Z-16.986
N1815 Y117.386 Z-17.901
N1820 Y106.113 Z-18.613
N1825 Y96.707 Z-19.469
N1830 Y94.668 Z-19.736
N1835 Y92.842 Z-20.
N1840 Y-257.688
N1845 G2 Y-258.107 Z-19.903 J0. K0.952
N1850 G3 Y-258.526 Z-19.806 J-0.419 K-0.855
N1855 G17 G2 X76.649 Y-261.384 I-2.857 J0.
N1860 G1 X67.367
N1865 G2 X64.51 Y-258.526 I0. J2.858
N1870 G19 G2 Y-258.107 Z-19.903 J0. K-0.952
N1875 G3 Y-257.688 Z-20. J0.419 K0.855
N1880 G1 Y90.009
N1885 Y92.633 Z-19.469
N1890 Y95.837 Z-18.992
N1895 Y102.433 Z-18.392
N1900 Y108.984 Z-17.909
N1905 Y125.609 Z-16.923
N1910 Y144.583 Z-16.
N1915 Y169.318 Z-15.017
N1920 Y192.428 Z-14.27
N1925 Y232.549 Z-13.287
N1930 Y280.135 Z-12.486
N1935 Y337.052 Z-11.891
N1940 Y399.567 Z-11.568
N1945 Y483.542 Z-11.608
N1950 Y594.576 Z-12.048
N1955 Y806.381 Z-13.415
N1960 Y1001.39 Z-14.591
N1965 Y1118.023 Z-14.97
N1970 Y1213.5 Z-14.926
N1975 Y1295.609 Z-14.52
N1980 Y1365.589 Z-13.805
N1985 Y1426.238 Z-12.825
N1990 Y1479.422 Z-11.596
N1995 Y1525.084 Z-10.182
N2000 Y1564.714 Z-8.592
N2005 Y1601.416 Z-6.75
N2010 Y1652.924 Z-3.605
N2015 Y1661.398 Z-3.193
N2020 Y1667.93 Z-3.102
N2025 Y1671.608 Z-3.247
N2030 Y1675.168 Z-3.602
N2035 Y1677.924 Z-4.09
N2040 Y1679.136 Z-4.372
N2045 Y1682.255 Z-5.36
N2050 Y1684.616 Z-6.422
N2055 Y1686.796 Z-7.728
N2060 Y1688.551 Z-9.07
N2065 Y1690.268 Z-10.74
N2070 Y1691.839 Z-12.765
N2075 Y1693.1 Z-15.007
N2080 Y1694.015 Z-17.376
N2085 Y1694.611 Z-19.965
N2090 Y1961.365 Z-20.
N2095 G3 Y1961.784 Z-19.903 J0. K0.952
N2100 G2 Y1962.203 Z-19.806 J0.419 K-0.855
N2105 G17 G3 X61.652 Y1965.061 I-2.858 J0.
N2110 G1 X52.371
N2115 G3 X49.513 Y1962.203 I0. J-2.858
N2120 G19 G3 Y1961.784 Z-19.903 J0. K-0.952
N2125 G2 Y1961.365 Z-20. J-0.419 K0.855
N2130 G1 Y1701.679
N2135 Y1701.45 Z-17.448
N2140 Y1700.866 Z-14.852
N2145 Y1699.978 Z-12.507
N2150 Y1698.833 Z-10.421
N2155 Y1697.364 Z-8.459
N2160 Y1695.615 Z-6.712
N2165 Y1693.883 Z-5.375
N2170 Y1691.779 Z-4.121
N2175 Y1689.32 Z-3.047
N2180 Y1686.504 Z-2.205
N2185 Y1684.285 Z-1.766
N2190 Y1682.482 Z-1.528
N2195 Y1680.663 Z-1.376
N2200 Y1677.669 Z-1.276
N2205 Y1671.272 Z-1.459
N2210 Y1663.103 Z-1.982
N2215 Y1622.269 Z-4.953
N2220 Y1591.369 Z-6.82
N2225 Y1554.965 Z-8.601
N2230 Y1515.374 Z-10.135
N2235 Y1473.387 Z-11.403
N2240 Y1420.202 Z-12.612
N2245 Y1358.62 Z-13.587
N2250 Y1287.708 Z-14.287
N2255 Y1206.532 Z-14.672
N2260 Y1109.509 Z-14.707
N2265 Y988.212 Z-14.303
N2270 Y790.403 Z-13.104
N2275 Y587.929 Z-11.819
N2280 Y477.828 Z-11.402
N2285 Y394.786 Z-11.383
N2290 Y329.472 Z-11.711
N2295 Y273.488 Z-12.298
N2300 Y226.835 Z-13.093
N2305 Y188.58 Z-14.044
N2310 Y165.568 Z-14.796
N2315 Y142.519 Z-15.725
N2320 Y123.131 Z-16.695
N2325 Y107.532 Z-17.647
N2330 Y96.888 Z-18.47
N2335 Y94.438 Z-18.767
N2340 Y91.069 Z-19.349
N2345 Y88.216 Z-20.
N2350 Y-257.688
N2355 G2 Y-258.107 Z-19.903 J0. K0.952
N2360 G3 Y-258.526 Z-19.806 J-0.419 K-0.855
N2365 G17 G2 X46.656 Y-261.384 I-2.857 J0.
N2370 G1 X37.374
N2375 G2 X34.517 Y-258.526 I0. J2.858
N2380 G19 G2 Y-258.107 Z-19.903 J0. K-0.952
N2385 G3 Y-257.688 Z-20. J0.419 K0.855
N2390 G1 Y87.293
N2395 Y91.016 Z-19.084
N2400 Y94.262 Z-18.523
N2405 Y97.529 Z-18.15
N2410 Y105.718 Z-17.532
N2415 Y120.481 Z-16.603
N2420 Y139.146 Z-15.639
N2425 Y160.243 Z-14.755
N2430 Y182.982 Z-13.982
N2435 Y220.305 Z-13.018
N2440 Y265.092 Z-12.224
N2445 Y319.209 Z-11.629
N2450 Y385.456 Z-11.275
N2455 Y465.699 Z-11.249
N2460 Y571.135 Z-11.604
N2465 Y743.751 Z-12.648
N2470 Y966.752 Z-14.04
N2475 Y1092.715 Z-14.499
N2480 Y1191.503 Z-14.51
N2485 Y1275.479 Z-14.161
N2490 Y1348.257 Z-13.489
N2495 Y1410.772 Z-12.543
N2500 Y1464.89 Z-11.362
N2505 Y1511.543 Z-9.979
N2510 Y1546.7 Z-8.647
N2515 Y1582.807 Z-6.934
N2520 Y1613.922 Z-5.098
N2525 Y1641.095 Z-3.135
N2530 Y1676.047 Z-0.118
N2535 Y1682.407 Z0.334
N2540 Y1687.279 Z0.451
N2545 Y1690.484 Z0.255
N2550 Y1693.614 Z-0.285
N2555 Y1696.243 Z-1.1
N2560 Y1698.516 Z-2.14
N2565 Y1700.488 Z-3.376
N2570 Y1702.172 Z-4.76
N2575 Y1703.648 Z-6.33
N2580 Y1704.89 Z-8.052
N2585 Y1705.94 Z-10.012
N2590 Y1706.64 Z-11.821
N2595 Y1707.135 Z-13.686
N2600 Y1707.515 Z-16.458
N2605 Y1707.567 Z-20.
N2610 Y1961.365
N2615 G3 Y1961.784 Z-19.903 J0. K0.952
N2620 G2 Y1962.203 Z-19.806 J0.419 K-0.855
N2625 G17 G3 X31.659 Y1965.061 I-2.857 J0.
N2630 G1 X22.378
N2635 G3 X19.52 Y1962.203 I0. J-2.857
N2640 G19 G3 Y1961.784 Z-19.903 J0. K-0.952
N2645 G2 Y1961.365 Z-20. J-0.419 K0.855
N2650 G1 Y1712.594
N2655 Y1712.588 Z-14.513
N2660 Y1712.398 Z-12.101
N2665 Y1711.888 Z-9.663
N2670 Y1711.037 Z-7.351
N2675 Y1709.906 Z-5.29
N2680 Y1708.912 Z-3.939
N2685 Y1707.433 Z-2.373
N2690 Y1705.544 Z-0.88
N2695 Y1703.446 Z0.319
N2700 Y1701.798 Z1.004
N2705 Y1700.078 Z1.525
N2710 Y1697.289 Z2.017
N2715 Y1694.208 Z2.162
N2720 Y1691.023 Z2.037
N2725 Y1686.112 Z1.606
N2730 Y1658.122 Z-1.3
N2735 Y1634.438 Z-3.348
N2740 Y1607.076 Z-5.284
N2745 Y1575.91 Z-7.071
N2750 Y1539.504 Z-8.743
N2755 Y1496.837 Z-10.274
N2760 Y1447.385 Z-11.617
N2765 Y1390.468 Z-12.74
N2770 Y1325.154 Z-13.602
N2775 Y1248.643 Z-14.184
N2780 Y1159.069 Z-14.429
N2785 Y1052.594 Z-14.29
N2790 Y911.702 Z-13.648
N2795 Y588.864 Z-11.613
N2800 Y478.763 Z-11.197
N2805 Y394.787 Z-11.177
N2810 Y327.607 Z-11.471
N2815 Y272.557 Z-12.011
N2820 Y225.904 Z-12.776
N2825 Y187.648 Z-13.707
N2830 Y165.435 Z-14.422
N2835 Y144.069 Z-15.273
N2840 Y125.294 Z-16.194
N2845 Y108.864 Z-17.181
N2850 Y97.398 Z-18.009
N2855 Y93.927 Z-18.416
N2860 Y90.885 Z-18.952
N2865 Y87.884 Z-19.675
N2870 Y86.72 Z-20.
N2875 Y-257.688
N2880 G2 Y-258.107 Z-19.903 J0. K0.952
N2885 G3 Y-258.526 Z-19.806 J-0.419 K-0.855
N2890 G17 G2 X16.663 Y-261.384 I-2.858 J0.
N2895 G1 X7.381
N2900 G2 X4.524 Y-258.526 I0. J2.858
N2905 G19 G2 Y-258.107 Z-19.903 J0. K-0.952
N2910 G3 Y-257.688 Z-20. J0.419 K0.855
N2915 G1 Y86.45
N2920 Y86.927 Z-19.886
N2925 Y91.071 Z-18.848
N2930 Y94.318 Z-18.296
N2935 Y97.586 Z-17.932
N2940 Y107.414 Z-17.221
N2945 Y123.832 Z-16.217
N2950 Y142.392 Z-15.29
N2955 Y163.664 Z-14.429
N2960 Y185.782 Z-13.706
N2965 Y224.038 Z-12.764
N2970 Y269.758 Z-12.002
N2975 Y324.808 Z-11.452
N2980 Y391.055 Z-11.154
N2985 Y473.165
N2990 Y580.466 Z-11.539
N2995 Y768.011 Z-12.692
N3000 Y971.418 Z-13.926
N3005 Y1095.515 Z-14.342
N3010 Y1193.774 Z-14.324
N3015 Y1277.75 Z-13.947
N3020 Y1349.595 Z-13.257
N3025 Y1411.177 Z-12.304
N3030 Y1465.295 Z-11.097
N3035 Y1511.948 Z-9.688
N3040 Y1552.069 Z-8.111
N3045 Y1586.575 Z-6.393
N3050 Y1611.973 Z-4.843
N3055 Y1637.506 Z-2.957
N3060 Y1659.36 Z-0.986
N3065 Y1675.721 Z0.788
N3070 Y1691.857 Z2.873
N3075 Y1698.677 Z3.778
N3080 Y1701.988 Z3.952
N3085 Y1704.589 Z3.756
N3090 Y1706.773 Z3.238
N3095 Y1708.835 Z2.39
N3100 Y1710.305 Z1.532
N3105 Y1712.042 Z0.17
N3110 Y1713.495 Z-1.377
N3115 Y1714.619 Z-2.979
N3120 Y1715.679 Z-5.106
N3125 Y1716.379 Z-7.363
N3130 Y1716.718 Z-9.622
N3135 Y1716.775 Z-20.
N3140 Y1961.365
N3145 G3 Y1961.784 Z-19.903 J0. K0.952
N3150 G2 Y1962.203 Z-19.806 J0.419 K-0.855
N3155 G17 G3 X1.666 Y1965.061 I-2.858 J0.
N3160 G1 X-7.615
N3165 G3 X-10.473 Y1962.203 I0. J-2.857
N3170 G19 G3 Y1961.784 Z-19.903 J0. K-0.952
N3175 G2 Y1961.365 Z-20. J-0.419 K0.855
N3180 G1 Y1715.258
N3185 Y1715.2 Z-11.211
N3190 Y1714.819 Z-8.636
N3195 Y1714.112 Z-6.345
N3200 Y1713.067 Z-4.224
N3205 Y1711.745 Z-2.36
N3210 Y1710.104 Z-0.689
N3215 Y1708.912 Z0.241
N3220 Y1707.015 Z1.377
N3225 Y1704.961 Z2.241
N3230 Y1702.423 Z2.893
N3235 Y1699.628 Z3.188
N3240 Y1696.1 Z3.101
N3245 Y1688.806 Z2.3
N3250 Y1670.833 Z0.161
N3255 Y1650.819 Z-1.847
N3260 Y1627.313 Z-3.791
N3265 Y1599.235 Z-5.686
N3270 Y1567.964 Z-7.393
N3275 Y1529.91 Z-9.054
N3280 Y1486.413 Z-10.529
N3285 Y1436.027 Z-11.818
N3290 Y1378.178 Z-12.88
N3295 Y1311.931 Z-13.683
N3300 Y1233.554 Z-14.21
N3305 Y1141.235 Z-14.394
N3310 Y1030.201 Z-14.182
N3315 Y879.045 Z-13.424
N3320 Y593.529 Z-11.613
N3325 Y481.562 Z-11.178
N3330 Y396.653 Z-11.15
N3335 Y328.54 Z-11.435
N3340 Y273.489 Z-11.965
N3345 Y226.836 Z-12.72
N3350 Y188.581 Z-13.639
N3355 Y165.429 Z-14.379
N3360 Y144.329 Z-15.217
N3365 Y125.898 Z-16.118
N3370 Y109.456 Z-17.098
N3375 Y97.989 Z-17.915
N3380 Y94.718 Z-18.257
N3385 Y91.47 Z-18.784
N3390 Y89.856 Z-19.126
N3395 Y86.894 Z-19.911
N3400 Y86.605 Z-20.
N3405 Y-257.688
N3410 G2 Y-258.107 Z-19.903 J0. K0.952
N3415 G3 Y-258.526 Z-19.806 J-0.419 K-0.855
N3420 G17 G2 X-13.33 Y-261.384 I-2.858 J0.
N3425 G1 X-22.612
N3430 G2 X-25.469 Y-258.526 I0. J2.858
N3435 G19 G2 Y-258.107 Z-19.903 J0. K-0.952
N3440 G3 Y-257.688 Z-20. J0.419 K0.855
N3445 G1 Y86.882
N3450 Y87.397 Z-19.865
N3455 Y91.118 Z-18.954
N3460 Y94.364 Z-18.403
N3465 Y97.632 Z-18.039
N3470 Y109.098 Z-17.209
N3475 Y125.529 Z-16.226
N3480 Y144.115 Z-15.316
N3485 Y165.477 Z-14.465
N3490 Y188.581 Z-13.723
N3495 Y226.837 Z-12.797
N3500 Y273.49 Z-12.035
N3505 Y329.473 Z-11.488
N3510 Y397.587 Z-11.196
N3515 Y482.495 Z-11.229
N3520 Y594.462 Z-11.668
N3525 Y871.581 Z-13.435
N3530 Y1028.335 Z-14.243
N3535 Y1132.838 Z-14.47
N3540 Y1225.204 Z-14.329
N3545 Y1303.581 Z-13.854
N3550 Y1371.694 Z-13.079
N3555 Y1430.477 Z-12.049
N3560 Y1481.795 Z-10.785
N3565 Y1526.287 Z-9.326
N3570 Y1564.542 Z-7.707
N3575 Y1597.716 Z-5.943
N3580 Y1626.172 Z-4.072
N3585 Y1651.32 Z-2.052
N3590 Y1684.262 Z1.102
N3595 Y1689.219 Z1.439
N3600 Y1691.552 Z1.488
N3605 Y1694.767 Z1.314
N3610 Y1696.562 Z1.039
N3615 Y1698.318 Z0.619
N3620 Y1700.021 Z0.045
N3625 Y1702.124 Z-0.938
N3630 Y1704.068 Z-2.186
N3635 Y1705.879 Z-3.754
N3640 Y1707.398 Z-5.519
N3645 Y1708.627 Z-7.455
N3650 Y1709.672 Z-9.839
N3655 Y1710.255 Z-11.925
N3660 Y1710.627 Z-14.5
N3665 Y1710.696 Z-20.
N3670 Y1961.365
N3675 G3 Y1961.784 Z-19.903 J0. K0.952
N3680 G2 Y1962.203 Z-19.806 J0.419 K-0.855
N3685 G17 G3 X-28.327 Y1965.061 I-2.858 J0.
N3690 G1 X-37.608
N3695 G3 X-40.465 Y1962.203 I0. J-2.857
N3700 G19 G3 Y1961.784 Z-19.903 J0. K-0.952
N3705 G2 Y1961.365 Z-20. J-0.419 K0.855
N3710 G1 Y1705.342
N3715 Y1705.226 Z-16.791
N3720 Y1704.759 Z-14.109
N3725 Y1703.957 Z-11.642
N3730 Y1703.073 Z-9.799
N3735 Y1701.692 Z-7.703
N3740 Y1699.953 Z-5.776
N3745 Y1697.934 Z-4.126
N3750 Y1695.547 Z-2.706
N3755 Y1693.185 Z-1.709
N3760 Y1690.352 Z-0.916
N3765 Y1687.043 Z-0.407
N3770 Y1682.943 Z-0.223
N3775 Y1680.522 Z-0.268
N3780 Y1675.417 Z-0.538
N3785 Y1665.407 Z-1.318
N3790 Y1633.525 Z-3.883
N3795 Y1605.26 Z-5.783
N3800 Y1572.725 Z-7.569
N3805 Y1535.61 Z-9.206
N3810 Y1491.965 Z-10.704
N3815 Y1442.512 Z-11.987
N3820 Y1385.596 Z-13.056
N3825 Y1319.349 Z-13.883
N3830 Y1242.838 Z-14.415
N3835 Y1154.197 Z-14.616
N3840 Y1046.995 Z-14.437
N3845 Y896.773 Z-13.701
N3850 Y593.529 Z-11.762
N3855 Y481.561 Z-11.324
N3860 Y396.653 Z-11.293
N3865 Y329.473 Z-11.606
N3870 Y273.489 Z-12.173
N3875 Y227.769 Z-12.934
N3880 Y189.514 Z-13.866
N3885 Y167.258 Z-14.58
N3890 Y144.386 Z-15.485
N3895 Y125.95 Z-16.382
N3900 Y108.687 Z-17.412
N3905 Y98.041 Z-18.198
N3910 Y94.771 Z-18.545
N3915 Y91.523 Z-19.077
N3920 Y89.91 Z-19.42
N3925 Y87.644 Z-20.
N3930 Y-257.688
N3935 G2 Y-258.107 Z-19.903 J0. K0.952
N3940 G3 Y-258.526 Z-19.806 J-0.419 K-0.855
N3945 G17 G2 X-43.323 Y-261.384 I-2.858 J0.
N3950 G1 X-52.604
N3955 G2 X-55.462 Y-258.526 I0. J2.858
N3960 G19 G2 Y-258.107 Z-19.903 J0. K-0.952
N3965 G3 Y-257.688 Z-20. J0.419 K0.855
N3970 G1 Y88.865
N3975 Y91.029 Z-19.506
N3980 Y94.41 Z-18.916
N3985 Y96.86 Z-18.613
N3990 Y107.502 Z-17.775
N3995 Y123.925 Z-16.778
N4000 Y143.234 Z-15.821
N4005 Y167.29 Z-14.86
N4010 Y189.514 Z-14.137
N4015 Y228.702 Z-13.165
N4020 Y275.355 Z-12.371
N4025 Y331.339 Z-11.781
N4030 Y396.653 Z-11.448
N4035 Y481.561 Z-11.478
N4040 Y592.595 Z-11.912
N4045 Y922.898 Z-14.028
N4050 Y1063.791 Z-14.689
N4055 Y1169.227 Z-14.827
N4060 Y1256.001 Z-14.586
N4065 Y1330.646 Z-14.021
N4070 Y1395.96 Z-13.159
N4075 Y1451.944 Z-12.063
N4080 Y1501.396 Z-10.728
N4085 Y1542.244 Z-9.283
N4090 Y1579.536 Z-7.608
N4095 Y1613.117 Z-5.737
N4100 Y1650.133 Z-3.242
N4105 Y1663.806 Z-2.329
N4110 Y1669.851 Z-2.045
N4115 Y1675.449 Z-2.02
N4120 Y1678.205 Z-2.179
N4125 Y1680.018 Z-2.371
N4130 Y1681.815 Z-2.644
N4135 Y1682.703 Z-2.821
N4140 Y1685.341 Z-3.506
N4145 Y1687.035 Z-4.109
N4150 Y1687.65 Z-4.364
N4155 Y1689.857 Z-5.467
N4160 Y1691.714 Z-6.666
N4165 Y1693.709 Z-8.351
N4170 Y1695.431 Z-10.293
N4175 Y1696.81 Z-12.403
N4180 Y1697.865 Z-14.677
N4185 Y1698.629 Z-17.249
N4190 Y1699.034 Z-20.
N4195 Y1961.365
N4200 G3 Y1961.784 Z-19.903 J0. K0.952
N4205 G2 Y1962.203 Z-19.806 J0.419 K-0.855
N4210 G17 G3 X-58.319 Y1965.061 I-2.858 J0.
N4215 G1 X-67.601
N4220 G3 X-70.458 Y1962.203 I0. J-2.857
N4225 G19 G3 Y1961.784 Z-19.903 J0. K-0.952
N4230 G2 Y1961.365 Z-20. J-0.419 K0.855
N4235 G1 Y1691.429
N4240 Y1690.694 Z-17.453
N4245 Y1689.619 Z-15.095
N4250 Y1688.528 Z-13.357
N4255 Y1687.483 Z-12.035
N4260 Y1686.275 Z-10.75
N4265 Y1684.244 Z-9.06
N4270 Y1681.853 Z-7.566
N4275 Y1679.574 Z-6.492
N4280 Y1677.031 Z-5.589
N4285 Y1674.389 Z-4.911
N4290 Y1671.705 Z-4.434
N4295 Y1668.074 Z-4.046
N4300 Y1664.268 Z-3.864
N4305 Y1657.854 Z-3.889
N4310 Y1649.919 Z-4.204
N4315 Y1634.325 Z-5.084
N4320 Y1591.993 Z-7.485
N4325 Y1553.452 Z-9.277
N4330 Y1513.532 Z-10.754
N4335 Y1465.981 Z-12.108
N4340 Y1418.395 Z-13.128
N4345 Y1361.478 Z-14.004
N4350 Y1290.565 Z-14.694
N4355 Y1209.389 Z-15.063
N4360 Y1114.298 Z-15.082
N4365 Y995.799 Z-14.673
N4370 Y791.459 Z-13.411
N4375 Y592.717 Z-12.134
N4380 Y482.616 Z-11.703
N4385 Y397.708 Z-11.672
N4390 Y335.193 Z-12.025
N4395 Y278.276 Z-12.652
N4400 Y230.69 Z-13.484
N4405 Y191.502 Z-14.47
N4410 Y168.426 Z-15.228
N4415 Y142.725 Z-16.266
N4420 Y124.331 Z-17.176
N4425 Y107.899 Z-18.163
N4430 Y101.35 Z-18.676
N4435 Y96.442 Z-19.128
N4440 Y93.186 Z-19.586
N4445 Y91.015 Z-20.
N4450 Y-257.688
N4455 G2 Y-258.107 Z-19.903 J0. K0.952
N4460 G3 Y-258.526 Z-19.806 J-0.419 K-0.855
N4465 G17 G2 X-73.316 Y-261.384 I-2.857 J0.
N4470 G1 X-82.597
N4475 G2 X-85.455 Y-258.526 I0. J2.858
N4480 G19 G2 Y-258.107 Z-19.903 J0. K-0.952
N4485 G3 Y-257.688 Z-20. J0.419 K0.855
N4490 G1 Y94.704
N4495 Y96.13 Z-19.827
N4500 Y104.303 Z-19.016
N4505 Y114.136 Z-18.35
N4510 Y132.3 Z-17.341
N4515 Y151.276 Z-16.479
N4520 Y176.662 Z-15.5
N4525 Y199.895 Z-14.762
N4530 Y240.017 Z-13.777
N4535 Y288.536 Z-12.944
N4540 Y347.319 Z-12.295
N4545 Y401.436 Z-11.98
N4550 Y485.412 Z-12.015
N4555 Y595.513 Z-12.447
N4560 Y788.656 Z-13.695
N4565 Y1000.46 Z-15.026
N4570 Y1117.093 Z-15.444
N4575 Y1206.272 Z-15.449
N4580 Y1288.381 Z-15.11
N4585 Y1359.294 Z-14.456
N4590 Y1421.809 Z-13.518
N4595 Y1477.792 Z-12.295
N4600 Y1526.311 Z-10.858
N4605 Y1569.01 Z-9.208
N4610 Y1619.818 Z-6.788
N4615 Y1637.39 Z-5.995
N4620 Y1644.953 Z-5.795
N4625 Y1652.417 Z-5.827
N4630 Y1656.098 Z-5.989
N4635 Y1658.829 Z-6.209
N4640 Y1662.449 Z-6.668
N4645 Y1665.935 Z-7.356
N4650 Y1669.487 Z-8.406
N4655 Y1672.399 Z-9.638
N4660 Y1674.545 Z-10.849
N4665 Y1676.534 Z-12.242
N4670 Y1678.476 Z-14.001
N4675 Y1679.874 Z-15.639
N4680 Y1681.247 Z-17.748
N4685 Y1682.289 Z-19.975
N4690 Y1961.365 Z-20.
N4695 G3 Y1961.784 Z-19.903 J0. K0.952
N4700 G2 Y1962.203 Z-19.806 J0.419 K-0.855
N4705 G17 G3 X-88.312 Y1965.061 I-2.857 J0.
N4710 G1 X-97.594
N4715 G3 X-100.451 Y1962.203 I0. J-2.857
N4720 G19 G3 Y1961.784 Z-19.903 J0. K-0.952
N4725 G2 Y1961.365 Z-20. J-0.419 K0.855
N4730 G1 Y1671.322
N4735 Y1669.731 Z-17.796
N4740 Y1668.213 Z-16.186
N4745 Y1666.242 Z-14.55
N4750 Y1663.93 Z-13.033
N4755 Y1660.698 Z-11.46
N4760 Y1656.84 Z-10.138
N4765 Y1652.631 Z-9.176
N4770 Y1650.157 Z-8.77
N4775 Y1646.533 Z-8.348
N4780 Y1644.714 Z-8.186
N4785 Y1640.131 Z-7.929
N4790 Y1631.967 Z-7.781
N4795 Y1620.537 Z-7.964
N4800 Y1603.207 Z-8.58
N4805 Y1541.809 Z-10.987
N4810 Y1494.223 Z-12.462
N4815 Y1441.039 Z-13.703
N4820 Y1380.39 Z-14.71
N4825 Y1316.942 Z-15.392
N4830 Y1239.498 Z-15.832
N4835 Y1146.943 Z-15.932
N4840 Y1035.909 Z-15.616
N4845 Y835.302 Z-14.409
N4850 Y609.501 Z-12.912
N4855 Y496.601 Z-12.446
N4860 Y410.759 Z-12.387
N4865 Y371.571 Z-12.573
N4870 Y309.989 Z-13.213
N4875 Y257.738 Z-14.054
N4880 Y214.817 Z-15.049
N4885 Y187.787 Z-15.861
N4890 Y163.247 Z-16.759
N4895 Y137.726 Z-17.866
N4900 Y119.46 Z-18.821
N4905 Y106.332 Z-19.637
N4910 Y102.242 Z-20.
N4915 Y-257.688
N4920 G2 Y-258.107 Z-19.903 J0. K0.952
N4925 G3 Y-258.526 Z-19.806 J-0.419 K-0.855
N4930 G17 G2 X-103.309 Y-261.384 I-2.857 J0.
N4935 G1 X-112.59
N4940 G2 X-115.448 Y-258.526 I0. J2.858
N4945 G19 G2 Y-258.107 Z-19.903 J0. K-0.952
N4950 G3 Y-257.688 Z-20. J0.419 K0.855
N4955 G1 Y116.177
N4960 Y119.463 Z-19.868
N4965 Y136.215 Z-18.971
N4970 Y167.64 Z-17.589
N4975 Y192.906 Z-16.64
N4980 Y219.903 Z-15.81
N4985 Y265.623 Z-14.708
N4990 Y317.874 Z-13.814
N4995 Y381.322 Z-13.087
N5000 Y418.644 Z-12.932
N5005 Y505.419 Z-12.994
N5010 Y618.319 Z-13.46
N5015 Y877.71 Z-15.189
N5020 Y1054.058 Z-16.216
N5025 Y1160.427 Z-16.489
N5030 Y1249.035 Z-16.373
N5035 Y1326.479 Z-15.911
N5040 Y1393.659 Z-15.159
N5045 Y1448.709 Z-14.23
N5050 Y1500.961 Z-13.024
N5055 Y1555.032 Z-11.409
N5060 Y1590.332 Z-10.273
N5065 Y1608.06 Z-9.906
N5070 Y1619.257 Z-9.935
N5075 Y1627.633 Z-10.228
N5080 Y1632.758 Z-10.615
N5085 Y1638.925 Z-11.411
N5090 Y1643.001 Z-12.223
N5095 Y1647.361 Z-13.487
N5100 Y1650.712 Z-14.844
N5105 Y1653.859 Z-16.578
N5110 Y1655.853 Z-18.007
N5115 Y1658.026 Z-20.
N5120 Y1961.365
N5125 G3 Y1961.784 Z-19.903 J0. K0.952
N5130 G2 Y1962.203 Z-19.806 J0.419 K-0.855
N5135 G17 G3 X-118.305 Y1965.061 I-2.857 J0.
N5140 G1 X-127.587
N5145 G3 X-130.444 Y1962.203 I0. J-2.857
N5150 G19 G3 Y1961.784 Z-19.903 J0. K-0.952
N5155 G2 Y1961.365 Z-20. J-0.419 K0.855
N5160 G1 Y1641.625
N5165 Y1639.378 Z-18.639
N5170 Y1636.112 Z-17.099
N5175 Y1634.43 Z-16.463
N5180 Y1630.954 Z-15.361
N5185 Y1625.622 Z-14.168
N5190 Y1619.297 Z-13.258
N5195 Y1613.383 Z-12.713
N5200 Y1606.977 Z-12.35
N5205 Y1597.18 Z-12.101
N5210 Y1583.184 Z-12.08
N5215 Y1561.724 Z-12.435
N5220 Y1474.016 Z-14.551
N5225 Y1411.501 Z-15.668
N5230 Y1344.321 Z-16.474
N5235 Y1267.81 Z-16.987
N5240 Y1177.211 Z-17.156
N5245 Y1073.641 Z-16.93
N5250 Y930.883 Z-16.137
N5255 Y625.773 Z-14.133
N5260 Y514.739 Z-13.691
N5265 Y428.897 Z-13.641
N5270 Y385.044 Z-13.817
N5275 Y320.662 Z-14.679
N5280 Y270.277 Z-15.646
N5285 Y223.624 Z-16.851
N5290 Y198.652 Z-17.664
N5295 Y171.494 Z-18.714
N5300 Y142.165 Z-20.
N5305 Y-257.688
N5310 G2 Y-258.107 Z-19.903 J0. K0.952
N5315 G3 Y-258.526 Z-19.806 J-0.419 K-0.855
N5320 G17 G2 X-133.302 Y-261.384 I-2.857 J0.
N5325 G1 X-142.583
N5330 G2 X-145.441 Y-258.526 I0. J2.858
N5335 G19 G2 Y-258.107 Z-19.903 J0. K-0.952
N5340 G3 Y-257.688 Z-20. J0.419 K0.855
N5345 G1 Y177.653
N5350 Y200.194 Z-19.139
N5355 Y229.657 Z-18.111
N5360 Y275.366 Z-16.837
N5365 Y329.483 Z-15.681
N5370 Y389.199 Z-14.769
N5375 Y446.582 Z-14.537
N5380 Y534.322 Z-14.589
N5385 Y642.556 Z-15.015
N5390 Y984.056 Z-17.217
N5395 Y1106.287 Z-17.816
N5400 Y1206.584 Z-17.942
N5405 Y1291.492 Z-17.706
N5410 Y1363.338 Z-17.171
N5415 Y1429.585 Z-16.352
N5420 Y1519.159 Z-14.784
N5425 Y1551.816 Z-14.329
N5430 Y1569.544 Z-14.335
N5435 Y1581.674 Z-14.552
N5440 Y1592.353 Z-15.025
N5445 Y1600.096 Z-15.654
N5450 Y1606.441 Z-16.445
N5455 Y1612.385 Z-17.539
N5460 Y1617.123 Z-18.786
N5465 Y1620.542 Z-19.999
N5470 Y1961.365 Z-20.
N5475 G3 Y1961.784 Z-19.903 J0. K0.952
N5480 G2 Y1962.203 Z-19.806 J0.419 K-0.855
N5485 G17 G3 X-148.298 Y1965.061 I-2.857 J0.
N5490 G1 X-157.58
N5495 G3 X-160.437 Y1962.203 I0. J-2.858
N5500 G19 G3 Y1961.784 Z-19.903 J0. K-0.952
N5505 G2 Y1961.365 Z-20. J-0.419 K0.855
N5510 G1 Y1591.203 Z-19.972
N5515 Y1586.643 Z-19.246
N5520 Y1582.117 Z-18.63
N5525 Y1573.658 Z-17.836
N5530 Y1563.334 Z-17.238
N5535 Y1552.213 Z-16.866
N5540 Y1536.351 Z-16.65
N5545 Y1513.957 Z-16.642
N5550 Y1471.036 Z-17.05
N5555 Y1371.199 Z-18.178
N5560 Y1291.889 Z-18.709
N5565 Y1203.248 Z-18.901
N5570 Y1100.492 Z-18.721
N5575 Y976.395 Z-18.067
N5580 Y667.552 Z-16.126
N5585 Y562.116 Z-15.714
N5590 Y471.557 Z-15.661
N5595 Y400.645 Z-15.939
N5600 Y376.385 Z-16.245
N5605 Y320.401 Z-17.346
N5610 Y266.284 Z-18.724
N5615 Y236.536 Z-19.659
N5620 Y225.478 Z-20.
N5625 Y-257.688
N5630 G2 Y-258.107 Z-19.903 J0. K0.952
N5635 G3 Y-258.526 Z-19.806 J-0.419 K-0.855
N5640 G17 G2 X-163.295 Y-261.384 I-2.857 J0.
N5645 G1 X-172.576
N5650 G2 X-175.434 Y-258.526 I0. J2.858
N5655 G19 G2 Y-258.107 Z-19.903 J0. K-0.952
N5660 G3 Y-257.688 Z-20. J0.419 K0.855
N5665 G1 Y289.124
N5670 Y334.844 Z-18.846
N5675 Y388.961 Z-17.687
N5680 Y436.547 Z-17.29
N5685 Y500.929 Z-17.05
N5690 Y592.368 Z-17.081
N5695 Y707.135 Z-17.524
N5700 Y1008.513 Z-19.367
N5705 Y1128.878 Z-19.938
N5710 Y1242.711 Z-20.
N5715 Y1303.36 Z-19.897
N5720 Y1457.315 Z-19.02
N5725 Y1489.972 Z-19.009
N5730 Y1511.432 Z-19.199
N5735 Y1529.16 Z-19.61
N5740 Y1537.756 Z-19.973
N5745 Y1961.365 Z-20.
N5750 G3 Y1961.784 Z-19.903 J0. K0.952
N5755 G2 Y1962.203 Z-19.806 J0.419 K-0.855
N5760 G17 G3 X-178.291 Y1965.061 I-2.858 J0.
N5765 G1 X-187.573
N5770 G3 X-190.43 Y1962.203 I0. J-2.858
N5775 G19 G3 Y1961.784 Z-19.903 J0. K-0.952
N5780 G2 Y1961.365 Z-20. J-0.419 K0.855
N5785 G1 Y888.347 Z-19.952
N5790 Y709.199 Z-19.001
N5795 Y600.964 Z-18.698
N5800 Y513.257 Z-18.786
N5805 Y451.675 Z-19.104
N5810 Y393.825 Z-19.673
N5815 Y375.164 Z-20.
N5820 Y-257.688
N5825 G2 Y-258.107 Z-19.903 J0. K0.952
N5830 G3 Y-258.526 Z-19.806 J-0.419 K-0.855
N5835 G17 G2 X-193.288 Y-261.384 I-2.857 J0.
N5840 G1 X-202.569
N5845 G2 X-205.427 Y-258.526 I0. J2.858
N5850 G19 G2 Y-258.107 Z-19.903 J0. K-0.952
N5855 G3 Y-257.688 Z-20. J0.419 K0.855
N5860 G1 Y1961.365
N5865 G3 Y1961.784 Z-19.903 J0. K0.952
N5870 G2 Y1962.203 Z-19.806 J0.419 K-0.855
N5875 G17 G3 X-208.284 Y1965.061 I-2.857 J0.
N5880 G1 X-217.566
N5885 G3 X-220.423 Y1962.203 I0. J-2.857
N5890 G19 G3 Y1961.784 Z-19.903 J0. K-0.952
N5895 G2 Y1961.365 Z-20. J-0.419 K0.855
N5900 G1 Y-257.688
N5905 G2 Y-258.107 Z-19.903 J0. K0.952
N5910 G3 Y-258.526 Z-19.806 J-0.419 K-0.855
N5915 G17 G2 X-223.281 Y-261.384 I-2.857 J0.
N5920 G1 X-232.562
N5925 G2 X-235.42 Y-258.526 I0. J2.858
N5930 G19 G2 Y-258.107 Z-19.903 J0. K-0.952
N5935 G3 Y-257.688 Z-20. J0.419 K0.855
N5940 G1 Y1961.365
N5945 G3 Y1961.784 Z-19.903 J0. K0.952
N5950 G2 Y1962.203 Z-19.806 J0.419 K-0.855
N5955 G17 G3 X-238.277 Y1965.061 I-2.857 J0.
N5960 G1 X-247.559
N5965 G3 X-250.416 Y1962.203 I0. J-2.857
N5970 G19 G3 Y1961.784 Z-19.903 J0. K-0.952
N5975 G2 Y1961.365 Z-20. J-0.419 K0.855
N5980 G1 Y-257.688
N5985 G2 Y-258.107 Z-19.903 J0. K0.952
N5990 G3 Y-258.526 Z-19.806 J-0.419 K-0.855
N5995 G17 G2 X-253.274 Y-261.384 I-2.857 J0.
N6000 G1 X-262.555
N6005 G2 X-265.413 Y-258.526 I0. J2.858
N6010 G19 G2 Y-258.107 Z-19.903 J0. K-0.952
N6015 G3 Y-257.688 Z-20. J0.419 K0.855
N6020 G1 Y1961.365
N6025 G3 Y1961.784 Z-19.903 J0. K0.952
N6030 G2 Y1962.203 Z-19.806 J0.419 K-0.855
N6035 G17 G3 X-268.27 Y1965.061 I-2.858 J0.
N6040 G1 X-277.552
N6045 G3 X-280.409 Y1962.203 I0. J-2.857
N6050 G19 G3 Y1961.784 Z-19.903 J0. K-0.952
N6055 G2 Y1961.365 Z-20. J-0.419 K0.855
N6060 G1 Y-257.688
N6065 G2 Y-258.107 Z-19.903 J0. K0.952
N6070 G3 Y-258.526 Z-19.806 J-0.419 K-0.855
N6075 G17 G2 X-283.267 Y-261.384 I-2.858 J0.
N6080 G1 X-292.548
N6085 G2 X-295.406 Y-258.526 I0. J2.858
N6090 G19 G2 Y-258.107 Z-19.903 J0. K-0.952
N6095 G3 Y-257.688 Z-20. J0.419 K0.855
N6100 G1 Y1961.365
N6105 G3 Y1961.784 Z-19.903 J0. K0.952
N6110 G2 Y1962.203 Z-19.806 J0.419 K-0.855
N6115 G17 G3 X-298.263 Y1965.061 I-2.857 J0.
N6120 G1 X-307.545
N6125 G3 X-310.402 Y1962.203 I0. J-2.857
N6130 G1 Y1962.175
N6135 G19 G3 Y1961.755 Z-19.903 J0. K-0.952
N6140 G2 Y1961.336 Z-20. J-0.419 K0.855
N6145 G1 Y-257.659
N6150 G2 Y-259.564 Z-18.095 J0. K1.905 F1000.
N6155 G0 Z15.
N6160 G17
(PARALLEL1 2)
N6165 G0 X324.45 Y1955.08
N6170 Z15.
N6175 Z-38.095
N6180 G19 G2 Y1953.176 Z-40. J-1.905 K0. F1000.
N6185 G1 Y-249.499 F4000.
N6190 G2 Y-249.918 Z-39.903 J0. K0.952
N6195 G3 Y-250.337 Z-39.806 J-0.419 K-0.855
N6200 G1 Y-263.518
N6205 G17 G2 X321.592 Y-266.375 I-2.858 J0.
N6210 G1 X312.311
N6215 G2 X309.453 Y-263.518 I0. J2.857
N6220 G19 G2 Y-263.099 Z-39.903 J0. K-0.953
N6225 G3 Y-262.679 Z-40. J0.419 K0.855
N6230 G1 Y1966.351
N6235 G3 Y1966.77 Z-39.903 J0. K0.952
N6240 G2 Y1967.189 Z-39.806 J0.419 K-0.855
N6245 G17 G3 X306.596 Y1970.047 I-2.857 J0.
N6250 G1 X297.314
N6255 G3 X294.457 Y1967.189 I0. J-2.858
N6260 G19 G3 Y1966.77 Z-39.903 J0. K-0.953
N6265 G2 Y1966.351 Z-40. J-0.419 K0.855
N6270 G1 Y-262.679
N6275 G2 Y-263.099 Z-39.903 J0. K0.952
N6280 G3 Y-263.518 Z-39.806 J-0.419 K-0.855
N6285 G17 G2 X291.599 Y-266.375 I-2.858 J0.
N6290 G1 X282.318
N6295 G2 X279.46 Y-263.518 I0. J2.857
N6300 G19 G2 Y-263.099 Z-39.903 J0. K-0.953
N6305 G3 Y-262.679 Z-40. J0.419 K0.855
N6310 G1 Y1966.351
N6315 G3 Y1966.77 Z-39.903 J0. K0.952
N6320 G2 Y1967.189 Z-39.806 J0.419 K-0.855
N6325 G17 G3 X276.603 Y1970.047 I-2.857 J0.
N6330 G1 X267.321
N6335 G3 X264.464 Y1967.189 I0. J-2.857
N6340 G19 G3 Y1966.77 Z-39.903 J0. K-0.953
N6345 G2 Y1966.351 Z-40. J-0.419 K0.855
N6350 G1 Y1129.918 Z-39.961
N6355 Y1055.653 Z-38.581
N6360 Y964.886 Z-37.255
N6365 Y916.293 Z-36.759
N6370 Y839.279 Z-36.318
N6375 Y780.601 Z-36.29
N6380 Y720.089 Z-36.579
N6385 Y659.578 Z-37.224
N6390 Y611.902 Z-38.024
N6395 Y569.727 Z-39.211
N6400 Y545.151 Z-40.
N6405 Y-262.676
N6410 G2 Y-263.095 Z-39.903 J0. K0.952
N6415 G3 Y-263.515 Z-39.806 J-0.419 K-0.855
N6420 G17 G2 X261.606 Y-266.372 I-2.858 J0.
N6425 G1 X252.325
N6430 G2 X249.467 Y-263.515 I0. J2.858
N6435 G1 Y-263.514
N6440 G19 G2 Y-263.095 Z-39.903 J0. K-0.953
N6445 G3 Y-262.676 Z-40. J0.419 K0.855
N6450 G1 Y365.959
N6455 Y379.696 Z-38.956
N6460 Y405.696 Z-37.306
N6465 Y423.641 Z-36.278
N6470 Y453.048 Z-35.039
N6475 Y486.694 Z-33.798
N6480 Y521.527 Z-32.906
N6485 Y578.371 Z-31.78
N6490 Y615.045 Z-31.308
N6495 Y684.725 Z-30.789
N6500 Y757.155 Z-30.579
N6505 Y836.004 Z-30.68
N6510 Y940.524 Z-31.242
N6515 Y1075.3 Z-32.703
N6520 Y1186.238 Z-34.171
N6525 Y1243.999 Z-35.399
N6530 Y1274.713 Z-36.221
N6535 Y1316.429 Z-37.911
N6540 Y1327.238 Z-38.546
N6545 Y1348.385 Z-39.973
N6550 Y1966.351 Z-40.
N6555 G3 Y1966.77 Z-39.903 J0. K0.952
N6560 G2 Y1967.189 Z-39.806 J0.419 K-0.855
N6565 G17 G3 X246.61 Y1970.047 I-2.857 J0.
N6570 G1 X237.328
N6575 G3 X234.471 Y1967.189 I0. J-2.857
N6580 G19 G3 Y1966.77 Z-39.903 J0. K-0.953
N6585 G2 Y1966.351 Z-40. J-0.419 K0.855
N6590 G1 Y1444.109 Z-39.999
N6595 Y1437.042 Z-38.712
N6600 Y1429.932 Z-37.678
N6605 Y1423.139 Z-36.818
N6610 Y1406.71 Z-35.21
N6615 Y1399.542 Z-34.693
N6620 Y1378.899 Z-33.413
N6625 Y1341.326 Z-31.945
N6630 Y1286.316 Z-30.698
N6635 Y1189.13 Z-29.465
N6640 Y932.414 Z-27.243
N6645 Y805.89 Z-26.668
N6650 Y709.622 Z-26.539
N6655 Y623.439 Z-26.737
N6660 Y566.594 Z-27.18
N6665 Y498.748 Z-28.029
N6670 Y465.742 Z-28.674
N6675 Y409.814 Z-30.105
N6680 Y389.986 Z-30.839
N6685 Y358.094 Z-32.254
N6690 Y334.632 Z-33.459
N6695 Y308.423 Z-35.155
N6700 Y293.021 Z-36.241
N6705 Y278.006 Z-37.58
N6710 Y261.031 Z-39.217
N6715 Y254.389 Z-40.
N6720 Y-262.674
N6725 G2 Y-263.093 Z-39.903 J0. K0.952
N6730 G3 Y-263.512 Z-39.806 J-0.419 K-0.855
N6735 G1 Y-263.515
N6740 G17 G2 X231.613 Y-266.373 I-2.857 J0.
N6745 G1 X222.332
N6750 G2 X219.474 Y-263.515 I0. J2.858
N6755 G19 G2 Y-263.096 Z-39.903 J0. K-0.953
N6760 G3 Y-262.677 Z-40. J0.419 K0.855
N6765 G1 Y171.477
N6770 Y178.281 Z-38.96
N6775 Y189.417 Z-37.563
N6780 Y200.432 Z-36.275
N6785 Y223.974 Z-34.101
N6790 Y236.592 Z-33.145
N6795 Y263.817 Z-31.315
N6800 Y279.208 Z-30.478
N6805 Y314.165 Z-28.777
N6810 Y337.94 Z-27.811
N6815 Y376.039 Z-26.492
N6820 Y407.201 Z-25.628
N6825 Y463.129 Z-24.69
N6830 Y517.222 Z-24.05
N6835 Y595.154 Z-23.584
N6840 Y664.834 Z-23.462
N6845 Y772.105 Z-23.64
N6850 Y926.134 Z-24.326
N6855 Y1025.153 Z-25.06
N6860 Y1274.534 Z-26.674
N6865 Y1344.214 Z-27.344
N6870 Y1389.14 Z-28.156
N6875 Y1420.312 Z-29.158
N6880 Y1429.418 Z-29.595
N6885 Y1446.549 Z-30.572
N6890 Y1459.977 Z-31.715
N6895 Y1467.054 Z-32.433
N6900 Y1478.693 Z-34.011
N6905 Y1484.879 Z-35.125
N6910 Y1488.389 Z-35.853
N6915 Y1493.614 Z-37.134
N6920 Y1498.753 Z-38.709
N6925 Y1502.083 Z-39.997
N6930 Y1966.351 Z-40.
N6935 G3 Y1966.77 Z-39.903 J0. K0.952
N6940 G2 Y1967.189 Z-39.806 J0.419 K-0.855
N6945 G17 G3 X216.617 Y1970.047 I-2.857 J0.
N6950 G1 X207.335
N6955 G3 X204.478 Y1967.189 I0. J-2.857
N6960 G19 G3 Y1966.77 Z-39.903 J0. K-0.953
N6965 G2 Y1966.351 Z-40. J-0.419 K0.855
N6970 G1 Y1542.926
N6975 Y1540.231 Z-38.12
N6980 Y1538.522 Z-37.15
N6985 Y1536.112 Z-35.962
N6990 Y1531.98 Z-34.303
N6995 Y1527.708 Z-32.964
N7000 Y1525.118 Z-32.269
N7005 Y1519.87 Z-31.069
N7010 Y1511.023 Z-29.539
N7015 Y1505.681 Z-28.853
N7020 Y1496.754 Z-27.852
N7025 Y1481.525 Z-26.7
N7030 Y1458.672 Z-25.622
N7035 Y1429.333 Z-24.879
N7040 Y1391.743 Z-24.398
N7045 Y1342.234 Z-24.118
N7050 Y1130.443 Z-23.483
N7055 Y991.083 Z-22.651
N7060 Y909.484 Z-22.125
N7065 Y738.034 Z-21.299
N7070 Y627.096 Z-21.056
N7075 Y548.248 Z-21.176
N7080 Y477.651 Z-21.564
N7085 Y409.346 Z-22.323
N7090 Y382.3 Z-22.844
N7095 Y322.705 Z-24.556
N7100 Y289.417 Z-25.753
N7105 Y252.307 Z-27.266
N7110 Y228.036 Z-28.487
N7115 Y203.827 Z-29.829
N7120 Y176.606 Z-31.71
N7125 Y165.164 Z-32.641
N7130 Y146.388 Z-34.334
N7135 Y129.985 Z-36.159
N7140 Y115.421 Z-38.221
N7145 Y105.374 Z-40.
N7150 Y-262.677
N7155 G2 Y-263.096 Z-39.903 J0. K0.952
N7160 G3 Y-263.515 Z-39.806 J-0.419 K-0.855
N7165 G1 Y-263.517
N7170 G17 G2 X201.62 Y-266.374 I-2.857 J0.
N7175 G1 X192.339
N7180 G2 X189.481 Y-263.517 I0. J2.858
N7185 G19 G2 Y-263.098 Z-39.903 J0. K-0.953
N7190 G3 Y-262.678 Z-40. J0.419 K0.855
N7195 G1 Y90.596
N7200 Y93.379 Z-37.845
N7205 Y96.998 Z-35.58
N7210 Y99.714 Z-34.191
N7215 Y101.228 Z-33.548
N7220 Y102.19 Z-33.194
N7225 Y104.355 Z-32.605
N7230 Y106.362 Z-32.358
N7235 Y125.62 Z-30.723
N7240 Y142.084 Z-29.586
N7245 Y162.548 Z-28.322
N7250 Y187.94 Z-26.869
N7255 Y223.188 Z-25.206
N7260 Y247.16 Z-24.23
N7265 Y284.067 Z-22.913
N7270 Y329.416 Z-21.565
N7275 Y388.552 Z-20.12
N7280 Y434.394 Z-19.611
N7285 Y495.823 Z-19.226
N7290 Y581.089 Z-19.075
N7295 Y682.858 Z-19.297
N7300 Y835.971 Z-20.048
N7305 Y993.668 Z-21.019
N7310 Y1122.026 Z-21.708
N7315 Y1234.797 Z-21.932
N7320 Y1387.965 Z-21.736
N7325 Y1433.807 Z-21.767
N7330 Y1463.146 Z-21.969
N7335 Y1487.901 Z-22.4
N7340 Y1508.063 Z-23.097
N7345 Y1522.44 Z-23.962
N7350 Y1528.702 Z-24.527
N7355 Y1535.849 Z-25.258
N7360 Y1542.96 Z-26.292
N7365 Y1547.37 Z-27.084
N7370 Y1553.5 Z-28.446
N7375 Y1557.792 Z-29.704
N7380 Y1561.983 Z-31.248
N7385 Y1565.977 Z-33.151
N7390 Y1568.95 Z-35.027
N7395 Y1570.997 Z-36.661
N7400 Y1572.552 Z-38.238
N7405 Y1573.871 Z-39.997
N7410 Y1966.351 Z-40.
N7415 G3 Y1966.77 Z-39.903 J0. K0.952
N7420 G2 Y1967.189 Z-39.806 J0.419 K-0.855
N7425 G17 G3 X186.624 Y1970.047 I-2.857 J0.
N7430 G1 X177.342
N7435 G3 X174.485 Y1967.189 I0. J-2.858
N7440 G19 G3 Y1966.77 Z-39.903 J0. K-0.953
N7445 G2 Y1966.351 Z-40. J-0.419 K0.855
N7450 G1 Y1598.557 Z-39.975
N7455 Y1597.766 Z-37.892
N7460 Y1596.452 Z-35.666
N7465 Y1594.818 Z-33.692
N7470 Y1592.938 Z-31.97
N7475 Y1590.807 Z-30.42
N7480 Y1587.749 Z-28.661
N7485 Y1583.892 Z-26.958
N7490 Y1580.307 Z-25.717
N7495 Y1575.114 Z-24.328
N7500 Y1571.609 Z-23.604
N7505 Y1566.304 Z-22.662
N7510 Y1557.839 Z-21.608
N7515 Y1553.815 Z-21.247
N7520 Y1545.081 Z-20.591
N7525 Y1531.117 Z-19.959
N7530 Y1513.697 Z-19.551
N7535 Y1493.527 Z-19.366
N7540 Y1464.188 Z-19.367
N7545 Y1371.587 Z-19.952
N7550 Y1278.069 Z-20.402
N7555 Y1184.242 Z-20.474
N7560 Y1076.054 Z-20.16
N7565 Y692.814 Z-17.871
N7570 Y579.126 Z-17.464
N7575 Y489.275 Z-17.476
N7580 Y426.013 Z-17.748
N7585 Y387.506 Z-18.098
N7590 Y332.495 Z-19.277
N7595 Y275.651 Z-20.815
N7600 Y241.997 Z-21.928
N7605 Y208.844 Z-23.184
N7610 Y177.138 Z-24.605
N7615 Y134.298 Z-26.779
N7620 Y109.942 Z-28.28
N7625 Y104.706 Z-28.707
N7630 Y101.437 Z-29.45
N7635 Y98.428 Z-30.336
N7640 Y94.034 Z-31.851
N7645 Y89.774 Z-33.743
N7650 Y87.988 Z-34.751
N7655 Y85.572 Z-36.254
N7660 Y82.659 Z-38.529
N7665 Y81.097 Z-40.
N7670 Y-262.674
N7675 G2 Y-263.093 Z-39.903 J0. K0.952
N7680 G3 Y-263.513 Z-39.806 J-0.419 K-0.855
N7685 G17 G2 X171.627 Y-266.37 I-2.857 J0.
N7690 G1 X162.346
N7695 G2 X159.488 Y-263.513 I0. J2.857
N7700 G1 Y-263.512
N7705 G19 G2 Y-263.093 Z-39.903 J0. K-0.953
N7710 G3 Y-262.673 Z-40. J0.419 K0.855
N7715 G1 Y74.294
N7720 Y76.864 Z-37.479
N7725 Y79.451 Z-35.378
N7730 Y82.159 Z-33.53
N7735 Y85.184 Z-31.842
N7740 Y86.662 Z-31.138
N7745 Y88.534 Z-30.348
N7750 Y92.164 Z-29.049
N7755 Y95.866 Z-28.025
N7760 Y99.016 Z-27.313
N7765 Y103.771 Z-26.347
N7770 Y105.375 Z-26.114
N7775 Y115.41 Z-25.466
N7780 Y131.813 Z-24.552
N7785 Y175.039 Z-22.466
N7790 Y201.371 Z-21.331
N7795 Y233.187 Z-20.154
N7800 Y263.3 Z-19.2
N7805 Y316.477 Z-17.83
N7810 Y374.238 Z-16.692
N7815 Y399.91 Z-16.357
N7820 Y467.756 Z-16.089
N7825 Y557.606 Z-16.128
N7830 Y667.628 Z-16.56
N7835 Y971.102 Z-18.47
N7840 Y1096.71 Z-19.145
N7845 Y1199.396 Z-19.341
N7850 Y1291.335 Z-19.144
N7855 Y1368.35 Z-18.631
N7860 Y1460.034 Z-17.592
N7865 Y1511.377 Z-17.027
N7870 Y1536.132 Z-16.994
N7875 Y1551.718 Z-17.181
N7880 Y1565.468 Z-17.612
N7885 Y1575.356 Z-18.204
N7890 Y1582.955 Z-18.931
N7895 Y1587.666 Z-19.563
N7900 Y1592.093 Z-20.266
N7905 Y1596.478 Z-21.224
N7910 Y1599.069 Z-21.886
N7915 Y1602.902 Z-23.118
N7920 Y1606.042 Z-24.404
N7925 Y1608.841 Z-25.834
N7930 Y1611.266 Z-27.391
N7935 Y1613.192 Z-28.935
N7940 Y1614.731 Z-30.478
N7945 Y1616.034 Z-32.115
N7950 Y1616.412 Z-32.675
N7955 Y1617.391 Z-34.447
N7960 Y1618.105 Z-36.311
N7965 Y1618.528 Z-38.115
N7970 Y1618.719 Z-40.
N7975 Y1966.351
N7980 G3 Y1966.77 Z-39.903 J0. K0.952
N7985 G2 Y1967.189 Z-39.806 J0.419 K-0.855
N7990 G17 G3 X156.631 Y1970.047 I-2.858 J0.
N7995 G1 X147.349
N8000 G3 X144.492 Y1967.189 I0. J-2.858
N8005 G19 G3 Y1966.77 Z-39.903 J0. K-0.953
N8010 G2 Y1966.351 Z-40. J-0.419 K0.855
N8015 G1 Y1635.638
N8020 Y1635.585 Z-36.256
N8025 Y1635.184 Z-33.82
N8030 Y1634.554 Z-31.867
N8035 Y1633.583 Z-29.858
N8040 Y1632.41 Z-28.08
N8045 Y1631.033 Z-26.483
N8050 Y1629.499 Z-25.04
N8055 Y1627.477 Z-23.503
N8060 Y1626.658 Z-22.972
N8065 Y1625.15 Z-22.09
N8070 Y1622.749 Z-20.901
N8075 Y1619.428 Z-19.603
N8080 Y1616.882 Z-18.819
N8085 Y1613.412 Z-17.906
N8090 Y1608.307 Z-16.935
N8095 Y1604.756 Z-16.434
N8100 Y1599.404 Z-15.835
N8105 Y1594.03 Z-15.412
N8110 Y1586.737 Z-15.044
N8115 Y1573.901 Z-14.721
N8120 Y1558.315 Z-14.672
N8125 Y1532.643 Z-14.964
N8130 Y1428.123 Z-16.808
N8135 Y1358.443 Z-17.658
N8140 Y1279.595 Z-18.207
N8145 Y1195.245 Z-18.397
N8150 Y1094.766 Z-18.225
N8155 Y969.158 Z-17.571
N8160 Y641.846 Z-15.458
N8165 Y535.492 Z-15.031
N8170 Y446.558 Z-14.975
N8175 Y389.714 Z-15.194
N8180 Y331.036 Z-16.077
N8185 Y279.693 Z-17.142
N8190 Y232.017 Z-18.439
N8195 Y204.955 Z-19.358
N8200 Y176.876 Z-20.474
N8205 Y133.507 Z-22.504
N8210 Y114.05 Z-23.602
N8215 Y105.226 Z-24.183
N8220 Y102.421 Z-24.603
N8225 Y96.065 Z-25.736
N8230 Y92.905 Z-26.43
N8235 Y89.737 Z-27.318
N8240 Y86.717 Z-28.36
N8245 Y85.206 Z-28.978
N8250 Y83.727 Z-29.644
N8255 Y81.11 Z-30.984
N8260 Y77.75 Z-33.11
N8265 Y75.48 Z-34.857
N8270 Y73.239 Z-36.864
N8275 Y70.6 Z-39.751
N8280 Y70.384 Z-40.
N8285 Y-262.679
N8290 G2 Y-263.098 Z-39.903 J0. K0.952
N8295 G3 Y-263.517 Z-39.806 J-0.419 K-0.855
N8300 G17 G2 X141.634 Y-266.375 I-2.857 J0.
N8305 G1 X132.353
N8310 G2 X129.495 Y-263.517 I0. J2.858
N8315 G19 G2 Y-263.098 Z-39.903 J0. K-0.953
N8320 G3 Y-262.679 Z-40. J0.419 K0.855
N8325 G1 Y68.455
N8330 Y70.235 Z-37.646
N8335 Y72.611 Z-35.044
N8340 Y75.321 Z-32.623
N8345 Y78.36 Z-30.436
N8350 Y80.819 Z-28.971
N8355 Y82.271 Z-28.22
N8360 Y83.748 Z-27.528
N8365 Y85.249 Z-26.891
N8370 Y88.301 Z-25.788
N8375 Y91.414 Z-24.889
N8380 Y93.58 Z-24.374
N8385 Y99.35 Z-23.365
N8390 Y105.25 Z-22.533
N8395 Y117.22 Z-21.753
N8400 Y136.935 Z-20.686
N8405 Y171.136 Z-19.142
N8410 Y198.272 Z-18.091
N8415 Y223.777 Z-17.269
N8420 Y269.619 Z-16.087
N8425 Y320.962 Z-15.113
N8430 Y385.141 Z-14.26
N8435 Y428.233 Z-14.092
N8440 Y515.333 Z-14.145
N8445 Y623.52 Z-14.579
N8450 Y968.253 Z-16.833
N8455 Y1093.861 Z-17.461
N8460 Y1193.603 Z-17.61
N8465 Y1275.201 Z-17.406
N8470 Y1350.383 Z-16.865
N8475 Y1415.478 Z-16.053
N8480 Y1476.907 Z-14.93
N8485 Y1560.339 Z-12.88
N8490 Y1583.26 Z-12.462
N8495 Y1597.93 Z-12.458
N8500 Y1608.474 Z-12.726
N8505 Y1615.924 Z-13.183
N8510 Y1621.991 Z-13.822
N8515 Y1627.137 Z-14.643
N8520 Y1631.663 Z-15.692
N8525 Y1635.079 Z-16.785
N8530 Y1636.729 Z-17.412
N8535 Y1639.934 Z-18.94
N8540 Y1642.166 Z-20.316
N8545 Y1644.553 Z-22.198
N8550 Y1646.347 Z-24.074
N8555 Y1647.589 Z-25.739
N8560 Y1648.564 Z-27.427
N8565 Y1649.453 Z-29.609
N8570 Y1650.026 Z-31.95
N8575 Y1650.228 Z-34.034
N8580 Y1650.245 Z-40.
N8585 Y1966.351
N8590 G3 Y1966.77 Z-39.903 J0. K0.952
N8595 G2 Y1967.189 Z-39.806 J0.419 K-0.855
N8600 G17 G3 X126.638 Y1970.047 I-2.857 J0.
N8605 G1 X117.356
N8610 G3 X114.499 Y1967.189 I0. J-2.858
N8615 G19 G3 Y1966.77 Z-39.903 J0. K-0.953
N8620 G2 Y1966.351 Z-40. J-0.419 K0.855
N8625 G1 Y1662.913
N8630 Y1662.862 Z-30.527
N8635 Y1662.518 Z-28.164
N8640 Y1661.823 Z-25.829
N8645 Y1660.822 Z-23.663
N8650 Y1659.755 Z-21.984
N8655 Y1658.124 Z-20.019
N8660 Y1656.21 Z-18.266
N8665 Y1654.108 Z-16.761
N8670 Y1651.014 Z-15.067
N8675 Y1647.714 Z-13.739
N8680 Y1644.289 Z-12.734
N8685 Y1642.556 Z-12.324
N8690 Y1638.308 Z-11.549
N8695 Y1633.689 Z-10.985
N8700 Y1628.316 Z-10.583
N8705 Y1620.982 Z-10.318
N8710 Y1609.98 Z-10.27
N8715 Y1593.477 Z-10.598
N8720 Y1564.213 Z-11.535
N8725 Y1509.363 Z-13.247
N8730 Y1454.353 Z-14.569
N8735 Y1392.007 Z-15.64
N8740 Y1320.494 Z-16.422
N8745 Y1241.645 Z-16.856
N8750 Y1152.548 Z-16.946
N8755 Y1043.444 Z-16.635
N8760 Y838.988 Z-15.391
N8765 Y615.278 Z-13.91
N8770 Y505.257 Z-13.456
N8775 Y418.157 Z-13.395
N8780 Y381.483 Z-13.541
N8785 Y317.304 Z-14.272
N8790 Y263.211 Z-15.199
N8795 Y218.285 Z-16.293
N8800 Y191.76 Z-17.115
N8805 Y168.618 Z-17.978
N8810 Y136.562 Z-19.385
N8815 Y119.328 Z-20.302
N8820 Y105.527 Z-21.176
N8825 Y99.464 Z-21.905
N8830 Y96.265 Z-22.335
N8835 Y93.082 Z-22.906
N8840 Y89.933 Z-23.656
N8845 Y88.374 Z-24.103
N8850 Y85.689 Z-25.019
N8855 Y82.05 Z-26.589
N8860 Y78.788 Z-28.399
N8865 Y75.69 Z-30.563
N8870 Y73.087 Z-32.822
N8875 Y70.672 Z-35.394
N8880 Y68.532 Z-38.208
N8885 Y67.383 Z-40.
N8890 Y-262.676
N8895 G2 Y-263.095 Z-39.903 J0. K0.952
N8900 G3 Y-263.514 Z-39.806 J-0.419 K-0.855
N8905 G1 Y-263.518
N8910 G17 G2 X111.641 Y-266.375 I-2.857 J0.
N8915 G1 X102.36
N8920 G2 X99.502 Y-263.518 I0. J2.858
N8925 G19 G2 Y-263.098 Z-39.903 J0. K-0.953
N8930 G3 Y-262.679 Z-40. J0.419 K0.855
N8935 G1 Y66.658
N8940 Y67.877 Z-37.885
N8945 Y69.769 Z-35.138
N8950 Y71.781 Z-32.739
N8955 Y73.68 Z-30.845
N8960 Y76.207 Z-28.747
N8965 Y79.104 Z-26.798
N8970 Y82.169 Z-25.152
N8975 Y85.72 Z-23.668
N8980 Y88.624 Z-22.726
N8985 Y90.191 Z-22.308
N8990 Y92.561 Z-21.776
N8995 Y96.147 Z-21.168
N9000 Y105.374 Z-20.156
N9005 Y117.463 Z-19.384
N9010 Y136.501 Z-18.369
N9015 Y159.993 Z-17.34
N9020 Y184.629 Z-16.415
N9025 Y211.14 Z-15.599
N9030 Y253.314 Z-14.599
N9035 Y304.658 Z-13.744
N9040 Y367.003 Z-13.074
N9045 Y406.427 Z-12.865
N9050 Y491.693 Z-12.905
N9055 Y602.631 Z-13.347
N9060 Y940.029 Z-15.56
N9065 Y1074.805 Z-16.242
N9070 Y1177.505 Z-16.41
N9075 Y1257.27 Z-16.23
N9080 Y1332.451 Z-15.721
N9085 Y1392.963 Z-14.996
N9090 Y1451.64 Z-13.947
N9095 Y1504.817 Z-12.625
N9100 Y1545.979 Z-11.291
N9105 Y1608.231 Z-8.808
N9110 Y1621.891 Z-8.334
N9115 Y1633.122 Z-8.156
N9120 Y1641.145 Z-8.308
N9125 Y1644.731 Z-8.506
N9130 Y1649.198 Z-8.922
N9135 Y1653.629 Z-9.6
N9140 Y1657.964 Z-10.658
N9145 Y1661.309 Z-11.855
N9150 Y1664.465 Z-13.43
N9155 Y1667.164 Z-15.286
N9160 Y1669.206 Z-17.178
N9165 Y1670.67 Z-18.956
N9170 Y1671.91 Z-20.952
N9175 Y1672.947 Z-23.318
N9180 Y1673.52 Z-25.352
N9185 Y1673.87 Z-27.813
N9190 Y1673.922 Z-40.
N9195 Y1966.351
N9200 G3 Y1966.77 Z-39.903 J0. K0.952
N9205 G2 Y1967.189 Z-39.806 J0.419 K-0.855
N9210 G17 G3 X96.645 Y1970.047 I-2.857 J0.
N9215 G1 X87.363
N9220 G3 X84.505 Y1967.189 I0. J-2.858
N9225 G19 G3 Y1966.77 Z-39.903 J0. K-0.953
N9230 G2 Y1966.351 Z-40. J-0.419 K0.855
N9235 G1 Y1683.488
N9240 Y1683.436 Z-25.196
N9245 Y1683.089 Z-22.679
N9250 Y1682.402 Z-20.279
N9255 Y1681.331 Z-17.917
N9260 Y1679.972 Z-15.805
N9265 Y1678.224 Z-13.816
N9270 Y1676.276 Z-12.133
N9275 Y1674.088 Z-10.691
N9280 Y1671.743 Z-9.508
N9285 Y1669.257 Z-8.537
N9290 Y1666.372 Z-7.704
N9295 Y1662.751 Z-6.998
N9300 Y1661.418 Z-6.803
N9305 Y1657.85 Z-6.435
N9310 Y1652.42 Z-6.188
N9315 Y1645.085
N9320 Y1635.123 Z-6.507
N9325 Y1611.151 Z-7.667
N9330 Y1565.884 Z-9.801
N9335 Y1523.247 Z-11.425
N9340 Y1474.672 Z-12.841
N9345 Y1419.662 Z-14.026
N9350 Y1356.4 Z-14.963
N9355 Y1284.886 Z-15.604
N9360 Y1201.453 Z-15.931
N9365 Y1102.314 Z-15.891
N9370 Y980.374 Z-15.397
N9375 Y741.995 Z-13.849
N9380 Y576.047 Z-12.825
N9385 Y471.526 Z-12.465
N9390 Y392.678 Z-12.481
N9395 Y330.333 Z-12.92
N9400 Y274.405 Z-13.621
N9405 Y227.646 Z-14.512
N9410 Y189.139 Z-15.546
N9415 Y164.942 Z-16.389
N9420 Y140.471 Z-17.409
N9425 Y122.231 Z-18.332
N9430 Y106.096 Z-19.326
N9435 Y98.06 Z-20.068
N9440 Y94.654 Z-20.489
N9445 Y91.668 Z-21.024
N9450 Y88.521 Z-21.785
N9455 Y86.964 Z-22.252
N9460 Y85.427 Z-22.776
N9465 Y82.735 Z-23.863
N9470 Y79.42 Z-25.562
N9475 Y76.371 Z-27.567
N9480 Y74.215 Z-29.307
N9485 Y73.009 Z-30.423
N9490 Y71.3 Z-32.22
N9495 Y69.117 Z-34.997
N9500 Y67.186 Z-38.08
N9505 Y66.185 Z-40.
N9510 Y-262.678
N9515 G2 Y-263.097 Z-39.903 J0. K0.952
N9520 G3 Y-263.516 Z-39.806 J-0.419 K-0.855
N9525 G17 G2 X81.648 Y-266.374 I-2.857 J0.
N9530 G1 X72.366
N9535 G2 X69.509 Y-263.516 I0. J2.857
N9540 G1 Y-263.515
N9545 G19 G2 Y-263.096 Z-39.903 J0. K-0.953
N9550 G3 Y-262.677 Z-40. J0.419 K0.855
N9555 G1 Y65.878
N9560 Y66.508 Z-38.686
N9565 Y68.139 Z-35.758
N9570 Y69.729 Z-33.423
N9575 Y71.915 Z-30.795
N9580 Y74.452 Z-28.343
N9585 Y76.544 Z-26.685
N9590 Y77.895 Z-25.753
N9595 Y79.287 Z-24.891
N9600 Y80.719 Z-24.1
N9605 Y82.185 Z-23.378
N9610 Y83.68 Z-22.723
N9615 Y86.895 Z-21.56
N9620 Y89.857 Z-20.74
N9625 Y92.829 Z-20.121
N9630 Y96.228 Z-19.622
N9635 Y105.875 Z-18.771
N9640 Y122.01 Z-17.775
N9645 Y140.244 Z-16.849
N9650 Y164.725 Z-15.834
N9655 Y186.394 Z-15.096
N9660 Y224.902 Z-14.083
N9665 Y271.661 Z-13.223
N9670 Y326.671 Z-12.577
N9675 Y391.767 Z-12.173
N9680 Y470.616 Z-12.163
N9685 Y576.052 Z-12.532
N9690 Y745.668 Z-13.579
N9695 Y974.879 Z-15.047
N9700 Y1097.736 Z-15.531
N9705 Y1196.422 Z-15.568
N9710 Y1280.772 Z-15.237
N9715 Y1352.285 Z-14.593
N9720 Y1413.714 Z-13.688
N9725 Y1467.807 Z-12.536
N9730 Y1516.4 Z-11.132
N9735 Y1557.361 Z-9.58
N9740 Y1595.595 Z-7.76
N9745 Y1646.736 Z-4.804
N9750 Y1656.407 Z-4.34
N9755 Y1663.284 Z-4.222
N9760 Y1668.292 Z-4.397
N9765 Y1671.415 Z-4.703
N9770 Y1674.946 Z-5.305
N9775 Y1676.67 Z-5.729
N9780 Y1678.373 Z-6.247
N9785 Y1680.824 Z-7.235
N9790 Y1683.07 Z-8.449
N9795 Y1684.908 Z-9.721
N9800 Y1686.834 Z-11.44
N9805 Y1688.456 Z-13.368
N9810 Y1689.658 Z-15.291
N9815 Y1690.661 Z-17.513
N9820 Y1691.37 Z-19.974
N9825 Y1691.742 Z-22.652
N9830 Y1691.789 Z-40.
N9835 Y1966.351
N9840 G3 Y1966.77 Z-39.903 J0. K0.952
N9845 G2 Y1967.189 Z-39.806 J0.419 K-0.855
N9850 G17 G3 X66.651 Y1970.047 I-2.858 J0.
N9855 G1 X57.37
N9860 G3 X54.512 Y1967.189 I0. J-2.858
N9865 G19 G3 Y1966.77 Z-39.903 J0. K-0.953
N9870 G2 Y1966.351 Z-40. J-0.419 K0.855
N9875 G1 Y1698.975
N9880 Y1698.93 Z-20.172
N9885 Y1698.572 Z-17.485
N9890 Y1697.88 Z-15.002
N9895 Y1696.841 Z-12.675
N9900 Y1695.62 Z-10.735
N9905 Y1694.139 Z-8.975
N9910 Y1692.402 Z-7.397
N9915 Y1690.457 Z-6.032
N9920 Y1688.222 Z-4.848
N9925 Y1685.65 Z-3.868
N9930 Y1682.844 Z-3.146
N9935 Y1679.308 Z-2.619
N9940 Y1675.939 Z-2.405
N9945 Y1671.125 Z-2.415
N9950 Y1665.885 Z-2.643
N9955 Y1654.413 Z-3.39
N9960 Y1615.886 Z-6.034
N9965 Y1583.599 Z-7.875
N9970 Y1546.741 Z-9.576
N9975 Y1506.621 Z-11.039
N9980 Y1458.957 Z-12.377
N9985 Y1403.03 Z-13.522
N9990 Y1339.767 Z-14.405
N9995 Y1266.42 Z-15.013
N10000 Y1179.32 Z-15.301
N10005 Y1089.232 Z-15.241
N10010 Y961.791 Z-14.733
N10015 Y710.576 Z-13.119
N10020 Y557.464 Z-12.228
N10025 Y455.694 Z-11.922
N10030 Y381.43 Z-11.983
N10035 Y316.334 Z-12.393
N10040 Y263.157 Z-13.029
N10045 Y218.232 Z-13.874
N10050 Y180.641 Z-14.889
N10055 Y159.242 Z-15.64
N10060 Y138.474 Z-16.519
N10065 Y120.283 Z-17.461
N10070 Y105.769 Z-18.373
N10075 Y96.168 Z-19.168
N10080 Y91.924 Z-19.812
N10085 Y89.746 Z-20.28
N10090 Y88.175 Z-20.686
N10095 Y85.374 Z-21.567
N10100 Y81.895 Z-22.999
N10105 Y78.785 Z-24.671
N10110 Y77.783 Z-25.306
N10115 Y75.777 Z-26.739
N10120 Y73.122 Z-29.045
N10125 Y71.543 Z-30.694
N10130 Y69.97 Z-32.604
N10135 Y68.517 Z-34.676
N10140 Y67.141 Z-37.001
N10145 Y65.674 Z-40.
N10150 Y-262.68
N10155 G2 Y-263.099 Z-39.903 J0. K0.952
N10160 G3 Y-263.518 Z-39.806 J-0.419 K-0.855
N10165 G17 G2 X51.655 Y-266.376 I-2.857 J0.
N10170 G1 X42.373
N10175 G2 X39.516 Y-263.518 I0. J2.857
N10180 G1 Y-263.517
N10185 G19 G2 Y-263.098 Z-39.903 J0. K-0.953
N10190 G3 Y-262.679 Z-40. J0.419 K0.855
N10195 G1 Y65.562
N10200 Y66.147 Z-38.693
N10205 Y67.805 Z-35.517
N10210 Y69.266 Z-33.244
N10215 Y70.792 Z-31.237
N10220 Y72.446 Z-29.386
N10225 Y73.623 Z-28.23
N10230 Y74.853 Z-27.142
N10235 Y76.635 Z-25.755
N10240 Y79.55 Z-23.879
N10245 Y81.711 Z-22.748
N10250 Y83.195 Z-22.078
N10255 Y84.708 Z-21.475
N10260 Y86.244 Z-20.936
N10265 Y87.993 Z-20.406
N10270 Y90.941 Z-19.689
N10275 Y93.329 Z-19.246
N10280 Y97.739 Z-18.708
N10285 Y110.212 Z-17.8
N10290 Y126.39 Z-16.846
N10295 Y143.245 Z-16.021
N10300 Y165.941 Z-15.113
N10305 Y188.7 Z-14.376
N10310 Y227.208 Z-13.433
N10315 Y273.967 Z-12.657
N10320 Y329.894 Z-12.094
N10325 Y396.824 Z-11.786
N10330 Y482.09 Z-11.817
N10335 Y593.028 Z-12.251
N10340 Y902.004 Z-14.223
N10345 Y1036.78 Z-14.891
N10350 Y1147.977 Z-15.106
N10355 Y1238.745 Z-14.92
N10360 Y1315.759 Z-14.403
N10365 Y1382.689 Z-13.588
N10370 Y1440.45 Z-12.519
N10375 Y1490.876 Z-11.221
N10380 Y1533.968 Z-9.752
N10385 Y1571.408 Z-8.116
N10390 Y1603.809 Z-6.349
N10395 Y1632.502 Z-4.433
N10400 Y1662.403 Z-2.031
N10405 Y1675.636 Z-0.961
N10410 Y1680.679 Z-0.677
N10415 Y1683.2 Z-0.618
N10420 Y1686.157 Z-0.693
N10425 Y1687.051 Z-0.757
N10430 Y1690.152 Z-1.182
N10435 Y1692.954 Z-1.912
N10440 Y1695.4 Z-2.89
N10445 Y1697.492 Z-4.067
N10450 Y1699.243 Z-5.378
N10455 Y1700.754 Z-6.835
N10460 Y1702.068 Z-8.469
N10465 Y1703.289 Z-10.52
N10470 Y1704.234 Z-12.801
N10475 Y1704.807 Z-15.014
N10480 Y1705.036 Z-16.511
N10485 Y1705.121 Z-17.436
N10490 Y1705.172 Z-40.
N10495 Y1966.351
N10500 G3 Y1966.77 Z-39.903 J0. K0.952
N10505 G2 Y1967.189 Z-39.806 J0.419 K-0.855
N10510 G17 G3 X36.658 Y1970.047 I-2.857 J0.
N10515 G1 X27.377
N10520 G3 X24.519 Y1967.189 I0. J-2.858
N10525 G19 G3 Y1966.77 Z-39.903 J0. K-0.953
N10530 G2 Y1966.351 Z-40. J-0.419 K0.855
N10535 G1 Y1710.481
N10540 Y1710.43 Z-14.598
N10545 Y1710.079 Z-12.002
N10550 Y1709.379 Z-9.547
N10555 Y1708.373 Z-7.363
N10560 Y1707.228 Z-5.597
N10565 Y1705.736 Z-3.885
N10570 Y1703.935 Z-2.354
N10575 Y1702.006 Z-1.145
N10580 Y1699.711 Z-0.125
N10585 Y1697.374 Z0.548
N10590 Y1694.516 Z0.985
N10595 Y1691.346 Z1.091
N10600 Y1689.283 Z1.024
N10605 Y1684.402 Z0.667
N10610 Y1651.878 Z-2.483
N10615 Y1626.803 Z-4.51
N10620 Y1598.105 Z-6.406
N10625 Y1564.725 Z-8.187
N10630 Y1526.33 Z-9.813
N10635 Y1481.409 Z-11.286
N10640 Y1430.066 Z-12.549
N10645 Y1371.388 Z-13.575
N10650 Y1302.625 Z-14.354
N10655 Y1223.776 Z-14.826
N10660 Y1131.215 Z-14.962
N10665 Y1015.693 Z-14.689
N10670 Y851.578 Z-13.803
N10675 Y594.862 Z-12.165
N10680 Y483.007 Z-11.726
N10685 Y397.741 Z-11.691
N10690 Y329.895 Z-11.98
N10695 Y273.967 Z-12.523
N10700 Y227.208 Z-13.283
N10705 Y188.701 Z-14.213
N10710 Y165.946 Z-14.941
N10715 Y144.828 Z-15.776
N10720 Y126.297 Z-16.677
N10725 Y110.124 Z-17.635
N10730 Y97.047 Z-18.583
N10735 Y94.038 Z-18.946
N10740 Y90.852 Z-19.511
N10745 Y87.903 Z-20.231
N10750 Y84.622 Z-21.304
N10755 Y83.109 Z-21.911
N10760 Y81.623 Z-22.585
N10765 Y80.17 Z-23.329
N10770 Y78.754 Z-24.143
N10775 Y77.379 Z-25.028
N10780 Y76.048 Z-25.985
N10785 Y74.766 Z-27.012
N10790 Y73.536 Z-28.108
N10795 Y71.8 Z-29.874
N10800 Y69.693 Z-32.456
N10805 Y67.8 Z-35.341
N10810 Y66.646 Z-37.479
N10815 Y65.493 Z-40.
N10820 Y-262.679
N10825 G2 Y-263.099 Z-39.903 J0. K0.952
N10830 G3 Y-263.518 Z-39.806 J-0.419 K-0.855
N10835 G17 G2 X21.662 Y-266.375 I-2.858 J0.
N10840 G1 X12.38
N10845 G2 X9.523 Y-263.518 I0. J2.858
N10850 G1 Y-263.513
N10855 G19 G2 Y-263.093 Z-39.903 J0. K-0.953
N10860 G3 Y-262.674 Z-40. J0.419 K0.855
N10865 G1 Y65.439
N10870 Y65.534 Z-39.849
N10875 Y67.092 Z-36.526
N10880 Y68.862 Z-33.554
N10885 Y70.591 Z-31.195
N10890 Y72.801 Z-28.726
N10895 Y75.238 Z-26.524
N10900 Y78.059 Z-24.481
N10905 Y81.065 Z-22.762
N10910 Y83.277 Z-21.742
N10915 Y84.791 Z-21.144
N10920 Y86.328 Z-20.611
N10925 Y89.426 Z-19.737
N10930 Y92.621 Z-19.079
N10935 Y97.028 Z-18.494
N10940 Y110.307 Z-17.541
N10945 Y126.481 Z-16.584
N10950 Y145.016 Z-15.685
N10955 Y165.974 Z-14.858
N10960 Y187.781 Z-14.16
N10965 Y226.289 Z-13.228
N10970 Y272.131 Z-12.48
N10975 Y327.141 Z-11.943
N10980 Y394.071 Z-11.653
N10985 Y477.503 Z-11.669
N10990 Y587.524 Z-12.079
N10995 Y917.588 Z-14.15
N11000 Y1056.031 Z-14.762
N11005 Y1162.101 Z-14.883
N11010 Y1251.951 Z-14.617
N11015 Y1327.132 Z-14.028
N11020 Y1392.228 Z-13.154
N11025 Y1448.156 Z-12.039
N11030 Y1496.748 Z-10.709
N11035 Y1538.796 Z-9.196
N11040 Y1574.733 Z-7.549
N11045 Y1601.623 Z-6.033
N11050 Y1628.517 Z-4.195
N11055 Y1651.795 Z-2.25
N11060 Y1671.46 Z-0.259
N11065 Y1692.758 Z2.317
N11070 Y1696.774 Z2.723
N11075 Y1698.947 Z2.815
N11080 Y1701.774 Z2.654
N11085 Y1704.35 Z2.129
N11090 Y1706.609 Z1.293
N11095 Y1708.697 Z0.118
N11100 Y1710.359 Z-1.192
N11105 Y1711.786 Z-2.713
N11110 Y1712.981 Z-4.45
N11115 Y1713.975 Z-6.532
N11120 Y1714.634 Z-8.784
N11125 Y1714.962 Z-11.218
N11130 Y1715.004 Z-40.
N11135 Y1966.351
N11140 G3 Y1966.77 Z-39.903 J0. K0.952
N11145 G2 Y1967.189 Z-39.806 J0.419 K-0.855
N11150 G17 G3 X6.665 Y1970.047 I-2.858 J0.
N11155 G1 X-2.616
N11160 G3 X-5.474 Y1967.189 I0. J-2.858
N11165 G19 G3 Y1966.77 Z-39.903 J0. K-0.953
N11170 G2 Y1966.351 Z-40. J-0.419 K0.855
N11175 G1 Y1716.095
N11180 Y1716.05 Z-9.903
N11185 Y1715.695 Z-7.529
N11190 Y1715.014 Z-5.376
N11195 Y1713.987 Z-3.339
N11200 Y1712.856 Z-1.753
N11205 Y1711.41 Z-0.254
N11210 Y1709.727 Z1.024
N11215 Y1708.215 Z1.865
N11220 Y1706.592 Z2.512
N11225 Y1704.223 Z3.075
N11230 Y1701.558 Z3.315
N11235 Y1698.293 Z3.167
N11240 Y1692.685 Z2.459
N11245 Y1675.446 Z0.244
N11250 Y1657.58 Z-1.669
N11255 Y1636.103 Z-3.577
N11260 Y1610.135 Z-5.47
N11265 Y1580.647 Z-7.22
N11270 Y1546.056 Z-8.876
N11275 Y1505.027 Z-10.424
N11280 Y1457.361 Z-11.802
N11285 Y1402.35 Z-12.967
N11290 Y1339.088 Z-13.884
N11295 Y1265.741 Z-14.527
N11300 Y1179.557 Z-14.853
N11305 Y1077.119 Z-14.808
N11310 Y947.844 Z-14.308
N11315 Y582.024 Z-12.047
N11320 Y473.836 Z-11.656
N11325 Y391.32 Z-11.654
N11330 Y325.308 Z-11.949
N11335 Y270.297 Z-12.496
N11340 Y224.455 Z-13.256
N11345 Y185.948 Z-14.203
N11350 Y164.073 Z-14.916
N11355 Y143.289 Z-15.751
N11360 Y126.438 Z-16.576
N11365 Y110.265 Z-17.533
N11370 Y96.986 Z-18.488
N11375 Y92.58 Z-19.075
N11380 Y89.397 Z-19.733
N11385 Y86.289 Z-20.612
N11390 Y84.752 Z-21.147
N11395 Y83.239 Z-21.747
N11400 Y81.753 Z-22.414
N11405 Y79.415 Z-23.644
N11410 Y76.422 Z-25.597
N11415 Y74.272 Z-27.331
N11420 Y72.481 Z-29.044
N11425 Y70.831 Z-30.891
N11430 Y68.842 Z-33.575
N11435 Y67.076 Z-36.548
N11440 Y65.515 Z-39.886
N11445 Y65.439 Z-40.
N11450 Y-262.674
N11455 G2 Y-263.093 Z-39.903 J0. K0.952
N11460 G3 Y-263.513 Z-39.806 J-0.419 K-0.855
N11465 G17 G2 X-8.331 Y-266.37 I-2.858 J0.
N11470 G1 X-17.613
N11475 G2 X-20.47 Y-263.513 I0. J2.857
N11480 G1 Y-263.512
N11485 G19 G2 Y-263.093 Z-39.903 J0. K-0.953
N11490 G3 Y-262.674 Z-40. J0.419 K0.855
N11495 G1 Y65.458
N11500 Y65.794 Z-39.284
N11505 Y67.271 Z-36.247
N11510 Y69.014 Z-33.384
N11515 Y70.492 Z-31.378
N11520 Y71.555 Z-30.113
N11525 Y73.153 Z-28.439
N11530 Y75.789 Z-26.148
N11535 Y77.795 Z-24.714
N11540 Y79.191 Z-23.846
N11545 Y80.626 Z-23.049
N11550 Y81.864 Z-22.433
N11555 Y85.366 Z-20.996
N11560 Y88.196 Z-20.115
N11565 Y91.203 Z-19.403
N11570 Y94.541 Z-18.841
N11575 Y96.949 Z-18.559
N11580 Y109.02 Z-17.678
N11585 Y125.178 Z-16.708
N11590 Y143.305 Z-15.814
N11595 Y165.001 Z-14.945
N11600 Y187.784 Z-14.21
N11605 Y226.291 Z-13.274
N11610 Y272.133 Z-12.521
N11615 Y327.144 Z-11.978
N11620 Y394.073 Z-11.681
N11625 Y477.506 Z-11.698
N11630 Y587.527 Z-12.11
N11635 Y919.424 Z-14.197
N11640 Y1057.867 Z-14.811
N11645 Y1164.251 Z-14.932
N11650 Y1253.184 Z-14.665
N11655 Y1327.448 Z-14.084
N11660 Y1392.544 Z-13.212
N11665 Y1442.971 Z-12.227
N11670 Y1492.48 Z-10.918
N11675 Y1535.318 Z-9.422
N11680 Y1572.704 Z-7.744
N11685 Y1604.293 Z-5.973
N11690 Y1631.879 Z-4.063
N11695 Y1654.974 Z-2.116
N11700 Y1679.272 Z0.343
N11705 Y1688.908 Z1.307
N11710 Y1692.279 Z1.52
N11715 Y1695.233 Z1.524
N11720 Y1698.117 Z1.221
N11725 Y1700.695 Z0.592
N11730 Y1702.742 Z-0.214
N11735 Y1704.275 Z-1.036
N11740 Y1705.78 Z-2.074
N11745 Y1707.572 Z-3.719
N11750 Y1708.885 Z-5.344
N11755 Y1709.942 Z-7.103
N11760 Y1710.651 Z-8.702
N11765 Y1711.348 Z-11.065
N11770 Y1711.724 Z-13.751
N11775 Y1711.775 Z-40.
N11780 Y1966.351
N11785 G3 Y1966.77 Z-39.903 J0. K0.952
N11790 G2 Y1967.189 Z-39.806 J0.419 K-0.855
N11795 G17 G3 X-23.328 Y1970.047 I-2.858 J0.
N11800 G1 X-32.609
N11805 G3 X-35.467 Y1967.189 I0. J-2.858
N11810 G19 G3 Y1966.77 Z-39.903 J0. K-0.953
N11815 G2 Y1966.351 Z-40. J-0.419 K0.855
N11820 G1 Y1706.688
N11825 Y1706.637 Z-16.7
N11830 Y1706.268 Z-13.994
N11835 Y1705.61 Z-11.657
N11840 Y1704.855 Z-9.882
N11845 Y1703.588 Z-7.755
N11850 Y1702.007 Z-5.846
N11855 Y1700.152 Z-4.196
N11860 Y1698.638 Z-3.162
N11865 Y1696.309 Z-1.97
N11870 Y1693.802 Z-1.097
N11875 Y1690.981 Z-0.494
N11880 Y1687.641 Z-0.186
N11885 Y1683.974
N11890 Y1678.868 Z-0.46
N11895 Y1667.693 Z-1.394
N11900 Y1637.943 Z-3.91
N11905 Y1609.953 Z-5.876
N11910 Y1578.598 Z-7.673
N11915 Y1542.147 Z-9.353
N11920 Y1499.997 Z-10.873
N11925 Y1451.404 Z-12.207
N11930 Y1395.477 Z-13.324
N11935 Y1339.549 Z-14.102
N11940 Y1266.202 Z-14.73
N11945 Y1179.102 Z-15.041
N11950 Y1077.12 Z-14.974
N11955 Y946.929 Z-14.444
N11960 Y583.859 Z-12.173
N11965 Y475.672 Z-11.774
N11970 Y393.156 Z-11.762
N11975 Y327.143 Z-12.076
N11980 Y272.133 Z-12.637
N11985 Y226.291 Z-13.404
N11990 Y187.783 Z-14.351
N11995 Y165.018 Z-15.091
N12000 Y143.328 Z-15.961
N12005 Y125.195 Z-16.853
N12010 Y109.036 Z-17.82
N12015 Y96.965 Z-18.716
N12020 Y94.558 Z-19.001
N12025 Y91.207 Z-19.568
N12030 Y88.213 Z-20.28
N12035 Y85.408 Z-21.153
N12040 Y81.926 Z-22.576
N12045 Y80.642 Z-23.215
N12050 Y79.208 Z-24.01
N12055 Y77.812 Z-24.877
N12060 Y75.806 Z-26.308
N12065 Y73.157 Z-28.605
N12070 Y71.566 Z-30.269
N12075 Y70.501 Z-31.532
N12080 Y68.93 Z-33.668
N12085 Y67.273 Z-36.396
N12090 Y65.824 Z-39.356
N12095 Y65.519 Z-40.
N12100 Y-262.679
N12105 G2 Y-263.098 Z-39.903 J0. K0.952
N12110 G3 Y-263.517 Z-39.806 J-0.419 K-0.855
N12115 G17 G2 X-38.324 Y-266.375 I-2.857 J0.
N12120 G1 X-47.606
N12125 G2 X-50.463 Y-263.517 I0. J2.858
N12130 G1 Y-263.514
N12135 G19 G2 Y-263.095 Z-39.903 J0. K-0.953
N12140 G3 Y-262.676 Z-40. J0.419 K0.855
N12145 G1 Y65.637
N12150 Y66.403 Z-38.35
N12155 Y68.009 Z-35.387
N12160 Y69.881 Z-32.617
N12165 Y71.453 Z-30.69
N12170 Y72.577 Z-29.48
N12175 Y74.576 Z-27.61
N12180 Y77.394 Z-25.459
N12185 Y80.46 Z-23.611
N12190 Y83.781 Z-22.065
N12195 Y86.45 Z-21.098
N12200 Y88.005 Z-20.629
N12205 Y89.576 Z-20.218
N12210 Y92.743 Z-19.563
N12215 Y95.943 Z-19.098
N12220 Y100.768 Z-18.67
N12225 Y110.426 Z-17.976
N12230 Y126.603 Z-17.026
N12235 Y144.78 Z-16.145
N12240 Y167.721 Z-15.237
N12245 Y191.449 Z-14.479
N12250 Y230.873 Z-13.527
N12255 Y278.549 Z-12.745
N12260 Y335.393 Z-12.181
N12265 Y400.489 Z-11.882
N12270 Y484.839 Z-11.927
N12275 Y596.694 Z-12.376
N12280 Y837.823 Z-13.934
N12285 Y1016.607 Z-14.945
N12290 Y1131.213 Z-15.246
N12295 Y1224.026 Z-15.135
N12300 Y1302.874 Z-14.686
N12305 Y1367.97 Z-13.981
N12310 Y1427.565 Z-12.985
N12315 Y1479.825 Z-11.747
N12320 Y1524.567 Z-10.334
N12325 Y1559.292 Z-8.934
N12330 Y1590.693 Z-7.384
N12335 Y1621.776 Z-5.518
N12340 Y1664.574 Z-2.44
N12345 Y1671.973 Z-2.009
N12350 Y1677.453 Z-1.899
N12355 Y1680.169 Z-2.
N12360 Y1681.733 Z-2.132
N12365 Y1685.207 Z-2.668
N12370 Y1688.041 Z-3.443
N12375 Y1690.51 Z-4.439
N12380 Y1692.644 Z-5.623
N12385 Y1694.61 Z-7.068
N12390 Y1696.358 Z-8.764
N12395 Y1697.774 Z-10.585
N12400 Y1698.907 Z-12.551
N12405 Y1699.583 Z-14.123
N12410 Y1700.307 Z-16.619
N12415 Y1700.689 Z-19.373
N12420 Y1700.741 Z-40.
N12425 Y1966.351
N12430 G3 Y1966.77 Z-39.903 J0. K0.952
N12435 G2 Y1967.189 Z-39.806 J0.419 K-0.855
N12440 G17 G3 X-53.321 Y1970.047 I-2.857 J0.
N12445 G1 X-62.602
N12450 G3 X-65.46 Y1967.189 I0. J-2.858
N12455 G19 G3 Y1966.77 Z-39.903 J0. K-0.953
N12460 G2 Y1966.351 Z-40. J-0.419 K0.855
N12465 G1 Y1693.832
N12470 Y1693.805 Z-22.321
N12475 Y1693.49 Z-19.663
N12480 Y1692.838 Z-17.183
N12485 Y1691.899 Z-14.958
N12490 Y1690.716 Z-12.963
N12495 Y1689.131 Z-10.993
N12500 Y1687.241 Z-9.238
N12505 Y1685.117 Z-7.752
N12510 Y1683.187 Z-6.707
N12515 Y1680.734 Z-5.695
N12520 Y1678.179 Z-4.935
N12525 Y1674.689 Z-4.262
N12530 Y1670.659 Z-3.856
N12535 Y1667.039 Z-3.722
N12540 Y1660.621 Z-3.811
N12545 Y1652.257 Z-4.212
N12550 Y1600.723 Z-7.326
N12555 Y1564.068 Z-9.153
N12560 Y1527.526 Z-10.625
N12565 Y1480.88 Z-12.084
N12570 Y1433.204 Z-13.21
N12575 Y1374.526 Z-14.208
N12580 Y1312.181 Z-14.905
N12585 Y1233.333 Z-15.384
N12590 Y1140.829 Z-15.513
N12595 Y1029.891 Z-15.235
N12600 Y852.941 Z-14.244
N12605 Y599.892 Z-12.591
N12610 Y488.037 Z-12.133
N12615 Y404.605 Z-12.077
N12620 Y345.01 Z-12.352
N12625 Y287.249 Z-12.915
N12630 Y238.656 Z-13.688
N12635 Y198.315 Z-14.63
N12640 Y172.714 Z-15.426
N12645 Y149.014 Z-16.337
N12650 Y129.06 Z-17.268
N12655 Y112.843 Z-18.19
N12660 Y104.791 Z-18.73
N12665 Y96.15 Z-19.488
N12670 Y93.547 Z-19.853
N12675 Y90.372 Z-20.47
N12680 Y88.797 Z-20.858
N12685 Y87.236 Z-21.302
N12690 Y84.456 Z-22.256
N12695 Y81.008 Z-23.79
N12700 Y78.004 Z-25.522
N12705 Y75.137 Z-27.607
N12710 Y73.166 Z-29.357
N12715 Y71.462 Z-31.135
N12720 Y69.292 Z-33.871
N12725 Y67.995 Z-35.842
N12730 Y67.15 Z-37.308
N12735 Y65.921 Z-39.785
N12740 Y65.793 Z-40.
N12745 Y-262.68
N12750 G2 Y-263.099 Z-39.903 J0. K0.952
N12755 G3 Y-263.518 Z-39.806 J-0.419 K-0.855
N12760 G17 G2 X-68.317 Y-266.376 I-2.858 J0.
N12765 G1 X-77.599
N12770 G2 X-80.456 Y-263.518 I0. J2.857
N12775 G1 Y-263.514
N12780 G19 G2 Y-263.095 Z-39.903 J0. K-0.953
N12785 G3 Y-262.675 Z-40. J0.419 K0.855
N12790 G1 Y66.093
N12795 Y67. Z-38.206
N12800 Y68.057 Z-36.382
N12805 Y70.022 Z-33.548
N12810 Y72.334 Z-30.869
N12815 Y74.194 Z-29.093
N12820 Y75.453 Z-28.039
N12825 Y76.76 Z-27.054
N12830 Y78.286 Z-26.024
N12835 Y81.483 Z-24.227
N12840 Y83.89 Z-23.145
N12845 Y85.409 Z-22.562
N12850 Y86.948 Z-22.04
N12855 Y90.036 Z-21.18
N12860 Y93.243 Z-20.516
N12865 Y96.441 Z-20.049
N12870 Y104.475 Z-19.285
N12875 Y114.139 Z-18.636
N12880 Y132.01 Z-17.644
N12885 Y152.355 Z-16.72
N12890 Y177.27 Z-15.774
N12895 Y203.813 Z-14.96
N12900 Y245.987 Z-13.978
N12905 Y296.414 Z-13.182
N12910 Y356.925 Z-12.59
N12915 Y406.435 Z-12.357
N12920 Y489.868 Z-12.412
N12925 Y601.722 Z-12.872
N12930 Y836.434 Z-14.415
N12935 Y1027.137 Z-15.533
N12940 Y1138.075 Z-15.846
N12945 Y1230.208 Z-15.753
N12950 Y1309.974 Z-15.304
N12955 Y1378.737 Z-14.553
N12960 Y1438.332 Z-13.533
N12965 Y1489.675 Z-12.301
N12970 Y1535.517 Z-10.841
N12975 Y1577.521 Z-9.107
N12980 Y1626.524 Z-6.627
N12985 Y1641.935 Z-5.885
N12990 Y1651.437 Z-5.623
N12995 Y1657.855 Z-5.71
N13000 Y1661.896 Z-5.966
N13005 Y1663.682 Z-6.151
N13010 Y1666.34 Z-6.54
N13015 Y1669.831 Z-7.293
N13020 Y1673.207 Z-8.399
N13025 Y1676.385 Z-9.919
N13030 Y1677.853 Z-10.856
N13035 Y1679.774 Z-12.333
N13040 Y1681.656 Z-14.233
N13045 Y1683.084 Z-16.161
N13050 Y1684.234 Z-18.263
N13055 Y1684.897 Z-19.946
N13060 Y1685.451 Z-21.974
N13065 Y1685.792 Z-24.423
N13070 Y1685.846 Z-40.
N13075 Y1966.351
N13080 G3 Y1966.77 Z-39.903 J0. K0.952
N13085 G2 Y1967.189 Z-39.806 J0.419 K-0.855
N13090 G17 G3 X-83.314 Y1970.047 I-2.857 J0.
N13095 G1 X-92.595
N13100 G3 X-95.453 Y1967.189 I0. J-2.858
N13105 G19 G3 Y1966.77 Z-39.903 J0. K-0.953
N13110 G2 Y1966.351 Z-40. J-0.419 K0.855
N13115 G1 Y1676.638
N13120 Y1676.586 Z-27.112
N13125 Y1676.218 Z-24.552
N13130 Y1675.709 Z-22.704
N13135 Y1674.701 Z-20.338
N13140 Y1673.491 Z-18.335
N13145 Y1671.885 Z-16.37
N13150 Y1669.977 Z-14.602
N13155 Y1667.558 Z-12.891
N13160 Y1664.764 Z-11.422
N13165 Y1661.445 Z-10.157
N13170 Y1657.34 Z-9.091
N13175 Y1653.59 Z-8.455
N13180 Y1650.919 Z-8.142
N13185 Y1647.34 Z-7.861
N13190 Y1642.339 Z-7.656
N13195 Y1633.629 Z-7.634
N13200 Y1619.982 Z-8.027
N13205 Y1553.165 Z-10.823
N13210 Y1509.226 Z-12.315
N13215 Y1457.882 Z-13.649
N13220 Y1400.121 Z-14.734
N13225 Y1335.026 Z-15.551
N13230 Y1258.928 Z-16.086
N13235 Y1171.828 Z-16.282
N13240 Y1067.473 Z-16.092
N13245 Y919.861 Z-15.322
N13250 Y605.384 Z-13.25
N13255 Y492.613 Z-12.787
N13260 Y409.18 Z-12.738
N13265 Y367.922 Z-12.935
N13270 Y305.577 Z-13.568
N13275 Y255.15 Z-14.38
N13280 Y211.142 Z-15.397
N13285 Y180.938 Z-16.321
N13290 Y157.844 Z-17.205
N13295 Y135.729 Z-18.175
N13300 Y117.776 Z-19.13
N13305 Y106.491 Z-19.841
N13310 Y100.063 Z-20.458
N13315 Y95.252 Z-21.032
N13320 Y92.068 Z-21.595
N13325 Y90.487 Z-21.947
N13330 Y87.462 Z-22.782
N13335 Y85.825 Z-23.33
N13340 Y84.302 Z-23.908
N13345 Y82.803 Z-24.546
N13350 Y81.331 Z-25.251
N13355 Y78.929 Z-26.588
N13360 Y75.966 Z-28.61
N13365 Y73.287 Z-30.892
N13370 Y72.118 Z-32.063
N13375 Y70.484 Z-33.917
N13380 Y68.507 Z-36.599
N13385 Y66.738 Z-39.579
N13390 Y66.492 Z-40.
N13395 Y-262.673
N13400 G2 Y-263.092 Z-39.903 J0. K0.952
N13405 G3 Y-263.511 Z-39.806 J-0.419 K-0.855
N13410 G1 Y-263.514
N13415 G17 G2 X-98.31 Y-266.371 I-2.857 J0.
N13420 G1 X-107.592
N13425 G2 X-110.449 Y-263.514 I0. J2.857
N13430 G19 G2 Y-263.094 Z-39.903 J0. K-0.953
N13435 G3 Y-262.675 Z-40. J0.419 K0.855
N13440 G1 Y67.138
N13445 Y67.283 Z-39.799
N13450 Y68.751 Z-37.495
N13455 Y69.736 Z-36.146
N13460 Y70.776 Z-34.86
N13465 Y72.464 Z-33.019
N13470 Y74.728 Z-30.924
N13475 Y77.511 Z-28.813
N13480 Y79.585 Z-27.502
N13485 Y81.013 Z-26.706
N13490 Y82.477 Z-25.972
N13495 Y83.966 Z-25.306
N13500 Y87.197 Z-24.089
N13505 Y90.11 Z-23.226
N13510 Y92.08 Z-22.754
N13515 Y95.655 Z-22.077
N13520 Y103.042 Z-21.137
N13525 Y106.259 Z-20.809
N13530 Y119.161 Z-20.008
N13535 Y138.948 Z-18.966
N13540 Y166.755 Z-17.764
N13545 Y191.73 Z-16.838
N13550 Y216.454 Z-16.079
N13555 Y261.379 Z-15.006
N13560 Y313.639 Z-14.113
N13565 Y377.818 Z-13.403
N13570 Y414.492 Z-13.241
N13575 Y497.007 Z-13.281
N13580 Y608.862 Z-13.732
N13585 Y965.514 Z-16.063
N13590 Y1092.038 Z-16.668
N13595 Y1191.899 Z-16.794
N13600 Y1276.249 Z-16.547
N13605 Y1344.095 Z-16.035
N13610 Y1409.191 Z-15.198
N13615 Y1466.952 Z-14.1
N13620 Y1521.046 Z-12.689
N13625 Y1583.981 Z-10.558
N13630 Y1603.975 Z-9.914
N13635 Y1618.186 Z-9.675
N13640 Y1627.813 Z-9.789
N13645 Y1635.076 Z-10.154
N13650 Y1640.448 Z-10.699
N13655 Y1643.976 Z-11.231
N13660 Y1647.479 Z-11.973
N13665 Y1651.737 Z-13.273
N13670 Y1654.989 Z-14.677
N13675 Y1657.395 Z-16.07
N13680 Y1659.401 Z-17.521
N13685 Y1661.01 Z-18.98
N13690 Y1662.559 Z-20.757
N13695 Y1664.006 Z-22.986
N13700 Y1664.998 Z-25.181
N13705 Y1665.669 Z-27.509
N13710 Y1666.006 Z-30.006
N13715 Y1666.041 Z-40.
N13720 Y1966.351
N13725 G3 Y1966.77 Z-39.903 J0. K0.952
N13730 G2 Y1967.189 Z-39.806 J0.419 K-0.855
N13735 G17 G3 X-113.307 Y1970.047 I-2.857 J0.
N13740 G1 X-122.588
N13745 G3 X-125.446 Y1967.189 I0. J-2.858
N13750 G19 G3 Y1966.77 Z-39.903 J0. K-0.953
N13755 G2 Y1966.351 Z-40. J-0.419 K0.855
N13760 G1 Y1653.849
N13765 Y1653.808 Z-32.702
N13770 Y1653.693 Z-31.629
N13775 Y1653.235 Z-29.392
N13780 Y1652.491 Z-27.33
N13785 Y1651.394 Z-25.242
N13790 Y1650.218 Z-23.569
N13795 Y1648.658 Z-21.843
N13800 Y1646.511 Z-20.002
N13805 Y1644.324 Z-18.548
N13810 Y1641.176 Z-16.941
N13815 Y1638.706 Z-15.973
N13820 Y1635.304 Z-14.894
N13825 Y1630.658 Z-13.844
N13830 Y1625.84 Z-13.091
N13835 Y1620.259 Z-12.52
N13840 Y1613.985 Z-12.132
N13845 Y1604.816 Z-11.875
N13850 Y1591.063 Z-11.862
N13855 Y1569.976 Z-12.26
N13860 Y1488.377 Z-14.421
N13865 Y1427.866 Z-15.633
N13870 Y1367.354 Z-16.48
N13875 Y1294.007 Z-17.106
N13880 Y1210.574 Z-17.405
N13885 Y1114.035 Z-17.334
N13890 Y1012.265 Z-16.915
N13895 Y734.462 Z-15.085
N13900 Y582.266 Z-14.192
N13905 Y479.58 Z-13.877
N13910 Y398.898 Z-13.952
N13915 Y361.307 Z-14.299
N13920 Y304.463 Z-15.118
N13925 Y253.12 Z-16.163
N13930 Y212.779 Z-17.267
N13935 Y185.591 Z-18.198
N13940 Y161.885 Z-19.163
N13945 Y132.963 Z-20.497
N13950 Y114.908 Z-21.503
N13955 Y105.241 Z-22.145
N13960 Y100.44 Z-22.785
N13965 Y94.758 Z-23.678
N13970 Y92.482 Z-24.163
N13975 Y89.156 Z-25.04
N13980 Y86.27 Z-26.006
N13985 Y84.756 Z-26.599
N13990 Y83.263 Z-27.248
N13995 Y81.796 Z-27.954
N14000 Y80.36 Z-28.722
N14005 Y78.956 Z-29.55
N14010 Y77.582 Z-30.44
N14015 Y75.435 Z-32.02
N14020 Y72.735 Z-34.405
N14025 Y70.416 Z-36.915
N14030 Y68.202 Z-39.867
N14035 Y68.111 Z-40.
N14040 Y-262.676
N14045 G2 Y-263.095 Z-39.903 J0. K0.952
N14050 G3 Y-263.514 Z-39.806 J-0.419 K-0.855
N14055 G1 Y-263.518
N14060 G17 G2 X-128.303 Y-266.376 I-2.858 J0.
N14065 G1 X-137.585
N14070 G2 X-140.443 Y-263.518 I0. J2.858
N14075 G19 G2 Y-263.099 Z-39.903 J0. K-0.953
N14080 G3 Y-262.68 Z-40. J0.419 K0.855
N14085 G1 Y69.721
N14090 Y70.985 Z-38.475
N14095 Y72.095 Z-37.253
N14100 Y73.563 Z-35.786
N14105 Y75.737 Z-33.914
N14110 Y78.647 Z-31.812
N14115 Y81.189 Z-30.293
N14120 Y83.192 Z-29.267
N14125 Y87.116 Z-27.619
N14130 Y90.201 Z-26.61
N14135 Y93.676 Z-25.701
N14140 Y98.089 Z-24.847
N14145 Y104.466 Z-23.807
N14150 Y106.076 Z-23.63
N14155 Y118.978 Z-22.828
N14160 Y137.259 Z-21.837
N14165 Y178.026 Z-19.967
N14170 Y201.066 Z-19.061
N14175 Y231.105 Z-18.058
N14180 Y274.197 Z-16.896
N14185 Y329.666 Z-15.771
N14190 Y387.885 Z-14.92
N14195 Y442.896 Z-14.716
N14200 Y523.578 Z-14.757
N14205 Y639.1 Z-15.216
N14210 Y1008.587 Z-17.6
N14215 Y1125.943 Z-18.095
N14220 Y1223.043 Z-18.145
N14225 Y1306.475 Z-17.821
N14230 Y1377.989 Z-17.197
N14235 Y1444.919 Z-16.26
N14240 Y1535.686 Z-14.479
N14245 Y1563.191 Z-14.074
N14250 Y1579.694 Z-14.092
N14255 Y1591.155 Z-14.332
N14260 Y1599.354 Z-14.731
N14265 Y1606.959 Z-15.378
N14270 Y1613.185 Z-16.215
N14275 Y1618.459 Z-17.255
N14280 Y1623.611 Z-18.725
N14285 Y1627.336 Z-20.213
N14290 Y1630.174 Z-21.681
N14295 Y1632.986 Z-23.597
N14300 Y1634.92 Z-25.312
N14305 Y1636.588 Z-27.249
N14310 Y1637.72 Z-28.963
N14315 Y1638.694 Z-30.975
N14320 Y1639.367 Z-33.101
N14325 Y1639.74 Z-35.416
N14330 Y1639.796 Z-40.
N14335 Y1966.351
N14340 G3 Y1966.77 Z-39.903 J0. K0.952
N14345 G2 Y1967.189 Z-39.806 J0.419 K-0.855
N14350 G17 G3 X-143.3 Y1970.047 I-2.857 J0.
N14355 G1 X-152.582
N14360 G3 X-155.439 Y1967.189 I0. J-2.858
N14365 G19 G3 Y1966.77 Z-39.903 J0. K-0.953
N14370 G2 Y1966.351 Z-40. J-0.419 K0.855
N14375 G1 Y1623.549
N14380 Y1623.397 Z-37.622
N14385 Y1622.953 Z-35.585
N14390 Y1622.253 Z-33.693
N14395 Y1621.282 Z-31.869
N14400 Y1619.976 Z-30.052
N14405 Y1618.439 Z-28.412
N14410 Y1616.527 Z-26.785
N14415 Y1614.37 Z-25.313
N14420 Y1611.463 Z-23.746
N14425 Y1609.009 Z-22.67
N14430 Y1603.926 Z-20.968
N14435 Y1598.371 Z-19.65
N14440 Y1594.284 Z-18.956
N14445 Y1589.843 Z-18.317
N14450 Y1581.801 Z-17.523
N14455 Y1574.812 Z-17.062
N14460 Y1563.038 Z-16.603
N14465 Y1547.452 Z-16.373
N14470 Y1524.989 Z-16.383
N14475 Y1481.439 Z-16.893
N14480 Y1388.838 Z-18.113
N14485 Y1310.907 Z-18.751
N14490 Y1224.724 Z-19.052
N14495 Y1126.054 Z-18.969
N14500 Y1008.698 Z-18.451
N14505 Y660.298 Z-16.237
N14510 Y545.693 Z-15.799
N14515 Y465.928 Z-15.759
N14520 Y395.331 Z-16.018
N14525 Y362.325 Z-16.507
N14530 Y303.647 Z-17.686
N14535 Y257.805 Z-18.879
N14540 Y224.896 Z-19.93
N14545 Y198.046 Z-20.933
N14550 Y168.547 Z-22.221
N14555 Y129.716 Z-24.101
N14560 Y110.106 Z-25.235
N14565 Y105.09 Z-25.584
N14570 Y101.899 Z-26.118
N14575 Y97.15 Z-27.074
N14580 Y92.83 Z-28.119
N14585 Y90.886 Z-28.71
N14590 Y87.832 Z-29.799
N14595 Y84.128 Z-31.478
N14600 Y81.245 Z-33.09
N14605 Y78.408 Z-35.013
N14610 Y75.419 Z-37.524
N14615 Y73.67 Z-39.266
N14620 Y73.002 Z-40.
N14625 Y-262.68
N14630 G2 Y-263.099 Z-39.903 J0. K0.952
N14635 G3 Y-263.518 Z-39.806 J-0.419 K-0.855
N14640 G17 G2 X-158.297 Y-266.376 I-2.857 J0.
N14645 G1 X-167.578
N14650 G2 X-170.436 Y-263.518 I0. J2.858
N14655 G19 G2 Y-263.099 Z-39.903 J0. K-0.953
N14660 G3 Y-262.68 Z-40. J0.419 K0.855
N14665 G1 Y78.902
N14670 Y79.063 Z-39.894
N14675 Y81.092 Z-38.026
N14680 Y82.863 Z-36.581
N14685 Y86.439 Z-34.217
N14690 Y90.439 Z-32.196
N14695 Y94.609 Z-30.614
N14700 Y100.207 Z-28.953
N14705 Y103.361 Z-28.191
N14710 Y105.856 Z-27.816
N14715 Y115.608 Z-27.162
N14720 Y134.605 Z-26.071
N14725 Y178.145 Z-23.904
N14730 Y210.217 Z-22.52
N14735 Y239.502 Z-21.419
N14740 Y274.212 Z-20.297
N14745 Y322.805 Z-18.985
N14750 Y386.067 Z-17.641
N14755 Y413.573 Z-17.371
N14760 Y488.754 Z-17.06
N14765 Y572.186 Z-17.081
N14770 Y687.708 Z-17.495
N14775 Y1000.352 Z-19.427
N14780 Y1119.541 Z-20.004
N14785 Y1223.553 Z-20.151
N14790 Y1317.987 Z-19.888
N14795 Y1408.755 Z-19.246
N14800 Y1479.352 Z-18.727
N14805 Y1506.857 Z-18.724
N14810 Y1526.111 Z-18.922
N14815 Y1542.141 Z-19.346
N14820 Y1554.952 Z-20.007
N14825 Y1564.615 Z-20.821
N14830 Y1573.338 Z-21.938
N14835 Y1579.338 Z-23.06
N14840 Y1581.954 Z-23.646
N14845 Y1587.121 Z-25.108
N14850 Y1590.158 Z-26.229
N14855 Y1593.49 Z-27.737
N14860 Y1596.364 Z-29.397
N14865 Y1598.565 Z-31.008
N14870 Y1600.45 Z-32.763
N14875 Y1601.93 Z-34.538
N14880 Y1603.107 Z-36.42
N14885 Y1603.891 Z-38.231
N14890 Y1604.385 Z-40.
N14895 Y1966.351
N14900 G3 Y1966.77 Z-39.903 J0. K0.952
N14905 G2 Y1967.189 Z-39.806 J0.419 K-0.855
N14910 G17 G3 X-173.293 Y1970.047 I-2.857 J0.
N14915 G1 X-182.575
N14920 G3 X-185.432 Y1967.189 I0. J-2.858
N14925 G19 G3 Y1966.77 Z-39.903 J0. K-0.953
N14930 G2 Y1966.351 Z-40. J-0.419 K0.855
N14935 G1 Y1581.064 Z-39.965
N14940 Y1579.887 Z-38.143
N14945 Y1578.266 Z-36.279
N14950 Y1576.328 Z-34.565
N14955 Y1574.556 Z-33.319
N14960 Y1572.102 Z-31.858
N14965 Y1569.098 Z-30.41
N14970 Y1564.921 Z-28.822
N14975 Y1560.204 Z-27.438
N14980 Y1553.6 Z-25.952
N14985 Y1545.137 Z-24.614
N14990 Y1539.786 Z-24.006
N14995 Y1532.818 Z-23.309
N15000 Y1519.552 Z-22.441
N15005 Y1501.925 Z-21.762
N15010 Y1478.545 Z-21.314
N15015 Y1451.957 Z-21.118
N15020 Y1413.449 Z-21.101
N15025 Y1253.002 Z-21.499
N15030 Y1150.197 Z-21.388
N15035 Y1031.007 Z-20.87
N15040 Y801.797 Z-19.458
N15045 Y661.52 Z-18.781
N15050 Y559.75 Z-18.605
N15055 Y489.153 Z-18.736
N15060 Y418.557 Z-19.174
N15065 Y385.55 Z-19.587
N15070 Y321.371 Z-21.129
N15075 Y273.726 Z-22.57
N15080 Y244.787 Z-23.583
N15085 Y209.678 Z-25.021
N15090 Y187.28 Z-26.081
N15095 Y160.164 Z-27.531
N15100 Y131.937 Z-29.204
N15105 Y109.624 Z-30.845
N15110 Y104.802 Z-31.295
N15115 Y102.814 Z-31.743
N15120 Y100.12 Z-32.664
N15125 Y97.868 Z-33.628
N15130 Y93.893 Z-35.65
N15135 Y90.459 Z-37.838
N15140 Y87.796 Z-40.
N15145 Y-262.68
N15150 G2 Y-263.099 Z-39.903 J0. K0.952
N15155 G3 Y-263.519 Z-39.806 J-0.419 K-0.855
N15160 G17 G2 X-188.29 Y-266.376 I-2.857 J0.
N15165 G1 X-197.571
N15170 G2 X-200.429 Y-263.519 I0. J2.857
N15175 G1 Y-263.517
N15180 G19 G2 Y-263.098 Z-39.903 J0. K-0.953
N15185 G3 Y-262.678 Z-40. J0.419 K0.855
N15190 G1 Y98.8
N15195 Y99.241 Z-39.692
N15200 Y101.215 Z-38.52
N15205 Y102.743 Z-37.899
N15210 Y104.322 Z-37.485
N15215 Y114.087 Z-36.06
N15220 Y130.481 Z-34.155
N15225 Y149.509 Z-32.413
N15230 Y173.133 Z-30.615
N15235 Y186.568 Z-29.712
N15240 Y214.98 Z-28.06
N15245 Y233.833 Z-27.136
N15250 Y269.261 Z-25.595
N15255 Y296.223 Z-24.603
N15260 Y334.658 Z-23.363
N15265 Y384.167 Z-22.033
N15270 Y413.506 Z-21.55
N15275 Y463.933 Z-21.018
N15280 Y538.197 Z-20.588
N15285 Y628.964 Z-20.501
N15290 Y726.15 Z-20.731
N15295 Y911.352 Z-21.659
N15300 Y1015.872 Z-22.34
N15305 Y1146.063 Z-23.016
N15310 Y1265.253 Z-23.31
N15315 Y1372.524 Z-23.502
N15320 Y1414.698 Z-23.752
N15325 Y1447.705 Z-24.217
N15330 Y1473.376 Z-24.933
N15335 Y1492.181 Z-25.859
N15340 Y1503.461 Z-26.728
N15345 Y1508.827 Z-27.205
N15350 Y1519.344 Z-28.494
N15355 Y1524.474 Z-29.361
N15360 Y1530.459 Z-30.509
N15365 Y1535.495 Z-31.789
N15370 Y1540.598 Z-33.446
N15375 Y1544.303 Z-34.975
N15380 Y1547.83 Z-36.847
N15385 Y1550.723 Z-38.831
N15390 Y1552.037 Z-39.999
N15395 Y1966.351 Z-40.
N15400 G3 Y1966.77 Z-39.903 J0. K0.952
N15405 G2 Y1967.189 Z-39.806 J0.419 K-0.855
N15410 G17 G3 X-203.286 Y1970.047 I-2.857 J0.
N15415 G1 X-212.568
N15420 G3 X-215.425 Y1967.189 I0. J-2.857
N15425 G19 G3 Y1966.77 Z-39.903 J0. K-0.953
N15430 G2 Y1966.351 Z-40. J-0.419 K0.855
N15435 G1 Y1514.466
N15440 Y1510.305 Z-38.196
N15445 Y1506.928 Z-37.018
N15450 Y1503.246 Z-35.922
N15455 Y1498.464 Z-34.709
N15460 Y1490.939 Z-33.223
N15465 Y1479.525 Z-31.576
N15470 Y1474.17 Z-30.997
N15475 Y1461.829 Z-29.853
N15480 Y1449.449 Z-29.07
N15485 Y1438.802 Z-28.477
N15490 Y1412.015 Z-27.506
N15495 Y1371.216 Z-26.69
N15500 Y1314.372 Z-26.102
N15505 Y1218.103 Z-25.555
N15510 Y1033.818 Z-24.469
N15515 Y924.714 Z-23.693
N15520 Y756.931 Z-22.931
N15525 Y665.247 Z-22.758
N15530 Y575.397 Z-22.906
N15535 Y518.552 Z-23.23
N15540 Y452.54 Z-23.907
N15545 Y393.862 Z-24.949
N15550 Y357.244 Z-26.001
N15555 Y319.224 Z-27.396
N15560 Y285.113 Z-28.814
N15565 Y257.142 Z-30.288
N15570 Y236.439 Z-31.489
N15575 Y211.384 Z-33.319
N15580 Y200.363 Z-34.222
N15585 Y178.775 Z-36.365
N15590 Y166.584 Z-37.903
N15595 Y157.607 Z-39.134
N15600 Y152.307 Z-40.
N15605 Y-262.679
N15610 G2 Y-263.098 Z-39.903 J0. K0.952
N15615 G3 Y-263.517 Z-39.806 J-0.419 K-0.855
N15620 G17 G2 X-218.283 Y-266.375 I-2.857 J0.
N15625 G1 X-227.564
N15630 G2 X-230.422 Y-263.517 I0. J2.858
N15635 G19 G2 Y-263.098 Z-39.903 J0. K-0.953
N15640 G3 Y-262.679 Z-40. J0.419 K0.855
N15645 G1 Y229.608
N15650 Y236.813 Z-39.114
N15655 Y254.944 Z-37.236
N15660 Y266.556 Z-36.142
N15665 Y290.913 Z-34.321
N15670 Y306.766 Z-33.247
N15675 Y334.231 Z-31.777
N15680 Y364.143 Z-30.333
N15685 Y390.187 Z-29.359
N15690 Y435.088 Z-28.071
N15695 Y477.262 Z-27.251
N15700 Y541.441 Z-26.336
N15705 Y616.622 Z-25.828
N15710 Y701.889 Z-25.602
N15715 Y788.072 Z-25.723
N15720 Y936.6 Z-26.384
N15725 Y1242.826 Z-28.967
N15730 Y1317.09 Z-29.987
N15735 Y1362.015 Z-31.079
N15740 Y1380.215 Z-31.765
N15745 Y1400.012 Z-32.666
N15750 Y1420.711 Z-34.089
N15755 Y1429.024 Z-34.874
N15760 Y1441.342 Z-36.23
N15765 Y1450.763 Z-37.643
N15770 Y1457.801 Z-39.
N15775 Y1462.073 Z-39.975
N15780 Y1966.351 Z-40.
N15785 G3 Y1966.77 Z-39.903 J0. K0.952
N15790 G2 Y1967.189 Z-39.806 J0.419 K-0.855
N15795 G17 G3 X-233.279 Y1970.047 I-2.857 J0.
N15800 G1 X-242.561
N15805 G3 X-245.418 Y1967.189 I0. J-2.858
N15810 G19 G3 Y1966.77 Z-39.903 J0. K-0.953
N15815 G2 Y1966.351 Z-40. J-0.419 K0.855
N15820 G1 Y1380.436
N15825 Y1371.642 Z-39.129
N15830 Y1352.298 Z-37.666
N15835 Y1341.955 Z-37.016
N15840 Y1316.196 Z-35.81
N15845 Y1300.766 Z-35.207
N15850 Y1245.756 Z-33.736
N15855 Y1165.991 Z-32.466
N15860 Y1099.978 Z-31.648
N15865 Y936.78 Z-30.044
N15870 Y822.175 Z-29.484
N15875 Y733.241 Z-29.37
N15880 Y663.561 Z-29.554
N15885 Y595.715 Z-30.156
N15890 Y532.453 Z-31.033
N15895 Y483.86 Z-32.194
N15900 Y443.667 Z-33.395
N15905 Y409.845 Z-34.862
N15910 Y387.795 Z-35.936
N15915 Y372.109 Z-36.943
N15920 Y347.379 Z-38.702
N15925 Y333.745 Z-39.82
N15930 Y331.863 Z-40.
N15935 Y-262.674
N15940 G2 Y-263.094 Z-39.903 J0. K0.952
N15945 G3 Y-263.513 Z-39.806 J-0.419 K-0.855
N15950 G17 G2 X-248.276 Y-266.371 I-2.857 J0.
N15955 G1 X-257.557
N15960 G2 X-260.415 Y-263.513 I0. J2.858
N15965 G19 G2 Y-263.094 Z-39.903 J0. K-0.953
N15970 G3 Y-262.675 Z-40. J0.419 K0.855
N15975 G1 Y482.846
N15980 Y499.884 Z-39.289
N15985 Y533.41 Z-37.941
N15990 Y553.672 Z-37.267
N15995 Y607.422 Z-36.057
N16000 Y661.515 Z-35.17
N16005 Y712.858 Z-34.761
N16010 Y777.954 Z-34.559
N16015 Y845.801 Z-34.662
N16020 Y931.984 Z-35.174
N16025 Y997.996 Z-35.897
N16030 Y1104.809 Z-37.377
N16035 Y1161.194 Z-38.551
N16040 Y1215.372 Z-39.973
N16045 Y1966.351 Z-40.
N16050 G3 Y1966.77 Z-39.903 J0. K0.952
N16055 G2 Y1967.189 Z-39.806 J0.419 K-0.855
N16060 G17 G3 X-263.272 Y1970.047 I-2.857 J0.
N16065 G1 X-272.554
N16070 G3 X-275.411 Y1967.189 I0. J-2.857
N16075 G19 G3 Y1966.77 Z-39.903 J0. K-0.953
N16080 G2 Y1966.351 Z-40. J-0.419 K0.855
N16085 G1 Y-262.679
N16090 G2 Y-263.099 Z-39.903 J0. K0.952
N16095 G3 Y-263.518 Z-39.806 J-0.419 K-0.855
N16100 G17 G2 X-278.269 Y-266.375 I-2.858 J0.
N16105 G1 X-287.55
N16110 G2 X-290.408 Y-263.518 I0. J2.857
N16115 G19 G2 Y-263.099 Z-39.903 J0. K-0.953
N16120 G3 Y-262.679 Z-40. J0.419 K0.855
N16125 G1 Y1966.351
N16130 G3 Y1966.77 Z-39.903 J0. K0.952
N16135 G2 Y1967.189 Z-39.806 J0.419 K-0.855
N16140 G17 G3 X-293.265 Y1970.047 I-2.857 J0.
N16145 G1 X-302.547
N16150 G3 X-305.404 Y1967.189 I0. J-2.858
N16155 G19 G3 Y1966.77 Z-39.903 J0. K-0.953
N16160 G2 Y1966.351 Z-40. J-0.419 K0.855
N16165 G1 Y-262.679
N16170 G2 Y-263.099 Z-39.903 J0. K0.952
N16175 G3 Y-263.518 Z-39.806 J-0.419 K-0.855
N16180 G17 G2 X-308.262 Y-266.375 I-2.857 J0.
N16185 G1 X-317.543
N16190 G2 X-320.401 Y-263.518 I0. J2.857
N16195 G1 Y-259.126
N16200 G19 G2 Y-258.707 Z-39.903 J0. K-0.953
N16205 G3 Y-258.288 Z-40. J0.419 K0.855
N16210 G1 Y-164.866
N16215 G3 Y-162.961 Z-38.095 J0. K1.905 F1000.
N16220 G0 Z5.
N16225 Y112.966
N16230 Z-38.095
N16235 G3 Y114.871 Z-40. J1.905 K0. F1000.
N16240 G1 Y1550.131 F4000.
N16245 G3 Y1552.036 Z-38.095 J0. K1.905 F1000.
N16250 G0 Z5.
N16255 Y1847.962
N16260 Z-38.095
N16265 G3 Y1849.867 Z-40. J1.905 K0. F1000.
N16270 G1 Y1961.965 F4000.
N16275 G3 Y1963.87 Z-38.095 J0. K1.905 F1000.
N16280 G0 Z15.
N16285 G17
(PARALLEL1 3)
N16290 G0 X314.45 Y1954.506
N16295 Z15.
N16300 Z-55.095
N16305 G19 G2 Y1952.601 Z-57. J-1.905 K0. F1000.
N16310 G1 Y-248.924 F4000.
N16315 G2 Y-249.344 Z-56.903 J0. K0.952
N16320 G3 Y-249.763 Z-56.806 J-0.419 K-0.855
N16325 G1 Y-253.526
N16330 G17 G2 X311.592 Y-256.384 I-2.858 J0.
N16335 G1 X302.311
N16340 G2 X299.454 Y-253.526 I0. J2.857
N16345 G19 G2 Y-253.107 Z-56.903 J0. K-0.953
N16350 G3 Y-252.688 Z-57. J0.419 K0.855
N16355 G1 Y1956.365
N16360 G3 Y1956.784 Z-56.903 J0. K0.952
N16365 G2 Y1957.203 Z-56.806 J0.419 K-0.855
N16370 G17 G3 X296.596 Y1960.061 I-2.858 J0.
N16375 G1 X287.315
N16380 G3 X284.457 Y1957.203 I0. J-2.858
N16385 G19 G3 Y1956.784 Z-56.903 J0. K-0.953
N16390 G2 Y1956.365 Z-57. J-0.419 K0.855
N16395 G1 Y1069.2 Z-56.996
N16400 Y1039.834 Z-55.677
N16405 Y1009.583 Z-54.556
N16410 Y980.126 Z-53.67
N16415 Y936.807 Z-52.716
N16420 Y894.355 Z-52.117
N16425 Y853.636 Z-51.823
N16430 Y820.714 Z-51.821
N16435 Y781.727 Z-52.106
N16440 Y751.404 Z-52.566
N16445 Y729.745 Z-53.096
N16450 Y713.307 Z-53.614
N16455 Y693.506 Z-54.34
N16460 Y672.761 Z-55.25
N16465 Y657.822 Z-56.126
N16470 Y644.611 Z-57.
N16475 Y-252.688
N16480 G2 Y-253.107 Z-56.903 J0. K0.952
N16485 G3 Y-253.526 Z-56.806 J-0.419 K-0.855
N16490 G17 G2 X281.6 Y-256.384 I-2.858 J0.
N16495 G1 X272.318
N16500 G2 X269.461 Y-253.526 I0. J2.857
N16505 G19 G2 Y-253.107 Z-56.903 J0. K-0.953
N16510 G3 Y-252.688 Z-57. J0.419 K0.855
N16515 G1 Y432.965
N16520 Y440.013 Z-55.594
N16525 Y452.171 Z-53.7
N16530 Y460.48 Z-52.539
N16535 Y475.906 Z-50.779
N16540 Y486.845 Z-49.683
N16545 Y509.357 Z-47.823
N16550 Y524.951 Z-46.786
N16555 Y548.206 Z-45.447
N16560 Y566.034 Z-44.61
N16565 Y595.171 Z-43.483
N16570 Y615.052 Z-42.826
N16575 Y660.104 Z-41.82
N16580 Y710.353 Z-41.038
N16585 Y759.736 Z-40.573
N16590 Y809.986 Z-40.457
N16595 Y870.632 Z-40.65
N16600 Y946.006 Z-41.239
N16605 Y1013.583 Z-42.252
N16610 Y1081.16 Z-43.587
N16615 Y1136.608 Z-44.978
N16620 Y1160. Z-45.753
N16625 Y1197.149 Z-47.335
N16630 Y1213.374 Z-48.273
N16635 Y1232.037 Z-49.487
N16640 Y1250.644 Z-51.1
N16645 Y1260.772 Z-52.186
N16650 Y1270.882 Z-53.442
N16655 Y1277.594 Z-54.455
N16660 Y1285.952 Z-55.912
N16665 Y1290.906 Z-56.996
N16670 Y1956.365 Z-57.
N16675 G3 Y1956.784 Z-56.903 J0. K0.952
N16680 G2 Y1957.203 Z-56.806 J0.419 K-0.855
N16685 G17 G3 X266.603 Y1960.061 I-2.857 J0.
N16690 G1 X257.322
N16695 G3 X254.464 Y1957.203 I0. J-2.858
N16700 G19 G3 Y1956.784 Z-56.903 J0. K-0.953
N16705 G2 Y1956.365 Z-57. J-0.419 K0.855
N16710 G1 Y1390.324 Z-56.977
N16715 Y1388.203 Z-55.785
N16720 Y1385.171 Z-54.287
N16725 Y1381.23 Z-52.801
N16730 Y1377.578 Z-51.65
N16735 Y1371.624 Z-50.066
N16740 Y1366.645 Z-49.03
N16745 Y1360.813 Z-47.906
N16750 Y1354.942 Z-47.002
N16755 Y1347.379 Z-45.925
N16760 Y1333.037 Z-44.331
N16765 Y1316.117 Z-42.915
N16770 Y1305.939 Z-42.23
N16775 Y1281.885 Z-40.907
N16780 Y1268.037 Z-40.256
N16785 Y1218.654 Z-38.655
N16790 Y1192.662 Z-38.022
N16795 Y1112.956 Z-36.617
N16800 Y1037.582 Z-35.573
N16805 Y937.083 Z-34.498
N16810 Y833.118 Z-33.941
N16815 Y756.011 Z-33.842
N16820 Y703.162 Z-34.005
N16825 Y638.185 Z-34.583
N16830 Y578.405 Z-35.437
N16835 Y550.681 Z-36.04
N16840 Y501.298 Z-37.488
N16845 Y479.906 Z-38.24
N16850 Y451.371 Z-39.634
N16855 Y426.827 Z-40.965
N16860 Y413.544 Z-41.899
N16865 Y394.677 Z-43.347
N16870 Y376.359 Z-45.108
N16875 Y364.816 Z-46.364
N16880 Y349.59 Z-48.342
N16885 Y343.561 Z-49.282
N16890 Y333.277 Z-51.036
N16895 Y328.044 Z-52.111
N16900 Y319.525 Z-54.052
N16905 Y311.645 Z-56.365
N16910 Y309.684 Z-57.
N16915 Y-252.688
N16920 G2 Y-253.107 Z-56.903 J0. K0.952
N16925 G3 Y-253.526 Z-56.806 J-0.419 K-0.855
N16930 G17 G2 X251.607 Y-256.384 I-2.857 J0.
N16935 G1 X242.325
N16940 G2 X239.468 Y-253.526 I0. J2.857
N16945 G19 G2 Y-253.107 Z-56.903 J0. K-0.953
N16950 G3 Y-252.688 Z-57. J0.419 K0.855
N16955 G1 Y219.803
N16960 Y221.404 Z-56.119
N16965 Y223.483 Z-55.065
N16970 Y229.169 Z-52.812
N16975 Y232.979 Z-51.606
N16980 Y238.667 Z-49.971
N16985 Y248.691 Z-47.676
N16990 Y257.111 Z-46.124
N16995 Y264.598 Z-44.88
N17000 Y278.745 Z-42.909
N17005 Y294.76 Z-41.107
N17010 Y305.559 Z-40.067
N17015 Y329.736 Z-38.087
N17020 Y343.789 Z-37.097
N17025 Y371.478 Z-35.503
N17030 Y394.336 Z-34.317
N17035 Y419.089 Z-33.394
N17040 Y460.662 Z-32.055
N17045 Y510.045 Z-31.012
N17050 Y566.359 Z-30.126
N17055 Y638.268 Z-29.564
N17060 Y717.108 Z-29.288
N17065 Y791.616 Z-29.329
N17070 Y904.244 Z-29.798
N17075 Y961.424 Z-30.164
N17080 Y1148.561 Z-32.009
N17085 Y1232.599 Z-33.015
N17090 Y1299.309 Z-34.295
N17095 Y1344.361 Z-35.775
N17100 Y1365.934 Z-36.908
N17105 Y1377.03 Z-37.564
N17110 Y1391.412 Z-38.765
N17115 Y1400.708 Z-39.635
N17120 Y1412.498 Z-41.109
N17125 Y1422.374 Z-42.732
N17130 Y1428.599 Z-44.051
N17135 Y1433.116 Z-45.171
N17140 Y1437.98 Z-46.622
N17145 Y1442.567 Z-48.319
N17150 Y1445.756 Z-49.88
N17155 Y1447.2 Z-50.673
N17160 Y1449.263 Z-52.08
N17165 Y1450.52 Z-53.078
N17170 Y1452.353 Z-55.033
N17175 Y1453.426 Z-56.974
N17180 Y1956.365 Z-57.
N17185 G3 Y1956.784 Z-56.903 J0. K0.952
N17190 G2 Y1957.203 Z-56.806 J0.419 K-0.855
N17195 G17 G3 X236.61 Y1960.061 I-2.857 J0.
N17200 G1 X227.329
N17205 G3 X224.471 Y1957.203 I0. J-2.858
N17210 G19 G3 Y1956.784 Z-56.903 J0. K-0.953
N17215 G2 Y1956.365 Z-57. J-0.419 K0.855
N17220 G1 Y1498.896
N17225 Y1498.839 Z-55.022
N17230 Y1498.704 Z-53.946
N17235 Y1498.379 Z-52.822
N17240 Y1497.621 Z-51.15
N17245 Y1496.147 Z-49.157
N17250 Y1494.083 Z-47.229
N17255 Y1492.07 Z-45.822
N17260 Y1489.901 Z-44.558
N17265 Y1486.474 Z-42.943
N17270 Y1482.744 Z-41.547
N17275 Y1480.104 Z-40.714
N17280 Y1474.791 Z-39.268
N17285 Y1468.574 Z-37.925
N17290 Y1460.208 Z-36.513
N17295 Y1451.787 Z-35.459
N17300 Y1444.197 Z-34.59
N17305 Y1431.505 Z-33.562
N17310 Y1422.187 Z-32.894
N17315 Y1394.262 Z-31.572
N17320 Y1356.358 Z-30.505
N17325 Y1300.91 Z-29.63
N17330 Y1201.278 Z-28.751
N17335 Y981.219 Z-27.088
N17340 Y923.172 Z-26.684
N17345 Y777.622 Z-26.047
N17350 Y676.256 Z-25.928
N17355 Y588.753 Z-26.136
N17360 Y515.111 Z-26.746
N17365 Y461.396 Z-27.44
N17370 Y402.483 Z-28.672
N17375 Y380.066 Z-29.323
N17380 Y344.287 Z-30.721
N17385 Y311.632 Z-32.164
N17390 Y286.553 Z-33.591
N17395 Y264.135 Z-34.994
N17400 Y241.82 Z-36.793
N17405 Y230.668 Z-37.773
N17410 Y211.447 Z-39.903
N17415 Y203.712 Z-40.907
N17420 Y193.392 Z-42.431
N17425 Y183.121 Z-44.275
N17430 Y175.498 Z-45.939
N17435 Y170.68 Z-47.135
N17440 Y164.287 Z-49.011
N17445 Y159.097 Z-50.907
N17450 Y156.294 Z-52.175
N17455 Y154.157 Z-53.219
N17460 Y152.079 Z-54.493
N17465 Y150.176 Z-55.797
N17470 Y148.846 Z-57.
N17475 Y-252.688
N17480 G2 Y-253.107 Z-56.903 J0. K0.952
N17485 G3 Y-253.526 Z-56.806 J-0.419 K-0.855
N17490 G17 G2 X221.614 Y-256.384 I-2.857 J0.
N17495 G1 X212.333
N17500 G2 X209.475 Y-253.526 I0. J2.857
N17505 G19 G2 Y-253.107 Z-56.903 J0. K-0.953
N17510 G3 Y-252.688 Z-57. J0.419 K0.855
N17515 G1 Y97.456
N17520 Y97.927 Z-55.151
N17525 Y98.629 Z-53.305
N17530 Y99.421 Z-51.78
N17535 Y100.401 Z-50.454
N17540 Y101.56 Z-49.262
N17545 Y102.191 Z-48.786
N17550 Y103.585 Z-48.012
N17555 Y106.265 Z-46.977
N17560 Y112.445 Z-45.046
N17565 Y118.983 Z-43.385
N17570 Y127.661 Z-41.574
N17575 Y137.607 Z-39.88
N17580 Y150.795 Z-38.079
N17585 Y160.058 Z-37.015
N17590 Y175.743 Z-35.379
N17595 Y199.92 Z-33.39
N17600 Y211.095 Z-32.619
N17605 Y238.974 Z-30.9
N17610 Y263.449 Z-29.681
N17615 Y297.746 Z-28.161
N17620 Y333.799 Z-26.888
N17625 Y388.381 Z-25.243
N17630 Y419.57 Z-24.689
N17635 Y477.617 Z-23.971
N17640 Y554.724 Z-23.465
N17645 Y637.03 Z-23.324
N17650 Y745.326 Z-23.512
N17655 Y916.868 Z-24.318
N17660 Y1107.469 Z-25.562
N17665 Y1295.472 Z-26.359
N17670 Y1358.717 Z-26.711
N17675 Y1402.902 Z-27.223
N17680 Y1434.958 Z-27.94
N17685 Y1459.216 Z-28.895
N17690 Y1466.03 Z-29.298
N17695 Y1479.583 Z-30.236
N17700 Y1489.718 Z-31.268
N17705 Y1494.773 Z-31.855
N17710 Y1503.161 Z-33.159
N17715 Y1506.493 Z-33.76
N17720 Y1512.281 Z-35.051
N17725 Y1517.165 Z-36.441
N17730 Y1521.918 Z-38.167
N17735 Y1524.231 Z-39.222
N17740 Y1526.444 Z-40.378
N17745 Y1528.88 Z-41.949
N17750 Y1531.072 Z-43.783
N17755 Y1532.65 Z-45.555
N17760 Y1533.792 Z-47.39
N17765 Y1534.55 Z-49.492
N17770 Y1534.796 Z-51.307
N17775 Y1534.827 Z-57.
N17780 Y1956.365
N17785 G3 Y1956.784 Z-56.903 J0. K0.952
N17790 G2 Y1957.203 Z-56.806 J0.419 K-0.855
N17795 G17 G3 X206.618 Y1960.061 I-2.857 J0.
N17800 G1 X197.336
N17805 G3 X194.479 Y1957.203 I0. J-2.857
N17810 G19 G3 Y1956.784 Z-56.903 J0. K-0.953
N17815 G2 Y1956.365 Z-57. J-0.419 K0.855
N17820 G1 Y1564.349
N17825 Y1564.305 Z-47.603
N17830 Y1564.115 Z-46.078
N17835 Y1563.465 Z-44.007
N17840 Y1562.616 Z-42.351
N17845 Y1561.214 Z-40.461
N17850 Y1559.486 Z-38.767
N17855 Y1556.848 Z-36.794
N17860 Y1553.945 Z-35.139
N17865 Y1550.097 Z-33.433
N17870 Y1546.112 Z-32.056
N17875 Y1542.034 Z-30.92
N17880 Y1539.562 Z-30.356
N17885 Y1532.901 Z-29.041
N17890 Y1527.864 Z-28.324
N17895 Y1521.972 Z-27.557
N17900 Y1509.291 Z-26.426
N17905 Y1497.328 Z-25.728
N17910 Y1490.427 Z-25.394
N17915 Y1468.767 Z-24.733
N17920 Y1441.043 Z-24.299
N17925 Y1406.388 Z-24.082
N17930 Y1347.134 Z-24.018
N17935 Y1197.424 Z-23.973
N17940 Y1077.865 Z-23.535
N17945 Y854.341 Z-22.18
N17950 Y704.459 Z-21.444
N17955 Y597.029 Z-21.214
N17960 Y523.387 Z-21.312
N17965 Y448.013 Z-21.733
N17970 Y391.699 Z-22.378
N17975 Y347.514 Z-23.433
N17980 Y289.467 Z-25.168
N17985 Y262.908 Z-26.126
N17990 Y227.408 Z-27.579
N17995 Y195.788 Z-29.158
N18000 Y179.645 Z-30.051
N18005 Y148.966 Z-32.062
N18010 Y127.923 Z-33.695
N18015 Y109.919 Z-35.458
N18020 Y104.998 Z-36.056
N18025 Y103.497 Z-36.385
N18030 Y101.678 Z-37.078
N18035 Y99.454 Z-38.198
N18040 Y97.34 Z-39.674
N18045 Y96.126 Z-40.602
N18050 Y94.916 Z-41.628
N18055 Y92.769 Z-43.77
N18060 Y91.216 Z-45.648
N18065 Y90.74 Z-46.308
N18070 Y89.851 Z-47.667
N18075 Y88.727 Z-49.743
N18080 Y87.736 Z-52.139
N18085 Y86.916 Z-55.008
N18090 Y86.562 Z-57.
N18095 Y-252.688
N18100 G2 Y-253.107 Z-56.903 J0. K0.952
N18105 G3 Y-253.526 Z-56.806 J-0.419 K-0.855
N18110 G17 G2 X191.621 Y-256.384 I-2.857 J0.
N18115 G1 X182.34
N18120 G2 X179.482 Y-253.526 I0. J2.857
N18125 G19 G2 Y-253.107 Z-56.903 J0. K-0.953
N18130 G3 Y-252.688 Z-57. J0.419 K0.855
N18135 G1 Y77.192
N18140 Y77.383 Z-55.717
N18145 Y78.011 Z-52.898
N18150 Y78.788 Z-50.596
N18155 Y79.443 Z-49.057
N18160 Y80.591 Z-46.88
N18165 Y82.116 Z-44.57
N18170 Y83.853 Z-42.454
N18175 Y84.965 Z-41.314
N18180 Y86.099 Z-40.268
N18185 Y87.341 Z-39.201
N18190 Y90.478 Z-37.015
N18195 Y94.206 Z-35.023
N18200 Y98.248 Z-33.32
N18205 Y101.878 Z-32.048
N18210 Y104.861 Z-31.311
N18215 Y109.04 Z-30.94
N18220 Y132.442 Z-29.382
N18225 Y159.18 Z-27.927
N18230 Y186.19 Z-26.549
N18235 Y211.095 Z-25.427
N18240 Y246.061 Z-24.07
N18245 Y274.585 Z-23.111
N18250 Y331.765 Z-21.491
N18255 Y388.946 Z-20.225
N18260 Y435.297 Z-19.782
N18265 Y512.837 Z-19.478
N18270 Y594.276 Z-19.5
N18275 Y712.103 Z-19.916
N18280 Y1067.261 Z-22.033
N18285 Y1179.943 Z-22.41
N18290 Y1282.055 Z-22.36
N18295 Y1439.735 Z-21.683
N18300 Y1474.39 Z-21.681
N18305 Y1497.782 Z-21.872
N18310 Y1516.842 Z-22.277
N18315 Y1533.284 Z-22.956
N18320 Y1545.138 Z-23.814
N18325 Y1551.045 Z-24.457
N18330 Y1556.094 Z-25.083
N18335 Y1563.614 Z-26.37
N18340 Y1569.383 Z-27.766
N18345 Y1573.509 Z-29.065
N18350 Y1577.029 Z-30.48
N18355 Y1580.107 Z-32.044
N18360 Y1582.699 Z-33.748
N18365 Y1584.871 Z-35.59
N18370 Y1586.179 Z-37.056
N18375 Y1587.432 Z-38.896
N18380 Y1588.306 Z-40.751
N18385 Y1588.815 Z-42.51
N18390 Y1589.049 Z-44.296
N18395 Y1589.086 Z-57.
N18400 Y1956.365
N18405 G3 Y1956.784 Z-56.903 J0. K0.952
N18410 G2 Y1957.203 Z-56.806 J0.419 K-0.855
N18415 G17 G3 X176.625 Y1960.061 I-2.857 J0.
N18420 G1 X167.343
N18425 G3 X164.486 Y1957.203 I0. J-2.857
N18430 G19 G3 Y1956.784 Z-56.903 J0. K-0.953
N18435 G2 Y1956.365 Z-57. J-0.419 K0.855
N18440 G1 Y1610.083
N18445 Y1610.033 Z-40.753
N18450 Y1609.816 Z-39.234
N18455 Y1609.45 Z-37.813
N18460 Y1608.717 Z-36.013
N18465 Y1607.652 Z-34.211
N18470 Y1606.347 Z-32.562
N18475 Y1604.64 Z-30.898
N18480 Y1602.542 Z-29.315
N18485 Y1600.001 Z-27.789
N18490 Y1597.021 Z-26.39
N18495 Y1593.865 Z-25.205
N18500 Y1589.801 Z-23.999
N18505 Y1587.336 Z-23.426
N18510 Y1582.345 Z-22.426
N18515 Y1574.784 Z-21.374
N18520 Y1565.488 Z-20.524
N18525 Y1554.362 Z-19.908
N18530 Y1539.633 Z-19.485
N18535 Y1522.306 Z-19.297
N18540 Y1494.582 Z-19.325
N18545 Y1424.406 Z-20.011
N18550 Y1335.17 Z-20.79
N18555 Y1248.532 Z-21.155
N18560 Y1153.474
N18565 Y1039.113 Z-20.722
N18570 Y679.569 Z-18.492
N18575 Y562.609 Z-18.047
N18580 Y481.17 Z-18.017
N18585 Y409.261 Z-18.283
N18590 Y382.403 Z-18.566
N18595 Y320.024 Z-19.827
N18600 Y268.042 Z-21.203
N18605 Y231.712 Z-22.376
N18610 Y200.149 Z-23.585
N18615 Y173.315 Z-24.767
N18620 Y132.474 Z-26.763
N18625 Y113.812 Z-27.822
N18630 Y105.173 Z-28.415
N18635 Y101.331 Z-29.159
N18640 Y96.881 Z-30.251
N18645 Y93.939 Z-31.104
N18650 Y90.819 Z-32.187
N18655 Y87.273 Z-33.768
N18660 Y85.479 Z-34.739
N18665 Y82.871 Z-36.358
N18670 Y81.604 Z-37.291
N18675 Y79.233 Z-39.242
N18680 Y77.044 Z-41.457
N18685 Y75.997 Z-42.683
N18690 Y74.359 Z-44.859
N18695 Y72.71 Z-47.574
N18700 Y71.297 Z-50.555
N18705 Y70.444 Z-52.916
N18710 Y69.683 Z-55.951
N18715 Y69.508 Z-57.
N18720 Y-252.688
N18725 G2 Y-253.107 Z-56.903 J0. K0.952
N18730 G3 Y-253.526 Z-56.806 J-0.419 K-0.855
N18735 G17 G2 X161.628 Y-256.384 I-2.858 J0.
N18740 G1 X152.347
N18745 G2 X149.489 Y-253.526 I0. J2.857
N18750 G19 G2 Y-253.107 Z-56.903 J0. K-0.953
N18755 G3 Y-252.688 Z-57. J0.419 K0.855
N18760 G1 Y65.241
N18765 Y65.366 Z-55.604
N18770 Y65.848 Z-52.827
N18775 Y66.311 Z-51.313
N18780 Y67.758 Z-48.181
