%
(1001)
(T5  D=19.05 CR=9.525 - ZMIN=-38.538 - BALL END MILL)
N10 G90 G94 G17 G91.1
N15 G21
N20 G53 G0 Z0.
(PARALLEL1)
N25 M9
N30 T5 M6
N35 S24000 M3
N40 G54
N45 G0 X129.95 Y602.413
N50 G43 Z15. H5
N55 G0 Z-15.633
N60 G19 G2 Y600.508 Z-17.538 J-1.905 K0. F1000.
N65 G1 Y-0.508 F3000.
N70 G2 Y-0.927 Z-17.441 J0. K0.953
N75 G3 Y-1.346 Z-17.343 J-0.419 K-0.855
N80 G1 Y-5.838
N85 G17 G2 X127.092 Y-8.696 I-2.857 J0.
N90 G1 X122.811
N95 G2 X119.954 Y-5.838 I0. J2.858
N100 G19 G2 Y-5.419 Z-17.441 J0. K-0.953
N105 G3 Y-5. Z-17.538 J0.419 K0.855
N110 G1 Y605.
N115 G3 Y605.419 Z-17.441 J0. K0.953
N120 G2 Y605.838 Z-17.343 J0.419 K-0.855
N125 G17 G3 X117.096 Y608.696 I-2.858 J0.
N130 G1 X112.815
N135 G3 X109.958 Y605.838 I0. J-2.857
N140 G19 G3 Y605.419 Z-17.441 J0. K-0.953
N145 G2 Y605. Z-17.538 J-0.419 K0.855
N150 G1 Y-5.
N155 G2 Y-5.419 Z-17.441 J0. K0.953
N160 G3 Y-5.838 Z-17.343 J-0.419 K-0.855
N165 G17 G2 X107.1 Y-8.696 I-2.857 J0.
N170 G1 X102.819
N175 G2 X99.962 Y-5.838 I0. J2.858
N180 G19 G2 Y-5.419 Z-17.441 J0. K-0.953
N185 G3 Y-5. Z-17.538 J0.419 K0.855
N190 G1 Y605.
N195 G3 Y605.419 Z-17.441 J0. K0.953
N200 G2 Y605.838 Z-17.343 J0.419 K-0.855
N205 G17 G3 X97.104 Y608.696 I-2.857 J0.
N210 G1 X92.823
N215 G3 X89.965 Y605.838 I0. J-2.857
N220 G19 G3 Y605.419 Z-17.441 J0. K-0.953
N225 G2 Y605. Z-17.538 J-0.419 K0.855
N230 G1 Y-5.
N235 G2 Y-5.419 Z-17.441 J0. K0.953
N240 G3 Y-5.838 Z-17.343 J-0.419 K-0.855
N245 G17 G2 X87.108 Y-8.696 I-2.857 J0.
N250 G1 X82.827
N255 G2 X79.969 Y-5.838 I0. J2.857
N260 G19 G2 Y-5.419 Z-17.441 J0. K-0.953
N265 G3 Y-5. Z-17.538 J0.419 K0.855
N270 G1 Y139.547 Z-17.522
N275 Y179.668 Z-16.908
N280 Y230.053 Z-16.606
N285 Y299.1 Z-16.616
N290 Y442.791 Z-17.222
N295 Y467.05 Z-17.492
N300 Y605. Z-17.538
N305 G3 Y605.419 Z-17.441 J0. K0.953
N310 G2 Y605.839 Z-17.343 J0.419 K-0.855
N315 G17 G3 X77.112 Y608.696 I-2.858 J0.
N320 G1 X72.831
N325 G3 X69.973 Y605.839 I0. J-2.857
N330 G19 G3 Y605.419 Z-17.441 J0. K-0.952
N335 G2 Y605. Z-17.538 J-0.419 K0.855
N340 G1 Y531.53 Z-17.512
N345 Y525.957 Z-16.698
N350 Y518.675 Z-16.067
N355 Y511.305 Z-15.702
N360 Y499.175 Z-15.416
N365 Y475.848 Z-15.298
N370 Y385.277 Z-15.46
N375 Y230.39 Z-15.1
N380 Y176.272 Z-15.225
N385 Y136.151 Z-15.598
N390 Y117.489 Z-15.951
N395 Y94.298 Z-16.668
N400 Y74.865 Z-17.416
N405 Y70.198 Z-17.538
N410 Y-5.
N415 G2 Y-5.419 Z-17.441 J0. K0.953
N420 G3 Y-5.838 Z-17.343 J-0.419 K-0.855
N425 G17 G2 X67.116 Y-8.696 I-2.858 J0.
N430 G1 X62.834
N435 G2 X59.977 Y-5.838 I0. J2.858
N440 G19 G2 Y-5.419 Z-17.441 J0. K-0.953
N445 G3 Y-5. Z-17.538 J0.419 K0.855
N450 G1 Y35.007
N455 Y49.501 Z-16.834
N460 Y66.553 Z-16.08
N465 Y86.389 Z-15.381
N470 Y120.912 Z-14.484
N475 Y147.038 Z-14.215
N480 Y198.356 Z-14.068
N485 Y381.231 Z-14.52
N490 Y435.438 Z-14.357
N495 Y514.748 Z-13.577
N500 Y527.811 Z-13.679
N505 Y535.693 Z-13.997
N510 Y539.795 Z-14.321
N515 Y544.323 Z-14.886
N520 Y548.124 Z-15.623
N525 Y551.075 Z-16.435
N530 Y553.924 Z-17.49
N535 Y605. Z-17.538
N540 G3 Y605.42 Z-17.441 J0.001 K0.952
N545 G2 Y605.839 Z-17.343 J0.419 K-0.855
N550 G17 G3 X57.119 Y608.697 I-2.858 J0.
N555 G1 X52.838
N560 G3 X49.981 Y605.839 I0. J-2.857
N565 G1 Y605.838
N570 G19 G3 Y605.419 Z-17.441 J0. K-0.953
N575 G2 Y605. Z-17.538 J-0.419 K0.855
N580 G1 Y568.032
N585 Y565.814 Z-16.075
N590 Y563.403 Z-14.907
N595 Y560.412 Z-13.87
N600 Y557.319 Z-13.136
N605 Y553.264 Z-12.527
N610 Y550.991 Z-12.319
N615 Y547.325 Z-12.102
N620 Y541.73 Z-11.975
N625 Y530.533 Z-12.057
N630 Y478.282 Z-13.163
N635 Y434.428 Z-13.675
N640 Y380.311 Z-13.878
N645 Y309.825 Z-13.73
N650 Y188.527 Z-13.356
N655 Y137.209 Z-13.454
N660 Y116.682 Z-13.658
N665 Y83.091 Z-14.375
N670 Y66.374 Z-14.882
N675 Y49.715 Z-15.535
N680 Y31.981 Z-16.417
N685 Y23.775 Z-16.93
N690 Y19.897 Z-17.502
N695 Y-5. Z-17.538
N700 G2 Y-5.421 Z-17.441 J-0.001 K0.952
N705 G3 Y-5.84 Z-17.343 J-0.419 K-0.855
N710 G17 G2 X47.123 Y-8.697 I-2.857 J0.
N715 G1 X42.842
N720 G2 X39.985 Y-5.84 I0. J2.858
N725 G1 Y-5.838
N730 G19 G2 Y-5.419 Z-17.441 J0. K-0.953
N735 G3 Y-5. Z-17.538 J0.419 K0.855
N740 G1 Y15.071
N745 Y15.866 Z-17.305
N750 Y18.681 Z-16.647
N755 Y23.164 Z-16.043
N760 Y24.803 Z-15.917
N765 Y33.025 Z-15.42
N770 Y50.141 Z-14.632
N775 Y65.554 Z-14.098
N780 Y93.546 Z-13.44
N785 Y127.136 Z-12.98
N790 Y179.388 Z-12.878
N795 Y305.351 Z-13.287
N800 Y384.11 Z-13.418
N805 Y437.294 Z-13.162
N810 Y478.349 Z-12.62
N815 Y508.207 Z-11.935
N820 Y547.656 Z-10.584
N825 Y555.996 Z-10.469
N830 Y559.773 Z-10.585
N835 Y561.594 Z-10.709
N840 Y563.409 Z-10.887
N845 Y566.943 Z-11.486
N850 Y569.824 Z-12.288
N855 Y572.318 Z-13.307
N860 Y574.44 Z-14.498
N865 Y576.369 Z-15.951
N870 Y577.937 Z-17.537
N875 Y605. Z-17.538
N880 G3 Y605.419 Z-17.441 J0. K0.953
N885 G2 Y605.838 Z-17.343 J0.419 K-0.855
N890 G1 Y605.84
N895 G17 G3 X37.127 Y608.698 I-2.858 J0.
N900 G1 X32.846
N905 G3 X29.988 Y605.84 I0. J-2.858
N910 G19 G3 Y605.421 Z-17.441 J0. K-0.953
N915 G2 Y605. Z-17.538 J-0.419 K0.855
N920 G1 Y585.265 Z-17.503
N925 Y583.957 Z-15.658
N930 Y582.815 Z-14.433
N935 Y580.976 Z-12.915
N940 Y579.103 Z-11.762
N945 Y576.855 Z-10.744
N950 Y574.281 Z-9.952
N955 Y571.151 Z-9.38
N960 Y568.881 Z-9.174
N965 Y565.885 Z-9.077
N970 Y561.453 Z-9.161
N975 Y527.357 Z-10.821
N980 Y499.443 Z-11.75
N985 Y464.92 Z-12.467
N990 Y421.066 Z-12.941
N995 Y371.614 Z-13.109
N1000 Y278.282 Z-12.9
N1005 Y173.779 Z-12.578
N1010 Y123.394 Z-12.682
N1015 Y87.005 Z-13.132
N1020 Y59.946 Z-13.754
N1025 Y46.347 Z-14.225
N1030 Y31.94 Z-14.892
N1035 Y22.907 Z-15.476
N1040 Y18.824 Z-15.935
N1045 Y16.397 Z-16.432
N1050 Y14.219 Z-17.087
N1055 Y13.034 Z-17.538
N1060 Y-5.
N1065 G2 Y-5.419 Z-17.441 J0. K0.953
N1070 G3 Y-5.838 Z-17.343 J-0.419 K-0.855
N1075 G17 G2 X27.131 Y-8.696 I-2.858 J0.
N1080 G1 X22.85
N1085 G2 X19.992 Y-5.838 I0. J2.858
N1090 G19 G2 Y-5.419 Z-17.441 J0. K-0.953
N1095 G3 Y-5. Z-17.538 J0.419 K0.855
N1100 G1 Y12.003
N1105 Y13.96 Z-16.763
N1110 Y16.134 Z-16.097
N1115 Y19.171 Z-15.5
N1120 Y22.647 Z-15.158
N1125 Y29.205 Z-14.715
N1130 Y41.351 Z-14.103
N1135 Y55.209 Z-13.594
N1140 Y80.168 Z-12.997
N1145 Y114.925 Z-12.559
N1150 Y157.846 Z-12.4
N1155 Y236.222 Z-12.562
N1160 Y355.654 Z-12.903
N1165 Y415.15 Z-12.748
N1170 Y459.936 Z-12.288
N1175 Y495.393 Z-11.573
N1180 Y523.385 Z-10.653
N1185 Y545.618 Z-9.559
N1190 Y565.132 Z-8.235
N1195 Y571.399 Z-7.843
N1200 Y575.135 Z-7.841
N1205 Y578.238 Z-8.177
N1210 Y580.978 Z-8.847
N1215 Y583.356 Z-9.797
N1220 Y585.468 Z-11.021
N1225 Y587.172 Z-12.366
N1230 Y588.769 Z-14.068
N1235 Y589.878 Z-15.654
N1240 Y590.83 Z-17.516
N1245 Y605. Z-17.538
N1250 G3 Y605.421 Z-17.441 J0.001 K0.952
N1255 G2 Y605.84 Z-17.343 J0.419 K-0.855
N1260 G17 G3 X17.135 Y608.697 I-2.858 J0.
N1265 G1 X12.854
N1270 G3 X9.996 Y605.84 I0. J-2.857
N1275 G1 Y605.838
N1280 G19 G3 Y605.419 Z-17.441 J0. K-0.953
N1285 G2 Y605. Z-17.538 J-0.419 K0.855
N1290 G1 Y595.057
N1295 Y594.253 Z-15.349
N1300 Y593.374 Z-13.724
N1305 Y592.117 Z-12.017
N1310 Y590.6 Z-10.494
N1315 Y588.678 Z-9.083
N1320 Y586.512 Z-7.971
N1325 Y584.177 Z-7.193
N1330 Y581.738 Z-6.753
N1335 Y578.871 Z-6.629
N1340 Y576.352 Z-6.761
N1345 Y560.522 Z-8.246
N1350 Y544.105 Z-9.41
N1355 Y522.824 Z-10.476
N1360 Y495.765 Z-11.39
N1365 Y461.242 Z-12.115
N1370 Y417.388 Z-12.598
N1375 Y358.605 Z-12.788
N1380 Y256.473 Z-12.543
N1385 Y165.033 Z-12.309
N1390 Y116.048 Z-12.453
N1395 Y81.058 Z-12.851
N1400 Y55.865 Z-13.421
N1405 Y43.162 Z-13.864
N1410 Y31.356 Z-14.427
N1415 Y21.717 Z-15.063
N1420 Y18.244 Z-15.459
N1425 Y15.827 Z-15.986
N1430 Y13.071 Z-16.906
N1435 Y11.65 Z-17.538
N1440 Y-5.
N1445 G2 Y-5.419 Z-17.441 J0. K0.953
N1450 G3 Y-5.838 Z-17.343 J-0.419 K-0.855
N1455 G17 G2 X7.139 Y-8.696 I-2.857 J0.
N1460 G1 X2.858
N1465 G2 X0. Y-5.838 I0. J2.858
N1470 G19 G2 Y-5.419 Z-17.441 J0. K-0.953
N1475 G3 Y-5. Z-17.538 J0.419 K0.855
N1480 G1 Y11.543
N1485 Y12.821 Z-16.954
N1490 Y15.665 Z-15.976
N1495 Y18.793 Z-15.32
N1500 Y23.293 Z-14.896
N1505 Y38.074 Z-14.036
N1510 Y57.322 Z-13.334
N1515 Y83.447 Z-12.775
N1520 Y119.37 Z-12.404
N1525 Y171.04 Z-12.284
N1530 Y306.8 Z-12.681
N1535 Y374.057 Z-12.735
N1540 Y422.343 Z-12.514
N1545 Y459.665 Z-12.086
N1550 Y490.456 Z-11.468
N1555 Y515.182 Z-10.707
N1560 Y535.211 Z-9.826
N1565 Y551.22 Z-8.858
N1570 Y563.75 Z-7.84
N1575 Y573.406 Z-6.797
N1580 Y580.648 Z-5.757
N1585 Y582.985 Z-5.539
N1590 Y584.802 Z-5.631
N1595 Y586.58 Z-5.945
N1600 Y588.291 Z-6.473
N1605 Y589.91 Z-7.2
N1610 Y591.415 Z-8.11
N1615 Y592.785 Z-9.182
N1620 Y594.003 Z-10.394
N1625 Y595.053 Z-11.72
N1630 Y595.926 Z-13.129
N1635 Y596.868 Z-15.253
N1640 Y597.467 Z-17.538
N1645 Y605.
N1650 G3 Y605.419 Z-17.441 J0. K0.953
N1655 G2 Y605.838 Z-17.343 J0.419 K-0.855
N1660 G1 Y605.842
N1665 G17 G3 X-2.857 Y608.699 I-2.857 J0.
N1670 G1 X-7.139
N1675 G3 X-9.996 Y605.842 I0. J-2.857
N1680 G19 G3 Y605.422 Z-17.441 J0. K-0.953
N1685 G2 Y605. Z-17.538 J-0.419 K0.855
N1690 G1 Y595.047 Z-17.503
N1695 Y594.236 Z-15.311
N1700 Y593.369 Z-13.716
N1705 Y592.112 Z-12.012
N1710 Y590.598 Z-10.492
N1715 Y588.675 Z-9.082
N1720 Y586.509 Z-7.97
N1725 Y584.173 Z-7.193
N1730 Y581.733 Z-6.753
N1735 Y578.749 Z-6.631
N1740 Y576.349 Z-6.761
N1745 Y558.883 Z-8.381
N1750 Y542.461 Z-9.507
N1755 Y521.15 Z-10.545
N1760 Y494.158 Z-11.433
N1765 Y460.568 Z-12.125
N1770 Y416.714 Z-12.602
N1775 Y357.932 Z-12.788
N1780 Y254.55 Z-12.536
N1785 Y164.043 Z-12.309
N1790 Y115.524 Z-12.457
N1795 Y81.001 Z-12.852
N1800 Y55.808 Z-13.423
N1805 Y42.265 Z-13.901
N1810 Y30.499 Z-14.475
N1815 Y22.299 Z-15.018
N1820 Y20.661 Z-15.149
N1825 Y18.11 Z-15.483
N1830 Y15.021 Z-16.217
N1835 Y14.204 Z-16.482
N1840 Y11.999 Z-17.373
N1845 Y11.586 Z-17.538
N1850 Y-5.
N1855 G2 Y-5.419 Z-17.441 J0. K0.953
N1860 G3 Y-5.838 Z-17.343 J-0.419 K-0.855
N1865 G17 G2 X-12.854 Y-8.696 I-2.858 J0.
N1870 G1 X-17.135
N1875 G2 X-19.992 Y-5.838 I0. J2.858
N1880 G19 G2 Y-5.419 Z-17.441 J0. K-0.953
N1885 G3 Y-5. Z-17.538 J0.419 K0.855
N1890 G1 Y12.002
N1895 Y12.496 Z-17.346
N1900 Y14.551 Z-16.56
N1905 Y16.14 Z-16.095
N1910 Y19.177 Z-15.499
N1915 Y22.653 Z-15.158
N1920 Y30.857 Z-14.619
N1925 Y43.508 Z-14.012
N1930 Y58.011 Z-13.51
N1935 Y84.136 Z-12.928
N1940 Y119.592 Z-12.523
N1945 Y168.112 Z-12.399
N1950 Y263.284 Z-12.663
N1955 Y363.748 Z-12.903
N1960 Y415.067 Z-12.749
N1965 Y459.854 Z-12.289
N1970 Y495.31 Z-11.575
N1975 Y523.213 Z-10.66
N1980 Y545.449 Z-9.569
N1985 Y566.601 Z-8.129
N1990 Y571.669 Z-7.833
N1995 Y574.914 Z-7.831
N2000 Y578.025 Z-8.142
N2005 Y580.828 Z-8.799
N2010 Y583.216 Z-9.73
N2015 Y585.294 Z-10.903
N2020 Y587.06 Z-12.265
N2025 Y588.678 Z-13.955
N2030 Y589.857 Z-15.619
N2035 Y590.83 Z-17.516
N2040 Y605. Z-17.538
N2045 G3 Y605.421 Z-17.441 J0.001 K0.952
N2050 G2 Y605.84 Z-17.343 J0.419 K-0.855
N2055 G17 G3 X-22.85 Y608.697 I-2.858 J0.
N2060 G1 X-27.131
N2065 G3 X-29.988 Y605.84 I0. J-2.857
N2070 G1 Y605.839
N2075 G19 G3 Y605.42 Z-17.441 J0. K-0.952
N2080 G2 Y605. Z-17.538 J-0.419 K0.855
N2085 G1 Y585.275 Z-17.52
N2090 Y583.957 Z-15.658
N2095 Y582.815 Z-14.433
N2100 Y580.976 Z-12.915
N2105 Y579.103 Z-11.761
N2110 Y576.75 Z-10.705
N2115 Y574.059 Z-9.898
N2120 Y570.757 Z-9.335
N2125 Y568.882 Z-9.174
N2130 Y565.888 Z-9.077
N2135 Y561.456 Z-9.161
N2140 Y527.359 Z-10.821
N2145 Y499.368 Z-11.752
N2150 Y464.844 Z-12.468
N2155 Y420.991 Z-12.942
N2160 Y371.539 Z-13.109
N2165 Y278.284 Z-12.9
N2170 Y173.781 Z-12.578
N2175 Y123.396 Z-12.682
N2180 Y87.006 Z-13.133
N2185 Y59.948 Z-13.754
N2190 Y46.347 Z-14.225
N2195 Y31.943 Z-14.892
N2200 Y22.911 Z-15.476
N2205 Y18.828 Z-15.935
N2210 Y16.401 Z-16.431
N2215 Y14.222 Z-17.086
N2220 Y13.034 Z-17.538
N2225 Y-5.
N2230 G2 Y-5.419 Z-17.441 J0. K0.953
N2235 G3 Y-5.838 Z-17.343 J-0.419 K-0.855
N2240 G17 G2 X-32.846 Y-8.696 I-2.858 J0.
N2245 G1 X-37.127
N2250 G2 X-39.985 Y-5.838 I0. J2.858
N2255 G19 G2 Y-5.419 Z-17.441 J0. K-0.953
N2260 G3 Y-5. Z-17.538 J0.419 K0.855
N2265 G1 Y15.063
N2270 Y15.858 Z-17.307
N2275 Y18.876 Z-16.613
N2280 Y23.156 Z-16.044
N2285 Y24.794 Z-15.917
N2290 Y33.015 Z-15.42
N2295 Y50.144 Z-14.632
N2300 Y65.554 Z-14.098
N2305 Y93.546 Z-13.44
N2310 Y127.136 Z-12.98
N2315 Y179.388 Z-12.878
N2320 Y305.351 Z-13.287
N2325 Y384.068 Z-13.417
N2330 Y437.252 Z-13.162
N2335 Y478.307 Z-12.621
N2340 Y508.165 Z-11.936
N2345 Y547.615 Z-10.586
N2350 Y555.896 Z-10.469
N2355 Y559.73 Z-10.583
N2360 Y561.551 Z-10.705
N2365 Y563.592 Z-10.911
N2370 Y567.013 Z-11.502
N2375 Y569.946 Z-12.328
N2380 Y572.479 Z-13.385
N2385 Y574.407 Z-14.476
N2390 Y576.34 Z-15.925
N2395 Y577.911 Z-17.508
N2400 Y605. Z-17.538
N2405 G3 Y605.42 Z-17.441 J0.001 K0.952
N2410 G2 Y605.839 Z-17.343 J0.419 K-0.855
N2415 G17 G3 X-42.842 Y608.697 I-2.857 J0.
N2420 G1 X-47.123
N2425 G3 X-49.981 Y605.839 I0. J-2.857
N2430 G1 Y605.838
N2435 G19 G3 Y605.419 Z-17.441 J0. K-0.953
N2440 G2 Y605. Z-17.538 J-0.419 K0.855
N2445 G1 Y568.032
N2450 Y565.814 Z-16.075
N2455 Y563.404 Z-14.907
N2460 Y560.412 Z-13.87
N2465 Y557.32 Z-13.136
N2470 Y553.265 Z-12.527
N2475 Y550.991 Z-12.319
N2480 Y547.326 Z-12.102
N2485 Y542.663 Z-11.983
N2490 Y531.466 Z-12.041
N2495 Y478.282 Z-13.164
N2500 Y434.428 Z-13.675
N2505 Y380.31 Z-13.878
N2510 Y309.825 Z-13.73
N2515 Y188.527 Z-13.356
N2520 Y137.209 Z-13.454
N2525 Y116.681 Z-13.658
N2530 Y82.158 Z-14.4
N2535 Y64.566 Z-14.945
N2540 Y48.862 Z-15.573
N2545 Y30.33 Z-16.513
N2550 Y22.95 Z-17.011
N2555 Y19.676 Z-17.538
N2560 Y-5.
N2565 G2 Y-5.419 Z-17.441 J0. K0.953
N2570 G3 Y-5.838 Z-17.343 J-0.419 K-0.855
N2575 G17 G2 X-52.838 Y-8.696 I-2.858 J0.
N2580 G1 X-57.119
N2585 G2 X-59.977 Y-5.838 I0. J2.858
N2590 G19 G2 Y-5.419 Z-17.441 J0. K-0.953
N2595 G3 Y-5. Z-17.538 J0.419 K0.855
N2600 G1 Y34.833
N2605 Y49.434 Z-16.837
N2610 Y66.483 Z-16.083
N2615 Y86.389 Z-15.381
N2620 Y120.913 Z-14.484
N2625 Y147.038 Z-14.215
N2630 Y198.356 Z-14.069
N2635 Y381.227 Z-14.52
N2640 Y435.417 Z-14.357
N2645 Y487.669 Z-13.842
N2650 Y516.593 Z-13.578
N2655 Y528.723 Z-13.705
N2660 Y535.673 Z-13.996
N2665 Y539.775 Z-14.319
N2670 Y544.303 Z-14.883
N2675 Y548.16 Z-15.631
N2680 Y551.165 Z-16.464
N2685 Y553.96 Z-17.506
N2690 Y605. Z-17.538
N2695 G3 Y605.42 Z-17.441 J0.001 K0.953
N2700 G2 Y605.839 Z-17.343 J0.419 K-0.855
N2705 G17 G3 X-62.834 Y608.696 I-2.857 J0.
N2710 G1 X-67.116
N2715 G3 X-69.973 Y605.839 I0. J-2.857
N2720 G19 G3 Y605.419 Z-17.441 J0. K-0.952
N2725 G2 Y605. Z-17.538 J-0.419 K0.855
N2730 G1 Y531.532 Z-17.512
N2735 Y525.959 Z-16.698
N2740 Y518.676 Z-16.068
N2745 Y511.305 Z-15.702
N2750 Y499.175 Z-15.416
N2755 Y475.848 Z-15.298
N2760 Y385.278 Z-15.46
N2765 Y230.39 Z-15.1
N2770 Y175.762 Z-15.228
N2775 Y136.574 Z-15.592
N2780 Y117.912 Z-15.94
N2785 Y93.766 Z-16.686
N2790 Y74.266 Z-17.442
N2795 Y70.213 Z-17.538
N2800 Y-5.
N2805 G2 Y-5.419 Z-17.441 J0. K0.953
N2810 G3 Y-5.838 Z-17.343 J-0.419 K-0.855
N2815 G1 Y-5.839
N2820 G17 G2 X-72.831 Y-8.696 I-2.857 J0.
N2825 G1 X-77.112
N2830 G2 X-79.969 Y-5.839 I0. J2.857
N2835 G19 G2 Y-5.419 Z-17.441 J0. K-0.952
N2840 G3 Y-5. Z-17.538 J0.419 K0.855
N2845 G1 Y140.455 Z-17.503
N2850 Y180.576 Z-16.898
N2855 Y230.961 Z-16.603
N2860 Y300.008 Z-16.618
N2865 Y442.766 Z-17.222
N2870 Y467.025 Z-17.492
N2875 Y605. Z-17.538
N2880 G3 Y605.419 Z-17.441 J0. K0.953
N2885 G2 Y605.839 Z-17.343 J0.419 K-0.855
N2890 G17 G3 X-82.827 Y608.696 I-2.857 J0.
N2895 G1 X-87.108
N2900 G3 X-89.965 Y605.839 I0. J-2.857
N2905 G1 Y605.838
N2910 G19 G3 Y605.419 Z-17.441 J0. K-0.953
N2915 G2 Y605. Z-17.538 J-0.419 K0.855
N2920 G1 Y-5.
N2925 G2 Y-5.419 Z-17.441 J0. K0.953
N2930 G3 Y-5.838 Z-17.343 J-0.419 K-0.855
N2935 G17 G2 X-92.823 Y-8.696 I-2.857 J0.
N2940 G1 X-97.104
N2945 G2 X-99.962 Y-5.838 I0. J2.858
N2950 G19 G2 Y-5.419 Z-17.441 J0. K-0.953
N2955 G3 Y-5. Z-17.538 J0.419 K0.855
N2960 G1 Y605.
N2965 G3 Y605.419 Z-17.441 J0. K0.953
N2970 G2 Y605.838 Z-17.343 J0.419 K-0.855
N2975 G17 G3 X-102.819 Y608.696 I-2.857 J0.
N2980 G1 X-107.1
N2985 G3 X-109.958 Y605.838 I0. J-2.857
N2990 G19 G3 Y605.419 Z-17.441 J0. K-0.953
N2995 G2 Y605. Z-17.538 J-0.419 K0.855
N3000 G1 Y-5.
N3005 G2 Y-5.419 Z-17.441 J0. K0.953
N3010 G3 Y-5.838 Z-17.343 J-0.419 K-0.855
N3015 G17 G2 X-112.815 Y-8.696 I-2.858 J0.
N3020 G1 X-117.096
N3025 G2 X-119.954 Y-5.838 I0. J2.858
N3030 G19 G2 Y-5.419 Z-17.441 J0. K-0.953
N3035 G3 Y-5. Z-17.538 J0.419 K0.855
N3040 G1 Y605.
N3045 G3 Y605.419 Z-17.441 J0. K0.953
N3050 G2 Y605.838 Z-17.343 J0.419 K-0.855
N3055 G17 G3 X-122.811 Y608.696 I-2.857 J0.
N3060 G1 X-127.092
N3065 G3 X-129.95 Y605.838 I0. J-2.857
N3070 G1 Y601.346
N3075 G19 G3 Y600.927 Z-17.441 J0. K-0.953
N3080 G2 Y600.508 Z-17.538 J-0.419 K0.855
N3085 G1 Y-0.508
N3090 G2 Y-2.413 Z-15.633 J0. K1.905 F1000.
N3095 G0 Z15.
N3100 G17
(PARALLEL1 2)
N3105 G0 X128.955 Y602.362
N3110 Z15.
N3115 Z-22.633
N3120 G19 G2 Y600.457 Z-24.538 J-1.905 K0. F1000.
N3125 G1 Y-0.457 F3000.
N3130 G2 Y-0.876 Z-24.441 J0. K0.953
N3135 G3 Y-1.295 Z-24.343 J-0.419 K-0.855
N3140 G1 Y-4.838
N3145 G17 G2 X126.098 Y-7.696 I-2.857 J0.
N3150 G1 X122.816
N3155 G2 X119.958 Y-4.838 I0. J2.858
N3160 G19 G2 Y-4.419 Z-24.441 J0. K-0.953
N3165 G3 Y-4. Z-24.538 J0.419 K0.855
N3170 G1 Y604.
N3175 G3 Y604.419 Z-24.441 J0. K0.953
N3180 G2 Y604.838 Z-24.343 J0.419 K-0.855
N3185 G17 G3 X117.101 Y607.696 I-2.857 J0.
N3190 G1 X113.819
N3195 G3 X110.961 Y604.838 I0. J-2.857
N3200 G19 G3 Y604.419 Z-24.441 J0. K-0.953
N3205 G2 Y604. Z-24.538 J-0.419 K0.855
N3210 G1 Y-4.
N3215 G2 Y-4.419 Z-24.441 J0. K0.953
N3220 G3 Y-4.838 Z-24.343 J-0.419 K-0.855
N3225 G17 G2 X108.104 Y-7.696 I-2.857 J0.
N3230 G1 X104.822
N3235 G2 X101.964 Y-4.838 I0. J2.858
N3240 G19 G2 Y-4.419 Z-24.441 J0. K-0.953
N3245 G3 Y-4. Z-24.538 J0.419 K0.855
N3250 G1 Y604.
N3255 G3 Y604.419 Z-24.441 J0. K0.953
N3260 G2 Y604.838 Z-24.343 J0.419 K-0.855
N3265 G17 G3 X99.107 Y607.696 I-2.857 J0.
N3270 G1 X95.825
N3275 G3 X92.968 Y604.838 I0. J-2.857
N3280 G19 G3 Y604.419 Z-24.441 J0. K-0.953
N3285 G2 Y604. Z-24.538 J-0.419 K0.855
N3290 G1 Y461.729
N3295 Y454.213 Z-23.926
N3300 Y441.37 Z-23.19
N3305 Y424.269 Z-22.575
N3310 Y402.07 Z-22.046
N3315 Y349.541 Z-21.379
N3320 Y305.425 Z-21.053
N3325 Y260.408 Z-21.031
N3330 Y221.694 Z-21.33
N3335 Y188.382 Z-21.873
N3340 Y164.121 Z-22.599
N3345 Y147.736 Z-23.253
N3350 Y132.821 Z-24.096
N3355 Y125.952 Z-24.538
N3360 Y-4.
N3365 G2 Y-4.419 Z-24.441 J0. K0.953
N3370 G3 Y-4.838 Z-24.343 J-0.419 K-0.855
N3375 G17 G2 X90.11 Y-7.696 I-2.857 J0.
N3380 G1 X86.828
N3385 G2 X83.971 Y-4.838 I0. J2.858
N3390 G19 G2 Y-4.419 Z-24.441 J0. K-0.953
N3395 G3 Y-4. Z-24.538 J0.419 K0.855
N3400 G1 Y62.117
N3405 Y69.269 Z-23.732
N3410 Y79.921 Z-22.753
N3415 Y92.564 Z-21.811
N3420 Y110.141 Z-20.831
N3425 Y125.169 Z-20.165
N3430 Y153.971 Z-19.347
N3435 Y193.586 Z-18.729
N3440 Y241.303 Z-18.443
N3445 Y303.426 Z-18.446
N3450 Y392.559 Z-18.909
N3455 Y437.576 Z-19.283
N3460 Y461.66 Z-19.727
N3465 Y478.975 Z-20.389
N3470 Y489.236 Z-21.091
N3475 Y496.554 Z-21.868
N3480 Y501.785 Z-22.63
N3485 Y506.534 Z-23.569
N3490 Y510.134 Z-24.508
N3495 Y604. Z-24.538
N3500 G3 Y604.419 Z-24.441 J0. K0.953
N3505 G2 Y604.839 Z-24.343 J0.419 K-0.855
N3510 G17 G3 X81.113 Y607.696 I-2.858 J0.
N3515 G1 X77.831
N3520 G3 X74.974 Y604.839 I0. J-2.858
N3525 G19 G3 Y604.42 Z-24.441 J0. K-0.952
N3530 G2 Y604. Z-24.538 J-0.419 K0.855
N3535 G1 Y535.479 Z-24.507
N3540 Y533.774 Z-23.537
N3545 Y531.116 Z-22.347
N3550 Y527.321 Z-21.094
N3555 Y523.099 Z-20.114
N3560 Y519.194 Z-19.44
N3565 Y513.506 Z-18.755
N3570 Y508.673 Z-18.355
N3575 Y501.588 Z-17.94
N3580 Y490.784 Z-17.575
N3585 Y474.578 Z-17.322
N3590 Y434.063 Z-17.179
N3595 Y340.428 Z-16.982
N3600 Y262.099 Z-16.779
N3605 Y198.175 Z-16.866
N3610 Y154.059 Z-17.228
N3615 Y122.097 Z-17.785
N3620 Y98.641 Z-18.586
N3625 Y81.851 Z-19.287
N3630 Y64.002 Z-20.237
N3635 Y48.586 Z-21.328
N3640 Y36.393 Z-22.466
N3645 Y28.639 Z-23.389
N3650 Y22.286 Z-24.352
N3655 Y21.421 Z-24.538
N3660 Y-4.
N3665 G2 Y-4.419 Z-24.441 J0. K0.953
N3670 G3 Y-4.838 Z-24.343 J-0.419 K-0.855
N3675 G17 G2 X72.116 Y-7.696 I-2.857 J0.
N3680 G1 X68.834
N3685 G2 X65.977 Y-4.838 I0. J2.858
N3690 G19 G2 Y-4.419 Z-24.441 J0. K-0.953
N3695 G3 Y-4. Z-24.538 J0.419 K0.855
N3700 G1 Y13.543
N3705 Y14.057 Z-24.186
N3710 Y16.427 Z-22.839
N3715 Y19.178 Z-21.635
N3720 Y21.467 Z-20.899
N3725 Y23.629 Z-20.535
N3730 Y32.5 Z-19.871
N3735 Y51.325 Z-18.76
N3740 Y70.976 Z-17.842
N3745 Y92.728 Z-17.052
N3750 Y125.14 Z-16.169
N3755 Y163.854 Z-15.783
N3760 Y219.675 Z-15.65
N3765 Y343.921 Z-15.97
N3770 Y406.574 Z-16.023
N3775 Y494.806 Z-15.615
N3780 Y511.913 Z-15.726
N3785 Y521.816 Z-16.018
N3790 Y527.118 Z-16.336
N3795 Y532.629 Z-16.872
N3800 Y537.709 Z-17.667
N3805 Y541.763 Z-18.645
N3810 Y545.164 Z-19.824
N3815 Y547.507 Z-20.929
N3820 Y549.689 Z-22.29
N3825 Y551. Z-23.338
N3830 Y552.172 Z-24.511
N3835 Y604. Z-24.538
N3840 G3 Y604.42 Z-24.441 J0. K0.953
N3845 G2 Y604.839 Z-24.343 J0.419 K-0.855
N3850 G17 G3 X63.119 Y607.696 I-2.858 J0.
N3855 G1 X59.838
N3860 G3 X56.98 Y604.839 I0. J-2.858
N3865 G19 G3 Y604.42 Z-24.441 J0. K-0.952
N3870 G2 Y604. Z-24.538 J-0.419 K0.855
N3875 G1 Y564.295 Z-24.518
N3880 Y563.147 Z-22.735
N3885 Y561.727 Z-21.154
N3890 Y559.767 Z-19.567
N3895 Y557.391 Z-18.175
N3900 Y554.969 Z-17.13
N3905 Y552.265 Z-16.254
N3910 Y548.358 Z-15.396
N3915 Y544.272 Z-14.83
N3920 Y540.98 Z-14.532
N3925 Y535.652 Z-14.259
N3930 Y525.748 Z-14.099
N3935 Y506.841 Z-14.258
N3940 Y454.622 Z-14.965
N3945 Y402.627 Z-15.275
N3950 Y335.321 Z-15.231
N3955 Y198.47 Z-14.828
N3960 Y145.35 Z-14.946
N3965 Y120.141 Z-15.193
N3970 Y86.829 Z-16.003
N3975 Y69.88 Z-16.559
N3980 Y51.38 Z-17.327
N3985 Y30.254 Z-18.416
N3990 Y22.746 Z-18.944
N3995 Y20.591 Z-19.351
N4000 Y19.043 Z-19.699
N4005 Y16.739 Z-20.344
N4010 Y13.85 Z-21.484
N4015 Y11.457 Z-22.785
N4020 Y9.326 Z-24.302
N4025 Y8.993 Z-24.538
N4030 Y-4.
N4035 G2 Y-4.419 Z-24.441 J0. K0.953
N4040 G3 Y-4.838 Z-24.343 J-0.419 K-0.855
N4045 G17 G2 X54.123 Y-7.696 I-2.858 J0.
N4050 G1 X50.841
N4055 G2 X47.983 Y-4.838 I0. J2.858
N4060 G19 G2 Y-4.419 Z-24.441 J0. K-0.953
N4065 G3 Y-4. Z-24.538 J0.419 K0.855
N4070 G1 Y6.865
N4075 Y7.757 Z-23.724
N4080 Y9.939 Z-22.059
N4085 Y12.408 Z-20.635
N4090 Y15.254 Z-19.449
N4095 Y18.205 Z-18.615
N4100 Y23.049 Z-17.793
N4105 Y30.949 Z-17.264
N4110 Y45.836 Z-16.51
N4115 Y60.999 Z-15.882
N4120 Y78.897 Z-15.317
N4125 Y112.21 Z-14.597
N4130 Y132.917 Z-14.352
N4135 Y186.037 Z-14.243
N4140 Y330.09 Z-14.7
N4145 Y397.706 Z-14.749
N4150 Y443.623 Z-14.488
N4155 Y485.939 Z-13.904
N4160 Y537.258 Z-12.714
N4165 Y546.711 Z-12.701
N4170 Y550.74 Z-12.847
N4175 Y553.378 Z-13.025
N4180 Y557.639 Z-13.544
N4185 Y561.174 Z-14.298
N4190 Y564.47 Z-15.42
N4195 Y566.693 Z-16.508
N4200 Y568.902 Z-17.991
N4205 Y570.638 Z-19.6
N4210 Y571.948 Z-21.26
N4215 Y572.907 Z-22.979
N4220 Y573.492 Z-24.516
N4225 Y604. Z-24.538
N4230 G3 Y604.42 Z-24.441 J0.001 K0.953
N4235 G2 Y604.839 Z-24.343 J0.419 K-0.855
N4240 G17 G3 X45.126 Y607.697 I-2.858 J0.
N4245 G1 X41.844
N4250 G3 X38.986 Y604.839 I0. J-2.857
N4255 G1 Y604.838
N4260 G19 G3 Y604.419 Z-24.441 J0. K-0.953
N4265 G2 Y604. Z-24.538 J-0.419 K0.855
N4270 G1 Y580.632
N4275 Y580.102 Z-22.374
N4280 Y579.216 Z-20.341
N4285 Y578.378 Z-18.987
N4290 Y576.928 Z-17.25
N4295 Y575.21 Z-15.754
N4300 Y573.433 Z-14.587
N4305 Y571.098 Z-13.461
N4310 Y568.206 Z-12.517
N4315 Y564.989 Z-11.877
N4320 Y561.143 Z-11.479
N4325 Y557.475 Z-11.342
N4330 Y550.047 Z-11.419
N4335 Y510.087 Z-12.831
N4340 Y480.376 Z-13.538
N4345 Y439.861 Z-14.099
N4350 Y387.642 Z-14.375
N4355 Y312.906 Z-14.275
N4360 Y179.657 Z-13.844
N4365 Y128.338 Z-13.935
N4370 Y95.026 Z-14.362
N4375 Y66.215 Z-15.02
N4380 Y51.998 Z-15.493
N4385 Y35.258 Z-16.233
N4390 Y24.11 Z-16.897
N4395 Y20.955 Z-17.242
N4400 Y17.541 Z-17.818
N4405 Y16.272 Z-18.142
N4410 Y14.746 Z-18.624
N4415 Y12.16 Z-19.718
N4420 Y9.718 Z-21.144
N4425 Y7.472 Z-22.901
N4430 Y5.808 Z-24.538
N4435 Y-4.
N4440 G2 Y-4.419 Z-24.441 J0. K0.953
N4445 G3 Y-4.838 Z-24.343 J-0.419 K-0.855
N4450 G17 G2 X36.129 Y-7.696 I-2.857 J0.
N4455 G1 X32.847
N4460 G2 X29.99 Y-4.838 I0. J2.858
N4465 G19 G2 Y-4.419 Z-24.441 J0. K-0.953
N4470 G3 Y-4. Z-24.538 J0.419 K0.855
N4475 G1 Y5.242
N4480 Y6.881 Z-22.746
N4485 Y8.893 Z-21.023
N4490 Y11.109 Z-19.582
N4495 Y13.709 Z-18.347
N4500 Y16.598 Z-17.414
N4505 Y19.035 Z-16.916
N4510 Y20.611 Z-16.708
N4515 Y22.978 Z-16.475
N4520 Y32.202 Z-15.88
N4525 Y46.667 Z-15.214
N4530 Y60.81 Z-14.73
N4535 Y87.82 Z-14.119
N4540 Y123.833 Z-13.679
N4545 Y174.252 Z-13.578
N4550 Y284.093 Z-13.922
N4555 Y374.013 Z-14.108
N4560 Y422.631 Z-13.931
N4565 Y465.847 Z-13.453
N4570 Y500.059 Z-12.735
N4575 Y524.311 Z-11.945
N4580 Y549.996 Z-10.741
N4585 Y561.636 Z-10.16
N4590 Y565.8 Z-10.086
N4595 Y568.806 Z-10.187
N4600 Y570.341 Z-10.32
N4605 Y573.479 Z-10.832
N4610 Y575.682 Z-11.449
N4615 Y577.294 Z-12.072
N4620 Y579.549 Z-13.275
N4625 Y581.577 Z-14.806
N4630 Y583.258 Z-16.593
N4635 Y584.309 Z-18.127
N4640 Y585.267 Z-20.1
N4645 Y585.922 Z-22.319
N4650 Y586.199 Z-24.538
N4655 Y604.
N4660 G3 Y604.419 Z-24.441 J0. K0.953
N4665 G2 Y604.838 Z-24.343 J0.419 K-0.855
N4670 G17 G3 X27.132 Y607.696 I-2.858 J0.
N4675 G1 X23.85
N4680 G3 X20.993 Y604.838 I0. J-2.857
N4685 G19 G3 Y604.419 Z-24.441 J0. K-0.953
N4690 G2 Y604. Z-24.538 J-0.419 K0.855
N4695 G1 Y590.536
N4700 Y590.439 Z-22.109
N4705 Y590.045 Z-19.998
N4710 Y589.272 Z-17.823
N4715 Y588.301 Z-16.04
N4720 Y587.088 Z-14.43
N4725 Y585.437 Z-12.825
N4730 Y583.57 Z-11.509
N4735 Y581.473 Z-10.455
N4740 Y579.219 Z-9.691
N4745 Y576.381 Z-9.144
N4750 Y573.065 Z-8.932
N4755 Y570.871 Z-8.962
N4760 Y565.976 Z-9.237
N4765 Y543.787 Z-10.7
N4770 Y522.258 Z-11.726
N4775 Y494.013 Z-12.632
N4780 Y458.45 Z-13.332
N4785 Y419.736 Z-13.737
N4790 Y362.115 Z-13.921
N4795 Y256.75 Z-13.652
N4800 Y165.817 Z-13.411
N4805 Y118.999 Z-13.542
N4810 Y83.886 Z-13.952
N4815 Y57.777 Z-14.539
N4820 Y44.543 Z-14.997
N4825 Y33.008 Z-15.527
N4830 Y23.476 Z-16.12
N4835 Y20.318 Z-16.393
N4840 Y18.743 Z-16.604
N4845 Y16.357 Z-17.102
N4850 Y13.529 Z-18.028
N4855 Y11.012 Z-19.236
N4860 Y8.723 Z-20.747
N4865 Y6.653 Z-22.569
N4870 Y4.952 Z-24.538
N4875 Y-4.
N4880 G2 Y-4.419 Z-24.441 J0. K0.953
N4885 G3 Y-4.838 Z-24.343 J-0.419 K-0.855
N4890 G17 G2 X18.135 Y-7.696 I-2.858 J0.
N4895 G1 X14.853
N4900 G2 X11.996 Y-4.838 I0. J2.858
N4905 G19 G2 Y-4.419 Z-24.441 J0. K-0.953
N4910 G3 Y-4. Z-24.538 J0.419 K0.855
N4915 G1 Y4.803
N4920 Y5.553 Z-23.582
N4925 Y7.477 Z-21.577
N4930 Y9.558 Z-19.937
N4935 Y12.009 Z-18.504
N4940 Y14.033 Z-17.631
N4945 Y16.326 Z-16.914
N4950 Y19.403 Z-16.319
N4955 Y23.4 Z-15.96
N4960 Y32.929 Z-15.364
N4965 Y44.473 Z-14.834
N4970 Y57.774 Z-14.386
N4975 Y83.096 Z-13.835
N4980 Y118.997 Z-13.446
N4985 Y169.416 Z-13.322
N4990 Y331.476 Z-13.782
N4995 Y398.343 Z-13.723
N5000 Y446.961 Z-13.338
N5005 Y484.662 Z-12.692
N5010 Y514.486 Z-11.83
N5015 Y537.87 Z-10.799
N5020 Y555.519 Z-9.688
N5025 Y574.517 Z-8.043
N5030 Y578.391 Z-7.863
N5035 Y581.24 Z-8.067
N5040 Y583.784 Z-8.628
N5045 Y585.799 Z-9.394
N5050 Y587.669 Z-10.43
N5055 Y589.171 Z-11.559
N5060 Y590.748 Z-13.165
N5065 Y591.922 Z-14.813
N5070 Y592.701 Z-16.302
N5075 Y593.463 Z-18.481
N5080 Y593.871 Z-20.832
N5085 Y593.94 Z-24.538
N5090 Y604.
N5095 G3 Y604.419 Z-24.441 J0. K0.953
N5100 G2 Y604.838 Z-24.343 J0.419 K-0.855
N5105 G17 G3 X9.138 Y607.696 I-2.858 J0.
N5110 G1 X5.856
N5115 G3 X2.999 Y604.838 I0. J-2.857
N5120 G19 G3 Y604.419 Z-24.441 J0. K-0.953
N5125 G2 Y604. Z-24.538 J-0.419 K0.855
N5130 G1 Y596.512
N5135 Y596.453 Z-19.082
N5140 Y596.066 Z-16.841
N5145 Y595.306 Z-14.68
N5150 Y594.272 Z-12.802
N5155 Y593.042 Z-11.213
N5160 Y591.559 Z-9.803
N5165 Y590.191 Z-8.826
N5170 Y588.292 Z-7.845
N5175 Y586.245 Z-7.178
N5180 Y584.533 Z-6.886
N5185 Y581.862 Z-6.826
N5190 Y578.643 Z-7.149
N5195 Y568.493 Z-8.386
N5200 Y556.193 Z-9.502
N5205 Y540.335 Z-10.557
N5210 Y518.053 Z-11.606
N5215 Y490.143 Z-12.483
N5220 Y454.129 Z-13.174
N5225 Y407.312 Z-13.62
N5230 Y344.385 Z-13.751
N5235 Y166.119 Z-13.285
N5240 Y116.6 Z-13.425
N5245 Y81.487 Z-13.81
N5250 Y56.278 Z-14.369
N5255 Y43.886 Z-14.792
N5260 Y32.371 Z-15.329
N5265 Y22.851 Z-15.936
N5270 Y19.691 Z-16.211
N5275 Y16.486 Z-16.799
N5280 Y15.021 Z-17.215
N5285 Y12.961 Z-17.986
N5290 Y10.447 Z-19.287
N5295 Y8.206 Z-20.874
N5300 Y6.187 Z-22.782
N5305 Y4.736 Z-24.538
N5310 Y-4.
N5315 G2 Y-4.419 Z-24.441 J0. K0.953
N5320 G3 Y-4.838 Z-24.343 J-0.419 K-0.855
N5325 G17 G2 X0.141 Y-7.696 I-2.858 J0.
N5330 G1 X-3.14
N5335 G2 X-5.998 Y-4.838 I0. J2.858
N5340 G19 G2 Y-4.419 Z-24.441 J0. K-0.953
N5345 G3 Y-4. Z-24.538 J0.419 K0.855
N5350 G1 Y4.745
N5355 Y5.204 Z-23.954
N5360 Y7.067 Z-21.896
N5365 Y9.183 Z-20.138
N5370 Y11.518 Z-18.693
N5375 Y13.523 Z-17.767
N5380 Y15.031 Z-17.226
N5385 Y16.497 Z-16.81
N5390 Y19.702 Z-16.222
N5395 Y24.442 Z-15.832
N5400 Y33.987 Z-15.255
N5405 Y45.606 Z-14.738
N5410 Y58.087 Z-14.328
N5415 Y84.197 Z-13.777
N5420 Y119.31 Z-13.414
N5425 Y170.629 Z-13.294
N5430 Y314.682 Z-13.712
N5435 Y387.558 Z-13.717
N5440 Y438.877 Z-13.378
N5445 Y478.491 Z-12.766
N5450 Y509.103 Z-11.947
N5455 Y531.562 Z-11.039
N5460 Y550.19 Z-9.967
N5465 Y564.26 Z-8.845
N5470 Y577.758 Z-7.393
N5475 Y581.235 Z-7.171
N5480 Y583.884 Z-7.361
N5485 Y586.308 Z-7.924
N5490 Y588.478 Z-8.816
N5495 Y590.454 Z-10.043
N5500 Y592.146 Z-11.544
N5505 Y593.532 Z-13.28
N5510 Y594.581 Z-15.183
N5515 Y595.334 Z-17.364
N5520 Y595.714 Z-19.641
N5525 Y595.773 Z-24.538
N5530 Y604.
N5535 G3 Y604.419 Z-24.441 J0. K0.953
N5540 G2 Y604.838 Z-24.343 J0.419 K-0.855
N5545 G17 G3 X-8.855 Y607.696 I-2.858 J0.
N5550 G1 X-12.137
N5555 G3 X-14.995 Y604.838 I0. J-2.857
N5560 G19 G3 Y604.419 Z-24.441 J0. K-0.953
N5565 G2 Y604. Z-24.538 J-0.419 K0.855
N5570 G1 Y592.897
N5575 Y592.809 Z-21.172
N5580 Y592.366 Z-18.815
N5585 Y591.62 Z-16.752
N5590 Y590.664 Z-14.996
N5595 Y589.71 Z-13.693
N5600 Y588.286 Z-12.212
N5605 Y586.64 Z-10.94
N5610 Y584.583 Z-9.798
N5615 Y582.36 Z-8.973
N5620 Y579.805 Z-8.428
N5625 Y576.849 Z-8.214
N5630 Y574.938 Z-8.246
N5635 Y571.675 Z-8.454
N5640 Y552.864 Z-9.953
N5645 Y533.368 Z-11.088
N5650 Y509.118 Z-12.065
N5655 Y478.507 Z-12.869
N5660 Y440.693 Z-13.45
N5665 Y390.274 Z-13.787
N5670 Y319.772 Z-13.786
N5675 Y171.217 Z-13.346
N5680 Y120.799 Z-13.458
N5685 Y84.785 Z-13.841
N5690 Y58.676 Z-14.4
N5695 Y44.487 Z-14.876
N5700 Y31.944 Z-15.46
N5705 Y23.416 Z-16.001
N5710 Y20.257 Z-16.263
N5715 Y17.899 Z-16.611
N5720 Y14.999 Z-17.347
N5725 Y14.049 Z-17.676
N5730 Y12.566 Z-18.29
N5735 Y10.606 Z-19.319
N5740 Y8.342 Z-20.89
N5745 Y6.316 Z-22.767
N5750 Y4.84 Z-24.538
N5755 Y-4.
N5760 G2 Y-4.419 Z-24.441 J0. K0.953
N5765 G3 Y-4.838 Z-24.343 J-0.419 K-0.855
N5770 G17 G2 X-17.852 Y-7.696 I-2.858 J0.
N5775 G1 X-21.134
N5780 G2 X-23.992 Y-4.838 I0. J2.858
N5785 G19 G2 Y-4.419 Z-24.441 J0. K-0.953
N5790 G3 Y-4. Z-24.538 J0.419 K0.855
N5795 G1 Y5.025
N5800 Y5.285 Z-24.215
N5805 Y7.188 Z-22.155
N5810 Y9.336 Z-20.405
N5815 Y11.669 Z-18.988
N5820 Y14.289 Z-17.842
N5825 Y17.216 Z-16.996
N5830 Y19.567 Z-16.579
N5835 Y23.513 Z-16.202
N5840 Y33.043 Z-15.61
N5845 Y44.571 Z-15.079
N5850 Y58.676 Z-14.591
N5855 Y84.786 Z-14.001
N5860 Y120.799 Z-13.577
N5865 Y169.417 Z-13.457
N5870 Y344.082 Z-13.963
N5875 Y407.005 Z-13.874
N5880 Y449.321 Z-13.522
N5885 Y487.135 Z-12.873
N5890 Y516.808 Z-12.018
N5895 Y538.409 Z-11.09
N5900 Y565.646 Z-9.465
N5905 Y570.003 Z-9.307
N5910 Y573.777 Z-9.446
N5915 Y576.808 Z-9.907
N5920 Y579.319 Z-10.635
N5925 Y581.565 Z-11.638
N5930 Y583.533 Z-12.893
N5935 Y585.235 Z-14.387
N5940 Y586.648 Z-16.083
N5945 Y587.794 Z-18.018
N5950 Y588.582 Z-20.032
N5955 Y589.06 Z-22.21
N5960 Y589.204 Z-24.538
N5965 Y604.
N5970 G3 Y604.419 Z-24.441 J0. K0.953
N5975 G2 Y604.838 Z-24.343 J0.419 K-0.855
N5980 G17 G3 X-26.849 Y607.696 I-2.858 J0.
N5985 G1 X-30.131
N5990 G3 X-32.988 Y604.838 I0. J-2.857
N5995 G19 G3 Y604.419 Z-24.441 J0. K-0.953
N6000 G2 Y604. Z-24.538 J-0.419 K0.855
N6005 G1 Y584.496
N6010 Y584.119 Z-22.257
N6015 Y583.384 Z-20.114
N6020 Y582.753 Z-18.862
N6025 Y581.465 Z-16.992
N6030 Y579.968 Z-15.428
N6035 Y578.293 Z-14.111
N6040 Y576.825 Z-13.219
N6045 Y574.463 Z-12.155
N6050 Y571.972 Z-11.397
N6055 Y569.388 Z-10.907
N6060 Y568.519 Z-10.793
N6065 Y566.768 Z-10.629
N6070 Y564.109 Z-10.507
N6075 Y558.707 Z-10.552
N6080 Y547.515 Z-11.047
N6085 Y519.839 Z-12.236
N6090 Y489.678 Z-13.1
N6095 Y451.864 Z-13.747
N6100 Y404.146 Z-14.121
N6105 Y349.818 Z-14.182
N6110 Y172.452 Z-13.652
N6115 Y122.934 Z-13.766
N6120 Y86.921 Z-14.243
N6125 Y60.811 Z-14.859
N6130 Y46.727 Z-15.352
N6135 Y33.387 Z-15.962
N6140 Y23.851 Z-16.544
N6145 Y19.316 Z-17.039
N6150 Y17.555 Z-17.366
N6155 Y15.198 Z-17.998
N6160 Y12.627 Z-19.
N6165 Y11.54 Z-19.54
N6170 Y9.641 Z-20.685
N6175 Y7.468 Z-22.392
N6180 Y5.523 Z-24.412
N6185 Y5.401 Z-24.538
N6190 Y-4.
N6195 G2 Y-4.419 Z-24.441 J0. K0.953
N6200 G3 Y-4.838 Z-24.343 J-0.419 K-0.855
N6205 G17 G2 X-35.846 Y-7.696 I-2.857 J0.
N6210 G1 X-39.128
N6215 G2 X-41.985 Y-4.838 I0. J2.858
N6220 G19 G2 Y-4.419 Z-24.441 J0. K-0.953
N6225 G3 Y-4. Z-24.538 J0.419 K0.855
N6230 G1 Y6.11
N6235 Y6.319 Z-24.341
N6240 Y7.957 Z-22.795
N6245 Y9.583 Z-21.551
N6250 Y12.009 Z-20.104
N6255 Y13.558 Z-19.382
N6260 Y16.488 Z-18.369
N6265 Y18.428 Z-17.905
N6270 Y23.238 Z-17.202
N6275 Y32.261 Z-16.623
N6280 Y47.106 Z-15.91
N6285 Y61.783 Z-15.355
N6290 Y88.793 Z-14.648
N6295 Y123.906 Z-14.094
N6300 Y170.723 Z-13.954
N6305 Y258.055 Z-14.181
N6310 Y370.597 Z-14.506
N6315 Y426.468 Z-14.333
N6320 Y468.783 Z-13.874
N6325 Y504.797 Z-13.136
N6330 Y535.26 Z-12.179
N6335 Y547.833 Z-11.804
N6340 Y555.486 Z-11.813
N6345 Y559.475 Z-12.033
N6350 Y562.968 Z-12.446
N6355 Y566.182 Z-13.132
N6360 Y568.869 Z-14.022
N6365 Y571.2 Z-15.123
N6370 Y573.342 Z-16.532
N6375 Y574.607 Z-17.625
N6380 Y575.723 Z-18.831
N6385 Y576.99 Z-20.664
N6390 Y577.89 Z-22.577
N6395 Y578.45 Z-24.538
N6400 Y604.
N6405 G3 Y604.419 Z-24.441 J0. K0.953
N6410 G2 Y604.838 Z-24.343 J0.419 K-0.855
N6415 G17 G3 X-44.843 Y607.696 I-2.857 J0.
N6420 G1 X-48.125
N6425 G3 X-50.982 Y604.838 I0. J-2.857
N6430 G19 G3 Y604.419 Z-24.441 J0. K-0.953
N6435 G2 Y604. Z-24.538 J-0.419 K0.855
N6440 G1 Y570.696
N6445 Y569.787 Z-22.601
N6450 Y568.544 Z-20.835
N6455 Y567.119 Z-19.354
N6460 Y565.476 Z-18.058
N6465 Y563.257 Z-16.746
N6470 Y560.876 Z-15.709
N6475 Y557.532 Z-14.696
N6480 Y553.663 Z-13.964
N6485 Y550.59 Z-13.6
N6490 Y547.072 Z-13.347
N6495 Y539.869 Z-13.145
N6500 Y527.265 Z-13.24
N6505 Y474.145 Z-14.296
N6510 Y433.63 Z-14.742
N6515 Y381.411 Z-14.935
N6520 Y288.673 Z-14.711
N6525 Y186.035 Z-14.413
N6530 Y133.816 Z-14.541
N6535 Y114.008 Z-14.786
N6540 Y81.596 Z-15.514
N6545 Y62.385 Z-16.132
N6550 Y46.075 Z-16.825
N6555 Y28.964 Z-17.718
N6560 Y22.932 Z-18.146
N6565 Y18.774 Z-18.871
N6570 Y17.033 Z-19.297
N6575 Y14.756 Z-20.039
N6580 Y12.189 Z-21.181
N6585 Y9.721 Z-22.67
N6590 Y7.581 Z-24.373
N6595 Y7.384 Z-24.538
N6600 Y-4.
N6605 G2 Y-4.419 Z-24.441 J0. K0.953
N6610 G3 Y-4.838 Z-24.343 J-0.419 K-0.855
N6615 G17 G2 X-53.84 Y-7.696 I-2.858 J0.
N6620 G1 X-57.122
N6625 G2 X-59.979 Y-4.838 I0. J2.858
N6630 G19 G2 Y-4.419 Z-24.441 J0. K-0.953
N6635 G3 Y-4. Z-24.538 J0.419 K0.855
N6640 G1 Y10.219
N6645 Y10.512 Z-24.323
N6650 Y12.846 Z-22.767
N6655 Y14.992 Z-21.675
N6660 Y17.14 Z-20.827
N6665 Y21.067 Z-19.734
N6670 Y23.422 Z-19.318
N6675 Y30.544 Z-18.848
N6680 Y50.01 Z-17.821
N6685 Y66.585 Z-17.09
N6690 Y85.923 Z-16.404
N6695 Y121.036 Z-15.487
N6700 Y148.046 Z-15.214
N6705 Y199.365 Z-15.073
N6710 Y381.233 Z-15.523
N6715 Y439.057 Z-15.336
N6720 Y492.177 Z-14.795
N6725 Y517.386 Z-14.594
N6730 Y529.09 Z-14.743
N6735 Y535.351 Z-15.016
N6740 Y539.305 Z-15.333
N6745 Y544.11 Z-15.945
N6750 Y548.401 Z-16.842
N6755 Y551.735 Z-17.894
N6760 Y554.129 Z-18.934
N6765 Y556.355 Z-20.221
N6770 Y558.044 Z-21.511
N6775 Y559.434 Z-22.898
N6780 Y560.648 Z-24.537
N6785 Y604. Z-24.538
N6790 G3 Y604.419 Z-24.441 J0. K0.953
N6795 G2 Y604.838 Z-24.343 J0.419 K-0.855
N6800 G17 G3 X-62.837 Y607.696 I-2.858 J0.
N6805 G1 X-66.118
N6810 G3 X-68.976 Y604.838 I0. J-2.857
N6815 G19 G3 Y604.419 Z-24.441 J0. K-0.953
N6820 G2 Y604. Z-24.538 J-0.419 K0.855
N6825 G1 Y547.258 Z-24.536
N6830 Y545.434 Z-23.056
N6835 Y543.215 Z-21.713
N6840 Y540.553 Z-20.504
N6845 Y537.236 Z-19.39
N6850 Y532.424 Z-18.281
N6855 Y528.181 Z-17.626
N6860 Y523.799 Z-17.162
N6865 Y520.463 Z-16.898
N6870 Y513.983 Z-16.554
N6875 Y505.459 Z-16.309
N6880 Y486.552 Z-16.136
N6885 Y386.508 Z-16.352
N6890 Y225.348 Z-15.986
N6895 Y170.428 Z-16.13
N6900 Y129.885 Z-16.542
N6905 Y110.105 Z-17.008
N6910 Y88.634 Z-17.702
N6915 Y69.686 Z-18.462
N6920 Y55.076 Z-19.183
N6925 Y39.214 Z-20.163
N6930 Y30.951 Z-20.756
N6935 Y22.879 Z-21.489
N6940 Y21.311 Z-21.818
N6945 Y19.043 Z-22.642
N6950 Y16.554 Z-23.96
N6955 Y15.574 Z-24.538
N6960 Y-4.
N6965 G2 Y-4.419 Z-24.441 J0. K0.953
N6970 G3 Y-4.838 Z-24.343 J-0.419 K-0.855
N6975 G17 G2 X-71.833 Y-7.696 I-2.857 J0.
N6980 G1 X-75.115
N6985 G2 X-77.973 Y-4.838 I0. J2.858
N6990 G19 G2 Y-4.419 Z-24.441 J0. K-0.953
N6995 G3 Y-4. Z-24.538 J0.419 K0.855
N7000 G1 Y33.06
N7005 Y41.699 Z-23.369
N7010 Y52.534 Z-22.215
N7015 Y66.923 Z-21.063
N7020 Y83.994 Z-20.045
N7025 Y99.057 Z-19.346
N7030 Y120.925 Z-18.515
N7035 Y150.633 Z-17.881
N7040 Y190.248 Z-17.436
N7045 Y243.367 Z-17.245
N7050 Y325.298 Z-17.362
N7055 Y417.132 Z-17.693
N7060 Y461.248 Z-17.913
N7065 Y482.856 Z-18.261
N7070 Y494.462 Z-18.681
N7075 Y503.105 Z-19.216
N7080 Y509.838 Z-19.869
N7085 Y515.005 Z-20.612
N7090 Y519.321 Z-21.449
N7095 Y522.928 Z-22.392
N7100 Y526.02 Z-23.46
N7105 Y528.372 Z-24.518
N7110 Y604. Z-24.538
N7115 G3 Y604.419 Z-24.441 J0. K0.953
N7120 G2 Y604.839 Z-24.343 J0.419 K-0.855
N7125 G17 G3 X-80.83 Y607.696 I-2.857 J0.
N7130 G1 X-84.112
N7135 G3 X-86.97 Y604.839 I0. J-2.857
N7140 G1 Y604.838
N7145 G19 G3 Y604.419 Z-24.441 J0. K-0.953
N7150 G2 Y604. Z-24.538 J-0.419 K0.855
N7155 G1 Y498.206
N7160 Y493.014 Z-23.566
N7165 Y487.774 Z-22.835
N7170 Y477.418 Z-21.837
N7175 Y468.579 Z-21.295
N7180 Y457.998 Z-20.825
N7185 Y438.191 Z-20.291
N7190 Y402.178 Z-19.808
N7195 Y308.543 Z-19.181
N7200 Y251.822 Z-19.159
N7205 Y204.104 Z-19.449
N7210 Y174.393 Z-19.884
N7215 Y145.583 Z-20.57
N7220 Y124.176 Z-21.377
N7225 Y109.296 Z-22.188
N7230 Y95.132 Z-23.136
N7235 Y84.692 Z-24.06
N7240 Y79.782 Z-24.538
N7245 Y-4.
N7250 G2 Y-4.419 Z-24.441 J0. K0.953
N7255 G3 Y-4.838 Z-24.343 J-0.419 K-0.855
N7260 G17 G2 X-89.827 Y-7.696 I-2.858 J0.
N7265 G1 X-93.109
N7270 G2 X-95.966 Y-4.838 I0. J2.858
N7275 G19 G2 Y-4.419 Z-24.441 J0. K-0.953
N7280 G3 Y-4. Z-24.538 J0.419 K0.855
N7285 G1 Y158.074
N7290 Y177.889 Z-23.738
N7295 Y197.504 Z-23.137
N7300 Y230.816 Z-22.537
N7305 Y264.128 Z-22.259
N7310 Y306.444 Z-22.294
N7315 Y345.158 Z-22.623
N7320 Y389.275 Z-23.29
N7325 Y411.783 Z-23.838
N7330 Y428.913 Z-24.514
N7335 Y604. Z-24.538
N7340 G3 Y604.419 Z-24.441 J0. K0.953
N7345 G2 Y604.839 Z-24.343 J0.419 K-0.855
N7350 G17 G3 X-98.824 Y607.696 I-2.857 J0.
N7355 G1 X-102.106
N7360 G3 X-104.963 Y604.839 I0. J-2.857
N7365 G1 Y604.838
N7370 G19 G3 Y604.419 Z-24.441 J0. K-0.953
N7375 G2 Y604. Z-24.538 J-0.419 K0.855
N7380 G1 Y-4.
N7385 G2 Y-4.419 Z-24.441 J0. K0.953
N7390 G3 Y-4.838 Z-24.343 J-0.419 K-0.855
N7395 G17 G2 X-107.821 Y-7.696 I-2.857 J0.
N7400 G1 X-111.103
N7405 G2 X-113.96 Y-4.838 I0. J2.858
N7410 G19 G2 Y-4.419 Z-24.441 J0. K-0.953
N7415 G3 Y-4. Z-24.538 J0.419 K0.855
N7420 G1 Y604.
N7425 G3 Y604.419 Z-24.441 J0. K0.953
N7430 G2 Y604.838 Z-24.343 J0.419 K-0.855
N7435 G17 G3 X-116.818 Y607.696 I-2.857 J0.
N7440 G1 X-120.1
N7445 G3 X-122.957 Y604.838 I0. J-2.857
N7450 G19 G3 Y604.419 Z-24.441 J0. K-0.953
N7455 G2 Y604. Z-24.538 J-0.419 K0.855
N7460 G1 Y-4.
N7465 G2 Y-5.905 Z-22.633 J0. K1.905 F1000.
N7470 G0 Z15.
N7475 G17
(PARALLEL1 3)
N7480 G0 X126.96 Y602.158
N7485 Z15.
N7490 Z-29.633
N7495 G19 G2 Y600.253 Z-31.538 J-1.905 K0. F1000.
N7500 G1 Y-0.253 F3000.
N7505 G2 Y-0.672 Z-31.441 J0. K0.953
N7510 G3 Y-1.091 Z-31.343 J-0.419 K-0.855
N7515 G1 Y-2.838
N7520 G17 G2 X124.103 Y-5.696 I-2.857 J0.
N7525 G1 X121.82
N7530 G2 X118.963 Y-2.838 I0. J2.857
N7535 G19 G2 Y-2.419 Z-31.441 J0. K-0.952
N7540 G3 Y-2. Z-31.538 J0.419 K0.855
N7545 G1 Y602.
N7550 G3 Y602.419 Z-31.441 J0. K0.953
N7555 G2 Y602.838 Z-31.343 J0.419 K-0.855
N7560 G17 G3 X116.105 Y605.696 I-2.857 J0.
N7565 G1 X113.823
N7570 G3 X110.965 Y602.838 I0. J-2.857
N7575 G19 G3 Y602.419 Z-31.441 J0. K-0.952
N7580 G2 Y602. Z-31.538 J-0.419 K0.855
N7585 G1 Y-2.
N7590 G2 Y-2.419 Z-31.441 J0. K0.953
N7595 G3 Y-2.838 Z-31.343 J-0.419 K-0.855
N7600 G17 G2 X108.108 Y-5.696 I-2.857 J0.
N7605 G1 X105.825
N7610 G2 X102.968 Y-2.838 I0. J2.857
N7615 G19 G2 Y-2.419 Z-31.441 J0. K-0.952
N7620 G3 Y-2. Z-31.538 J0.419 K0.855
N7625 G1 Y192.185
N7630 Y201.467 Z-30.926
N7635 Y215.666 Z-30.227
N7640 Y230.272 Z-29.681
N7645 Y252.71 Z-29.187
N7650 Y278.472 Z-28.948
N7655 Y304.706 Z-29.027
N7660 Y330.468 Z-29.369
N7665 Y358.723 Z-30.018
N7670 Y379.384 Z-30.813
N7675 Y392.167 Z-31.51
N7680 Y602. Z-31.538
N7685 G3 Y602.419 Z-31.441 J0. K0.953
N7690 G2 Y602.839 Z-31.343 J0.419 K-0.855
N7695 G17 G3 X100.11 Y605.696 I-2.857 J0.
N7700 G1 X97.828
N7705 G3 X94.97 Y602.839 I0. J-2.857
N7710 G19 G3 Y602.419 Z-31.441 J0. K-0.952
N7715 G2 Y602. Z-31.538 J-0.419 K0.855
N7720 G1 Y472.187 Z-31.511
N7725 Y467.636 Z-30.32
N7730 Y461.648 Z-29.183
N7735 Y456.007 Z-28.382
N7740 Y450.344 Z-27.758
N7745 Y442.233 Z-27.058
N7750 Y432.449 Z-26.429
N7755 Y410.843 Z-25.544
N7760 Y387.574 Z-24.993
N7765 Y343.323 Z-24.341
N7770 Y305.303 Z-24.036
N7775 Y262.921 Z-24.007
N7780 Y230.511 Z-24.279
N7785 Y197.27 Z-24.881
N7790 Y178.215 Z-25.462
N7795 Y159.49 Z-26.263
N7800 Y146.63 Z-27.015
N7805 Y135.914 Z-27.794
N7810 Y124.661 Z-28.851
N7815 Y114.815 Z-30.033
N7820 Y107.819 Z-31.089
N7825 Y105.198 Z-31.538
N7830 Y-2.
N7835 G2 Y-2.419 Z-31.441 J0. K0.953
N7840 G3 Y-2.838 Z-31.343 J-0.419 K-0.855
N7845 G17 G2 X92.113 Y-5.696 I-2.857 J0.
N7850 G1 X89.83
N7855 G2 X86.973 Y-2.838 I0. J2.857
N7860 G19 G2 Y-2.419 Z-31.441 J0. K-0.952
N7865 G3 Y-2. Z-31.538 J0.419 K0.855
N7870 G1 Y55.581
N7875 Y55.809 Z-31.473
N7880 Y60.646 Z-30.214
N7885 Y66.742 Z-28.964
N7890 Y73.965 Z-27.796
N7895 Y82.241 Z-26.738
N7900 Y92.135 Z-25.748
N7905 Y103.068 Z-24.839
N7910 Y115.721 Z-24.042
N7915 Y127.895 Z-23.39
N7920 Y146.752 Z-22.691
N7925 Y167.527 Z-22.132
N7930 Y204.092 Z-21.528
N7935 Y250.63 Z-21.239
N7940 Y307.139 Z-21.256
N7945 Y389.411 Z-21.788
N7950 Y428.469 Z-22.25
N7955 Y446.751 Z-22.653
N7960 Y460.879 Z-23.147
N7965 Y471.62 Z-23.73
N7970 Y479.988 Z-24.433
N7975 Y486.202 Z-25.153
N7980 Y491.624 Z-26.017
N7985 Y495.994 Z-26.951
N7990 Y499.74 Z-28.018
N7995 Y502.883 Z-29.221
N8000 Y505.177 Z-30.412
N8005 Y506.814 Z-31.537
N8010 Y602. Z-31.538
N8015 G3 Y602.419 Z-31.441 J0. K0.953
N8020 G2 Y602.838 Z-31.343 J0.419 K-0.855
N8025 G1 Y602.839
N8030 G17 G3 X84.115 Y605.696 I-2.858 J0.
N8035 G1 X81.833
N8040 G3 X78.975 Y602.839 I0. J-2.857
N8045 G19 G3 Y602.419 Z-31.441 J0. K-0.952
N8050 G2 Y602. Z-31.538 J-0.419 K0.855
N8055 G1 Y528.508 Z-31.514
N8060 Y527.609 Z-30.157
N8065 Y526.243 Z-28.759
N8070 Y524.43 Z-27.449
N8075 Y522.236 Z-26.27
N8080 Y519.716 Z-25.239
N8085 Y516.724 Z-24.3
N8090 Y513.174 Z-23.454
N8095 Y509.174 Z-22.74
N8100 Y504.334 Z-22.086
N8105 Y497.039 Z-21.425
N8110 Y488.759 Z-20.947
N8115 Y473.022 Z-20.43
N8120 Y448.922 Z-20.113
N8125 Y378.285 Z-19.797
N8130 Y294.352 Z-19.48
N8135 Y224.546 Z-19.484
N8140 Y175.515 Z-19.807
N8145 Y136.457 Z-20.434
N8150 Y118.18 Z-20.959
N8155 Y100.5 Z-21.655
N8160 Y80.626 Z-22.686
N8165 Y68.755 Z-23.501
N8170 Y60.206 Z-24.198
N8175 Y48.607 Z-25.416
N8180 Y40.793 Z-26.489
N8185 Y34.485 Z-27.587
N8190 Y29.3 Z-28.733
N8195 Y24.714 Z-30.022
N8200 Y21.769 Z-31.076
N8205 Y20.916 Z-31.538
N8210 Y-2.
N8215 G2 Y-2.419 Z-31.441 J0. K0.953
N8220 G3 Y-2.838 Z-31.343 J-0.419 K-0.855
N8225 G17 G2 X76.118 Y-5.696 I-2.857 J0.
N8230 G1 X73.835
N8235 G2 X70.978 Y-2.838 I0. J2.857
N8240 G19 G2 Y-2.419 Z-31.441 J0. K-0.952
N8245 G3 Y-2. Z-31.538 J0.419 K0.855
N8250 G1 Y13.129
N8255 Y14.405 Z-29.813
N8260 Y15.703 Z-28.423
N8265 Y17.564 Z-26.854
N8270 Y19.331 Z-25.695
N8275 Y21.394 Z-24.806
N8280 Y22.828 Z-24.442
N8285 Y25.006 Z-24.155
N8290 Y32.448 Z-23.393
N8295 Y42.091 Z-22.609
N8300 Y57.1 Z-21.604
N8305 Y75.907 Z-20.65
N8310 Y93.505 Z-19.947
N8315 Y119.249 Z-19.129
N8320 Y141.687 Z-18.721
N8325 Y183.238 Z-18.358
N8330 Y241.409 Z-18.248
N8335 Y371.88 Z-18.58
N8340 Y464.891 Z-18.52
N8345 Y491.418 Z-18.625
N8350 Y504.714 Z-18.893
N8355 Y513.842 Z-19.3
N8360 Y520.332 Z-19.827
N8365 Y524.67 Z-20.374
N8370 Y529.165 Z-21.195
N8375 Y532.301 Z-21.993
N8380 Y535.534 Z-23.121
N8385 Y538.226 Z-24.446
N8390 Y540.181 Z-25.768
N8395 Y541.685 Z-27.166
N8400 Y542.679 Z-28.444
N8405 Y543.461 Z-29.943
N8410 Y543.915 Z-31.538
N8415 Y602.
N8420 G3 Y602.419 Z-31.441 J0. K0.953
N8425 G2 Y602.838 Z-31.343 J0.419 K-0.855
N8430 G17 G3 X68.12 Y605.696 I-2.857 J0.
N8435 G1 X65.838
N8440 G3 X62.98 Y602.838 I0. J-2.857
N8445 G19 G3 Y602.419 Z-31.441 J0. K-0.952
N8450 G2 Y602. Z-31.538 J-0.419 K0.855
N8455 G1 Y555.555
N8460 Y555.463 Z-29.927
N8465 Y555.021 Z-28.165
N8470 Y554.285 Z-26.599
N8475 Y553.423 Z-25.354
N8480 Y552.398 Z-24.236
N8485 Y550.513 Z-22.72
N8490 Y548.369 Z-21.481
N8495 Y545.842 Z-20.405
N8500 Y542.604 Z-19.423
N8505 Y538.933 Z-18.66
N8510 Y533.696 Z-17.963
N8515 Y528.11 Z-17.545
N8520 Y519.708 Z-17.248
N8525 Y505.58 Z-17.128
N8530 Y458.212 Z-17.477
N8535 Y405.026 Z-17.751
N8540 Y343.008 Z-17.709
N8545 Y212.538 Z-17.357
N8550 Y158.521 Z-17.479
N8555 Y122.787 Z-17.826
N8560 Y87.884 Z-18.778
N8565 Y67.401 Z-19.525
N8570 Y48.892 Z-20.38
N8575 Y30.412 Z-21.422
N8580 Y23.585 Z-21.909
N8585 Y21.692 Z-22.251
N8590 Y18.192 Z-23.381
N8595 Y15.496 Z-24.614
N8600 Y13.092 Z-26.155
N8605 Y11.121 Z-27.874
N8610 Y9.483 Z-29.789
N8615 Y8.339 Z-31.538
N8620 Y-2.
N8625 G2 Y-2.419 Z-31.441 J0. K0.953
N8630 G3 Y-2.838 Z-31.343 J-0.419 K-0.855
N8635 G17 G2 X60.123 Y-5.696 I-2.857 J0.
N8640 G1 X57.84
N8645 G2 X54.983 Y-2.838 I0. J2.857
N8650 G19 G2 Y-2.419 Z-31.441 J0. K-0.952
N8655 G3 Y-2. Z-31.538 J0.419 K0.855
N8660 G1 Y5.323
N8665 Y5.474 Z-31.282
N8670 Y7.075 Z-28.876
N8675 Y8.842 Z-26.892
N8680 Y10.817 Z-25.198
N8685 Y12.992 Z-23.782
N8690 Y15.007 Z-22.782
N8695 Y15.695 Z-22.502
N8700 Y18.144 Z-21.688
N8705 Y20.646 Z-21.107
N8710 Y23.175 Z-20.646
N8715 Y29.205 Z-20.226
N8720 Y49.038 Z-19.193
N8725 Y65.129 Z-18.504
N8730 Y85.007 Z-17.84
N8735 Y119.91 Z-17.017
N8740 Y144.009 Z-16.793
N8745 Y195.533 Z-16.687
N8750 Y358.414 Z-17.161
N8755 Y419.328 Z-17.085
N8760 Y463.373 Z-16.724
N8765 Y514.065 Z-15.934
N8770 Y530.685 Z-15.803
N8775 Y538.996 Z-15.974
N8780 Y543.082 Z-16.203
N8785 Y546.321 Z-16.508
N8790 Y549.911 Z-17.035
N8795 Y553.444 Z-17.852
N8800 Y556.691 Z-19.023
N8805 Y558.969 Z-20.224
N8810 Y560.786 Z-21.537
N8815 Y562.367 Z-23.12
N8820 Y563.528 Z-24.827
N8825 Y564.292 Z-26.573
N8830 Y564.702 Z-28.413
N8835 Y564.781 Z-31.538
N8840 Y602.
N8845 G3 Y602.419 Z-31.441 J0. K0.953
N8850 G2 Y602.838 Z-31.343 J0.419 K-0.855
N8855 G17 G3 X52.125 Y605.696 I-2.858 J0.
N8860 G1 X49.843
N8865 G3 X46.985 Y602.838 I0. J-2.857
N8870 G19 G3 Y602.419 Z-31.441 J0. K-0.952
N8875 G2 Y602. Z-31.538 J-0.419 K0.855
N8880 G1 Y572.263
N8885 Y572.199 Z-27.044
N8890 Y571.794 Z-25.045
N8895 Y571.041 Z-23.197
N8900 Y570.009 Z-21.583
N8905 Y568.709 Z-20.131
N8910 Y566.901 Z-18.683
N8915 Y565.19 Z-17.674
N8920 Y562.934 Z-16.684
N8925 Y560.318 Z-15.889
N8930 Y557.536 Z-15.326
N8935 Y553.907 Z-14.882
N8940 Y550.016 Z-14.64
N8945 Y542.329 Z-14.543
N8950 Y526.539 Z-14.867
N8955 Y485.819 Z-15.851
N8960 Y448.423 Z-16.389
N8965 Y397.731 Z-16.701
N8970 Y336.813 Z-16.674
N8975 Y185.567 Z-16.195
N8980 Y134.043 Z-16.291
N8985 Y112.437 Z-16.53
N8990 Y79.196 Z-17.234
N8995 Y58.452 Z-17.893
N9000 Y44.264 Z-18.495
N9005 Y30.43 Z-19.203
N9010 Y24.561 Z-19.577
N9015 Y23.101 Z-19.708
N9020 Y18.851 Z-20.414
N9025 Y17.333 Z-20.786
N9030 Y15.231 Z-21.472
N9035 Y13.189 Z-22.363
N9040 Y10.781 Z-23.781
N9045 Y8.613 Z-25.513
N9050 Y6.76 Z-27.495
N9055 Y5.167 Z-29.791
N9060 Y4.228 Z-31.538
N9065 Y-2.
N9070 G2 Y-2.419 Z-31.441 J0. K0.953
N9075 G3 Y-2.838 Z-31.343 J-0.419 K-0.855
N9080 G17 G2 X44.128 Y-5.696 I-2.857 J0.
N9085 G1 X41.845
N9090 G2 X38.988 Y-2.838 I0. J2.857
N9095 G19 G2 Y-2.419 Z-31.441 J0. K-0.952
N9100 G3 Y-2. Z-31.538 J0.419 K0.855
N9105 G1 Y3.882
N9110 Y4.448 Z-30.272
N9115 Y5.791 Z-27.899
N9120 Y7.431 Z-25.778
N9125 Y9.271 Z-23.992
N9130 Y11.474 Z-22.396
N9135 Y13.77 Z-21.176
N9140 Y16.37 Z-20.204
N9145 Y19.412 Z-19.489
N9150 Y23.588 Z-18.95
N9155 Y33.913 Z-18.311
N9160 Y51.224 Z-17.53
N9165 Y65.266 Z-17.052
N9170 Y93.521 Z-16.392
N9175 Y127.593 Z-15.941
N9180 Y179.116 Z-15.845
N9185 Y294.628 Z-16.215
N9190 Y379.982 Z-16.387
N9195 Y433.999 Z-16.152
N9200 Y475.55 Z-15.628
N9205 Y509.622 Z-14.848
N9210 Y541.798 Z-13.717
N9215 Y552.575 Z-13.376
N9220 Y558.6 Z-13.399
N9225 Y561.677 Z-13.575
N9230 Y563.494 Z-13.76
N9235 Y566.733 Z-14.339
N9240 Y569.566 Z-15.203
N9245 Y571.723 Z-16.202
N9250 Y573.773 Z-17.556
N9255 Y575.432 Z-19.119
N9260 Y576.716 Z-20.85
N9265 Y577.381 Z-22.12
N9270 Y578.004 Z-23.898
N9275 Y578.316 Z-25.644
N9280 Y578.378 Z-31.538
N9285 Y602.
N9290 G3 Y602.419 Z-31.441 J0. K0.953
N9295 G2 Y602.838 Z-31.343 J0.419 K-0.855
N9300 G17 G3 X36.13 Y605.696 I-2.857 J0.
N9305 G1 X33.848
N9310 G3 X30.99 Y602.838 I0. J-2.857
N9315 G19 G3 Y602.419 Z-31.441 J0. K-0.952
N9320 G2 Y602. Z-31.538 J-0.419 K0.855
N9325 G1 Y583.381
N9330 Y583.336 Z-24.469
N9335 Y582.99 Z-22.43
N9340 Y582.471 Z-20.876
N9345 Y581.718 Z-19.365
N9350 Y580.483 Z-17.651
N9355 Y578.828 Z-16.053
N9360 Y576.901 Z-14.751
N9365 Y574.739 Z-13.742
N9370 Y572.298 Z-13.001
N9375 Y569.255 Z-12.48
N9380 Y565.585 Z-12.253
N9385 Y560.183 Z-12.318
N9390 Y525.314 Z-13.95
N9395 Y497.059 Z-14.852
N9400 Y461.325 Z-15.556
N9405 Y418.943 Z-15.986
N9410 Y360.278 Z-16.138
N9415 Y232.3 Z-15.747
N9420 Y156.677 Z-15.602
N9425 Y116.788 Z-15.768
N9430 Y81.885 Z-16.263
N9435 Y56.123 Z-16.92
N9440 Y43.104 Z-17.41
N9445 Y30.894 Z-18.005
N9450 Y23.185 Z-18.512
N9455 Y20.637 Z-18.771
N9460 Y18.235 Z-19.149
N9465 Y15.436 Z-19.903
N9470 Y12.873 Z-20.974
N9475 Y10.546 Z-22.36
N9480 Y8.559 Z-23.974
N9485 Y6.758 Z-25.931
N9490 Y5.246 Z-28.161
N9495 Y4.045 Z-30.626
N9500 Y3.696 Z-31.538
N9505 Y-2.
N9510 G2 Y-2.419 Z-31.441 J0. K0.953
N9515 G3 Y-2.838 Z-31.343 J-0.419 K-0.855
N9520 G17 G2 X28.133 Y-5.696 I-2.857 J0.
N9525 G1 X25.85
N9530 G2 X22.993 Y-2.838 I0. J2.857
N9535 G19 G2 Y-2.419 Z-31.441 J0. K-0.952
N9540 G3 Y-2. Z-31.538 J0.419 K0.855
N9545 G1 Y3.588
N9550 Y3.793 Z-30.961
N9555 Y4.871 Z-28.476
N9560 Y5.952 Z-26.648
N9565 Y6.639 Z-25.691
N9570 Y8.157 Z-23.963
N9575 Y10.158 Z-22.241
N9580 Y12.375 Z-20.838
N9585 Y14.725 Z-19.777
N9590 Y16.855 Z-19.106
N9595 Y19.74 Z-18.54
N9600 Y24.113 Z-18.132
N9605 Y32.962 Z-17.588
N9610 Y45.348 Z-17.021
N9615 Y58.351 Z-16.574
N9620 Y85.152 Z-15.973
N9625 Y121.717 Z-15.553
N9630 Y170.747 Z-15.442
N9635 Y336.121 Z-15.932
N9640 Y401.849 Z-15.877
N9645 Y450.049 Z-15.489
N9650 Y487.445 Z-14.842
N9655 Y517.362 Z-13.97
N9660 Y540.561 Z-12.947
N9665 Y565.93 Z-11.383
N9670 Y569.911 Z-11.206
N9675 Y573.531 Z-11.281
N9680 Y576.434 Z-11.677
N9685 Y578.757 Z-12.328
N9690 Y580.826 Z-13.244
N9695 Y582.559 Z-14.351
N9700 Y584.074 Z-15.694
N9705 Y585.399 Z-17.333
N9710 Y586.347 Z-19.026
N9715 Y587.042 Z-20.971
N9720 Y587.405 Z-23.038
N9725 Y587.463 Z-31.538
N9730 Y602.
N9735 G3 Y602.419 Z-31.441 J0. K0.953
N9740 G2 Y602.838 Z-31.343 J0.419 K-0.855
N9745 G17 G3 X20.135 Y605.696 I-2.858 J0.
N9750 G1 X17.853
N9755 G3 X14.995 Y602.838 I0. J-2.857
N9760 G19 G3 Y602.419 Z-31.441 J0. K-0.952
N9765 G2 Y602. Z-31.538 J-0.419 K0.855
N9770 G1 Y590.767
N9775 Y590.713 Z-21.73
N9780 Y590.326 Z-19.522
N9785 Y589.656 Z-17.651
N9790 Y588.691 Z-15.921
N9795 Y587.779 Z-14.739
N9800 Y586.707 Z-13.664
N9805 Y585.17 Z-12.505
N9810 Y583.454 Z-11.579
N9815 Y581.39 Z-10.839
N9820 Y579.027 Z-10.377
N9825 Y576.377 Z-10.225
N9830 Y572.399 Z-10.409
N9835 Y551.953 Z-12.021
N9840 Y532.189 Z-13.148
N9845 Y507.342 Z-14.125
N9850 Y475.763 Z-14.925
N9855 Y435.043 Z-15.509
N9860 Y381.857 Z-15.811
N9865 Y304.54 Z-15.747
N9870 Y172.407 Z-15.347
N9875 Y121.715 Z-15.452
N9880 Y85.15 Z-15.836
N9885 Y58.557 Z-16.404
N9890 Y45.308 Z-16.845
N9895 Y32.89 Z-17.411
N9900 Y24.05 Z-17.96
N9905 Y21.133 Z-18.19
N9910 Y19.675 Z-18.348
N9915 Y18.227 Z-18.585
N9920 Y16.038 Z-19.119
N9925 Y13.439 Z-20.091
N9930 Y12.638 Z-20.478
N9935 Y10.874 Z-21.514
N9940 Y8.787 Z-23.14
N9945 Y7.33 Z-24.629
N9950 Y6.826 Z-25.235
N9955 Y5.916 Z-26.489
N9960 Y4.846 Z-28.324
N9965 Y3.773 Z-30.837
N9970 Y3.538 Z-31.538
N9975 Y-2.
N9980 G2 Y-2.419 Z-31.441 J0. K0.953
N9985 G3 Y-2.838 Z-31.343 J-0.419 K-0.855
N9990 G17 G2 X12.138 Y-5.696 I-2.858 J0.
N9995 G1 X9.855
N10000 G2 X6.998 Y-2.838 I0. J2.857
N10005 G19 G2 Y-2.419 Z-31.441 J0. K-0.952
N10010 G3 Y-2. Z-31.538 J0.419 K0.855
N10015 G1 Y3.506
N10020 Y4.091 Z-29.903
N10025 Y5.273 Z-27.439
N10030 Y6.759 Z-25.219
N10035 Y8.421 Z-23.375
N10040 Y10.338 Z-21.777
N10045 Y12.618 Z-20.382
N10050 Y15.086 Z-19.323
N10055 Y17.75 Z-18.581
N10060 Y20.102 Z-18.196
N10065 Y24.478 Z-17.841
N10070 Y33.333 Z-17.298
N10075 Y44.176 Z-16.801
N10080 Y58.235 Z-16.33
N10085 Y83.997 Z-15.784
N10090 Y119.731 Z-15.415
N10095 Y171.255 Z-15.297
N10100 Y301.725 Z-15.682
N10105 Y379.305 Z-15.744
N10110 Y432.491 Z-15.45
N10115 Y473.211 Z-14.879
N10120 Y502.297 Z-14.173
N10125 Y527.942 Z-13.221
N10130 Y547.761 Z-12.145
N10135 Y562.38 Z-11.04
N10140 Y578.087 Z-9.433
N10145 Y580.273 Z-9.304
N10150 Y582.697 Z-9.424
N10155 Y584.854 Z-9.869
N10160 Y586.702 Z-10.569
N10165 Y588.398 Z-11.543
N10170 Y590.024 Z-12.894
N10175 Y591.325 Z-14.451
N10180 Y592.287 Z-16.13
N10185 Y592.989 Z-18.074
N10190 Y593.356 Z-20.224
N10195 Y593.406 Z-31.538
N10200 Y602.
N10205 G3 Y602.419 Z-31.441 J0. K0.953
N10210 G2 Y602.838 Z-31.343 J0.419 K-0.855
N10215 G17 G3 X4.14 Y605.696 I-2.858 J0.
N10220 G1 X1.858
N10225 G3 X-1. Y602.838 I0. J-2.857
N10230 G19 G3 Y602.419 Z-31.441 J0. K-0.952
N10235 G2 Y602. Z-31.538 J-0.419 K0.855
N10240 G1 Y594.683
N10245 Y594.628 Z-19.044
N10250 Y594.261 Z-17.043
N10255 Y593.523 Z-15.077
N10260 Y592.601 Z-13.502
N10265 Y591.297 Z-11.944
N10270 Y590.001 Z-10.827
N10275 Y588.335 Z-9.802
N10280 Y586.503 Z-9.069
N10285 Y584.948 Z-8.712
N10290 Y583.343 Z-8.574
N10295 Y581.302 Z-8.721
N10300 Y571.523 Z-10.047
N10305 Y560.181 Z-11.173
N10310 Y543.919 Z-12.344
N10315 Y523.206 Z-13.393
N10320 Y496.755 Z-14.304
N10325 Y462.683 Z-15.04
N10330 Y418.639 Z-15.544
N10335 Y359.636 Z-15.751
N10340 Y262.667 Z-15.537
N10345 Y166.268 Z-15.283
N10350 Y116.407 Z-15.424
N10355 Y81.504 Z-15.807
N10360 Y56.573 Z-16.358
N10365 Y42.569 Z-16.844
N10370 Y31.831 Z-17.358
N10375 Y23.011 Z-17.926
N10380 Y20.094 Z-18.173
N10385 Y17.741 Z-18.558
N10390 Y15.079 Z-19.301
N10395 Y13.021 Z-20.155
N10400 Y11.232 Z-21.149
N10405 Y9.11 Z-22.722
N10410 Y7.62 Z-24.175
N10415 Y6.014 Z-26.219
N10420 Y4.791 Z-28.319
N10425 Y3.723 Z-30.881
N10430 Y3.499 Z-31.538
N10435 Y-2.
N10440 G2 Y-2.419 Z-31.441 J0. K0.953
N10445 G3 Y-2.838 Z-31.343 J-0.419 K-0.855
N10450 G17 G2 X-3.857 Y-5.696 I-2.858 J0.
N10455 G1 X-6.14
N10460 G2 X-8.997 Y-2.838 I0. J2.857
N10465 G19 G2 Y-2.419 Z-31.441 J0. K-0.952
N10470 G3 Y-2. Z-31.538 J0.419 K0.855
N10475 G1 Y3.511
N10480 Y3.729 Z-30.897
N10485 Y4.796 Z-28.345
N10490 Y6.022 Z-26.248
N10495 Y7.631 Z-24.205
N10500 Y9.123 Z-22.754
N10505 Y11.246 Z-21.183
N10510 Y13.034 Z-20.192
N10515 Y13.863 Z-19.815
N10520 Y16.504 Z-18.9
N10525 Y18.657 Z-18.422
N10530 Y20.109 Z-18.211
N10535 Y24.485 Z-17.856
N10540 Y33.34 Z-17.313
N10545 Y44.18 Z-16.815
N10550 Y57.405 Z-16.368
N10555 Y83.167 Z-15.81
N10560 Y118.901 Z-15.429
N10565 Y168.762 Z-15.305
N10570 Y270.978 Z-15.59
N10575 Y363.769 Z-15.778
N10580 Y421.109 Z-15.562
N10585 Y464.322 Z-15.056
N10590 Y498.394 Z-14.306
N10595 Y524.948 Z-13.377
N10600 Y544.009 Z-12.406
N10605 Y560.275 Z-11.257
N10610 Y575.263 Z-9.817
N10615 Y579.42 Z-9.531
N10620 Y582.026 Z-9.684
N10625 Y584.31 Z-10.19
N10630 Y586.323 Z-11.007
N10635 Y588.153 Z-12.15
N10640 Y589.565 Z-13.41
N10645 Y590.732 Z-14.852
N10650 Y591.698 Z-16.562
N10655 Y592.391 Z-18.518
N10660 Y592.752 Z-20.645
N10665 Y592.803 Z-31.538
N10670 Y602.
N10675 G3 Y602.419 Z-31.441 J0. K0.953
N10680 G2 Y602.838 Z-31.343 J0.419 K-0.855
N10685 G17 G3 X-11.855 Y605.696 I-2.858 J0.
N10690 G1 X-14.137
N10695 G3 X-16.995 Y602.838 I0. J-2.857
N10700 G19 G3 Y602.419 Z-31.441 J0. K-0.952
N10705 G2 Y602. Z-31.538 J-0.419 K0.855
N10710 G1 Y590.007
N10715 Y589.95 Z-22.046
N10720 Y589.561 Z-19.851
N10725 Y589.119 Z-18.523
N10730 Y588.345 Z-16.929
N10735 Y587.526 Z-15.705
N10740 Y586.541 Z-14.571
N10745 Y585.006 Z-13.248
N10750 Y583.214 Z-12.152
N10755 Y581.253 Z-11.339
N10760 Y578.912 Z-10.758
N10765 Y576.098 Z-10.477
N10770 Y573.177 Z-10.511
N10775 Y567.255 Z-10.928
N10780 Y548.732 Z-12.286
N10785 Y528.063 Z-13.383
N10790 Y505.671 Z-14.217
N10795 Y473.261 Z-15.007
N10800 Y432.54 Z-15.563
N10805 Y379.355 Z-15.842
N10810 Y300.385 Z-15.756
N10815 Y172.408 Z-15.367
N10820 Y121.715 Z-15.473
N10825 Y85.15 Z-15.863
N10830 Y58.557 Z-16.437
N10835 Y43.707 Z-16.944
N10840 Y31.408 Z-17.528
N10845 Y22.598 Z-18.107
N10850 Y18.958 Z-18.494
N10855 Y16.798 Z-18.949
N10860 Y14.081 Z-19.854
N10865 Y12.646 Z-20.518
N10870 Y10.881 Z-21.552
N10875 Y8.793 Z-23.177
N10880 Y7.335 Z-24.665
N10885 Y6.831 Z-25.272
N10890 Y5.92 Z-26.524
N10895 Y4.847 Z-28.361
N10900 Y3.81 Z-30.768
N10905 Y3.534 Z-31.538
N10910 Y-2.
N10915 G2 Y-2.419 Z-31.441 J0. K0.953
N10920 G3 Y-2.838 Z-31.343 J-0.419 K-0.855
N10925 G17 G2 X-19.852 Y-5.696 I-2.858 J0.
N10930 G1 X-22.135
N10935 G2 X-24.992 Y-2.838 I0. J2.857
N10940 G19 G2 Y-2.419 Z-31.441 J0. K-0.952
N10945 G3 Y-2. Z-31.538 J0.419 K0.855
N10950 G1 Y3.613
N10955 Y4.135 Z-30.135
N10960 Y5.152 Z-28.027
N10965 Y5.97 Z-26.698
N10970 Y6.887 Z-25.457
N10975 Y8.178 Z-24.021
N10980 Y10.182 Z-22.304
N10985 Y11.425 Z-21.466
N10990 Y12.076 Z-21.083
N10995 Y14.081 Z-20.109
N11000 Y16.706 Z-19.22
N11005 Y19.768 Z-18.607
N11010 Y23.411 Z-18.25
N11015 Y32.991 Z-17.649
N11020 Y45.363 Z-17.081
N11025 Y59.39 Z-16.6
N11030 Y85.983 Z-16.007
N11035 Y121.717 Z-15.587
N11040 Y171.579 Z-15.476
N11045 Y336.121 Z-15.969
N11050 Y395.587 Z-15.943
N11055 Y445.449 Z-15.592
N11060 Y480.352 Z-15.048
N11065 Y511.931 Z-14.218
N11070 Y536.03 Z-13.247
N11075 Y566.238 Z-11.528
N11080 Y570.393 Z-11.458
N11085 Y572.846 Z-11.596
N11090 Y574.455 Z-11.801
N11095 Y577.051 Z-12.408
N11100 Y579.278 Z-13.279
N11105 Y581.256 Z-14.435
N11110 Y582.905 Z-15.809
N11115 Y584.338 Z-17.502
N11120 Y585.38 Z-19.311
N11125 Y586.107 Z-21.332
N11130 Y586.466 Z-23.393
N11135 Y586.52 Z-31.538
N11140 Y602.
N11145 G3 Y602.419 Z-31.441 J0. K0.953
N11150 G2 Y602.838 Z-31.343 J0.419 K-0.855
N11155 G17 G3 X-27.85 Y605.696 I-2.858 J0.
N11160 G1 X-30.132
N11165 G3 X-32.99 Y602.838 I0. J-2.857
N11170 G19 G3 Y602.419 Z-31.441 J0. K-0.952
N11175 G2 Y602. Z-31.538 J-0.419 K0.855
N11180 G1 Y582.223
N11185 Y582.177 Z-24.785
N11190 Y581.799 Z-22.646
N11195 Y581.122 Z-20.793
N11200 Y580.057 Z-18.958
N11205 Y578.735 Z-17.385
N11210 Y576.951 Z-15.888
N11215 Y574.932 Z-14.7
N11220 Y572.707 Z-13.8
N11225 Y571.946 Z-13.571
N11230 Y569.759 Z-13.063
N11235 Y566.36 Z-12.645
N11240 Y561.81 Z-12.51
N11245 Y554.006 Z-12.745
N11250 Y525.585 Z-14.027
N11255 Y496.499 Z-14.94
N11260 Y460.765 Z-15.629
N11265 Y415.89 Z-16.065
N11270 Y359.446 Z-16.192
N11275 Y170.803 Z-15.652
N11280 Y122.604 Z-15.769
N11285 Y86.039 Z-16.261
N11290 Y59.446 Z-16.904
N11295 Y44.712 Z-17.439
N11300 Y31.31 Z-18.082
N11305 Y23.589 Z-18.575
N11310 Y20.678 Z-18.879
N11315 Y19.224 Z-19.084
N11320 Y16.901 Z-19.586
N11325 Y14.181 Z-20.505
N11330 Y11.73 Z-21.732
N11335 Y9.535 Z-23.259
N11340 Y7.729 Z-24.94
N11345 Y6.05 Z-27.021
N11350 Y4.729 Z-29.241
N11355 Y3.734 Z-31.538
N11360 Y-2.
N11365 G2 Y-2.419 Z-31.441 J0. K0.953
N11370 G3 Y-2.838 Z-31.343 J-0.419 K-0.855
N11375 G17 G2 X-35.847 Y-5.696 I-2.858 J0.
N11380 G1 X-38.13
N11385 G2 X-40.987 Y-2.838 I0. J2.857
N11390 G19 G2 Y-2.419 Z-31.441 J0. K-0.952
N11395 G3 Y-2. Z-31.538 J0.419 K0.855
N11400 G1 Y3.948
N11405 Y4.666 Z-30.011
N11410 Y6.003 Z-27.785
N11415 Y7.703 Z-25.687
N11420 Y9.66 Z-23.882
N11425 Y11.922 Z-22.333
N11430 Y14.27 Z-21.159
N11435 Y17.051 Z-20.197
N11440 Y19.436 Z-19.662
N11445 Y23.429 Z-19.119
N11450 Y32.625 Z-18.531
N11455 Y48.07 Z-17.8
N11460 Y62.773 Z-17.26
N11465 Y91.028 Z-16.547
N11470 Y125.931 Z-16.034
N11475 Y176.624 Z-15.918
N11480 Y273.853 Z-16.208
N11485 Y373.446 Z-16.467
N11490 Y426.631 Z-16.291
N11495 Y467.352 Z-15.853
N11500 Y503.917 Z-15.109
N11505 Y537.092 Z-14.045
N11510 Y548.512 Z-13.688
N11515 Y555.784 Z-13.677
N11520 Y560.281 Z-13.925
N11525 Y562.471 Z-14.183
N11530 Y565.864 Z-14.868
N11535 Y568.157 Z-15.612
N11540 Y570.315 Z-16.615
N11545 Y572.289 Z-17.909
N11550 Y573.445 Z-18.918
N11555 Y574.878 Z-20.595
N11560 Y575.836 Z-22.22
N11565 Y576.55 Z-24.112
N11570 Y576.902 Z-26.005
N11575 Y576.963 Z-31.538
N11580 Y602.
N11585 G3 Y602.419 Z-31.441 J0. K0.953
N11590 G2 Y602.838 Z-31.343 J0.419 K-0.855
N11595 G17 G3 X-43.845 Y605.696 I-2.857 J0.
N11600 G1 X-46.127
N11605 G3 X-48.985 Y602.838 I0. J-2.857
N11610 G19 G3 Y602.419 Z-31.441 J0. K-0.952
N11615 G2 Y602. Z-31.538 J-0.419 K0.855
N11620 G1 Y570.534
N11625 Y570.465 Z-27.373
N11630 Y570.227 Z-26.026
N11635 Y569.574 Z-24.145
N11640 Y568.657 Z-22.524
N11645 Y567.292 Z-20.875
N11650 Y565.814 Z-19.583
N11655 Y563.829 Z-18.306
N11660 Y561.1 Z-17.084
N11665 Y558.208 Z-16.223
N11670 Y554.624 Z-15.56
N11675 Y550.278 Z-15.111
N11680 Y543.557 Z-14.865
N11685 Y532.338 Z-14.929
N11690 Y484.139 Z-16.006
N11695 Y441.756 Z-16.563
N11700 Y389.402 Z-16.82
N11705 Y315.204 Z-16.701
N11710 Y188.058 Z-16.303
N11715 Y135.703 Z-16.404
N11720 Y114.928 Z-16.626
N11725 Y82.518 Z-17.316
N11730 Y61.761 Z-17.962
N11735 Y45.932 Z-18.622
N11740 Y30.569 Z-19.409
N11745 Y23.234 Z-19.907
N11750 Y20.341 Z-20.37
N11755 Y17.918 Z-20.882
N11760 Y15.023 Z-21.814
N11765 Y12.402 Z-23.055
N11770 Y10.113 Z-24.553
N11775 Y8.075 Z-26.34
N11780 Y6.34 Z-28.356
N11785 Y4.882 Z-30.618
N11790 Y4.386 Z-31.538
N11795 Y-2.
N11800 G2 Y-2.419 Z-31.441 J0. K0.953
N11805 G3 Y-2.838 Z-31.343 J-0.419 K-0.855
N11810 G17 G2 X-51.842 Y-5.696 I-2.858 J0.
N11815 G1 X-54.125
N11820 G2 X-56.982 Y-2.838 I0. J2.857
N11825 G19 G2 Y-2.419 Z-31.441 J0. K-0.952
N11830 G3 Y-2. Z-31.538 J0.419 K0.855
N11835 G1 Y5.874
N11840 Y6.196 Z-31.003
N11845 Y7.439 Z-29.169
N11850 Y8.053 Z-28.4
N11855 Y10.04 Z-26.376
N11860 Y12.127 Z-24.781
N11865 Y14.642 Z-23.362
N11870 Y17.482 Z-22.239
N11875 Y19.966 Z-21.565
N11880 Y22.839 Z-20.975
N11885 Y24.3 Z-20.818
N11890 Y30.172 Z-20.444
N11895 Y51.385 Z-19.349
N11900 Y67.194 Z-18.679
N11905 Y86.225 Z-18.036
N11910 Y120.297 Z-17.2
N11915 Y146.058 Z-16.951
N11920 Y199.244 Z-16.835
N11925 Y333.87 Z-17.23
N11930 Y401.129 Z-17.284
N11935 Y453.795 Z-16.98
N11940 Y507.812 Z-16.256
N11945 Y526.094 Z-16.129
N11950 Y535.236 Z-16.299
N11955 Y539.351 Z-16.507
N11960 Y543.404 Z-16.857
N11965 Y548.023 Z-17.54
N11970 Y551.749 Z-18.468
N11975 Y554.574 Z-19.518
N11980 Y556.52 Z-20.515
N11985 Y557.834 Z-21.368
N11990 Y559.171 Z-22.461
N11995 Y560.52 Z-23.932
N12000 Y561.552 Z-25.537
N12005 Y562.212 Z-27.137
N12010 Y562.568 Z-28.742
N12015 Y562.656 Z-31.538
N12020 Y602.
N12025 G3 Y602.419 Z-31.441 J0. K0.953
N12030 G2 Y602.838 Z-31.343 J0.419 K-0.855
N12035 G17 G3 X-59.84 Y605.696 I-2.858 J0.
N12040 G1 X-62.122
N12045 G3 X-64.98 Y602.838 I0. J-2.857
N12050 G19 G3 Y602.419 Z-31.441 J0. K-0.952
N12055 G2 Y602. Z-31.538 J-0.419 K0.855
N12060 G1 Y552.917
N12065 Y552.702 Z-29.705
N12070 Y552.139 Z-28.006
N12075 Y551.163 Z-26.344
N12080 Y549.893 Z-24.88
N12085 Y548.364 Z-23.596
N12090 Y546.356 Z-22.338
N12095 Y543.481 Z-21.044
N12100 Y540.556 Z-20.118
N12105 Y536.973 Z-19.3
N12110 Y532.783 Z-18.656
N12115 Y528.332 Z-18.204
N12120 Y523.037 Z-17.869
N12125 Y513.48 Z-17.579
N12130 Y496.504 Z-17.472
N12135 Y410.908 Z-17.923
N12140 Y342.176 Z-17.882
N12145 Y215.86 Z-17.555
N12150 Y161.013 Z-17.694
N12155 Y123.409 Z-18.079
N12160 Y87.883 Z-19.079
N12165 Y66.374 Z-19.895
N12170 Y47.583 Z-20.811
N12175 Y32.304 Z-21.716
N12180 Y23.745 Z-22.346
N12185 Y21.929 Z-22.658
N12190 Y20.165 Z-23.193
N12195 Y17.105 Z-24.488
N12200 Y14.765 Z-25.836
N12205 Y13.92 Z-26.44
N12210 Y12.743 Z-27.408
N12215 Y11.168 Z-29.023
N12220 Y9.766 Z-30.929
N12225 Y9.381 Z-31.538
N12230 Y-2.
N12235 G2 Y-2.419 Z-31.441 J0. K0.953
N12240 G3 Y-2.838 Z-31.343 J-0.419 K-0.855
N12245 G17 G2 X-67.837 Y-5.696 I-2.858 J0.
N12250 G1 X-70.119
N12255 G2 X-72.977 Y-2.838 I0. J2.857
N12260 G19 G2 Y-2.419 Z-31.441 J0. K-0.952
N12265 G3 Y-2. Z-31.538 J0.419 K0.855
N12270 G1 Y14.55
N12275 Y15.879 Z-29.771
N12280 Y17.322 Z-28.262
N12285 Y18.837 Z-27.083
N12290 Y20.666 Z-26.093
N12295 Y22.075 Z-25.605
N12300 Y24.24 Z-25.215
N12305 Y32.214 Z-24.218
N12310 Y41.293 Z-23.349
N12315 Y55.15 Z-22.286
N12320 Y73.14 Z-21.253
N12325 Y95.142 Z-20.307
N12330 Y124.985 Z-19.354
N12335 Y158.226 Z-18.858
N12340 Y206.425 Z-18.551
N12345 Y266.702 Z-18.535
N12350 Y358.114 Z-18.8
N12355 Y438.804 Z-18.864
N12360 Y479.111 Z-18.951
N12365 Y495.732 Z-19.211
N12370 Y504.749 Z-19.521
N12375 Y511.96 Z-19.948
N12380 Y516.419 Z-20.334
N12385 Y521.665 Z-21.001
N12390 Y526.452 Z-21.922
N12395 Y530.055 Z-22.936
N12400 Y532.961 Z-24.058
N12405 Y535.088 Z-25.153
N12410 Y536.733 Z-26.252
N12415 Y538.127 Z-27.479
N12420 Y539.206 Z-28.767
N12425 Y539.985 Z-30.121
N12430 Y540.469 Z-31.501
N12435 Y602. Z-31.538
N12440 G3 Y602.42 Z-31.441 J0.001 K0.953
N12445 G2 Y602.839 Z-31.343 J0.419 K-0.855
N12450 G17 G3 X-75.834 Y605.696 I-2.857 J0.
N12455 G1 X-78.117
N12460 G3 X-80.974 Y602.839 I0. J-2.857
N12465 G1 Y602.838
N12470 G19 G3 Y602.419 Z-31.441 J0. K-0.952
N12475 G2 Y602. Z-31.538 J-0.419 K0.855
N12480 G1 Y523.829
N12485 Y522.845 Z-30.299
N12490 Y521.486 Z-29.073
N12495 Y519.527 Z-27.787
N12500 Y517.203 Z-26.649
N12505 Y514.555 Z-25.653
N12510 Y511.246 Z-24.702
N12515 Y507.276 Z-23.843
N12520 Y502.459 Z-23.082
N12525 Y495.786 Z-22.325
N12530 Y488.032 Z-21.739
N12535 Y475.721 Z-21.179
N12540 Y456.608 Z-20.743
N12545 Y427.522 Z-20.449
N12550 Y302.037 Z-19.861
N12555 Y233.894 Z-19.853
N12560 Y192.342 Z-20.089
N12565 Y154.946 Z-20.574
N12570 Y124.198 Z-21.316
N12575 Y103.9 Z-22.166
N12580 Y88.741 Z-22.972
N12585 Y75.07 Z-23.886
N12590 Y63.248 Z-24.929
N12595 Y54.527 Z-25.926
N12600 Y47.282 Z-26.948
N12605 Y41.516 Z-27.967
N12610 Y36.508 Z-29.057
N12615 Y32.264 Z-30.21
N12620 Y28.785 Z-31.394
N12625 Y28.409 Z-31.538
N12630 Y-2.
N12635 G2 Y-2.419 Z-31.441 J0. K0.953
N12640 G3 Y-2.838 Z-31.343 J-0.419 K-0.855
N12645 G17 G2 X-83.832 Y-5.696 I-2.857 J0.
N12650 G1 X-86.114
N12655 G2 X-88.972 Y-2.838 I0. J2.857
N12660 G19 G2 Y-2.419 Z-31.441 J0. K-0.952
N12665 G3 Y-2. Z-31.538 J0.419 K0.855
N12670 G1 Y66.214
N12675 Y71.01 Z-30.392
N12680 Y76.703 Z-29.297
N12685 Y84.714 Z-28.067
N12690 Y92.867 Z-27.074
N12695 Y102.07 Z-26.158
N12700 Y117.012 Z-25.014
N12705 Y130.731 Z-24.234
N12710 Y147.325 Z-23.492
N12715 Y178.067 Z-22.622
N12720 Y207.984 Z-22.145
N12725 Y251.197 Z-21.809
N12730 Y301.058 Z-21.802
N12735 Y340.948 Z-22.015
N12740 Y409.923 Z-22.686
N12745 Y440.047 Z-23.312
N12750 Y451.29 Z-23.735
N12755 Y462.851 Z-24.324
N12760 Y472.427 Z-25.067
N12765 Y477.688 Z-25.64
N12770 Y484.128 Z-26.564
N12775 Y489.312 Z-27.593
N12780 Y493.416 Z-28.702
N12785 Y496.912 Z-29.993
N12790 Y499.796 Z-31.507
N12795 Y602. Z-31.538
N12800 G3 Y602.419 Z-31.441 J0. K0.953
N12805 G2 Y602.839 Z-31.343 J0.419 K-0.855
N12810 G17 G3 X-91.829 Y605.696 I-2.858 J0.
N12815 G1 X-94.112
N12820 G3 X-96.969 Y602.839 I0. J-2.858
N12825 G19 G3 Y602.419 Z-31.441 J0. K-0.952
N12830 G2 Y602. Z-31.538 J-0.419 K0.855
N12835 G1 Y459.395 Z-31.513
N12840 Y454.267 Z-30.491
N12845 Y448.232 Z-29.578
N12850 Y440.561 Z-28.706
N12855 Y429.922 Z-27.843
N12860 Y416.059 Z-27.073
N12865 Y399.439 Z-26.465
N12870 Y370.353 Z-25.754
N12875 Y325.477 Z-25.162
N12880 Y284.757 Z-24.961
N12885 Y248.192 Z-25.093
N12890 Y220.768 Z-25.458
N12895 Y192.514 Z-26.204
N12900 Y174.747 Z-26.893
N12905 Y159.159 Z-27.75
N12910 Y148.039 Z-28.566
N12915 Y137.676 Z-29.504
N12920 Y128.064 Z-30.608
N12925 Y121.384 Z-31.538
N12930 Y-2.
N12935 G2 Y-2.419 Z-31.441 J0. K0.953
N12940 G3 Y-2.838 Z-31.343 J-0.419 K-0.855
N12945 G17 G2 X-99.827 Y-5.696 I-2.857 J0.
N12950 G1 X-102.109
N12955 G2 X-104.967 Y-2.838 I0. J2.857
N12960 G19 G2 Y-2.419 Z-31.441 J0. K-0.952
N12965 G3 Y-2. Z-31.538 J0.419 K0.855
N12970 G1 Y236.936
N12975 Y242.061 Z-31.483
N12980 Y262.006 Z-31.045
N12985 Y285.274 Z-30.886
N12990 Y310.205 Z-31.042
N12995 Y334.818 Z-31.508
N13000 Y602. Z-31.538
N13005 G3 Y602.419 Z-31.441 J0. K0.953
N13010 G2 Y602.838 Z-31.343 J0.419 K-0.855
N13015 G17 G3 X-107.824 Y605.696 I-2.857 J0.
N13020 G1 X-110.107
N13025 G3 X-112.964 Y602.838 I0. J-2.858
N13030 G19 G3 Y602.419 Z-31.441 J0. K-0.952
N13035 G2 Y602. Z-31.538 J-0.419 K0.855
N13040 G1 Y-2.
N13045 G2 Y-2.419 Z-31.441 J0. K0.953
N13050 G3 Y-2.838 Z-31.343 J-0.419 K-0.855
N13055 G17 G2 X-115.822 Y-5.696 I-2.857 J0.
N13060 G1 X-118.104
N13065 G2 X-120.962 Y-2.838 I0. J2.857
N13070 G19 G2 Y-2.419 Z-31.441 J0. K-0.952
N13075 G3 Y-2. Z-31.538 J0.419 K0.855
N13080 G1 Y602.
N13085 G3 Y603.905 Z-29.633 J0. K1.905 F1000.
N13090 G0 Z15.
N13095 G17
(PARALLEL1 4)
N13100 G0 X119.004 Y296.607
N13105 Z15.
N13110 Z-36.633
N13115 G19 G2 Y294.702 Z-38.538 J-1.905 K0. F1000.
N13120 G1 Y283.855 F3000.
N13125 G2 Y281.95 Z-36.633 J0. K1.905 F1000.
N13130 G0 Z5.
N13135 X116.004 Y190.486
N13140 Z-36.633
N13145 G3 Y192.391 Z-38.538 J1.905 K0. F1000.
N13150 G1 Y389.453 F3000.
N13155 Y424.643
N13160 G17 G3 X113.005 I-1.5 J0.
N13165 G1 Y154.446
N13170 G19 G2 Y154.026 Z-38.441 J0. K0.952
N13175 G3 Y153.607 Z-38.343 J-0.419 K-0.855
N13180 G1 Y125.615
N13185 G17 G2 X110.005 I-1.5 J0.
N13190 G19 G2 Y126.034 Z-38.441 J0. K-0.952
N13195 G3 Y126.453 Z-38.538 J0.419 K0.855
N13200 G1 Y448.374
N13205 G3 Y448.794 Z-38.441 J0. K0.952
N13210 G2 Y449.213 Z-38.343 J0.419 K-0.855
N13215 G1 Y467.279
N13220 G17 G3 X107.005 I-1.5 J0.
N13225 G19 G3 Y466.859 Z-38.441 J0. K-0.952
N13230 G2 Y466.44 Z-38.538 J-0.419 K0.855
N13235 G1 Y345.998 Z-38.501
N13240 Y335.751 Z-37.767
N13245 Y322.604 Z-37.116
N13250 Y307.104 Z-36.661
N13255 Y290.055 Z-36.455
N13260 Y274.555 Z-36.555
N13265 Y259.055 Z-36.937
N13270 Y247.257 Z-37.488
N13275 Y238.075 Z-38.164
N13280 Y233.779 Z-38.538
N13285 Y103.758
N13290 G2 Y103.338 Z-38.441 J0. K0.952
N13295 G3 Y102.919 Z-38.343 J-0.419 K-0.855
N13300 G1 Y83.653
N13305 G17 G2 X104.006 I-1.5 J0.
N13310 G19 G2 Y84.072 Z-38.441 J0. K-0.952
N13315 G3 Y84.492 Z-38.538 J0.419 K0.855
N13320 G1 Y176.735
N13325 Y180.752 Z-37.712
N13330 Y186.212 Z-36.749
N13335 Y195.094 Z-35.618
N13340 Y203.75 Z-34.766
N13345 Y215.111 Z-33.915
N13350 Y229.571 Z-33.158
N13355 Y242.655 Z-32.666
N13360 Y262.03 Z-32.217
N13365 Y283.73 Z-32.055
N13370 Y309.304 Z-32.199
N13375 Y331.779 Z-32.623
N13380 Y354.253 Z-33.35
N13385 Y369.739 Z-34.08
N13390 Y379.632 Z-34.754
N13395 Y386.444 Z-35.324
N13400 Y393.235 Z-36.085
N13405 Y398.496 Z-36.812
N13410 Y402.88 Z-37.615
N13415 Y406.565 Z-38.49
N13420 Y480.996 Z-38.538
N13425 G3 Y481.416 Z-38.441 J0.001 K0.952
N13430 G2 Y481.835 Z-38.343 J0.419 K-0.855
N13435 G1 Y494.007
N13440 G17 G3 X101.006 I-1.5 J0.
N13445 G19 G3 Y493.588 Z-38.441 J0. K-0.952
N13450 G2 Y493.168 Z-38.538 J-0.419 K0.855
N13455 G1 Y437.617 Z-38.518
N13460 Y435.305 Z-37.398
N13465 Y432.82 Z-36.554
N13470 Y429.172 Z-35.572
N13475 Y423.96 Z-34.555
N13480 Y418.705 Z-33.788
N13485 Y411.162 Z-32.924
N13490 Y401.255 Z-32.085
N13495 Y392.116 Z-31.53
N13500 Y375.987 Z-30.78
N13505 Y348.863 Z-29.997
N13510 Y317.088 Z-29.449
N13515 Y284.539 Z-29.269
N13520 Y257.415 Z-29.408
N13525 Y234.94 Z-29.805
N13530 Y211.113 Z-30.557
N13535 Y197.087 Z-31.257
N13540 Y186.227 Z-31.934
N13545 Y174.703 Z-32.909
N13550 Y166.564 Z-33.783
N13555 Y158.45 Z-34.874
N13560 Y151.734 Z-36.074
N13565 Y147.734 Z-36.986
N13570 Y143.783 Z-38.084
N13575 Y142.486 Z-38.538
N13580 Y67.712
N13585 G2 Y67.293 Z-38.441 J0. K0.952
N13590 G3 Y66.874 Z-38.343 J-0.419 K-0.855
N13595 G1 Y52.025
N13600 G17 G2 X98.006 I-1.5 J0.
N13605 G19 G2 Y52.444 Z-38.441 J0. K-0.952
N13610 G3 Y52.863 Z-38.538 J0.419 K0.855
N13615 G1 Y116.214
N13620 Y117.013 Z-38.169
N13625 Y119.37 Z-37.239
N13630 Y123.121 Z-36.056
N13635 Y129.773 Z-34.504
N13640 Y136.648 Z-33.302
N13645 Y144.238 Z-32.272
N13650 Y153.052 Z-31.302
N13655 Y164.235 Z-30.336
N13660 Y176.548 Z-29.54
N13665 Y192.625 Z-28.755
N13670 Y211.18 Z-28.101
N13675 Y238.305 Z-27.557
N13680 Y269.304 Z-27.267
N13685 Y302.628 Z-27.294
N13690 Y333.628 Z-27.584
N13695 Y373.927 Z-28.267
N13700 Y394.851 Z-28.885
N13705 Y409.566 Z-29.519
N13710 Y421.084 Z-30.228
N13715 Y427.894 Z-30.8
N13720 Y435.256 Z-31.569
N13725 Y441.457 Z-32.43
N13730 Y446.674 Z-33.402
N13735 Y450.355 Z-34.309
N13740 Y451.803 Z-34.732
N13745 Y454.966 Z-35.905
N13750 Y456.602 Z-36.775
N13755 Y457.96 Z-37.694
N13760 Y458.778 Z-38.538
N13765 Y503.627
N13770 G3 Y504.046 Z-38.441 J0. K0.952
N13775 G2 Y504.465 Z-38.343 J0.419 K-0.855
N13780 G1 Y513.57
N13785 G17 G3 X95.007 I-1.5 J0.
N13790 G19 G3 Y513.151 Z-38.441 J0. K-0.952
N13795 G2 Y512.731 Z-38.538 J-0.419 K0.855
N13800 G1 Y474.845 Z-38.51
N13805 Y474.38 Z-37.565
N13810 Y473.551 Z-36.557
N13815 Y471.921 Z-35.318
N13820 Y469.255 Z-33.999
N13825 Y466.414 Z-32.991
N13830 Y462.765 Z-32.01
N13835 Y458.31 Z-31.093
N13840 Y452.687 Z-30.213
N13845 Y447.034 Z-29.528
N13850 Y438.716 Z-28.776
N13855 Y430.322 Z-28.216
N13860 Y417.936 Z-27.61
N13865 Y393.137 Z-26.821
N13870 Y352.838 Z-26.159
N13875 Y309.439 Z-25.73
N13880 Y269.914 Z-25.665
N13885 Y234.265 Z-25.928
N13890 Y202.491 Z-26.468
N13895 Y179.255 Z-27.215
N13900 Y164.936 Z-27.818
N13905 Y150.468 Z-28.676
N13910 Y140.17 Z-29.472
N13915 Y131.712 Z-30.258
N13920 Y122.598 Z-31.332
N13925 Y114.425 Z-32.555
N13930 Y108.318 Z-33.736
N13935 Y103.998 Z-34.769
N13940 Y99.744 Z-36.064
N13945 Y96.568 Z-37.368
N13950 Y94.544 Z-38.538
N13955 Y39.548
N13960 G2 Y39.129 Z-38.441 J0. K0.952
N13965 G3 Y38.71 Z-38.343 J-0.419 K-0.855
N13970 G1 Y26.683
N13975 G17 G2 X92.007 I-1.5 J0.
N13980 G19 G2 Y27.102 Z-38.441 J0. K-0.952
N13985 G3 Y27.521 Z-38.538 J0.419 K0.855
N13990 G1 Y76.054
N13995 Y78.014 Z-37.156
N14000 Y81.126 Z-35.653
N14005 Y85.66 Z-34.102
N14010 Y91.627 Z-32.614
N14015 Y98.333 Z-31.346
N14020 Y104.559 Z-30.418
N14025 Y112.685 Z-29.429
N14030 Y121.678 Z-28.532
N14035 Y134.07 Z-27.561
N14040 Y151.189 Z-26.593
N14045 Y166.961 Z-25.937
N14050 Y195.635 Z-25.121
N14055 Y229.735 Z-24.629
N14060 Y269.259 Z-24.394
N14065 Y315.758 Z-24.479
N14070 Y378.532 Z-25.1
N14075 Y407.981 Z-25.583
N14080 Y432.781 Z-26.313
N14085 Y450.159 Z-27.248
N14090 Y458.86 Z-27.986
N14095 Y465.644 Z-28.787
N14100 Y470.142 Z-29.488
N14105 Y475.343 Z-30.545
N14110 Y479.34 Z-31.668
N14115 Y482.492 Z-32.898
N14120 Y484.107 Z-33.752
N14125 Y485.607 Z-34.777
N14130 Y486.686 Z-35.803
N14135 Y487.267 Z-36.659
N14140 Y487.63 Z-37.514
N14145 Y487.794 Z-38.538
N14150 Y520.786
N14155 G3 Y521.205 Z-38.441 J0. K0.952
N14160 G2 Y521.624 Z-38.343 J0.419 K-0.855
N14165 G1 Y528.805
N14170 G17 G3 X89.008 I-1.5 J0.
N14175 G19 G3 Y528.386 Z-38.441 J0. K-0.952
N14180 G2 Y527.967 Z-38.538 J-0.419 K0.855
N14185 G1 Y498.595
N14190 Y498.518 Z-36.972
N14195 Y498.15 Z-35.801
N14200 Y497.782 Z-35.129
N14205 Y496.784 Z-33.964
N14210 Y495.39 Z-32.875
N14215 Y493.525 Z-31.789
N14220 Y491.066 Z-30.735
N14225 Y488.564 Z-29.894
N14230 Y484.901 Z-28.946
N14235 Y480.438 Z-28.073
N14240 Y474.994 Z-27.273
N14245 Y468.391 Z-26.563
N14250 Y460.812 Z-25.988
N14255 Y451.601 Z-25.454
N14260 Y433.195 Z-24.786
N14265 Y401.034 Z-24.179
N14270 Y321.404 Z-23.465
N14275 Y267.93 Z-23.358
N14280 Y223.756 Z-23.577
N14285 Y188.882 Z-24.021
N14290 Y156.332 Z-24.837
N14295 Y141.74 Z-25.416
N14300 Y125.902 Z-26.2
N14305 Y111.748 Z-27.192
N14310 Y102.08 Z-28.038
N14315 Y93.265 Z-28.998
N14320 Y85.492 Z-30.067
N14325 Y77.766 Z-31.447
N14330 Y72.444 Z-32.685
N14335 Y68.511 Z-33.853
N14340 Y64.679 Z-35.358
N14345 Y62.249 Z-36.683
N14350 Y60.578 Z-38.
N14355 Y60.056 Z-38.538
N14360 Y17.047
N14365 G2 Y16.628 Z-38.441 J0. K0.952
N14370 G3 Y16.209 Z-38.343 J-0.419 K-0.855
N14375 G1 Y11.136
N14380 G17 G2 X86.008 I-1.5 J0.
N14385 G19 G2 Y11.555 Z-38.441 J0. K-0.952
N14390 G3 Y11.975 Z-38.538 J0.419 K0.855
N14395 G1 Y45.925
N14400 Y46.376 Z-37.892
N14405 Y47.682 Z-36.632
N14410 Y50.027 Z-35.128
N14415 Y53.159 Z-33.714
N14420 Y56.152 Z-32.679
N14425 Y61.349 Z-31.272
N14430 Y66.695 Z-30.155
N14435 Y73.089 Z-29.092
N14440 Y81.206 Z-28.02
N14445 Y89.347 Z-27.171
N14450 Y100.374 Z-26.22
N14455 Y111.586 Z-25.486
N14460 Y125.797 Z-24.699
N14465 Y147.912 Z-23.881
N14470 Y174.261 Z-23.256
N14475 Y203.711 Z-22.818
N14480 Y250.985 Z-22.527
N14485 Y308.333 Z-22.546
N14490 Y400.557 Z-23.16
N14495 Y436.206 Z-23.628
N14500 Y457.905 Z-24.216
N14505 Y472.589 Z-24.977
N14510 Y480.534 Z-25.653
N14515 Y486.94 Z-26.414
N14520 Y491.432 Z-27.151
N14525 Y495.318 Z-27.986
N14530 Y498.776 Z-28.967
N14535 Y501.593 Z-30.036
N14540 Y503.731 Z-31.121
N14545 Y505.407 Z-32.274
N14550 Y506.469 Z-33.277
N14555 Y507.317 Z-34.464
N14560 Y507.608 Z-35.088
N14565 Y507.898 Z-36.26
N14570 Y507.947 Z-38.538
N14575 Y534.441
N14580 G3 Y534.861 Z-38.441 J0. K0.952
N14585 G2 Y535.28 Z-38.343 J0.419 K-0.855
N14590 G1 Y541.139
N14595 G17 G3 X83.008 I-1.5 J0.
N14600 G19 G3 Y540.719 Z-38.441 J0. K-0.952
N14605 G2 Y540.3 Z-38.538 J-0.419 K0.855
N14610 G1 Y516.148
N14615 Y516.106 Z-35.459
N14620 Y515.828 Z-34.247
N14625 Y515.275 Z-33.115
N14630 Y514.173 Z-31.753
N14635 Y512.554 Z-30.455
N14640 Y510.61 Z-29.321
N14645 Y507.999 Z-28.199
N14650 Y504.903 Z-27.209
N14655 Y501.228 Z-26.327
N14660 Y496.748 Z-25.527
N14665 Y492.236 Z-24.928
N14670 Y486.193 Z-24.316
N14675 Y476.279 Z-23.662
N14680 Y460.004 Z-23.06
N14685 Y436.754 Z-22.639
N14690 Y393.355 Z-22.282
N14695 Y303.457 Z-21.816
N14700 Y241.458 Z-21.812
N14705 Y192.731 Z-22.104
N14710 Y153.11 Z-22.731
N14715 Y123.661 Z-23.591
N14720 Y108.743 Z-24.294
N14725 Y93.898 Z-25.14
N14730 Y79.453 Z-26.244
N14735 Y69.952 Z-27.21
N14740 Y63.181 Z-28.043
N14745 Y56.773 Z-29.02
N14750 Y50.741 Z-30.184
N14755 Y45.93 Z-31.367
N14760 Y42.013 Z-32.599
N14765 Y38.993 Z-33.825
N14770 Y36.841 Z-34.959
N14775 Y35.13 Z-36.175
N14780 Y33.805 Z-37.59
N14785 Y33.257 Z-38.538
N14790 Y8.93
N14795 G2 Y8.511 Z-38.441 J0. K0.952
N14800 G3 Y8.092 Z-38.343 J-0.419 K-0.855
N14805 G1 Y5.889
N14810 G17 G2 X80.009 I-1.5 J0.
N14815 G19 G2 Y6.308 Z-38.441 J0. K-0.952
N14820 G3 Y6.727 Z-38.538 J0.419 K0.855
N14825 G1 Y21.884
N14830 Y21.939 Z-38.36
N14835 Y22.585 Z-37.048
N14840 Y23.677 Z-35.81
N14845 Y25.202 Z-34.632
N14850 Y27.427 Z-33.373
N14855 Y30.355 Z-32.124
N14860 Y34.423 Z-30.8
N14865 Y38.882 Z-29.682
N14870 Y45.753 Z-28.359
N14875 Y52.332 Z-27.374
N14880 Y61.138 Z-26.328
N14885 Y72.67 Z-25.283
N14890 Y88.594 Z-24.208
N14895 Y102.128 Z-23.508
N14900 Y120.838 Z-22.709
N14905 Y148.737 Z-21.991
N14910 Y187.486 Z-21.452
N14915 Y232.435 Z-21.194
N14920 Y300.634 Z-21.196
N14925 Y432.381 Z-21.79
N14930 Y459.506 Z-22.068
N14935 Y476.555 Z-22.458
N14940 Y488.952 Z-23.008
N14945 Y496.622 Z-23.593
N14950 Y502.561 Z-24.271
N14955 Y507.057 Z-24.973
N14960 Y510.759 Z-25.765
N14965 Y513.666 Z-26.584
N14970 Y516.482 Z-27.628
N14975 Y518.507 Z-28.622
N14980 Y520.242 Z-29.758
N14985 Y521.561 Z-30.927
N14990 Y522.496 Z-32.144
N14995 Y523.077 Z-33.339
N15000 Y523.361 Z-34.502
N15005 Y523.418 Z-38.538
N15010 Y545.648
N15015 G3 Y546.068 Z-38.441 J0. K0.952
N15020 G2 Y546.487 Z-38.343 J0.419 K-0.855
N15025 G1 Y551.376
N15030 G17 G3 X77.009 I-1.5 J0.
N15035 G19 G3 Y550.957 Z-38.441 J0. K-0.952
N15040 G2 Y550.537 Z-38.538 J-0.419 K0.855
N15045 G1 Y529.92
N15050 Y529.867 Z-33.755
N15055 Y529.516 Z-32.338
N15060 Y528.838 Z-31.017
N15065 Y527.882 Z-29.829
N15070 Y526.26 Z-28.439
N15075 Y524.373 Z-27.289
N15080 Y521.654 Z-26.086
N15085 Y518.782 Z-25.151
N15090 Y515.108 Z-24.264
N15095 Y512.126 Z-23.727
N15100 Y506.673 Z-22.992
N15105 Y500.814 Z-22.455
N15110 Y491.767 Z-21.935
N15115 Y477.623 Z-21.513
N15120 Y457.473 Z-21.251
N15125 Y395.475 Z-21.025
N15130 Y289.302 Z-20.66
N15135 Y221.103 Z-20.672
N15140 Y176.154 Z-20.937
N15145 Y142.83 Z-21.391
N15150 Y119.58 Z-21.929
N15155 Y100.38 Z-22.659
N15160 Y85.541 Z-23.334
N15165 Y68.558 Z-24.335
N15170 Y55.479 Z-25.365
N15175 Y44.625 Z-26.504
N15180 Y36.377 Z-27.646
N15185 Y30.682 Z-28.67
N15190 Y25.275 Z-29.92
N15195 Y22.076 Z-30.893
N15200 Y20.819 Z-31.577
N15205 Y19.695 Z-32.541
N15210 Y18.744 Z-33.716
N15215 Y17.935 Z-35.23
N15220 Y17.379 Z-36.96
N15225 Y17.125 Z-38.538
N15230 Y4.659
N15235 G2 Y4.239 Z-38.441 J0. K0.952
N15240 G3 Y3.82 Z-38.343 J-0.419 K-0.855
N15245 G1 Y1.865
N15250 G17 G2 X74.009 I-1.5 J0.
N15255 G19 G2 Y2.284 Z-38.441 J0. K-0.952
N15260 G3 Y2.703 Z-38.538 J0.419 K0.855
N15265 G1 Y14.859
N15270 Y15.164 Z-36.484
N15275 Y15.837 Z-34.369
N15280 Y16.849 Z-32.399
N15285 Y17.992 Z-30.85
N15290 Y19.539 Z-29.433
N15295 Y20.736 Z-28.654
N15300 Y22.024 Z-28.098
N15305 Y24.113 Z-27.632
N15310 Y30.84 Z-26.588
N15315 Y39.054 Z-25.612
N15320 Y50.23 Z-24.58
N15325 Y63.68 Z-23.63
N15330 Y82.131 Z-22.642
N15335 Y99.482 Z-21.925
N15340 Y125.832 Z-21.07
N15345 Y158.381 Z-20.562
N15350 Y200.23 Z-20.25
N15355 Y263.004 Z-20.179
N15360 Y343.602 Z-20.397
N15365 Y434.744 Z-20.564
N15370 Y474.268 Z-20.687
N15375 Y490.543 Z-20.935
N15380 Y502.264 Z-21.34
N15385 Y509.783 Z-21.83
N15390 Y515.821 Z-22.468
N15395 Y519.569 Z-23.056
N15400 Y523.271 Z-23.826
N15405 Y526.261 Z-24.683
N15410 Y529.305 Z-25.891
N15415 Y531.558 Z-27.162
N15420 Y533.006 Z-28.273
N15425 Y534.225 Z-29.557
N15430 Y534.879 Z-30.515
N15435 Y535.46 Z-31.836
N15440 Y535.727 Z-33.06
N15445 Y535.775 Z-38.538
N15450 Y555.028
N15455 G3 Y555.448 Z-38.441 J0. K0.952
N15460 G2 Y555.867 Z-38.343 J0.419 K-0.855
N15465 G1 Y560.013
N15470 G17 G3 X71.01 I-1.5 J0.
N15475 G19 G3 Y559.594 Z-38.441 J0. K-0.952
N15480 G2 Y559.175 Z-38.538 J-0.419 K0.855
N15485 G1 Y541.08
N15490 Y541.035 Z-32.399
N15495 Y540.769 Z-31.108
N15500 Y540.069 Z-29.535
N15505 Y539.077 Z-28.202
N15510 Y537.596 Z-26.828
N15515 Y535.705 Z-25.575
N15520 Y533.008 Z-24.298
N15525 Y530.158 Z-23.341
N15530 Y527.227 Z-22.613
N15535 Y522.847 Z-21.833
N15540 Y518.233 Z-21.277
N15545 Y511.982 Z-20.796
N15550 Y502.885 Z-20.408
N15555 Y489.711 Z-20.152
N15560 Y461.902 Z-20.049
N15565 Y369.971 Z-20.09
N15570 Y243.649 Z-19.765
N15575 Y183.975 Z-19.874
N15580 Y140.963 Z-20.254
N15585 Y118.876 Z-20.669
N15590 Y89.427 Z-21.638
N15595 Y74.419 Z-22.27
N15600 Y58.504 Z-23.087
N15605 Y44.781 Z-23.989
N15610 Y34.954 Z-24.779
N15615 Y26.657 Z-25.627
N15620 Y23.271 Z-26.045
N15625 Y21.931 Z-26.361
N15630 Y20.318 Z-27.042
N15635 Y18.741 Z-28.036
N15640 Y17.017 Z-29.509
N15645 Y15.429 Z-31.325
N15650 Y14.344 Z-33.03
N15655 Y13.463 Z-35.077
N15660 Y12.952 Z-37.147
N15665 Y12.794 Z-38.538
N15670 Y0.896
N15675 G2 Y0.477 Z-38.441 J0. K0.952
N15680 G3 Y0.057 Z-38.343 J-0.419 K-0.855
N15685 G1 Y-1.59
N15690 G17 G2 X68.01 I-1.5 J0.
N15695 G19 G2 Y-1.17 Z-38.441 J0. K-0.952
N15700 G3 Y-0.751 Z-38.538 J0.419 K0.855
N15705 G1 Y10.851
N15710 Y10.891 Z-38.129
N15715 Y11.282 Z-35.815
N15720 Y12.021 Z-33.68
N15725 Y13.027 Z-31.821
N15730 Y14.44 Z-29.97
N15735 Y15.903 Z-28.557
N15740 Y17.877 Z-27.113
N15745 Y19.753 Z-26.038
N15750 Y21.031 Z-25.464
N15755 Y21.691 Z-25.224
N15760 Y23.369 Z-24.823
N15765 Y30.656 Z-24.159
N15770 Y40.675 Z-23.437
N15775 Y55.367 Z-22.541
N15780 Y74.283 Z-21.636
N15785 Y95.09 Z-20.861
N15790 Y126.09 Z-19.991
N15795 Y164.839 Z-19.567
N15800 Y219.088 Z-19.396
N15805 Y391.51 Z-19.765
N15810 Y481.363 Z-19.522
N15815 Y502.287 Z-19.627
N15820 Y513.137 Z-19.891
N15825 Y520.087 Z-20.249
N15830 Y524.626 Z-20.642
N15835 Y529.701 Z-21.311
N15840 Y533.958 Z-22.195
N15845 Y537.198 Z-23.194
N15850 Y539.415 Z-24.136
N15855 Y541.212 Z-25.139
N15860 Y542.991 Z-26.479
N15865 Y544.357 Z-27.972
N15870 Y545.172 Z-29.307
N15875 Y545.56 Z-30.271
N15880 Y545.869 Z-31.778
N15885 Y545.907 Z-38.538
N15890 Y562.997
N15895 G3 Y563.416 Z-38.441 J0. K0.952
N15900 G2 Y563.835 Z-38.343 J0.419 K-0.855
N15905 G1 Y567.374
N15910 G17 G3 X65.011 I-1.5 J0.
N15915 G19 G3 Y566.955 Z-38.441 J0. K-0.952
N15920 G2 Y566.535 Z-38.538 J-0.419 K0.855
N15925 G1 Y550.318
N15930 Y550.281 Z-31.131
N15935 Y550.067 Z-29.921
N15940 Y549.486 Z-28.396
N15945 Y548.544 Z-26.931
N15950 Y547.308 Z-25.61
N15955 Y545.471 Z-24.22
N15960 Y543.237 Z-23.03
N15965 Y540.566 Z-22.003
N15970 Y537.287 Z-21.118
N15975 Y532.816 Z-20.316
N15980 Y528.293 Z-19.806
N15985 Y523.74 Z-19.482
N15990 Y516.015 Z-19.178
N15995 Y501.484 Z-18.999
N16000 Y460.216 Z-19.197
N16005 Y398.217 Z-19.453
N16010 Y325.442 Z-19.329
N16015 Y211.519 Z-19.065
N16020 Y158.045 Z-19.227
N16025 Y122.444 Z-19.617
N16030 Y87.522 Z-20.617
N16035 Y67.126 Z-21.392
N16040 Y49.317 Z-22.252
N16045 Y32.049 Z-23.279
N16050 Y23.717 Z-23.908
N16055 Y21.699 Z-24.319
N16060 Y18.802 Z-25.427
N16065 Y17.257 Z-26.197
N16070 Y16.051 Z-26.914
N16075 Y14.135 Z-28.358
N16080 Y12.488 Z-30.029
N16085 Y11.096 Z-31.976
N16090 Y10.077 Z-34.049
N16095 Y9.407 Z-36.27
N16100 Y9.102 Z-38.538
N16105 Y-2.269
N16110 G2 Y-2.689 Z-38.441 J0. K0.952
N16115 G3 Y-3.108 Z-38.343 J-0.419 K-0.855
N16120 G1 Y-4.491
N16125 G17 G2 X62.011 I-1.5 J0.
N16130 G19 G2 Y-4.072 Z-38.441 J0. K-0.952
N16135 G3 Y-3.653 Z-38.538 J0.419 K0.855
N16140 G1 Y7.512
N16145 Y7.726 Z-36.795
N16150 Y8.28 Z-34.671
N16155 Y9.024 Z-32.877
N16160 Y10.157 Z-30.949
N16165 Y11.612 Z-29.154
N16170 Y13.354 Z-27.543
N16175 Y15.451 Z-26.105
N16180 Y17.819 Z-24.928
N16185 Y20.934 Z-23.847
N16190 Y23.415 Z-23.27
N16195 Y30.57 Z-22.759
N16200 Y47.661 Z-21.804
N16205 Y65.158 Z-20.987
N16210 Y85.966 Z-20.216
N16215 Y121.616 Z-19.239
N16220 Y152.615 Z-18.915
N16225 Y206.864 Z-18.769
N16230 Y367.286 Z-19.188
N16235 Y425.449 Z-19.103
N16240 Y503.722 Z-18.492
N16245 Y519.416 Z-18.557
N16250 Y528.909 Z-18.874
N16255 Y533.461 Z-19.198
N16260 Y537.229 Z-19.623
N16265 Y541.335 Z-20.332
N16270 Y544.966 Z-21.319
N16275 Y547.565 Z-22.365
N16280 Y549.68 Z-23.546
N16285 Y551.391 Z-24.88
N16290 Y552.587 Z-26.192
N16295 Y553.518 Z-27.683
N16300 Y554.132 Z-29.358
N16305 Y554.321 Z-30.476
N16310 Y554.359 Z-38.538
N16315 Y569.821
N16320 G3 Y570.24 Z-38.441 J0. K0.952
N16325 G2 Y570.659 Z-38.343 J0.419 K-0.855
N16330 G1 Y573.715
N16335 G17 G3 X59.011 I-1.5 J0.
N16340 G19 G3 Y573.296 Z-38.441 J0. K-0.952
N16345 G2 Y572.877 Z-38.538 J-0.419 K0.855
N16350 G1 Y558.073
N16355 Y558.031 Z-29.821
N16360 Y557.668 Z-28.093
N16365 Y557.164 Z-26.864
N16370 Y556.523 Z-25.786
N16375 Y555.677 Z-24.725
N16380 Y554.664 Z-23.749
N16385 Y553.525 Z-22.879
N16390 Y551.813 Z-21.857
N16395 Y549.552 Z-20.858
N16400 Y546.677 Z-19.96
N16405 Y542.6 Z-19.141
N16410 Y539.17 Z-18.701
N16415 Y533.126 Z-18.264
N16420 Y524.601 Z-18.021
N16425 Y508.544 Z-18.019
N16430 Y442.453 Z-18.744
N16435 Y392.079 Z-18.953
N16440 Y318.464 Z-18.818
N16445 Y199.116 Z-18.501
N16450 Y145.739 Z-18.648
N16455 Y120.068 Z-18.925
N16460 Y86.744 Z-19.785
N16465 Y65.095 Z-20.55
N16470 Y48.898 Z-21.275
N16475 Y29.427 Z-22.312
N16480 Y23.865 Z-22.681
N16485 Y21.427 Z-23.13
N16490 Y18.375 Z-23.974
N16495 Y15.892 Z-24.966
N16500 Y13.621 Z-26.24
N16505 Y11.527 Z-27.844
N16510 Y9.659 Z-29.81
N16515 Y8.226 Z-31.881
N16520 Y7.137 Z-34.116
N16525 Y6.415 Z-36.422
N16530 Y6.081 Z-38.538
N16535 Y-4.741
N16540 G2 Y-5.16 Z-38.441 J0. K0.952
N16545 G3 Y-5.579 Z-38.343 J-0.419 K-0.855
N16550 G1 Y-6.181
N16555 G17 G2 X56.012 I-1.5 J0.
N16560 G19 G2 Y-5.762 Z-38.441 J0. K-0.952
N16565 G3 Y-5.343 Z-38.538 J0.419 K0.855
N16570 G1 Y4.928
N16575 Y5.134 Z-37.077
N16580 Y5.681 Z-35.124
N16585 Y6.76 Z-32.649
N16590 Y8.171 Z-30.368
N16595 Y9.764 Z-28.461
N16600 Y11.58 Z-26.812
N16605 Y12.72 Z-25.982
N16610 Y14.056 Z-25.162
N16615 Y16.682 Z-23.945
N16620 Y19.679 Z-23.032
N16625 Y23.029 Z-22.339
N16630 Y24.394 Z-22.191
N16635 Y29.297 Z-21.879
N16640 Y47.306 Z-20.929
N16645 Y63.531 Z-20.208
N16650 Y86.747 Z-19.418
N16655 Y120.071 Z-18.618
N16660 Y144.096 Z-18.383
N16665 Y197.57 Z-18.265
N16670 Y338.617 Z-18.684
N16675 Y404.773 Z-18.712
N16680 Y454.372 Z-18.403
N16685 Y520.245 Z-17.506
N16690 Y532.645 Z-17.546
N16695 Y539.602 Z-17.815
N16700 Y544.238 Z-18.21
N16705 Y547.147 Z-18.625
N16710 Y550.562 Z-19.353
N16715 Y553.675 Z-20.39
N16720 Y555.685 Z-21.355
N16725 Y557.219 Z-22.336
N16730 Y558.682 Z-23.582
N16735 Y559.943 Z-25.093
N16740 Y560.757 Z-26.57
N16745 Y561.29 Z-28.188
N16750 Y561.481 Z-29.672
N16755 Y561.493 Z-38.538
N16760 Y575.724
N16765 G3 Y576.143 Z-38.441 J0. K0.952
N16770 G2 Y576.562 Z-38.343 J0.419 K-0.855
N16775 G1 Y579.218
N16780 G17 G3 X53.012 I-1.5 J0.
N16785 G19 G3 Y578.798 Z-38.441 J0. K-0.952
N16790 G2 Y578.379 Z-38.538 J-0.419 K0.855
N16795 G1 Y564.651
N16800 Y564.599 Z-28.527
N16805 Y564.263 Z-26.875
N16810 Y563.557 Z-25.193
N16815 Y562.57 Z-23.701
N16820 Y561.16 Z-22.255
N16825 Y559.454 Z-21.002
N16830 Y557.213 Z-19.835
N16835 Y554.51 Z-18.872
N16840 Y551.391 Z-18.14
N16845 Y548.774 Z-17.728
N16850 Y545.756 Z-17.412
N16855 Y541.948 Z-17.178
N16860 Y534.198 Z-17.006
N16865 Y519.473 Z-17.132
N16870 Y468.325 Z-18.025
N16875 Y421.051 Z-18.45
N16880 Y361.804 Z-18.549
N16885 Y190.532 Z-18.052
N16890 Y138.608 Z-18.171
N16895 Y118.459 Z-18.38
N16900 Y84.359 Z-19.156
N16905 Y58.084 Z-20.055
N16910 Y42.044 Z-20.805
N16915 Y29.082 Z-21.494
N16920 Y23.347 Z-21.894
N16925 Y19.566 Z-22.593
N16930 Y16.674 Z-23.416
N16935 Y14.211 Z-24.467
N16940 Y12.41 Z-25.506
N16945 Y10.351 Z-27.069
N16950 Y8.575 Z-28.865
N16955 Y7.028 Z-30.941
N16960 Y5.674 Z-33.43
N16965 Y5.032 Z-35.191
N16970 Y4.645 Z-37.354
N16975 Y4.561 Z-38.538
N16980 Y-5.557
N16985 G2 Y-5.977 Z-38.441 J0. K0.952
N16990 G3 Y-6.396 Z-38.343 J-0.419 K-0.855
N16995 G1 Y-6.527
N17000 G17 G2 X50.012 I-1.5 J0.
N17005 G19 G2 Y-6.108 Z-38.441 J0. K-0.952
N17010 G3 Y-5.689 Z-38.538 J0.419 K0.855
N17015 G1 Y4.441
N17020 Y4.543 Z-37.093
N17025 Y4.883 Z-34.848
N17030 Y5.266 Z-33.538
N17035 Y6.28 Z-31.406
N17040 Y7.697 Z-29.252
N17045 Y9.401 Z-27.33
N17050 Y11.425 Z-25.628
N17055 Y13.758 Z-24.195
N17060 Y16.332 Z-23.081
N17065 Y19.221 Z-22.257
N17070 Y23.259 Z-21.544
N17075 Y25.993 Z-21.324
N17080 Y38.745 Z-20.6
N17085 Y56.489 Z-19.779
N17090 Y81.745 Z-18.933
N17095 Y116.135 Z-18.183
N17100 Y136.285 Z-17.971
N17105 Y188.209 Z-17.864
N17110 Y309.106 Z-18.236
N17115 Y387.615 Z-18.381
N17120 Y441.088 Z-18.131
N17125 Y480.613 Z-17.637
N17130 Y528.662 Z-16.627
N17135 Y540.286 Z-16.534
N17140 Y547.261 Z-16.729
N17145 Y550.289 Z-16.95
N17150 Y552.924 Z-17.26
N17155 Y556.266 Z-17.881
N17160 Y559.142 Z-18.745
N17165 Y561.519 Z-19.815
N17170 Y563.077 Z-20.786
N17175 Y563.496 Z-21.094
N17180 Y564.937 Z-22.404
N17185 Y566.019 Z-23.787
N17190 Y566.52 Z-24.642
N17195 Y567.201 Z-26.332
N17200 Y567.527 Z-28.054
N17205 Y567.569 Z-38.538
N17210 Y580.86
N17215 G3 Y581.279 Z-38.441 J0. K0.952
N17220 G2 Y581.699 Z-38.343 J0.419 K-0.855
N17225 G1 Y584.011
N17230 G17 G3 X47.013 I-1.5 J0.
N17235 G19 G3 Y583.592 Z-38.441 J0. K-0.952
N17240 G2 Y583.172 Z-38.538 J-0.419 K0.855
N17245 G1 Y570.266
N17250 Y570.26 Z-28.132
N17255 Y570.058 Z-26.398
N17260 Y569.477 Z-24.566
N17265 Y568.716 Z-23.15
N17270 Y567.467 Z-21.579
N17275 Y565.932 Z-20.228
N17280 Y564.228 Z-19.149
N17285 Y561.872 Z-18.094
N17290 Y559.352 Z-17.333
N17295 Y556.761 Z-16.814
N17300 Y554.51 Z-16.511
N17305 Y551.486 Z-16.263
N17310 Y545.288 Z-16.069
N17315 Y534.438 Z-16.177
N17320 Y487.164 Z-17.329
N17325 Y451.514 Z-17.86
N17330 Y401.141 Z-18.195
N17335 Y333.907 Z-18.169
N17340 Y185.885 Z-17.699
N17345 Y133.961 Z-17.796
N17350 Y112.189 Z-18.039
N17355 Y78.938 Z-18.748
N17360 Y54.931 Z-19.539
N17365 Y38.569 Z-20.283
N17370 Y27.312 Z-20.909
N17375 Y23.199 Z-21.218
N17380 Y18.986 Z-21.935
N17385 Y17.819 Z-22.222
N17390 Y15.697 Z-22.914
N17395 Y13.291 Z-24.016
N17400 Y11.271 Z-25.286
N17405 Y10.429 Z-25.935
N17410 Y8.941 Z-27.308
N17415 Y7.385 Z-29.16
N17420 Y5.999 Z-31.396
N17425 Y5.143 Z-33.366
N17430 Y4.643 Z-35.509
N17435 Y4.335 Z-38.538
N17440 Y-5.797
N17445 G2 Y-6.216 Z-38.441 J0. K0.952
N17450 G3 Y-6.635 Z-38.343 J-0.419 K-0.855
N17455 G1 Y-6.733
N17460 G17 G2 X44.013 I-1.5 J0.
N17465 G19 G2 Y-6.314 Z-38.441 J0. K-0.952
N17470 G3 Y-5.895 Z-38.538 J0.419 K0.855
N17475 G1 Y4.239
N17480 Y4.343 Z-37.137
N17485 Y4.825 Z-34.14
N17490 Y5.463 Z-32.139
N17495 Y6.544 Z-30.035
N17500 Y8.067 Z-27.887
N17505 Y9.858 Z-26.033
N17510 Y11.918 Z-24.455
N17515 Y14.26 Z-23.151
N17520 Y16.873 Z-22.143
N17525 Y19.114 Z-21.562
N17530 Y20.462 Z-21.318
N17535 Y23.849 Z-20.849
N17540 Y34.243 Z-20.21
N17545 Y51.856 Z-19.392
N17550 Y70.414 Z-18.75
N17555 Y101.026 Z-18.041
N17560 Y129.894 Z-17.655
N17565 Y181.237 Z-17.55
N17570 Y352.508 Z-18.078
N17575 Y412.877 Z-18.007
N17580 Y458.601 Z-17.621
N17585 Y497.35 Z-16.939
N17590 Y543.268 Z-15.654
N17595 Y551.793 Z-15.644
N17600 Y556.925 Z-15.93
N17605 Y560.568 Z-16.434
N17610 Y563.624 Z-17.194
N17615 Y566.047 Z-18.154
N17620 Y567.963 Z-19.253
N17625 Y569.416 Z-20.405
N17630 Y570.803 Z-21.939
N17635 Y571.601 Z-23.195
N17640 Y572.327 Z-24.934
N17645 Y572.715 Z-26.865
N17650 Y572.766 Z-38.538
N17655 Y585.308
N17660 G3 Y585.727 Z-38.441 J0. K0.952
N17665 G2 Y586.146 Z-38.343 J0.419 K-0.855
N17670 G1 Y588.159
N17675 G17 G3 X41.014 I-1.5 J0.
N17680 G19 G3 Y587.74 Z-38.441 J0. K-0.952
N17685 G2 Y587.321 Z-38.538 J-0.419 K0.855
N17690 G1 Y575.083
N17695 Y575.034 Z-26.356
N17700 Y574.661 Z-24.42
N17705 Y573.966 Z-22.702
N17710 Y572.881 Z-21.026
N17715 Y571.768 Z-19.817
N17720 Y570.666 Z-18.9
N17725 Y568.591 Z-17.636
N17730 Y566.757 Z-16.854
N17735 Y565.331 Z-16.405
N17740 Y563.872 Z-16.041
N17745 Y560.884 Z-15.555
N17750 Y557.863 Z-15.292
N17755 Y552.438 Z-15.163
N17760 Y542.363 Z-15.369
N17765 Y509.039 Z-16.474
N17770 Y476.49 Z-17.206
N17775 Y438.516 Z-17.699
N17780 Y385.817 Z-17.958
N17785 Y308.802 Z-17.838
N17790 Y181.704 Z-17.424
N17795 Y129.005 Z-17.518
N17800 Y97.231 Z-17.935
N17805 Y67.782 Z-18.613
N17810 Y50.758 Z-19.196
N17815 Y34.449 Z-19.942
N17820 Y24.723 Z-20.526
N17825 Y23.357 Z-20.641
N17830 Y20.648 Z-20.997
N17835 Y19.297 Z-21.223
N17840 Y17.959 Z-21.519
N17845 Y15.864 Z-22.156
N17850 Y13.373 Z-23.252
N17855 Y11.111 Z-24.67
N17860 Y9.13 Z-26.379
N17865 Y7.572 Z-28.182
N17870 Y6.17 Z-30.379
N17875 Y5.177 Z-32.602
N17880 Y4.72 Z-34.28
N17885 Y4.31 Z-36.712
N17890 Y4.151 Z-38.538
N17895 Y-5.983
N17900 G2 Y-6.402 Z-38.441 J0. K0.952
N17905 G3 Y-6.821 Z-38.343 J-0.419 K-0.855
N17910 G1 Y-6.9
N17915 G17 G2 X38.014 I-1.5 J0.
N17920 G19 G2 Y-6.481 Z-38.441 J0. K-0.952
N17925 G3 Y-6.061 Z-38.538 J0.419 K0.855
N17930 G1 Y4.081
N17935 Y4.111 Z-38.077
N17940 Y4.525 Z-34.916
N17945 Y4.862 Z-33.42
N17950 Y5.112 Z-32.544
N17955 Y5.882 Z-30.672
N17960 Y7.196 Z-28.412
N17965 Y8.39 Z-26.869
N17970 Y9.37 Z-25.835
N17975 Y10.43 Z-24.892
N17980 Y11.274 Z-24.244
N17985 Y13.445 Z-22.913
N17990 Y15.946 Z-21.838
N17995 Y18.823 Z-21.05
N18000 Y21.568 Z-20.627
N18005 Y24.627 Z-20.31
N18010 Y32.939 Z-19.801
N18015 Y46.932 Z-19.142
N18020 Y63.906 Z-18.538
N18025 Y91.805 Z-17.878
N18030 Y126.68 Z-17.408
N18035 Y179.379 Z-17.312
N18040 Y320.426 Z-17.768
N18045 Y391.158 Z-17.833
N18050 Y442.307 Z-17.539
N18055 Y477.956 Z-17.045
N18060 Y511.281 Z-16.254
N18065 Y549.862 Z-14.849
N18070 Y557.224 Z-14.732
N18075 Y561.887 Z-14.91
N18080 Y564.477 Z-15.2
N18085 Y566.077 Z-15.479
N18090 Y568.689 Z-16.187
N18095 Y570.738 Z-17.037
N18100 Y572.482 Z-18.065
N18105 Y573.903 Z-19.207
N18110 Y575.275 Z-20.764
N18115 Y576.24 Z-22.385
N18120 Y576.899 Z-24.211
N18125 Y577.19 Z-25.953
N18130 Y577.227 Z-38.538
N18135 Y589.202
N18140 G3 Y589.621 Z-38.441 J0. K0.952
N18145 G2 Y590.04 Z-38.343 J0.419 K-0.855
N18150 G1 Y591.778
N18155 G17 G3 X35.014 I-1.5 J0.
N18160 G19 G3 Y591.359 Z-38.441 J0. K-0.952
N18165 G2 Y590.94 Z-38.538 J-0.419 K0.855
N18170 G1 Y579.215
N18175 Y579.161 Z-25.234
N18180 Y578.782 Z-23.293
N18185 Y578.048 Z-21.466
N18190 Y576.957 Z-19.785
N18195 Y575.904 Z-18.633
N18200 Y574.204 Z-17.287
N18205 Y572.28 Z-16.231
N18210 Y569.771 Z-15.329
N18215 Y567.064 Z-14.751
N18220 Y563.485 Z-14.393
N18225 Y558.854 Z-14.308
N18230 Y551.144 Z-14.536
N18235 Y518.212 Z-15.89
N18240 Y487.213 Z-16.737
N18245 Y453.114 Z-17.305
N18250 Y405.065 Z-17.684
N18255 Y341.352 Z-17.729
N18260 Y175.506 Z-17.212
N18265 Y124.357 Z-17.319
N18270 Y88.708 Z-17.797
N18275 Y61.196 Z-18.453
N18280 Y46.149 Z-18.992
N18285 Y32.943 Z-19.61
N18290 Y24.628 Z-20.117
N18295 Y20.55 Z-20.535
N18300 Y17.483 Z-21.127
N18305 Y14.91 Z-21.98
N18310 Y12.502 Z-23.174
N18315 Y10.418 Z-24.635
N18320 Y8.594 Z-26.374
N18325 Y7.094 Z-28.306
N18330 Y5.797 Z-30.615
N18335 Y4.981 Z-32.757
N18340 Y4.29 Z-35.955
N18345 Y4.014 Z-38.538
N18350 Y-6.131
N18355 G2 Y-6.55 Z-38.441 J0. K0.952
N18360 G3 Y-6.97 Z-38.343 J-0.419 K-0.855
N18365 G1 Y-7.031
N18370 G17 G2 X32.015 I-1.5 J0.
N18375 G19 G2 Y-6.611 Z-38.441 J0. K-0.952
N18380 G3 Y-6.192 Z-38.538 J0.419 K0.855
N18385 G1 Y3.96
N18390 Y4.368 Z-35.219
N18395 Y5.108 Z-32.144
N18400 Y6.091 Z-29.811
N18405 Y7.446 Z-27.58
N18410 Y8.329 Z-26.453
N18415 Y9.301 Z-25.41
N18420 Y10.157 Z-24.626
N18425 Y12.21 Z-23.131
N18430 Y14.519 Z-21.928
N18435 Y17.038 Z-21.043
N18440 Y19.126 Z-20.567
N18445 Y20.478 Z-20.359
N18450 Y23.192 Z-20.072
N18455 Y31.462 Z-19.526
N18460 Y44.61 Z-18.898
N18465 Y60.032 Z-18.343
N18470 Y87.156 Z-17.704
N18475 Y122.806 Z-17.241
N18480 Y172.405 Z-17.127
N18485 Y348.326 Z-17.655
N18490 Y410.248 Z-17.565
N18495 Y456.747 Z-17.154
N18500 Y489.296 Z-16.577
N18505 Y519.521 Z-15.712
N18510 Y546.415 Z-14.553
N18515 Y559.119 Z-13.962
N18520 Y564.544 Z-13.908
N18525 Y566.833 Z-14.017
N18530 Y568.34 Z-14.162
N18535 Y570.017 Z-14.418
N18540 Y572.61 Z-15.078
N18545 Y574.787 Z-15.982
N18550 Y576.654 Z-17.141
N18555 Y577.758 Z-18.077
N18560 Y579.111 Z-19.64
N18565 Y580.012 Z-21.161
N18570 Y580.665 Z-22.903
N18575 Y581.009 Z-24.786
N18580 Y581.057 Z-38.538
N18585 Y592.58
N18590 G3 Y592.999 Z-38.441 J0. K0.952
N18595 G2 Y593.419 Z-38.343 J0.419 K-0.855
N18600 G1 Y594.925
N18605 G17 G3 X29.015 I-1.5 J0.
N18610 G19 G3 Y594.506 Z-38.441 J0. K-0.952
N18615 G2 Y594.087 Z-38.538 J-0.419 K0.855
N18620 G1 Y582.762
N18625 Y582.717 Z-24.319
N18630 Y582.462 Z-22.745
N18635 Y581.881 Z-20.987
N18640 Y581.017 Z-19.387
N18645 Y579.945 Z-18.015
N18650 Y578.662 Z-16.819
N18655 Y577.168 Z-15.798
N18660 Y575.161 Z-14.84
N18665 Y574.469 Z-14.592
N18670 Y573.034 Z-14.182
N18675 Y571.559 Z-13.883
N18680 Y570.06 Z-13.68
N18685 Y568.548 Z-13.559
N18690 Y566.227 Z-13.487
N18695 Y560.802 Z-13.624
N18700 Y529.92 Z-15.182
N18705 Y502.83 Z-16.128
N18710 Y470.28 Z-16.853
N18715 Y427.656 Z-17.367
N18720 Y372.632 Z-17.585
N18725 Y280.897 Z-17.389
N18730 Y173.175 Z-17.056
N18735 Y122.801 Z-17.164
N18740 Y86.377 Z-17.614
N18745 Y59.252 Z-18.243
N18750 Y44.584 Z-18.763
N18755 Y32.835 Z-19.313
N18760 Y23.838 Z-19.872
N18765 Y20.44 Z-20.206
N18770 Y18.163 Z-20.594
N18775 Y15.439 Z-21.382
N18780 Y13.073 Z-22.446
N18785 Y11.011 Z-23.757
N18790 Y9.095 Z-25.429
N18795 Y8.289 Z-26.313
N18800 Y7.405 Z-27.454
N18805 Y6.073 Z-29.676
N18810 Y5.092 Z-32.037
N18815 Y4.49 Z-34.372
N18820 Y4.112 Z-36.621
N18825 Y3.913 Z-38.538
N18830 Y-6.245
N18835 G2 Y-6.664 Z-38.441 J0. K0.952
N18840 G3 Y-7.083 Z-38.343 J-0.419 K-0.855
N18845 G1 Y-7.128
N18850 G17 G2 X26.015 I-1.5 J0.
N18855 G19 G2 Y-6.709 Z-38.441 J0. K-0.952
N18860 G3 Y-6.289 Z-38.538 J0.419 K0.855
N18865 G1 Y3.879
N18870 Y3.962 Z-37.659
N18875 Y4.439 Z-34.443
N18880 Y4.96 Z-32.338
N18885 Y5.372 Z-31.12
N18890 Y6.525 Z-28.689
N18895 Y7.616 Z-27.011
N18900 Y8.522 Z-25.891
N18905 Y9.018 Z-25.354
N18910 Y10.512 Z-23.99
N18915 Y12.555 Z-22.584
N18920 Y14.792 Z-21.485
N18925 Y16.743 Z-20.81
N18930 Y19.252 Z-20.246
N18935 Y23.495 Z-19.785
N18940 Y33.186 Z-19.177
N18945 Y44.912 Z-18.636
N18950 Y60.386 Z-18.105
N18955 Y86.735 Z-17.521
N18960 Y123.159 Z-17.097
N18965 Y173.533 Z-16.996
N18970 Y292.106 Z-17.367
N18975 Y376.822 Z-17.51
N18980 Y431.071 Z-17.261
N18985 Y471.37 Z-16.747
N18990 Y504.694 Z-15.977
N18995 Y530.989 Z-15.02
N19000 Y553.904 Z-13.815
N19005 Y565.437 Z-13.16
N19010 Y569.118 Z-13.097
N19015 Y571.601 Z-13.215
N19020 Y573.475 Z-13.448
N19025 Y575.943 Z-14.036
N19030 Y578.086 Z-14.902
N19035 Y579.953 Z-16.056
N19040 Y581.048 Z-16.986
N19045 Y582.298 Z-18.423
N19050 Y583.298 Z-20.109
N19055 Y583.927 Z-21.796
N19060 Y584.287 Z-23.744
N19065 Y584.34 Z-38.538
N19070 Y595.504
N19075 G3 Y595.923 Z-38.441 J0. K0.952
N19080 G2 Y596.342 Z-38.343 J0.419 K-0.855
N19085 G1 Y597.648
N19090 G17 G3 X23.016 I-1.5 J0.
N19095 G19 G3 Y597.228 Z-38.441 J0. K-0.952
N19100 G2 Y596.809 Z-38.538 J-0.419 K0.855
N19105 G1 Y585.799
N19110 Y585.754 Z-23.346
N19115 Y585.378 Z-21.265
N19120 Y584.7 Z-19.478
N19125 Y583.762 Z-17.913
N19130 Y582.534 Z-16.493
N19135 Y580.988 Z-15.231
N19140 Y579.237 Z-14.237
N19145 Y577.064 Z-13.433
N19150 Y574.587 Z-12.93
N19155 Y571.545 Z-12.716
N19160 Y568.445 Z-12.764
N19165 Y560.036 Z-13.271
N19170 Y538.036 Z-14.581
N19175 Y514.076 Z-15.589
N19180 Y486.176 Z-16.372
N19185 Y448.202 Z-17.013
N19190 Y400.153 Z-17.385
N19195 Y333.814 Z-17.429
N19200 Y171.067 Z-16.943
N19205 Y121.468 Z-17.055
N19210 Y85.044 Z-17.476
N19215 Y58.695 Z-18.066
N19220 Y43.252 Z-18.609
N19225 Y31.619 Z-19.165
