%
(TUESDAY_2)
(T2  D=3. CR=0. - ZMIN=-15.5 - FLAT END MILL)
N10 G90 G94 G17 G91.1
N15 G21
N20 G53 G0 Z0.
(2D POCKET3)
N25 M9
N30 T2 M6
N35 S24000 M3
N40 G54
N45 M8
N50 G0 X201.408 Y37.657
N55 G43 Z20. H2
N60 G0 Z-7.
N65 G1 Z-10. F150.
N70 Z-13.
N75 Y37.634
N80 Y36.661 F350.
N85 G2 X201.089 Y36.342 I-0.319 J0.
N90 G1 X55.011
N95 G2 X54.692 Y36.661 I0. J0.319
N100 G1 Y37.637
N105 Y37.649 F150.
N110 G19 G3 Y37.949 Z-12.7 J0. K0.3
N115 G0 Z5.
N120 X203.805 Y37.652
N125 Z-7.
N130 G1 Z-10. F80.
N135 Z-13. F150.
N140 Y37.641
N145 Y34.264 F350.
N150 G17 G2 X203.486 Y33.945 I-0.319 J0.
N155 G1 X52.614
N160 G2 X52.295 Y34.264 I0. J0.319
N165 G1 Y120.236
N170 G2 X52.614 Y120.555 I0.319 J0.
N175 G1 X53.893
N180 G3 X55.691 Y121.753 I0. J1.947
N185 G2 X57.488 Y122.952 I1.797 J-0.749
N190 G1 X205.882
N195 G2 X206.202 Y122.632 I0. J-0.319
N200 G1 Y31.868
N205 G2 X205.882 Y31.548 I-0.319 J0.
N210 G1 X50.218
N215 G2 X49.898 Y31.868 I0. J0.319
N220 G1 Y122.632
N225 G2 X50.218 Y122.952 I0.319 J0.
N230 G1 X57.488
N235 G3 X59.286 Y124.15 I0. J1.947
N240 G2 X61.083 Y125.348 I1.797 J-0.749
N245 G1 X208.279
N250 G2 X208.598 Y125.029 I0. J-0.319
N255 G1 Y29.471
N260 G2 X208.279 Y29.152 I-0.319 J0.
N265 G1 X47.821
N270 G2 X47.502 Y29.471 I0. J0.319
N275 G1 Y125.029
N280 G2 X47.821 Y125.348 I0.319 J0.
N285 G1 X61.083
N290 G3 X62.884 Y126.549 I0. J1.951
N295 G2 X64.686 Y127.75 I1.801 J-0.751
N300 G1 X211.
N305 Y26.75
N310 X45.1
N315 Y127.75
N320 X64.686
N325 G3 X65.061 Y128. I0. J0.406
N330 G2 X65.436 Y128.25 I0.375 J-0.156
N335 G1 X211.5
N340 Y26.25
N345 X44.6
N350 Y128.25
N355 X65.436
N360 X65.493 Y128.245 Z-12.989 F150.
N365 X65.548 Y128.228 Z-12.977
N370 X65.591 Y128.207 Z-12.945
N375 X65.631 Y128.178 Z-12.912
N380 X65.675 Y128.131 Z-12.815
N385 X65.688 Y128.112 Z-12.7
N390 G0 Z5.
N395 X201.408 Y37.657
N400 Z-7.
N405 G1 Z-11. F80.
N410 Z-14. F150.
N415 Y37.634
N420 Y36.661 F350.
N425 G2 X201.089 Y36.342 I-0.319 J0.
N430 G1 X55.011
N435 G2 X54.692 Y36.661 I0. J0.319
N440 G1 Y37.637
N445 Y37.649 F150.
N450 G19 G3 Y37.949 Z-13.7 J0. K0.3
N455 G0 Z5.
N460 X203.805 Y37.652
N465 Z-7.
N470 G1 Z-11. F80.
N475 Z-14. F150.
N480 Y37.641
N485 Y34.264 F350.
N490 G17 G2 X203.486 Y33.945 I-0.319 J0.
N495 G1 X52.614
N500 G2 X52.295 Y34.264 I0. J0.319
N505 G1 Y120.236
N510 G2 X52.614 Y120.555 I0.319 J0.
N515 G1 X53.893
N520 G3 X55.691 Y121.753 I0. J1.947
N525 G2 X57.488 Y122.952 I1.797 J-0.749
N530 G1 X205.882
N535 G2 X206.202 Y122.632 I0. J-0.319
N540 G1 Y31.868
N545 G2 X205.882 Y31.548 I-0.319 J0.
N550 G1 X50.218
N555 G2 X49.898 Y31.868 I0. J0.319
N560 G1 Y122.632
N565 G2 X50.218 Y122.952 I0.319 J0.
N570 G1 X57.488
N575 G3 X59.286 Y124.15 I0. J1.947
N580 G2 X61.083 Y125.348 I1.797 J-0.749
N585 G1 X208.279
N590 G2 X208.598 Y125.029 I0. J-0.319
N595 G1 Y29.471
N600 G2 X208.279 Y29.152 I-0.319 J0.
N605 G1 X47.821
N610 G2 X47.502 Y29.471 I0. J0.319
N615 G1 Y125.029
N620 G2 X47.821 Y125.348 I0.319 J0.
N625 G1 X61.083
N630 G3 X62.884 Y126.549 I0. J1.951
N635 G2 X64.686 Y127.75 I1.801 J-0.751
N640 G1 X211.
N645 Y26.75
N650 X45.1
N655 Y127.75
N660 X64.686
N665 G3 X65.061 Y128. I0. J0.406
N670 G2 X65.436 Y128.25 I0.375 J-0.156
N675 G1 X211.5
N680 Y26.25
N685 X44.6
N690 Y128.25
N695 X65.436
N700 X65.493 Y128.245 Z-13.989 F150.
N705 X65.548 Y128.228 Z-13.977
N710 X65.591 Y128.207 Z-13.945
N715 X65.631 Y128.178 Z-13.912
N720 X65.675 Y128.131 Z-13.815
N725 X65.688 Y128.112 Z-13.7
N730 G0 Z5.
N735 X201.408 Y37.657
N740 Z-7.
N745 G1 Z-12. F80.
N750 Z-15. F150.
N755 Y37.634
N760 Y36.661 F350.
N765 G2 X201.089 Y36.342 I-0.319 J0.
N770 G1 X55.011
N775 G2 X54.692 Y36.661 I0. J0.319
N780 G1 Y37.637
N785 Y37.649 F150.
N790 G19 G3 Y37.949 Z-14.7 J0. K0.3
N795 G0 Z5.
N800 X203.805 Y37.652
N805 Z-7.
N810 G1 Z-12. F80.
N815 Z-15. F150.
N820 Y37.641
N825 Y34.264 F350.
N830 G17 G2 X203.486 Y33.945 I-0.319 J0.
N835 G1 X52.614
N840 G2 X52.295 Y34.264 I0. J0.319
N845 G1 Y120.236
N850 G2 X52.614 Y120.555 I0.319 J0.
N855 G1 X53.893
N860 G3 X55.691 Y121.753 I0. J1.947
N865 G2 X57.488 Y122.952 I1.797 J-0.749
N870 G1 X205.882
N875 G2 X206.202 Y122.632 I0. J-0.319
N880 G1 Y31.868
N885 G2 X205.882 Y31.548 I-0.319 J0.
N890 G1 X50.218
N895 G2 X49.898 Y31.868 I0. J0.319
N900 G1 Y122.632
N905 G2 X50.218 Y122.952 I0.319 J0.
N910 G1 X57.488
N915 G3 X59.286 Y124.15 I0. J1.947
N920 G2 X61.083 Y125.348 I1.797 J-0.749
N925 G1 X208.279
N930 G2 X208.598 Y125.029 I0. J-0.319
N935 G1 Y29.471
N940 G2 X208.279 Y29.152 I-0.319 J0.
N945 G1 X47.821
N950 G2 X47.502 Y29.471 I0. J0.319
N955 G1 Y125.029
N960 G2 X47.821 Y125.348 I0.319 J0.
N965 G1 X61.083
N970 G3 X62.884 Y126.549 I0. J1.951
N975 G2 X64.686 Y127.75 I1.801 J-0.751
N980 G1 X211.
N985 Y26.75
N990 X45.1
N995 Y127.75
N1000 X64.686
N1005 G3 X65.061 Y128. I0. J0.406
N1010 G2 X65.436 Y128.25 I0.375 J-0.156
N1015 G1 X211.5
N1020 Y26.25
N1025 X44.6
N1030 Y128.25
N1035 X65.436
N1040 X65.493 Y128.245 Z-14.989 F150.
N1045 X65.548 Y128.228 Z-14.977
N1050 X65.591 Y128.207 Z-14.945
N1055 X65.631 Y128.178 Z-14.912
N1060 X65.675 Y128.131 Z-14.815
N1065 X65.688 Y128.112 Z-14.7
N1070 G0 Z5.
N1075 X201.408 Y37.657
N1080 Z-7.
N1085 G1 Z-13. F80.
N1090 Z-15.5 F150.
N1095 Y37.634
N1100 Y36.661 F350.
N1105 G2 X201.089 Y36.342 I-0.319 J0.
N1110 G1 X55.011
N1115 G2 X54.692 Y36.661 I0. J0.319
N1120 G1 Y37.637
N1125 Y37.649 F150.
N1130 G19 G3 Y37.949 Z-15.2 J0. K0.3
N1135 G0 Z5.
N1140 X203.805 Y37.652
N1145 Z-7.
N1150 G1 Z-13. F80.
N1155 Z-15.5 F150.
N1160 Y37.641
N1165 Y34.264 F350.
N1170 G17 G2 X203.486 Y33.945 I-0.319 J0.
N1175 G1 X52.614
N1180 G2 X52.295 Y34.264 I0. J0.319
N1185 G1 Y120.236
N1190 G2 X52.614 Y120.555 I0.319 J0.
N1195 G1 X53.893
N1200 G3 X55.691 Y121.753 I0. J1.947
N1205 G2 X57.488 Y122.952 I1.797 J-0.749
N1210 G1 X205.882
N1215 G2 X206.202 Y122.632 I0. J-0.319
N1220 G1 Y31.868
N1225 G2 X205.882 Y31.548 I-0.319 J0.
N1230 G1 X50.218
N1235 G2 X49.898 Y31.868 I0. J0.319
N1240 G1 Y122.632
N1245 G2 X50.218 Y122.952 I0.319 J0.
N1250 G1 X57.488
N1255 G3 X59.286 Y124.15 I0. J1.947
N1260 G2 X61.083 Y125.348 I1.797 J-0.749
N1265 G1 X208.279
N1270 G2 X208.598 Y125.029 I0. J-0.319
N1275 G1 Y29.471
N1280 G2 X208.279 Y29.152 I-0.319 J0.
N1285 G1 X47.821
N1290 G2 X47.502 Y29.471 I0. J0.319
N1295 G1 Y125.029
N1300 G2 X47.821 Y125.348 I0.319 J0.
N1305 G1 X61.083
N1310 G3 X62.884 Y126.549 I0. J1.951
N1315 G2 X64.686 Y127.75 I1.801 J-0.751
N1320 G1 X211.
N1325 Y26.75
N1330 X45.1
N1335 Y127.75
N1340 X64.686
N1345 G3 X65.061 Y128. I0. J0.406
N1350 G2 X65.436 Y128.25 I0.375 J-0.156
N1355 G1 X211.5
N1360 Y26.25
N1365 X44.6
N1370 Y128.25
N1375 X65.436
N1380 X65.493 Y128.245 Z-15.489 F150.
N1385 X65.548 Y128.228 Z-15.477
N1390 X65.591 Y128.207 Z-15.445
N1395 X65.631 Y128.178 Z-15.412
N1400 X65.675 Y128.131 Z-15.315
N1405 X65.688 Y128.112 Z-15.2
N1410 G0 Z20.
N1415 M9
N1420 G53 Z0.
N1425 M30
%
