%
(1001)
(6MM END MILL)
(T1  D=6. CR=0. - ZMIN=-6. - FLAT END MILL)
N10 G90 G94 G17 G91.1
N15 G21
N20 G53 G0 Z0.
(2D POCKET1)
N25 M9
N30 T1 M6
N35 S18000 M3
N40 G54
N45 G0 X48.498 Y1367.893
N50 G43 Z15. H1
N55 G0 Z5.
N60 G1 Z-6. F1000.
N65 Y1367.916
N70 G19 G3 Y1368.516 Z-5.4 J0. K0.6
N75 G0 Z5.
N80 X43.6 Y-3.9
N85 G1 Z-5.4 F1000.
N90 G3 Y-3.3 Z-6. J0.6 K0.
N95 G1 Y-2.888
N100 Y1367.892 F4500.
N105 Y1368.103 F1000.
N110 G3 Y1368.703 Z-5.4 J0. K0.6
N115 G0 Z5.
N120 X43.152 Y-3.894
N125 G1 Z-5.46 F1000.
N130 X43.151 Y-3.887 Z-5.544
N135 X43.148 Y-3.867 Z-5.627
N140 X43.143 Y-3.835 Z-5.705
N145 X43.136 Y-3.792 Z-5.777
N150 X43.127 Y-3.737 Z-5.842
N155 X43.117 Y-3.674 Z-5.897
N160 X43.106 Y-3.602 Z-5.941
N165 X43.093 Y-3.525 Z-5.974
N170 X43.08 Y-3.444 Z-5.993
N175 X43.067 Y-3.36 Z-6.
N180 X43.007 Y-2.982
N185 X43. Y-2.888
N190 Y1367.892 F4500.
N195 X43.007 Y1367.986 F1000.
N200 X43.059 Y1368.31
N205 X43.073 Y1368.403 Z-5.993
N210 X43.088 Y1368.494 Z-5.971
N215 X43.101 Y1368.579 Z-5.935
N220 X43.114 Y1368.659 Z-5.885
N225 X43.125 Y1368.729 Z-5.824
N230 X43.135 Y1368.79 Z-5.753
N235 X43.142 Y1368.838 Z-5.672
N240 X43.148 Y1368.874 Z-5.585
N245 X43.151 Y1368.896 Z-5.494
N250 X43.153 Y1368.903 Z-5.4
N255 G0 Z5.
N260 X51.502
N265 G1 Z-5.4 F1000.
N270 G2 Y1368.303 Z-6. J-0.6 K0.
N275 G1 Y1367.891
N280 Y-2.893 F4500.
N285 Y-2.916 F1000.
N290 G2 Y-3.516 Z-5.4 J0. K0.6
N295 G0 Z5.
N300 X56.4 Y1368.9
N305 G1 Z-5.4 F1000.
N310 G2 Y1368.3 Z-6. J-0.6 K0.
N315 G1 Y1367.888
N320 Y-2.892 F4500.
N325 Y-3.103 F1000.
N330 G2 Y-3.703 Z-5.4 J0. K0.6
N335 G0 Z5.
N340 X56.847 Y1368.901
N345 G1 Z-5.46 F1000.
N350 X56.848 Y1368.895 Z-5.544
N355 X56.851 Y1368.875 Z-5.627
N360 X56.856 Y1368.843 Z-5.705
N365 X56.863 Y1368.799 Z-5.777
N370 X56.872 Y1368.745 Z-5.842
N375 X56.882 Y1368.681 Z-5.897
N380 X56.893 Y1368.61 Z-5.941
N385 X56.905 Y1368.533 Z-5.974
N390 X56.918 Y1368.451 Z-5.993
N395 X56.932 Y1368.368 Z-6.
N400 X56.993 Y1367.982
N405 X57. Y1367.888
N410 Y-2.892 F4500.
N415 X56.993 Y-2.986 F1000.
N420 X56.941 Y-3.31
N425 X56.927 Y-3.403 Z-5.993
N430 X56.912 Y-3.494 Z-5.971
N435 X56.899 Y-3.579 Z-5.935
N440 X56.886 Y-3.659 Z-5.885
N445 X56.875 Y-3.729 Z-5.824
N450 X56.865 Y-3.79 Z-5.753
N455 X56.858 Y-3.838 Z-5.672
N460 X56.852 Y-3.874 Z-5.585
N465 X56.849 Y-3.896 Z-5.494
N470 X56.847 Y-3.903 Z-5.4
N475 G0 Z15.
N480 G17
N485 G53 G0 Z0.
N490 M30
%
