%
(1_SLOT_TRIAL)
(6MM END MILL)
(T1  D=6. CR=0. - ZMIN=-6.2 - FLAT END MILL)
N10 G90 G94 G17 G91.1
N15 G21
N20 G53 G0 Z0.
(2D POCKET5)
N25 M9
N30 T1 M6
N35 S18000 M3
N40 G54
N45 G0 X-5.904 Y108.398
N50 G43 Z15. H1
N55 G0 Z5.
N60 G1 Z-1.4 F500.
N65 G18 G2 X-5.304 Z-2. I0.6 K0.
N70 G1 X-2.888
N75 X121.282 F600.
N80 G17 G3 X121.602 Y108.718 I0. J0.319
N85 G1 Y111.282
N90 G3 X121.282 Y111.602 I-0.319 J0.
N95 G1 X-2.896
N100 G2 X-3.196 Y111.902 I0. J0.3
N105 G1 X-3.193 Y116.2
N110 G2 X-2.893 Y116.5 I0.3 J0.
N115 G1 X126.5
N120 Y103.5
N125 X0.
N130 X-2.892
N135 G3 Y103. I0. J-0.25
N140 G1 X127.
N145 Y117.
N150 X0.
N155 X-2.889
N160 G3 X-3.179 Y116.775 I0. J-0.3
N165 G1 X-4.41 Y111.976
N170 G3 X-4.119 Y111.602 I0.291 J-0.075
N175 G18 G3 X-3.519 Z-2.6 I0. K-0.6 F500.
N180 G1 Z-3.4
N185 G2 X-2.919 Z-4. I0.6 K0.
N190 G1 X-2.896
N195 X121.282 F600.
N200 G17 G2 X121.602 Y111.282 I0. J-0.319
N205 G1 Y108.718
N210 G2 X121.282 Y108.398 I-0.319 J0.
N215 G1 X-2.888
N220 G3 X-3.188 Y108.099 I0. J-0.3
N225 G1 X-3.192 Y103.8
N230 G3 X-2.892 Y103.5 I0.3 J0.
N235 G1 X126.5
N240 Y116.5
N245 X0.
N250 X-2.893
N255 G2 X-2.889 Y117. I0.004 J0.25
N260 G1 X127.
N265 Y103.
N270 X0.
N275 X-2.892
N280 G2 X-3.183 Y103.226 I0. J0.3
N285 G1 X-4.402 Y108.024
N290 G2 X-4.112 Y108.398 I0.291 J0.074
N295 G18 G3 X-3.512 Z-4.6 I0. K-0.6 F500.
N300 G1 Z-5.2
N305 G2 X-2.912 Z-5.8 I0.6 K0.
N310 G1 X-2.888
N315 X121.282 F600.
N320 G17 G3 X121.602 Y108.718 I0. J0.319
N325 G1 Y111.282
N330 G3 X121.282 Y111.602 I-0.319 J0.
N335 G1 X-2.896
N340 G2 X-3.196 Y111.902 I0. J0.3
N345 G1 X-3.193 Y116.2
N350 G2 X-2.893 Y116.5 I0.3 J0.
N355 G1 X126.5
N360 Y103.5
N365 X0.
N370 X-2.892
N375 G3 Y103. I0. J-0.25
N380 G1 X127.
N385 Y117.
N390 X0.
N395 X-2.889
N400 X127. Z-5.847 F333.33
N405 Y103. Z-5.853
N410 X-2.892 Z-5.9
N415 X127. Z-5.947
N420 Y117. Z-5.953
N425 X-2.889 Z-6.
N430 X127. F600.
N435 Y103.
N440 X0.
N445 X-2.892
N450 X-2.986 Y103.007 F500.
N455 X-5.278 Y103.37
N460 X-5.371 Y103.385 Z-5.993
N465 X-5.461 Y103.399 Z-5.971
N470 X-5.547 Y103.413 Z-5.935
N475 X-5.626 Y103.426 Z-5.885
N480 X-5.697 Y103.437 Z-5.824
N485 X-5.757 Y103.446 Z-5.753
N490 X-5.806 Y103.454 Z-5.672
N495 X-5.842 Y103.46 Z-5.585
N500 X-5.863 Y103.463 Z-5.494
N505 X-5.871 Y103.464 Z-5.4
N510 G0 Z15.
(2D POCKET5 4)
N515 G0 X-5.904 Y318.398
N520 Z15.
N525 Z5.
N530 G1 Z-1.4 F500.
N535 G18 G2 X-5.304 Z-2. I0.6 K0.
N540 G1 X-2.888
N545 X121.282 F600.
N550 G17 G3 X121.602 Y318.718 I0. J0.319
N555 G1 Y321.482
N560 G3 X121.282 Y321.802 I-0.319 J0.
N565 G1 X-2.893
N570 G2 X-3.193 Y322.102 I0. J0.3
N575 G1 X-3.19 Y326.4
N580 G2 X-2.89 Y326.7 I0.3 J0.
N585 G1 X126.5
N590 Y313.5
N595 X0.
N600 X-2.892
N605 G3 Y313. I0. J-0.25
N610 G1 X127.
N615 Y327.2
N620 X0.
N625 X-2.898
N630 G3 X-3.189 Y326.974 I0. J-0.3
N635 G1 X-4.407 Y322.176
N640 G3 X-4.116 Y321.802 I0.291 J-0.074
N645 G18 G3 X-3.516 Z-2.6 I0. K-0.6 F500.
N650 G1 Z-3.4
N655 G2 X-2.916 Z-4. I0.6 K0.
N660 G1 X-2.893
N665 X121.282 F600.
N670 G17 G2 X121.602 Y321.482 I0. J-0.319
N675 G1 Y318.718
N680 G2 X121.282 Y318.398 I-0.319 J0.
N685 G1 X-2.888
N690 G3 X-3.188 Y318.099 I0. J-0.3
N695 G1 X-3.192 Y313.8
N700 G3 X-2.892 Y313.5 I0.3 J0.
N705 G1 X126.5
N710 Y326.7
N715 X0.
N720 X-2.89
N725 G2 X-3.148 Y326.946 I-0.008 J0.25
N730 X-2.898 Y327.2 I0.25 J0.004
N735 G1 X127.
N740 Y313.
N745 X0.
N750 X-2.892
N755 G2 X-3.183 Y313.226 I0. J0.3
N760 G1 X-4.402 Y318.024
N765 G2 X-4.112 Y318.398 I0.291 J0.074
N770 G18 G3 X-3.512 Z-4.6 I0. K-0.6 F500.
N775 G1 Z-5.4
N780 G2 X-2.912 Z-6. I0.6 K0.
N785 G1 X-2.888
N790 X121.282 F600.
N795 G17 G3 X121.602 Y318.718 I0. J0.319
N800 G1 Y321.482
N805 G3 X121.282 Y321.802 I-0.319 J0.
N810 G1 X-2.893
N815 G2 X-3.193 Y322.102 I0. J0.3
N820 G1 X-3.19 Y326.4
N825 G2 X-2.89 Y326.7 I0.3 J0.
N830 G1 X126.5
N835 Y313.5
N840 X0.
N845 X-2.892
N850 G3 Y313. I0. J-0.25
N855 G1 X127.
N860 Y327.2
N865 X0.
N870 X-2.898
N875 X127. Z-6.047 F333.33
N880 Y313. Z-6.053
N885 X-2.892 Z-6.1
N890 X127. Z-6.147
N895 Y327.2 Z-6.153
N900 X-2.898 Z-6.2
N905 X127. F600.
N910 Y313.
N915 X0.
N920 X-2.892
N925 X-2.986 Y313.007 F500.
N930 X-5.278 Y313.37
N935 X-5.371 Y313.385 Z-6.193
N940 X-5.461 Y313.399 Z-6.171
N945 X-5.547 Y313.413 Z-6.135
N950 X-5.626 Y313.426 Z-6.085
N955 X-5.697 Y313.437 Z-6.024
N960 X-5.757 Y313.446 Z-5.953
N965 X-5.806 Y313.454 Z-5.872
N970 X-5.842 Y313.46 Z-5.785
N975 X-5.863 Y313.463 Z-5.694
N980 X-5.871 Y313.464 Z-5.6
N985 G0 Z15.
(2D POCKET5 2)
N990 G0 X-5.903 Y181.402
N995 Z15.
N1000 Z5.
N1005 G1 Z-1.4 F500.
N1010 G18 G2 X-5.303 Z-2. I0.6 K0.
N1015 G1 X-2.888
N1020 X121.082 F600.
N1025 G17 G2 X121.402 Y181.082 I0. J-0.319
N1030 G1 Y178.918
N1035 G2 X121.082 Y178.598 I-0.319 J0.
N1040 G1 X-2.896
N1045 G3 X-3.196 Y178.298 I0. J-0.3
N1050 G1 X-3.192 Y174.
N1055 G3 X-2.892 Y173.7 I0.3 J0.
N1060 G1 X126.3
N1065 Y186.3
N1070 X0.
N1075 X-2.897
N1080 G2 X-2.893 Y186.8 I0.004 J0.25
N1085 G1 X126.8
N1090 Y173.2
N1095 X0.
N1100 X-2.892
N1105 G2 X-3.183 Y173.426 I0. J0.3
N1110 G1 X-4.41 Y178.224
N1115 G2 X-4.12 Y178.598 I0.291 J0.074
N1120 G18 G3 X-3.52 Z-2.6 I0. K-0.6 F500.
N1125 G1 Z-3.4
N1130 G2 X-2.92 Z-4. I0.6 K0.
N1135 G1 X-2.896
N1140 X121.082 F600.
N1145 G17 G3 X121.402 Y178.918 I0. J0.319
N1150 G1 Y181.082
N1155 G3 X121.082 Y181.402 I-0.319 J0.
N1160 G1 X-2.888
N1165 G2 X-3.188 Y181.701 I0. J0.3
N1170 G1 X-3.197 Y185.999
N1175 Y186.
N1180 G2 X-2.897 Y186.3 I0.3 J0.
N1185 G1 X126.3
N1190 Y173.7
N1195 X0.
N1200 X-2.892
N1205 G3 Y173.2 I0. J-0.25
N1210 G1 X126.8
N1215 Y186.8
N1220 X0.
N1225 X-2.893
N1230 G3 X-3.184 Y186.574 I0. J-0.3
N1235 G1 X-4.402 Y181.776
N1240 G3 X-4.111 Y181.402 I0.291 J-0.074
N1245 G18 G3 X-3.511 Z-4.6 I0. K-0.6 F500.
N1250 G1 Z-5.
N1255 G2 X-2.911 Z-5.6 I0.6 K0.
N1260 G1 X-2.888
N1265 X121.082 F600.
N1270 G17 G2 X121.402 Y181.082 I0. J-0.319
N1275 G1 Y178.918
N1280 G2 X121.082 Y178.598 I-0.319 J0.
N1285 G1 X-2.896
N1290 G3 X-3.196 Y178.298 I0. J-0.3
N1295 G1 X-3.192 Y174.
N1300 G3 X-2.892 Y173.7 I0.3 J0.
N1305 G1 X126.3
N1310 Y186.3
N1315 X0.
N1320 X-2.897
N1325 G2 X-2.893 Y186.8 I0.004 J0.25
N1330 G1 X126.8
N1335 Y173.2
N1340 X0.
N1345 X-2.892
N1350 X126.8 Z-5.695 F333.33
N1355 Y186.8 Z-5.705
N1360 X-2.893 Z-5.8
N1365 X126.8 F600.
N1370 Y173.2
N1375 X0.
N1380 X-2.892
N1385 X-2.986 Y173.207 F500.
N1390 X-5.278 Y173.57
N1395 X-5.371 Y173.585 Z-5.793
N1400 X-5.461 Y173.599 Z-5.771
N1405 X-5.547 Y173.613 Z-5.735
N1410 X-5.626 Y173.626 Z-5.685
N1415 X-5.697 Y173.637 Z-5.624
N1420 X-5.757 Y173.646 Z-5.553
N1425 X-5.806 Y173.654 Z-5.472
N1430 X-5.842 Y173.66 Z-5.385
N1435 X-5.863 Y173.663 Z-5.294
N1440 X-5.871 Y173.664 Z-5.2
N1445 G0 Z15.
(2D POCKET5 3)
N1450 G0 X-5.902 Y251.802
N1455 Z15.
N1460 Z5.
N1465 G1 Z-1.4 F500.
N1470 G18 G2 X-5.302 Z-2. I0.6 K0.
N1475 G1 X-2.892
N1480 X121.482 F600.
N1485 G17 G2 X121.802 Y251.482 I0. J-0.319
N1490 G1 Y248.518
N1495 G2 X121.482 Y248.198 I-0.319 J0.
N1500 G1 X-2.892
N1505 G3 X-3.192 Y247.898 I0. J-0.3
N1510 G1 Y243.6
N1515 G3 X-2.892 Y243.3 I0.3 J0.
N1520 G1 X126.7
N1525 Y256.7
N1530 X0.
N1535 X-2.889
N1540 G2 X-3.147 Y256.946 I-0.008 J0.25
N1545 X-2.897 Y257.2 I0.25 J0.004
N1550 G1 X127.2
N1555 Y242.8
N1560 X0.
N1565 X-2.892
N1570 G2 X-3.183 Y243.026 I0. J0.3
N1575 G1 X-4.406 Y247.824
N1580 G2 X-4.116 Y248.198 I0.291 J0.074
N1585 G18 G3 X-3.516 Z-2.6 I0. K-0.6 F500.
N1590 G1 Z-3.4
N1595 G2 X-2.916 Z-4. I0.6 K0.
N1600 G1 X-2.892
N1605 X121.482 F600.
N1610 G17 G3 X121.802 Y248.518 I0. J0.319
N1615 G1 Y251.482
N1620 G3 X121.482 Y251.802 I-0.319 J0.
N1625 G1 X-2.892
N1630 G2 X-3.192 Y252.102 I0. J0.3
N1635 G1 X-3.189 Y256.4
N1640 G2 X-2.889 Y256.7 I0.3 J0.
N1645 G1 X126.7
N1650 Y243.3
N1655 X0.
N1660 X-2.892
N1665 G3 Y242.8 I0. J-0.25
N1670 G1 X127.2
N1675 Y257.2
N1680 X0.
N1685 X-2.897
N1690 G3 X-3.188 Y256.974 I0. J-0.3
N1695 G1 X-4.406 Y252.176
N1700 G3 X-4.115 Y251.802 I0.291 J-0.074
N1705 G18 G3 X-3.515 Z-4.6 I0. K-0.6 F500.
N1710 G1 Z-5.4
N1715 G2 X-2.915 Z-6. I0.6 K0.
N1720 G1 X-2.892
N1725 X121.482 F600.
N1730 G17 G2 X121.802 Y251.482 I0. J-0.319
N1735 G1 Y248.518
N1740 G2 X121.482 Y248.198 I-0.319 J0.
N1745 G1 X-2.892
N1750 G3 X-3.192 Y247.898 I0. J-0.3
N1755 G1 Y243.6
N1760 G3 X-2.892 Y243.3 I0.3 J0.
N1765 G1 X126.7
N1770 Y256.7
N1775 X0.
N1780 X-2.889
N1785 G2 X-3.147 Y256.946 I-0.008 J0.25
N1790 X-2.897 Y257.2 I0.25 J0.004
N1795 G1 X127.2
N1800 Y242.8
N1805 X0.
N1810 X-2.892
N1815 X127.2 Z-6.095 F333.33
N1820 Y257.2 Z-6.105
N1825 X-2.897 Z-6.2
N1830 X127.2 F600.
N1835 Y242.8
N1840 X0.
N1845 X-2.892
N1850 X-2.986 Y242.807 F500.
N1855 X-5.278 Y243.17
N1860 X-5.371 Y243.185 Z-6.193
N1865 X-5.461 Y243.199 Z-6.171
N1870 X-5.547 Y243.213 Z-6.135
N1875 X-5.626 Y243.226 Z-6.085
N1880 X-5.697 Y243.237 Z-6.024
N1885 X-5.757 Y243.246 Z-5.953
N1890 X-5.806 Y243.254 Z-5.872
N1895 X-5.842 Y243.26 Z-5.785
N1900 X-5.863 Y243.263 Z-5.694
N1905 X-5.871 Y243.264 Z-5.6
N1910 G0 Z15.
N1915 G53 Z0.
N1920 M30
%
