%
(1001)
(T1  D=6. CR=0. - ZMIN=-7. - FLAT END MILL)
N10 G90 G94 G17 G91.1
N15 G21
N20 G53 G0 Z0.
(2D POCKET6)
N25 M9
N30 T1 M6
N35 S22000 M3
N40 G54
N45 G0 X101.02 Y2442.893
N50 G43 Z15. H1
N55 G0 Z5.
N60 G1 Z-7. F500.
N65 G2 X101.319 Y2443.193 I0.3 J0. F1400.
N70 G1 X102.801 Y2443.198
N75 G2 X103.102 Y2442.898 I0.001 J-0.3
N80 G1 Y-2.898
N85 G3 X103.402 Y-3.198 I0.3 J0.
N90 G1 X107.7 Y-3.192
N95 G3 X108. Y-2.892 I0. J0.3
N100 G1 Y2442.895
N105 X107.993 Y2442.989 F500.
N110 X107.941 Y2443.313
N115 X107.927 Y2443.406 Z-6.993
N120 X107.912 Y2443.496 Z-6.971
N125 X107.899 Y2443.582 Z-6.935
N130 X107.886 Y2443.662 Z-6.885
N135 X107.875 Y2443.732 Z-6.824
N140 X107.865 Y2443.793 Z-6.753
N145 X107.858 Y2443.841 Z-6.672
N150 X107.852 Y2443.877 Z-6.585
N155 X107.849 Y2443.898 Z-6.494
N160 X107.847 Y2443.906 Z-6.4
N165 G0 Z5.
N170 X99.025 Y2443.904
N175 G1 Z-6.4 F500.
N180 G19 G2 Y2443.304 Z-7. J-0.6 K0.
N185 G1 Y2442.892
N190 Y2440. F1400.
N195 X99.003 Y-2.893
N200 G17 G2 X98.705 Y-3.193 I-0.3 J0.
N205 G1 X97.199 Y-3.198
N210 G2 X96.898 Y-2.898 I-0.001 J0.3
N215 G1 Y2442.898
N220 G3 X96.598 Y2443.198 I-0.3 J0.
N225 G1 X92.3 Y2443.192
N230 G3 X92. Y2442.892 I0. J-0.3
N235 G1 Y-2.895
N240 X92.007 Y-2.989 F500.
N245 X92.059 Y-3.313
N250 X92.073 Y-3.406 Z-6.993
N255 X92.088 Y-3.496 Z-6.971
N260 X92.101 Y-3.582 Z-6.935
N265 X92.114 Y-3.662 Z-6.885
N270 X92.125 Y-3.732 Z-6.824
N275 X92.135 Y-3.793 Z-6.753
N280 X92.142 Y-3.841 Z-6.672
N285 X92.148 Y-3.877 Z-6.585
N290 X92.151 Y-3.899 Z-6.494
N295 X92.153 Y-3.906 Z-6.4
N300 G0 Z5.
N305 X1121.02 Y-3.895
N310 G1 Z-6.4 F500.
N315 G19 G3 Y-3.295 Z-7. J0.6 K0.
N320 G1 Y-2.892
N325 Y2442.893 F1400.
N330 G17 G2 X1121.319 Y2443.193 I0.3 J0.
N335 G1 X1122.801 Y2443.198
N340 G2 X1123.102 Y2442.898 I0.001 J-0.3
N345 G1 Y-2.898
N350 G3 X1123.402 Y-3.198 I0.3 J0.
N355 G1 X1127.7 Y-3.192
N360 G3 X1128. Y-2.892 I0. J0.3
N365 G1 Y2442.895
N370 X1127.993 Y2442.989 F500.
N375 X1127.941 Y2443.313
N380 X1127.927 Y2443.406 Z-6.993
N385 X1127.912 Y2443.496 Z-6.971
N390 X1127.899 Y2443.582 Z-6.935
N395 X1127.886 Y2443.662 Z-6.885
N400 X1127.875 Y2443.732 Z-6.824
N405 X1127.865 Y2443.793 Z-6.753
N410 X1127.858 Y2443.841 Z-6.672
N415 X1127.852 Y2443.877 Z-6.585
N420 X1127.849 Y2443.898 Z-6.494
N425 X1127.847 Y2443.906 Z-6.4
N430 G0 Z5.
N435 X1118.98 Y2443.903
N440 G1 Z-6.4 F500.
N445 G19 G2 Y2443.303 Z-7. J-0.6 K0.
N450 G1 Y2442.892
N455 Y-2.893 F1400.
N460 G17 G2 X1118.681 Y-3.193 I-0.3 J0.
N465 G1 X1117.223 Y-3.198
N470 G2 X1116.922 Y-2.898 I-0.001 J0.3
N475 G1 X1116.943 Y2440.
N480 Y2442.892
N485 G3 X1116.643 Y2443.192 I-0.3 J0.
N490 G1 X1112.3
N495 G3 X1112. Y2442.892 I0. J-0.3
N500 G1 Y-2.895
N505 X1112.007 Y-2.989 F500.
N510 X1112.059 Y-3.313
N515 X1112.073 Y-3.406 Z-6.993
N520 X1112.088 Y-3.496 Z-6.971
N525 X1112.101 Y-3.582 Z-6.935
N530 X1112.114 Y-3.662 Z-6.885
N535 X1112.125 Y-3.732 Z-6.824
N540 X1112.135 Y-3.793 Z-6.753
N545 X1112.142 Y-3.841 Z-6.672
N550 X1112.148 Y-3.877 Z-6.585
N555 X1112.151 Y-3.899 Z-6.494
N560 X1112.153 Y-3.906 Z-6.4
N565 G0 Z15.
N570 G53 Z0.
N575 M30
%
