%
(2004)
(6MM END MILL - CIRCLES BORING)
(T1  D=6. CR=0. - ZMIN=-4. - FLAT END MILL)
N10 G90 G94 G17 G91.1
N15 G21
N20 G53 G0 Z0.
(BORE3)
N25 M9
N30 T1 M6
N35 S18000 M3
N40 G54
N45 G0 X200.6 Y80.
N50 G43 Z15. H1
N55 G0 Z2.
N60 G1 Z0.6 F500.
N65 G19 G2 Y79.4 Z0. J-0.6 K0.
N70 G1 Y79.1
N75 G17 G2 X200. Y78.5 I-0.6 J0.
N80 Y121.5 Z-0.5 I0. J21.5 F4000.
N85 Y78.5 Z-1. I0. J-21.5
N90 Y121.5 Z-1.5 I0. J21.5
N95 Y78.5 Z-2. I0. J-21.5
N100 Y121.5 Z-2.5 I0. J21.5
N105 Y78.5 Z-3. I0. J-21.5
N110 Y121.5 Z-3.5 I0. J21.5
N115 Y78.5 Z-4. I0. J-21.5
N120 Y121.5 I0. J21.5
N125 Y78.5 I0. J-21.5
N130 X199.4 Y79.1 I0. J0.6 F500.
N135 G1 Y79.4
N140 G19 G3 Y80. Z-3.4 J0. K0.6
N145 G0 Z5.
N150 X200.6 Y79.5
N155 Z-2.
N160 G1 Z-3.4 F500.
N165 G2 Y78.9 Z-4. J-0.6 K0.
N170 G1 Y78.6
N175 G17 G2 X200. Y78. I-0.6 J0.
N180 Y122. I0. J22. F4000.
N185 Y78. I0. J-22.
N190 X199.4 Y78.6 I0. J0.6 F500.
N195 G1 Y78.9
N200 G19 G3 Y79.5 Z-3.4 J0. K0.6
N205 G0 Z5.
N210 X200.6 Y167.5
N215 Z2.
N220 G1 Z0.6 F500.
N225 G2 Y166.9 Z0. J-0.6 K0.
N230 G1 Y166.6
N235 G17 G2 X200. Y166. I-0.6 J0.
N240 Y234. Z-0.5 I0. J34. F4000.
N245 Y166. Z-1. I0. J-34.
N250 Y234. Z-1.5 I0. J34.
N255 Y166. Z-2. I0. J-34.
N260 Y234. Z-2.5 I0. J34.
N265 Y166. Z-3. I0. J-34.
N270 Y234. Z-3.5 I0. J34.
N275 Y166. Z-4. I0. J-34.
N280 Y234. I0. J34.
N285 Y166. I0. J-34.
N290 X199.4 Y166.6 I0. J0.6 F500.
N295 G1 Y166.9
N300 G19 G3 Y167.5 Z-3.4 J0. K0.6
N305 G0 Z5.
N310 X200.6 Y167.
N315 Z-2.
N320 G1 Z-3.4 F500.
N325 G2 Y166.4 Z-4. J-0.6 K0.
N330 G1 Y166.1
N335 G17 G2 X200. Y165.5 I-0.6 J0.
N340 Y234.5 I0. J34.5 F4000.
N345 Y165.5 I0. J-34.5
N350 X199.4 Y166.1 I0. J0.6 F500.
N355 G1 Y166.4
N360 G19 G3 Y167. Z-3.4 J0. K0.6
N365 G0 Z5.
N370 X200.6 Y275.
N375 Z2.
N380 G1 Z0.6 F500.
N385 G2 Y274.4 Z0. J-0.6 K0.
N390 G1 Y274.1
N395 G17 G2 X200. Y273.5 I-0.6 J0.
N400 Y366.5 Z-0.5 I0. J46.5 F4000.
N405 Y273.5 Z-1. I0. J-46.5
N410 Y366.5 Z-1.5 I0. J46.5
N415 Y273.5 Z-2. I0. J-46.5
N420 Y366.5 Z-2.5 I0. J46.5
N425 Y273.5 Z-3. I0. J-46.5
N430 Y366.5 Z-3.5 I0. J46.5
N435 Y273.5 Z-4. I0. J-46.5
N440 Y366.5 I0. J46.5
N445 Y273.5 I0. J-46.5
N450 X199.4 Y274.1 I0. J0.6 F500.
N455 G1 Y274.4
N460 G19 G3 Y275. Z-3.4 J0. K0.6
N465 G0 Z5.
N470 X200.6 Y274.5
N475 Z-2.
N480 G1 Z-3.4 F500.
N485 G2 Y273.9 Z-4. J-0.6 K0.
N490 G1 Y273.6
N495 G17 G2 X200. Y273. I-0.6 J0.
N500 Y367. I0. J47. F4000.
N505 Y273. I0. J-47.
N510 X199.4 Y273.6 I0. J0.6 F500.
N515 G1 Y273.9
N520 G19 G3 Y274.5 Z-3.4 J0. K0.6
N525 G0 Z15.
N530 G17
N535 G53 G0 Z0.
N540 M30
%
