%
(2005)
(3MM END MILL - LS LOGO)
(T1  D=3. CR=0. - ZMIN=-2. - FLAT END MILL)
N10 G90 G94 G17 G91.1
N15 G21
N20 G53 G0 Z0.
(2D POCKET4)
N25 M9
N30 T1 M6
N35 S18000 M3
N40 G54
N45 G0 X251.363 Y885.624
N50 G43 Z15. H1
N55 G0 Z5.
N60 G1 Z2.8 F1000.
N65 X251.327 Y885.613 Z2.653 F333.33
N70 X251.224 Y885.587 Z2.544
N75 X251.081 Y885.564 Z2.5
N80 G2 X250.778 Y888.398 Z2.344 I-0.151 J1.417
N85 X251.081 Y885.564 Z2.187 I0.151 J-1.417
N90 X250.778 Y888.398 Z2.031 I-0.151 J1.417
N95 X251.081 Y885.564 Z1.875 I0.151 J-1.417
N100 X250.778 Y888.398 Z1.718 I-0.151 J1.417
N105 X251.081 Y885.564 Z1.562 I0.151 J-1.417
N110 X250.778 Y888.398 Z1.406 I-0.151 J1.417
N115 X251.081 Y885.564 Z1.249 I0.151 J-1.417
N120 X250.778 Y888.398 Z1.093 I-0.151 J1.417
N125 X251.081 Y885.564 Z0.937 I0.151 J-1.417
N130 X250.778 Y888.398 Z0.78 I-0.151 J1.417
N135 X251.081 Y885.564 Z0.624 I0.151 J-1.417
N140 X250.778 Y888.398 Z0.468 I-0.151 J1.417
N145 X251.081 Y885.564 Z0.311 I0.151 J-1.417
N150 X250.778 Y888.398 Z0.155 I-0.151 J1.417
N155 X251.081 Y885.564 Z-0.001 I0.151 J-1.417
N160 X250.778 Y888.398 Z-0.158 I-0.151 J1.417
N165 X251.081 Y885.564 Z-0.314 I0.151 J-1.417
N170 X250.778 Y888.398 Z-0.47 I-0.151 J1.417
N175 X251.081 Y885.564 Z-0.627 I0.151 J-1.417
N180 X250.778 Y888.398 Z-0.783 I-0.151 J1.417
N185 X251.081 Y885.564 Z-0.939 I0.151 J-1.417
N190 X250.778 Y888.398 Z-1.096 I-0.151 J1.417
N195 X251.081 Y885.564 Z-1.252 I0.151 J-1.417
N200 X250.778 Y888.398 Z-1.408 I-0.151 J1.417
N205 X251.081 Y885.564 Z-1.565 I0.151 J-1.417
N210 X250.778 Y888.398 Z-1.721 I-0.151 J1.417
N215 X251.081 Y885.564 Z-1.877 I0.151 J-1.417
N220 X249.925 Y887.992 Z-2. I-0.151 J1.417
N225 X250.933 Y887.989 I0.502 J-0.505
N230 X250.93 Y886.981 I-0.505 J-0.502
N235 G3 X251.934 Y885.971 I0.502 J-0.505
N240 X253.308 Y887.601 I-8.514 J8.569 F4500.
N245 G1 X253.336 Y887.629
N250 X253.371 Y887.648
N255 X253.411 Y887.655
N260 X253.451 Y887.649
N265 X253.487 Y887.631
N270 X253.515 Y887.603
N275 X253.534 Y887.567
N280 X253.54 Y887.527
N285 Y884.673
N290 G2 X253.227 Y884.36 I-0.313 J0.
N295 G1 X250.344
N300 X250.304 Y884.366
N305 X250.269 Y884.385
N310 X250.241 Y884.413
N315 X250.223 Y884.449
N320 X250.217 Y884.489
N325 X250.224 Y884.528
N330 X250.243 Y884.564
N335 X250.272 Y884.592
N340 G3 X251.934 Y885.971 I-6.852 J9.948
N345 G1 X251.978 Y886.007 Z-1.989 F1000.
N350 X252.029 Y886.034 Z-1.977
N355 X252.075 Y886.049 Z-1.945
N360 X252.123 Y886.057 Z-1.912
N365 X252.188 Y886.055 Z-1.815
N370 X252.21 Y886.051 Z-1.7
N375 G0 Z5.
N380 X253.696 Y921.167
N385 G1 Z2.8 F1000.
N390 X253.714 Y921.201 Z2.653 F333.33
N395 X253.768 Y921.291 Z2.544
N400 X253.854 Y921.409 Z2.5
N405 G2 X256.077 Y919.626 Z2.344 I1.112 J-0.891
N410 X253.853 Y921.409 Z2.187 I-1.112 J0.891
N415 X256.077 Y919.626 Z2.031 I1.112 J-0.891
N420 X253.853 Y921.409 Z1.875 I-1.112 J0.891
N425 X256.077 Y919.626 Z1.718 I1.112 J-0.891
N430 X253.853 Y921.409 Z1.562 I-1.112 J0.891
N435 X256.077 Y919.626 Z1.406 I1.112 J-0.891
N440 X253.853 Y921.409 Z1.249 I-1.112 J0.891
N445 X256.077 Y919.626 Z1.093 I1.112 J-0.891
N450 X253.853 Y921.409 Z0.937 I-1.112 J0.891
N455 X256.077 Y919.626 Z0.78 I1.112 J-0.891
N460 X253.853 Y921.409 Z0.624 I-1.112 J0.891
N465 X256.077 Y919.626 Z0.468 I1.112 J-0.891
N470 X253.853 Y921.409 Z0.311 I-1.112 J0.891
N475 X256.077 Y919.626 Z0.155 I1.112 J-0.891
N480 X253.853 Y921.409 Z-0.001 I-1.112 J0.891
N485 X256.077 Y919.626 Z-0.158 I1.112 J-0.891
N490 X253.853 Y921.409 Z-0.314 I-1.112 J0.891
N495 X256.077 Y919.626 Z-0.47 I1.112 J-0.891
N500 X253.853 Y921.409 Z-0.627 I-1.112 J0.891
N505 X256.077 Y919.626 Z-0.783 I1.112 J-0.891
N510 X253.853 Y921.409 Z-0.939 I-1.112 J0.891
N515 X256.077 Y919.626 Z-1.096 I1.112 J-0.891
N520 X253.853 Y921.409 Z-1.252 I-1.112 J0.891
N525 X256.077 Y919.626 Z-1.408 I1.112 J-0.891
N530 X253.853 Y921.409 Z-1.565 I-1.112 J0.891
N535 X256.077 Y919.626 Z-1.721 I1.112 J-0.891
N540 X253.853 Y921.409 Z-1.877 I-1.112 J0.891
N545 X256.39 Y920.518 Z-2. I1.112 J-0.891
N550 X254.965 I-0.713 J0.
N555 G3 X253.54 I-0.713 J0.
N560 G1 Y918.293 F4500.
N565 X253.534 Y918.253
N570 X253.515 Y918.217
N575 X253.487 Y918.189
N580 X253.451 Y918.171
N585 X253.411 Y918.165
N590 X253.371 Y918.172
N595 X253.336 Y918.191
N600 X253.308 Y918.219
N605 G3 X250.272 Y921.228 I-9.888 J-6.939
N610 G1 X250.243 Y921.256
N615 X250.224 Y921.292
N620 X250.217 Y921.331
N625 X250.223 Y921.371
N630 X250.241 Y921.407
N635 X250.269 Y921.435
N640 X250.304 Y921.454
N645 X250.344 Y921.46
N650 X253.227
N655 G2 X253.54 Y921.147 I0. J-0.313
N660 G1 Y920.518
N665 G3 X254.415 Y919.205 I1.422 J0.
N670 G2 X255.291 Y917.892 I-0.547 J-1.313
N675 G1 Y882.929
N680 G2 X254.971 Y882.609 I-0.319 J0.
N685 G1 X232.049
N690 G2 X231.729 Y882.929 I0. J0.319
N695 G1 Y883.891
N700 G2 X232.049 Y884.211 I0.319 J0.
N705 G1 X243.42 Y884.166
N710 G3 X253.794 Y894.54 I0. J10.374
N715 G1 Y911.28
N720 G3 X243.42 Y921.654 I-10.374 J0.
N725 G1 X232.049 Y921.609
N730 G2 X231.729 Y921.929 I0. J0.319
N735 G1 Y922.891
N740 G2 X232.049 Y923.211 I0.319 J0.
N745 G1 X254.971
N750 G2 X255.291 Y922.891 I0. J-0.319
N755 G1 Y917.892
N760 G3 X256.108 Y916.667 I1.328 J0.
N765 G2 X256.925 Y915.441 I-0.511 J-1.226
N770 G1 Y881.294
N775 G2 X256.606 Y880.975 I-0.319 J0.
N780 G1 X230.414
N785 G2 X230.095 Y881.294 I0. J0.319
N790 G1 Y885.526
N795 G2 X230.414 Y885.845 I0.319 J0.
N800 G1 X243.42 Y885.8
N805 G3 X252.16 Y894.54 I0. J8.74
N810 G1 Y911.28
N815 G3 X243.42 Y920.02 I-8.74 J0.
N820 G1 X230.414 Y919.975
N825 G2 X230.095 Y920.294 I0. J0.319
N830 G1 Y924.526
N835 G2 X230.414 Y924.845 I0.319 J0.
N840 G1 X256.606
N845 G2 X256.925 Y924.526 I0. J-0.319
N850 G1 Y915.441
N855 G3 X258.123 Y913.643 I1.947 J0.
N860 G2 X259.322 Y911.846 I-0.749 J-1.797
N865 G1 Y878.898
N870 G2 X259.002 Y878.578 I-0.319 J0.
N875 G1 X228.018
N880 G2 X227.698 Y878.898 I0. J0.319
N885 G1 Y887.922
N890 G2 X228.018 Y888.242 I0.319 J0.
N895 G1 X243.42 Y888.197
N900 G3 X249.763 Y894.54 I0. J6.343
N905 G1 Y911.28
N910 G3 X243.42 Y917.623 I-6.343 J0.
N915 G1 X228.018 Y917.578
N920 G2 X227.698 Y917.898 I0. J0.319
N925 G1 Y926.922
N930 G2 X228.018 Y927.242 I0.319 J0.
N935 G1 X259.002
N940 G2 X259.322 Y926.922 I0. J-0.319
N945 G1 Y911.846
N950 G3 X260.52 Y910.048 I1.947 J0.
N955 G2 X261.718 Y908.251 I-0.749 J-1.797
N960 G1 Y876.501
N965 G2 X261.399 Y876.182 I-0.319 J0.
N970 G1 X225.621
N975 G2 X225.302 Y876.501 I0. J0.319
N980 G1 Y890.319
N985 G2 X225.621 Y890.638 I0.319 J0.
N990 G1 X243.42 Y890.593
N995 G3 X247.367 Y894.54 I0. J3.947
N1000 G1 Y911.28
N1005 G3 X243.42 Y915.227 I-3.947 J0.
N1010 G1 X225.621 Y915.182
N1015 G2 X225.302 Y915.501 I0. J0.319
N1020 G1 Y929.319
N1025 G2 X225.621 Y929.638 I0.319 J0.
N1030 G1 X261.399
N1035 G2 X261.718 Y929.319 I0. J-0.319
N1040 G1 Y908.251
N1045 G3 X262.919 Y906.449 I1.951 J0.
N1050 G2 X264.12 Y904.648 I-0.751 J-1.801
N1055 G1 Y873.78
N1060 X222.9
N1065 Y893.04
N1070 X243.42
N1075 G3 X244.92 Y894.54 I0. J1.5
N1080 G1 Y911.28
N1085 G3 X243.42 Y912.78 I-1.5 J0.
N1090 G1 X222.9
N1095 Y932.04
N1100 X264.12
N1105 Y911.28
N1110 Y904.648
N1115 X264.115 Y904.591 Z-1.989 F1000.
N1120 X264.098 Y904.536 Z-1.977
N1125 X264.077 Y904.493 Z-1.945
N1130 X264.048 Y904.453 Z-1.912
N1135 X264.001 Y904.409 Z-1.815
N1140 X263.982 Y904.396 Z-1.7
N1145 G0 Z5.
N1150 X242.633 Y958.468
N1155 G1 Z2.8 F1000.
N1160 X242.667 Y958.45 Z2.653 F333.33
N1165 X242.758 Y958.396 Z2.544
N1170 X242.876 Y958.311 Z2.5
N1175 G2 X241.093 Y956.088 Z2.344 I-0.891 J-1.112
N1180 X242.876 Y958.311 Z2.187 I0.891 J1.112
N1185 X241.093 Y956.088 Z2.031 I-0.891 J-1.112
N1190 X242.876 Y958.311 Z1.875 I0.891 J1.112
N1195 X241.093 Y956.088 Z1.718 I-0.891 J-1.112
N1200 X242.876 Y958.311 Z1.562 I0.891 J1.112
N1205 X241.093 Y956.088 Z1.406 I-0.891 J-1.112
N1210 X242.876 Y958.311 Z1.249 I0.891 J1.112
N1215 X241.093 Y956.088 Z1.093 I-0.891 J-1.112
N1220 X242.876 Y958.311 Z0.937 I0.891 J1.112
N1225 X241.093 Y956.088 Z0.78 I-0.891 J-1.112
N1230 X242.876 Y958.311 Z0.624 I0.891 J1.112
N1235 X241.093 Y956.088 Z0.468 I-0.891 J-1.112
N1240 X242.876 Y958.311 Z0.311 I0.891 J1.112
N1245 X241.093 Y956.088 Z0.155 I-0.891 J-1.112
N1250 X242.876 Y958.311 Z-0.001 I0.891 J1.112
N1255 X241.093 Y956.088 Z-0.158 I-0.891 J-1.112
N1260 X242.876 Y958.311 Z-0.314 I0.891 J1.112
N1265 X241.093 Y956.088 Z-0.47 I-0.891 J-1.112
N1270 X242.876 Y958.311 Z-0.627 I0.891 J1.112
N1275 X241.093 Y956.088 Z-0.783 I-0.891 J-1.112
N1280 X242.876 Y958.311 Z-0.939 I0.891 J1.112
N1285 X241.093 Y956.088 Z-1.096 I-0.891 J-1.112
N1290 X242.876 Y958.311 Z-1.252 I0.891 J1.112
N1295 X241.093 Y956.088 Z-1.408 I-0.891 J-1.112
N1300 X242.876 Y958.311 Z-1.565 I0.891 J1.112
N1305 X241.093 Y956.088 Z-1.721 I-0.891 J-1.112
N1310 X242.876 Y958.311 Z-1.877 I0.891 J1.112
N1315 X241.984 Y955.774 Z-2. I-0.891 J-1.112
N1320 Y957.199 I0. J0.712
N1325 G3 Y958.624 I0. J0.713
N1330 G1 X240.952 F4500.
N1335 G2 X240.867 Y958.867 I0. J0.137
N1340 G3 X242.272 Y960.259 I-6.147 J7.613
N1345 G2 X242.516 Y960.171 I0.106 J-0.088
N1350 G1 Y958.944
N1355 G2 X242.196 Y958.624 I-0.319 J0.
N1360 G1 X241.984
N1365 X241.927 Y958.63 Z-1.989 F1000.
N1370 X241.872 Y958.646 Z-1.977
N1375 X241.829 Y958.668 Z-1.945
N1380 X241.789 Y958.696 Z-1.912
N1385 X241.745 Y958.743 Z-1.815
N1390 X241.732 Y958.762 Z-1.7
N1395 G0 Z5.
N1400 X241.335 Y987.152
N1405 G1 Z2.8 F1000.
N1410 X241.301 Y987.17 Z2.653 F333.33
N1415 X241.211 Y987.224 Z2.544
N1420 X241.093 Y987.309 Z2.5
N1425 G2 X242.876 Y989.532 Z2.344 I0.891 J1.112
N1430 X241.093 Y987.309 Z2.187 I-0.891 J-1.112
N1435 X242.876 Y989.532 Z2.031 I0.891 J1.112
N1440 X241.093 Y987.309 Z1.875 I-0.891 J-1.112
N1445 X242.876 Y989.532 Z1.718 I0.891 J1.112
N1450 X241.093 Y987.309 Z1.562 I-0.891 J-1.112
N1455 X242.876 Y989.532 Z1.406 I0.891 J1.112
N1460 X241.093 Y987.309 Z1.249 I-0.891 J-1.112
N1465 X242.876 Y989.532 Z1.093 I0.891 J1.112
N1470 X241.093 Y987.309 Z0.937 I-0.891 J-1.112
N1475 X242.876 Y989.532 Z0.78 I0.891 J1.112
N1480 X241.093 Y987.309 Z0.624 I-0.891 J-1.112
N1485 X242.876 Y989.532 Z0.468 I0.891 J1.112
N1490 X241.093 Y987.309 Z0.311 I-0.891 J-1.112
N1495 X242.876 Y989.532 Z0.155 I0.891 J1.112
N1500 X241.093 Y987.309 Z-0.001 I-0.891 J-1.112
N1505 X242.876 Y989.532 Z-0.158 I0.891 J1.112
N1510 X241.093 Y987.309 Z-0.314 I-0.891 J-1.112
N1515 X242.876 Y989.532 Z-0.47 I0.891 J1.112
N1520 X241.093 Y987.309 Z-0.627 I-0.891 J-1.112
N1525 X242.876 Y989.532 Z-0.783 I0.891 J1.112
N1530 X241.093 Y987.309 Z-0.939 I-0.891 J-1.112
N1535 X242.876 Y989.532 Z-1.096 I0.891 J1.112
N1540 X241.093 Y987.309 Z-1.252 I-0.891 J-1.112
N1545 X242.876 Y989.532 Z-1.408 I0.891 J1.112
N1550 X241.093 Y987.309 Z-1.565 I-0.891 J-1.112
N1555 X242.876 Y989.532 Z-1.721 I0.891 J1.112
N1560 X241.093 Y987.309 Z-1.877 I-0.891 J-1.112
N1565 X241.984 Y989.846 Z-2. I0.891 J1.112
N1570 Y988.421 I0. J-0.712
N1575 G3 Y986.996 I0. J-0.713
N1580 G1 X242.196 F4500.
N1585 G2 X242.516 Y986.676 I0. J-0.319
N1590 G1 Y985.449
N1595 G2 X242.272 Y985.361 I-0.138 J0.
N1600 G3 X240.867 Y986.753 I-7.552 J-6.221
N1605 G2 X240.952 Y986.996 I0.086 J0.106
N1610 G1 X241.984
N1615 G3 X242.769 Y987.393 I0. J0.975
N1620 G2 X243.605 Y987.118 I0.373 J-0.275
N1625 G1 Y957.854
N1630 G2 X243.286 Y957.535 I-0.319 J0.
N1635 G1 X230.191
N1640 X230.154 Y957.542
N1645 X230.123 Y957.563
N1650 X230.102 Y957.594
N1655 X230.095 Y957.631
N1660 Y957.689
N1665 X230.102 Y957.726
N1670 X230.123 Y957.757
N1675 X230.154 Y957.778
N1680 X230.191 Y957.785
N1685 G2 X232.456 Y957.763 I0. J-113.988
N1690 G3 X234.72 Y957.74 I2.264 J113.966
N1695 X243.46 Y966.48 I0. J8.74
N1700 G1 Y979.14
N1705 G3 X234.72 Y987.88 I-8.74 J0.
N1710 X232.456 Y987.857 I0. J-113.988
N1715 G2 X230.191 Y987.835 I-2.264 J113.966
N1720 G1 X230.154 Y987.842
N1725 X230.123 Y987.863
N1730 X230.102 Y987.894
N1735 X230.095 Y987.931
N1740 Y987.989
N1745 X230.102 Y988.026
N1750 X230.123 Y988.057
N1755 X230.154 Y988.078
N1760 X230.191 Y988.085
N1765 X243.286
N1770 G2 X243.605 Y987.766 I0. J-0.319
N1775 G1 Y987.118
N1780 G3 X244.803 Y985.32 I1.947 J0.
N1785 G2 X246.002 Y983.523 I-0.749 J-1.797
N1790 G1 Y955.458
N1795 G2 X245.682 Y955.138 I-0.319 J0.
N1800 G1 X228.018
N1805 G2 X227.698 Y955.458 I0. J0.319
N1810 G1 Y959.862
N1815 G2 X228.018 Y960.182 I0.319 J0.
N1820 G1 X234.72 Y960.137
N1825 G3 X241.063 Y966.48 I0. J6.343
N1830 G1 Y979.14
N1835 G3 X234.72 Y985.483 I-6.343 J0.
N1840 G1 X228.018 Y985.438
N1845 G2 X227.698 Y985.758 I0. J0.319
N1850 G1 Y990.162
N1855 G2 X228.018 Y990.482 I0.319 J0.
N1860 G1 X245.682
N1865 G2 X246.002 Y990.162 I0. J-0.319
N1870 G1 Y983.523
N1875 G3 X247.2 Y981.726 I1.947 J0.
N1880 G2 X248.398 Y979.928 I-0.749 J-1.797
N1885 G1 Y953.061
N1890 G2 X248.079 Y952.742 I-0.319 J0.
N1895 G1 X225.621
N1900 G2 X225.302 Y953.061 I0. J0.319
N1905 G1 Y962.259
N1910 G2 X225.621 Y962.578 I0.319 J0.
N1915 G1 X234.72 Y962.533
N1920 G3 X238.667 Y966.48 I0. J3.947
N1925 G1 Y979.14
N1930 G3 X234.72 Y983.087 I-3.947 J0.
N1935 G1 X225.621 Y983.042
N1940 G2 X225.302 Y983.361 I0. J0.319
N1945 G1 Y992.559
N1950 G2 X225.621 Y992.878 I0.319 J0.
N1955 G1 X248.079
N1960 G2 X248.398 Y992.559 I0. J-0.319
N1965 G1 Y979.928
N1970 G3 X249.599 Y978.127 I1.951 J0.
N1975 G2 X250.8 Y976.326 I-0.751 J-1.801
N1980 G1 Y950.34
N1985 X222.9
N1990 Y964.98
N1995 X234.72
N2000 G3 X236.22 Y966.48 I0. J1.5
N2005 G1 Y979.14
N2010 G3 X234.72 Y980.64 I-1.5 J0.
N2015 G1 X222.9
N2020 Y995.28
N2025 X250.8
N2030 Y976.326
N2035 X250.795 Y976.269 Z-1.989 F1000.
N2040 X250.778 Y976.214 Z-1.977
N2045 X250.757 Y976.17 Z-1.945
N2050 X250.728 Y976.131 Z-1.912
N2055 X250.681 Y976.086 Z-1.815
N2060 X250.662 Y976.073 Z-1.7
N2065 G0 Z5.
N2070 X193.377 Y991.454
N2075 G1 Z2.8 F1000.
N2080 X193.365 Y991.491 Z2.653 F333.33
N2085 X193.339 Y991.593 Z2.544
N2090 X193.316 Y991.737 Z2.5
N2095 G2 X196.149 Y992.048 Z2.344 I1.416 J0.156
N2100 X193.316 Y991.737 Z2.187 I-1.416 J-0.156
N2105 X196.149 Y992.048 Z2.031 I1.416 J0.156
N2110 X193.316 Y991.737 Z1.875 I-1.416 J-0.156
N2115 X196.149 Y992.048 Z1.718 I1.416 J0.156
N2120 X193.316 Y991.737 Z1.562 I-1.416 J-0.156
N2125 X196.149 Y992.048 Z1.406 I1.416 J0.156
N2130 X193.316 Y991.737 Z1.249 I-1.416 J-0.156
N2135 X196.149 Y992.048 Z1.093 I1.416 J0.156
N2140 X193.316 Y991.737 Z0.937 I-1.416 J-0.156
N2145 X196.149 Y992.048 Z0.78 I1.416 J0.156
N2150 X193.316 Y991.737 Z0.624 I-1.416 J-0.156
N2155 X196.149 Y992.048 Z0.468 I1.416 J0.156
N2160 X193.316 Y991.737 Z0.311 I-1.416 J-0.156
N2165 X196.149 Y992.048 Z0.155 I1.416 J0.156
N2170 X193.316 Y991.737 Z-0.001 I-1.416 J-0.156
N2175 X196.149 Y992.048 Z-0.158 I1.416 J0.156
N2180 X193.316 Y991.737 Z-0.314 I-1.416 J-0.156
N2185 X196.149 Y992.048 Z-0.47 I1.416 J0.156
N2190 X193.316 Y991.737 Z-0.627 I-1.416 J-0.156
N2195 X196.149 Y992.048 Z-0.783 I1.416 J0.156
N2200 X193.316 Y991.737 Z-0.939 I-1.416 J-0.156
N2205 X196.149 Y992.048 Z-1.096 I1.416 J0.156
N2210 X193.316 Y991.737 Z-1.252 I-1.416 J-0.156
N2215 X196.149 Y992.048 Z-1.408 I1.416 J0.156
N2220 X193.316 Y991.737 Z-1.565 I-1.416 J-0.156
N2225 X196.149 Y992.048 Z-1.721 I1.416 J0.156
N2230 X193.316 Y991.737 Z-1.877 I-1.416 J-0.156
N2235 X195.74 Y992.9 Z-2. I1.416 J0.156
N2240 X194.732 Y991.892 I-0.504 J-0.504
N2245 G3 X193.725 I-0.504 J-0.504
N2250 Y990.885 I0.504 J-0.504
N2255 X194.691 Y990.056 I5.895 J5.895 F4500.
N2260 G2 X194.613 Y989.817 I-0.078 J-0.107
N2265 G1 X192.976
N2270 G2 X192.657 Y990.136 I0. J0.319
N2275 G1 Y991.773
N2280 G2 X192.896 Y991.851 I0.132 J0.
N2285 G3 X193.725 Y990.885 I6.724 J4.929
N2290 G1 X193.761 Y990.841 Z-1.989 F1000.
N2295 X193.789 Y990.79 Z-1.977
N2300 X193.804 Y990.744 Z-1.945
N2305 X193.812 Y990.696 Z-1.912
N2310 X193.81 Y990.631 Z-1.815
N2315 X193.806 Y990.609 Z-1.7
N2320 G0 Z5.
N2325 X192.634 Y1014.579
N2330 G1 Z2.8 F1000.
N2335 X192.6 Y1014.597 Z2.653 F333.33
N2340 X192.509 Y1014.651 Z2.544
N2345 X192.391 Y1014.736 Z2.5
N2350 G2 X194.174 Y1016.96 Z2.344 I0.891 J1.112
N2355 X192.391 Y1014.736 Z2.187 I-0.891 J-1.112
N2360 X194.174 Y1016.96 Z2.031 I0.891 J1.112
N2365 X192.391 Y1014.736 Z1.875 I-0.891 J-1.112
N2370 X194.174 Y1016.96 Z1.718 I0.891 J1.112
N2375 X192.391 Y1014.736 Z1.562 I-0.891 J-1.112
N2380 X194.174 Y1016.96 Z1.406 I0.891 J1.112
N2385 X192.391 Y1014.736 Z1.249 I-0.891 J-1.112
N2390 X194.174 Y1016.96 Z1.093 I0.891 J1.112
N2395 X192.391 Y1014.736 Z0.937 I-0.891 J-1.112
N2400 X194.174 Y1016.96 Z0.78 I0.891 J1.112
N2405 X192.391 Y1014.736 Z0.624 I-0.891 J-1.112
N2410 X194.174 Y1016.96 Z0.468 I0.891 J1.112
N2415 X192.391 Y1014.736 Z0.311 I-0.891 J-1.112
N2420 X194.174 Y1016.96 Z0.155 I0.891 J1.112
N2425 X192.391 Y1014.736 Z-0.001 I-0.891 J-1.112
N2430 X194.174 Y1016.96 Z-0.158 I0.891 J1.112
N2435 X192.391 Y1014.736 Z-0.314 I-0.891 J-1.112
N2440 X194.174 Y1016.96 Z-0.47 I0.891 J1.112
N2445 X192.391 Y1014.736 Z-0.627 I-0.891 J-1.112
N2450 X194.174 Y1016.96 Z-0.783 I0.891 J1.112
N2455 X192.391 Y1014.736 Z-0.939 I-0.891 J-1.112
N2460 X194.174 Y1016.96 Z-1.096 I0.891 J1.112
N2465 X192.391 Y1014.736 Z-1.252 I-0.891 J-1.112
N2470 X194.174 Y1016.96 Z-1.408 I0.891 J1.112
N2475 X192.391 Y1014.736 Z-1.565 I-0.891 J-1.112
N2480 X194.174 Y1016.96 Z-1.721 I0.891 J1.112
N2485 X192.391 Y1014.736 Z-1.877 I-0.891 J-1.112
N2490 X193.283 Y1017.273 Z-2. I0.891 J1.112
N2495 Y1015.848 I0. J-0.712
N2500 G3 Y1014.423 I0. J-0.712
N2505 G1 X194.613 F4500.
N2510 G2 X194.691 Y1014.184 I0. J-0.132
N2515 G3 X192.896 Y1012.389 I4.929 J-6.724
N2520 G2 X192.657 Y1012.467 I-0.107 J0.078
N2525 G1 Y1013.797
N2530 Y1014.104
N2535 G2 X192.976 Y1014.423 I0.319 J0.
N2540 G1 X193.283
N2545 G3 X194.24 Y1015.059 I0. J1.038
N2550 G2 X195.197 Y1015.695 I0.955 J-0.399
N2555 G1 X211.08 Y1015.658
N2560 G3 X212.16 Y1015.763 I0. J5.588
N2565 X213.211 Y1016.032 I-1.869 J9.488
N2570 G2 X213.503 Y1015.819 I0.068 J-0.214
N2575 G1 Y1014.836
N2580 G2 X213.184 Y1014.517 I-0.319 J0.
N2585 G1 X199.62 Y1014.562
N2590 G3 X192.518 Y1007.46 I0. J-7.102
N2595 G1 Y996.78
N2600 G3 X199.62 Y989.678 I7.102 J0.
N2605 X201.242 Y989.7 I0. J58.46
N2610 G2 X202.864 Y989.723 I1.622 J-58.437
N2615 X203.183 Y989.404 I0. J-0.319
N2620 G1 Y988.856
N2625 G2 X202.864 Y988.537 I-0.319 J0.
N2630 G1 X191.696
N2635 G2 X191.377 Y988.856 I0. J0.319
N2640 G1 Y1015.384
N2645 G2 X191.696 Y1015.703 I0.319 J0.
N2650 G1 X195.197 Y1015.695
N2655 G3 X196.107 Y1016.299 I0.002 J0.985
N2660 G2 X197.018 Y1016.903 I0.908 J-0.381
N2665 G1 X211.08 Y1016.873
N2670 G3 X212.855 Y1017.17 I0. J5.451
N2675 X214.456 Y1017.991 I-2.067 J6.003
N2680 G2 X214.717 Y1017.856 I0.096 J-0.135
N2685 G1 Y1013.616
N2690 G2 X214.404 Y1013.303 I-0.313 J0.
N2695 G1 X199.62 Y1013.347
N2700 G3 X193.733 Y1007.46 I0. J-5.887
N2705 G1 Y996.78
N2710 G3 X199.62 Y990.893 I5.887 J0.
N2715 X201.852 Y990.915 I0. J112.977
N2720 G2 X204.084 Y990.937 I2.232 J-112.955
N2725 X204.397 Y990.624 I0. J-0.313
N2730 G1 Y987.636
N2735 G2 X204.084 Y987.323 I-0.313 J0.
N2740 G1 X190.476
N2745 G2 X190.163 Y987.636 I0. J0.313
N2750 G1 Y1016.604
N2755 G2 X190.476 Y1016.917 I0.313 J0.
N2760 G1 X197.018 Y1016.903
N2765 G3 X198.474 Y1017.869 I0.003 J1.575
N2770 G2 X199.93 Y1018.836 I1.453 J-0.609
N2775 G1 X211.08 Y1018.813
N2780 G3 X215.027 Y1022.76 I0. J3.947
N2785 G1 X214.982 Y1160.859
N2790 G2 X215.301 Y1161.178 I0.319 J0.
N2795 G1 X216.339
N2800 G2 X216.658 Y1160.859 I0. J-0.319
N2805 G1 Y1011.681
N2810 G2 X216.339 Y1011.362 I-0.319 J0.
N2815 G1 X199.62 Y1011.407
N2820 G3 X195.673 Y1007.46 I0. J-3.947
N2825 G1 Y996.78
N2830 G3 X199.62 Y992.833 I3.947 J0.
N2835 G1 X206.019 Y992.878
N2840 G2 X206.338 Y992.559 I0. J-0.319
N2845 G1 Y985.701
N2850 G2 X206.019 Y985.382 I-0.319 J0.
N2855 G1 X188.541
N2860 G2 X188.222 Y985.701 I0. J0.319
N2865 G1 Y1018.539
N2870 G2 X188.541 Y1018.858 I0.319 J0.
N2875 G1 X199.93 Y1018.836
N2880 G3 X201.75 Y1020.048 I0.004 J1.968
N2885 G2 X203.571 Y1021.26 I1.821 J-0.761
N2890 G1 X211.08
N2895 G3 X212.58 Y1022.76 I0. J1.5
N2900 G1 Y1163.58
N2905 X219.06
N2910 Y1008.96
N2915 X199.62
N2920 G3 X198.12 Y1007.46 I0. J-1.5
N2925 G1 Y996.78
N2930 G3 X199.62 Y995.28 I1.5 J0.
N2935 G1 X208.74
N2940 Y982.98
N2945 X185.82
N2950 Y1021.26
N2955 X199.62
N2960 X203.571
N2965 X203.628 Y1021.255 Z-1.989 F1000.
N2970 X203.683 Y1021.238 Z-1.977
N2975 X203.727 Y1021.217 Z-1.945
N2980 X203.766 Y1021.188 Z-1.912
N2985 X203.811 Y1021.141 Z-1.815
N2990 X203.824 Y1021.122 Z-1.7
N2995 G0 Z5.
N3000 X186.024 Y926.741
N3005 G1 Z2.8 F1000.
N3010 X186.013 Y926.778 Z2.653 F333.33
N3015 X185.987 Y926.88 Z2.544
N3020 X185.963 Y927.024 Z2.5
N3025 G2 X188.796 Y927.336 Z2.344 I1.416 J0.156
N3030 X185.963 Y927.024 Z2.187 I-1.416 J-0.156
N3035 X188.796 Y927.336 Z2.031 I1.416 J0.156
N3040 X185.963 Y927.024 Z1.875 I-1.416 J-0.156
N3045 X188.796 Y927.336 Z1.718 I1.416 J0.156
N3050 X185.963 Y927.024 Z1.562 I-1.416 J-0.156
N3055 X188.796 Y927.336 Z1.406 I1.416 J0.156
N3060 X185.963 Y927.024 Z1.249 I-1.416 J-0.156
N3065 X188.796 Y927.336 Z1.093 I1.416 J0.156
N3070 X185.963 Y927.024 Z0.937 I-1.416 J-0.156
N3075 X188.796 Y927.336 Z0.78 I1.416 J0.156
N3080 X185.963 Y927.024 Z0.624 I-1.416 J-0.156
N3085 X188.796 Y927.336 Z0.468 I1.416 J0.156
N3090 X185.963 Y927.024 Z0.311 I-1.416 J-0.156
N3095 X188.796 Y927.336 Z0.155 I1.416 J0.156
N3100 X185.963 Y927.024 Z-0.001 I-1.416 J-0.156
N3105 X188.796 Y927.336 Z-0.158 I1.416 J0.156
N3110 X185.963 Y927.024 Z-0.314 I-1.416 J-0.156
N3115 X188.796 Y927.336 Z-0.47 I1.416 J0.156
N3120 X185.963 Y927.024 Z-0.627 I-1.416 J-0.156
N3125 X188.796 Y927.336 Z-0.783 I1.416 J0.156
N3130 X185.963 Y927.024 Z-0.939 I-1.416 J-0.156
N3135 X188.796 Y927.336 Z-1.096 I1.416 J0.156
N3140 X185.963 Y927.024 Z-1.252 I-1.416 J-0.156
N3145 X188.796 Y927.336 Z-1.408 I1.416 J0.156
N3150 X185.963 Y927.024 Z-1.565 I-1.416 J-0.156
N3155 X188.796 Y927.336 Z-1.721 I1.416 J0.156
N3160 X185.963 Y927.024 Z-1.877 I-1.416 J-0.156
N3165 X188.387 Y928.187 Z-2. I1.416 J0.156
N3170 Y927.18 I-0.504 J-0.504
N3175 X187.38 I-0.504 J0.504
N3180 G3 X186.372 Y926.172 I-0.504 J-0.504
N3185 X188.053 Y924.809 I7.368 J7.368 F4500.
N3190 G1 X188.083 Y924.782
N3195 X188.102 Y924.747
N3200 X188.11 Y924.708
N3205 X188.105 Y924.669
N3210 X188.088 Y924.633
N3215 X188.06 Y924.604
N3220 X188.025 Y924.586
N3225 X187.985 Y924.58
N3230 X185.093
N3235 G2 X184.78 Y924.893 I0. J0.313
N3240 G1 Y927.785
N3245 X184.786 Y927.825
N3250 X184.804 Y927.86
N3255 X184.833 Y927.888
N3260 X184.869 Y927.905
N3265 X184.908 Y927.91
N3270 X184.947 Y927.902
N3275 X184.982 Y927.883
N3280 X185.009 Y927.853
N3285 G3 X186.372 Y926.172 I8.731 J5.687
N3290 G1 X186.409 Y926.128 Z-1.989 F1000.
N3295 X186.436 Y926.078 Z-1.977
N3300 X186.451 Y926.032 Z-1.945
N3305 X186.459 Y925.984 Z-1.912
N3310 X186.457 Y925.919 Z-1.815
N3315 X186.453 Y925.896 Z-1.7
N3320 G0 Z5.
N3325 X186.913 Y956.531
N3330 G1 Z2.8 F1000.
N3335 X186.949 Y956.542 Z2.653 F333.33
N3340 X187.052 Y956.568 Z2.544
N3345 X187.195 Y956.592 Z2.5
N3350 G2 X187.517 Y953.76 Z2.344 I0.161 J-1.416
N3355 X187.195 Y956.592 Z2.187 I-0.161 J1.416
N3360 X187.517 Y953.76 Z2.031 I0.161 J-1.416
N3365 X187.195 Y956.592 Z1.875 I-0.161 J1.416
N3370 X187.517 Y953.76 Z1.718 I0.161 J-1.416
N3375 X187.195 Y956.592 Z1.562 I-0.161 J1.416
N3380 X187.517 Y953.76 Z1.406 I0.161 J-1.416
N3385 X187.195 Y956.592 Z1.249 I-0.161 J1.416
N3390 X187.517 Y953.76 Z1.093 I0.161 J-1.416
N3395 X187.195 Y956.592 Z0.937 I-0.161 J1.416
N3400 X187.517 Y953.76 Z0.78 I0.161 J-1.416
N3405 X187.195 Y956.592 Z0.624 I-0.161 J1.416
N3410 X187.517 Y953.76 Z0.468 I0.161 J-1.416
N3415 X187.195 Y956.592 Z0.311 I-0.161 J1.416
N3420 X187.517 Y953.76 Z0.155 I0.161 J-1.416
N3425 X187.195 Y956.592 Z-0.001 I-0.161 J1.416
N3430 X187.517 Y953.76 Z-0.158 I0.161 J-1.416
N3435 X187.195 Y956.592 Z-0.314 I-0.161 J1.416
N3440 X187.517 Y953.76 Z-0.47 I0.161 J-1.416
N3445 X187.195 Y956.592 Z-0.627 I-0.161 J1.416
N3450 X187.517 Y953.76 Z-0.783 I0.161 J-1.416
N3455 X187.195 Y956.592 Z-0.939 I-0.161 J1.416
N3460 X187.517 Y953.76 Z-1.096 I0.161 J-1.416
N3465 X187.195 Y956.592 Z-1.252 I-0.161 J1.416
N3470 X187.517 Y953.76 Z-1.408 I0.161 J-1.416
N3475 X187.195 Y956.592 Z-1.565 I-0.161 J1.416
N3480 X187.517 Y953.76 Z-1.721 I0.161 J-1.416
N3485 X187.195 Y956.592 Z-1.877 I-0.161 J1.416
N3490 X188.368 Y954.172 Z-2. I0.161 J-1.416
N3495 X187.356 Y955.176 I-0.506 J0.502
N3500 G3 X186.345 Y956.18 I-0.506 J0.502
N3505 X185.009 Y954.526 I7.395 J-7.34 F4500.
N3510 G1 X184.982 Y954.497
N3515 X184.947 Y954.477
N3520 X184.908 Y954.47
N3525 X184.869 Y954.475
N3530 X184.833 Y954.492
N3535 X184.804 Y954.52
N3540 X184.786 Y954.555
N3545 X184.78 Y954.594
N3550 Y956.825
N3555 Y957.427
N3560 G2 X185.092 Y957.74 I0.313 J0.
N3565 G1 X187.892
N3570 X187.931 Y957.734
N3575 X187.967 Y957.716
N3580 X187.994 Y957.687
N3585 X188.012 Y957.651
N3590 X188.017 Y957.612
N3595 X188.01 Y957.572
N3600 X187.991 Y957.537
N3605 X187.961 Y957.51
N3610 G3 X186.345 Y956.18 I5.779 J-8.67
N3615 X186.078 Y954.591 I0.991 J-0.983
N3620 G2 X186.042 Y952.979 I-1.599 J-0.771
N3625 G3 X185. Y948.84 I7.698 J-4.139
N3630 G1 Y933.54
N3635 G3 X193.74 Y924.8 I8.74 J0.
N3640 G1 X201.226 Y924.845
N3645 G2 X201.545 Y924.526 I0. J-0.319
N3650 G1 Y923.174
N3655 G2 X201.226 Y922.855 I-0.319 J0.
N3660 G1 X183.374
N3665 G2 X183.055 Y923.174 I0. J0.319
N3670 G1 Y959.146
N3675 G2 X183.374 Y959.465 I0.319 J0.
N3680 G1 X201.226
N3685 G2 X201.545 Y959.146 I0. J-0.319
N3690 G1 Y957.854
N3695 G2 X201.226 Y957.535 I-0.319 J0.
N3700 G1 X193.74 Y957.58
N3705 G3 X186.042 Y952.979 I0. J-8.74
N3710 X186.434 Y950.593 I1.746 J-0.939
N3715 G2 X187.397 Y948.375 I-2.075 J-2.218
N3720 G1 Y933.54
N3725 G3 X193.74 Y927.197 I6.343 J0.
N3730 G1 X203.622 Y927.242
N3735 G2 X203.942 Y926.922 I0. J-0.319
N3740 G1 Y920.778
N3745 G2 X203.622 Y920.458 I-0.319 J0.
N3750 G1 X180.978
N3755 G2 X180.658 Y920.778 I0. J0.319
N3760 G1 Y961.542
N3765 G2 X180.978 Y961.862 I0.319 J0.
N3770 G1 X203.622
N3775 G2 X203.942 Y961.542 I0. J-0.319
N3780 G1 Y955.458
N3785 G2 X203.622 Y955.138 I-0.319 J0.
N3790 G1 X193.74 Y955.183
N3795 G3 X187.397 Y948.84 I0. J-6.343
N3800 G1 Y948.375
N3805 G3 X188.595 Y946.577 I1.947 J0.
N3810 G2 X189.793 Y944.78 I-0.749 J-1.797
N3815 G1 Y933.54
N3820 G3 X193.74 Y929.593 I3.947 J0.
N3825 G1 X206.019 Y929.638
N3830 G2 X206.338 Y929.319 I0. J-0.319
N3835 G1 Y918.381
N3840 G2 X206.019 Y918.062 I-0.319 J0.
N3845 G1 X178.581
N3850 G2 X178.262 Y918.381 I0. J0.319
N3855 G1 Y963.939
N3860 G2 X178.581 Y964.258 I0.319 J0.
N3865 G1 X206.019
N3870 G2 X206.338 Y963.939 I0. J-0.319
N3875 G1 Y953.061
N3880 G2 X206.019 Y952.742 I-0.319 J0.
N3885 G1 X193.74 Y952.787
N3890 G3 X189.793 Y948.84 I0. J-3.947
N3895 G1 Y944.78
N3900 G3 X191.017 Y942.945 I1.988 J0.
N3905 G2 X192.24 Y941.11 I-0.765 J-1.835
N3910 G1 Y933.54
N3915 G3 X193.74 Y932.04 I1.5 J0.
N3920 G1 X208.74
N3925 Y915.66
N3930 X175.86
N3935 Y966.66
N3940 X208.74
N3945 Y950.34
N3950 X193.74
N3955 G3 X192.24 Y948.84 I0. J-1.5
N3960 G1 Y941.11
N3965 X192.235 Y941.053 Z-1.989 F1000.
N3970 X192.218 Y940.998 Z-1.977
N3975 X192.197 Y940.954 Z-1.945
N3980 X192.168 Y940.915 Z-1.912
N3985 X192.121 Y940.87 Z-1.815
N3990 X192.102 Y940.857 Z-1.7
N3995 G0 Z5.
N4000 X179.191 Y882.407
N4005 G1 Z2.8 F1000.
N4010 X179.227 Y882.418 Z2.653 F333.33
N4015 X179.33 Y882.444 Z2.544
N4020 X179.473 Y882.468 Z2.5
N4025 G2 X179.785 Y879.635 Z2.344 I0.156 J-1.417
N4030 X179.473 Y882.468 Z2.187 I-0.156 J1.417
N4035 X179.785 Y879.635 Z2.031 I0.156 J-1.417
N4040 X179.473 Y882.468 Z1.875 I-0.156 J1.416
N4045 X179.785 Y879.635 Z1.718 I0.156 J-1.416
N4050 X179.473 Y882.468 Z1.562 I-0.156 J1.416
N4055 X179.785 Y879.635 Z1.406 I0.156 J-1.416
N4060 X179.473 Y882.468 Z1.249 I-0.156 J1.416
N4065 X179.785 Y879.635 Z1.093 I0.156 J-1.416
N4070 X179.473 Y882.468 Z0.937 I-0.156 J1.416
N4075 X179.785 Y879.635 Z0.78 I0.156 J-1.416
N4080 X179.473 Y882.468 Z0.624 I-0.156 J1.416
N4085 X179.785 Y879.635 Z0.468 I0.156 J-1.416
N4090 X179.473 Y882.468 Z0.311 I-0.156 J1.416
N4095 X179.785 Y879.635 Z0.155 I0.156 J-1.416
N4100 X179.473 Y882.468 Z-0.001 I-0.156 J1.416
N4105 X179.785 Y879.635 Z-0.158 I0.156 J-1.416
N4110 X179.473 Y882.468 Z-0.314 I-0.156 J1.416
N4115 X179.785 Y879.635 Z-0.47 I0.156 J-1.416
N4120 X179.473 Y882.468 Z-0.627 I-0.156 J1.416
N4125 X179.785 Y879.635 Z-0.783 I0.156 J-1.416
N4130 X179.473 Y882.468 Z-0.939 I-0.156 J1.416
N4135 X179.785 Y879.635 Z-1.096 I0.156 J-1.416
N4140 X179.473 Y882.468 Z-1.252 I-0.156 J1.416
N4145 X179.785 Y879.635 Z-1.408 I0.156 J-1.416
N4150 X179.473 Y882.468 Z-1.565 I-0.156 J1.416
N4155 X179.785 Y879.635 Z-1.721 I0.156 J-1.416
N4160 X179.473 Y882.468 Z-1.877 I-0.156 J1.416
N4165 X180.636 Y880.044 Z-2. I0.156 J-1.416
N4170 X179.629 Y881.051 I-0.504 J0.504
N4175 G3 Y882.059 I-0.504 J0.504
N4180 X178.621 I-0.504 J-0.504
N4185 X177.936 Y881.322 I9.779 J-9.779 F4500.
N4190 G2 X177.689 Y881.413 I-0.106 J0.092
N4195 G1 Y882.671
N4200 G2 X178.009 Y882.991 I0.319 J0.
N4205 G1 X179.267
N4210 G2 X179.358 Y882.744 I0. J-0.14
N4215 G3 X178.621 Y882.059 I9.042 J-10.464
N4220 X178.43 Y881.038 I0.65 J-0.65
N4225 G2 X178.307 Y880.007 I-0.932 J-0.412
N4230 G3 X176.786 Y877.444 I10.093 J-7.727
N4235 G1 X176.764 Y877.412
N4240 X176.734 Y877.39
N4245 X176.698 Y877.378
N4250 X176.66 Y877.38
N4255 X176.624 Y877.394
N4260 X176.596 Y877.419
N4265 X176.577 Y877.452
N4270 X176.571 Y877.49
N4275 Y883.796
N4280 G2 X176.884 Y884.109 I0.313 J0.
N4285 G1 X183.19
N4290 X183.228 Y884.103
N4295 X183.261 Y884.084
N4300 X183.286 Y884.056
N4305 X183.3 Y884.02
N4310 X183.302 Y883.982
N4315 X183.29 Y883.946
N4320 X183.268 Y883.916
N4325 X183.236 Y883.894
N4330 G3 X178.307 Y880.007 I5.164 J-11.614
N4335 G1 X178.268 Y879.965 Z-1.989 F1000.
N4340 X178.222 Y879.931 Z-1.977
N4345 X178.178 Y879.91 Z-1.945
N4350 X178.132 Y879.896 Z-1.912
N4355 X178.067 Y879.889 Z-1.815
N4360 X178.044 Y879.89 Z-1.7
N4365 Z1.
N4370 X178.223 Y881.175 F4500.
N4375 Z-1.7 F1000.
N4380 Y881.167 Z-1.767
N4385 X178.222 Y881.145 Z-1.83
N4390 Y881.109 Z-1.887
N4395 X178.221 Y881.062 Z-1.935
N4400 X178.22 Y881.005 Z-1.97
N4405 X178.219 Y880.942 Z-1.992
N4410 X178.218 Y880.875 Z-2.
N4415 X177.683 Y844.659 F4500.
N4420 X177.689 Y844.613
N4425 X177.71 Y844.57
N4430 X177.743 Y844.537
N4435 X177.785 Y844.515
N4440 X177.831 Y844.507
N4445 X177.87 Y844.501
N4450 X177.906 Y844.484
N4455 X177.936 Y844.458
N4460 G3 X179.358 Y843.036 I10.464 J9.042
N4465 G2 X179.267 Y842.789 I-0.092 J-0.106
N4470 G1 X178.009
N4475 G2 X177.689 Y843.109 I0. J0.319
N4480 G1 Y844.367
N4485 X177.696 Y844.41
N4490 X177.716 Y844.45
N4495 X177.748 Y844.481
N4500 X177.787 Y844.5
N4505 X177.831 Y844.507
N4510 G3 X178.788 Y844.548 I0.095 J8.921
N4515 G2 X179.694 Y844.239 I0.112 J-1.154
N4520 G3 X183.236 Y841.886 I8.706 J9.261
N4525 G1 X183.268 Y841.864
N4530 X183.29 Y841.834
N4535 X183.302 Y841.798
N4540 X183.3 Y841.76
N4545 X183.286 Y841.724
N4550 X183.261 Y841.696
N4555 X183.228 Y841.677
N4560 X183.19 Y841.671
N4565 X176.884
N4570 G2 X176.571 Y841.984 I0. J0.313
N4575 G1 Y848.29
N4580 X176.577 Y848.328
N4585 X176.596 Y848.361
N4590 X176.624 Y848.386
N4595 X176.66 Y848.4
N4600 X176.698 Y848.402
N4605 X176.734 Y848.39
N4610 X176.764 Y848.368
N4615 X176.786 Y848.336
N4620 G3 X179.694 Y844.239 I11.614 J5.164
N4625 X181.165 Y844.022 I0.891 J0.948
N4630 G2 X182.651 Y843.962 I0.688 J-1.382
N4635 G3 X188.4 Y842.363 I5.749 J9.538
N4640 G1 X198.829 Y842.408
N4645 G2 X199.148 Y842.089 I0. J-0.319
N4650 G1 Y840.371
N4655 G2 X198.829 Y840.052 I-0.319 J0.
N4660 G1 X175.271
N4665 G2 X174.952 Y840.371 I0. J0.319
N4670 G1 Y885.409
N4675 G2 X175.271 Y885.728 I0.319 J0.
N4680 G1 X198.829
N4685 G2 X199.148 Y885.409 I0. J-0.319
N4690 G1 Y883.691
N4695 G2 X198.829 Y883.372 I-0.319 J0.
N4700 G1 X188.4 Y883.417
N4705 G3 X177.263 Y872.28 I0. J-11.137
N4710 G1 Y853.5
N4715 G3 X182.651 Y843.962 I11.137 J0.
N4720 X184.999 Y844.161 I1.037 J1.72
N4725 G2 X187.257 Y844.835 I1.881 J-2.183
N4730 G3 X188.4 Y844.76 I1.143 J8.665
N4735 G1 X201.226 Y844.805
N4740 G2 X201.545 Y844.486 I0. J-0.319
N4745 G1 Y837.974
N4750 G2 X201.226 Y837.655 I-0.319 J0.
N4755 G1 X172.874
N4760 G2 X172.555 Y837.974 I0. J0.319
N4765 G1 Y887.806
N4770 G2 X172.874 Y888.125 I0.319 J0.
N4775 G1 X201.226
N4780 G2 X201.545 Y887.806 I0. J-0.319
N4785 G1 Y881.294
N4790 G2 X201.226 Y880.975 I-0.319 J0.
N4795 G1 X188.4 Y881.02
N4800 G3 X179.66 Y872.28 I0. J-8.74
N4805 G1 Y853.5
N4810 G3 X187.257 Y844.835 I8.74 J0.
N4815 X189.249 Y845.935 I0.251 J1.9
N4820 G2 X191.163 Y847.165 I1.92 J-0.883
N4825 G1 X203.622 Y847.202
N4830 G2 X203.942 Y846.882 I0. J-0.319
N4835 G1 Y835.578
N4840 G2 X203.622 Y835.258 I-0.319 J0.
N4845 G1 X170.478
N4850 G2 X170.158 Y835.578 I0. J0.319
N4855 G1 Y890.202
N4860 G2 X170.478 Y890.522 I0.319 J0.
N4865 G1 X203.622
N4870 G2 X203.942 Y890.202 I0. J-0.319
N4875 G1 Y878.898
N4880 G2 X203.622 Y878.578 I-0.319 J0.
N4885 G1 X188.4 Y878.623
N4890 G3 X182.057 Y872.28 I0. J-6.343
N4895 G1 Y853.5
N4900 G3 X188.4 Y847.157 I6.343 J0.
N4905 G1 X191.163 Y847.165
N4910 G3 X192.956 Y848.367 I-0.006 J1.947
N4915 G2 X194.749 Y849.57 I1.798 J-0.743
N4920 G1 X206.019 Y849.598
N4925 G2 X206.338 Y849.279 I0. J-0.319
N4930 G1 Y833.181
N4935 G2 X206.019 Y832.862 I-0.319 J0.
N4940 G1 X168.081
N4945 G2 X167.762 Y833.181 I0. J0.319
N4950 G1 Y892.599
N4955 G2 X168.081 Y892.918 I0.319 J0.
N4960 G1 X206.019
N4965 G2 X206.338 Y892.599 I0. J-0.319
N4970 G1 Y876.501
N4975 G2 X206.019 Y876.182 I-0.319 J0.
N4980 G1 X188.4 Y876.227
N4985 G3 X184.453 Y872.28 I0. J-3.947
N4990 G1 Y853.5
N4995 G3 X188.4 Y849.553 I3.947 J0.
N5000 G1 X194.749 Y849.57
N5005 G3 X196.569 Y850.785 I-0.005 J1.978
N5010 G2 X198.389 Y852. I1.82 J-0.755
N5015 G1 X208.74
N5020 Y830.46
N5025 X165.36
N5030 Y895.32
N5035 X208.74
N5040 Y873.78
N5045 X188.4
N5050 G3 X186.9 Y872.28 I0. J-1.5
N5055 G1 Y853.5
N5060 G3 X188.4 Y852. I1.5 J0.
N5065 G1 X198.389
N5070 X198.446 Y851.995 Z-1.989 F1000.
N5075 X198.501 Y851.978 Z-1.977
N5080 X198.544 Y851.957 Z-1.945
N5085 X198.584 Y851.928 Z-1.912
N5090 X198.628 Y851.881 Z-1.815
N5095 X198.641 Y851.862 Z-1.7
N5100 G0 Z5.
N5105 X186.698 Y800.204
N5110 G1 Z2.8 F1000.
N5115 X186.735 Y800.215 Z2.653 F333.33
N5120 X186.837 Y800.242 Z2.544
N5125 X186.98 Y800.265 Z2.5
N5130 G2 X187.302 Y797.434 Z2.344 I0.161 J-1.416
N5135 X186.98 Y800.265 Z2.187 I-0.161 J1.416
N5140 X187.302 Y797.434 Z2.031 I0.161 J-1.416
N5145 X186.98 Y800.265 Z1.875 I-0.161 J1.416
N5150 X187.302 Y797.434 Z1.718 I0.161 J-1.416
N5155 X186.98 Y800.265 Z1.562 I-0.161 J1.416
N5160 X187.302 Y797.434 Z1.406 I0.161 J-1.416
N5165 X186.98 Y800.265 Z1.249 I-0.161 J1.416
N5170 X187.302 Y797.434 Z1.093 I0.161 J-1.416
N5175 X186.98 Y800.265 Z0.937 I-0.161 J1.416
N5180 X187.302 Y797.434 Z0.78 I0.161 J-1.416
N5185 X186.98 Y800.265 Z0.624 I-0.161 J1.416
N5190 X187.302 Y797.434 Z0.468 I0.161 J-1.416
N5195 X186.98 Y800.265 Z0.311 I-0.161 J1.416
N5200 X187.302 Y797.434 Z0.155 I0.161 J-1.416
N5205 X186.98 Y800.265 Z-0.001 I-0.161 J1.416
N5210 X187.302 Y797.434 Z-0.158 I0.161 J-1.416
N5215 X186.98 Y800.265 Z-0.314 I-0.161 J1.416
N5220 X187.302 Y797.434 Z-0.47 I0.161 J-1.416
N5225 X186.98 Y800.265 Z-0.627 I-0.161 J1.416
N5230 X187.302 Y797.434 Z-0.783 I0.161 J-1.416
N5235 X186.98 Y800.265 Z-0.939 I-0.161 J1.416
N5240 X187.302 Y797.434 Z-1.096 I0.161 J-1.416
N5245 X186.98 Y800.265 Z-1.252 I-0.161 J1.416
N5250 X187.302 Y797.434 Z-1.408 I0.161 J-1.416
N5255 X186.98 Y800.265 Z-1.565 I-0.161 J1.416
N5260 X187.302 Y797.434 Z-1.721 I0.161 J-1.416
N5265 X186.98 Y800.265 Z-1.877 I-0.161 J1.416
N5270 X188.153 Y797.846 Z-2. I0.161 J-1.416
N5275 X187.145 Y797.842 I-0.506 J0.502
N5280 X187.141 Y798.85 I0.502 J0.506
N5285 G3 X186.13 Y799.853 I-0.506 J0.502
N5290 X185.32 Y798.938 I7.61 J-7.553 F4500.
N5295 G2 X185.082 Y799.021 I-0.104 J0.082
N5300 G1 Y800.585
N5305 G2 X185.395 Y800.898 I0.313 J0.
N5310 G1 X186.941
N5315 G2 X187.025 Y800.659 I0. J-0.134
N5320 G3 X186.13 Y799.853 I6.715 J-8.359
N5325 G1 X186.086 Y799.817 Z-1.989 F1000.
N5330 X186.036 Y799.789 Z-1.977
N5335 X185.989 Y799.774 Z-1.945
N5340 X185.942 Y799.766 Z-1.912
N5345 X185.877 Y799.767 Z-1.815
N5350 X185.854 Y799.771 Z-1.7
N5355 G0 Z5.
N5360 X188.224 Y766.011
N5365 G1 Z2.8 F1000.
N5370 X188.255 Y766.034 Z2.653 F333.33
N5375 X188.342 Y766.093 Z2.544
N5380 X188.469 Y766.164 Z2.5
N5385 G2 X189.727 Y763.606 Z2.344 I0.629 J-1.279
N5390 X188.469 Y766.164 Z2.187 I-0.629 J1.279
N5395 X189.727 Y763.606 Z2.031 I0.629 J-1.279
N5400 X188.469 Y766.164 Z1.875 I-0.629 J1.279
N5405 X189.727 Y763.606 Z1.718 I0.629 J-1.279
N5410 X188.469 Y766.164 Z1.562 I-0.629 J1.279
N5415 X189.727 Y763.606 Z1.406 I0.629 J-1.279
N5420 X188.469 Y766.164 Z1.249 I-0.629 J1.279
N5425 X189.727 Y763.606 Z1.093 I0.629 J-1.279
N5430 X188.469 Y766.164 Z0.937 I-0.629 J1.279
N5435 X189.727 Y763.606 Z0.78 I0.629 J-1.279
N5440 X188.469 Y766.164 Z0.624 I-0.629 J1.279
N5445 X189.727 Y763.606 Z0.468 I0.629 J-1.279
N5450 X188.469 Y766.164 Z0.311 I-0.629 J1.279
N5455 X189.727 Y763.606 Z0.155 I0.629 J-1.279
N5460 X188.469 Y766.164 Z-0.001 I-0.629 J1.279
N5465 X189.727 Y763.606 Z-0.158 I0.629 J-1.279
N5470 X188.469 Y766.164 Z-0.314 I-0.629 J1.279
N5475 X189.727 Y763.606 Z-0.47 I0.629 J-1.279
N5480 X188.469 Y766.164 Z-0.627 I-0.629 J1.279
N5485 X189.727 Y763.606 Z-0.783 I0.629 J-1.279
N5490 X188.469 Y766.164 Z-0.939 I-0.629 J1.279
N5495 X189.727 Y763.606 Z-1.096 I0.629 J-1.279
N5500 X188.469 Y766.164 Z-1.252 I-0.629 J1.279
N5505 X189.727 Y763.606 Z-1.408 I0.629 J-1.279
N5510 X188.469 Y766.164 Z-1.565 I-0.629 J1.279
N5515 X189.727 Y763.606 Z-1.721 I0.629 J-1.279
N5520 X188.469 Y766.164 Z-1.877 I-0.629 J1.279
N5525 X190.388 Y764.28 Z-2. I0.629 J-1.279
N5530 X189.097 Y764.882 I-0.645 J0.302
N5535 G1 X189.098 Y764.886
N5540 G3 X187.808 Y765.49 I-0.646 J0.299
N5545 X187.496 Y764.788 I14.834 J-7.005 F4500.
N5550 X187.18 Y763.916 I9.295 J-3.869
N5555 X187.109 Y763.66 I4.053 J-1.263
N5560 G2 X187.038 Y763.405 I-4.124 J1.008
N5565 G1 X187.02 Y763.371
N5570 X186.992 Y763.346
N5575 X186.957 Y763.332
N5580 X186.919 Y763.331
N5585 X186.884 Y763.343
N5590 X186.855 Y763.367
N5595 X186.835 Y763.4
N5600 X186.829 Y763.437
N5605 Y766.295
N5610 G2 X187.101 Y766.445 I0.178 J0.
N5615 G3 X187.738 Y766.071 I6.639 J10.555
N5620 G2 X187.877 Y765.635 I-0.16 J-0.292
N5625 G1 X187.808 Y765.49
N5630 G3 X188.089 Y763.893 I1.269 J-0.599
N5635 G2 X188.504 Y762.326 I-1.123 J-1.135
N5640 G1 X188.452 Y762.138
N5645 G2 X188.08 Y760.872 I-38.032 J10.475
N5650 X187.628 Y760.54 I-0.452 J0.141
N5655 G1 X185.393
N5660 G2 X185.08 Y760.853 I0. J0.313
N5665 G1 Y770.287
N5670 G2 X185.317 Y770.369 I0.133 J0.
N5675 G3 X190.321 Y766.84 I8.423 J6.631
N5680 G2 X190.428 Y766.503 I-0.07 J-0.208
N5685 G3 X189.499 Y765.019 I10.253 J-7.453
N5690 X188.823 Y763.404 I8.224 J-4.39
N5695 X188.504 Y762.326 I37.661 J-11.741
N5700 X188.991 Y760.811 I1.388 J-0.39
N5705 G2 X189.458 Y759.289 I-0.884 J-1.104
N5710 G1 X189.397 Y759.092
N5715 G2 X188.935 Y758.753 I-0.462 J0.144
N5720 G1 X183.612
N5725 G2 X183.293 Y759.072 I0. J0.319
N5730 G1 Y802.368
N5735 G2 X183.612 Y802.687 I0.319 J0.
N5740 G1 X200.988
N5745 G2 X201.307 Y802.368 I0. J-0.319
N5750 G1 Y801.552
N5755 G2 X200.988 Y801.233 I-0.319 J0.
N5760 X197.364 Y801.255 I0. J291.853
N5765 G3 X193.74 Y801.278 I-3.624 J-291.831
N5770 X184.762 Y792.3 I0. J-8.978
N5775 G1 Y777.
N5780 G3 X193.74 Y768.047 I8.953 J0.
N5785 X194.07 Y768.057 I0. J5.283
N5790 G2 X194.4 Y768.067 I0.33 J-5.273
N5795 G1 X194.439 Y768.061
N5800 X194.475 Y768.042
N5805 X194.503 Y768.013
N5810 X194.52 Y767.976
N5815 X194.524 Y767.936
N5820 X194.515 Y767.897
N5825 X194.495 Y767.863
N5830 X194.464 Y767.836
N5835 G3 X192.043 Y765.714 I4.822 J-7.945
N5840 X190.528 Y762.872 I6.735 J-5.414
N5845 X189.962 Y760.982 I82.558 J-25.738
N5850 G2 X189.458 Y759.289 I-83.123 J23.848
N5855 G1 X189.436 Y759.236 Z-1.989 F1000.
N5860 X189.404 Y759.189 Z-1.977
N5865 X189.37 Y759.154 Z-1.945
N5870 X189.331 Y759.125 Z-1.912
N5875 X189.273 Y759.096 Z-1.815
N5880 X189.251 Y759.089 Z-1.7
N5885 G0 Z5.
N5890 X215.111 Y739.517
N5895 G1 Z2.8 F1000.
N5900 X215.077 Y739.535 Z2.653 F333.33
N5905 X214.986 Y739.589 Z2.544
N5910 X214.868 Y739.674 Z2.5
N5915 G2 X216.651 Y741.898 Z2.344 I0.891 J1.112
N5920 X214.868 Y739.674 Z2.187 I-0.891 J-1.112
N5925 X216.651 Y741.898 Z2.031 I0.891 J1.112
N5930 X214.868 Y739.674 Z1.875 I-0.891 J-1.112
N5935 X216.651 Y741.898 Z1.718 I0.891 J1.112
N5940 X214.868 Y739.674 Z1.562 I-0.891 J-1.112
N5945 X216.651 Y741.898 Z1.406 I0.892 J1.112
N5950 X214.868 Y739.674 Z1.249 I-0.892 J-1.112
N5955 X216.651 Y741.898 Z1.093 I0.892 J1.112
N5960 X214.868 Y739.674 Z0.937 I-0.892 J-1.112
N5965 X216.652 Y741.898 Z0.78 I0.892 J1.112
N5970 X214.868 Y739.674 Z0.624 I-0.892 J-1.112
N5975 X216.652 Y741.898 Z0.468 I0.892 J1.112
N5980 X214.868 Y739.674 Z0.311 I-0.892 J-1.112
N5985 X216.652 Y741.898 Z0.155 I0.892 J1.112
N5990 X214.868 Y739.674 Z-0.001 I-0.892 J-1.112
N5995 X216.652 Y741.898 Z-0.158 I0.892 J1.112
N6000 X214.868 Y739.674 Z-0.314 I-0.892 J-1.112
N6005 X216.652 Y741.898 Z-0.47 I0.892 J1.112
N6010 X214.868 Y739.674 Z-0.627 I-0.892 J-1.112
N6015 X216.652 Y741.898 Z-0.783 I0.892 J1.112
N6020 X214.868 Y739.674 Z-0.939 I-0.892 J-1.112
N6025 X216.652 Y741.898 Z-1.096 I0.892 J1.112
N6030 X214.868 Y739.674 Z-1.252 I-0.892 J-1.112
N6035 X216.652 Y741.898 Z-1.408 I0.892 J1.112
N6040 X214.868 Y739.674 Z-1.565 I-0.892 J-1.112
N6045 X216.652 Y741.898 Z-1.721 I0.892 J1.112
N6050 X214.868 Y739.674 Z-1.877 I-0.892 J-1.112
N6055 X215.76 Y742.211 Z-2. I0.892 J1.112
N6060 Y740.786 I0. J-0.713
N6065 G3 Y739.361 I0. J-0.712
N6070 G1 X216.218 F4500.
N6075 X216.256 Y739.354
N6080 X216.29 Y739.336
N6085 X216.317 Y739.306
N6090 X216.332 Y739.27
N6095 X216.334 Y739.231
N6100 X216.323 Y739.193
N6105 X216.301 Y739.161
N6110 X216.269 Y739.139
N6115 G3 X215.845 Y738.917 I4.231 J-8.639
N6120 G1 X215.804 Y738.901
N6125 X215.76 Y738.896
N6130 X215.716 Y738.901
N6135 X215.675 Y738.917
N6140 G3 X215.251 Y739.139 I-4.655 J-8.417
N6145 G1 X215.219 Y739.161
N6150 X215.197 Y739.193
N6155 X215.186 Y739.231
N6160 X215.188 Y739.27
N6165 X215.203 Y739.306
N6170 X215.23 Y739.336
N6175 X215.264 Y739.354
N6180 X215.302 Y739.361
N6185 X215.76
N6190 G3 X217.034 Y740.21 I0. J1.38
N6195 G2 X218.308 Y741.06 I1.274 J-0.531
N6200 G1 X219.863
N6205 G2 X220.012 Y740.786 I0. J-0.177
N6210 G1 X219.892 Y740.613
N6215 X219.772 Y740.439
N6220 G3 X219.286 Y739.555 I6.046 J-3.898
N6225 X218.917 Y738.616 I8.016 J-3.699
N6230 G2 X218.416 Y738.141 I-0.692 J0.228
N6235 G3 X216.049 Y737.051 I2.084 J-7.641
N6240 G2 X215.471 I-0.289 J0.425
N6245 G3 X212.756 Y738.228 I-4.451 J-6.551
N6250 G2 X212.547 Y738.591 I0.062 J0.277
N6255 G1 X213.218 Y740.72
N6260 G2 X213.682 Y741.06 I0.463 J-0.146
N6265 G1 X218.308
N6270 G3 X219.833 Y742.069 I0. J1.657
N6275 G2 X221.358 Y743.078 I1.517 J-0.635
N6280 G1 X221.4
N6285 G3 X222.819 Y743.274 I0. J5.239
N6290 X224.149 Y743.807 I-1.816 J6.452
N6295 G1 X224.186 Y743.82
N6300 X224.225
N6305 X224.261 Y743.807
N6310 X224.292 Y743.783
N6315 X224.313 Y743.75
N6320 X224.323 Y743.713
N6325 X224.32 Y743.674
N6330 X224.304 Y743.638
N6335 G2 X222.892 Y741.488 I-126.13 J81.313
N6340 G3 X221.48 Y739.338 I124.718 J-83.463
N6345 X220.882 Y738.058 I4.389 J-2.829
N6350 X220.607 Y736.672 I6.427 J-1.997
N6355 G2 X220.271 Y736.353 I-0.35 J0.032
N6360 G3 X215.945 Y734.183 I0.229 J-5.853
N6365 G2 X215.575 I-0.185 J0.15
N6370 G3 X213.548 Y735.802 I-4.688 J-3.79
N6375 X211.02 Y736.39 I-2.527 J-5.139
N6380 X210.498 Y736.376 I0. J-9.729
N6385 G2 X209.977 Y736.356 I-0.956 J17.813
N6390 X209.768 Y736.635 I-0.005 J0.214
N6395 G1 X211.708 Y742.789
N6400 G2 X212.162 Y743.122 I0.454 J-0.143
N6405 G1 X221.358 Y743.078
N6410 X221.415 Y743.073 Z-1.989 F1000.
N6415 X221.47 Y743.057 Z-1.977
N6420 X221.513 Y743.035 Z-1.945
N6425 X221.553 Y743.007 Z-1.912
N6430 X221.597 Y742.959 Z-1.815
N6435 X221.61 Y742.94 Z-1.7
N6440 Z1.
N6445 X217.948 Y737.033 F4500.
N6450 Z-1.7 F1000.
N6455 X217.953 Y737.028 Z-1.767
N6460 X217.969 Y737.012 Z-1.83
N6465 X217.995 Y736.987 Z-1.887
N6470 X218.028 Y736.954 Z-1.935
N6475 X218.069 Y736.914 Z-1.97
N6480 X218.114 Y736.87 Z-1.992
N6485 X218.162 Y736.823 Z-2.
N6490 X230.427 Y724.826 F4500.
N6495 X230.465 Y724.799
N6500 X230.51 Y724.785
N6505 X230.558 Y724.786
N6510 X230.602 Y724.801
N6515 X230.64 Y724.829
N6520 X230.673 Y724.857
N6525 X230.711 Y724.876
N6530 X230.753 Y724.886
N6535 X230.795
N6540 G3 X231.593 Y724.843 I0.792 J7.287
N6545 X232.392 Y724.883 I-0.007 J8.198
N6550 G2 X232.687 Y724.615 I0.026 J-0.268
N6555 G1 Y714.606
N6560 G2 X232.374 Y714.293 I-0.313 J0.
N6565 G1 X230.992
N6570 G2 X230.781 Y714.582 I0. J0.222
N6575 G3 X231.532 Y719.624 I-14.932 J4.802
N6580 X230.599 Y724.635 I-15.164 J-0.231
N6585 G1 X230.588 Y724.686
N6590 X230.591 Y724.738
N6595 X230.609 Y724.787
N6600 X230.64 Y724.829
N6605 X230.675 Y724.858 Z-1.993 F1000.
N6610 X230.715 Y724.877 Z-1.986
N6615 X230.755 Y724.886 Z-1.966
N6620 X230.795 Z-1.946
N6625 X230.889 Y724.876 Z-1.839
N6630 X230.923 Y724.873 Z-1.7
N6635 G0 Z5.
N6640 X214.315 Y736.851
N6645 G1 Z1. F1000.
N6650 Z-1.7
N6655 X214.311 Y736.845 Z-1.767
N6660 X214.298 Y736.827 Z-1.83
N6665 X214.277 Y736.798 Z-1.887
N6670 X214.249 Y736.76 Z-1.935
N6675 X214.216 Y736.714 Z-1.97
N6680 X214.178 Y736.663 Z-1.992
N6685 X214.139 Y736.609 Z-2.
N6690 X214.106 Y736.576 F4500.
N6695 X214.064 Y736.554
N6700 X214.018 Y736.547
N6705 X209.99 Y736.546
N6710 X209.957 Y736.542
N6715 X209.926 Y736.531
N6720 X209.898 Y736.514
N6725 G3 X205.258 Y731.314 I11.434 J-14.873
N6730 X202.229 Y725.036 I32.455 J-19.529
N6735 X201.373 Y722.312 I25.288 J-9.444
N6740 X200.788 Y719.516 I30.377 J-7.807
N6745 G2 X200.001 Y717.466 I-5.294 J0.857
N6750 G3 X200.467 Y715.321 I1.303 J-0.841
N6755 G1 X200.49 Y715.301
N6760 X200.508 Y715.276
N6765 X200.52 Y715.248
N6770 G3 X200.602 Y714.948 I9.31 J2.39
N6775 X200.691 Y714.651 I16.115 J4.697
N6780 G2 X200.478 Y714.361 I-0.214 J-0.067
N6785 G1 X200.4
N6790 X200.305
N6795 G2 X200.092 Y714.651 I0. J0.223
N6800 G1 X200.282 Y715.254
N6805 X200.299 Y715.288
N6810 X200.325 Y715.315
N6815 X200.358 Y715.333
N6820 X200.395 Y715.34
N6825 X200.432 Y715.336
N6830 X200.467 Y715.321
N6835 X200.49 Y715.301 Z-1.995 F1000.
N6840 X200.508 Y715.276 Z-1.99
N6845 X200.52 Y715.248 Z-1.985
N6850 X200.547 Y715.143 Z-1.923
N6855 X200.566 Y715.072 Z-1.822
N6860 X200.573 Y715.047 Z-1.7
N6865 G0 Z5.
N6870 X216.883 Y741.893
N6875 G1 Z1. F1000.
N6880 Z-1.7
N6885 X216.886 Y741.9 Z-1.767
N6890 X216.894 Y741.921 Z-1.83
N6895 X216.908 Y741.954 Z-1.887
N6900 X216.926 Y741.998 Z-1.935
N6905 X216.947 Y742.051 Z-1.97
N6910 X216.971 Y742.109 Z-1.992
N6915 X216.996 Y742.171 Z-2.
N6920 X217.017 Y742.208 F4500.
N6925 X217.048 Y742.237
N6930 X217.086 Y742.256
N6935 X217.127 Y742.264
N6940 X222.712 Y742.548
N6945 X222.752 Y742.556
N6950 X222.789 Y742.575
N6955 X222.828 Y742.608
N6960 X222.86 Y742.648
N6965 X222.883 Y742.693
N6970 X222.897 Y742.742
N6975 X227.163 Y766.494
N6980 G3 X227.006 Y766.781 I-0.255 J0.046
N6985 G1 X226.963 Y766.806
N6990 G3 X224.784 Y768.146 I-5.563 J-6.606
N6995 G1 X224.752 Y768.167
N7000 X224.728 Y768.198
N7005 X224.716 Y768.234
N7010 X224.717 Y768.273
N7015 X224.731 Y768.309
N7020 X224.757 Y768.338
N7025 X224.79 Y768.357
N7030 X224.828 Y768.363
N7035 X226.64
N7040 X226.904
N7045 G2 X227.223 Y768.044 I0. J-0.319
N7050 G1 Y766.927
N7055 G2 X227.006 Y766.781 I-0.158 J0.
N7060 G3 X226.011 Y766.728 I-0.442 J-1.086
N7065 G2 X225.016 Y766.74 I-0.487 J0.912
N7070 G3 X221.4 Y767.69 I-3.616 J-6.405
N7075 G1 X199.099
N7080 G3 X191.948 Y762.429 I0. J-7.49
N7085 X191.218 Y760.014 I137.812 J-42.964
N7090 G2 X190.489 Y757.599 I-138.542 J40.548
N7095 X190.036 Y757.266 I-0.452 J0.141
N7100 G1 X182.119
N7105 G2 X181.806 Y757.579 I0. J0.313
N7110 G1 Y803.861
N7115 G2 X182.119 Y804.174 I0.313 J0.
N7120 G1 X202.481
N7125 G2 X202.794 Y803.861 I0. J-0.313
N7130 G1 Y800.059
N7135 G2 X202.481 Y799.746 I-0.313 J0.
N7140 G1 X193.74 Y799.79
N7145 G3 X186.25 Y792.3 I0. J-7.49
N7150 G1 Y777.
N7155 G3 X193.74 Y769.51 I7.49 J0.
N7160 G1 X228.101 Y769.554
N7165 G2 X228.414 Y769.241 I0. J-0.313
N7170 G1 Y763.281
N7175 X228.408 Y763.244
N7180 X228.389 Y763.21
N7185 X228.36 Y763.185
N7190 X228.325 Y763.171
N7195 X228.287 Y763.17
N7200 X228.251 Y763.181
N7205 X228.22 Y763.204
N7210 X228.199 Y763.235
N7215 G3 X225.459 Y766.469 I-6.926 J-3.092
N7220 X225.016 Y766.74 I-4.059 J-6.134
N7225 X223.478 Y766.56 I-0.646 J-1.144
N7230 G2 X222.009 Y766.07 I-1.275 J1.378
N7235 G3 X221.4 Y766.102 I-0.609 J-5.87
N7240 G1 X199.099
N7245 G3 X193.465 Y761.957 I0. J-5.902
N7250 G1 X191.657 Y756.01
N7255 G2 X191.205 Y755.678 I-0.452 J0.141
N7260 G1 X180.531
N7265 G2 X180.218 Y755.991 I0. J0.313
N7270 G1 Y805.449
N7275 G2 X180.531 Y805.762 I0.313 J0.
N7280 G1 X204.069
N7285 G2 X204.382 Y805.449 I0. J-0.313
N7290 G1 Y798.471
N7295 G2 X204.069 Y798.158 I-0.313 J0.
N7300 G1 X193.74 Y798.202
N7305 G3 X187.838 Y792.3 I0. J-5.902
N7310 G1 Y777.
N7315 G3 X193.74 Y771.098 I5.902 J0.
N7320 G1 X229.689 Y771.142
N7325 G2 X230.002 Y770.829 I0. J-0.313
N7330 G1 Y749.542
N7335 G2 X229.683 Y749.129 I-0.427 J0.
N7340 G3 X227.413 Y747.963 I1.476 J-5.669
N7345 G2 X227.19 Y748.089 I-0.088 J0.105
N7350 G3 X227.255 Y748.533 I-31.158 J4.795
N7355 X227.286 Y748.98 I-3.21 J0.447
N7360 G1 X227.302 Y760.2
N7365 G3 X222.009 Y766.07 I-5.902 J0.
N7370 X220.681 Y765.305 I-0.135 J-1.3
N7375 G2 X219.395 Y764.471 I-1.286 J0.576
N7380 G1 X199.099
N7385 G3 X195.021 Y761.471 I0. J-4.271
N7390 G1 X192.86 Y754.386
N7395 G2 X192.398 Y754.046 I-0.461 J0.144
N7400 G1 X178.906
N7405 G2 X178.586 Y754.366 I0. J0.319
N7410 G1 Y807.074
N7415 G2 X178.906 Y807.394 I0.319 J0.
N7420 G1 X205.694
N7425 G2 X206.014 Y807.074 I0. J-0.319
N7430 G1 Y796.846
N7435 G2 X205.694 Y796.526 I-0.319 J0.
N7440 G1 X193.74 Y796.571
N7445 G3 X189.469 Y792.3 I0. J-4.271
N7450 G1 Y777.
N7455 G3 X193.74 Y772.729 I4.271 J0.
N7460 G1 X231.314 Y772.774
N7465 G2 X231.634 Y772.454 I0. J-0.319
N7470 G1 Y748.006
N7475 G2 X231.314 Y747.686 I-0.319 J0.
N7480 G1 X231.237 Y747.689
N7485 X231.159 Y747.691
N7490 G3 X229.12 Y747.19 I0. J-4.401
N7495 X227.569 Y745.774 I1.905 J-3.644
N7500 G1 X222.85 Y738.454
N7505 G3 X222.347 Y737.346 I3.512 J-2.264
N7510 X222.176 Y736.14 I4.189 J-1.206
N7515 X222.229 Y734.945 I13.682 J0.
N7520 G2 X221.96 Y734.689 I-0.237 J-0.02
N7525 G3 X221.231 Y734.754 I-1.118 J-8.361
N7530 X220.5 Y734.771 I-0.731 J-15.843
N7535 X216.229 Y730.5 I0. J-4.271
N7540 G1 X216.274 Y574.546
N7545 G2 X215.954 Y574.226 I-0.319 J0.
N7550 G1 X215.566
N7555 G2 X215.246 Y574.546 I0. J0.319
N7560 G1 X215.291 Y730.5
N7565 G3 X211.02 Y734.771 I-4.271 J0.
N7570 X209.503 Y734.681 I0. J-12.862
N7575 X208.057 Y734.214 I0.464 J-3.906
N7580 X207.749 Y734.03 I2.784 J-5.011
N7585 G2 X207.442 Y733.847 I-3.092 J4.828
N7590 X207.232 Y734.018 I-0.071 J0.127
N7595 G1 X210.51 Y744.414
N7600 G2 X210.973 Y744.754 I0.463 J-0.146
N7605 G1 X221.4 Y744.709
N7610 G3 X225.671 Y748.98 I0. J4.271
N7615 G1 Y760.2
N7620 G3 X221.4 Y764.471 I-4.271 J0.
N7625 G1 X219.395
N7630 G3 X218.605 Y763.944 I0. J-0.857
N7635 G2 X217.814 Y763.417 I-0.791 J0.329
N7640 G1 X199.099
N7645 G3 X196.028 Y761.157 I0. J-3.217
N7650 G1 X193.632 Y753.326
N7655 G2 X193.18 Y752.993 I-0.452 J0.141
N7660 G1 X177.846
N7665 G2 X177.533 Y753.306 I0. J0.313
N7670 G1 Y808.134
N7675 G2 X177.846 Y808.447 I0.313 J0.
N7680 G1 X206.754
N7685 G2 X207.067 Y808.134 I0. J-0.313
N7690 G1 Y795.786
N7695 G2 X206.754 Y795.473 I-0.313 J0.
N7700 G1 X193.74 Y795.517
N7705 G3 X190.523 Y792.3 I0. J-3.217
N7710 G1 Y777.
N7715 G3 X193.74 Y773.783 I3.217 J0.
N7720 G1 X232.374 Y773.827
N7725 G2 X232.687 Y773.514 I0. J-0.313
N7730 G1 Y746.885
N7735 G2 X232.392 Y746.617 I-0.269 J0.
N7740 G3 X231.776 Y746.659 I-1.006 J-10.192
N7745 X231.159 Y746.671 I-0.617 J-16.165
N7750 X228.455 Y745.203 I0. J-3.223
N7755 G1 X223.736 Y737.883
N7760 G3 X223.294 Y736.628 I2.418 J-1.559
N7765 X223.223 Y735.3 I12.497 J-1.328
N7770 X223.358 Y734.39 I3.136 J0.
N7775 X223.745 Y733.556 I3.153 J0.956
N7780 X224.085 Y733.065 I8.031 J5.197
N7785 G2 X224.425 Y732.573 I-7.691 J-5.688
N7790 G1 X224.44 Y732.538
N7795 X224.443 Y732.5
N7800 X224.432 Y732.463
N7805 X224.41 Y732.432
N7810 X224.379 Y732.41
N7815 X224.342 Y732.4
N7820 X224.304 Y732.403
N7825 X224.269 Y732.418
N7830 G2 X223.712 Y732.806 I5.934 J9.113
N7835 G3 X223.154 Y733.194 I-6.491 J-8.724
N7840 X221.865 Y733.648 I-1.578 J-2.424
N7845 X220.5 Y733.717 I-1.365 J-13.588
N7850 X217.283 Y730.5 I0. J-3.217
N7855 G1 X217.327 Y573.486
N7860 G2 X217.014 Y573.173 I-0.313 J0.
N7865 G1 X214.506
N7870 G2 X214.193 Y573.486 I0. J0.313
N7875 G1 X214.237 Y730.5
N7880 G3 X211.02 Y733.717 I-3.217 J0.
N7885 X209.763 Y733.671 I0. J-17.387
N7890 X208.558 Y733.312 I0.211 J-2.908
N7895 G2 X207.747 Y732.879 I-13.815 J24.866
N7900 G3 X206.981 Y732.371 I1.914 J-3.724
N7905 X206.201 Y731.693 I15.513 J-18.616
N7910 G2 X205.421 Y731.014 I-16.293 J17.937
N7915 G1 X205.387 Y730.994
N7920 X205.348 Y730.985
N7925 X205.308 Y730.99
N7930 X205.272 Y731.006
N7935 X205.243 Y731.034
N7940 X205.223 Y731.069
N7945 X205.216 Y731.108
N7950 X205.222 Y731.147
N7955 X209.739 Y745.474
N7960 G2 X210.193 Y745.807 I0.454 J-0.143
N7965 G1 X221.4 Y745.763
N7970 G3 X224.617 Y748.98 I0. J3.217
N7975 G1 Y760.2
N7980 G3 X221.4 Y763.417 I-3.217 J0.
N7985 G1 X217.814
N7990 G3 X216.526 Y762.558 I0. J-1.395
N7995 G2 X215.239 Y761.7 I-1.288 J0.536
N8000 G1 X199.099
N8005 G3 X197.667 Y760.646 I0. J-1.5
N8010 G1 X194.759 Y751.32
N8015 X175.86
N8020 Y810.12
N8025 X208.74
N8030 Y793.8
N8035 X193.74
N8040 G3 X192.24 Y792.3 I0. J-1.5
N8045 G1 Y777.
N8050 G3 X193.74 Y775.5 I1.5 J0.
N8055 G1 X234.36
N8060 Y712.62
N8065 X228.128
N8070 G3 X224.954 Y729.96 I-12.247 J6.719
N8075 G1 X224.878 Y730.021
N8080 X224.799 Y730.077
N8085 X222.219 Y731.757
N8090 G3 X221.4 Y732. I-0.819 J-1.257
N8095 G1 X220.5
N8100 G3 X219. Y730.5 I0. J-1.5
N8105 G1 Y571.5
N8110 X212.52
N8115 Y730.5
N8120 G3 X211.02 Y732. I-1.5 J0.
N8125 G1 X210.12
N8130 G3 X209.392 Y731.811 I0. J-1.5
N8135 G1 X208.312 Y731.211
N8140 G3 X208.08 Y731.052 I0.728 J-1.311
N8145 G1 X205.56 Y728.952
N8150 X205.483 Y728.884
N8155 X205.412 Y728.811
N8160 G3 X203.42 Y712.62 I10.407 J-9.498
N8165 G1 X197.627
N8170 X208.618 Y747.48
N8175 X221.4
N8180 G3 X222.9 Y748.98 I0. J1.5
N8185 G1 Y760.2
N8190 G3 X221.4 Y761.7 I-1.5 J0.
N8195 G1 X215.239
N8200 G2 X215.135 Y761.959 I0. J0.15
N8205 G1 X222.028 Y768.521
N8210 X222.06 Y768.545
N8215 X222.098 Y768.559
N8220 X222.139 Y768.563
N8225 G2 X222.379 Y768.337 I-0.013 J-0.255
N8230 G1 X225.109 Y744.76
N8235 Y744.706
N8240 X225.099 Y744.653
N8245 X225.077 Y744.604
N8250 X225.045 Y744.56
N8255 X225.023 Y744.529
N8260 X225.01 Y744.493
N8265 X225.006 Y744.455
N8270 X225.207 Y737.044
N8275 X225.201 Y736.999
N8280 X225.183 Y736.959
N8285 X225.179 Y736.953
N8290 G3 X224.94 Y736.14 I1.261 J-0.813
N8295 G1 Y735.3
N8300 G3 X225.181 Y734.485 I1.5 J0.
N8305 G1 X229.879 Y727.225
N8310 G3 X231.138 Y726.54 I1.259 J0.815
N8315 G1 X232.08
N8320 G3 X233.58 Y728.04 I0. J1.5
N8325 G1 Y743.46
N8330 G3 X232.08 Y744.96 I-1.5 J0.
N8335 G1 X231.159
N8340 G3 X229.898 Y744.273 I0. J-1.5
N8345 G1 X225.183 Y736.959
N8350 X225.148 Y736.914 Z-1.989 F1000.
N8355 X225.104 Y736.876 Z-1.977
N8360 X225.062 Y736.851 Z-1.945
N8365 X225.017 Y736.834 Z-1.912
N8370 X224.953 Y736.822 Z-1.815
N8375 X224.93 Y736.821 Z-1.7
N8380 G0 Z5.
N8385 X252.267 Y839.224
N8390 G1 Z2.8 F1000.
N8395 X252.278 Y839.187 Z2.653 F333.33
N8400 X252.305 Y839.085 Z2.544
N8405 X252.328 Y838.942 Z2.5
N8410 G2 X249.496 Y838.621 Z2.344 I-1.416 J-0.16
N8415 X252.328 Y838.942 Z2.187 I1.416 J0.16
N8420 X249.496 Y838.621 Z2.031 I-1.416 J-0.16
N8425 X252.328 Y838.942 Z1.875 I1.416 J0.16
N8430 X249.496 Y838.621 Z1.718 I-1.416 J-0.16
N8435 X252.328 Y838.942 Z1.562 I1.416 J0.16
N8440 X249.496 Y838.621 Z1.406 I-1.416 J-0.16
N8445 X252.328 Y838.942 Z1.249 I1.416 J0.16
N8450 X249.496 Y838.621 Z1.093 I-1.416 J-0.16
N8455 X252.328 Y838.942 Z0.937 I1.416 J0.16
N8460 X249.496 Y838.621 Z0.78 I-1.416 J-0.16
N8465 X252.328 Y838.942 Z0.624 I1.416 J0.16
N8470 X249.496 Y838.621 Z0.468 I-1.416 J-0.16
N8475 X252.328 Y838.942 Z0.311 I1.416 J0.16
N8480 X249.496 Y838.621 Z0.155 I-1.416 J-0.16
N8485 X252.328 Y838.942 Z-0.001 I1.416 J0.16
N8490 X249.496 Y838.621 Z-0.158 I-1.416 J-0.16
N8495 X252.328 Y838.942 Z-0.314 I1.416 J0.16
N8500 X249.496 Y838.621 Z-0.47 I-1.416 J-0.16
N8505 X252.328 Y838.942 Z-0.627 I1.416 J0.16
N8510 X249.496 Y838.621 Z-0.783 I-1.416 J-0.16
N8515 X252.328 Y838.942 Z-0.939 I1.416 J0.16
N8520 X249.496 Y838.621 Z-1.096 I-1.416 J-0.16
N8525 X252.328 Y838.942 Z-1.252 I1.416 J0.16
N8530 X249.496 Y838.621 Z-1.408 I-1.416 J-0.16
N8535 X252.328 Y838.942 Z-1.565 I1.416 J0.16
N8540 X249.496 Y838.621 Z-1.721 I-1.416 J-0.16
N8545 X252.328 Y838.942 Z-1.877 I1.416 J0.16
N8550 X249.908 Y837.77 Z-2. I-1.416 J-0.16
N8555 X249.904 Y839.137 I0.681 J0.686
N8560 G1 X251.912 Y841.159
N8565 G2 X253.284 Y839.797 I0.686 J-0.681
N8570 X251.917 Y839.792 I-0.686 J0.681
N8575 G3 X250.192 Y841.213 I-8.497 J-8.552 F4500.
N8580 G1 X250.163 Y841.241
N8585 X250.144 Y841.276
N8590 X250.137 Y841.316
N8595 X250.142 Y841.355
N8600 X250.16 Y841.391
N8605 X250.188 Y841.42
N8610 X250.224 Y841.438
N8615 X250.263 Y841.445
N8620 X253.252
N8625 G2 X253.565 Y841.132 I0. J-0.313
N8630 G1 Y838.173
N8635 X253.558 Y838.134
N8640 X253.54 Y838.098
N8645 X253.511 Y838.07
N8650 X253.475 Y838.052
N8655 X253.435 Y838.046
N8660 X253.396 Y838.053
N8665 X253.36 Y838.072
N8670 X253.333 Y838.101
N8675 G3 X251.917 Y839.792 I-9.913 J-6.861
N8680 G1 X251.88 Y839.836 Z-1.989 F1000.
N8685 X251.852 Y839.887 Z-1.977
N8690 X251.837 Y839.933 Z-1.945
N8695 X251.829 Y839.981 Z-1.912
N8700 X251.831 Y840.045 Z-1.815
N8705 X251.835 Y840.068 Z-1.7
N8710 G0 Z5.
N8715 X251.38 Y805.622
N8720 G1 Z2.8 F1000.
N8725 X251.344 Y805.611 Z2.653 F333.33
N8730 X251.241 Y805.585 Z2.544
N8735 X251.098 Y805.561 Z2.5
N8740 G2 X250.786 Y808.394 Z2.344 I-0.156 J1.417
N8745 X251.098 Y805.561 Z2.187 I0.156 J-1.417
N8750 X250.786 Y808.394 Z2.031 I-0.156 J1.417
N8755 X251.098 Y805.561 Z1.875 I0.156 J-1.417
N8760 X250.786 Y808.394 Z1.718 I-0.156 J1.416
N8765 X251.098 Y805.561 Z1.562 I0.156 J-1.416
N8770 X250.786 Y808.394 Z1.406 I-0.156 J1.416
N8775 X251.098 Y805.561 Z1.249 I0.156 J-1.416
N8780 X250.786 Y808.394 Z1.093 I-0.156 J1.416
N8785 X251.098 Y805.561 Z0.937 I0.156 J-1.416
N8790 X250.786 Y808.394 Z0.78 I-0.156 J1.416
N8795 X251.098 Y805.561 Z0.624 I0.156 J-1.416
N8800 X250.786 Y808.394 Z0.468 I-0.156 J1.416
N8805 X251.098 Y805.561 Z0.311 I0.156 J-1.416
N8810 X250.786 Y808.394 Z0.155 I-0.156 J1.416
N8815 X251.098 Y805.561 Z-0.001 I0.156 J-1.416
N8820 X250.786 Y808.394 Z-0.158 I-0.156 J1.416
N8825 X251.098 Y805.561 Z-0.314 I0.156 J-1.416
N8830 X250.786 Y808.394 Z-0.47 I-0.156 J1.416
N8835 X251.098 Y805.561 Z-0.627 I0.156 J-1.416
N8840 X250.786 Y808.394 Z-0.783 I-0.156 J1.416
N8845 X251.098 Y805.561 Z-0.939 I0.156 J-1.416
N8850 X250.786 Y808.394 Z-1.096 I-0.156 J1.416
N8855 X251.098 Y805.561 Z-1.252 I0.156 J-1.416
N8860 X250.786 Y808.394 Z-1.408 I-0.156 J1.416
N8865 X251.098 Y805.561 Z-1.565 I0.156 J-1.416
N8870 X250.786 Y808.394 Z-1.721 I-0.156 J1.416
N8875 X251.098 Y805.561 Z-1.877 I0.156 J-1.416
N8880 X249.935 Y807.985 Z-2. I-0.156 J1.416
N8885 X250.942 Y806.978 I0.504 J-0.504
N8890 G3 Y805.97 I0.504 J-0.504
N8895 X251.95 I0.504 J0.504
N8900 X253.325 Y807.615 I-8.53 J8.53 F4500.
N8905 G1 X253.353 Y807.644
N8910 X253.388 Y807.663
N8915 X253.428 Y807.669
N8920 X253.468 Y807.664
N8925 X253.504 Y807.646
N8930 X253.532 Y807.617
N8935 X253.551 Y807.582
N8940 X253.557 Y807.542
N8945 Y805.305
N8950 Y804.676
N8955 G2 X253.244 Y804.363 I-0.313 J0.
N8960 G1 X250.378
N8965 X250.338 Y804.369
N8970 X250.303 Y804.388
N8975 X250.274 Y804.416
N8980 X250.256 Y804.452
N8985 X250.251 Y804.492
N8990 X250.257 Y804.532
N8995 X250.276 Y804.567
N9000 X250.305 Y804.595
N9005 G3 X251.95 Y805.97 I-6.885 J9.905
N9010 X252.231 Y807.571 I-1.001 J1.001
N9015 G2 X252.312 Y809.195 I1.57 J0.735
N9020 G3 X253.775 Y814.5 I-8.892 J5.305
N9025 G1 Y831.24
N9030 G3 X243.42 Y841.595 I-10.355 J0.
N9035 G1 X232.029 Y841.55
N9040 G2 X231.71 Y841.869 I0. J0.319
N9045 G1 Y842.871
N9050 G2 X232.029 Y843.19 I0.319 J0.
N9055 G1 X254.991
N9060 G2 X255.31 Y842.871 I0. J-0.319
N9065 G1 Y802.929
N9070 G2 X254.991 Y802.61 I-0.319 J0.
N9075 G1 X232.029
N9080 G2 X231.71 Y802.929 I0. J0.319
N9085 G1 Y803.871
N9090 G2 X232.029 Y804.19 I0.319 J0.
N9095 G1 X243.42 Y804.145
N9100 G3 X252.312 Y809.195 I0. J10.355
N9105 X252.194 Y810.736 I-1.152 J0.687
N9110 G2 X251.864 Y812.246 I1.301 J1.075
N9115 G3 X252.16 Y814.5 I-8.444 J2.254
N9120 G1 Y831.24
N9125 G3 X243.42 Y839.98 I-8.74 J0.
N9130 G1 X230.414 Y839.935
N9135 G2 X230.095 Y840.254 I0. J0.319
N9140 G1 Y844.486
N9145 G2 X230.414 Y844.805 I0.319 J0.
N9150 G1 X256.606
N9155 G2 X256.925 Y844.486 I0. J-0.319
N9160 G1 Y801.314
N9165 G2 X256.606 Y800.995 I-0.319 J0.
N9170 G1 X230.414
N9175 G2 X230.095 Y801.314 I0. J0.319
N9180 G1 Y805.486
N9185 G2 X230.414 Y805.805 I0.319 J0.
N9190 G1 X243.42 Y805.76
N9195 G3 X251.864 Y812.246 I0. J8.74
N9200 X250.951 Y814.412 I-1.852 J0.494
N9205 G2 X249.763 Y816.441 I1.139 J2.029
N9210 G1 Y831.24
N9215 G3 X243.42 Y837.583 I-6.343 J0.
N9220 G1 X228.018 Y837.538
N9225 G2 X227.698 Y837.858 I0. J0.319
N9230 G1 Y846.882
N9235 G2 X228.018 Y847.202 I0.319 J0.
N9240 G1 X259.002
N9245 G2 X259.322 Y846.882 I0. J-0.319
N9250 G1 Y798.918
N9255 G2 X259.002 Y798.598 I-0.319 J0.
N9260 G1 X228.018
N9265 G2 X227.698 Y798.918 I0. J0.319
N9270 G1 Y807.882
N9275 G2 X228.018 Y808.202 I0.319 J0.
N9280 G1 X243.42 Y808.157
N9285 G3 X249.763 Y814.5 I0. J6.343
N9290 G1 Y816.441
N9295 G3 X248.565 Y818.238 I-1.947 J0.
N9300 G2 X247.367 Y820.036 I0.749 J1.797
N9305 G1 Y831.24
N9310 G3 X243.42 Y835.187 I-3.947 J0.
N9315 G1 X225.621 Y835.142
N9320 G2 X225.302 Y835.461 I0. J0.319
N9325 G1 Y849.279
N9330 G2 X225.621 Y849.598 I0.319 J0.
N9335 G1 X261.399
N9340 G2 X261.718 Y849.279 I0. J-0.319
N9345 G1 Y796.521
N9350 G2 X261.399 Y796.202 I-0.319 J0.
N9355 G1 X225.621
N9360 G2 X225.302 Y796.521 I0. J0.319
N9365 G1 Y810.279
N9370 G2 X225.621 Y810.598 I0.319 J0.
N9375 G1 X243.42 Y810.553
N9380 G3 X247.367 Y814.5 I0. J3.947
N9385 G1 Y820.036
N9390 G3 X246.143 Y821.871 I-1.988 J0.
N9395 G2 X244.92 Y823.706 I0.765 J1.835
N9400 G1 Y831.24
N9405 G3 X243.42 Y832.74 I-1.5 J0.
N9410 G1 X222.9
N9415 Y852.
N9420 X264.12
N9425 Y793.8
N9430 X243.42
N9435 X222.9
N9440 Y813.
N9445 X243.42
N9450 G3 X244.92 Y814.5 I0. J1.5
N9455 G1 Y823.706
N9460 X244.925 Y823.763 Z-1.989 F1000.
N9465 X244.942 Y823.818 Z-1.977
N9470 X244.963 Y823.861 Z-1.945
N9475 X244.992 Y823.9 Z-1.912
N9480 X245.039 Y823.945 Z-1.815
N9485 X245.058 Y823.958 Z-1.7
N9490 G0 Z15.
N9495 G53 Z0.
N9500 M30
%
