%
(2006)
(6.5MM DRILL - HOLES)
(T2  D=6.5 CR=0. TAPER=118DEG - ZMIN=-20.453 - DRILL)
N10 G90 G94 G17 G91.1
N15 G21
N20 G53 G0 Z0.
(DRILL1)
N25 M9
N30 T2 M6
N35 S5000 M3
N40 G54
N45 M8
N50 G0 X50. Y25.
N55 G43 Z15. H2
N60 G0 Z5.
N65 G98 G81 X50. Y25. Z-20.453 R-1. F1000.
N70 Y125.
N75 Y225.
N80 Y325.
N85 Y425.
N90 Y525.
N95 Y625.
N100 Y725.
N105 Y825.
N110 Y925.
N115 Y1025.
N120 Y1125.
N125 G80
N130 G0 Z15.
N135 M9
N140 G53 Z0.
N145 M30
%
