%
(3001)
(6MM END MILL)
(T1  D=6. CR=0. - ZMIN=-2. - FLAT END MILL)
N10 G90 G94 G17 G91.1
N15 G21
N20 G53 G0 Z0.
(2D POCKET1)
N25 M9
N30 T1 M6
N35 S18000 M3
N40 G54
N45 G0 X-1.167 Y2.824
N50 G43 Z15. H1
N55 G0 Z5.
N60 G1 Z3.1 F1000.
N65 X-1.139 Y2.82 Z2.918 F333.33
N70 X-1.059 Y2.807 Z2.754
N75 X-0.934 Y2.783 Z2.622
N80 X-0.777 Y2.743 Z2.534
N85 X-0.605 Y2.689 Z2.5
N90 G2 X-2.495 Y-2.689 Z2.187 I-0.945 J-2.689
N95 X-0.605 Y2.689 Z1.875 I0.945 J2.689
N100 X-2.495 Y-2.689 Z1.562 I-0.945 J-2.689
N105 X-0.605 Y2.689 Z1.249 I0.945 J2.689
N110 X-2.495 Y-2.689 Z0.937 I-0.945 J-2.689
N115 X-0.605 Y2.689 Z0.624 I0.945 J2.689
N120 X-2.495 Y-2.689 Z0.311 I-0.945 J-2.689
N125 X-0.605 Y2.689 Z-0.001 I0.945 J2.689
N130 X-2.495 Y-2.689 Z-0.314 I-0.945 J-2.689
N135 X-0.605 Y2.689 Z-0.627 I0.945 J2.689
N140 X-2.495 Y-2.689 Z-0.939 I-0.945 J-2.689
N145 X-0.605 Y2.689 Z-1.252 I0.945 J2.689
N150 X-2.495 Y-2.689 Z-1.565 I-0.945 J-2.689
N155 X-0.605 Y2.689 Z-1.877 I0.945 J2.689
N160 X1.3 Y0. Z-2. I-0.945 J-2.689
N165 X-1.3 I-1.3 J0. F2000.
N170 X7. I4.15 J0.
N175 X-7. I-7. J0.
N180 X12.7 I9.85 J0.
N185 X-12.7 I-12.7 J0.
N190 X18.4 I15.55 J0.
N195 X-18.4 I-18.4 J0.
N200 X24.1 I21.25 J0.
N205 X-24.1 I-24.1 J0.
N210 X29.8 I26.95 J0.
N215 X-29.8 I-29.8 J0.
N220 X35.5 I32.65 J0.
N225 X-35.5 I-35.5 J0.
N230 X35.5 I35.5 J0.
N235 G1 X35.493 Y-0.092 Z-1.985 F1000.
N240 X35.472 Y-0.182 Z-1.971
N245 X35.441 Y-0.26 Z-1.928
N250 X35.399 Y-0.333 Z-1.885
N255 X35.36 Y-0.386 Z-1.819
N260 X35.314 Y-0.434 Z-1.753
N265 X35.248 Y-0.488 Z-1.585
N270 X35.224 Y-0.505 Z-1.4
N275 G0 Z15.
N280 G53 Z0.
N285 M30
%
