%
(3002)
(6MM DRILL)
(T2  D=6.5 CR=0. TAPER=118DEG - ZMIN=-5.453 - DRILL)
N10 G90 G94 G17 G91.1
N15 G21
N20 G53 G0 Z0.
(DRILL1)
N25 M9
N30 T2 M6
N35 S2000 M3
N40 G54
N45 M8
N50 G0 X49.5 Y0.
N55 G43 Z15. H2
N60 G0 Z5.
N65 G98 G81 X49.5 Y0. Z-5.453 R5. F1000.
N70 X0. Y49.5
N75 X-49.5 Y0.
N80 X0. Y-49.5
N85 G80
N90 G0 Z15.
N95 M9
N100 G53 Z0.
N105 M30
%
