%
(3_DEEP_SLOT)
(6MM END MILL)
(T1  D=6. CR=0. - ZMIN=-18. - FLAT END MILL)
N10 G90 G94 G17 G91.1
N15 G21
N20 G53 G0 Z0.
(2D POCKET8)
N25 M9
N30 T1 M6
N35 S18000 M3
N40 G54
N45 G0 X150.98 Y52.824
N50 G43 Z15. H1
N55 G0 Z5.
N60 G1 Z3.1 F500.
N65 X151.008 Y52.82 Z2.918 F333.33
N70 X151.088 Y52.807 Z2.754
N75 X151.213 Y52.783 Z2.622
N80 X151.37 Y52.743 Z2.534
N85 X151.542 Y52.689 Z2.5
N90 G2 X149.652 Y47.311 Z2.187 I-0.945 J-2.689
N95 X151.542 Y52.689 Z1.875 I0.945 J2.689
N100 X149.652 Y47.311 Z1.562 I-0.945 J-2.689
N105 X151.542 Y52.689 Z1.249 I0.945 J2.689
N110 X149.652 Y47.311 Z0.937 I-0.945 J-2.689
N115 X151.542 Y52.689 Z0.624 I0.945 J2.689
N120 X149.652 Y47.311 Z0.311 I-0.945 J-2.689
N125 X151.542 Y52.689 Z-0.001 I0.945 J2.689
N130 X149.652 Y47.311 Z-0.314 I-0.945 J-2.689
N135 X151.542 Y52.689 Z-0.627 I0.945 J2.689
N140 X149.652 Y47.311 Z-0.939 I-0.945 J-2.689
N145 X151.542 Y52.689 Z-1.252 I0.945 J2.689
N150 X149.652 Y47.311 Z-1.565 I-0.945 J-2.689
N155 X151.542 Y52.689 Z-1.877 I0.945 J2.689
N160 X153.447 Y50. Z-2. I-0.945 J-2.689
N165 X149.06 I-2.193 J0.
N170 G1 Y350. F600.
N175 G2 X150.94 I0.94 J0.
N180 G1 Y50.
N185 G2 X149.06 I-0.94 J0.
N190 G3 X148.03 Y51.545 I-1.674 J0.
N195 G2 X147. Y53.09 I0.644 J1.545
N200 G1 Y350.
N205 G2 X153. I3. J0.
N210 G1 Y50.
N215 G2 X147. I-3. J0.
N220 G1 Y53.09
N225 G3 X146.75 Y53.465 I-0.406 J0.
N230 G2 X146.5 Y53.84 I0.156 J0.375
N235 G1 Y350.
N240 G2 X153.5 I3.5 J0.
N245 G1 Y50.
N250 G2 X146.5 I-3.5 J0.
N255 G1 Y53.84
N260 G2 X146.717 Y53.983 I0.156 J0.
N265 G1 X147.41 Y53.69
N270 X151.025 Y52.463
N275 X151.066 Y52.456
N280 X151.108 Y52.464
N285 X151.145 Y52.484
N290 X151.386 Y52.679
N295 X151.423 Y52.7
N300 X151.464 Y52.708
N305 X151.506 Y52.701
N310 G2 X149.688 Y47.299 Z-2.313 I-0.909 J-2.701 F333.33
N315 X151.506 Y52.701 Z-2.625 I0.909 J2.701
N320 X149.688 Y47.299 Z-2.938 I-0.909 J-2.701
N325 X151.506 Y52.701 Z-3.251 I0.909 J2.701
N330 X149.688 Y47.299 Z-3.563 I-0.909 J-2.701
N335 X151.506 Y52.701 Z-3.876 I0.909 J2.701
N340 X153.447 Y50. Z-4. I-0.909 J-2.701
N345 X149.06 I-2.193 J0.
N350 G1 Y350. F600.
N355 G2 X150.94 I0.94 J0.
N360 G1 Y50.
N365 G2 X149.06 I-0.94 J0.
N370 G3 X148.03 Y51.545 I-1.674 J0.
N375 G2 X147. Y53.09 I0.644 J1.545
N380 G1 Y350.
N385 G2 X153. I3. J0.
N390 G1 Y50.
N395 G2 X147. I-3. J0.
N400 G1 Y53.09
N405 G3 X146.75 Y53.465 I-0.406 J0.
N410 G2 X146.5 Y53.84 I0.156 J0.375
N415 G1 Y350.
N420 G2 X153.5 I3.5 J0.
N425 G1 Y50.
N430 G2 X146.5 I-3.5 J0.
N435 G1 Y53.84
N440 G2 X146.717 Y53.983 I0.156 J0.
N445 G1 X147.41 Y53.69
N450 X151.025 Y52.463
N455 X151.066 Y52.456
N460 X151.108 Y52.464
N465 X151.145 Y52.484
N470 X151.386 Y52.679
N475 X151.423 Y52.7
N480 X151.464 Y52.708
N485 X151.506 Y52.701
N490 G2 X149.688 Y47.299 Z-4.313 I-0.909 J-2.701 F333.33
N495 X151.506 Y52.701 Z-4.625 I0.909 J2.701
N500 X149.688 Y47.299 Z-4.938 I-0.909 J-2.701
N505 X151.506 Y52.701 Z-5.251 I0.909 J2.701
N510 X149.688 Y47.299 Z-5.563 I-0.909 J-2.701
N515 X151.506 Y52.701 Z-5.876 I0.909 J2.701
N520 X153.447 Y50. Z-6. I-0.909 J-2.701
N525 X149.06 I-2.193 J0.
N530 G1 Y350. F600.
N535 G2 X150.94 I0.94 J0.
N540 G1 Y50.
N545 G2 X149.06 I-0.94 J0.
N550 G3 X148.03 Y51.545 I-1.674 J0.
N555 G2 X147. Y53.09 I0.644 J1.545
N560 G1 Y350.
N565 G2 X153. I3. J0.
N570 G1 Y50.
N575 G2 X147. I-3. J0.
N580 G1 Y53.09
N585 G3 X146.75 Y53.465 I-0.406 J0.
N590 G2 X146.5 Y53.84 I0.156 J0.375
N595 G1 Y350.
N600 G2 X153.5 I3.5 J0.
N605 G1 Y50.
N610 G2 X146.5 I-3.5 J0.
N615 G1 Y53.84
N620 G2 X146.717 Y53.983 I0.156 J0.
N625 G1 X147.41 Y53.69
N630 X151.025 Y52.463
N635 X151.066 Y52.456
N640 X151.108 Y52.464
N645 X151.145 Y52.484
N650 X151.386 Y52.679
N655 X151.423 Y52.7
N660 X151.464 Y52.708
N665 X151.506 Y52.701
N670 G2 X149.688 Y47.299 Z-6.313 I-0.909 J-2.701 F333.33
N675 X151.506 Y52.701 Z-6.625 I0.909 J2.701
N680 X149.688 Y47.299 Z-6.938 I-0.909 J-2.701
N685 X151.506 Y52.701 Z-7.251 I0.909 J2.701
N690 X149.688 Y47.299 Z-7.563 I-0.909 J-2.701
N695 X151.506 Y52.701 Z-7.876 I0.909 J2.701
N700 X153.447 Y50. Z-8. I-0.909 J-2.701
N705 X149.06 I-2.193 J0.
N710 G1 Y350. F600.
N715 G2 X150.94 I0.94 J0.
N720 G1 Y50.
N725 G2 X149.06 I-0.94 J0.
N730 G3 X148.03 Y51.545 I-1.674 J0.
N735 G2 X147. Y53.09 I0.644 J1.545
N740 G1 Y350.
N745 G2 X153. I3. J0.
N750 G1 Y50.
N755 G2 X147. I-3. J0.
N760 G1 Y53.09
N765 G3 X146.75 Y53.465 I-0.406 J0.
N770 G2 X146.5 Y53.84 I0.156 J0.375
N775 G1 Y350.
N780 G2 X153.5 I3.5 J0.
N785 G1 Y50.
N790 G2 X146.5 I-3.5 J0.
N795 G1 Y53.84
N800 G2 X146.717 Y53.983 I0.156 J0.
N805 G1 X147.41 Y53.69
N810 X151.025 Y52.463
N815 X151.066 Y52.456
N820 X151.108 Y52.464
N825 X151.145 Y52.484
N830 X151.386 Y52.679
N835 X151.423 Y52.7
N840 X151.464 Y52.708
N845 X151.506 Y52.701
N850 G2 X149.688 Y47.299 Z-8.313 I-0.909 J-2.701 F333.33
N855 X151.506 Y52.701 Z-8.625 I0.909 J2.701
N860 X149.688 Y47.299 Z-8.938 I-0.909 J-2.701
N865 X151.506 Y52.701 Z-9.251 I0.909 J2.701
N870 X149.688 Y47.299 Z-9.563 I-0.909 J-2.701
N875 X151.506 Y52.701 Z-9.876 I0.909 J2.701
N880 X153.447 Y50. Z-10. I-0.909 J-2.701
N885 X149.06 I-2.193 J0.
N890 G1 Y350. F600.
N895 G2 X150.94 I0.94 J0.
N900 G1 Y50.
N905 G2 X149.06 I-0.94 J0.
N910 G3 X148.03 Y51.545 I-1.674 J0.
N915 G2 X147. Y53.09 I0.644 J1.545
N920 G1 Y350.
N925 G2 X153. I3. J0.
N930 G1 Y50.
N935 G2 X147. I-3. J0.
N940 G1 Y53.09
N945 G3 X146.75 Y53.465 I-0.406 J0.
N950 G2 X146.5 Y53.84 I0.156 J0.375
N955 G1 Y350.
N960 G2 X153.5 I3.5 J0.
N965 G1 Y50.
N970 G2 X146.5 I-3.5 J0.
N975 G1 Y53.84
N980 G2 X146.717 Y53.983 I0.156 J0.
N985 G1 X147.41 Y53.69
N990 X151.025 Y52.463
N995 X151.066 Y52.456
N1000 X151.108 Y52.464
N1005 X151.145 Y52.484
N1010 X151.386 Y52.679
N1015 X151.423 Y52.7
N1020 X151.464 Y52.708
N1025 X151.506 Y52.701
N1030 G2 X149.688 Y47.299 Z-10.313 I-0.909 J-2.701 F333.33
N1035 X151.506 Y52.701 Z-10.625 I0.909 J2.701
N1040 X149.688 Y47.299 Z-10.938 I-0.909 J-2.701
N1045 X151.506 Y52.701 Z-11.251 I0.909 J2.701
N1050 X149.688 Y47.299 Z-11.563 I-0.909 J-2.701
N1055 X151.506 Y52.701 Z-11.876 I0.909 J2.701
N1060 X153.447 Y50. Z-12. I-0.909 J-2.701
N1065 X149.06 I-2.193 J0.
N1070 G1 Y350. F600.
N1075 G2 X150.94 I0.94 J0.
N1080 G1 Y50.
N1085 G2 X149.06 I-0.94 J0.
N1090 G3 X148.03 Y51.545 I-1.674 J0.
N1095 G2 X147. Y53.09 I0.644 J1.545
N1100 G1 Y350.
N1105 G2 X153. I3. J0.
N1110 G1 Y50.
N1115 G2 X147. I-3. J0.
N1120 G1 Y53.09
N1125 G3 X146.75 Y53.465 I-0.406 J0.
N1130 G2 X146.5 Y53.84 I0.156 J0.375
N1135 G1 Y350.
N1140 G2 X153.5 I3.5 J0.
N1145 G1 Y50.
N1150 G2 X146.5 I-3.5 J0.
N1155 G1 Y53.84
N1160 G2 X146.717 Y53.983 I0.156 J0.
N1165 G1 X147.41 Y53.69
N1170 X151.025 Y52.463
N1175 X151.066 Y52.456
N1180 X151.108 Y52.464
N1185 X151.145 Y52.484
N1190 X151.386 Y52.679
N1195 X151.423 Y52.7
N1200 X151.464 Y52.708
N1205 X151.506 Y52.701
N1210 G2 X149.688 Y47.299 Z-12.313 I-0.909 J-2.701 F333.33
N1215 X151.506 Y52.701 Z-12.625 I0.909 J2.701
N1220 X149.688 Y47.299 Z-12.938 I-0.909 J-2.701
N1225 X151.506 Y52.701 Z-13.251 I0.909 J2.701
N1230 X149.688 Y47.299 Z-13.563 I-0.909 J-2.701
N1235 X151.506 Y52.701 Z-13.876 I0.909 J2.701
N1240 X153.447 Y50. Z-14. I-0.909 J-2.701
N1245 X149.06 I-2.193 J0.
N1250 G1 Y350. F600.
N1255 G2 X150.94 I0.94 J0.
N1260 G1 Y50.
N1265 G2 X149.06 I-0.94 J0.
N1270 G3 X148.03 Y51.545 I-1.674 J0.
N1275 G2 X147. Y53.09 I0.644 J1.545
N1280 G1 Y350.
N1285 G2 X153. I3. J0.
N1290 G1 Y50.
N1295 G2 X147. I-3. J0.
N1300 G1 Y53.09
N1305 G3 X146.75 Y53.465 I-0.406 J0.
N1310 G2 X146.5 Y53.84 I0.156 J0.375
N1315 G1 Y350.
N1320 G2 X153.5 I3.5 J0.
N1325 G1 Y50.
N1330 G2 X146.5 I-3.5 J0.
N1335 G1 Y53.84
N1340 G2 X146.717 Y53.983 I0.156 J0.
N1345 G1 X147.41 Y53.69
N1350 X151.025 Y52.463
N1355 X151.066 Y52.456
N1360 X151.108 Y52.464
N1365 X151.145 Y52.484
N1370 X151.386 Y52.679
N1375 X151.423 Y52.7
N1380 X151.464 Y52.708
N1385 X151.506 Y52.701
N1390 G2 X149.688 Y47.299 Z-14.313 I-0.909 J-2.701 F333.33
N1395 X151.506 Y52.701 Z-14.625 I0.909 J2.701
N1400 X149.688 Y47.299 Z-14.938 I-0.909 J-2.701
N1405 X151.506 Y52.701 Z-15.251 I0.909 J2.701
N1410 X149.688 Y47.299 Z-15.563 I-0.909 J-2.701
N1415 X151.506 Y52.701 Z-15.876 I0.909 J2.701
N1420 X153.447 Y50. Z-16. I-0.909 J-2.701
N1425 X149.06 I-2.193 J0.
N1430 G1 Y350. F600.
N1435 G2 X150.94 I0.94 J0.
N1440 G1 Y50.
N1445 G2 X149.06 I-0.94 J0.
N1450 G3 X148.03 Y51.545 I-1.674 J0.
N1455 G2 X147. Y53.09 I0.644 J1.545
N1460 G1 Y350.
N1465 G2 X153. I3. J0.
N1470 G1 Y50.
N1475 G2 X147. I-3. J0.
N1480 G1 Y53.09
N1485 G3 X146.75 Y53.465 I-0.406 J0.
N1490 G2 X146.5 Y53.84 I0.156 J0.375
N1495 G1 Y350.
N1500 G2 X153.5 I3.5 J0.
N1505 G1 Y50.
N1510 G2 X146.5 I-3.5 J0.
N1515 G1 Y53.84
N1520 G2 X146.791 Y53.917 I0.156 J0.
N1525 G1 X147.084 Y53.388
N1530 X148.467 Y48.028
N1535 X148.605 Y47.448
N1540 X148.607 Y47.404
N1545 X148.594 Y47.361
N1550 X148.567 Y47.325
N1555 X148.529 Y47.302
N1560 X148.485 Y47.292
N1565 X148.441 Y47.299
N1570 G2 X150.259 Y52.701 Z-16.313 I0.909 J2.701 F333.33
N1575 X148.441 Y47.299 Z-16.625 I-0.909 J-2.701
N1580 X150.259 Y52.701 Z-16.938 I0.909 J2.701
N1585 X148.441 Y47.299 Z-17.251 I-0.909 J-2.701
N1590 X150.259 Y52.701 Z-17.563 I0.909 J2.701
N1595 X148.441 Y47.299 Z-17.876 I-0.909 J-2.701
N1600 X146.5 Y50. Z-18. I0.909 J2.701
N1605 G1 Y350. F600.
N1610 G2 X153.5 I3.5 J0.
N1615 G1 Y50.
N1620 G2 X146.5 I-3.5 J0.
N1625 G1 X146.507 Y50.092 Z-17.985 F500.
N1630 X146.528 Y50.182 Z-17.971
N1635 X146.559 Y50.26 Z-17.928
N1640 X146.601 Y50.333 Z-17.885
N1645 X146.64 Y50.386 Z-17.819
N1650 X146.686 Y50.434 Z-17.753
N1655 X146.752 Y50.488 Z-17.585
N1660 X146.776 Y50.505 Z-17.4
N1665 G0 Z15.
N1670 G53 Z0.
N1675 M30
%
