%
(5)
(T1  D=6. CR=0. - ZMIN=-22.5 - FLAT END MILL)
N10 G90 G94 G17 G91.1
N15 G21
N20 G53 G0 Z0.
(2D CONTOUR2 3)
N25 M9
N30 T1 M6
N35 S22000 M3
N40 G54
N45 G0 X34.136 Y779.43
N50 G43 Z15. H1
N55 G0 Z5.
N60 G1 Z2.5 F150.33
N65 Z1.6
N70 G18 G3 X33.536 Z1. I-0.6 K0.
N75 G1 X32.936 F300.
N80 G17 G2 X32.336 Y780.03 I0. J0.6
N85 G1 Y780.938 Z0.968 F150.
N90 G3 X27.836 Y785.438 Z0.721 I-4.5 J0.
N95 G1 X18.836 Z0.407
N100 G3 X14.336 Y780.938 Z0.16 I0. J-4.5
N105 G1 Y770.688 Z-0.198
N110 X6.736 Z-0.463
N115 G3 X-0.764 Y763.188 Z-0.874 I0. J-7.5
N120 G1 Y745.274 Z-1.5
N125 Y723.688 F650.
N130 G3 X6.736 Y716.188 I7.5 J0.
N135 G1 X14.336
N140 Y705.938
N145 G3 X18.836 Y701.438 I4.5 J0.
N150 G1 X27.836
N155 G3 X32.336 Y705.938 I0. J4.5
N160 G1 Y728.338
N165 G3 X27.836 Y732.838 I-4.5 J0.
N170 G1 X18.236
N175 Y754.038
N180 X27.836
N185 G3 X32.336 Y758.538 I0. J4.5
N190 G1 Y780.938
N195 G3 X27.836 Y785.438 I-4.5 J0.
N200 G1 X18.836
N205 G3 X14.336 Y780.938 I0. J-4.5
N210 G1 Y770.688
N215 X6.736
N220 G3 X-0.764 Y763.188 I0. J-7.5
N225 G1 Y745.274
N230 G3 X-0.014 Y744.149 I1.219 J0.
N235 G2 X0.736 Y743.024 I-0.469 J-1.125
N240 G1 Y723.688
N245 G3 X6.736 Y717.688 I6. J0.
N250 G1 X15.836
N255 Y705.938
N260 G3 X18.836 Y702.938 I3. J0.
N265 G1 X27.836
N270 G3 X30.836 Y705.938 I0. J3.
N275 G1 Y728.338
N280 G3 X27.836 Y731.338 I-3. J0.
N285 G1 X16.736
N290 Y755.538
N295 X27.836
N300 G3 X30.836 Y758.538 I0. J3.
N305 G1 Y780.938
N310 G3 X27.836 Y783.938 I-3. J0.
N315 G1 X18.836
N320 G3 X15.836 Y780.938 I0. J-3.
N325 G1 Y769.188
N330 X6.736
N335 G3 X0.736 Y763.188 I0. J-6.
N340 G1 Y743.024
N345 G2 X0.136 Y742.424 I-0.6 J0. F300.
N350 G1 X-0.464
N355 G18 G3 X-1.064 Z-0.9 I0. K0.6
N360 G0 Z5.
N365 X34.136 Y779.43
N370 G1 Z1. F150.33
N375 Z0.1
N380 G3 X33.536 Z-0.5 I-0.6 K0.
N385 G1 X32.936 F300.
N390 G17 G2 X32.336 Y780.03 I0. J0.6
N395 G1 Y780.938 Z-0.532 F150.
N400 G3 X27.836 Y785.438 Z-0.779 I-4.5 J0.
N405 G1 X18.836 Z-1.093
N410 G3 X14.336 Y780.938 Z-1.34 I0. J-4.5
N415 G1 Y770.688 Z-1.698
N420 X6.736 Z-1.963
N425 G3 X-0.764 Y763.188 Z-2.374 I0. J-7.5
N430 G1 Y745.274 Z-3.
N435 Y723.688 F650.
N440 G3 X6.736 Y716.188 I7.5 J0.
N445 G1 X14.336
N450 Y705.938
N455 G3 X18.836 Y701.438 I4.5 J0.
N460 G1 X27.836
N465 G3 X32.336 Y705.938 I0. J4.5
N470 G1 Y728.338
N475 G3 X27.836 Y732.838 I-4.5 J0.
N480 G1 X18.236
N485 Y754.038
N490 X27.836
N495 G3 X32.336 Y758.538 I0. J4.5
N500 G1 Y780.938
N505 G3 X27.836 Y785.438 I-4.5 J0.
N510 G1 X18.836
N515 G3 X14.336 Y780.938 I0. J-4.5
N520 G1 Y770.688
N525 X6.736
N530 G3 X-0.764 Y763.188 I0. J-7.5
N535 G1 Y745.274
N540 G3 X-0.014 Y744.149 I1.219 J0.
N545 G2 X0.736 Y743.024 I-0.469 J-1.125
N550 G1 Y723.688
N555 G3 X6.736 Y717.688 I6. J0.
N560 G1 X15.836
N565 Y705.938
N570 G3 X18.836 Y702.938 I3. J0.
N575 G1 X27.836
N580 G3 X30.836 Y705.938 I0. J3.
N585 G1 Y728.338
N590 G3 X27.836 Y731.338 I-3. J0.
N595 G1 X16.736
N600 Y755.538
N605 X27.836
N610 G3 X30.836 Y758.538 I0. J3.
N615 G1 Y780.938
N620 G3 X27.836 Y783.938 I-3. J0.
N625 G1 X18.836
N630 G3 X15.836 Y780.938 I0. J-3.
N635 G1 Y769.188
N640 X6.736
N645 G3 X0.736 Y763.188 I0. J-6.
N650 G1 Y743.024
N655 G2 X0.136 Y742.424 I-0.6 J0. F300.
N660 G1 X-0.464
N665 G18 G3 X-1.064 Z-2.4 I0. K0.6
N670 G0 Z5.
N675 X34.136 Y779.43
N680 G1 Z-0.5 F150.33
N685 Z-1.4
N690 G3 X33.536 Z-2. I-0.6 K0.
N695 G1 X32.936 F300.
N700 G17 G2 X32.336 Y780.03 I0. J0.6
N705 G1 Y780.938 Z-2.032 F150.
N710 G3 X27.836 Y785.438 Z-2.279 I-4.5 J0.
N715 G1 X18.836 Z-2.593
N720 G3 X14.336 Y780.938 Z-2.84 I0. J-4.5
N725 G1 Y770.688 Z-3.198
N730 X6.736 Z-3.463
N735 G3 X-0.764 Y763.188 Z-3.874 I0. J-7.5
N740 G1 Y745.274 Z-4.5
N745 Y723.688 F650.
N750 G3 X6.736 Y716.188 I7.5 J0.
N755 G1 X14.336
N760 Y705.938
N765 G3 X18.836 Y701.438 I4.5 J0.
N770 G1 X27.836
N775 G3 X32.336 Y705.938 I0. J4.5
N780 G1 Y728.338
N785 G3 X27.836 Y732.838 I-4.5 J0.
N790 G1 X18.236
N795 Y754.038
N800 X27.836
N805 G3 X32.336 Y758.538 I0. J4.5
N810 G1 Y780.938
N815 G3 X27.836 Y785.438 I-4.5 J0.
N820 G1 X18.836
N825 G3 X14.336 Y780.938 I0. J-4.5
N830 G1 Y770.688
N835 X6.736
N840 G3 X-0.764 Y763.188 I0. J-7.5
N845 G1 Y745.274
N850 G3 X-0.014 Y744.149 I1.219 J0.
N855 G2 X0.736 Y743.024 I-0.469 J-1.125
N860 G1 Y723.688
N865 G3 X6.736 Y717.688 I6. J0.
N870 G1 X15.836
N875 Y705.938
N880 G3 X18.836 Y702.938 I3. J0.
N885 G1 X27.836
N890 G3 X30.836 Y705.938 I0. J3.
N895 G1 Y728.338
N900 G3 X27.836 Y731.338 I-3. J0.
N905 G1 X16.736
N910 Y755.538
N915 X27.836
N920 G3 X30.836 Y758.538 I0. J3.
N925 G1 Y780.938
N930 G3 X27.836 Y783.938 I-3. J0.
N935 G1 X18.836
N940 G3 X15.836 Y780.938 I0. J-3.
N945 G1 Y769.188
N950 X6.736
N955 G3 X0.736 Y763.188 I0. J-6.
N960 G1 Y743.024
N965 G2 X0.136 Y742.424 I-0.6 J0. F300.
N970 G1 X-0.464
N975 G18 G3 X-1.064 Z-3.9 I0. K0.6
N980 G0 Z5.
N985 X34.136 Y779.43
N990 G1 Z-2. F150.33
N995 Z-2.9
N1000 G3 X33.536 Z-3.5 I-0.6 K0.
N1005 G1 X32.936 F300.
N1010 G17 G2 X32.336 Y780.03 I0. J0.6
N1015 G1 Y780.938 Z-3.532 F150.
N1020 G3 X27.836 Y785.438 Z-3.779 I-4.5 J0.
N1025 G1 X18.836 Z-4.093
N1030 G3 X14.336 Y780.938 Z-4.34 I0. J-4.5
N1035 G1 Y770.688 Z-4.698
N1040 X6.736 Z-4.963
N1045 G3 X-0.764 Y763.188 Z-5.374 I0. J-7.5
N1050 G1 Y745.274 Z-6.
N1055 Y723.688 F650.
N1060 G3 X6.736 Y716.188 I7.5 J0.
N1065 G1 X14.336
N1070 Y705.938
N1075 G3 X18.836 Y701.438 I4.5 J0.
N1080 G1 X27.836
N1085 G3 X32.336 Y705.938 I0. J4.5
N1090 G1 Y728.338
N1095 G3 X27.836 Y732.838 I-4.5 J0.
N1100 G1 X18.236
N1105 Y754.038
N1110 X27.836
N1115 G3 X32.336 Y758.538 I0. J4.5
N1120 G1 Y780.938
N1125 G3 X27.836 Y785.438 I-4.5 J0.
N1130 G1 X18.836
N1135 G3 X14.336 Y780.938 I0. J-4.5
N1140 G1 Y770.688
N1145 X6.736
N1150 G3 X-0.764 Y763.188 I0. J-7.5
N1155 G1 Y745.274
N1160 G3 X-0.014 Y744.149 I1.219 J0.
N1165 G2 X0.736 Y743.024 I-0.469 J-1.125
N1170 G1 Y723.688
N1175 G3 X6.736 Y717.688 I6. J0.
N1180 G1 X15.836
N1185 Y705.938
N1190 G3 X18.836 Y702.938 I3. J0.
N1195 G1 X27.836
N1200 G3 X30.836 Y705.938 I0. J3.
N1205 G1 Y728.338
N1210 G3 X27.836 Y731.338 I-3. J0.
N1215 G1 X16.736
N1220 Y755.538
N1225 X27.836
N1230 G3 X30.836 Y758.538 I0. J3.
N1235 G1 Y780.938
N1240 G3 X27.836 Y783.938 I-3. J0.
N1245 G1 X18.836
N1250 G3 X15.836 Y780.938 I0. J-3.
N1255 G1 Y769.188
N1260 X6.736
N1265 G3 X0.736 Y763.188 I0. J-6.
N1270 G1 Y743.024
N1275 G2 X0.136 Y742.424 I-0.6 J0. F300.
N1280 G1 X-0.464
N1285 G18 G3 X-1.064 Z-5.4 I0. K0.6
N1290 G0 Z5.
N1295 X34.136 Y779.43
N1300 G1 Z-3.5 F150.33
N1305 Z-4.4
N1310 G3 X33.536 Z-5. I-0.6 K0.
N1315 G1 X32.936 F300.
N1320 G17 G2 X32.336 Y780.03 I0. J0.6
N1325 G1 Y780.938 Z-5.032 F150.
N1330 G3 X27.836 Y785.438 Z-5.279 I-4.5 J0.
N1335 G1 X18.836 Z-5.593
N1340 G3 X14.336 Y780.938 Z-5.84 I0. J-4.5
N1345 G1 Y770.688 Z-6.198
N1350 X6.736 Z-6.463
N1355 G3 X-0.764 Y763.188 Z-6.874 I0. J-7.5
N1360 G1 Y745.274 Z-7.5
N1365 Y723.688 F650.
N1370 G3 X6.736 Y716.188 I7.5 J0.
N1375 G1 X14.336
N1380 Y705.938
N1385 G3 X18.836 Y701.438 I4.5 J0.
N1390 G1 X27.836
N1395 G3 X32.336 Y705.938 I0. J4.5
N1400 G1 Y728.338
N1405 G3 X27.836 Y732.838 I-4.5 J0.
N1410 G1 X18.236
N1415 Y754.038
N1420 X27.836
N1425 G3 X32.336 Y758.538 I0. J4.5
N1430 G1 Y780.938
N1435 G3 X27.836 Y785.438 I-4.5 J0.
N1440 G1 X18.836
N1445 G3 X14.336 Y780.938 I0. J-4.5
N1450 G1 Y770.688
N1455 X6.736
N1460 G3 X-0.764 Y763.188 I0. J-7.5
N1465 G1 Y745.274
N1470 G3 X-0.014 Y744.149 I1.219 J0.
N1475 G2 X0.736 Y743.024 I-0.469 J-1.125
N1480 G1 Y723.688
N1485 G3 X6.736 Y717.688 I6. J0.
N1490 G1 X15.836
N1495 Y705.938
N1500 G3 X18.836 Y702.938 I3. J0.
N1505 G1 X27.836
N1510 G3 X30.836 Y705.938 I0. J3.
N1515 G1 Y728.338
N1520 G3 X27.836 Y731.338 I-3. J0.
N1525 G1 X16.736
N1530 Y755.538
N1535 X27.836
N1540 G3 X30.836 Y758.538 I0. J3.
N1545 G1 Y780.938
N1550 G3 X27.836 Y783.938 I-3. J0.
N1555 G1 X18.836
N1560 G3 X15.836 Y780.938 I0. J-3.
N1565 G1 Y769.188
N1570 X6.736
N1575 G3 X0.736 Y763.188 I0. J-6.
N1580 G1 Y743.024
N1585 G2 X0.136 Y742.424 I-0.6 J0. F300.
N1590 G1 X-0.464
N1595 G18 G3 X-1.064 Z-6.9 I0. K0.6
N1600 G0 Z5.
N1605 X34.136 Y779.43
N1610 G1 Z-5. F150.33
N1615 Z-5.9
N1620 G3 X33.536 Z-6.5 I-0.6 K0.
N1625 G1 X32.936 F300.
N1630 G17 G2 X32.336 Y780.03 I0. J0.6
N1635 G1 Y780.938 Z-6.532 F150.
N1640 G3 X27.836 Y785.438 Z-6.779 I-4.5 J0.
N1645 G1 X18.836 Z-7.093
N1650 G3 X14.336 Y780.938 Z-7.34 I0. J-4.5
N1655 G1 Y770.688 Z-7.698
N1660 X6.736 Z-7.963
N1665 G3 X-0.764 Y763.188 Z-8.374 I0. J-7.5
N1670 G1 Y745.274 Z-9.
N1675 Y723.688 F650.
N1680 G3 X6.736 Y716.188 I7.5 J0.
N1685 G1 X14.336
N1690 Y705.938
N1695 G3 X18.836 Y701.438 I4.5 J0.
N1700 G1 X27.836
N1705 G3 X32.336 Y705.938 I0. J4.5
N1710 G1 Y728.338
N1715 G3 X27.836 Y732.838 I-4.5 J0.
N1720 G1 X18.236
N1725 Y754.038
N1730 X27.836
N1735 G3 X32.336 Y758.538 I0. J4.5
N1740 G1 Y780.938
N1745 G3 X27.836 Y785.438 I-4.5 J0.
N1750 G1 X18.836
N1755 G3 X14.336 Y780.938 I0. J-4.5
N1760 G1 Y770.688
N1765 X6.736
N1770 G3 X-0.764 Y763.188 I0. J-7.5
N1775 G1 Y745.274
N1780 G3 X-0.014 Y744.149 I1.219 J0.
N1785 G2 X0.736 Y743.024 I-0.469 J-1.125
N1790 G1 Y723.688
N1795 G3 X6.736 Y717.688 I6. J0.
N1800 G1 X15.836
N1805 Y705.938
N1810 G3 X18.836 Y702.938 I3. J0.
N1815 G1 X27.836
N1820 G3 X30.836 Y705.938 I0. J3.
N1825 G1 Y728.338
N1830 G3 X27.836 Y731.338 I-3. J0.
N1835 G1 X16.736
N1840 Y755.538
N1845 X27.836
N1850 G3 X30.836 Y758.538 I0. J3.
N1855 G1 Y780.938
N1860 G3 X27.836 Y783.938 I-3. J0.
N1865 G1 X18.836
N1870 G3 X15.836 Y780.938 I0. J-3.
N1875 G1 Y769.188
N1880 X6.736
N1885 G3 X0.736 Y763.188 I0. J-6.
N1890 G1 Y743.024
N1895 G2 X0.136 Y742.424 I-0.6 J0. F300.
N1900 G1 X-0.464
N1905 G18 G3 X-1.064 Z-8.4 I0. K0.6
N1910 G0 Z5.
N1915 X34.136 Y779.43
N1920 G1 Z-6.5 F150.33
N1925 Z-7.4
N1930 G3 X33.536 Z-8. I-0.6 K0.
N1935 G1 X32.936 F300.
N1940 G17 G2 X32.336 Y780.03 I0. J0.6
N1945 G1 Y780.938 Z-8.032 F150.
N1950 G3 X27.836 Y785.438 Z-8.279 I-4.5 J0.
N1955 G1 X18.836 Z-8.593
N1960 G3 X14.336 Y780.938 Z-8.84 I0. J-4.5
N1965 G1 Y770.688 Z-9.198
N1970 X6.736 Z-9.463
N1975 G3 X-0.764 Y763.188 Z-9.874 I0. J-7.5
N1980 G1 Y745.274 Z-10.5
N1985 Y723.688 F650.
N1990 G3 X6.736 Y716.188 I7.5 J0.
N1995 G1 X14.336
N2000 Y705.938
N2005 G3 X18.836 Y701.438 I4.5 J0.
N2010 G1 X27.836
N2015 G3 X32.336 Y705.938 I0. J4.5
N2020 G1 Y728.338
N2025 G3 X27.836 Y732.838 I-4.5 J0.
N2030 G1 X18.236
N2035 Y754.038
N2040 X27.836
N2045 G3 X32.336 Y758.538 I0. J4.5
N2050 G1 Y780.938
N2055 G3 X27.836 Y785.438 I-4.5 J0.
N2060 G1 X18.836
N2065 G3 X14.336 Y780.938 I0. J-4.5
N2070 G1 Y770.688
N2075 X6.736
N2080 G3 X-0.764 Y763.188 I0. J-7.5
N2085 G1 Y745.274
N2090 G3 X-0.014 Y744.149 I1.219 J0.
N2095 G2 X0.736 Y743.024 I-0.469 J-1.125
N2100 G1 Y723.688
N2105 G3 X6.736 Y717.688 I6. J0.
N2110 G1 X15.836
N2115 Y705.938
N2120 G3 X18.836 Y702.938 I3. J0.
N2125 G1 X27.836
N2130 G3 X30.836 Y705.938 I0. J3.
N2135 G1 Y728.338
N2140 G3 X27.836 Y731.338 I-3. J0.
N2145 G1 X16.736
N2150 Y755.538
N2155 X27.836
N2160 G3 X30.836 Y758.538 I0. J3.
N2165 G1 Y780.938
N2170 G3 X27.836 Y783.938 I-3. J0.
N2175 G1 X18.836
N2180 G3 X15.836 Y780.938 I0. J-3.
N2185 G1 Y769.188
N2190 X6.736
N2195 G3 X0.736 Y763.188 I0. J-6.
N2200 G1 Y743.024
N2205 G2 X0.136 Y742.424 I-0.6 J0. F300.
N2210 G1 X-0.464
N2215 G18 G3 X-1.064 Z-9.9 I0. K0.6
N2220 G0 Z5.
N2225 X34.136 Y779.43
N2230 G1 Z-8. F150.33
N2235 Z-8.9
N2240 G3 X33.536 Z-9.5 I-0.6 K0.
N2245 G1 X32.936 F300.
N2250 G17 G2 X32.336 Y780.03 I0. J0.6
N2255 G1 Y780.938 Z-9.532 F150.
N2260 G3 X27.836 Y785.438 Z-9.779 I-4.5 J0.
N2265 G1 X18.836 Z-10.093
N2270 G3 X14.336 Y780.938 Z-10.34 I0. J-4.5
N2275 G1 Y770.688 Z-10.698
N2280 X6.736 Z-10.963
N2285 G3 X-0.764 Y763.188 Z-11.374 I0. J-7.5
N2290 G1 Y745.274 Z-12.
N2295 Y723.688 F650.
N2300 G3 X6.736 Y716.188 I7.5 J0.
N2305 G1 X14.336
N2310 Y705.938
N2315 G3 X18.836 Y701.438 I4.5 J0.
N2320 G1 X27.836
N2325 G3 X32.336 Y705.938 I0. J4.5
N2330 G1 Y728.338
N2335 G3 X27.836 Y732.838 I-4.5 J0.
N2340 G1 X18.236
N2345 Y754.038
N2350 X27.836
N2355 G3 X32.336 Y758.538 I0. J4.5
N2360 G1 Y780.938
N2365 G3 X27.836 Y785.438 I-4.5 J0.
N2370 G1 X18.836
N2375 G3 X14.336 Y780.938 I0. J-4.5
N2380 G1 Y770.688
N2385 X6.736
N2390 G3 X-0.764 Y763.188 I0. J-7.5
N2395 G1 Y745.274
N2400 G3 X-0.014 Y744.149 I1.219 J0.
N2405 G2 X0.736 Y743.024 I-0.469 J-1.125
N2410 G1 Y723.688
N2415 G3 X6.736 Y717.688 I6. J0.
N2420 G1 X15.836
N2425 Y705.938
N2430 G3 X18.836 Y702.938 I3. J0.
N2435 G1 X27.836
N2440 G3 X30.836 Y705.938 I0. J3.
N2445 G1 Y728.338
N2450 G3 X27.836 Y731.338 I-3. J0.
N2455 G1 X16.736
N2460 Y755.538
N2465 X27.836
N2470 G3 X30.836 Y758.538 I0. J3.
N2475 G1 Y780.938
N2480 G3 X27.836 Y783.938 I-3. J0.
N2485 G1 X18.836
N2490 G3 X15.836 Y780.938 I0. J-3.
N2495 G1 Y769.188
N2500 X6.736
N2505 G3 X0.736 Y763.188 I0. J-6.
N2510 G1 Y743.024
N2515 G2 X0.136 Y742.424 I-0.6 J0. F300.
N2520 G1 X-0.464
N2525 G18 G3 X-1.064 Z-11.4 I0. K0.6
N2530 G0 Z5.
N2535 X34.136 Y779.43
N2540 G1 Z-9.5 F150.33
N2545 Z-10.4
N2550 G3 X33.536 Z-11. I-0.6 K0.
N2555 G1 X32.936 F300.
N2560 G17 G2 X32.336 Y780.03 I0. J0.6
N2565 G1 Y780.938 Z-11.032 F150.
N2570 G3 X27.836 Y785.438 Z-11.279 I-4.5 J0.
N2575 G1 X18.836 Z-11.593
N2580 G3 X14.336 Y780.938 Z-11.84 I0. J-4.5
N2585 G1 Y770.688 Z-12.198
N2590 X6.736 Z-12.463
N2595 G3 X-0.764 Y763.188 Z-12.874 I0. J-7.5
N2600 G1 Y745.274 Z-13.5
N2605 Y723.688 F650.
N2610 G3 X6.736 Y716.188 I7.5 J0.
N2615 G1 X14.336
N2620 Y705.938
N2625 G3 X18.836 Y701.438 I4.5 J0.
N2630 G1 X27.836
N2635 G3 X32.336 Y705.938 I0. J4.5
N2640 G1 Y728.338
N2645 G3 X27.836 Y732.838 I-4.5 J0.
N2650 G1 X18.236
N2655 Y754.038
N2660 X27.836
N2665 G3 X32.336 Y758.538 I0. J4.5
N2670 G1 Y780.938
N2675 G3 X27.836 Y785.438 I-4.5 J0.
N2680 G1 X18.836
N2685 G3 X14.336 Y780.938 I0. J-4.5
N2690 G1 Y770.688
N2695 X6.736
N2700 G3 X-0.764 Y763.188 I0. J-7.5
N2705 G1 Y745.274
N2710 G3 X-0.014 Y744.149 I1.219 J0.
N2715 G2 X0.736 Y743.024 I-0.469 J-1.125
N2720 G1 Y723.688
N2725 G3 X6.736 Y717.688 I6. J0.
N2730 G1 X15.836
N2735 Y705.938
N2740 G3 X18.836 Y702.938 I3. J0.
N2745 G1 X27.836
N2750 G3 X30.836 Y705.938 I0. J3.
N2755 G1 Y728.338
N2760 G3 X27.836 Y731.338 I-3. J0.
N2765 G1 X16.736
N2770 Y755.538
N2775 X27.836
N2780 G3 X30.836 Y758.538 I0. J3.
N2785 G1 Y780.938
N2790 G3 X27.836 Y783.938 I-3. J0.
N2795 G1 X18.836
N2800 G3 X15.836 Y780.938 I0. J-3.
N2805 G1 Y769.188
N2810 X6.736
N2815 G3 X0.736 Y763.188 I0. J-6.
N2820 G1 Y743.024
N2825 G2 X0.136 Y742.424 I-0.6 J0. F300.
N2830 G1 X-0.464
N2835 G18 G3 X-1.064 Z-12.9 I0. K0.6
N2840 G0 Z5.
N2845 X34.136 Y779.43
N2850 G1 Z-11. F150.33
N2855 Z-11.9
N2860 G3 X33.536 Z-12.5 I-0.6 K0.
N2865 G1 X32.936 F300.
N2870 G17 G2 X32.336 Y780.03 I0. J0.6
N2875 G1 Y780.938 Z-12.532 F150.
N2880 G3 X27.836 Y785.438 Z-12.779 I-4.5 J0.
N2885 G1 X18.836 Z-13.093
N2890 G3 X14.336 Y780.938 Z-13.34 I0. J-4.5
N2895 G1 Y770.688 Z-13.698
N2900 X6.736 Z-13.963
N2905 G3 X-0.764 Y763.188 Z-14.374 I0. J-7.5
N2910 G1 Y745.274 Z-15.
N2915 Y723.688 F650.
N2920 G3 X6.736 Y716.188 I7.5 J0.
N2925 G1 X14.336
N2930 Y705.938
N2935 G3 X18.836 Y701.438 I4.5 J0.
N2940 G1 X27.836
N2945 G3 X32.336 Y705.938 I0. J4.5
N2950 G1 Y728.338
N2955 G3 X27.836 Y732.838 I-4.5 J0.
N2960 G1 X18.236
N2965 Y754.038
N2970 X27.836
N2975 G3 X32.336 Y758.538 I0. J4.5
N2980 G1 Y780.938
N2985 G3 X27.836 Y785.438 I-4.5 J0.
N2990 G1 X18.836
N2995 G3 X14.336 Y780.938 I0. J-4.5
N3000 G1 Y770.688
N3005 X6.736
N3010 G3 X-0.764 Y763.188 I0. J-7.5
N3015 G1 Y745.274
N3020 G3 X-0.014 Y744.149 I1.219 J0.
N3025 G2 X0.736 Y743.024 I-0.469 J-1.125
N3030 G1 Y723.688
N3035 G3 X6.736 Y717.688 I6. J0.
N3040 G1 X15.836
N3045 Y705.938
N3050 G3 X18.836 Y702.938 I3. J0.
N3055 G1 X27.836
N3060 G3 X30.836 Y705.938 I0. J3.
N3065 G1 Y728.338
N3070 G3 X27.836 Y731.338 I-3. J0.
N3075 G1 X16.736
N3080 Y755.538
N3085 X27.836
N3090 G3 X30.836 Y758.538 I0. J3.
N3095 G1 Y780.938
N3100 G3 X27.836 Y783.938 I-3. J0.
N3105 G1 X18.836
N3110 G3 X15.836 Y780.938 I0. J-3.
N3115 G1 Y769.188
N3120 X6.736
N3125 G3 X0.736 Y763.188 I0. J-6.
N3130 G1 Y743.024
N3135 G2 X0.136 Y742.424 I-0.6 J0. F300.
N3140 G1 X-0.464
N3145 G18 G3 X-1.064 Z-14.4 I0. K0.6
N3150 G0 Z5.
N3155 X34.136 Y779.43
N3160 G1 Z-12.5 F150.33
N3165 Z-13.4
N3170 G3 X33.536 Z-14. I-0.6 K0.
N3175 G1 X32.936 F300.
N3180 G17 G2 X32.336 Y780.03 I0. J0.6
N3185 G1 Y780.938 Z-14.032 F150.
N3190 G3 X27.836 Y785.438 Z-14.279 I-4.5 J0.
N3195 G1 X18.836 Z-14.593
N3200 G3 X14.336 Y780.938 Z-14.84 I0. J-4.5
N3205 G1 Y770.688 Z-15.198
N3210 X6.736 Z-15.463
N3215 G3 X-0.764 Y763.188 Z-15.874 I0. J-7.5
N3220 G1 Y745.274 Z-16.5
N3225 Y723.688 F650.
N3230 G3 X6.736 Y716.188 I7.5 J0.
N3235 G1 X14.336
N3240 Y705.938
N3245 G3 X18.836 Y701.438 I4.5 J0.
N3250 G1 X27.836
N3255 G3 X32.336 Y705.938 I0. J4.5
N3260 G1 Y728.338
N3265 G3 X27.836 Y732.838 I-4.5 J0.
N3270 G1 X18.236
N3275 Y754.038
N3280 X27.836
N3285 G3 X32.336 Y758.538 I0. J4.5
N3290 G1 Y780.938
N3295 G3 X27.836 Y785.438 I-4.5 J0.
N3300 G1 X18.836
N3305 G3 X14.336 Y780.938 I0. J-4.5
N3310 G1 Y770.688
N3315 X6.736
N3320 G3 X-0.764 Y763.188 I0. J-7.5
N3325 G1 Y745.274
N3330 G3 X-0.014 Y744.149 I1.219 J0.
N3335 G2 X0.736 Y743.024 I-0.469 J-1.125
N3340 G1 Y723.688
N3345 G3 X6.736 Y717.688 I6. J0.
N3350 G1 X15.836
N3355 Y705.938
N3360 G3 X18.836 Y702.938 I3. J0.
N3365 G1 X27.836
N3370 G3 X30.836 Y705.938 I0. J3.
N3375 G1 Y728.338
N3380 G3 X27.836 Y731.338 I-3. J0.
N3385 G1 X16.736
N3390 Y755.538
N3395 X27.836
N3400 G3 X30.836 Y758.538 I0. J3.
N3405 G1 Y780.938
N3410 G3 X27.836 Y783.938 I-3. J0.
N3415 G1 X18.836
N3420 G3 X15.836 Y780.938 I0. J-3.
N3425 G1 Y769.188
N3430 X6.736
N3435 G3 X0.736 Y763.188 I0. J-6.
N3440 G1 Y743.024
N3445 G2 X0.136 Y742.424 I-0.6 J0. F300.
N3450 G1 X-0.464
N3455 G18 G3 X-1.064 Z-15.9 I0. K0.6
N3460 G0 Z5.
N3465 X34.136 Y779.43
N3470 G1 Z-14. F150.33
N3475 Z-14.9
N3480 G3 X33.536 Z-15.5 I-0.6 K0.
N3485 G1 X32.936 F300.
N3490 G17 G2 X32.336 Y780.03 I0. J0.6
N3495 G1 Y780.938 Z-15.532 F150.
N3500 G3 X27.836 Y785.438 Z-15.779 I-4.5 J0.
N3505 G1 X18.836 Z-16.093
N3510 G3 X14.336 Y780.938 Z-16.34 I0. J-4.5
N3515 G1 Y770.688 Z-16.698
N3520 X6.736 Z-16.963
N3525 G3 X-0.764 Y763.188 Z-17.374 I0. J-7.5
N3530 G1 Y745.274 Z-18.
N3535 Y723.688 F650.
N3540 G3 X6.736 Y716.188 I7.5 J0.
N3545 G1 X14.336
N3550 Y705.938
N3555 G3 X18.836 Y701.438 I4.5 J0.
N3560 G1 X27.836
N3565 G3 X32.336 Y705.938 I0. J4.5
N3570 G1 Y728.338
N3575 G3 X27.836 Y732.838 I-4.5 J0.
N3580 G1 X18.236
N3585 Y754.038
N3590 X27.836
N3595 G3 X32.336 Y758.538 I0. J4.5
N3600 G1 Y780.938
N3605 G3 X27.836 Y785.438 I-4.5 J0.
N3610 G1 X18.836
N3615 G3 X14.336 Y780.938 I0. J-4.5
N3620 G1 Y770.688
N3625 X6.736
N3630 G3 X-0.764 Y763.188 I0. J-7.5
N3635 G1 Y745.274
N3640 G3 X-0.014 Y744.149 I1.219 J0.
N3645 G2 X0.736 Y743.024 I-0.469 J-1.125
N3650 G1 Y723.688
N3655 G3 X6.736 Y717.688 I6. J0.
N3660 G1 X15.836
N3665 Y705.938
N3670 G3 X18.836 Y702.938 I3. J0.
N3675 G1 X27.836
N3680 G3 X30.836 Y705.938 I0. J3.
N3685 G1 Y728.338
N3690 G3 X27.836 Y731.338 I-3. J0.
N3695 G1 X16.736
N3700 Y755.538
N3705 X27.836
N3710 G3 X30.836 Y758.538 I0. J3.
N3715 G1 Y780.938
N3720 G3 X27.836 Y783.938 I-3. J0.
N3725 G1 X18.836
N3730 G3 X15.836 Y780.938 I0. J-3.
N3735 G1 Y769.188
N3740 X6.736
N3745 G3 X0.736 Y763.188 I0. J-6.
N3750 G1 Y743.024
N3755 G2 X0.136 Y742.424 I-0.6 J0. F300.
N3760 G1 X-0.464
N3765 G18 G3 X-1.064 Z-17.4 I0. K0.6
N3770 G0 Z5.
N3775 X34.136 Y779.43
N3780 G1 Z-15.5 F150.33
N3785 Z-16.4
N3790 G3 X33.536 Z-17. I-0.6 K0.
N3795 G1 X32.936 F300.
N3800 G17 G2 X32.336 Y780.03 I0. J0.6
N3805 G1 Y780.938 Z-17.032 F150.
N3810 G3 X27.836 Y785.438 Z-17.279 I-4.5 J0.
N3815 G1 X18.836 Z-17.593
N3820 G3 X14.336 Y780.938 Z-17.84 I0. J-4.5
N3825 G1 Y770.688 Z-18.198
N3830 X6.736 Z-18.463
N3835 G3 X-0.764 Y763.188 Z-18.874 I0. J-7.5
N3840 G1 Y745.274 Z-19.5
N3845 Y723.688 F650.
N3850 G3 X6.736 Y716.188 I7.5 J0.
N3855 G1 X14.336
N3860 Y705.938
N3865 G3 X18.836 Y701.438 I4.5 J0.
N3870 G1 X27.836
N3875 G3 X32.336 Y705.938 I0. J4.5
N3880 G1 Y728.338
N3885 G3 X27.836 Y732.838 I-4.5 J0.
N3890 G1 X18.236
N3895 Y754.038
N3900 X27.836
N3905 G3 X32.336 Y758.538 I0. J4.5
N3910 G1 Y780.938
N3915 G3 X27.836 Y785.438 I-4.5 J0.
N3920 G1 X18.836
N3925 G3 X14.336 Y780.938 I0. J-4.5
N3930 G1 Y770.688
N3935 X6.736
N3940 G3 X-0.764 Y763.188 I0. J-7.5
N3945 G1 Y745.274
N3950 G3 X-0.014 Y744.149 I1.219 J0.
N3955 G2 X0.736 Y743.024 I-0.469 J-1.125
N3960 G1 Y723.688
N3965 G3 X6.736 Y717.688 I6. J0.
N3970 G1 X15.836
N3975 Y705.938
N3980 G3 X18.836 Y702.938 I3. J0.
N3985 G1 X27.836
N3990 G3 X30.836 Y705.938 I0. J3.
N3995 G1 Y728.338
N4000 G3 X27.836 Y731.338 I-3. J0.
N4005 G1 X16.736
N4010 Y755.538
N4015 X27.836
N4020 G3 X30.836 Y758.538 I0. J3.
N4025 G1 Y780.938
N4030 G3 X27.836 Y783.938 I-3. J0.
N4035 G1 X18.836
N4040 G3 X15.836 Y780.938 I0. J-3.
N4045 G1 Y769.188
N4050 X6.736
N4055 G3 X0.736 Y763.188 I0. J-6.
N4060 G1 Y743.024
N4065 G2 X0.136 Y742.424 I-0.6 J0. F300.
N4070 G1 X-0.464
N4075 G18 G3 X-1.064 Z-18.9 I0. K0.6
N4080 G0 Z5.
N4085 X34.136 Y779.43
N4090 G1 Z-17. F150.33
N4095 Z-17.9
N4100 G3 X33.536 Z-18.5 I-0.6 K0.
N4105 G1 X32.936 F300.
N4110 G17 G2 X32.336 Y780.03 I0. J0.6
N4115 G1 Y780.938 Z-18.532 F150.
N4120 G3 X27.836 Y785.438 Z-18.779 I-4.5 J0.
N4125 G1 X18.836 Z-19.093
N4130 G3 X14.336 Y780.938 Z-19.34 I0. J-4.5
N4135 G1 Y770.688 Z-19.698
N4140 X6.736 Z-19.963
N4145 G3 X-0.764 Y763.188 Z-20.374 I0. J-7.5
N4150 G1 Y745.274 Z-21.
N4155 Y723.688 F650.
N4160 G3 X6.736 Y716.188 I7.5 J0.
N4165 G1 X14.336
N4170 Y705.938
N4175 G3 X17.308 Y701.705 I4.5 J0.
N4180 G1 Z-20.5
N4185 G3 X18.836 Y701.438 I1.528 J4.233
N4190 G1 X27.836
N4195 G3 X29.308 Y701.686 I0. J4.5
N4200 G1 Z-21. F150.33
N4205 G3 X32.336 Y705.938 I-1.472 J4.252 F650.
N4210 G1 Y728.338
N4215 G3 X27.836 Y732.838 I-4.5 J0.
N4220 G1 X18.236
N4225 Y739.288
N4230 Z-20.5
N4235 Y751.288
N4240 Z-21. F150.33
N4245 Y754.038 F650.
N4250 X27.836
N4255 G3 X32.336 Y758.538 I0. J4.5
N4260 G1 Y780.938
N4265 G3 X29.8 Y784.987 I-4.5 J0.
N4270 G1 Z-20.5
N4275 G3 X27.836 Y785.438 I-1.965 J-4.049
N4280 G1 X18.836
N4285 G3 X17.8 Y785.317 I0. J-4.5
N4290 G1 Z-21. F150.33
N4295 G3 X14.336 Y780.938 I1.035 J-4.379 F650.
N4300 G1 Y770.688
N4305 X6.736
N4310 G3 X-0.764 Y763.188 I0. J-7.5
N4315 G1 Y745.274
N4320 G3 X-0.014 Y744.149 I1.219 J0.
N4325 G2 X0.736 Y743.024 I-0.469 J-1.125
N4330 G1 Y723.688
N4335 G3 X6.736 Y717.688 I6. J0.
N4340 G1 X15.836
N4345 Y705.938
N4350 G3 X17.308 Y703.356 I3. J0.
N4355 G1 Z-20.5
N4360 G3 X18.836 Y702.938 I1.528 J2.582
N4365 G1 X27.836
N4370 G3 X29.308 Y703.324 I0. J3.
N4375 G1 Z-21. F150.33
N4380 G3 X30.836 Y705.938 I-1.472 J2.614 F650.
N4385 G1 Y728.338
N4390 G3 X27.836 Y731.338 I-3. J0.
N4395 G1 X16.736
N4400 Y739.288
N4405 Z-20.5
N4410 Y751.288
N4415 Z-21. F150.33
N4420 Y755.538 F650.
N4425 X27.836
N4430 G3 X30.836 Y758.538 I0. J3.
N4435 G1 Y780.938
N4440 G3 X29.8 Y783.205 I-3. J0.
N4445 G1 Z-20.5
N4450 G3 X27.836 Y783.938 I-1.965 J-2.267
N4455 G1 X18.836
N4460 G3 X17.8 Y783.754 I0. J-3.
N4465 G1 Z-21. F150.33
N4470 G3 X15.836 Y780.938 I1.035 J-2.816 F650.
N4475 G1 Y769.188
N4480 X6.736
N4485 G3 X0.736 Y763.188 I0. J-6.
N4490 G1 Y743.024
N4495 G2 X0.136 Y742.424 I-0.6 J0. F300.
N4500 G1 X-0.464
N4505 G18 G3 X-1.064 Z-20.4 I0. K0.6
N4510 G0 Z5.
N4515 X34.136 Y779.43
N4520 G1 Z-18.5 F150.33
N4525 Z-19.4
N4530 G3 X33.536 Z-20. I-0.6 K0.
N4535 G1 X32.936 F300.
N4540 G17 G2 X32.336 Y780.03 I0. J0.6
N4545 G1 Y780.938 Z-20.032 F150.
N4550 G3 X27.836 Y785.438 Z-20.279 I-4.5 J0.
N4555 G1 X21.495 Z-20.5
N4560 X18.836
N4565 G3 X17.8 Y785.317 I0. J-4.5
N4570 G1 Z-20.629 F150.33
N4575 G3 X14.336 Y780.938 Z-20.84 I1.035 J-4.379 F150.
N4580 G1 Y770.688 Z-21.198
N4585 X6.736 Z-21.463
N4590 G3 X-0.764 Y763.188 Z-21.874 I0. J-7.5
N4595 G1 Y745.274 Z-22.5
N4600 Y723.688 F650.
N4605 G3 X6.736 Y716.188 I7.5 J0.
N4610 G1 X14.336
N4615 Y705.938
N4620 G3 X17.308 Y701.705 I4.5 J0.
N4625 G1 Z-20.5
N4630 G3 X18.836 Y701.438 I1.528 J4.233
N4635 G1 X27.836
N4640 G3 X29.308 Y701.686 I0. J4.5
N4645 G1 Z-22.5 F150.33
N4650 G3 X32.336 Y705.938 I-1.472 J4.252 F650.
N4655 G1 Y728.338
N4660 G3 X27.836 Y732.838 I-4.5 J0.
N4665 G1 X18.236
N4670 Y739.288
N4675 Z-20.5
N4680 Y751.288
N4685 Z-22.5 F150.33
N4690 Y754.038 F650.
N4695 X27.836
N4700 G3 X32.336 Y758.538 I0. J4.5
N4705 G1 Y780.938
N4710 G3 X29.8 Y784.987 I-4.5 J0.
N4715 G1 Z-20.5
N4720 G3 X27.836 Y785.438 I-1.965 J-4.049
N4725 G1 X18.836
N4730 G3 X17.8 Y785.317 I0. J-4.5
N4735 G1 Z-22.5 F150.33
N4740 G3 X14.336 Y780.938 I1.035 J-4.379 F650.
N4745 G1 Y770.688
N4750 X6.736
N4755 G3 X-0.764 Y763.188 I0. J-7.5
N4760 G1 Y745.274
N4765 G3 X-0.014 Y744.149 I1.219 J0.
N4770 G2 X0.736 Y743.024 I-0.469 J-1.125
N4775 G1 Y723.688
N4780 G3 X6.736 Y717.688 I6. J0.
N4785 G1 X15.836
N4790 Y705.938
N4795 G3 X17.308 Y703.356 I3. J0.
N4800 G1 Z-20.5
N4805 G3 X18.836 Y702.938 I1.528 J2.582
N4810 G1 X27.836
N4815 G3 X29.308 Y703.324 I0. J3.
N4820 G1 Z-22.5 F150.33
N4825 G3 X30.836 Y705.938 I-1.472 J2.614 F650.
N4830 G1 Y728.338
N4835 G3 X27.836 Y731.338 I-3. J0.
N4840 G1 X16.736
N4845 Y739.288
N4850 Z-20.5
N4855 Y751.288
N4860 Z-22.5 F150.33
N4865 Y755.538 F650.
N4870 X27.836
N4875 G3 X30.836 Y758.538 I0. J3.
N4880 G1 Y780.938
N4885 G3 X29.8 Y783.205 I-3. J0.
N4890 G1 Z-20.5
N4895 G3 X27.836 Y783.938 I-1.965 J-2.267
N4900 G1 X18.836
N4905 G3 X17.8 Y783.754 I0. J-3.
N4910 G1 Z-22.5 F150.33
N4915 G3 X15.836 Y780.938 I1.035 J-2.816 F650.
N4920 G1 Y769.188
N4925 X6.736
N4930 G3 X0.736 Y763.188 I0. J-6.
N4935 G1 Y743.024
N4940 G2 X0.136 Y742.424 I-0.6 J0. F300.
N4945 G1 X-0.464
N4950 G18 G3 X-1.064 Z-21.9 I0. K0.6
N4955 G0 Z5.
N4960 X37.73 Y711.118
N4965 G1 Z2.5 F150.33
N4970 Z1.6
N4975 G2 X38.33 Z1. I0.6 K0.
N4980 G1 X38.93 F300.
N4985 G17 G2 X39.53 Y710.518 I0. J-0.6
N4990 G1 Y709.61 Z0.968 F150.
N4995 G3 X44.03 Y705.11 Z0.721 I4.5 J0.
N5000 G1 X53.03 Z0.407
N5005 G3 X57.53 Y709.61 Z0.16 I0. J4.5
N5010 G1 Y719.86 Z-0.198
N5015 X65.13 Z-0.463
N5020 G3 X72.63 Y727.36 Z-0.874 I0. J7.5
N5025 G1 Y745.274 Z-1.5
N5030 Y766.86 F650.
N5035 G3 X65.13 Y774.36 I-7.5 J0.
N5040 G1 X57.53
N5045 Y784.61
N5050 G3 X53.03 Y789.11 I-4.5 J0.
N5055 G1 X44.03
N5060 G3 X39.53 Y784.61 I0. J-4.5
N5065 G1 Y762.21
N5070 G3 X44.03 Y757.71 I4.5 J0.
N5075 G1 X53.63
N5080 Y736.51
N5085 X44.03
N5090 G3 X39.53 Y732.01 I0. J-4.5
N5095 G1 Y709.61
N5100 G3 X44.03 Y705.11 I4.5 J0.
N5105 G1 X53.03
N5110 G3 X57.53 Y709.61 I0. J4.5
N5115 G1 Y719.86
N5120 X65.13
N5125 G3 X72.63 Y727.36 I0. J7.5
N5130 G1 Y745.274
N5135 G3 X71.88 Y746.399 I-1.219 J0.
N5140 G2 X71.13 Y747.524 I0.469 J1.125
N5145 G1 Y766.86
N5150 G3 X65.13 Y772.86 I-6. J0.
N5155 G1 X56.03
N5160 Y784.61
N5165 G3 X53.03 Y787.61 I-3. J0.
N5170 G1 X44.03
N5175 G3 X41.03 Y784.61 I0. J-3.
N5180 G1 Y762.21
N5185 G3 X44.03 Y759.21 I3. J0.
N5190 G1 X55.13
N5195 Y735.01
N5200 X44.03
N5205 G3 X41.03 Y732.01 I0. J-3.
N5210 G1 Y709.61
N5215 G3 X44.03 Y706.61 I3. J0.
N5220 G1 X53.03
N5225 G3 X56.03 Y709.61 I0. J3.
N5230 G1 Y721.36
N5235 X65.13
N5240 G3 X71.13 Y727.36 I0. J6.
N5245 G1 Y747.524
N5250 G2 X71.73 Y748.124 I0.6 J0. F300.
N5255 G1 X72.33
N5260 G18 G2 X72.93 Z-0.9 I0. K0.6
N5265 G0 Z5.
N5270 X37.73 Y711.118
N5275 G1 Z1. F150.33
N5280 Z0.1
N5285 G2 X38.33 Z-0.5 I0.6 K0.
N5290 G1 X38.93 F300.
N5295 G17 G2 X39.53 Y710.518 I0. J-0.6
N5300 G1 Y709.61 Z-0.532 F150.
N5305 G3 X44.03 Y705.11 Z-0.779 I4.5 J0.
N5310 G1 X53.03 Z-1.093
N5315 G3 X57.53 Y709.61 Z-1.34 I0. J4.5
N5320 G1 Y719.86 Z-1.698
N5325 X65.13 Z-1.963
N5330 G3 X72.63 Y727.36 Z-2.374 I0. J7.5
N5335 G1 Y745.274 Z-3.
N5340 Y766.86 F650.
N5345 G3 X65.13 Y774.36 I-7.5 J0.
N5350 G1 X57.53
N5355 Y784.61
N5360 G3 X53.03 Y789.11 I-4.5 J0.
N5365 G1 X44.03
N5370 G3 X39.53 Y784.61 I0. J-4.5
N5375 G1 Y762.21
N5380 G3 X44.03 Y757.71 I4.5 J0.
N5385 G1 X53.63
N5390 Y736.51
N5395 X44.03
N5400 G3 X39.53 Y732.01 I0. J-4.5
N5405 G1 Y709.61
N5410 G3 X44.03 Y705.11 I4.5 J0.
N5415 G1 X53.03
N5420 G3 X57.53 Y709.61 I0. J4.5
N5425 G1 Y719.86
N5430 X65.13
N5435 G3 X72.63 Y727.36 I0. J7.5
N5440 G1 Y745.274
N5445 G3 X71.88 Y746.399 I-1.219 J0.
N5450 G2 X71.13 Y747.524 I0.469 J1.125
N5455 G1 Y766.86
N5460 G3 X65.13 Y772.86 I-6. J0.
N5465 G1 X56.03
N5470 Y784.61
N5475 G3 X53.03 Y787.61 I-3. J0.
N5480 G1 X44.03
N5485 G3 X41.03 Y784.61 I0. J-3.
N5490 G1 Y762.21
N5495 G3 X44.03 Y759.21 I3. J0.
N5500 G1 X55.13
N5505 Y735.01
N5510 X44.03
N5515 G3 X41.03 Y732.01 I0. J-3.
N5520 G1 Y709.61
N5525 G3 X44.03 Y706.61 I3. J0.
N5530 G1 X53.03
N5535 G3 X56.03 Y709.61 I0. J3.
N5540 G1 Y721.36
N5545 X65.13
N5550 G3 X71.13 Y727.36 I0. J6.
N5555 G1 Y747.524
N5560 G2 X71.73 Y748.124 I0.6 J0. F300.
N5565 G1 X72.33
N5570 G18 G2 X72.93 Z-2.4 I0. K0.6
N5575 G0 Z5.
N5580 X37.73 Y711.118
N5585 G1 Z-0.5 F150.33
N5590 Z-1.4
N5595 G2 X38.33 Z-2. I0.6 K0.
N5600 G1 X38.93 F300.
N5605 G17 G2 X39.53 Y710.518 I0. J-0.6
N5610 G1 Y709.61 Z-2.032 F150.
N5615 G3 X44.03 Y705.11 Z-2.279 I4.5 J0.
N5620 G1 X53.03 Z-2.593
N5625 G3 X57.53 Y709.61 Z-2.84 I0. J4.5
N5630 G1 Y719.86 Z-3.198
N5635 X65.13 Z-3.463
N5640 G3 X72.63 Y727.36 Z-3.874 I0. J7.5
N5645 G1 Y745.274 Z-4.5
N5650 Y766.86 F650.
N5655 G3 X65.13 Y774.36 I-7.5 J0.
N5660 G1 X57.53
N5665 Y784.61
N5670 G3 X53.03 Y789.11 I-4.5 J0.
N5675 G1 X44.03
N5680 G3 X39.53 Y784.61 I0. J-4.5
N5685 G1 Y762.21
N5690 G3 X44.03 Y757.71 I4.5 J0.
N5695 G1 X53.63
N5700 Y736.51
N5705 X44.03
N5710 G3 X39.53 Y732.01 I0. J-4.5
N5715 G1 Y709.61
N5720 G3 X44.03 Y705.11 I4.5 J0.
N5725 G1 X53.03
N5730 G3 X57.53 Y709.61 I0. J4.5
N5735 G1 Y719.86
N5740 X65.13
N5745 G3 X72.63 Y727.36 I0. J7.5
N5750 G1 Y745.274
N5755 G3 X71.88 Y746.399 I-1.219 J0.
N5760 G2 X71.13 Y747.524 I0.469 J1.125
N5765 G1 Y766.86
N5770 G3 X65.13 Y772.86 I-6. J0.
N5775 G1 X56.03
N5780 Y784.61
N5785 G3 X53.03 Y787.61 I-3. J0.
N5790 G1 X44.03
N5795 G3 X41.03 Y784.61 I0. J-3.
N5800 G1 Y762.21
N5805 G3 X44.03 Y759.21 I3. J0.
N5810 G1 X55.13
N5815 Y735.01
N5820 X44.03
N5825 G3 X41.03 Y732.01 I0. J-3.
N5830 G1 Y709.61
N5835 G3 X44.03 Y706.61 I3. J0.
N5840 G1 X53.03
N5845 G3 X56.03 Y709.61 I0. J3.
N5850 G1 Y721.36
N5855 X65.13
N5860 G3 X71.13 Y727.36 I0. J6.
N5865 G1 Y747.524
N5870 G2 X71.73 Y748.124 I0.6 J0. F300.
N5875 G1 X72.33
N5880 G18 G2 X72.93 Z-3.9 I0. K0.6
N5885 G0 Z5.
N5890 X37.73 Y711.118
N5895 G1 Z-2. F150.33
N5900 Z-2.9
N5905 G2 X38.33 Z-3.5 I0.6 K0.
N5910 G1 X38.93 F300.
N5915 G17 G2 X39.53 Y710.518 I0. J-0.6
N5920 G1 Y709.61 Z-3.532 F150.
N5925 G3 X44.03 Y705.11 Z-3.779 I4.5 J0.
N5930 G1 X53.03 Z-4.093
N5935 G3 X57.53 Y709.61 Z-4.34 I0. J4.5
N5940 G1 Y719.86 Z-4.698
N5945 X65.13 Z-4.963
N5950 G3 X72.63 Y727.36 Z-5.374 I0. J7.5
N5955 G1 Y745.274 Z-6.
N5960 Y766.86 F650.
N5965 G3 X65.13 Y774.36 I-7.5 J0.
N5970 G1 X57.53
N5975 Y784.61
N5980 G3 X53.03 Y789.11 I-4.5 J0.
N5985 G1 X44.03
N5990 G3 X39.53 Y784.61 I0. J-4.5
N5995 G1 Y762.21
N6000 G3 X44.03 Y757.71 I4.5 J0.
N6005 G1 X53.63
N6010 Y736.51
N6015 X44.03
N6020 G3 X39.53 Y732.01 I0. J-4.5
N6025 G1 Y709.61
N6030 G3 X44.03 Y705.11 I4.5 J0.
N6035 G1 X53.03
N6040 G3 X57.53 Y709.61 I0. J4.5
N6045 G1 Y719.86
N6050 X65.13
N6055 G3 X72.63 Y727.36 I0. J7.5
N6060 G1 Y745.274
N6065 G3 X71.88 Y746.399 I-1.219 J0.
N6070 G2 X71.13 Y747.524 I0.469 J1.125
N6075 G1 Y766.86
N6080 G3 X65.13 Y772.86 I-6. J0.
N6085 G1 X56.03
N6090 Y784.61
N6095 G3 X53.03 Y787.61 I-3. J0.
N6100 G1 X44.03
N6105 G3 X41.03 Y784.61 I0. J-3.
N6110 G1 Y762.21
N6115 G3 X44.03 Y759.21 I3. J0.
N6120 G1 X55.13
N6125 Y735.01
N6130 X44.03
N6135 G3 X41.03 Y732.01 I0. J-3.
N6140 G1 Y709.61
N6145 G3 X44.03 Y706.61 I3. J0.
N6150 G1 X53.03
N6155 G3 X56.03 Y709.61 I0. J3.
N6160 G1 Y721.36
N6165 X65.13
N6170 G3 X71.13 Y727.36 I0. J6.
N6175 G1 Y747.524
N6180 G2 X71.73 Y748.124 I0.6 J0. F300.
N6185 G1 X72.33
N6190 G18 G2 X72.93 Z-5.4 I0. K0.6
N6195 G0 Z5.
N6200 X37.73 Y711.118
N6205 G1 Z-3.5 F150.33
N6210 Z-4.4
N6215 G2 X38.33 Z-5. I0.6 K0.
N6220 G1 X38.93 F300.
N6225 G17 G2 X39.53 Y710.518 I0. J-0.6
N6230 G1 Y709.61 Z-5.032 F150.
N6235 G3 X44.03 Y705.11 Z-5.279 I4.5 J0.
N6240 G1 X53.03 Z-5.593
N6245 G3 X57.53 Y709.61 Z-5.84 I0. J4.5
N6250 G1 Y719.86 Z-6.198
N6255 X65.13 Z-6.463
N6260 G3 X72.63 Y727.36 Z-6.874 I0. J7.5
N6265 G1 Y745.274 Z-7.5
N6270 Y766.86 F650.
N6275 G3 X65.13 Y774.36 I-7.5 J0.
N6280 G1 X57.53
N6285 Y784.61
N6290 G3 X53.03 Y789.11 I-4.5 J0.
N6295 G1 X44.03
N6300 G3 X39.53 Y784.61 I0. J-4.5
N6305 G1 Y762.21
N6310 G3 X44.03 Y757.71 I4.5 J0.
N6315 G1 X53.63
N6320 Y736.51
N6325 X44.03
N6330 G3 X39.53 Y732.01 I0. J-4.5
N6335 G1 Y709.61
N6340 G3 X44.03 Y705.11 I4.5 J0.
N6345 G1 X53.03
N6350 G3 X57.53 Y709.61 I0. J4.5
N6355 G1 Y719.86
N6360 X65.13
N6365 G3 X72.63 Y727.36 I0. J7.5
N6370 G1 Y745.274
N6375 G3 X71.88 Y746.399 I-1.219 J0.
N6380 G2 X71.13 Y747.524 I0.469 J1.125
N6385 G1 Y766.86
N6390 G3 X65.13 Y772.86 I-6. J0.
N6395 G1 X56.03
N6400 Y784.61
N6405 G3 X53.03 Y787.61 I-3. J0.
N6410 G1 X44.03
N6415 G3 X41.03 Y784.61 I0. J-3.
N6420 G1 Y762.21
N6425 G3 X44.03 Y759.21 I3. J0.
N6430 G1 X55.13
N6435 Y735.01
N6440 X44.03
N6445 G3 X41.03 Y732.01 I0. J-3.
N6450 G1 Y709.61
N6455 G3 X44.03 Y706.61 I3. J0.
N6460 G1 X53.03
N6465 G3 X56.03 Y709.61 I0. J3.
N6470 G1 Y721.36
N6475 X65.13
N6480 G3 X71.13 Y727.36 I0. J6.
N6485 G1 Y747.524
N6490 G2 X71.73 Y748.124 I0.6 J0. F300.
N6495 G1 X72.33
N6500 G18 G2 X72.93 Z-6.9 I0. K0.6
N6505 G0 Z5.
N6510 X37.73 Y711.118
N6515 G1 Z-5. F150.33
N6520 Z-5.9
N6525 G2 X38.33 Z-6.5 I0.6 K0.
N6530 G1 X38.93 F300.
N6535 G17 G2 X39.53 Y710.518 I0. J-0.6
N6540 G1 Y709.61 Z-6.532 F150.
N6545 G3 X44.03 Y705.11 Z-6.779 I4.5 J0.
N6550 G1 X53.03 Z-7.093
N6555 G3 X57.53 Y709.61 Z-7.34 I0. J4.5
N6560 G1 Y719.86 Z-7.698
N6565 X65.13 Z-7.963
N6570 G3 X72.63 Y727.36 Z-8.374 I0. J7.5
N6575 G1 Y745.274 Z-9.
N6580 Y766.86 F650.
N6585 G3 X65.13 Y774.36 I-7.5 J0.
N6590 G1 X57.53
N6595 Y784.61
N6600 G3 X53.03 Y789.11 I-4.5 J0.
N6605 G1 X44.03
N6610 G3 X39.53 Y784.61 I0. J-4.5
N6615 G1 Y762.21
N6620 G3 X44.03 Y757.71 I4.5 J0.
N6625 G1 X53.63
N6630 Y736.51
N6635 X44.03
N6640 G3 X39.53 Y732.01 I0. J-4.5
N6645 G1 Y709.61
N6650 G3 X44.03 Y705.11 I4.5 J0.
N6655 G1 X53.03
N6660 G3 X57.53 Y709.61 I0. J4.5
N6665 G1 Y719.86
N6670 X65.13
N6675 G3 X72.63 Y727.36 I0. J7.5
N6680 G1 Y745.274
N6685 G3 X71.88 Y746.399 I-1.219 J0.
N6690 G2 X71.13 Y747.524 I0.469 J1.125
N6695 G1 Y766.86
N6700 G3 X65.13 Y772.86 I-6. J0.
N6705 G1 X56.03
N6710 Y784.61
N6715 G3 X53.03 Y787.61 I-3. J0.
N6720 G1 X44.03
N6725 G3 X41.03 Y784.61 I0. J-3.
N6730 G1 Y762.21
N6735 G3 X44.03 Y759.21 I3. J0.
N6740 G1 X55.13
N6745 Y735.01
N6750 X44.03
N6755 G3 X41.03 Y732.01 I0. J-3.
N6760 G1 Y709.61
N6765 G3 X44.03 Y706.61 I3. J0.
N6770 G1 X53.03
N6775 G3 X56.03 Y709.61 I0. J3.
N6780 G1 Y721.36
N6785 X65.13
N6790 G3 X71.13 Y727.36 I0. J6.
N6795 G1 Y747.524
N6800 G2 X71.73 Y748.124 I0.6 J0. F300.
N6805 G1 X72.33
N6810 G18 G2 X72.93 Z-8.4 I0. K0.6
N6815 G0 Z5.
N6820 X37.73 Y711.118
N6825 G1 Z-6.5 F150.33
N6830 Z-7.4
N6835 G2 X38.33 Z-8. I0.6 K0.
N6840 G1 X38.93 F300.
N6845 G17 G2 X39.53 Y710.518 I0. J-0.6
N6850 G1 Y709.61 Z-8.032 F150.
N6855 G3 X44.03 Y705.11 Z-8.279 I4.5 J0.
N6860 G1 X53.03 Z-8.593
N6865 G3 X57.53 Y709.61 Z-8.84 I0. J4.5
N6870 G1 Y719.86 Z-9.198
N6875 X65.13 Z-9.463
N6880 G3 X72.63 Y727.36 Z-9.874 I0. J7.5
N6885 G1 Y745.274 Z-10.5
N6890 Y766.86 F650.
N6895 G3 X65.13 Y774.36 I-7.5 J0.
N6900 G1 X57.53
N6905 Y784.61
N6910 G3 X53.03 Y789.11 I-4.5 J0.
N6915 G1 X44.03
N6920 G3 X39.53 Y784.61 I0. J-4.5
N6925 G1 Y762.21
N6930 G3 X44.03 Y757.71 I4.5 J0.
N6935 G1 X53.63
N6940 Y736.51
N6945 X44.03
N6950 G3 X39.53 Y732.01 I0. J-4.5
N6955 G1 Y709.61
N6960 G3 X44.03 Y705.11 I4.5 J0.
N6965 G1 X53.03
N6970 G3 X57.53 Y709.61 I0. J4.5
N6975 G1 Y719.86
N6980 X65.13
N6985 G3 X72.63 Y727.36 I0. J7.5
N6990 G1 Y745.274
N6995 G3 X71.88 Y746.399 I-1.219 J0.
N7000 G2 X71.13 Y747.524 I0.469 J1.125
N7005 G1 Y766.86
N7010 G3 X65.13 Y772.86 I-6. J0.
N7015 G1 X56.03
N7020 Y784.61
N7025 G3 X53.03 Y787.61 I-3. J0.
N7030 G1 X44.03
N7035 G3 X41.03 Y784.61 I0. J-3.
N7040 G1 Y762.21
N7045 G3 X44.03 Y759.21 I3. J0.
N7050 G1 X55.13
N7055 Y735.01
N7060 X44.03
N7065 G3 X41.03 Y732.01 I0. J-3.
N7070 G1 Y709.61
N7075 G3 X44.03 Y706.61 I3. J0.
N7080 G1 X53.03
N7085 G3 X56.03 Y709.61 I0. J3.
N7090 G1 Y721.36
N7095 X65.13
N7100 G3 X71.13 Y727.36 I0. J6.
N7105 G1 Y747.524
N7110 G2 X71.73 Y748.124 I0.6 J0. F300.
N7115 G1 X72.33
N7120 G18 G2 X72.93 Z-9.9 I0. K0.6
N7125 G0 Z5.
N7130 X37.73 Y711.118
N7135 G1 Z-8. F150.33
N7140 Z-8.9
N7145 G2 X38.33 Z-9.5 I0.6 K0.
N7150 G1 X38.93 F300.
N7155 G17 G2 X39.53 Y710.518 I0. J-0.6
N7160 G1 Y709.61 Z-9.532 F150.
N7165 G3 X44.03 Y705.11 Z-9.779 I4.5 J0.
N7170 G1 X53.03 Z-10.093
N7175 G3 X57.53 Y709.61 Z-10.34 I0. J4.5
N7180 G1 Y719.86 Z-10.698
N7185 X65.13 Z-10.963
N7190 G3 X72.63 Y727.36 Z-11.374 I0. J7.5
N7195 G1 Y745.274 Z-12.
N7200 Y766.86 F650.
N7205 G3 X65.13 Y774.36 I-7.5 J0.
N7210 G1 X57.53
N7215 Y784.61
N7220 G3 X53.03 Y789.11 I-4.5 J0.
N7225 G1 X44.03
N7230 G3 X39.53 Y784.61 I0. J-4.5
N7235 G1 Y762.21
N7240 G3 X44.03 Y757.71 I4.5 J0.
N7245 G1 X53.63
N7250 Y736.51
N7255 X44.03
N7260 G3 X39.53 Y732.01 I0. J-4.5
N7265 G1 Y709.61
N7270 G3 X44.03 Y705.11 I4.5 J0.
N7275 G1 X53.03
N7280 G3 X57.53 Y709.61 I0. J4.5
N7285 G1 Y719.86
N7290 X65.13
N7295 G3 X72.63 Y727.36 I0. J7.5
N7300 G1 Y745.274
N7305 G3 X71.88 Y746.399 I-1.219 J0.
N7310 G2 X71.13 Y747.524 I0.469 J1.125
N7315 G1 Y766.86
N7320 G3 X65.13 Y772.86 I-6. J0.
N7325 G1 X56.03
N7330 Y784.61
N7335 G3 X53.03 Y787.61 I-3. J0.
N7340 G1 X44.03
N7345 G3 X41.03 Y784.61 I0. J-3.
N7350 G1 Y762.21
N7355 G3 X44.03 Y759.21 I3. J0.
N7360 G1 X55.13
N7365 Y735.01
N7370 X44.03
N7375 G3 X41.03 Y732.01 I0. J-3.
N7380 G1 Y709.61
N7385 G3 X44.03 Y706.61 I3. J0.
N7390 G1 X53.03
N7395 G3 X56.03 Y709.61 I0. J3.
N7400 G1 Y721.36
N7405 X65.13
N7410 G3 X71.13 Y727.36 I0. J6.
N7415 G1 Y747.524
N7420 G2 X71.73 Y748.124 I0.6 J0. F300.
N7425 G1 X72.33
N7430 G18 G2 X72.93 Z-11.4 I0. K0.6
N7435 G0 Z5.
N7440 X37.73 Y711.118
N7445 G1 Z-9.5 F150.33
N7450 Z-10.4
N7455 G2 X38.33 Z-11. I0.6 K0.
N7460 G1 X38.93 F300.
N7465 G17 G2 X39.53 Y710.518 I0. J-0.6
N7470 G1 Y709.61 Z-11.032 F150.
N7475 G3 X44.03 Y705.11 Z-11.279 I4.5 J0.
N7480 G1 X53.03 Z-11.593
N7485 G3 X57.53 Y709.61 Z-11.84 I0. J4.5
N7490 G1 Y719.86 Z-12.198
N7495 X65.13 Z-12.463
N7500 G3 X72.63 Y727.36 Z-12.874 I0. J7.5
N7505 G1 Y745.274 Z-13.5
N7510 Y766.86 F650.
N7515 G3 X65.13 Y774.36 I-7.5 J0.
N7520 G1 X57.53
N7525 Y784.61
N7530 G3 X53.03 Y789.11 I-4.5 J0.
N7535 G1 X44.03
N7540 G3 X39.53 Y784.61 I0. J-4.5
N7545 G1 Y762.21
N7550 G3 X44.03 Y757.71 I4.5 J0.
N7555 G1 X53.63
N7560 Y736.51
N7565 X44.03
N7570 G3 X39.53 Y732.01 I0. J-4.5
N7575 G1 Y709.61
N7580 G3 X44.03 Y705.11 I4.5 J0.
N7585 G1 X53.03
N7590 G3 X57.53 Y709.61 I0. J4.5
N7595 G1 Y719.86
N7600 X65.13
N7605 G3 X72.63 Y727.36 I0. J7.5
N7610 G1 Y745.274
N7615 G3 X71.88 Y746.399 I-1.219 J0.
N7620 G2 X71.13 Y747.524 I0.469 J1.125
N7625 G1 Y766.86
N7630 G3 X65.13 Y772.86 I-6. J0.
N7635 G1 X56.03
N7640 Y784.61
N7645 G3 X53.03 Y787.61 I-3. J0.
N7650 G1 X44.03
N7655 G3 X41.03 Y784.61 I0. J-3.
N7660 G1 Y762.21
N7665 G3 X44.03 Y759.21 I3. J0.
N7670 G1 X55.13
N7675 Y735.01
N7680 X44.03
N7685 G3 X41.03 Y732.01 I0. J-3.
N7690 G1 Y709.61
N7695 G3 X44.03 Y706.61 I3. J0.
N7700 G1 X53.03
N7705 G3 X56.03 Y709.61 I0. J3.
N7710 G1 Y721.36
N7715 X65.13
N7720 G3 X71.13 Y727.36 I0. J6.
N7725 G1 Y747.524
N7730 G2 X71.73 Y748.124 I0.6 J0. F300.
N7735 G1 X72.33
N7740 G18 G2 X72.93 Z-12.9 I0. K0.6
N7745 G0 Z5.
N7750 X37.73 Y711.118
N7755 G1 Z-11. F150.33
N7760 Z-11.9
N7765 G2 X38.33 Z-12.5 I0.6 K0.
N7770 G1 X38.93 F300.
N7775 G17 G2 X39.53 Y710.518 I0. J-0.6
N7780 G1 Y709.61 Z-12.532 F150.
N7785 G3 X44.03 Y705.11 Z-12.779 I4.5 J0.
N7790 G1 X53.03 Z-13.093
N7795 G3 X57.53 Y709.61 Z-13.34 I0. J4.5
N7800 G1 Y719.86 Z-13.698
N7805 X65.13 Z-13.963
N7810 G3 X72.63 Y727.36 Z-14.374 I0. J7.5
N7815 G1 Y745.274 Z-15.
N7820 Y766.86 F650.
N7825 G3 X65.13 Y774.36 I-7.5 J0.
N7830 G1 X57.53
N7835 Y784.61
N7840 G3 X53.03 Y789.11 I-4.5 J0.
N7845 G1 X44.03
N7850 G3 X39.53 Y784.61 I0. J-4.5
N7855 G1 Y762.21
N7860 G3 X44.03 Y757.71 I4.5 J0.
N7865 G1 X53.63
N7870 Y736.51
N7875 X44.03
N7880 G3 X39.53 Y732.01 I0. J-4.5
N7885 G1 Y709.61
N7890 G3 X44.03 Y705.11 I4.5 J0.
N7895 G1 X53.03
N7900 G3 X57.53 Y709.61 I0. J4.5
N7905 G1 Y719.86
N7910 X65.13
N7915 G3 X72.63 Y727.36 I0. J7.5
N7920 G1 Y745.274
N7925 G3 X71.88 Y746.399 I-1.219 J0.
N7930 G2 X71.13 Y747.524 I0.469 J1.125
N7935 G1 Y766.86
N7940 G3 X65.13 Y772.86 I-6. J0.
N7945 G1 X56.03
N7950 Y784.61
N7955 G3 X53.03 Y787.61 I-3. J0.
N7960 G1 X44.03
N7965 G3 X41.03 Y784.61 I0. J-3.
N7970 G1 Y762.21
N7975 G3 X44.03 Y759.21 I3. J0.
N7980 G1 X55.13
N7985 Y735.01
N7990 X44.03
N7995 G3 X41.03 Y732.01 I0. J-3.
N8000 G1 Y709.61
N8005 G3 X44.03 Y706.61 I3. J0.
N8010 G1 X53.03
N8015 G3 X56.03 Y709.61 I0. J3.
N8020 G1 Y721.36
N8025 X65.13
N8030 G3 X71.13 Y727.36 I0. J6.
N8035 G1 Y747.524
N8040 G2 X71.73 Y748.124 I0.6 J0. F300.
N8045 G1 X72.33
N8050 G18 G2 X72.93 Z-14.4 I0. K0.6
N8055 G0 Z5.
N8060 X37.73 Y711.118
N8065 G1 Z-12.5 F150.33
N8070 Z-13.4
N8075 G2 X38.33 Z-14. I0.6 K0.
N8080 G1 X38.93 F300.
N8085 G17 G2 X39.53 Y710.518 I0. J-0.6
N8090 G1 Y709.61 Z-14.032 F150.
N8095 G3 X44.03 Y705.11 Z-14.279 I4.5 J0.
N8100 G1 X53.03 Z-14.593
N8105 G3 X57.53 Y709.61 Z-14.84 I0. J4.5
N8110 G1 Y719.86 Z-15.198
N8115 X65.13 Z-15.463
N8120 G3 X72.63 Y727.36 Z-15.874 I0. J7.5
N8125 G1 Y745.274 Z-16.5
N8130 Y766.86 F650.
N8135 G3 X65.13 Y774.36 I-7.5 J0.
N8140 G1 X57.53
N8145 Y784.61
N8150 G3 X53.03 Y789.11 I-4.5 J0.
N8155 G1 X44.03
N8160 G3 X39.53 Y784.61 I0. J-4.5
N8165 G1 Y762.21
N8170 G3 X44.03 Y757.71 I4.5 J0.
N8175 G1 X53.63
N8180 Y736.51
N8185 X44.03
N8190 G3 X39.53 Y732.01 I0. J-4.5
N8195 G1 Y709.61
N8200 G3 X44.03 Y705.11 I4.5 J0.
N8205 G1 X53.03
N8210 G3 X57.53 Y709.61 I0. J4.5
N8215 G1 Y719.86
N8220 X65.13
N8225 G3 X72.63 Y727.36 I0. J7.5
N8230 G1 Y745.274
N8235 G3 X71.88 Y746.399 I-1.219 J0.
N8240 G2 X71.13 Y747.524 I0.469 J1.125
N8245 G1 Y766.86
N8250 G3 X65.13 Y772.86 I-6. J0.
N8255 G1 X56.03
N8260 Y784.61
N8265 G3 X53.03 Y787.61 I-3. J0.
N8270 G1 X44.03
N8275 G3 X41.03 Y784.61 I0. J-3.
N8280 G1 Y762.21
N8285 G3 X44.03 Y759.21 I3. J0.
N8290 G1 X55.13
N8295 Y735.01
N8300 X44.03
N8305 G3 X41.03 Y732.01 I0. J-3.
N8310 G1 Y709.61
N8315 G3 X44.03 Y706.61 I3. J0.
N8320 G1 X53.03
N8325 G3 X56.03 Y709.61 I0. J3.
N8330 G1 Y721.36
N8335 X65.13
N8340 G3 X71.13 Y727.36 I0. J6.
N8345 G1 Y747.524
N8350 G2 X71.73 Y748.124 I0.6 J0. F300.
N8355 G1 X72.33
N8360 G18 G2 X72.93 Z-15.9 I0. K0.6
N8365 G0 Z5.
N8370 X37.73 Y711.118
N8375 G1 Z-14. F150.33
N8380 Z-14.9
N8385 G2 X38.33 Z-15.5 I0.6 K0.
N8390 G1 X38.93 F300.
N8395 G17 G2 X39.53 Y710.518 I0. J-0.6
N8400 G1 Y709.61 Z-15.532 F150.
N8405 G3 X44.03 Y705.11 Z-15.779 I4.5 J0.
N8410 G1 X53.03 Z-16.093
N8415 G3 X57.53 Y709.61 Z-16.34 I0. J4.5
N8420 G1 Y719.86 Z-16.698
N8425 X65.13 Z-16.963
N8430 G3 X72.63 Y727.36 Z-17.374 I0. J7.5
N8435 G1 Y745.274 Z-18.
N8440 Y766.86 F650.
N8445 G3 X65.13 Y774.36 I-7.5 J0.
N8450 G1 X57.53
N8455 Y784.61
N8460 G3 X53.03 Y789.11 I-4.5 J0.
N8465 G1 X44.03
N8470 G3 X39.53 Y784.61 I0. J-4.5
N8475 G1 Y762.21
N8480 G3 X44.03 Y757.71 I4.5 J0.
N8485 G1 X53.63
N8490 Y736.51
N8495 X44.03
N8500 G3 X39.53 Y732.01 I0. J-4.5
N8505 G1 Y709.61
N8510 G3 X44.03 Y705.11 I4.5 J0.
N8515 G1 X53.03
N8520 G3 X57.53 Y709.61 I0. J4.5
N8525 G1 Y719.86
N8530 X65.13
N8535 G3 X72.63 Y727.36 I0. J7.5
N8540 G1 Y745.274
N8545 G3 X71.88 Y746.399 I-1.219 J0.
N8550 G2 X71.13 Y747.524 I0.469 J1.125
N8555 G1 Y766.86
N8560 G3 X65.13 Y772.86 I-6. J0.
N8565 G1 X56.03
N8570 Y784.61
N8575 G3 X53.03 Y787.61 I-3. J0.
N8580 G1 X44.03
N8585 G3 X41.03 Y784.61 I0. J-3.
N8590 G1 Y762.21
N8595 G3 X44.03 Y759.21 I3. J0.
N8600 G1 X55.13
N8605 Y735.01
N8610 X44.03
N8615 G3 X41.03 Y732.01 I0. J-3.
N8620 G1 Y709.61
N8625 G3 X44.03 Y706.61 I3. J0.
N8630 G1 X53.03
N8635 G3 X56.03 Y709.61 I0. J3.
N8640 G1 Y721.36
N8645 X65.13
N8650 G3 X71.13 Y727.36 I0. J6.
N8655 G1 Y747.524
N8660 G2 X71.73 Y748.124 I0.6 J0. F300.
N8665 G1 X72.33
N8670 G18 G2 X72.93 Z-17.4 I0. K0.6
N8675 G0 Z5.
N8680 X37.73 Y711.118
N8685 G1 Z-15.5 F150.33
N8690 Z-16.4
N8695 G2 X38.33 Z-17. I0.6 K0.
N8700 G1 X38.93 F300.
N8705 G17 G2 X39.53 Y710.518 I0. J-0.6
N8710 G1 Y709.61 Z-17.032 F150.
N8715 G3 X44.03 Y705.11 Z-17.279 I4.5 J0.
N8720 G1 X53.03 Z-17.593
N8725 G3 X57.53 Y709.61 Z-17.84 I0. J4.5
N8730 G1 Y719.86 Z-18.198
N8735 X65.13 Z-18.463
N8740 G3 X72.63 Y727.36 Z-18.874 I0. J7.5
N8745 G1 Y745.274 Z-19.5
N8750 Y766.86 F650.
N8755 G3 X65.13 Y774.36 I-7.5 J0.
N8760 G1 X57.53
N8765 Y784.61
N8770 G3 X53.03 Y789.11 I-4.5 J0.
N8775 G1 X44.03
N8780 G3 X39.53 Y784.61 I0. J-4.5
N8785 G1 Y762.21
N8790 G3 X44.03 Y757.71 I4.5 J0.
N8795 G1 X53.63
N8800 Y736.51
N8805 X44.03
N8810 G3 X39.53 Y732.01 I0. J-4.5
N8815 G1 Y709.61
N8820 G3 X44.03 Y705.11 I4.5 J0.
N8825 G1 X53.03
N8830 G3 X57.53 Y709.61 I0. J4.5
N8835 G1 Y719.86
N8840 X65.13
N8845 G3 X72.63 Y727.36 I0. J7.5
N8850 G1 Y745.274
N8855 G3 X71.88 Y746.399 I-1.219 J0.
N8860 G2 X71.13 Y747.524 I0.469 J1.125
N8865 G1 Y766.86
N8870 G3 X65.13 Y772.86 I-6. J0.
N8875 G1 X56.03
N8880 Y784.61
N8885 G3 X53.03 Y787.61 I-3. J0.
N8890 G1 X44.03
N8895 G3 X41.03 Y784.61 I0. J-3.
N8900 G1 Y762.21
N8905 G3 X44.03 Y759.21 I3. J0.
N8910 G1 X55.13
N8915 Y735.01
N8920 X44.03
N8925 G3 X41.03 Y732.01 I0. J-3.
N8930 G1 Y709.61
N8935 G3 X44.03 Y706.61 I3. J0.
N8940 G1 X53.03
N8945 G3 X56.03 Y709.61 I0. J3.
N8950 G1 Y721.36
N8955 X65.13
N8960 G3 X71.13 Y727.36 I0. J6.
N8965 G1 Y747.524
N8970 G2 X71.73 Y748.124 I0.6 J0. F300.
N8975 G1 X72.33
N8980 G18 G2 X72.93 Z-18.9 I0. K0.6
N8985 G0 Z5.
N8990 X37.73 Y711.118
N8995 G1 Z-17. F150.33
N9000 Z-17.9
N9005 G2 X38.33 Z-18.5 I0.6 K0.
N9010 G1 X38.93 F300.
N9015 G17 G2 X39.53 Y710.518 I0. J-0.6
N9020 G1 Y709.61 Z-18.532 F150.
N9025 G3 X44.03 Y705.11 Z-18.779 I4.5 J0.
N9030 G1 X53.03 Z-19.093
N9035 G3 X57.53 Y709.61 Z-19.34 I0. J4.5
N9040 G1 Y719.86 Z-19.698
N9045 X65.13 Z-19.963
N9050 G3 X72.63 Y727.36 Z-20.374 I0. J7.5
N9055 G1 Y745.274 Z-21.
N9060 Y766.86 F650.
N9065 G3 X65.13 Y774.36 I-7.5 J0.
N9070 G1 X57.53
N9075 Y784.61
N9080 G3 X54.679 Y788.797 I-4.5 J0.
N9085 G1 Z-20.5
N9090 G3 X53.03 Y789.11 I-1.649 J-4.187
N9095 G1 X44.03
N9100 G3 X42.679 Y788.902 I0. J-4.5
N9105 G1 Z-21. F150.33
N9110 G3 X39.53 Y784.61 I1.351 J-4.292 F650.
N9115 G1 Y762.21
N9120 G3 X44.03 Y757.71 I4.5 J0.
N9125 G1 X53.63
N9130 Y752.995
N9135 Z-20.5
N9140 Y740.995
N9145 Z-21. F150.33
N9150 Y736.51 F650.
N9155 X44.03
N9160 G3 X39.53 Y732.01 I0. J-4.5
N9165 G1 Y709.61
N9170 G3 X42.801 Y705.281 I4.5 J0.
N9175 G1 Z-20.5
N9180 G3 X44.03 Y705.11 I1.229 J4.329
N9185 G1 X53.03
N9190 G3 X54.801 Y705.473 I0. J4.5
N9195 G1 Z-21. F150.33
N9200 G3 X57.53 Y709.61 I-1.771 J4.137 F650.
N9205 G1 Y719.86
N9210 X65.13
N9215 G3 X72.63 Y727.36 I0. J7.5
N9220 G1 Y745.274
N9225 G3 X71.88 Y746.399 I-1.219 J0.
N9230 G2 X71.13 Y747.524 I0.469 J1.125
N9235 G1 Y766.86
N9240 G3 X65.13 Y772.86 I-6. J0.
N9245 G1 X56.03
N9250 Y784.61
N9255 G3 X54.679 Y787.116 I-3. J0.
N9260 G1 Z-20.5
N9265 G3 X53.03 Y787.61 I-1.649 J-2.506
N9270 G1 X44.03
N9275 G3 X42.679 Y787.288 I0. J-3.
N9280 G1 Z-21. F150.33
N9285 G3 X41.03 Y784.61 I1.351 J-2.678 F650.
N9290 G1 Y762.21
N9295 G3 X44.03 Y759.21 I3. J0.
N9300 G1 X55.13
N9305 Y752.995
N9310 Z-20.5
N9315 Y740.995
N9320 Z-21. F150.33
N9325 Y735.01 F650.
N9330 X44.03
N9335 G3 X41.03 Y732.01 I0. J-3.
N9340 G1 Y709.61
N9345 G3 X42.801 Y706.873 I3. J0.
N9350 G1 Z-20.5
N9355 G3 X44.03 Y706.61 I1.229 J2.737
N9360 G1 X53.03
N9365 G3 X54.801 Y707.188 I0. J3.
N9370 G1 Z-21. F150.33
N9375 G3 X56.03 Y709.61 I-1.771 J2.422 F650.
N9380 G1 Y721.36
N9385 X65.13
N9390 G3 X71.13 Y727.36 I0. J6.
N9395 G1 Y747.524
N9400 G2 X71.73 Y748.124 I0.6 J0. F300.
N9405 G1 X72.33
N9410 G18 G2 X72.93 Z-20.4 I0. K0.6
N9415 G0 Z5.
N9420 X37.73 Y711.118
N9425 G1 Z-18.5 F150.33
N9430 Z-19.4
N9435 G2 X38.33 Z-20. I0.6 K0.
N9440 G1 X38.93 F300.
N9445 G17 G2 X39.53 Y710.518 I0. J-0.6
N9450 G1 Y709.61 Z-20.032 F150.
N9455 G3 X44.03 Y705.11 Z-20.279 I4.5 J0.
N9460 G1 X50.371 Z-20.5
N9465 X53.03
N9470 G3 X54.801 Y705.473 I0. J4.5
N9475 G1 Z-20.656 F150.33
N9480 G3 X57.53 Y709.61 Z-20.84 I-1.771 J4.137 F150.
N9485 G1 Y719.86 Z-21.198
N9490 X65.13 Z-21.463
N9495 G3 X72.63 Y727.36 Z-21.874 I0. J7.5
N9500 G1 Y745.274 Z-22.5
N9505 Y766.86 F650.
N9510 G3 X65.13 Y774.36 I-7.5 J0.
N9515 G1 X57.53
N9520 Y784.61
N9525 G3 X54.679 Y788.797 I-4.5 J0.
N9530 G1 Z-20.5
N9535 G3 X53.03 Y789.11 I-1.649 J-4.187
N9540 G1 X44.03
N9545 G3 X42.679 Y788.902 I0. J-4.5
N9550 G1 Z-22.5 F150.33
N9555 G3 X39.53 Y784.61 I1.351 J-4.292 F650.
N9560 G1 Y762.21
N9565 G3 X44.03 Y757.71 I4.5 J0.
N9570 G1 X53.63
N9575 Y752.995
N9580 Z-20.5
N9585 Y740.995
N9590 Z-22.5 F150.33
N9595 Y736.51 F650.
N9600 X44.03
N9605 G3 X39.53 Y732.01 I0. J-4.5
N9610 G1 Y709.61
N9615 G3 X42.801 Y705.281 I4.5 J0.
N9620 G1 Z-20.5
N9625 G3 X44.03 Y705.11 I1.229 J4.329
N9630 G1 X53.03
N9635 G3 X54.801 Y705.473 I0. J4.5
N9640 G1 Z-22.5 F150.33
N9645 G3 X57.53 Y709.61 I-1.771 J4.137 F650.
N9650 G1 Y719.86
N9655 X65.13
N9660 G3 X72.63 Y727.36 I0. J7.5
N9665 G1 Y745.274
N9670 G3 X71.88 Y746.399 I-1.219 J0.
N9675 G2 X71.13 Y747.524 I0.469 J1.125
N9680 G1 Y766.86
N9685 G3 X65.13 Y772.86 I-6. J0.
N9690 G1 X56.03
N9695 Y784.61
N9700 G3 X54.679 Y787.116 I-3. J0.
N9705 G1 Z-20.5
N9710 G3 X53.03 Y787.61 I-1.649 J-2.506
N9715 G1 X44.03
N9720 G3 X42.679 Y787.288 I0. J-3.
N9725 G1 Z-22.5 F150.33
N9730 G3 X41.03 Y784.61 I1.351 J-2.678 F650.
N9735 G1 Y762.21
N9740 G3 X44.03 Y759.21 I3. J0.
N9745 G1 X55.13
N9750 Y752.995
N9755 Z-20.5
N9760 Y740.995
N9765 Z-22.5 F150.33
N9770 Y735.01 F650.
N9775 X44.03
N9780 G3 X41.03 Y732.01 I0. J-3.
N9785 G1 Y709.61
N9790 G3 X42.801 Y706.873 I3. J0.
N9795 G1 Z-20.5
N9800 G3 X44.03 Y706.61 I1.229 J2.737
N9805 G1 X53.03
N9810 G3 X54.801 Y707.188 I0. J3.
N9815 G1 Z-22.5 F150.33
N9820 G3 X56.03 Y709.61 I-1.771 J2.422 F650.
N9825 G1 Y721.36
N9830 X65.13
N9835 G3 X71.13 Y727.36 I0. J6.
N9840 G1 Y747.524
N9845 G2 X71.73 Y748.124 I0.6 J0. F300.
N9850 G1 X72.33
N9855 G18 G2 X72.93 Z-21.9 I0. K0.6
N9860 G0 Z15.
N9865 G17
N9870 G53 G0 Z0.
N9875 M30
%
