%
(55MM)
(5.5MM DRILL)
(T4  D=5.5 CR=0. TAPER=118DEG - ZMIN=-8.152 - DRILL)
N10 G90 G94 G17 G91.1
N15 G21
N20 G53 G0 Z0.
(DRILL2)
N25 M9
N30 T4 M6
N35 S6000 M3
N40 G54
N45 G0 X386.5 Y34.
N50 G43 Z15. H4
N55 G0 Z5.
N60 G98 G81 X386.5 Y34. Z-8.152 R5. F75.
N65 X366.5
N70 Y14.
N75 X386.5
N80 X303.5
N85 X283.5
N90 Y34.
N95 X303.5
N100 X220.5
N105 X200.5
N110 Y14.
N115 X220.5
N120 X137.5
N125 X117.5
N130 Y34.
N135 X137.5
N140 G80
N145 G0 Z15.
N150 G53 Z0.
N155 M30
%
