%
(ADAPTIVE_CLEARING)
(T1  D=6. CR=0. - ZMIN=-24.998 - FLAT END MILL)
N10 G90 G94 G17 G91.1
N15 G21
N20 G53 G0 Z0.
(ADAPTIVE2)
N25 M9
N30 T1 M6
N35 S22000 M3
N40 G54
N45 G0 X14.578 Y63.395
N50 G43 Z15. H1
N55 G0 Z5.
N60 Z0.6
N65 G1 Z0. F300.
N70 Z-2.
N75 G3 X14.93 Y65.845 I-11.129 J2.851
N80 G1 Y65.978 F1000.
N85 X14.549 Y66.856
N90 X14.281 Y67.776
N95 X14.097 Y68.716
N100 X13.972 Y69.665
N105 X13.89 Y70.619
N110 X13.835 Y71.575
N115 X13.799 Y72.532
N120 X13.775 Y73.49
N125 X13.76 Y74.447
N130 X13.749 Y75.405
N135 X13.743 Y76.363
N140 X13.739 Y77.32
N145 X13.736 Y78.278
N150 Y78.518
N155 X13.8 Y78.992
N160 X13.984 Y79.434
N165 X14.512 Y80.233
N170 X15.248 Y80.846
N175 X16.095 Y81.293
N180 X16.999 Y81.609
N185 X17.931 Y81.828
N190 X18.877 Y81.976
N195 X19.83 Y82.076
N200 X20.785 Y82.142
N205 X21.742 Y82.186
N210 X22.699 Y82.215
N215 X23.657 Y82.234
N220 X24.614 Y82.246
N225 X25.093 Y82.262
N230 X25.515 Y82.291
N235 X25.821 Y82.332
N240 X26.055 Y82.379
N245 X26.258 Y82.433
N250 X26.431 Y82.492
N255 X26.575 Y82.551
N260 X26.71 Y82.617
N265 X26.84 Y82.691
N270 X26.964 Y82.775
N275 X27.081 Y82.869
N280 X27.19 Y82.972
N285 X27.291 Y83.083
N290 X27.388 Y83.207
N295 X27.496 Y83.365
N300 X27.613 Y83.564
N305 X27.74 Y83.814
N310 X27.876 Y84.13
N315 X28.02 Y84.536
N320 X28.172 Y85.069
N325 X28.332 Y85.804
N330 X28.474 Y86.751
N335 X28.564 Y87.704
N340 X28.622 Y88.66
N345 X28.659 Y89.617
N350 X28.683 Y90.575
N355 X28.699 Y91.532
N360 X28.709 Y92.49
N365 X28.716 Y93.447
N370 X28.72 Y94.405
N375 X28.725 Y96.32
N380 X28.727 Y99.194
N385 X28.728 Y104.94
N390 X28.73 Y137.501
N395 X28.74 Y138.459
N400 X28.762 Y139.416
N405 X28.795 Y140.374
N410 X28.834 Y141.331
N415 X28.898 Y142.286
N420 X28.991 Y143.239
N425 X29.104 Y144.19
N430 X29.229 Y145.14
N435 X29.386 Y146.085
N440 X29.573 Y147.024
N445 X29.781 Y147.959
N450 X30.003 Y148.89
N455 X30.258 Y149.813
N460 X30.543 Y150.728
N465 X30.848 Y151.636
N470 X31.166 Y152.539
N475 X31.517 Y153.43
N480 X31.897 Y154.309
N485 X32.296 Y155.18
N490 X32.707 Y156.045
N495 X33.151 Y156.893
N500 X33.621 Y157.727
N505 X34.11 Y158.551
N510 X34.61 Y159.368
N515 X35.141 Y160.165
N520 X35.697 Y160.944
N525 X36.27 Y161.712
N530 X36.853 Y162.472
N535 X37.467 Y163.207
N540 X38.102 Y163.923
N545 X38.753 Y164.627
N550 X39.412 Y165.321
N555 X40.101 Y165.986
N560 X40.809 Y166.631
N565 X41.53 Y167.262
N570 X42.259 Y167.883
N575 X43.014 Y168.472
N580 X43.786 Y169.038
N585 X44.569 Y169.59
N590 X45.361 Y170.129
N595 X46.174 Y170.635
N600 X47.001 Y171.117
N605 X47.838 Y171.583
N610 X48.682 Y172.035
N615 X49.545 Y172.451
N620 X50.419 Y172.843
N625 X51.3 Y173.219
N630 X52.187 Y173.578
N635 X53.089 Y173.902
N640 X53.999 Y174.199
N645 X54.915 Y174.48
N650 X55.836 Y174.743
N655 X56.766 Y174.968
N660 X57.703 Y175.168
N665 X58.643 Y175.351
N670 X59.587 Y175.514
N675 X60.536 Y175.64
N680 X61.489 Y175.74
N685 X62.443 Y175.824
N690 X63.398 Y175.886
N695 X64.356 Y175.911
N700 X65.313
N705 X66.271 Y175.893
N710 X67.228 Y175.853
N715 X68.182 Y175.776
N720 X69.135 Y175.674
N725 X70.085 Y175.556
N730 X71.032 Y175.414
N735 X71.973 Y175.237
N740 X72.909 Y175.035
N745 X73.842 Y174.818
N750 X74.769 Y174.577
N755 X75.686 Y174.301
N760 X76.596 Y174.002
N765 X77.501 Y173.688
N770 X78.396 Y173.348
N775 X79.279 Y172.977
N780 X80.152 Y172.583
N785 X81.018 Y172.175
N790 X81.873 Y171.743
N795 X82.711 Y171.28
N800 X83.538 Y170.797
N805 X84.357 Y170.301
N810 X85.161 Y169.78
N815 X85.946 Y169.231
N820 X86.717 Y168.664
N825 X87.48 Y168.084
N830 X88.223 Y167.48
N835 X88.945 Y166.851
N840 X89.652 Y166.205
N845 X90.349 Y165.548
N850 X91.025 Y164.869
N855 X91.676 Y164.168
N860 X92.312 Y163.451
N865 X92.936 Y162.725
N870 X93.535 Y161.977
N875 X94.108 Y161.21
N880 X94.664 Y160.431
N885 X95.209 Y159.643
N890 X95.725 Y158.836
N895 X96.214 Y158.012
N900 X96.684 Y157.178
N905 X97.142 Y156.337
N910 X97.57 Y155.48
N915 X97.969 Y154.61
N920 X98.349 Y153.731
N925 X98.717 Y152.847
N930 X99.051 Y151.949
N935 X99.355 Y151.041
N940 X99.641 Y150.127
N945 X99.913 Y149.209
N950 X100.15 Y148.28
N955 X100.357 Y147.345
N960 X100.545 Y146.406
N965 X100.719 Y145.465
N970 X100.855 Y144.517
N975 X100.962 Y143.565
N980 X101.05 Y142.611
N985 X101.121 Y141.656
N990 X101.172 Y140.7
N995 X101.206 Y139.743
N1000 X101.228 Y138.785
N1005 X101.243 Y137.828
N1010 X101.252 Y136.87
N1015 X101.258 Y135.912
N1020 X101.262 Y134.955
N1025 X101.267 Y133.039
N1030 X101.269 Y130.166
N1035 X101.27 Y115.801
N1040 Y85.155
N1045 Y77.493
N1050 X101.263 Y76.535
N1055 X101.244 Y75.578
N1060 X101.214 Y74.621
N1065 X101.177 Y73.664
N1070 X101.122 Y72.707
N1075 X101.035 Y71.754
N1080 X100.928 Y70.802
N1085 X100.806 Y69.852
N1090 X100.658 Y68.906
N1095 X100.477 Y67.965
N1100 X100.274 Y67.03
N1105 X100.057 Y66.097
N1110 X99.81 Y65.171
N1115 X99.532 Y64.255
N1120 X99.233 Y63.345
N1125 X98.919 Y62.44
N1130 X98.575 Y61.547
N1135 X98.202 Y60.665
N1140 X97.809 Y59.791
N1145 X97.403 Y58.924
N1150 X96.965 Y58.072
N1155 X96.5 Y57.235
N1160 X96.018 Y56.408
N1165 X95.523 Y55.587
N1170 X94.997 Y54.787
N1175 X94.446 Y54.004
N1180 X93.879 Y53.232
N1185 X93.301 Y52.469
N1190 X92.692 Y51.73
N1195 X92.061 Y51.009
N1200 X91.416 Y50.301
N1205 X90.761 Y49.603
N1210 X90.076 Y48.933
N1215 X89.373 Y48.283
N1220 X88.657 Y47.647
N1225 X87.93 Y47.023
N1230 X87.179 Y46.429
N1235 X86.411 Y45.856
N1240 X85.633 Y45.298
N1245 X84.844 Y44.756
N1250 X84.034 Y44.245
N1255 X83.21 Y43.756
N1260 X82.378 Y43.283
N1265 X81.535 Y42.828
N1270 X80.675 Y42.406
N1275 X79.805 Y42.006
N1280 X78.927 Y41.622
N1285 X78.041 Y41.261
N1290 X77.141 Y40.932
N1295 X76.233 Y40.627
N1300 X75.321 Y40.337
N1305 X74.4 Y40.072
N1310 X73.471 Y39.841
N1315 X72.536 Y39.632
N1320 X71.598 Y39.439
N1325 X70.655 Y39.274
N1330 X69.706 Y39.143
N1335 X68.755 Y39.034
N1340 X67.802 Y38.94
N1345 X66.846 Y38.877
N1350 X65.889 Y38.846
N1355 X64.931 Y38.838
N1360 X63.973 Y38.844
N1365 X63.017 Y38.884
N1370 X62.062 Y38.955
N1375 X61.108 Y39.048
N1380 X60.157 Y39.154
N1385 X59.209 Y39.296
N1390 X58.267 Y39.468
N1395 X57.329 Y39.66
N1400 X56.394 Y39.866
N1405 X55.467 Y40.108
N1410 X54.548 Y40.379
N1415 X53.636 Y40.668
N1420 X52.727 Y40.97
N1425 X51.832 Y41.311
N1430 X50.947 Y41.677
N1435 X50.07 Y42.061
N1440 X49.198 Y42.459
N1445 X48.344 Y42.892
N1450 X47.503 Y43.35
N1455 X46.671 Y43.824
N1460 X45.847 Y44.312
N1465 X45.044 Y44.834
N1470 X44.256 Y45.378
N1475 X43.478 Y45.936
N1480 X42.711 Y46.51
N1485 X41.968 Y47.115
N1490 X41.241 Y47.738
N1495 X40.526 Y48.375
N1500 X39.825 Y49.028
N1505 X39.15 Y49.707
N1510 X38.492 Y50.403
N1515 X37.847 Y51.111
N1520 X37.22 Y51.835
N1525 X36.621 Y52.582
N1530 X36.04 Y53.344
N1535 X35.473 Y54.115
N1540 X34.927 Y54.902
N1545 X34.41 Y55.708
N1550 X33.913 Y56.527
N1555 X33.429 Y57.353
N1560 X32.971 Y58.194
N1565 X32.542 Y59.051
N1570 X32.134 Y59.917
N1575 X31.739 Y60.789
N1580 X31.373 Y61.675
N1585 X31.038 Y62.572
N1590 X30.723 Y63.476
N1595 X30.422 Y64.385
N1600 X30.259 Y64.835
N1605 X30.108 Y65.198
N1610 X29.987 Y65.443
N1615 X29.874 Y65.639
N1620 X29.759 Y65.812
N1625 X29.659 Y65.943
N1630 X29.556 Y66.061
N1635 X29.437 Y66.183
N1640 X29.316 Y66.29
N1645 X29.191 Y66.387
N1650 X29.035 Y66.494
N1655 X28.838 Y66.611
N1660 X28.59 Y66.738
N1665 X28.276 Y66.874
N1670 X27.874 Y67.018
N1675 X27.345 Y67.17
N1680 X26.619 Y67.329
N1685 X25.672 Y67.473
N1690 X24.719 Y67.565
N1695 X23.763 Y67.623
N1700 X22.806 Y67.661
N1705 X21.849 Y67.685
N1710 X20.891 Y67.701
N1715 X19.933 Y67.712
N1720 X19.455 Y67.715
N1725 X18.987 Y67.817
N1730 X18.11 Y68.202
N1735 X17.4 Y68.845
N1740 X16.857 Y69.634
N1745 X16.456 Y70.504
N1750 X16.169 Y71.417
N1755 X15.967 Y72.353
N1760 X15.827 Y73.301
N1765 X15.73 Y74.254
N1770 X15.665 Y75.209
N1775 X15.621 Y76.166
N1780 X15.836 Y77.099
N1785 X16.332 Y77.918
N1790 X17.017 Y78.587
N1795 X17.821 Y79.108
N1800 X18.695 Y79.5
N1805 X19.609 Y79.787
N1810 X20.544 Y79.994
N1815 X21.49 Y80.141
N1820 X22.442 Y80.243
N1825 X23.397 Y80.32
N1830 X24.351 Y80.403
N1835 X25.001 Y80.494
N1840 X25.494 Y80.597
N1845 X25.893 Y80.706
N1850 X26.24 Y80.826
N1855 X26.547 Y80.955
N1860 X26.824 Y81.092
N1865 X27.083 Y81.242
N1870 X27.331 Y81.408
N1875 X27.572 Y81.591
N1880 X27.804 Y81.793
N1885 X28.035 Y82.022
N1890 X28.269 Y82.286
N1895 X28.496 Y82.577
N1900 X28.721 Y82.907
N1905 X28.958 Y83.307
N1910 X29.174 Y83.733
N1915 X29.408 Y84.276
N1920 X29.62 Y84.874
N1925 X29.835 Y85.624
N1930 X30.038 Y86.56
N1935 X30.183 Y87.506
N1940 X30.287 Y88.458
N1945 X30.359 Y89.413
N1950 X30.411 Y90.37
N1955 X30.447 Y91.327
N1960 X30.472 Y92.284
N1965 X30.489 Y93.242
N1970 X30.502 Y94.199
N1975 X30.51 Y95.157
N1980 X30.516 Y96.114
N1985 X30.52 Y97.072
N1990 X30.524 Y98.988
N1995 X30.527 Y101.861
N2000 X30.529 Y111.438
N2005 X30.53 Y133.465
N2010 Y135.38
N2015 X30.532 Y136.338
N2020 X30.54 Y137.295
N2025 X30.556 Y138.253
N2030 X30.579 Y139.21
N2035 X30.614 Y140.167
N2040 X30.668 Y141.124
N2045 X30.742 Y142.078
N2050 X30.833 Y143.032
N2055 X30.947 Y143.983
N2060 X31.087 Y144.93
N2065 X31.251 Y145.874
N2070 X31.437 Y146.813
N2075 X31.65 Y147.747
N2080 X31.889 Y148.674
N2085 X32.153 Y149.595
N2090 X32.44 Y150.508
N2095 X32.754 Y151.413
N2100 X33.094 Y152.308
N2105 X33.457 Y153.195
N2110 X33.844 Y154.071
N2115 X34.256 Y154.935
N2120 X34.693 Y155.787
N2125 X35.151 Y156.628
N2130 X35.633 Y157.456
N2135 X36.14 Y158.269
N2140 X36.669 Y159.067
N2145 X37.217 Y159.852
N2150 X37.789 Y160.62
N2155 X38.384 Y161.371
N2160 X38.999 Y162.105
N2165 X39.632 Y162.824
N2170 X40.286 Y163.523
N2175 X40.961 Y164.203
N2180 X41.653 Y164.865
N2185 X42.363 Y165.508
N2190 X43.091 Y166.129
N2195 X43.838 Y166.73
N2200 X44.598 Y167.311
N2205 X45.375 Y167.871
N2210 X46.169 Y168.407
N2215 X46.977 Y168.921
N2220 X47.798 Y169.415
N2225 X48.632 Y169.885
N2230 X49.481 Y170.329
N2235 X50.341 Y170.75
N2240 X51.212 Y171.149
N2245 X52.094 Y171.521
N2250 X52.987 Y171.867
N2255 X53.889 Y172.19
N2260 X54.798 Y172.489
N2265 X55.717 Y172.76
N2270 X56.643 Y173.005
N2275 X57.575 Y173.226
N2280 X58.512 Y173.421
N2285 X59.455 Y173.587
N2290 X60.403 Y173.728
N2295 X61.353 Y173.845
N2300 X62.307 Y173.934
N2305 X63.263 Y173.995
N2310 X64.22 Y174.03
N2315 X65.177 Y174.04
N2320 X66.135 Y174.022
N2325 X67.091 Y173.976
N2330 X68.046 Y173.904
N2335 X68.999 Y173.807
N2340 X69.949 Y173.681
N2345 X70.894 Y173.528
N2350 X71.835 Y173.351
N2355 X72.771 Y173.148
N2360 X73.7 Y172.916
N2365 X74.623 Y172.66
N2370 X75.539 Y172.379
N2375 X76.446 Y172.072
N2380 X77.344 Y171.739
N2385 X78.232 Y171.381
N2390 X79.111 Y171.001
N2395 X79.978 Y170.594
N2400 X80.833 Y170.163
N2405 X81.677 Y169.71
N2410 X82.508 Y169.234
N2415 X83.324 Y168.733
N2420 X84.126 Y168.209
N2425 X84.914 Y167.665
N2430 X85.686 Y167.098
N2435 X86.441 Y166.509
N2440 X87.179 Y165.899
N2445 X87.901 Y165.27
N2450 X88.605 Y164.621
N2455 X89.29 Y163.951
N2460 X89.956 Y163.263
N2465 X90.604 Y162.558
N2470 X91.231 Y161.834
N2475 X91.836 Y161.092
N2480 X92.423 Y160.334
N2485 X92.988 Y159.561
N2490 X93.53 Y158.772
N2495 X94.049 Y157.967
N2500 X94.548 Y157.149
N2505 X95.023 Y156.318
N2510 X95.473 Y155.473
N2515 X95.899 Y154.615
N2520 X96.304 Y153.747
N2525 X96.683 Y152.867
N2530 X97.035 Y151.977
N2535 X97.364 Y151.077
N2540 X97.669 Y150.169
N2545 X97.947 Y149.253
N2550 X98.198 Y148.329
N2555 X98.425 Y147.398
N2560 X98.627 Y146.462
N2565 X98.801 Y145.521
N2570 X98.948 Y144.574
N2575 X99.07 Y143.624
N2580 X99.171 Y142.672
N2585 X99.249 Y141.717
N2590 X99.31 Y140.762
N2595 X99.355 Y139.805
N2600 X99.388 Y138.848
N2605 X99.412 Y137.89
N2610 X99.429 Y136.933
N2615 X99.441 Y135.975
N2620 X99.45 Y135.018
N2625 X99.456 Y134.06
N2630 X99.461 Y133.102
N2635 X99.466 Y131.187
N2640 X99.469 Y128.314
N2645 X99.47 Y120.652
N2650 Y101.498
N2655 Y79.471
N2660 X99.468 Y78.514
N2665 X99.461 Y77.556
N2670 X99.446 Y76.598
N2675 X99.424 Y75.641
N2680 X99.391 Y74.684
N2685 X99.339 Y73.727
N2690 X99.268 Y72.772
N2695 X99.178 Y71.819
N2700 X99.066 Y70.868
N2705 X98.929 Y69.92
N2710 X98.768 Y68.976
N2715 X98.584 Y68.036
N2720 X98.374 Y67.102
N2725 X98.137 Y66.174
N2730 X97.877 Y65.252
N2735 X97.592 Y64.338
N2740 X97.281 Y63.432
N2745 X96.944 Y62.536
N2750 X96.584 Y61.648
N2755 X96.2 Y60.771
N2760 X95.79 Y59.905
N2765 X95.355 Y59.052
N2770 X94.901 Y58.209
N2775 X94.421 Y57.38
N2780 X93.916 Y56.566
N2785 X93.389 Y55.767
N2790 X92.843 Y54.98
N2795 X92.272 Y54.211
N2800 X91.68 Y53.458
N2805 X91.068 Y52.722
N2810 X90.437 Y52.001
N2815 X89.784 Y51.301
N2820 X89.111 Y50.619
N2825 X88.421 Y49.955
N2830 X87.714 Y49.309
N2835 X86.987 Y48.686
N2840 X86.243 Y48.083
N2845 X85.484 Y47.499
N2850 X84.708 Y46.937
N2855 X83.916 Y46.399
N2860 X83.11 Y45.882
N2865 X82.291 Y45.385
N2870 X81.457 Y44.914
N2875 X80.61 Y44.468
N2880 X79.751 Y44.044
N2885 X78.881 Y43.643
N2890 X77.999 Y43.269
N2895 X77.108 Y42.92
N2900 X76.207 Y42.594
N2905 X75.298 Y42.293
N2910 X74.38 Y42.019
N2915 X73.455 Y41.771
N2920 X72.524 Y41.546
N2925 X71.587 Y41.349
N2930 X70.645 Y41.18
N2935 X69.698 Y41.034
N2940 X68.748 Y40.915
N2945 X67.794 Y40.824
N2950 X66.839 Y40.76
N2955 X65.882 Y40.72
N2960 X64.924 Y40.708
N2965 X63.967 Y40.725
N2970 X63.01 Y40.768
N2975 X62.055 Y40.835
N2980 X61.102 Y40.931
N2985 X60.152 Y41.055
N2990 X59.206 Y41.204
N2995 X58.264 Y41.377
N3000 X57.328 Y41.579
N3005 X56.398 Y41.807
N3010 X55.474 Y42.059
N3015 X54.557 Y42.336
N3020 X53.65 Y42.642
N3025 X52.751 Y42.972
N3030 X51.86 Y43.325
N3035 X50.981 Y43.703
N3040 X50.113 Y44.108
N3045 X49.256 Y44.536
N3050 X48.41 Y44.986
N3055 X47.579 Y45.461
N3060 X46.762 Y45.961
N3065 X45.958 Y46.482
N3070 X45.169 Y47.024
N3075 X44.396 Y47.59
N3080 X43.64 Y48.177
N3085 X42.899 Y48.784
N3090 X42.175 Y49.411
N3095 X41.47 Y50.059
N3100 X40.783 Y50.727
N3105 X40.114 Y51.412
N3110 X39.465 Y52.116
N3115 X38.836 Y52.838
N3120 X38.227 Y53.578
N3125 X37.638 Y54.332
N3130 X37.071 Y55.105
N3135 X36.528 Y55.893
N3140 X36.004 Y56.695
N3145 X35.503 Y57.511
N3150 X35.027 Y58.342
N3155 X34.575 Y59.186
N3160 X34.144 Y60.042
N3165 X33.738 Y60.909
N3170 X33.358 Y61.788
N3175 X33.002 Y62.677
N3180 X32.661 Y63.572
N3185 X32.312 Y64.464
N3190 X32.038 Y65.066
N3195 X31.799 Y65.511
N3200 X31.566 Y65.886
N3205 X31.338 Y66.206
N3210 X31.099 Y66.499
N3215 X30.843 Y66.775
N3220 X30.563 Y67.04
N3225 X30.252 Y67.299
N3230 X29.916 Y67.545
N3235 X29.539 Y67.785
N3240 X29.085 Y68.035
N3245 X28.601 Y68.261
N3250 X28.004 Y68.496
N3255 X27.299 Y68.723
N3260 X26.445 Y68.938
N3265 X25.504 Y69.112
N3270 X24.554 Y69.236
N3275 X23.6 Y69.324
N3280 X22.645 Y69.387
N3285 X21.688 Y69.431
N3290 X20.767 Y69.694
N3295 X19.956 Y70.203
N3300 X19.289 Y70.89
N3305 X18.764 Y71.691
N3310 X18.365 Y72.562
N3315 X18.068 Y73.472
N3320 X18.026 Y73.949
N3325 X18.12 Y74.902
N3330 X18.526 Y75.769
N3335 X19.153 Y76.494
N3340 X19.918 Y77.069
N3345 X20.768 Y77.511
N3350 X21.666 Y77.843
N3355 X22.59 Y78.098
N3360 X23.523 Y78.312
N3365 X24.457 Y78.525
N3370 X25.33 Y78.756
N3375 X25.978 Y78.973
N3380 X26.529 Y79.197
N3385 X27.01 Y79.43
N3390 X27.455 Y79.682
N3395 X27.873 Y79.955
N3400 X28.266 Y80.25
N3405 X28.64 Y80.569
N3410 X29.002 Y80.921
N3415 X29.35 Y81.305
N3420 X29.693 Y81.736
N3425 X30.024 Y82.213
N3430 X30.33 Y82.72
N3435 X30.634 Y83.303
N3440 X30.939 Y83.994
N3445 X31.218 Y84.756
N3450 X31.481 Y85.646
N3455 X31.694 Y86.58
N3460 X31.856 Y87.524
N3465 X31.98 Y88.473
N3470 X32.072 Y89.427
N3475 X32.141 Y90.382
N3480 X32.193 Y91.338
N3485 X32.23 Y92.295
N3490 X32.258 Y93.252
N3495 X32.278 Y94.21
N3500 X32.292 Y95.167
N3505 X32.303 Y96.125
N3510 X32.31 Y97.083
N3515 X32.316 Y98.04
N3520 X32.319 Y98.998
N3525 X32.324 Y100.914
N3530 X32.327 Y103.787
N3535 X32.329 Y111.448
N3540 Y126.771
N3545 X32.33 Y133.475
N3550 X32.331 Y134.433
N3555 X32.334 Y135.391
N3560 X32.341 Y136.348
N3565 X32.353 Y137.306
N3570 X32.374 Y138.263
N3575 X32.406 Y139.221
N3580 X32.453 Y140.177
N3585 X32.516 Y141.133
N3590 X32.598 Y142.087
N3595 X32.702 Y143.039
N3600 X32.829 Y143.988
N3605 X32.98 Y144.934
N3610 X33.155 Y145.875
N3615 X33.356 Y146.812
N3620 X33.583 Y147.742
N3625 X33.836 Y148.666
N3630 X34.115 Y149.582
N3635 X34.421 Y150.49
N3640 X34.752 Y151.388
N3645 X35.109 Y152.277
N3650 X35.493 Y153.154
N3655 X35.901 Y154.021
N3660 X36.335 Y154.874
N3665 X36.794 Y155.715
N3670 X37.278 Y156.541
N3675 X37.786 Y157.353
N3680 X38.318 Y158.149
N3685 X38.874 Y158.929
N3690 X39.452 Y159.693
N3695 X40.053 Y160.439
N3700 X40.675 Y161.167
N3705 X41.319 Y161.876
N3710 X41.983 Y162.566
N3715 X42.667 Y163.236
N3720 X43.371 Y163.885
N3725 X44.094 Y164.514
N3730 X44.834 Y165.121
N3735 X45.592 Y165.706
N3740 X46.368 Y166.269
N3745 X47.159 Y166.808
N3750 X47.966 Y167.324
N3755 X48.788 Y167.815
N3760 X49.624 Y168.282
N3765 X50.474 Y168.724
N3770 X51.336 Y169.14
N3775 X52.211 Y169.53
N3780 X53.097 Y169.894
N3785 X53.993 Y170.233
N3790 X54.898 Y170.544
N3795 X55.813 Y170.828
N3800 X56.735 Y171.086
N3805 X57.665 Y171.317
N3810 X58.601 Y171.519
N3815 X59.542 Y171.695
N3820 X60.488 Y171.842
N3825 X61.439 Y171.962
N3830 X62.392 Y172.054
N3835 X63.348 Y172.117
N3840 X64.305 Y172.152
N3845 X65.262 Y172.158
N3850 X66.22 Y172.136
N3855 X67.176 Y172.086
N3860 X68.131 Y172.007
N3865 X69.082 Y171.9
N3870 X70.03 Y171.765
N3875 X70.974 Y171.602
N3880 X71.913 Y171.411
N3885 X72.845 Y171.193
N3890 X73.771 Y170.947
N3895 X74.689 Y170.674
N3900 X75.598 Y170.375
N3905 X76.499 Y170.048
N3910 X77.389 Y169.696
N3915 X78.269 Y169.317
N3920 X79.137 Y168.912
N3925 X79.993 Y168.483
N3930 X80.835 Y168.027
N3935 X81.664 Y167.547
N3940 X82.478 Y167.042
N3945 X83.276 Y166.514
N3950 X84.059 Y165.961
N3955 X84.825 Y165.386
N3960 X85.573 Y164.789
N3965 X86.304 Y164.17
N3970 X87.016 Y163.53
N3975 X87.709 Y162.869
N3980 X88.383 Y162.188
N3985 X89.036 Y161.487
N3990 X89.668 Y160.768
N3995 X90.279 Y160.03
N4000 X90.867 Y159.275
N4005 X91.433 Y158.502
N4010 X91.976 Y157.713
N4015 X92.495 Y156.908
N4020 X92.99 Y156.088
N4025 X93.46 Y155.254
N4030 X93.906 Y154.406
N4035 X94.326 Y153.546
N4040 X94.72 Y152.673
N4045 X95.089 Y151.789
N4050 X95.431 Y150.895
N4055 X95.747 Y149.991
N4060 X96.036 Y149.078
N4065 X96.298 Y148.157
N4070 X96.534 Y147.228
N4075 X96.741 Y146.293
N4080 X96.921 Y145.352
N4085 X97.075 Y144.407
N4090 X97.203 Y143.458
N4095 X97.309 Y142.506
N4100 X97.394 Y141.552
N4105 X97.461 Y140.597
N4110 X97.514 Y139.641
N4115 X97.554 Y138.684
N4120 X97.584 Y137.727
N4125 X97.607 Y136.769
N4130 X97.624 Y135.812
N4135 X97.637 Y134.854
N4140 X97.646 Y133.897
N4145 X97.653 Y132.939
N4150 X97.658 Y131.981
N4155 X97.664 Y130.066
N4160 X97.668 Y127.193
N4165 X97.67 Y121.447
N4170 Y102.293
N4175 Y81.223
N4180 X97.669 Y80.266
N4185 X97.666 Y79.308
N4190 X97.658 Y78.35
N4195 X97.646 Y77.393
N4200 X97.625 Y76.435
N4205 X97.592 Y75.478
N4210 X97.544 Y74.521
N4215 X97.48 Y73.566
N4220 X97.396 Y72.612
N4225 X97.291 Y71.66
N4230 X97.163 Y70.711
N4235 X97.011 Y69.765
N4240 X96.834 Y68.824
N4245 X96.632 Y67.888
N4250 X96.404 Y66.958
N4255 X96.151 Y66.034
N4260 X95.87 Y65.119
N4265 X95.564 Y64.211
N4270 X95.231 Y63.313
N4275 X94.873 Y62.425
N4280 X94.488 Y61.548
N4285 X94.078 Y60.683
N4290 X93.642 Y59.83
N4295 X93.181 Y58.99
N4300 X92.695 Y58.165
N4305 X92.186 Y57.354
N4310 X91.652 Y56.559
N4315 X91.095 Y55.78
N4320 X90.516 Y55.017
N4325 X89.914 Y54.272
N4330 X89.291 Y53.545
N4335 X88.646 Y52.837
N4340 X87.981 Y52.148
N4345 X87.296 Y51.479
N4350 X86.591 Y50.83
N4355 X85.868 Y50.202
N4360 X85.127 Y49.596
N4365 X84.367 Y49.012
N4370 X83.591 Y48.451
N4375 X82.799 Y47.913
N4380 X81.991 Y47.4
N4385 X81.167 Y46.91
N4390 X80.33 Y46.445
N4395 X79.48 Y46.005
N4400 X78.616 Y45.59
N4405 X77.741 Y45.201
N4410 X76.855 Y44.838
N4415 X75.959 Y44.501
N4420 X75.053 Y44.191
N4425 X74.138 Y43.908
N4430 X73.215 Y43.651
N4435 X72.285 Y43.422
N4440 X71.349 Y43.22
N4445 X70.407 Y43.045
N4450 X69.461 Y42.899
N4455 X68.511 Y42.781
N4460 X67.557 Y42.691
N4465 X66.601 Y42.63
N4470 X65.644 Y42.597
N4475 X64.687 Y42.592
N4480 X63.729 Y42.616
N4485 X62.773 Y42.668
N4490 X61.819 Y42.748
N4495 X60.867 Y42.856
N4500 X59.919 Y42.992
N4505 X58.975 Y43.157
N4510 X58.037 Y43.348
N4515 X57.105 Y43.567
N4520 X56.179 Y43.814
N4525 X55.262 Y44.088
N4530 X54.352 Y44.388
N4535 X53.452 Y44.715
N4540 X52.563 Y45.07
N4545 X51.684 Y45.45
N4550 X50.816 Y45.856
N4555 X49.962 Y46.288
N4560 X49.12 Y46.746
N4565 X48.293 Y47.228
N4570 X47.48 Y47.734
N4575 X46.682 Y48.264
N4580 X45.901 Y48.818
N4585 X45.136 Y49.394
N4590 X44.388 Y49.992
N4595 X43.658 Y50.612
N4600 X42.947 Y51.254
N4605 X42.294 Y51.955
N4610 X41.649 Y52.662
N4615 X41.015 Y53.38
N4620 X40.396 Y54.111
N4625 X39.796 Y54.857
N4630 X39.215 Y55.619
N4635 X38.655 Y56.395
N4640 X38.117 Y57.188
N4645 X37.602 Y57.995
N4650 X37.11 Y58.817
N4655 X36.643 Y59.653
N4660 X36.201 Y60.502
N4665 X35.783 Y61.364
N4670 X35.39 Y62.238
N4675 X34.849 Y63.496
N4680 X34.771 Y63.675
N4685 X34.686 Y63.868
N4690 X34.545 Y64.181
N4695 X34.482 Y64.317
N4700 X34.352 Y64.587
N4705 X34.286 Y64.722
N4710 X34.219 Y64.856
N4715 X34.151 Y64.99
N4720 X34.082 Y65.123
N4725 X34.011 Y65.255
N4730 X33.939 Y65.386
N4735 X33.865 Y65.517
N4740 X33.79 Y65.647
N4745 X33.713 Y65.776
N4750 X33.635 Y65.904
N4755 X33.555 Y66.031
N4760 X33.474 Y66.157
N4765 X33.391 Y66.282
N4770 X33.306 Y66.406
N4775 X33.22 Y66.528
N4780 X33.131 Y66.649
N4785 X33.041 Y66.769
N4790 X32.949 Y66.888
N4795 X32.856 Y67.005
N4800 X32.76 Y67.121
N4805 X32.663 Y67.235
N4810 X32.564 Y67.348
N4815 X32.463 Y67.459
N4820 X32.361 Y67.568
N4825 X32.257 Y67.676
N4830 X32.151 Y67.783
N4835 X32.043 Y67.887
N4840 X31.934 Y67.99
N4845 X31.823 Y68.091
N4850 X31.71 Y68.19
N4855 X31.596 Y68.287
N4860 X31.48 Y68.383
N4865 X31.363 Y68.476
N4870 X31.245 Y68.568
N4875 X31.125 Y68.658
N4880 X31.003 Y68.746
N4885 X30.88 Y68.832
N4890 X30.756 Y68.917
N4895 X30.631 Y68.999
N4900 X30.505 Y69.08
N4905 X30.377 Y69.159
N4910 X30.248 Y69.235
N4915 X30.118 Y69.31
N4920 X29.987 Y69.384
N4925 X29.856 Y69.455
N4930 X29.723 Y69.525
N4935 X29.589 Y69.592
N4940 X29.454 Y69.658
N4945 X29.318 Y69.723
N4950 X29.182 Y69.785
N4955 X29.045 Y69.846
N4960 X28.907 Y69.906
N4965 X28.769 Y69.963
N4970 X28.629 Y70.019
N4975 X28.49 Y70.073
N4980 X28.349 Y70.125
N4985 X28.208 Y70.176
N4990 X28.066 Y70.226
N4995 X27.924 Y70.274
N5000 X27.782 Y70.32
N5005 X27.638 Y70.365
N5010 X27.495 Y70.408
N5015 X27.351 Y70.45
N5020 X27.206 Y70.491
N5025 X27.062 Y70.53
N5030 X26.916 Y70.568
N5035 X26.771 Y70.604
N5040 X26.625 Y70.639
N5045 X26.479 Y70.674
N5050 X26.333 Y70.706
N5055 X26.186 Y70.738
N5060 X26.039 Y70.769
N5065 X25.892 Y70.798
N5070 X25.745 Y70.826
N5075 X25.45 Y70.88
N5080 X25.302 Y70.905
N5085 X25.006 Y70.953
N5090 X24.857 Y70.976
N5095 X23.91 Y71.114
N5100 X22.995 Y71.399
N5105 X22.587 Y71.648
N5110 X22.416 Y71.816
N5115 X22.27 Y72.006
N5120 X22.149 Y72.213
N5125 X22.058 Y72.434
N5130 X21.996 Y72.665
N5135 X21.966 Y72.903
N5140 X21.968 Y73.142
N5145 X22.001 Y73.379
N5150 X22.066 Y73.61
N5155 X22.16 Y73.83
N5160 X22.652 Y74.652
N5165 X23.381 Y75.273
N5170 X24.186 Y75.791
N5175 X25.029 Y76.245
N5180 X25.826 Y76.646
N5185 X26.082 Y76.776
N5190 X26.367 Y76.925
N5195 X26.656 Y77.08
N5200 X26.788 Y77.152
N5205 X26.919 Y77.225
N5210 X27.05 Y77.299
N5215 X27.179 Y77.373
N5220 X27.309 Y77.449
N5225 X27.438 Y77.526
N5230 X27.566 Y77.605
N5235 X27.693 Y77.684
N5240 X27.819 Y77.765
N5245 X27.945 Y77.847
N5250 X28.07 Y77.93
N5255 X28.194 Y78.014
N5260 X28.317 Y78.1
N5265 X28.439 Y78.187
N5270 X28.56 Y78.276
N5275 X28.68 Y78.366
N5280 X28.799 Y78.458
N5285 X28.916 Y78.55
N5290 X29.033 Y78.645
N5295 X29.148 Y78.74
N5300 X29.263 Y78.838
N5305 X29.376 Y78.936
N5310 X29.488 Y79.036
N5315 X29.598 Y79.138
N5320 X29.707 Y79.241
N5325 X29.815 Y79.345
N5330 X29.922 Y79.45
N5335 X30.027 Y79.557
N5340 X30.13 Y79.666
N5345 X30.233 Y79.776
N5350 X30.333 Y79.887
N5355 X30.433 Y79.999
N5360 X30.531 Y80.113
N5365 X30.627 Y80.228
N5370 X30.722 Y80.344
N5375 X30.815 Y80.462
N5380 X30.907 Y80.58
N5385 X30.997 Y80.7
N5390 X31.086 Y80.821
N5395 X31.173 Y80.943
N5400 X31.258 Y81.066
N5405 X31.342 Y81.191
N5410 X31.425 Y81.316
N5415 X31.506 Y81.442
N5420 X31.585 Y81.57
N5425 X31.663 Y81.698
N5430 X31.739 Y81.827
N5435 X31.814 Y81.957
N5440 X31.887 Y82.088
N5445 X31.959 Y82.22
N5450 X32.029 Y82.352
N5455 X32.097 Y82.486
N5460 X32.164 Y82.62
N5465 X32.23 Y82.755
N5470 X32.294 Y82.89
N5475 X32.357 Y83.027
N5480 X32.418 Y83.164
N5485 X32.477 Y83.301
N5490 X32.535 Y83.44
N5495 X32.592 Y83.579
N5500 X32.647 Y83.718
N5505 X32.701 Y83.858
N5510 X32.754 Y83.998
N5515 X32.805 Y84.139
N5520 X32.855 Y84.281
N5525 X32.903 Y84.423
N5530 X32.95 Y84.565
N5535 X32.996 Y84.708
N5540 X33.04 Y84.851
N5545 X33.084 Y84.995
N5550 X33.126 Y85.139
N5555 X33.166 Y85.284
N5560 X33.364 Y86.221
N5565 X33.528 Y87.164
N5570 X33.662 Y88.112
N5575 X33.77 Y89.064
N5580 X33.855 Y90.018
N5585 X33.921 Y90.973
N5590 X33.973 Y91.93
N5595 X34.012 Y92.887
N5600 X34.042 Y93.844
N5605 X34.064 Y94.801
N5610 X34.081 Y95.759
N5615 X34.094 Y96.716
N5620 X34.103 Y97.674
N5625 X34.11 Y98.632
N5630 X34.115 Y99.589
N5635 X34.119 Y100.547
N5640 X34.124 Y102.462
N5645 X34.127 Y105.336
N5650 X34.129 Y112.039
N5655 X34.13 Y132.151
N5660 X34.131 Y133.109
N5665 X34.133 Y134.066
N5670 X34.138 Y135.024
N5675 X34.147 Y135.982
N5680 X34.162 Y136.939
N5685 X34.186 Y137.897
N5690 X34.222 Y138.854
N5695 X34.271 Y139.81
N5700 X34.337 Y140.766
N5705 X34.422 Y141.719
N5710 X34.528 Y142.671
N5715 X34.657 Y143.62
N5720 X34.81 Y144.566
N5725 X34.989 Y145.507
N5730 X35.194 Y146.442
N5735 X35.426 Y147.371
N5740 X35.685 Y148.293
N5745 X35.971 Y149.207
N5750 X36.285 Y150.112
N5755 X36.626 Y151.007
N5760 X36.994 Y151.891
N5765 X37.389 Y152.763
N5770 X37.811 Y153.623
N5775 X38.26 Y154.469
N5780 X38.735 Y155.301
N5785 X39.235 Y156.117
N5790 X39.762 Y156.918
N5795 X40.312 Y157.701
N5800 X40.887 Y158.467
N5805 X41.487 Y159.214
N5810 X42.109 Y159.942
N5815 X42.754 Y160.65
N5820 X43.421 Y161.337
N5825 X44.109 Y162.003
N5830 X44.818 Y162.647
N5835 X45.546 Y163.269
N5840 X46.293 Y163.868
N5845 X47.059 Y164.443
N5850 X47.842 Y164.994
N5855 X48.643 Y165.52
N5860 X49.459 Y166.021
N5865 X50.291 Y166.496
N5870 X51.137 Y166.944
N5875 X51.997 Y167.366
N5880 X52.869 Y167.76
N5885 X53.754 Y168.127
N5890 X54.65 Y168.465
N5895 X55.556 Y168.775
N5900 X56.472 Y169.057
N5905 X57.396 Y169.309
N5910 X58.327 Y169.533
N5915 X59.265 Y169.727
N5920 X60.208 Y169.892
N5925 X61.156 Y170.028
N5930 X62.108 Y170.134
N5935 X63.062 Y170.21
N5940 X64.019 Y170.256
N5945 X64.977 Y170.272
N5950 X65.934 Y170.258
N5955 X66.891 Y170.214
N5960 X67.846 Y170.14
N5965 X68.798 Y170.035
N5970 X69.746 Y169.901
N5975 X70.689 Y169.737
N5980 X71.627 Y169.543
N5985 X72.559 Y169.32
N5990 X73.483 Y169.068
N5995 X74.398 Y168.787
N6000 X75.305 Y168.478
N6005 X76.201 Y168.141
N6010 X77.086 Y167.775
N6015 X77.96 Y167.383
N6020 X78.821 Y166.963
N6025 X79.668 Y166.516
N6030 X80.5 Y166.043
N6035 X81.318 Y165.544
N6040 X82.119 Y165.019
N6045 X82.903 Y164.47
N6050 X83.67 Y163.896
N6055 X84.418 Y163.298
N6060 X85.147 Y162.677
N6065 X85.856 Y162.033
N6070 X86.545 Y161.368
N6075 X87.212 Y160.681
N6080 X87.858 Y159.974
N6085 X88.482 Y159.247
N6090 X89.082 Y158.501
N6095 X89.659 Y157.736
N6100 X90.211 Y156.954
N6105 X90.739 Y156.154
N6110 X91.241 Y155.339
N6115 X91.717 Y154.508
N6120 X92.167 Y153.663
N6125 X92.591 Y152.804
N6130 X92.986 Y151.932
N6135 X93.355 Y151.048
N6140 X93.695 Y150.152
N6145 X94.007 Y149.247
N6150 X94.29 Y148.332
N6155 X94.545 Y147.409
N6160 X94.771 Y146.478
N6165 X94.969 Y145.541
N6170 X95.139 Y144.599
N6175 X95.284 Y143.652
N6180 X95.405 Y142.702
N6185 X95.505 Y141.75
N6190 X95.586 Y140.795
N6195 X95.651 Y139.84
N6200 X95.702 Y138.884
N6205 X95.743 Y137.927
N6210 X95.774 Y136.97
N6215 X95.798 Y136.012
N6220 X95.816 Y135.055
N6225 X95.83 Y134.097
N6230 X95.841 Y133.139
N6235 X95.848 Y132.182
N6240 X95.854 Y131.224
N6245 X95.858 Y130.266
N6250 X95.864 Y128.351
N6255 X95.868 Y125.478
N6260 X95.87 Y119.732
N6265 Y87.17
N6270 Y82.382
N6275 X95.869 Y81.424
N6280 X95.866 Y80.466
N6285 X95.86 Y79.508
N6290 X95.85 Y78.551
N6295 X95.833 Y77.593
N6300 X95.807 Y76.636
N6305 X95.769 Y75.679
N6310 X95.716 Y74.723
N6315 X95.646 Y73.768
N6320 X95.556 Y72.814
N6325 X95.445 Y71.863
N6330 X95.31 Y70.915
N6335 X95.151 Y69.97
N6340 X94.966 Y69.031
N6345 X94.755 Y68.096
N6350 X94.518 Y67.169
N6355 X94.253 Y66.248
N6360 X93.961 Y65.336
N6365 X93.641 Y64.433
N6370 X93.294 Y63.541
N6375 X92.92 Y62.659
N6380 X92.519 Y61.79
N6385 X92.091 Y60.933
N6390 X91.636 Y60.09
N6395 X91.155 Y59.262
N6400 X90.649 Y58.449
N6405 X90.117 Y57.653
N6410 X89.56 Y56.874
N6415 X88.979 Y56.112
N6420 X88.374 Y55.37
N6425 X87.746 Y54.646
N6430 X87.096 Y53.943
N6435 X86.425 Y53.26
N6440 X85.732 Y52.599
N6445 X85.019 Y51.959
N6450 X84.287 Y51.342
N6455 X83.535 Y50.749
N6460 X82.765 Y50.179
N6465 X81.978 Y49.634
N6470 X81.174 Y49.114
N6475 X80.354 Y48.619
N6480 X79.519 Y48.15
N6485 X78.669 Y47.708
N6490 X77.806 Y47.293
N6495 X76.93 Y46.905
N6500 X76.043 Y46.546
N6505 X75.145 Y46.214
N6510 X74.236 Y45.91
N6515 X73.319 Y45.635
N6520 X72.394 Y45.388
N6525 X71.461 Y45.17
N6530 X70.522 Y44.982
N6535 X69.578 Y44.823
N6540 X68.629 Y44.694
N6545 X67.676 Y44.595
N6550 X66.721 Y44.526
N6555 X65.764 Y44.487
N6560 X64.806 Y44.477
N6565 X63.849 Y44.498
N6570 X62.893 Y44.55
N6575 X61.938 Y44.631
N6580 X60.987 Y44.743
N6585 X60.04 Y44.884
N6590 X59.097 Y45.054
N6595 X58.161 Y45.254
N6600 X57.231 Y45.483
N6605 X56.309 Y45.741
N6610 X55.395 Y46.027
N6615 X54.49 Y46.343
N6620 X53.596 Y46.686
N6625 X52.714 Y47.057
N6630 X51.843 Y47.457
N6635 X50.985 Y47.883
N6640 X50.142 Y48.336
N6645 X49.313 Y48.815
N6650 X48.499 Y49.32
N6655 X47.702 Y49.851
N6660 X46.922 Y50.407
N6665 X46.16 Y50.987
N6670 X45.421 Y51.596
N6675 X44.711 Y52.239
N6680 X44.024 Y52.906
N6685 X43.357 Y53.593
N6690 X42.709 Y54.298
N6695 X42.081 Y55.021
N6700 X41.473 Y55.762
N6705 X40.886 Y56.518
N6710 X40.321 Y57.292
N6715 X39.78 Y58.082
N6720 X39.262 Y58.887
N6725 X38.769 Y59.708
N6730 X38.302 Y60.544
N6735 X37.859 Y61.394
N6740 X37.439 Y62.254
N6745 X36.622 Y63.987
N6750 X36.198 Y64.846
N6755 X35.747 Y65.69
N6760 X35.256 Y66.512
N6765 X34.752 Y67.252
N6770 X34.241 Y67.907
N6775 X33.713 Y68.501
N6780 X33.613 Y68.612
N6785 X33.511 Y68.723
N6790 X33.407 Y68.831
N6795 X33.303 Y68.938
N6800 X33.196 Y69.044
N6805 X33.088 Y69.148
N6810 X32.979 Y69.251
N6815 X32.868 Y69.353
N6820 X32.756 Y69.452
N6825 X32.643 Y69.55
N6830 X32.528 Y69.647
N6835 X32.412 Y69.742
N6840 X32.295 Y69.836
N6845 X32.177 Y69.928
N6850 X32.057 Y70.019
N6855 X31.936 Y70.107
N6860 X31.815 Y70.195
N6865 X31.692 Y70.281
N6870 X31.567 Y70.365
N6875 X31.442 Y70.448
N6880 X31.316 Y70.529
N6885 X31.189 Y70.609
N6890 X31.061 Y70.687
N6895 X30.932 Y70.764
N6900 X30.802 Y70.839
N6905 X30.672 Y70.912
N6910 X30.54 Y70.984
N6915 X30.408 Y71.055
N6920 X30.275 Y71.124
N6925 X30.141 Y71.192
N6930 X30.006 Y71.258
N6935 X29.871 Y71.322
N6940 X29.735 Y71.386
N6945 X29.598 Y71.447
N6950 X29.461 Y71.508
N6955 X29.323 Y71.567
N6960 X29.184 Y71.624
N6965 X29.045 Y71.68
N6970 X28.905 Y71.735
N6975 X28.691 Y71.841
N6980 X28.492 Y71.974
N6985 X28.312 Y72.132
N6990 X28.155 Y72.313
N6995 X28.024 Y72.513
N7000 X27.92 Y72.729
N7005 X27.846 Y72.957
N7010 X27.802 Y73.192
N7015 X27.791 Y73.431
N7020 X27.811 Y73.67
N7025 X27.863 Y73.904
N7030 X27.945 Y74.128
N7035 X28.39 Y74.976
N7040 X29.023 Y75.695
N7045 X29.685 Y76.388
N7050 X30.003 Y76.716
N7055 X30.194 Y76.916
N7060 X30.353 Y77.085
N7065 X30.493 Y77.234
N7070 X30.619 Y77.37
N7075 X30.837 Y77.611
N7080 X31.036 Y77.835
N7085 X31.232 Y78.062
N7090 X31.329 Y78.176
N7095 X31.426 Y78.291
N7100 X31.521 Y78.407
N7105 X31.616 Y78.523
N7110 X31.71 Y78.641
N7115 X31.802 Y78.758
N7120 X31.894 Y78.877
N7125 X31.985 Y78.996
N7130 X32.075 Y79.116
N7135 X32.165 Y79.237
N7140 X32.253 Y79.358
N7145 X32.34 Y79.48
N7150 X32.426 Y79.603
N7155 X32.511 Y79.727
N7160 X32.594 Y79.851
N7165 X32.677 Y79.976
N7170 X32.759 Y80.102
N7175 X32.84 Y80.229
N7180 X32.919 Y80.356
N7185 X32.997 Y80.484
N7190 X33.075 Y80.612
N7195 X33.151 Y80.742
N7200 X33.226 Y80.872
N7205 X33.299 Y81.002
N7210 X33.372 Y81.133
N7215 X33.443 Y81.265
N7220 X33.514 Y81.398
N7225 X33.583 Y81.531
N7230 X33.65 Y81.665
N7235 X33.717 Y81.799
N7240 X33.783 Y81.934
N7245 X33.847 Y82.07
N7250 X33.91 Y82.206
N7255 X33.972 Y82.342
N7260 X34.033 Y82.48
N7265 X34.092 Y82.617
N7270 X34.15 Y82.756
N7275 X34.206 Y82.895
N7280 X34.261 Y83.034
N7285 X34.314 Y83.175
N7290 X34.367 Y83.315
N7295 X34.418 Y83.456
N7300 X34.467 Y83.598
N7305 X34.516 Y83.74
N7310 X34.563 Y83.882
N7315 X34.609 Y84.025
N7320 X34.654 Y84.168
N7325 X34.697 Y84.312
N7330 X34.74 Y84.455
N7335 X34.782 Y84.599
N7340 X34.822 Y84.744
N7345 X34.861 Y84.889
N7350 X34.937 Y85.179
N7355 X34.973 Y85.324
N7360 X35.009 Y85.47
N7365 X35.043 Y85.616
N7370 X35.109 Y85.909
N7375 X35.176 Y86.222
N7380 X35.235 Y86.516
N7385 X35.295 Y86.834
N7390 X35.326 Y87.01
N7395 X35.358 Y87.194
N7400 X35.413 Y87.527
N7405 X35.442 Y87.712
N7410 X35.472 Y87.91
N7415 X35.502 Y88.125
N7420 X35.529 Y88.317
N7425 X35.556 Y88.521
N7430 X35.583 Y88.742
N7435 X35.612 Y88.983
N7440 X35.64 Y89.223
N7445 X35.665 Y89.462
N7450 X35.692 Y89.723
N7455 X35.72 Y90.014
N7460 X35.745 Y90.293
N7465 X35.771 Y90.594
N7470 X35.798 Y90.932
N7475 X35.822 Y91.273
N7480 X35.847 Y91.643
N7485 X35.873 Y92.06
N7490 X35.897 Y92.487
N7495 X35.921 Y92.988
N7500 X35.945 Y93.517
N7505 X35.968 Y94.14
N7510 X35.991 Y94.866
N7515 X36.014 Y95.717
N7520 X36.033 Y96.675
N7525 X36.048 Y97.632
N7530 X36.059 Y98.59
N7535 X36.067 Y99.548
N7540 X36.074 Y100.505
N7545 X36.078 Y101.463
N7550 X36.084 Y103.378
N7555 X36.088 Y106.251
N7560 X36.091 Y111.998
N7565 Y112.955
N7570 Y113.913
N7575 X36.035 Y114.869
N7580 X35.998 Y115.826
N7585 X35.974 Y116.783
N7590 X35.959 Y117.741
N7595 X35.948 Y118.699
N7600 X35.942 Y119.656
N7605 X35.937 Y120.614
N7610 X35.933 Y122.529
N7615 X35.93 Y125.402
N7620 Y131.149
N7625 X35.931 Y132.106
N7630 X35.933 Y133.064
N7635 X35.937 Y134.022
N7640 X35.945 Y134.979
N7645 X35.958 Y135.937
N7650 X35.979 Y136.895
N7655 X36.009 Y137.852
N7660 X36.051 Y138.808
N7665 X36.109 Y139.764
N7670 X36.184 Y140.719
N7675 X36.279 Y141.672
N7680 X36.395 Y142.623
N7685 X36.536 Y143.57
N7690 X36.701 Y144.513
N7695 X36.893 Y145.452
N7700 X37.113 Y146.384
N7705 X37.36 Y147.309
N7710 X37.635 Y148.226
N7715 X37.939 Y149.135
N7720 X38.271 Y150.033
N7725 X38.632 Y150.92
N7730 X39.022 Y151.795
N7735 X39.439 Y152.657
N7740 X39.886 Y153.504
N7745 X40.36 Y154.336
N7750 X40.862 Y155.152
N7755 X41.391 Y155.95
N7760 X41.946 Y156.73
N7765 X42.528 Y157.491
N7770 X43.134 Y158.233
N7775 X43.765 Y158.953
N7780 X44.419 Y159.652
N7785 X45.097 Y160.329
N7790 X45.796 Y160.983
N7795 X46.517 Y161.614
N7800 X47.258 Y162.22
N7805 X48.019 Y162.802
N7810 X48.799 Y163.357
N7815 X49.598 Y163.886
N7820 X50.413 Y164.388
N7825 X51.246 Y164.862
N7830 X52.093 Y165.308
N7835 X52.955 Y165.725
N7840 X53.831 Y166.113
N7845 X54.719 Y166.471
N7850 X55.619 Y166.799
N7855 X56.529 Y167.097
N7860 X57.449 Y167.365
N7865 X58.376 Y167.602
N7870 X59.312 Y167.808
N7875 X60.253 Y167.982
N7880 X61.2 Y168.126
N7885 X62.151 Y168.238
N7890 X63.106 Y168.318
N7895 X64.062 Y168.365
N7900 X65.02 Y168.381
N7905 X65.977 Y168.364
N7910 X66.934 Y168.315
N7915 X67.888 Y168.234
N7920 X68.839 Y168.12
N7925 X69.786 Y167.976
N7930 X70.727 Y167.799
N7935 X71.662 Y167.592
N7940 X72.589 Y167.353
N7945 X73.509 Y167.084
N7950 X74.418 Y166.784
N7955 X75.317 Y166.454
N7960 X76.205 Y166.095
N7965 X77.08 Y165.706
N7970 X77.942 Y165.288
N7975 X78.789 Y164.841
N7980 X79.62 Y164.366
N7985 X80.435 Y163.863
N7990 X81.233 Y163.333
N7995 X82.012 Y162.776
N8000 X82.773 Y162.194
N8005 X83.513 Y161.586
N8010 X84.233 Y160.955
N8015 X84.931 Y160.299
N8020 X85.608 Y159.621
N8025 X86.261 Y158.921
N8030 X86.891 Y158.2
N8035 X87.496 Y157.458
N8040 X88.076 Y156.696
N8045 X88.631 Y155.915
N8050 X89.158 Y155.115
N8055 X89.658 Y154.299
N8060 X90.131 Y153.466
N8065 X90.576 Y152.617
N8070 X90.991 Y151.755
N8075 X91.378 Y150.878
N8080 X91.735 Y149.99
N8085 X92.062 Y149.09
N8090 X92.359 Y148.179
N8095 X92.626 Y147.26
N8100 X92.864 Y146.332
N8105 X93.072 Y145.397
N8110 X93.252 Y144.456
N8115 X93.406 Y143.511
N8120 X93.536 Y142.562
N8125 X93.644 Y141.611
N8130 X93.733 Y140.657
N8135 X93.805 Y139.702
N8140 X93.864 Y138.746
N8145 X93.91 Y137.79
N8150 X93.947 Y136.833
N8155 X93.976 Y135.875
N8160 X93.998 Y134.918
N8165 X94.016 Y133.961
N8170 X94.029 Y133.003
N8175 X94.039 Y132.045
N8180 X94.047 Y131.088
N8185 X94.053 Y130.13
N8190 X94.057 Y129.172
N8195 X94.063 Y127.257
N8200 X94.067 Y124.384
N8205 X94.069 Y119.595
N8210 X94.07 Y104.272
N8215 Y83.203
N8220 X94.068 Y82.245
N8225 X94.065 Y81.287
N8230 X94.06 Y80.33
N8235 X94.05 Y79.372
N8240 X94.034 Y78.415
N8245 X94.01 Y77.457
N8250 X93.975 Y76.5
N8255 X93.926 Y75.544
N8260 X93.862 Y74.588
N8265 X93.779 Y73.634
N8270 X93.675 Y72.682
N8275 X93.548 Y71.733
N8280 X93.397 Y70.787
N8285 X93.221 Y69.846
N8290 X93.018 Y68.91
N8295 X92.788 Y67.98
N8300 X92.53 Y67.058
N8305 X92.244 Y66.144
N8310 X91.929 Y65.24
N8315 X91.585 Y64.346
N8320 X91.212 Y63.464
N8325 X90.81 Y62.594
N8330 X90.38 Y61.739
N8335 X89.921 Y60.898
N8340 X89.435 Y60.073
N8345 X88.921 Y59.265
N8350 X88.381 Y58.474
N8355 X87.814 Y57.702
N8360 X87.223 Y56.949
N8365 X86.606 Y56.216
N8370 X85.966 Y55.504
N8375 X85.302 Y54.813
N8380 X84.616 Y54.145
N8385 X83.908 Y53.5
N8390 X83.178 Y52.88
N8395 X82.429 Y52.284
N8400 X81.659 Y51.713
N8405 X80.871 Y51.169
N8410 X80.065 Y50.652
N8415 X79.242 Y50.162
N8420 X78.403 Y49.7
N8425 X77.549 Y49.267
N8430 X76.681 Y48.862
N8435 X75.8 Y48.486
N8440 X74.907 Y48.14
N8445 X74.003 Y47.824
N8450 X73.089 Y47.538
N8455 X72.166 Y47.283
N8460 X71.235 Y47.058
N8465 X70.298 Y46.864
N8470 X69.354 Y46.702
N8475 X68.405 Y46.572
N8480 X67.452 Y46.474
N8485 X66.497 Y46.408
N8490 X65.54 Y46.374
N8495 X64.582 Y46.373
N8500 X63.625 Y46.403
N8505 X62.669 Y46.466
N8510 X61.716 Y46.56
N8515 X60.767 Y46.686
N8520 X59.822 Y46.843
N8525 X58.883 Y47.032
N8530 X57.951 Y47.251
N8535 X57.027 Y47.502
N8540 X56.111 Y47.783
N8545 X55.206 Y48.095
N8550 X54.311 Y48.437
N8555 X53.429 Y48.81
N8560 X52.559 Y49.211
N8565 X51.704 Y49.642
N8570 X50.864 Y50.102
N8575 X50.039 Y50.589
N8580 X49.232 Y51.103
N8585 X48.443 Y51.646
N8590 X47.675 Y52.219
N8595 X46.931 Y52.822
N8600 X46.21 Y53.453
N8605 X45.512 Y54.108
N8610 X44.836 Y54.786
N8615 X44.182 Y55.486
N8620 X43.549 Y56.205
N8625 X42.94 Y56.944
N8630 X42.354 Y57.702
N8635 X41.793 Y58.477
N8640 X41.256 Y59.27
N8645 X40.745 Y60.08
N8650 X40.259 Y60.906
N8655 X39.797 Y61.745
N8660 X39.353 Y62.593
N8665 X38.919 Y63.447
N8670 X38.486 Y64.301
N8675 X38.045 Y65.151
N8680 X37.585 Y65.991
N8685 X37.096 Y66.814
N8690 X36.57 Y67.615
N8695 X36.004 Y68.387
N8700 X35.4 Y69.131
N8705 X34.759 Y69.83
N8710 X34.095 Y70.469
N8715 X33.397 Y71.058
N8720 X33.012 Y71.343
N8725 X32.817 Y71.483
N8730 X32.643 Y71.647
N8735 X32.492 Y71.832
N8740 X32.367 Y72.037
N8745 X32.173 Y72.475
N8750 X32.006 Y73.418
N8755 X32.094 Y74.371
N8760 X32.353 Y75.293
N8765 X32.721 Y76.178
N8770 X33.151 Y77.033
N8775 X33.612 Y77.873
N8780 X34.079 Y78.709
N8785 X34.536 Y79.55
N8790 X34.972 Y80.403
N8795 X35.377 Y81.271
N8800 X35.744 Y82.155
N8805 X36.073 Y83.055
N8810 X36.363 Y83.968
N8815 X36.616 Y84.891
N8820 X36.835 Y85.824
N8825 X37.022 Y86.763
N8830 X37.181 Y87.707
N8835 X37.315 Y88.656
N8840 X37.427 Y89.607
N8845 X37.519 Y90.56
N8850 X37.595 Y91.515
N8855 X37.657 Y92.47
N8860 X37.708 Y93.427
N8865 X37.748 Y94.384
N8870 X37.78 Y95.341
N8875 X37.806 Y96.298
N8880 X37.826 Y97.256
N8885 X37.841 Y98.213
N8890 X37.853 Y99.171
N8895 X37.863 Y100.128
N8900 X37.87 Y101.086
N8905 X37.875 Y102.044
N8910 X37.882 Y103.959
N8915 X37.884 Y104.917
N8920 X37.888 Y107.79
N8925 X37.89 Y111.621
N8930 X37.883 Y112.578
N8935 X37.861 Y113.536
N8940 X37.835 Y114.493
N8945 X37.811 Y115.451
N8950 X37.791 Y116.408
N8955 X37.775 Y117.366
N8960 X37.763 Y118.323
N8965 X37.754 Y119.281
N8970 X37.747 Y120.239
N8975 X37.742 Y121.196
N8980 X37.738 Y122.154
N8985 X37.734 Y124.069
N8990 X37.731 Y126.942
N8995 X37.73 Y129.815
N9000 X37.732 Y131.731
N9005 X37.735 Y132.689
N9010 X37.741 Y133.646
N9015 X37.749 Y134.422
N9020 X37.747 Y134.522
N9025 X37.74 Y134.622
N9030 X37.727 Y134.721
N9035 X37.683 Y135.004
N9040 X37.402 Y137.179
N9045 X37.32 Y137.832
N9050 X37.312 Y138.049
N9055 X37.301 Y138.484
N9060 X37.3 Y138.702
N9065 Y140.877
N9070 X37.301 Y141.312
N9075 X37.315 Y141.53
N9080 X37.359 Y141.965
N9085 X37.384 Y142.182
N9090 X37.665 Y144.358
N9095 X37.728 Y144.83
N9100 X37.758 Y145.01
N9105 X37.859 Y145.445
N9110 X37.914 Y145.663
N9115 X38.597 Y148.265
N9120 X38.664 Y148.491
N9125 X38.919 Y149.144
N9130 X39.8 Y151.319
N9135 X39.984 Y151.754
N9140 X40.093 Y151.971
N9145 X40.118 Y152.017
N9150 X41.44 Y154.364
N9155 X41.691 Y154.799
N9160 X41.839 Y155.017
N9165 X42.073 Y155.341
N9170 X42.155 Y155.452
N9175 X43.453 Y157.192
N9180 X43.617 Y157.41
N9185 X43.811 Y157.664
N9190 X43.973 Y157.845
N9195 X44.246 Y158.137
N9200 X45.859 Y159.803
N9205 X46.075 Y160.02
N9210 X46.291 Y160.238
N9215 X46.419 Y160.355
N9220 X46.636 Y160.535
N9225 X48.446 Y161.978
N9230 X48.809 Y162.26
N9235 X49.026 Y162.428
N9240 X49.243 Y162.588
N9245 X49.311 Y162.631
N9250 X49.678 Y162.854
N9255 X51.851 Y164.171
N9260 X52.068 Y164.295
N9265 X52.68 Y164.589
N9270 X52.72 Y164.607
N9275 X54.675 Y165.472
N9280 X54.893 Y165.567
N9285 X55.327 Y165.747
N9290 X55.544 Y165.836
N9295 X56.465 Y166.111
N9300 X58.369 Y166.676
N9305 X59.021 Y166.839
N9310 X59.238 Y166.878
N9315 X61.846 Y167.3
N9320 X62.063 Y167.328
N9325 X62.497 Y167.376
N9330 X62.715 Y167.391
N9335 X65.322 Y167.475
N9340 X65.539 Y167.477
N9345 X65.974 Y167.472
N9350 X66.191 Y167.464
N9355 X68.936 Y167.199
N9360 X69.016 Y167.19
N9365 X69.668 Y167.097
N9370 X72.492 Y166.452
N9375 X72.927 Y166.328
N9380 X73.144 Y166.266
N9385 X73.361 Y166.189
N9390 X75.969 Y165.23
N9395 X76.186 Y165.133
N9400 X76.621 Y164.926
N9405 X76.859 Y164.806
N9410 X78.793 Y163.797
N9415 X78.938 Y163.719
N9420 X79.445 Y163.434
N9425 X79.663 Y163.295
N9430 X81.618 Y161.932
N9435 X81.856 Y161.761
N9440 X82.27 Y161.461
N9445 X82.443 Y161.326
N9450 X82.487 Y161.287
N9455 X84.443 Y159.511
N9460 X84.836 Y159.15
N9465 X84.877 Y159.111
N9470 X85.095 Y158.871
N9475 X85.233 Y158.715
N9480 X86.714 Y156.975
N9485 X87.267 Y156.305
N9490 X87.405 Y156.105
N9495 X87.972 Y155.235
N9500 X88.788 Y153.98
N9505 X89.102 Y153.494
N9510 X89.223 Y153.269
N9515 X89.44 Y152.842
N9520 X90.488 Y150.666
N9525 X90.527 Y150.584
N9530 X90.77 Y150.014
N9535 X90.852 Y149.796
N9540 X91.718 Y147.186
N9545 X91.783 Y146.968
N9550 X91.891 Y146.533
N9555 X91.942 Y146.316
N9560 X92.482 Y143.542
N9565 X92.49 Y143.488
N9570 X92.559 Y142.835
N9575 X92.741 Y140.007
N9580 X92.739 Y139.789
N9585 X92.729 Y139.354
N9590 X92.718 Y139.137
N9595 X92.55 Y136.526
N9600 X92.526 Y136.309
N9605 X92.493 Y136.091
N9610 X92.396 Y135.139
N9615 X92.339 Y134.183
N9620 X92.306 Y133.225
N9625 X92.286 Y132.268
N9630 X92.276 Y131.31
N9635 X92.27 Y130.353
N9640 X92.267 Y129.395
N9645 X92.266 Y127.479
N9650 X92.269 Y118.86
N9655 X92.27 Y85.341
N9660 X92.268 Y83.425
N9665 X92.266 Y82.468
N9670 X92.262 Y81.51
N9675 X92.254 Y80.552
N9680 X92.242 Y79.595
N9685 X92.222 Y78.637
N9690 X92.194 Y77.68
N9695 X92.155 Y76.723
N9700 X92.101 Y75.767
N9705 X92.031 Y74.812
N9710 X91.943 Y73.858
N9715 X91.833 Y72.907
N9720 X91.699 Y71.958
N9725 X91.541 Y71.014
N9730 X91.356 Y70.074
N9735 X91.143 Y69.141
N9740 X90.902 Y68.214
N9745 X90.631 Y67.295
N9750 X90.331 Y66.386
N9755 X90.001 Y65.487
N9760 X89.64 Y64.6
N9765 X89.249 Y63.725
N9770 X88.827 Y62.865
N9775 X88.376 Y62.021
N9780 X87.895 Y61.192
N9785 X87.385 Y60.382
N9790 X86.846 Y59.59
N9795 X86.28 Y58.818
N9800 X85.686 Y58.067
N9805 X85.065 Y57.337
N9810 X84.419 Y56.63
N9815 X83.749 Y55.946
N9820 X83.054 Y55.287
N9825 X82.337 Y54.653
N9830 X81.597 Y54.045
N9835 X80.836 Y53.463
N9840 X80.054 Y52.91
N9845 X79.253 Y52.385
N9850 X78.434 Y51.889
N9855 X77.598 Y51.422
N9860 X76.745 Y50.986
N9865 X75.877 Y50.582
N9870 X74.995 Y50.209
N9875 X74.1 Y49.867
N9880 X73.194 Y49.557
N9885 X72.277 Y49.28
N9890 X71.351 Y49.036
N9895 X70.417 Y48.825
N9900 X69.476 Y48.647
N9905 X68.529 Y48.504
N9910 X67.578 Y48.394
N9915 X66.623 Y48.318
N9920 X65.666 Y48.277
N9925 X64.708 Y48.27
N9930 X63.751 Y48.298
N9935 X62.795 Y48.36
N9940 X61.843 Y48.456
N9945 X60.894 Y48.587
N9950 X59.95 Y48.751
N9955 X59.013 Y48.949
N9960 X58.084 Y49.179
N9965 X57.163 Y49.443
N9970 X56.253 Y49.74
N9975 X55.353 Y50.069
N9980 X54.466 Y50.431
N9985 X53.593 Y50.823
N9990 X52.734 Y51.247
N9995 X51.891 Y51.702
N10000 X51.066 Y52.187
N10005 X50.26 Y52.705
N10010 X49.475 Y53.254
N10015 X48.713 Y53.834
N10020 X47.974 Y54.443
N10025 X47.258 Y55.08
N10030 X46.566 Y55.741
N10035 X45.898 Y56.427
N10040 X45.253 Y57.136
N10045 X44.633 Y57.866
N10050 X44.039 Y58.616
N10055 X43.47 Y59.387
N10060 X42.927 Y60.176
N10065 X42.41 Y60.982
N10070 X41.918 Y61.803
N10075 X41.445 Y62.636
N10080 X40.985 Y63.476
N10085 X40.532 Y64.32
N10090 X40.077 Y65.163
N10095 X39.613 Y66.
N10100 X39.13 Y66.827
N10105 X38.623 Y67.64
N10110 X38.087 Y68.434
N10115 X37.52 Y69.206
N10120 X36.919 Y69.951
N10125 X36.281 Y70.665
N10130 X35.606 Y71.344
N10135 X35.106 Y72.162
N10140 X34.858 Y73.087
N10145 X34.818 Y74.043
N10150 X34.937 Y74.994
N10155 X35.168 Y75.923
N10160 X35.475 Y76.83
N10165 X35.826 Y77.721
N10170 X36.197 Y78.604
N10175 X36.571 Y79.486
N10180 X36.935 Y80.372
N10185 X37.28 Y81.265
N10190 X37.601 Y82.167
N10195 X37.895 Y83.079
N10200 X38.16 Y83.999
N10205 X38.395 Y84.928
N10210 X38.602 Y85.863
N10215 X38.782 Y86.803
N10220 X38.938 Y87.748
N10225 X39.071 Y88.697
N10230 X39.184 Y89.648
N10235 X39.279 Y90.601
N10240 X39.358 Y91.555
N10245 X39.424 Y92.51
N10250 X39.478 Y93.467
N10255 X39.522 Y94.423
N10260 X39.558 Y95.38
N10265 X39.587 Y96.338
N10270 X39.61 Y97.295
N10275 X39.628 Y98.253
N10280 X39.642 Y99.21
N10285 X39.653 Y100.168
N10290 X39.662 Y101.125
N10295 X39.669 Y102.083
N10300 X39.674 Y103.041
N10305 X39.681 Y104.956
N10310 X39.685 Y106.872
N10315 X39.689 Y109.745
N10320 X39.687 Y110.702
N10325 X39.679 Y111.66
N10330 X39.664 Y112.618
N10335 X39.647 Y113.575
N10340 X39.61 Y115.49
N10345 X39.594 Y116.448
N10350 X39.58 Y117.405
N10355 X39.569 Y118.363
N10360 X39.56 Y119.321
N10365 X39.552 Y120.278
N10370 X39.546 Y121.236
N10375 X39.542 Y122.194
N10380 X39.536 Y124.109
N10385 X39.532 Y126.982
N10390 X39.531 Y128.493
N10395 X39.517 Y128.723
N10400 X39.472 Y128.95
N10405 X39.4 Y129.168
N10410 X38.799 Y130.653
N10415 X38.718 Y130.87
N10420 X38.597 Y131.238
N10425 X38.578 Y131.305
N10430 X37.893 Y133.916
N10435 X37.837 Y134.133
N10440 X37.785 Y134.351
N10445 X37.727 Y134.721
N10450 G3 X37.18 Y135.205 I-0.589 J-0.114 F300.
N10455 G1 X37.086 Y135.212 Z-1.993
N10460 X36.995 Y135.218 Z-1.971
N10465 X36.908 Y135.225 Z-1.935
N10470 X36.828 Y135.23 Z-1.885
N10475 X36.757 Y135.235 Z-1.824
N10480 X36.696 Y135.24 Z-1.753
N10485 X36.647 Y135.243 Z-1.672
N10490 X36.611 Y135.245 Z-1.585
N10495 X36.589 Y135.247 Z-1.494
N10500 X36.581 Y135.248 Z-1.4
N10505 G0 Z5.
N10510 X93.206 Y137.266
N10515 Z-0.8
N10520 G1 Z-1.4 F300.
N10525 X93.202 Y137.261 Z-1.494
N10530 X93.188 Y137.244 Z-1.585
N10535 X93.165 Y137.216 Z-1.672
N10540 X93.134 Y137.178 Z-1.753
N10545 X93.095 Y137.131 Z-1.824
N10550 X93.049 Y137.075 Z-1.885
N10555 X92.998 Y137.013 Z-1.935
N10560 X92.943 Y136.946 Z-1.971
N10565 X92.885 Y136.875 Z-1.993
N10570 X92.825 Y136.803 Z-2.
N10575 G3 X92.493 Y136.091 I1.223 J-1.005
N10580 G1 X92.46 Y135.874 F1000.
N10585 X92.423 Y135.656
N10590 X91.914 Y133.046
N10595 X91.867 Y132.828
N10600 X91.672 Y132.176
N10605 X91.239 Y130.87
N10610 X91.004 Y130.025
N10615 X90.845 Y129.263
N10620 X90.709 Y128.315
N10625 X90.623 Y127.361
N10630 X90.568 Y126.405
N10635 X90.533 Y125.448
N10640 X90.51 Y124.49
N10645 X90.496 Y123.533
N10650 X90.486 Y122.575
N10655 X90.48 Y121.617
N10660 X90.477 Y120.66
N10665 X90.473 Y118.744
N10670 X90.47 Y114.913
N10675 Y86.183
N10680 X90.468 Y84.267
N10685 X90.466 Y83.309
N10690 X90.462 Y82.352
N10695 X90.455 Y81.394
N10700 X90.443 Y80.436
N10705 X90.426 Y79.479
N10710 X90.4 Y78.522
N10715 X90.364 Y77.565
N10720 X90.315 Y76.608
N10725 X90.25 Y75.653
N10730 X90.168 Y74.698
N10735 X90.065 Y73.746
N10740 X89.94 Y72.797
N10745 X89.789 Y71.851
N10750 X89.613 Y70.91
N10755 X89.408 Y69.974
N10760 X89.174 Y69.045
N10765 X88.91 Y68.125
N10770 X88.615 Y67.214
N10775 X88.288 Y66.313
N10780 X87.93 Y65.425
N10785 X87.539 Y64.551
N10790 X87.115 Y63.692
N10795 X86.66 Y62.85
N10800 X86.173 Y62.025
N10805 X85.654 Y61.22
N10810 X85.106 Y60.435
N10815 X84.528 Y59.671
N10820 X83.922 Y58.93
N10825 X83.287 Y58.212
N10830 X82.626 Y57.52
N10835 X81.939 Y56.853
N10840 X81.227 Y56.212
N10845 X80.49 Y55.6
N10850 X79.731 Y55.017
N10855 X78.949 Y54.464
N10860 X78.146 Y53.941
N10865 X77.324 Y53.45
N10870 X76.483 Y52.992
N10875 X75.625 Y52.566
N10880 X74.752 Y52.173
N10885 X73.864 Y51.815
N10890 X72.963 Y51.49
N10895 X72.05 Y51.2
N10900 X71.127 Y50.945
N10905 X70.194 Y50.726
N10910 X69.254 Y50.543
N10915 X68.308 Y50.397
N10920 X67.357 Y50.288
N10925 X66.402 Y50.215
N10930 X65.445 Y50.18
N10935 X64.487 Y50.182
N10940 X63.53 Y50.221
N10945 X62.575 Y50.296
N10950 X61.624 Y50.408
N10955 X60.678 Y50.557
N10960 X59.738 Y50.741
N10965 X58.806 Y50.961
N10970 X57.883 Y51.217
N10975 X56.971 Y51.509
N10980 X56.071 Y51.836
N10985 X55.184 Y52.197
N10990 X54.312 Y52.593
N10995 X53.456 Y53.023
N11000 X52.619 Y53.487
N11005 X51.801 Y53.986
N11010 X51.005 Y54.518
N11015 X50.231 Y55.083
N11020 X49.481 Y55.678
N11025 X48.756 Y56.303
N11030 X48.055 Y56.956
N11035 X47.38 Y57.635
N11040 X46.731 Y58.34
N11045 X46.109 Y59.068
N11050 X45.514 Y59.818
N11055 X44.946 Y60.59
N11060 X44.405 Y61.38
N11065 X43.888 Y62.186
N11070 X43.391 Y63.005
N11075 X42.909 Y63.832
N11080 X42.435 Y64.664
N11085 X41.963 Y65.498
N11090 X41.486 Y66.328
N11095 X40.998 Y67.152
N11100 X40.493 Y67.966
N11105 X39.966 Y68.766
N11110 X39.413 Y69.548
N11115 X38.832 Y70.309
N11120 X38.221 Y71.046
N11125 X37.729 Y71.868
N11130 X37.425 Y72.776
N11135 X37.297 Y73.725
N11140 X37.315 Y74.683
N11145 X37.446 Y75.631
N11150 X37.656 Y76.566
N11155 X37.919 Y77.487
N11160 X38.213 Y78.398
N11165 X38.521 Y79.305
N11170 X38.83 Y80.211
N11175 X39.131 Y81.12
N11180 X39.418 Y82.034
N11185 X39.685 Y82.954
N11190 X39.93 Y83.88
N11195 X40.153 Y84.811
N11200 X40.351 Y85.748
N11205 X40.527 Y86.69
N11210 X40.681 Y87.635
N11215 X40.814 Y88.583
N11220 X40.929 Y89.534
N11225 X41.028 Y90.487
N11230 X41.111 Y91.441
N11235 X41.182 Y92.396
N11240 X41.24 Y93.352
N11245 X41.289 Y94.308
N11250 X41.329 Y95.265
N11255 X41.362 Y96.222
N11260 X41.389 Y97.179
N11265 X41.41 Y98.137
N11270 X41.428 Y99.094
N11275 X41.442 Y100.052
N11280 X41.452 Y101.01
N11285 X41.461 Y101.967
N11290 X41.468 Y102.925
N11295 X41.473 Y103.883
N11300 X41.48 Y105.798
N11305 X41.485 Y107.713
N11310 X41.486 Y108.671
N11315 X41.484 Y109.629
N11320 X41.478 Y110.586
N11325 X41.469 Y111.544
N11330 X41.457 Y112.502
N11335 X41.412 Y115.374
N11340 X41.398 Y116.332
N11345 X41.386 Y117.29
N11350 X41.375 Y118.247
N11355 X41.365 Y119.205
N11360 X41.358 Y120.163
N11365 X41.351 Y121.12
N11370 X41.346 Y122.078
N11375 X41.339 Y123.993
N11380 X41.337 Y124.85
N11385 X41.31 Y125.155
N11390 X41.232 Y125.451
N11395 X41.105 Y125.729
N11400 X40.293 Y127.172
N11405 X40.055 Y127.607
N11410 X39.947 Y127.825
N11415 X39.9 Y127.932
N11420 X39.4 Y129.168
N11425 G0 Z5.
N11430 X92.14 Y131.909
N11435 Z-0.8
N11440 G1 Z-1.4 F300.
N11445 X92.134 Y131.904 Z-1.494
N11450 X92.118 Y131.889 Z-1.585
N11455 X92.09 Y131.866 Z-1.672
N11460 X92.053 Y131.834 Z-1.753
N11465 X92.007 Y131.794 Z-1.824
N11470 X91.953 Y131.747 Z-1.885
N11475 X91.892 Y131.694 Z-1.935
N11480 X91.827 Y131.637 Z-1.971
N11485 X91.757 Y131.577 Z-1.993
N11490 X91.686 Y131.516 Z-2.
N11495 G3 X91.239 Y130.87 I1.036 J-1.196
N11500 G1 X90.878 Y129.783 F1000.
N11505 X90.802 Y129.565
N11510 X90.725 Y129.348
N11515 X90.522 Y128.913
N11520 X90.42 Y128.695
N11525 X89.793 Y127.39
N11530 X89.549 Y126.812
N11535 X89.395 Y126.368
N11540 X89.232 Y125.784
N11545 X89.064 Y124.981
N11550 X88.928 Y124.033
N11555 X88.84 Y123.08
N11560 X88.782 Y122.124
N11565 X88.744 Y121.167
N11570 X88.719 Y120.21
N11575 X88.702 Y119.252
N11580 X88.691 Y118.294
N11585 X88.684 Y117.337
N11590 X88.679 Y116.379
N11595 X88.676 Y115.421
N11600 X88.673 Y113.506
N11605 X88.67 Y109.675
N11610 Y86.69
N11615 X88.667 Y84.775
N11620 X88.665 Y83.817
N11625 X88.66 Y82.86
N11630 X88.652 Y81.902
N11635 X88.639 Y80.944
N11640 X88.621 Y79.987
N11645 X88.594 Y79.03
N11650 X88.557 Y78.073
N11655 X88.508 Y77.116
N11660 X88.443 Y76.161
N11665 X88.36 Y75.207
N11670 X88.257 Y74.254
N11675 X88.131 Y73.305
N11680 X87.98 Y72.359
N11685 X87.803 Y71.418
N11690 X87.596 Y70.483
N11695 X87.358 Y69.555
N11700 X87.089 Y68.636
N11705 X86.786 Y67.728
N11710 X86.45 Y66.831
N11715 X86.08 Y65.948
N11720 X85.676 Y65.079
N11725 X85.238 Y64.228
N11730 X84.766 Y63.395
N11735 X84.26 Y62.581
N11740 X83.722 Y61.789
N11745 X83.153 Y61.019
N11750 X82.552 Y60.273
N11755 X81.92 Y59.553
N11760 X81.26 Y58.86
N11765 X80.57 Y58.195
N11770 X79.854 Y57.559
N11775 X79.112 Y56.954
N11780 X78.345 Y56.38
N11785 X77.555 Y55.839
N11790 X76.743 Y55.332
N11795 X75.91 Y54.859
N11800 X75.058 Y54.42
N11805 X74.189 Y54.018
N11810 X73.305 Y53.651
N11815 X72.405 Y53.323
N11820 X71.492 Y53.032
N11825 X70.569 Y52.78
N11830 X69.635 Y52.567
N11835 X68.693 Y52.393
N11840 X67.745 Y52.259
N11845 X66.792 Y52.164
N11850 X65.836 Y52.109
N11855 X64.878 Y52.094
N11860 X63.921 Y52.119
N11865 X62.965 Y52.184
N11870 X62.013 Y52.288
N11875 X61.067 Y52.433
N11880 X60.127 Y52.616
N11885 X59.195 Y52.84
N11890 X58.274 Y53.102
N11895 X57.365 Y53.402
N11900 X56.469 Y53.74
N11905 X55.588 Y54.116
N11910 X54.724 Y54.53
N11915 X53.88 Y54.981
N11920 X53.055 Y55.469
N11925 X52.254 Y55.993
N11930 X51.476 Y56.552
N11935 X50.724 Y57.144
N11940 X49.998 Y57.769
N11945 X49.298 Y58.423
N11950 X48.627 Y59.106
N11955 X47.984 Y59.816
N11960 X47.37 Y60.551
N11965 X46.784 Y61.308
N11970 X46.224 Y62.085
N11975 X45.688 Y62.879
N11980 X45.172 Y63.686
N11985 X44.67 Y64.502
N11990 X44.178 Y65.323
N11995 X43.689 Y66.146
N12000 X43.197 Y66.968
N12005 X42.697 Y67.785
N12010 X42.184 Y68.594
N12015 X41.654 Y69.391
N12020 X41.103 Y70.174
N12025 X40.546 Y70.954
N12030 X40.093 Y71.798
N12035 X39.789 Y72.706
N12040 X39.63 Y73.65
N12045 X39.599 Y74.607
N12050 X39.67 Y75.562
N12055 X39.817 Y76.509
N12060 X40.018 Y77.445
N12065 X40.254 Y78.373
N12070 X40.51 Y79.296
N12075 X40.773 Y80.217
N12080 X41.034 Y81.138
N12085 X41.287 Y82.062
N12090 X41.527 Y82.989
N12095 X41.75 Y83.921
N12100 X41.955 Y84.856
N12105 X42.141 Y85.796
N12110 X42.308 Y86.739
N12115 X42.456 Y87.685
N12120 X42.586 Y88.634
N12125 X42.699 Y89.585
N12130 X42.798 Y90.537
N12135 X42.882 Y91.491
N12140 X42.954 Y92.446
N12145 X43.014 Y93.402
N12150 X43.065 Y94.358
N12155 X43.108 Y95.315
N12160 X43.143 Y96.272
N12165 X43.172 Y97.229
N12170 X43.196 Y98.187
N12175 X43.216 Y99.144
N12180 X43.231 Y100.102
N12185 X43.244 Y101.059
N12190 X43.254 Y102.017
N12195 X43.262 Y102.975
N12200 X43.268 Y103.932
N12205 X43.273 Y104.89
N12210 X43.277 Y105.848
N12215 X43.28 Y106.805
N12220 X43.282 Y107.763
N12225 X43.281 Y108.721
N12230 X43.277 Y109.679
N12235 X43.27 Y110.636
N12240 X43.261 Y111.594
N12245 X43.25 Y112.552
N12250 X43.199 Y116.382
N12255 X43.187 Y117.34
N12260 X43.177 Y118.297
N12265 X43.168 Y119.255
N12270 X43.161 Y120.213
N12275 X43.154 Y121.17
N12280 X43.149 Y122.127
N12285 X43.125 Y122.412
N12290 X43.056 Y122.689
N12295 X42.944 Y122.952
N12300 X42.792 Y123.194
N12305 X41.933 Y124.344
N12310 X41.856 Y124.462
N12315 X41.522 Y124.997
N12320 X41.421 Y125.168
N12325 X41.105 Y125.729
N12330 G3 X40.424 Y125.992 I-0.512 J-0.313 F300.
N12335 G1 X40.334 Y125.966 Z-1.993
N12340 X40.246 Y125.94 Z-1.971
N12345 X40.163 Y125.915 Z-1.935
N12350 X40.086 Y125.893 Z-1.885
N12355 X40.017 Y125.872 Z-1.824
N12360 X39.958 Y125.855 Z-1.753
N12365 X39.911 Y125.841 Z-1.672
N12370 X39.877 Y125.831 Z-1.585
N12375 X39.855 Y125.825 Z-1.494
N12380 X39.848 Y125.823 Z-1.4
N12385 G0 Z5.
N12390 X90.819 Y128.304
N12395 Z-0.8
N12400 G1 Z-1.4 F300.
N12405 X90.813 Y128.3 Z-1.494
N12410 X90.794 Y128.288 Z-1.585
N12415 X90.764 Y128.268 Z-1.672
N12420 X90.723 Y128.241 Z-1.753
N12425 X90.672 Y128.207 Z-1.824
N12430 X90.613 Y128.168 Z-1.885
N12435 X90.546 Y128.123 Z-1.935
N12440 X90.473 Y128.075 Z-1.971
N12445 X90.397 Y128.025 Z-1.993
N12450 X90.319 Y127.973 Z-2.
N12455 G3 X89.793 Y127.39 I0.875 J-1.319
N12460 G1 X89.373 Y126.52 F1000.
N12465 X89.223 Y126.248
N12470 X89.006 Y125.861
N12475 X88.873 Y125.65
N12480 X88.307 Y124.779
N12485 X88.101 Y124.425
N12490 X87.951 Y124.125
N12495 X87.794 Y123.752
N12500 X87.629 Y123.279
N12505 X87.458 Y122.662
N12510 X87.281 Y121.822
N12515 X87.145 Y120.874
N12520 X87.055 Y119.921
N12525 X86.994 Y118.965
N12530 X86.954 Y118.008
N12535 X86.926 Y117.051
N12540 X86.908 Y116.094
N12545 X86.896 Y115.136
N12550 X86.887 Y114.178
N12555 X86.882 Y113.221
N12560 X86.878 Y112.263
N12565 X86.874 Y110.347
N12570 X86.871 Y107.474
N12575 X86.87 Y95.982
N12580 X86.869 Y87.363
N12585 X86.867 Y85.447
N12590 X86.864 Y84.49
N12595 X86.859 Y83.532
N12600 X86.851 Y82.574
N12605 X86.838 Y81.617
N12610 X86.82 Y80.659
N12615 X86.794 Y79.702
N12620 X86.759 Y78.745
N12625 X86.711 Y77.788
N12630 X86.648 Y76.833
N12635 X86.568 Y75.878
N12640 X86.468 Y74.926
N12645 X86.346 Y73.976
N12650 X86.198 Y73.03
N12655 X86.023 Y72.088
N12660 X85.818 Y71.153
N12665 X85.582 Y70.225
N12670 X85.312 Y69.306
N12675 X85.007 Y68.398
N12680 X84.666 Y67.503
N12685 X84.289 Y66.622
N12690 X83.876 Y65.759
N12695 X83.426 Y64.913
N12700 X82.941 Y64.087
N12705 X82.42 Y63.284
N12710 X81.865 Y62.503
N12715 X81.275 Y61.749
N12720 X80.653 Y61.021
N12725 X79.998 Y60.322
N12730 X79.312 Y59.654
N12735 X78.596 Y59.018
N12740 X77.852 Y58.415
N12745 X77.081 Y57.847
N12750 X76.285 Y57.315
N12755 X75.465 Y56.819
N12760 X74.625 Y56.36
N12765 X73.764 Y55.94
N12770 X72.885 Y55.559
N12775 X71.99 Y55.219
N12780 X71.08 Y54.92
N12785 X70.157 Y54.664
N12790 X69.224 Y54.45
N12795 X68.281 Y54.279
N12800 X67.332 Y54.152
N12805 X66.378 Y54.068
N12810 X65.421 Y54.027
N12815 X64.464 Y54.029
N12820 X63.507 Y54.075
N12825 X62.553 Y54.164
N12830 X61.605 Y54.297
N12835 X60.664 Y54.472
N12840 X59.731 Y54.692
N12845 X58.81 Y54.954
N12850 X57.902 Y55.258
N12855 X57.009 Y55.604
N12860 X56.134 Y55.992
N12865 X55.277 Y56.421
N12870 X54.442 Y56.89
N12875 X53.631 Y57.399
N12880 X52.845 Y57.946
N12885 X52.085 Y58.529
N12890 X51.353 Y59.147
N12895 X50.651 Y59.798
N12900 X49.98 Y60.481
N12905 X49.338 Y61.192
N12910 X48.725 Y61.928
N12915 X48.14 Y62.686
N12920 X47.58 Y63.463
N12925 X47.041 Y64.254
N12930 X46.518 Y65.057
N12935 X46.006 Y65.866
N12940 X44.995 Y67.493
N12945 X44.485 Y68.303
N12950 X43.966 Y69.108
N12955 X43.435 Y69.906
N12960 X42.909 Y70.706
N12965 X42.456 Y71.549
N12970 X42.116 Y72.445
N12975 X41.905 Y73.379
N12980 X41.81 Y74.332
N12985 X41.813 Y75.29
N12990 X41.895 Y76.244
N12995 X42.035 Y77.191
N13000 X42.217 Y78.131
N13005 X42.424 Y79.066
N13010 X42.647 Y79.998
N13015 X42.875 Y80.928
N13020 X43.101 Y81.859
N13025 X43.319 Y82.791
N13030 X43.526 Y83.726
N13035 X43.719 Y84.664
N13040 X43.896 Y85.605
N13045 X44.058 Y86.549
N13050 X44.203 Y87.496
N13055 X44.333 Y88.445
N13060 X44.447 Y89.396
N13065 X44.548 Y90.348
N13070 X44.635 Y91.302
N13075 X44.71 Y92.257
N13080 X44.775 Y93.212
N13085 X44.83 Y94.168
N13090 X44.877 Y95.125
N13095 X44.916 Y96.082
N13100 X44.949 Y97.039
N13105 X44.976 Y97.996
N13110 X44.998 Y98.954
N13115 X45.016 Y99.911
N13120 X45.031 Y100.869
N13125 X45.044 Y101.826
N13130 X45.053 Y102.784
N13135 X45.061 Y103.742
N13140 X45.068 Y104.699
N13145 X45.072 Y105.657
N13150 X45.075 Y106.615
N13155 X45.076 Y107.572
N13160 X45.075 Y108.53
N13165 X45.071 Y109.488
N13170 X45.065 Y110.445
N13175 X45.057 Y111.403
N13180 X45.047 Y112.361
N13185 X45.002 Y116.191
N13190 X44.981 Y118.107
N13195 X44.966 Y119.905
N13200 X44.931 Y120.245
N13205 X44.832 Y120.573
N13210 X44.673 Y120.876
N13215 X44.459 Y121.143
N13220 X44.097 Y121.516
N13225 X44.029 Y121.596
N13230 X43.559 Y122.169
N13235 X43.377 Y122.41
N13240 X42.792 Y123.194
N13245 G3 X42.082 Y123.368 I-0.468 J-0.375 F300.
N13250 G1 X41.996 Y123.33 Z-1.993
N13255 X41.913 Y123.293 Z-1.971
N13260 X41.833 Y123.258 Z-1.935
N13265 X41.759 Y123.226 Z-1.885
N13270 X41.694 Y123.197 Z-1.824
N13275 X41.638 Y123.173 Z-1.753
N13280 X41.593 Y123.153 Z-1.672
N13285 X41.56 Y123.138 Z-1.585
N13290 X41.54 Y123.129 Z-1.494
N13295 X41.533 Y123.126 Z-1.4
N13300 G0 Z5.
N13305 X89.442 Y125.555
N13310 Z-0.8
N13315 G1 Z-1.4 F300.
N13320 X89.435 Y125.552 Z-1.494
N13325 X89.415 Y125.542 Z-1.585
N13330 X89.383 Y125.526 Z-1.672
N13335 X89.339 Y125.505 Z-1.753
N13340 X89.284 Y125.478 Z-1.824
N13345 X89.22 Y125.446 Z-1.885
N13350 X89.148 Y125.41 Z-1.935
N13355 X89.07 Y125.372 Z-1.971
N13360 X88.988 Y125.332 Z-1.993
N13365 X88.903 Y125.29 Z-2.
N13370 G3 X88.307 Y124.779 I0.699 J-1.42
N13375 G1 X87.485 Y123.517 F1000.
N13380 X87.313 Y123.257
N13385 X87.146 Y123.039
N13390 X87.05 Y122.919
N13395 X86.833 Y122.664
N13400 X86.655 Y122.433
N13405 X86.511 Y122.219
N13410 X86.358 Y121.954
N13415 X86.201 Y121.641
N13420 X86.032 Y121.241
N13425 X85.861 Y120.749
N13430 X85.682 Y120.106
N13435 X85.498 Y119.231
N13440 X85.362 Y118.283
N13445 X85.269 Y117.33
N13450 X85.207 Y116.374
N13455 X85.164 Y115.417
N13460 X85.134 Y114.46
N13465 X85.114 Y113.502
N13470 X85.1 Y112.545
N13475 X85.091 Y111.587
N13480 X85.084 Y110.63
N13485 X85.08 Y109.672
N13490 X85.074 Y107.756
N13495 X85.071 Y104.883
N13500 X85.07 Y97.222
N13505 X85.069 Y88.603
N13510 X85.067 Y86.687
N13515 X85.065 Y85.729
N13520 X85.061 Y84.772
N13525 X85.055 Y83.814
N13530 X85.046 Y82.856
N13535 X85.031 Y81.899
N13540 X85.011 Y80.941
N13545 X84.982 Y79.984
N13550 X84.943 Y79.027
N13555 X84.892 Y78.071
N13560 X84.825 Y77.116
N13565 X84.74 Y76.162
N13570 X84.635 Y75.21
N13575 X84.505 Y74.261
N13580 X84.349 Y73.316
N13585 X84.163 Y72.376
N13590 X83.946 Y71.444
N13595 X83.695 Y70.52
N13600 X83.407 Y69.606
N13605 X83.083 Y68.705
N13610 X82.721 Y67.818
N13615 X82.321 Y66.948
N13620 X81.881 Y66.097
N13625 X81.404 Y65.267
N13630 X80.887 Y64.461
N13635 X80.332 Y63.68
N13640 X79.74 Y62.927
N13645 X79.112 Y62.205
N13650 X78.448 Y61.514
N13655 X77.752 Y60.857
N13660 X77.023 Y60.235
N13665 X76.265 Y59.651
N13670 X75.478 Y59.104
N13675 X74.666 Y58.597
N13680 X73.829 Y58.132
N13685 X72.969 Y57.71
N13690 X72.089 Y57.331
N13695 X71.192 Y56.997
N13700 X70.278 Y56.709
N13705 X69.352 Y56.468
N13710 X68.414 Y56.273
N13715 X67.468 Y56.125
N13720 X66.515 Y56.024
N13725 X65.559 Y55.971
N13730 X64.601 Y55.967
N13735 X63.645 Y56.01
N13740 X62.691 Y56.103
N13745 X61.744 Y56.243
N13750 X60.805 Y56.431
N13755 X59.877 Y56.666
N13760 X58.961 Y56.948
N13765 X58.062 Y57.277
N13770 X57.18 Y57.651
N13775 X56.32 Y58.072
N13780 X55.483 Y58.537
N13785 X54.672 Y59.046
N13790 X53.888 Y59.596
N13795 X53.134 Y60.186
N13800 X52.41 Y60.814
N13805 X51.718 Y61.476
N13810 X51.057 Y62.169
N13815 X50.426 Y62.89
N13820 X49.824 Y63.634
N13825 X49.247 Y64.398
N13830 X48.691 Y65.178
N13835 X48.151 Y65.969
N13840 X47.623 Y66.768
N13845 X47.102 Y67.572
N13850 X46.582 Y68.376
N13855 X46.06 Y69.179
N13860 X45.535 Y69.98
N13865 X45.038 Y70.798
N13870 X44.611 Y71.656
N13875 X44.287 Y72.557
N13880 X44.073 Y73.49
N13885 X43.962 Y74.442
N13890 X43.939 Y75.399
N13895 X43.988 Y76.355
N13900 X44.093 Y77.307
N13905 X44.239 Y78.254
N13910 X44.412 Y79.196
N13915 X44.602 Y80.135
N13920 X44.8 Y81.072
N13925 X44.999 Y82.008
N13930 X45.193 Y82.946
N13935 X45.38 Y83.885
N13940 X45.556 Y84.827
N13945 X45.72 Y85.77
N13950 X45.87 Y86.716
N13955 X46.007 Y87.664
N13960 X46.13 Y88.614
N13965 X46.24 Y89.565
N13970 X46.337 Y90.518
N13975 X46.422 Y91.472
N13980 X46.496 Y92.427
N13985 X46.56 Y93.382
N13990 X46.615 Y94.338
N13995 X46.663 Y95.295
N14000 X46.703 Y96.252
N14005 X46.736 Y97.209
N14010 X46.765 Y98.166
N14015 X46.788 Y99.124
N14020 X46.808 Y100.081
N14025 X46.824 Y101.039
N14030 X46.837 Y101.996
N14035 X46.848 Y102.954
N14040 X46.856 Y103.912
N14045 X46.863 Y104.869
N14050 X46.868 Y105.827
N14055 X46.87 Y106.785
N14060 Y107.742
N14065 X46.868 Y108.7
N14070 X46.864 Y109.658
N14075 X46.858 Y110.615
N14080 X46.85 Y111.573
N14085 X46.831 Y113.488
N14090 X46.8 Y116.361
N14095 X46.78 Y118.277
N14100 X46.742 Y118.883
N14105 X46.419 Y119.146
N14110 X46.201 Y119.347
N14115 X45.984 Y119.568
N14120 X44.459 Y121.143
N14125 G3 X43.733 Y121.224 I-0.416 J-0.432 F300.
N14130 G1 X43.653 Y121.176 Z-1.993
N14135 X43.574 Y121.129 Z-1.971
N14140 X43.5 Y121.084 Z-1.935
N14145 X43.431 Y121.042 Z-1.885
N14150 X43.37 Y121.005 Z-1.824
N14155 X43.318 Y120.974 Z-1.753
N14160 X43.275 Y120.948 Z-1.672
N14165 X43.245 Y120.93 Z-1.585
N14170 X43.226 Y120.919 Z-1.494
N14175 X43.219 Y120.915 Z-1.4
N14180 G0 Z5.
N14185 X88.058 Y123.288
N14190 Z-0.8
N14195 G1 Z-1.4 F300.
N14200 X88.051 Y123.286 Z-1.494
N14205 X88.03 Y123.279 Z-1.585
N14210 X87.996 Y123.267 Z-1.672
N14215 X87.949 Y123.251 Z-1.753
N14220 X87.891 Y123.231 Z-1.824
N14225 X87.824 Y123.208 Z-1.885
N14230 X87.748 Y123.182 Z-1.935
N14235 X87.665 Y123.154 Z-1.971
N14240 X87.579 Y123.125 Z-1.993
N14245 X87.49 Y123.094 Z-2.
N14250 G3 X86.833 Y122.664 I0.512 J-1.498
N14255 G1 X85.3 Y120.864 F1000.
N14260 X85.191 Y120.744
N14265 X85.016 Y120.531
N14270 X84.859 Y120.314
N14275 X84.707 Y120.071
N14280 X84.54 Y119.763
N14285 X84.368 Y119.39
N14290 X84.188 Y118.924
N14295 X84.005 Y118.341
N14300 X83.815 Y117.568
N14305 X83.647 Y116.625
N14310 X83.532 Y115.674
N14315 X83.452 Y114.72
N14320 X83.397 Y113.764
N14325 X83.358 Y112.807
N14330 X83.331 Y111.85
N14335 X83.313 Y110.892
N14340 X83.3 Y109.934
N14345 X83.291 Y108.977
N14350 X83.284 Y108.019
N14355 X83.28 Y107.061
N14360 X83.275 Y105.146
N14365 X83.272 Y102.273
N14370 X83.27 Y94.611
N14375 X83.269 Y88.865
N14380 X83.266 Y86.95
N14385 X83.263 Y85.992
N14390 X83.258 Y85.034
N14395 X83.251 Y84.077
N14400 X83.24 Y83.119
N14405 X83.223 Y82.162
N14410 X83.2 Y81.204
N14415 X83.169 Y80.247
N14420 X83.126 Y79.29
N14425 X83.071 Y78.334
N14430 X82.999 Y77.379
N14435 X82.909 Y76.426
N14440 X82.796 Y75.475
N14445 X82.658 Y74.527
N14450 X82.491 Y73.584
N14455 X82.292 Y72.647
N14460 X82.059 Y71.718
N14465 X81.789 Y70.799
N14470 X81.482 Y69.892
N14475 X81.134 Y69.
N14480 X80.746 Y68.124
N14485 X80.317 Y67.268
N14490 X79.846 Y66.434
N14495 X79.332 Y65.626
N14500 X78.776 Y64.847
N14505 X78.179 Y64.098
N14510 X77.542 Y63.382
N14515 X76.868 Y62.702
N14520 X76.158 Y62.059
N14525 X75.414 Y61.456
N14530 X74.638 Y60.895
N14535 X73.832 Y60.377
N14540 X72.998 Y59.906
N14545 X72.139 Y59.483
N14550 X71.258 Y59.109
N14555 X70.357 Y58.784
N14560 X69.439 Y58.51
N14565 X68.508 Y58.287
N14570 X67.565 Y58.116
N14575 X66.615 Y57.998
N14580 X65.66 Y57.933
N14585 X64.702 Y57.924
N14590 X63.745 Y57.968
N14595 X62.793 Y58.066
N14600 X61.847 Y58.217
N14605 X60.911 Y58.421
N14610 X59.989 Y58.678
N14615 X59.082 Y58.987
N14620 X58.195 Y59.348
N14625 X57.331 Y59.761
N14630 X56.493 Y60.224
N14635 X55.683 Y60.735
N14640 X54.903 Y61.291
N14645 X54.156 Y61.89
N14650 X53.441 Y62.527
N14655 X52.759 Y63.2
N14660 X52.108 Y63.903
N14665 X51.487 Y64.631
N14670 X50.892 Y65.382
N14675 X50.318 Y66.148
N14680 X49.762 Y66.928
N14685 X49.218 Y67.716
N14690 X48.681 Y68.509
N14695 X48.149 Y69.305
N14700 X47.627 Y70.109
N14705 X47.146 Y70.937
N14710 X46.735 Y71.802
N14715 X46.417 Y72.705
N14720 X46.198 Y73.637
N14725 X46.072 Y74.587
N14730 X46.027 Y75.543
N14735 X46.049 Y76.501
N14740 X46.125 Y77.456
N14745 X46.241 Y78.406
N14750 X46.384 Y79.353
N14755 X46.546 Y80.297
N14760 X46.718 Y81.239
N14765 X46.894 Y82.181
N14770 X47.068 Y83.122
N14775 X47.236 Y84.065
N14780 X47.397 Y85.009
N14785 X47.548 Y85.955
N14790 X47.688 Y86.902
N14795 X47.816 Y87.851
N14800 X47.932 Y88.802
N14805 X48.037 Y89.754
N14810 X48.13 Y90.707
N14815 X48.213 Y91.661
N14820 X48.285 Y92.616
N14825 X48.349 Y93.572
N14830 X48.404 Y94.528
N14835 X48.451 Y95.484
N14840 X48.491 Y96.441
N14845 X48.526 Y97.398
N14850 X48.555 Y98.356
N14855 X48.579 Y99.313
N14860 X48.6 Y100.271
N14865 X48.617 Y101.228
N14870 X48.631 Y102.186
N14875 X48.642 Y103.143
N14880 X48.651 Y104.101
N14885 X48.658 Y105.059
N14890 X48.662 Y106.016
N14895 X48.664 Y106.974
N14900 Y107.932
N14905 X48.662 Y108.889
N14910 X48.658 Y109.847
N14915 X48.652 Y110.805
N14920 X48.644 Y111.762
N14925 X48.627 Y113.678
N14930 X48.598 Y116.551
N14935 X48.596 Y116.593
N14940 X48.559 Y116.901
N14945 X48.47 Y117.199
N14950 X48.33 Y117.477
N14955 X48.145 Y117.727
N14960 X47.92 Y117.941
N14965 X46.983 Y118.688
N14970 X46.742 Y118.883
N14975 G3 X46.012 Y118.878 I-0.362 J-0.479 F300.
N14980 G1 X45.938 Y118.821 Z-1.993
N14985 X45.866 Y118.764 Z-1.971
N14990 X45.797 Y118.711 Z-1.935
N14995 X45.734 Y118.662 Z-1.885
N15000 X45.677 Y118.618 Z-1.824
N15005 X45.629 Y118.58 Z-1.753
N15010 X45.59 Y118.55 Z-1.672
N15015 X45.562 Y118.528 Z-1.585
N15020 X45.544 Y118.514 Z-1.494
N15025 X45.538 Y118.51 Z-1.4
N15030 G0 Z5.
N15035 X86.436 Y121.327
N15040 Z-0.8
N15045 G1 Z-1.4 F300.
N15050 X86.429 Y121.325 Z-1.494
N15055 X86.408 Y121.319 Z-1.585
N15060 X86.374 Y121.308 Z-1.672
N15065 X86.327 Y121.294 Z-1.753
N15070 X86.268 Y121.276 Z-1.824
N15075 X86.2 Y121.255 Z-1.885
N15080 X86.123 Y121.232 Z-1.935
N15085 X86.04 Y121.206 Z-1.971
N15090 X85.952 Y121.18 Z-1.993
N15095 X85.862 Y121.152 Z-2.
N15100 G3 X85.191 Y120.744 I0.461 J-1.514
N15105 G1 X85.095 Y120.638 F1000.
N15110 X84.66 Y120.194
N15115 X84.443 Y119.989
N15120 X83.729 Y119.341
N15125 X83.536 Y119.147
N15130 X83.388 Y118.978
N15135 X83.222 Y118.762
N15140 X83.061 Y118.522
N15145 X82.888 Y118.226
N15150 X82.706 Y117.86
N15155 X82.521 Y117.423
N15160 X82.33 Y116.873
N15165 X82.132 Y116.164
N15170 X81.935 Y115.226
N15175 X81.798 Y114.279
N15180 X81.701 Y113.326
N15185 X81.633 Y112.371
N15190 X81.585 Y111.414
N15195 X81.551 Y110.457
N15200 X81.527 Y109.5
N15205 X81.51 Y108.542
N15210 X81.498 Y107.584
N15215 X81.49 Y106.627
N15220 X81.484 Y105.669
N15225 X81.48 Y104.711
N15230 X81.475 Y102.796
N15235 X81.472 Y99.923
N15240 X81.469 Y90.346
N15245 X81.467 Y88.431
N15250 X81.465 Y87.473
N15255 X81.462 Y86.515
N15260 X81.457 Y85.558
N15265 X81.449 Y84.6
N15270 X81.437 Y83.642
N15275 X81.42 Y82.685
N15280 X81.397 Y81.727
N15285 X81.365 Y80.77
N15290 X81.322 Y79.813
N15295 X81.266 Y78.857
N15300 X81.194 Y77.902
N15305 X81.102 Y76.949
N15310 X80.987 Y75.998
N15315 X80.847 Y75.051
N15320 X80.676 Y74.108
N15325 X80.473 Y73.173
N15330 X80.232 Y72.246
N15335 X79.952 Y71.33
N15340 X79.632 Y70.427
N15345 X79.268 Y69.542
N15350 X78.859 Y68.675
N15355 X78.406 Y67.832
N15360 X77.906 Y67.015
N15365 X77.361 Y66.227
N15370 X76.77 Y65.474
N15375 X76.135 Y64.757
N15380 X75.458 Y64.079
N15385 X74.741 Y63.444
N15390 X73.987 Y62.854
N15395 X73.197 Y62.312
N15400 X72.376 Y61.82
N15405 X71.525 Y61.38
N15410 X70.648 Y60.996
N15415 X69.748 Y60.668
N15420 X68.83 Y60.397
N15425 X67.896 Y60.184
N15430 X66.951 Y60.03
N15435 X65.998 Y59.936
N15440 X65.04 Y59.902
N15445 X64.083 Y59.931
N15450 X63.13 Y60.02
N15455 X62.184 Y60.171
N15460 X61.25 Y60.382
N15465 X60.331 Y60.653
N15470 X59.432 Y60.983
N15475 X58.557 Y61.372
N15480 X57.709 Y61.817
N15485 X56.892 Y62.316
N15490 X56.108 Y62.866
N15495 X55.358 Y63.462
N15500 X54.643 Y64.099
N15505 X53.961 Y64.772
N15510 X53.311 Y65.475
N15515 X52.689 Y66.203
N15520 X52.09 Y66.951
N15525 X51.511 Y67.714
N15530 X50.948 Y68.488
N15535 X50.397 Y69.271
N15540 X49.865 Y70.068
N15545 X49.372 Y70.889
N15550 X48.945 Y71.746
N15555 X48.601 Y72.64
N15560 X48.347 Y73.563
N15565 X48.183 Y74.507
N15570 X48.098 Y75.461
N15575 X48.081 Y76.418
N15580 X48.118 Y77.375
N15585 X48.199 Y78.33
N15590 X48.31 Y79.281
N15595 X48.443 Y80.229
N15600 X48.59 Y81.176
N15605 X48.744 Y82.121
N15610 X48.9 Y83.066
N15615 X49.054 Y84.011
N15620 X49.202 Y84.957
N15625 X49.344 Y85.904
N15630 X49.476 Y86.853
N15635 X49.599 Y87.803
N15640 X49.712 Y88.754
N15645 X49.814 Y89.706
N15650 X49.906 Y90.659
N15655 X49.988 Y91.613
N15660 X50.061 Y92.568
N15665 X50.125 Y93.524
N15670 X50.181 Y94.48
N15675 X50.23 Y95.436
N15680 X50.272 Y96.393
N15685 X50.308 Y97.35
N15690 X50.339 Y98.307
N15695 X50.365 Y99.265
N15700 X50.387 Y100.222
N15705 X50.405 Y101.18
N15710 X50.421 Y102.137
N15715 X50.433 Y103.095
N15720 X50.443 Y104.052
N15725 X50.45 Y105.01
N15730 X50.455 Y105.968
N15735 X50.458 Y106.925
N15740 Y107.883
N15745 X50.456 Y108.841
N15750 X50.452 Y109.798
N15755 X50.447 Y110.756
N15760 X50.433 Y112.672
N15765 X50.416 Y114.587
N15770 X50.392 Y115.291
N15775 X50.384 Y115.377
N15780 X50.321 Y115.703
N15785 X50.2 Y116.011
N15790 X50.024 Y116.292
N15795 X49.8 Y116.536
N15800 X49.535 Y116.735
N15805 X49.188 Y116.948
N15810 X48.899 Y117.166
N15815 X48.809 Y117.234
N15820 X48.592 Y117.405
N15825 X47.92 Y117.941
N15830 G3 X47.189 Y117.929 I-0.357 J-0.482 F300.
N15835 G1 X47.116 Y117.871 Z-1.993
N15840 X47.044 Y117.814 Z-1.971
N15845 X46.976 Y117.76 Z-1.935
N15850 X46.913 Y117.71 Z-1.885
N15855 X46.857 Y117.666 Z-1.824
N15860 X46.809 Y117.628 Z-1.753
N15865 X46.77 Y117.597 Z-1.672
N15870 X46.742 Y117.575 Z-1.585
N15875 X46.725 Y117.561 Z-1.494
N15880 X46.719 Y117.557 Z-1.4
N15885 G0 Z5.
N15890 X85.024 Y119.803
N15895 Z-0.8
N15900 G1 Z-1.4 F300.
N15905 X85.017 Y119.802 Z-1.494
N15910 X84.995 Y119.798 Z-1.585
N15915 X84.96 Y119.79 Z-1.672
N15920 X84.912 Y119.781 Z-1.753
N15925 X84.852 Y119.768 Z-1.824
N15930 X84.782 Y119.754 Z-1.885
N15935 X84.703 Y119.738 Z-1.935
N15940 X84.618 Y119.721 Z-1.971
N15945 X84.528 Y119.702 Z-1.993
N15950 X84.436 Y119.684 Z-2.
N15955 G3 X83.729 Y119.341 I0.316 J-1.551
N15960 G1 X82.922 Y118.608 F1000.
N15965 X82.487 Y118.216
N15970 X82.27 Y118.03
N15975 X82.204 Y117.983
N15980 X82.068 Y117.874
N15985 X81.934 Y117.752
N15990 X81.786 Y117.599
N15995 X81.619 Y117.403
N16000 X81.452 Y117.178
N16005 X81.28 Y116.913
N16010 X81.09 Y116.576
N16015 X80.907 Y116.195
N16020 X80.708 Y115.704
N16025 X80.51 Y115.106
N16030 X80.307 Y114.329
N16035 X80.124 Y113.389
N16040 X79.994 Y112.44
N16045 X79.902 Y111.487
N16050 X79.836 Y110.531
N16055 X79.788 Y109.575
N16060 X79.755 Y108.617
N16065 X79.73 Y107.66
N16070 X79.713 Y106.703
N16075 X79.701 Y105.745
N16080 X79.692 Y104.787
N16085 X79.685 Y103.83
N16090 X79.681 Y102.872
N16095 X79.676 Y100.957
N16100 X79.672 Y98.083
N16105 X79.669 Y90.422
N16110 X79.666 Y88.506
N16115 X79.663 Y87.549
N16120 X79.659 Y86.591
N16125 X79.652 Y85.633
N16130 X79.642 Y84.676
N16135 X79.628 Y83.718
N16140 X79.608 Y82.761
N16145 X79.58 Y81.803
N16150 X79.543 Y80.846
N16155 X79.494 Y79.89
N16160 X79.431 Y78.934
N16165 X79.348 Y77.98
N16170 X79.244 Y77.028
N16175 X79.115 Y76.079
N16180 X78.956 Y75.135
N16185 X78.764 Y74.197
N16190 X78.535 Y73.267
N16195 X78.265 Y72.348
N16200 X77.953 Y71.443
N16205 X77.594 Y70.554
N16210 X77.187 Y69.688
N16215 X76.729 Y68.847
N16220 X76.22 Y68.035
N16225 X75.661 Y67.258
N16230 X75.052 Y66.519
N16235 X74.396 Y65.821
N16240 X73.694 Y65.17
N16245 X72.947 Y64.57
N16250 X72.16 Y64.024
N16255 X71.336 Y63.536
N16260 X70.48 Y63.108
N16265 X69.595 Y62.742
N16270 X68.686 Y62.44
N16275 X67.757 Y62.205
N16280 X66.814 Y62.039
N16285 X65.861 Y61.942
N16290 X64.904 Y61.916
N16295 X63.947 Y61.96
N16300 X62.996 Y62.073
N16305 X62.056 Y62.257
N16310 X61.133 Y62.512
N16315 X60.232 Y62.836
N16320 X59.358 Y63.227
N16325 X58.515 Y63.681
N16330 X57.705 Y64.194
N16335 X56.932 Y64.758
N16340 X56.195 Y65.37
N16345 X55.493 Y66.022
N16350 X54.824 Y66.707
N16355 X54.185 Y67.42
N16360 X53.571 Y68.155
N16365 X52.978 Y68.907
N16370 X52.408 Y69.677
N16375 X51.871 Y70.469
N16380 X51.384 Y71.294
N16385 X50.966 Y72.156
N16390 X50.634 Y73.054
N16395 X50.388 Y73.98
N16400 X50.225 Y74.923
N16405 X50.135 Y75.877
N16410 X50.108 Y76.834
N16415 X50.133 Y77.792
N16420 X50.197 Y78.747
N16425 X50.291 Y79.7
N16430 X50.406 Y80.651
N16435 X50.534 Y81.6
N16440 X50.67 Y82.548
N16445 X50.947 Y84.443
N16450 X51.081 Y85.392
N16455 X51.209 Y86.341
N16460 X51.33 Y87.291
N16465 X51.442 Y88.242
N16470 X51.546 Y89.194
N16475 X51.641 Y90.147
N16480 X51.726 Y91.101
N16485 X51.803 Y92.055
N16490 X51.872 Y93.011
N16495 X51.932 Y93.966
N16500 X51.985 Y94.923
N16505 X52.032 Y95.879
N16510 X52.072 Y96.836
N16515 X52.107 Y97.793
N16520 X52.137 Y98.75
N16525 X52.163 Y99.708
N16530 X52.185 Y100.665
N16535 X52.203 Y101.623
N16540 X52.218 Y102.58
N16545 X52.23 Y103.538
N16550 X52.239 Y104.495
N16555 X52.245 Y105.453
N16560 X52.25 Y106.411
N16565 X52.251 Y107.368
N16570 Y108.326
N16575 X52.249 Y109.284
N16580 X52.245 Y110.242
N16585 X52.24 Y111.199
N16590 X52.234 Y112.157
N16595 X52.224 Y113.115
N16600 X52.2 Y113.898
N16605 X52.162 Y114.293
N16610 X52.099 Y114.621
N16615 X51.977 Y114.933
N16620 X51.799 Y115.216
N16625 X51.572 Y115.461
N16630 X51.303 Y115.661
N16635 X49.895 Y116.514
N16640 X49.535 Y116.735
N16645 G3 X48.811 Y116.634 I-0.296 J-0.522 F300.
N16650 G1 X48.745 Y116.567 Z-1.993
N16655 X48.681 Y116.502 Z-1.971
N16660 X48.62 Y116.44 Z-1.935
N16665 X48.564 Y116.383 Z-1.885
N16670 X48.513 Y116.332 Z-1.824
N16675 X48.47 Y116.288 Z-1.753
N16680 X48.436 Y116.253 Z-1.672
N16685 X48.411 Y116.227 Z-1.585
N16690 X48.395 Y116.212 Z-1.494
N16695 X48.39 Y116.207 Z-1.4
N16700 G0 Z5.
N16705 X83.543 Y118.297
N16710 Z-0.8
N16715 G1 Z-1.4 F300.
N16720 X83.535 Y118.296 Z-1.494
N16725 X83.513 Y118.294 Z-1.585
N16730 X83.477 Y118.291 Z-1.672
N16735 X83.428 Y118.287 Z-1.753
N16740 X83.368 Y118.281 Z-1.824
N16745 X83.296 Y118.275 Z-1.885
N16750 X83.216 Y118.268 Z-1.935
N16755 X83.13 Y118.26 Z-1.971
N16760 X83.038 Y118.252 Z-1.993
N16765 X82.945 Y118.244 Z-2.
N16770 G3 X82.204 Y117.983 I0.139 J-1.576
N16775 G1 X82.053 Y117.874 F1000.
N16780 X81.618 Y117.568
N16785 X80.62 Y116.872
N16790 X80.452 Y116.742
N16795 X80.307 Y116.614
N16800 X80.141 Y116.447
N16805 X79.971 Y116.253
N16810 X79.796 Y116.027
N16815 X79.6 Y115.735
N16820 X79.413 Y115.412
N16825 X79.21 Y115.007
N16830 X79.007 Y114.528
N16835 X78.795 Y113.919
N16840 X78.581 Y113.151
N16845 X78.384 Y112.213
N16850 X78.242 Y111.266
N16855 X78.14 Y110.314
N16860 X78.065 Y109.359
N16865 X78.012 Y108.403
N16870 X77.972 Y107.446
N16875 X77.944 Y106.489
N16880 X77.923 Y105.531
N16885 X77.908 Y104.574
N16890 X77.898 Y103.616
N16895 X77.89 Y102.659
N16900 X77.884 Y101.701
N16905 X77.88 Y100.743
N16910 X77.875 Y98.828
N16915 X77.872 Y95.955
N16920 X77.869 Y91.166
N16925 X77.866 Y89.251
N16930 X77.863 Y88.293
N16935 X77.859 Y87.336
N16940 X77.853 Y86.378
N16945 X77.843 Y85.42
N16950 X77.83 Y84.463
N16955 X77.811 Y83.505
N16960 X77.785 Y82.548
N16965 X77.75 Y81.591
N16970 X77.703 Y80.634
N16975 X77.641 Y79.678
N16980 X77.562 Y78.724
N16985 X77.461 Y77.772
N16990 X77.335 Y76.822
N16995 X77.178 Y75.878
N17000 X76.987 Y74.939
N17005 X76.758 Y74.009
N17010 X76.485 Y73.091
N17015 X76.164 Y72.189
N17020 X75.791 Y71.307
N17025 X75.365 Y70.449
N17030 X74.883 Y69.622
N17035 X74.345 Y68.829
N17040 X73.751 Y68.078
N17045 X73.101 Y67.374
N17050 X72.398 Y66.724
N17055 X71.645 Y66.133
N17060 X70.847 Y65.604
N17065 X70.008 Y65.141
N17070 X69.133 Y64.752
N17075 X68.228 Y64.438
N17080 X67.3 Y64.203
N17085 X66.355 Y64.048
N17090 X65.4 Y63.974
N17095 X64.442 Y63.984
N17100 X63.489 Y64.079
N17105 X62.548 Y64.259
N17110 X61.627 Y64.52
N17115 X60.732 Y64.861
N17120 X59.868 Y65.274
N17125 X59.041 Y65.757
N17130 X58.252 Y66.3
N17135 X57.502 Y66.895
N17140 X56.788 Y67.534
N17145 X56.108 Y68.209
N17150 X55.46 Y68.913
N17155 X54.841 Y69.644
N17160 X54.259 Y70.405
N17165 X53.725 Y71.199
N17170 X53.259 Y72.036
N17175 X52.873 Y72.913
N17180 X52.572 Y73.822
N17185 X52.353 Y74.754
N17190 X52.21 Y75.701
N17195 X52.135 Y76.656
N17200 X52.116 Y77.613
N17205 X52.142 Y78.571
N17210 X52.202 Y79.527
N17215 X52.288 Y80.48
N17220 X52.393 Y81.432
N17225 X52.509 Y82.383
N17230 X52.631 Y83.333
N17235 X52.755 Y84.283
N17240 X52.878 Y85.232
N17245 X52.998 Y86.182
N17250 X53.112 Y87.133
N17255 X53.22 Y88.085
N17260 X53.32 Y89.037
N17265 X53.413 Y89.991
N17270 X53.498 Y90.945
N17275 X53.574 Y91.899
N17280 X53.644 Y92.854
N17285 X53.705 Y93.81
N17290 X53.76 Y94.766
N17295 X53.808 Y95.723
N17300 X53.851 Y96.679
N17305 X53.887 Y97.636
N17310 X53.919 Y98.594
N17315 X53.947 Y99.551
N17320 X53.97 Y100.508
N17325 X53.99 Y101.466
N17330 X54.006 Y102.423
N17335 X54.019 Y103.381
N17340 X54.029 Y104.339
N17345 X54.037 Y105.296
N17350 X54.042 Y106.254
N17355 X54.045 Y107.212
N17360 Y108.169
N17365 X54.044 Y109.127
N17370 X54.041 Y110.085
N17375 X54.036 Y111.042
N17380 X54.025 Y112.
N17385 X53.994 Y112.818
N17390 X53.94 Y113.346
N17395 X53.918 Y113.478
N17400 X53.825 Y113.82
N17405 X53.667 Y114.138
N17410 X53.449 Y114.419
N17415 X53.18 Y114.651
N17420 X52.871 Y114.826
N17425 X52.72 Y114.893
N17430 X52.285 Y115.093
N17435 X52.068 Y115.2
N17440 X52.054 Y115.208
N17445 X51.851 Y115.329
N17450 X51.303 Y115.661
N17455 G3 X50.58 Y115.555 I-0.293 J-0.524 F300.
N17460 G1 X50.515 Y115.488 Z-1.993
N17465 X50.451 Y115.423 Z-1.971
N17470 X50.39 Y115.36 Z-1.935
N17475 X50.334 Y115.303 Z-1.885
N17480 X50.284 Y115.251 Z-1.824
N17485 X50.242 Y115.208 Z-1.753
N17490 X50.207 Y115.172 Z-1.672
N17495 X50.182 Y115.146 Z-1.585
N17500 X50.167 Y115.131 Z-1.494
N17505 X50.162 Y115.125 Z-1.4
N17510 G0 Z5.
N17515 X81.963 Y117.166
N17520 Z-0.8
N17525 G1 Z-1.4 F300.
N17530 X81.956 Y117.165 Z-1.494
N17535 X81.934 Y117.163 Z-1.585
N17540 X81.898 Y117.161 Z-1.672
N17545 X81.849 Y117.157 Z-1.753
N17550 X81.788 Y117.153 Z-1.824
N17555 X81.717 Y117.148 Z-1.885
N17560 X81.637 Y117.142 Z-1.935
N17565 X81.55 Y117.136 Z-1.971
N17570 X81.459 Y117.129 Z-1.993
N17575 X81.365 Y117.122 Z-2.
N17580 G3 X80.62 Y116.872 I0.115 J-1.578
N17585 G1 X79.663 Y116.205 F1000.
N17590 X79.468 Y116.078
N17595 X79.228 Y115.937
N17600 X79.095 Y115.86
N17605 X78.966 Y115.784
N17610 X78.816 Y115.674
N17615 X78.669 Y115.551
N17620 X78.504 Y115.394
N17625 X78.321 Y115.197
N17630 X78.147 Y114.982
N17635 X77.951 Y114.706
N17640 X77.749 Y114.38
N17645 X77.546 Y113.999
N17650 X77.333 Y113.53
N17655 X77.116 Y112.955
N17660 X76.899 Y112.25
N17665 X76.677 Y111.318
N17670 X76.515 Y110.374
N17675 X76.397 Y109.424
N17680 X76.31 Y108.47
N17685 X76.246 Y107.515
N17690 X76.199 Y106.558
N17695 X76.164 Y105.601
N17700 X76.139 Y104.644
N17705 X76.12 Y103.686
N17710 X76.106 Y102.728
N17715 X76.097 Y101.771
N17720 X76.089 Y100.813
N17725 X76.084 Y99.855
N17730 X76.08 Y98.898
N17735 X76.075 Y96.982
N17740 X76.071 Y93.152
N17745 X76.067 Y90.279
N17750 X76.065 Y89.321
N17755 X76.061 Y88.363
N17760 X76.055 Y87.405
N17765 X76.047 Y86.448
N17770 X76.036 Y85.49
N17775 X76.02 Y84.533
N17780 X75.997 Y83.575
N17785 X75.967 Y82.618
N17790 X75.926 Y81.661
N17795 X75.872 Y80.705
N17800 X75.801 Y79.75
N17805 X75.71 Y78.797
N17810 X75.593 Y77.846
N17815 X75.448 Y76.899
N17820 X75.267 Y75.959
N17825 X75.047 Y75.027
N17830 X74.781 Y74.107
N17835 X74.465 Y73.203
N17840 X74.091 Y72.321
N17845 X73.657 Y71.468
N17850 X73.159 Y70.649
N17855 X72.598 Y69.873
N17860 X71.973 Y69.148
N17865 X71.284 Y68.482
N17870 X70.536 Y67.884
N17875 X69.734 Y67.361
N17880 X68.884 Y66.919
N17885 X67.994 Y66.566
N17890 X67.072 Y66.307
N17895 X66.128 Y66.146
N17900 X65.172 Y66.085
N17905 X64.215 Y66.127
N17910 X63.269 Y66.273
N17915 X62.343 Y66.518
N17920 X61.446 Y66.855
N17925 X60.586 Y67.274
N17930 X59.765 Y67.767
N17935 X58.985 Y68.324
N17940 X58.246 Y68.932
N17945 X57.546 Y69.586
N17950 X56.888 Y70.282
N17955 X56.278 Y71.021
N17960 X55.73 Y71.806
N17965 X55.26 Y72.64
N17970 X54.875 Y73.517
N17975 X54.576 Y74.427
N17980 X54.359 Y75.36
N17985 X54.216 Y76.307
N17990 X54.136 Y77.261
N17995 X54.11 Y78.218
N18000 X54.127 Y79.176
N18005 X54.176 Y80.132
N18010 X54.25 Y81.087
N18015 X54.341 Y82.041
N18020 X54.443 Y82.993
N18025 X54.552 Y83.944
N18030 X54.773 Y85.847
N18035 X54.881 Y86.799
N18040 X54.984 Y87.751
N18045 X55.082 Y88.703
N18050 X55.173 Y89.657
N18055 X55.257 Y90.611
N18060 X55.335 Y91.565
N18065 X55.405 Y92.52
N18070 X55.469 Y93.476
N18075 X55.526 Y94.432
N18080 X55.576 Y95.388
N18085 X55.621 Y96.345
N18090 X55.661 Y97.302
N18095 X55.695 Y98.259
N18100 X55.725 Y99.216
N18105 X55.75 Y100.174
N18110 X55.772 Y101.131
N18115 X55.79 Y102.089
N18120 X55.805 Y103.046
N18125 X55.817 Y104.004
N18130 X55.826 Y104.961
N18135 X55.833 Y105.919
N18140 X55.837 Y106.877
N18145 X55.839 Y107.834
N18150 Y108.792
N18155 X55.836 Y109.75
N18160 X55.826 Y110.707
N18165 X55.797 Y111.665
N18170 X55.743 Y112.26
N18175 X55.672 Y112.718
N18180 X55.656 Y112.791
N18185 X55.553 Y113.112
N18190 X55.392 Y113.407
N18195 X55.179 Y113.668
N18200 X54.921 Y113.884
N18205 X54.627 Y114.049
N18210 X52.871 Y114.826
N18215 G3 X52.168 Y114.629 I-0.224 J-0.557 F300.
N18220 G1 X52.112 Y114.554 Z-1.993
N18225 X52.057 Y114.481 Z-1.971
N18230 X52.004 Y114.411 Z-1.935
N18235 X51.956 Y114.347 Z-1.885
N18240 X51.913 Y114.29 Z-1.824
N18245 X51.877 Y114.241 Z-1.753
N18250 X51.847 Y114.202 Z-1.672
N18255 X51.825 Y114.173 Z-1.585
N18260 X51.812 Y114.155 Z-1.494
N18265 X51.808 Y114.149 Z-1.4
N18270 G0 Z5.
N18275 X80.465 Y115.979
N18280 Z-0.8
N18285 G1 Z-1.4 F300.
N18290 X80.457 Y115.98 Z-1.494
N18295 X80.436 Y115.981 Z-1.585
N18300 X80.4 Y115.983 Z-1.672
N18305 X80.35 Y115.986 Z-1.753
N18310 X80.289 Y115.989 Z-1.824
N18315 X80.218 Y115.993 Z-1.885
N18320 X80.138 Y115.998 Z-1.935
N18325 X80.051 Y116.002 Z-1.971
N18330 X79.96 Y116.007 Z-1.993
N18335 X79.866 Y116.013 Z-2.
N18340 G3 X79.095 Y115.86 I-0.088 J-1.58
N18345 G1 X77.588 Y115.074 F1000.
N18350 X77.414 Y114.972
N18355 X77.263 Y114.87
N18360 X77.1 Y114.743
N18365 X76.935 Y114.598
N18370 X76.747 Y114.409
N18375 X76.562 Y114.199
N18380 X76.363 Y113.94
N18385 X76.145 Y113.615
N18390 X75.941 Y113.264
N18395 X75.714 Y112.811
N18400 X75.496 Y112.295
N18405 X75.268 Y111.642
N18410 X75.037 Y110.813
N18415 X74.84 Y109.876
N18420 X74.693 Y108.929
N18425 X74.585 Y107.978
N18430 X74.503 Y107.024
N18435 X74.443 Y106.068
N18440 X74.398 Y105.111
N18445 X74.365 Y104.154
N18450 X74.34 Y103.197
N18455 X74.322 Y102.239
N18460 X74.308 Y101.282
N18465 X74.298 Y100.324
N18470 X74.29 Y99.366
N18475 X74.285 Y98.409
N18480 X74.281 Y97.451
N18485 X74.276 Y95.535
N18490 X74.267 Y90.747
N18495 X74.264 Y89.789
N18500 X74.26 Y88.832
N18505 X74.254 Y87.874
N18510 X74.245 Y86.916
N18515 X74.233 Y85.959
N18520 X74.216 Y85.001
N18525 X74.193 Y84.044
N18530 X74.161 Y83.087
N18535 X74.119 Y82.13
N18540 X74.063 Y81.174
N18545 X73.989 Y80.219
N18550 X73.893 Y79.266
N18555 X73.771 Y78.316
N18560 X73.618 Y77.371
N18565 X73.425 Y76.433
N18570 X73.185 Y75.506
N18575 X72.892 Y74.594
N18580 X72.538 Y73.704
N18585 X72.12 Y72.842
N18590 X71.627 Y72.021
N18595 X71.059 Y71.25
N18600 X70.415 Y70.541
N18605 X69.697 Y69.907
N18610 X68.909 Y69.364
N18615 X68.06 Y68.92
N18620 X67.162 Y68.588
N18625 X66.227 Y68.38
N18630 X65.272 Y68.3
N18635 X64.316 Y68.348
N18640 X63.374 Y68.522
N18645 X62.461 Y68.809
N18650 X61.585 Y69.196
N18655 X60.752 Y69.67
N18660 X59.966 Y70.216
N18665 X59.231 Y70.83
N18670 X58.557 Y71.51
N18675 X57.955 Y72.255
N18680 X57.436 Y73.061
N18685 X57.01 Y73.918
N18690 X56.676 Y74.816
N18695 X56.428 Y75.741
N18700 X56.257 Y76.683
N18705 X56.153 Y77.635
N18710 X56.103 Y78.592
N18715 X56.098 Y79.549
N18720 X56.127 Y80.506
N18725 X56.183 Y81.463
N18730 X56.257 Y82.417
N18735 X56.343 Y83.371
N18740 X56.438 Y84.324
N18745 X56.635 Y86.229
N18750 X56.732 Y87.182
N18755 X56.827 Y88.135
N18760 X56.916 Y89.089
N18765 X57.001 Y90.043
N18770 X57.08 Y90.997
N18775 X57.152 Y91.952
N18780 X57.218 Y92.907
N18785 X57.278 Y93.863
N18790 X57.332 Y94.819
N18795 X57.381 Y95.776
N18800 X57.424 Y96.733
N18805 X57.462 Y97.69
N18810 X57.495 Y98.647
N18815 X57.524 Y99.604
N18820 X57.548 Y100.561
N18825 X57.569 Y101.519
N18830 X57.587 Y102.476
N18835 X57.601 Y103.434
N18840 X57.613 Y104.392
N18845 X57.621 Y105.349
N18850 X57.627 Y106.307
N18855 X57.631 Y107.265
N18860 X57.632 Y108.222
N18865 X57.628 Y109.18
N18870 X57.612 Y110.138
N18875 X57.567 Y111.048
N18880 X57.502 Y111.613
N18885 X57.423 Y112.053
N18890 X57.39 Y112.187
N18895 X57.289 Y112.481
N18900 X57.14 Y112.754
N18905 X56.946 Y112.997
N18910 X56.713 Y113.202
N18915 X56.448 Y113.365
N18920 X56.159 Y113.48
N18925 X55.544 Y113.664
N18930 X55.482 Y113.685
N18935 X55.327 Y113.743
N18940 X54.893 Y113.932
N18945 X54.627 Y114.049
N18950 G3 X53.924 Y113.852 I-0.224 J-0.557 F300.
N18955 G1 X53.867 Y113.777 Z-1.993
N18960 X53.812 Y113.704 Z-1.971
N18965 X53.76 Y113.634 Z-1.935
N18970 X53.712 Y113.57 Z-1.885
N18975 X53.669 Y113.513 Z-1.824
N18980 X53.632 Y113.464 Z-1.753
N18985 X53.603 Y113.424 Z-1.672
N18990 X53.581 Y113.396 Z-1.585
N18995 X53.568 Y113.378 Z-1.494
N19000 X53.564 Y113.372 Z-1.4
N19005 G0 Z5.
N19010 X78.957 Y115.193
N19015 Z-0.8
N19020 G1 Z-1.4 F300.
N19025 X78.95 Z-1.494
N19030 X78.928 Y115.194 Z-1.585
N19035 X78.892 Y115.196 Z-1.672
N19040 X78.843 Y115.199 Z-1.753
N19045 X78.782 Y115.202 Z-1.824
N19050 X78.71 Y115.206 Z-1.885
N19055 X78.63 Y115.211 Z-1.935
N19060 X78.543 Y115.216 Z-1.971
N19065 X78.452 Y115.221 Z-1.993
N19070 X78.358 Y115.226 Z-2.
N19075 G3 X77.588 Y115.074 I-0.088 J-1.58
N19080 G1 X76.593 Y114.555 F1000.
N19085 X76.403 Y114.457
N19090 X76.186 Y114.36
N19095 X76.135 Y114.338
N19100 X76.084 Y114.317
N19105 X75.943 Y114.252
N19110 X75.809 Y114.178
N19115 X75.652 Y114.08
N19120 X75.496 Y113.966
N19125 X75.324 Y113.824
N19130 X75.135 Y113.646
N19135 X74.949 Y113.447
N19140 X74.738 Y113.19
N19145 X74.531 Y112.902
N19150 X74.311 Y112.551
N19155 X74.084 Y112.131
N19160 X73.852 Y111.627
N19165 X73.621 Y111.027
N19170 X73.383 Y110.266
N19175 X73.156 Y109.335
N19180 X72.986 Y108.393
N19185 X72.857 Y107.444
N19190 X72.761 Y106.491
N19195 X72.688 Y105.536
N19200 X72.633 Y104.58
N19205 X72.592 Y103.623
N19210 X72.561 Y102.666
N19215 X72.538 Y101.708
N19220 X72.521 Y100.751
N19225 X72.507 Y99.793
N19230 X72.498 Y98.836
N19235 X72.49 Y97.878
N19240 X72.485 Y96.92
N19245 X72.478 Y95.005
N19250 X72.468 Y91.174
N19255 X72.464 Y90.216
N19260 X72.459 Y89.259
N19265 X72.453 Y88.301
N19270 X72.443 Y87.343
N19275 X72.43 Y86.386
N19280 X72.412 Y85.428
N19285 X72.387 Y84.471
N19290 X72.354 Y83.514
N19295 X72.309 Y82.557
N19300 X72.25 Y81.601
N19305 X72.171 Y80.647
N19310 X72.07 Y79.694
N19315 X71.939 Y78.746
N19320 X71.77 Y77.803
N19325 X71.555 Y76.87
N19330 X71.283 Y75.951
N19335 X70.947 Y75.055
N19340 X70.534 Y74.191
N19345 X70.033 Y73.375
N19350 X69.44 Y72.623
N19355 X68.748 Y71.96
N19360 X67.965 Y71.409
N19365 X67.099 Y71.
N19370 X66.175 Y70.748
N19375 X65.221 Y70.664
N19380 X64.267 Y70.742
N19385 X63.335 Y70.964
N19390 X62.444 Y71.315
N19395 X61.609 Y71.785
N19400 X60.846 Y72.363
N19405 X60.169 Y73.04
N19410 X59.593 Y73.805
N19415 X59.122 Y74.639
N19420 X58.753 Y75.523
N19425 X58.478 Y76.44
N19430 X58.285 Y77.378
N19435 X58.162 Y78.328
N19440 X58.096 Y79.284
N19445 X58.076 Y80.241
N19450 X58.091 Y81.199
N19455 X58.133 Y82.155
N19460 X58.193 Y83.111
N19465 X58.267 Y84.066
N19470 X58.35 Y85.02
N19475 X58.436 Y85.974
N19480 X58.611 Y87.881
N19485 X58.696 Y88.835
N19490 X58.777 Y89.79
N19495 X58.854 Y90.744
N19500 X58.925 Y91.699
N19505 X58.991 Y92.655
N19510 X59.051 Y93.61
N19515 X59.106 Y94.567
N19520 X59.156 Y95.523
N19525 X59.2 Y96.48
N19530 X59.239 Y97.437
N19535 X59.274 Y98.394
N19540 X59.305 Y99.351
N19545 X59.331 Y100.308
N19550 X59.354 Y101.266
N19555 X59.373 Y102.223
N19560 X59.389 Y103.181
N19565 X59.401 Y104.138
N19570 X59.411 Y105.096
N19575 X59.418 Y106.054
N19580 X59.422 Y107.011
N19585 X59.421 Y107.969
N19590 X59.409 Y108.927
N19595 X59.374 Y109.884
N19600 X59.314 Y110.627
N19605 X59.241 Y111.124
N19610 X59.151 Y111.55
N19615 X59.1 Y111.729
N19620 X58.968 Y112.067
N19625 X58.77 Y112.371
N19630 X58.516 Y112.629
N19635 X58.215 Y112.831
N19640 X57.879 Y112.969
N19645 X56.159 Y113.48
N19650 G3 X55.485 Y113.197 I-0.152 J-0.58 F300.
N19655 G1 X55.439 Y113.115 Z-1.993
N19660 X55.394 Y113.035 Z-1.971
N19665 X55.351 Y112.96 Z-1.935
N19670 X55.311 Y112.89 Z-1.885
N19675 X55.275 Y112.828 Z-1.824
N19680 X55.245 Y112.775 Z-1.753
N19685 X55.221 Y112.732 Z-1.672
N19690 X55.203 Y112.701 Z-1.585
N19695 X55.192 Y112.682 Z-1.494
N19700 X55.188 Y112.675 Z-1.4
N19705 G0 Z5.
N19710 X77.459 Y114.305
N19715 Z-0.8
N19720 G1 Z-1.4 F300.
N19725 X77.452 Y114.306 Z-1.494
N19730 X77.43 Y114.309 Z-1.585
N19735 X77.394 Y114.315 Z-1.672
N19740 X77.346 Y114.322 Z-1.753
N19745 X77.285 Y114.331 Z-1.824
N19750 X77.215 Y114.342 Z-1.885
N19755 X77.135 Y114.354 Z-1.935
N19760 X77.049 Y114.367 Z-1.971
N19765 X76.959 Y114.381 Z-1.993
N19770 X76.866 Y114.395 Z-2.
N19775 G3 X76.084 Y114.317 I-0.239 J-1.564
N19780 G1 X75.969 Y114.27 F1000.
N19785 X74.546 Y113.747
N19790 X74.408 Y113.688
N19795 X74.265 Y113.614
N19800 X74.102 Y113.517
N19805 X73.931 Y113.399
N19810 X73.751 Y113.257
N19815 X73.551 Y113.078
N19820 X73.356 Y112.879
N19825 X73.133 Y112.621
N19830 X72.919 Y112.338
N19835 X72.684 Y111.983
N19840 X72.448 Y111.57
N19845 X72.203 Y111.071
N19850 X71.963 Y110.489
N19855 X71.714 Y109.757
N19860 X71.465 Y108.833
N19865 X71.275 Y107.895
N19870 X71.13 Y106.948
N19875 X71.02 Y105.997
N19880 X70.935 Y105.043
N19885 X70.871 Y104.087
N19890 X70.822 Y103.131
N19895 X70.785 Y102.174
N19900 X70.756 Y101.216
N19905 X70.735 Y100.259
N19910 X70.719 Y99.301
N19915 X70.706 Y98.344
N19920 X70.697 Y97.386
N19925 X70.69 Y96.428
N19930 X70.684 Y95.471
N19935 X70.676 Y93.555
N19940 X70.665 Y90.682
N19945 X70.659 Y89.725
N19950 X70.652 Y88.767
N19955 X70.642 Y87.809
N19960 X70.628 Y86.852
N19965 X70.609 Y85.894
N19970 X70.583 Y84.937
N19975 X70.548 Y83.98
N19980 X70.501 Y83.023
N19985 X70.438 Y82.068
N19990 X70.356 Y81.114
N19995 X70.247 Y80.162
N20000 X70.104 Y79.215
N20005 X69.914 Y78.276
N20010 X69.665 Y77.352
N20015 X69.344 Y76.449
N20020 X68.925 Y75.588
N20025 X68.389 Y74.795
N20030 X67.709 Y74.12
N20035 X66.891 Y73.621
N20040 X65.976 Y73.34
N20045 X65.02 Y73.283
N20050 X64.076 Y73.447
N20055 X63.194 Y73.82
N20060 X62.413 Y74.373
N20065 X61.752 Y75.067
N20070 X61.221 Y75.864
N20075 X60.812 Y76.73
N20080 X60.511 Y77.639
N20085 X60.302 Y78.574
N20090 X60.168 Y79.522
N20095 X60.094 Y80.477
N20100 X60.066 Y81.434
N20105 X60.074 Y82.392
N20110 X60.107 Y83.349
N20115 X60.159 Y84.305
N20120 X60.223 Y85.261
N20125 X60.295 Y86.216
N20130 X60.371 Y87.17
N20135 X60.525 Y89.08
N20140 X60.599 Y90.034
N20145 X60.67 Y90.99
N20150 X60.736 Y91.945
N20155 X60.799 Y92.901
N20160 X60.856 Y93.857
N20165 X60.908 Y94.813
N20170 X60.956 Y95.769
N20175 X60.999 Y96.726
N20180 X61.037 Y97.683
N20185 X61.071 Y98.64
N20190 X61.101 Y99.597
N20195 X61.127 Y100.555
N20200 X61.149 Y101.512
N20205 X61.168 Y102.47
N20210 X61.183 Y103.427
N20215 X61.196 Y104.385
N20220 X61.205 Y105.342
N20225 X61.21 Y106.3
N20230 X61.209 Y107.258
N20235 X61.196 Y108.215
N20240 X61.159 Y109.172
N20245 X61.088 Y110.002
N20250 X61. Y110.585
N20255 X60.911 Y110.995
N20260 X60.803 Y111.372
N20265 X60.784 Y111.426
N20270 X60.65 Y111.717
N20275 X60.467 Y111.98
N20280 X60.24 Y112.206
N20285 X59.977 Y112.388
N20290 X59.685 Y112.521
N20295 X59.375 Y112.6
N20300 X59.238 Y112.622
N20305 X59.021 Y112.661
N20310 X58.369 Y112.824
N20315 X57.879 Y112.969
N20320 G3 X57.207 Y112.684 I-0.151 J-0.581 F300.
N20325 G1 X57.161 Y112.602 Z-1.993
N20330 X57.115 Y112.523 Z-1.971
N20335 X57.073 Y112.447 Z-1.935
N20340 X57.033 Y112.377 Z-1.885
N20345 X56.998 Y112.315 Z-1.824
N20350 X56.968 Y112.261 Z-1.753
N20355 X56.943 Y112.219 Z-1.672
N20360 X56.926 Y112.187 Z-1.585
N20365 X56.915 Y112.168 Z-1.494
N20370 X56.911 Y112.162 Z-1.4
N20375 G0 Z5.
N20380 X75.919 Y113.689
N20385 Z-0.8
N20390 G1 Z-1.4 F300.
N20395 X75.912 Y113.691 Z-1.494
N20400 X75.89 Y113.695 Z-1.585
N20405 X75.855 Y113.701 Z-1.672
N20410 X75.806 Y113.71 Z-1.753
N20415 X75.746 Y113.722 Z-1.824
N20420 X75.676 Y113.735 Z-1.885
N20425 X75.597 Y113.749 Z-1.935
N20430 X75.512 Y113.765 Z-1.971
N20435 X75.422 Y113.782 Z-1.993
N20440 X75.329 Y113.799 Z-2.
N20445 G3 X74.546 Y113.747 I-0.289 J-1.556
N20450 G1 X73.196 Y113.25 F1000.
N20455 X73.078 Y113.216
N20460 X72.792 Y113.116
N20465 X72.654 Y113.058
N20470 X72.52 Y112.991
N20475 X72.39 Y112.916
N20480 X72.263 Y112.836
N20485 X72.141 Y112.749
N20490 X72.022 Y112.657
N20495 X71.907 Y112.561
N20500 X71.795 Y112.461
N20505 X71.688 Y112.356
N20510 X71.583 Y112.248
N20515 X71.483 Y112.137
N20520 X71.385 Y112.024
N20525 X71.29 Y111.907
N20530 X71.199 Y111.788
N20535 X71.111 Y111.667
N20540 X71.026 Y111.543
N20545 X70.943 Y111.418
N20550 X70.863 Y111.291
N20555 X70.786 Y111.163
N20560 X70.711 Y111.033
N20565 X70.639 Y110.901
N20570 X70.57 Y110.768
N20575 X70.502 Y110.634
N20580 X70.437 Y110.499
N20585 X70.374 Y110.363
N20590 X70.314 Y110.225
N20595 X70.255 Y110.087
N20600 X70.199 Y109.948
N20605 X70.145 Y109.809
N20610 X70.092 Y109.668
N20615 X70.041 Y109.527
N20620 X69.992 Y109.385
N20625 X69.945 Y109.243
N20630 X69.899 Y109.1
N20635 X69.855 Y108.956
N20640 X69.813 Y108.813
N20645 X69.772 Y108.668
N20650 X69.732 Y108.524
N20655 X69.694 Y108.379
N20660 X69.658 Y108.233
N20665 X69.622 Y108.087
N20670 X69.588 Y107.941
N20675 X69.555 Y107.795
N20680 X69.523 Y107.648
N20685 X69.493 Y107.501
N20690 X69.463 Y107.354
N20695 X69.435 Y107.207
N20700 X69.381 Y106.912
N20705 X69.331 Y106.616
N20710 X69.284 Y106.314
N20715 X69.235 Y105.976
N20720 X69.212 Y105.805
N20725 X69.189 Y105.631
N20730 X69.166 Y105.444
N20735 X69.142 Y105.243
N20740 X69.118 Y105.026
N20745 X69.095 Y104.811
N20750 X69.073 Y104.585
N20755 X69.049 Y104.339
N20760 X69.025 Y104.067
N20765 X69.003 Y103.796
N20770 X68.98 Y103.501
N20775 X68.957 Y103.17
N20780 X68.934 Y102.823
N20785 X68.912 Y102.443
N20790 X68.889 Y102.011
N20795 X68.866 Y101.546
N20800 X68.844 Y101.003
N20805 X68.821 Y100.385
N20810 X68.799 Y99.652
N20815 X68.777 Y98.74
N20820 X68.759 Y97.782
N20825 X68.746 Y96.825
N20830 X68.736 Y95.867
N20835 X68.728 Y94.909
N20840 X68.716 Y92.994
N20845 X68.704 Y91.079
N20850 X68.698 Y90.121
N20855 X68.689 Y89.163
N20860 X68.678 Y88.206
N20865 X68.662 Y87.248
N20870 X68.641 Y86.291
N20875 X68.613 Y85.333
N20880 X68.575 Y84.376
N20885 X68.524 Y83.42
N20890 X68.456 Y82.465
N20895 X68.364 Y81.512
N20900 X68.237 Y80.562
N20905 X68.063 Y79.621
N20910 X67.823 Y78.694
N20915 X67.464 Y77.806
N20920 X67.305 Y77.627
N20925 X67.124 Y77.47
N20930 X66.923 Y77.339
N20935 X66.707 Y77.236
N20940 X66.479 Y77.163
N20945 X66.244 Y77.12
N20950 X66.005 Y77.109
N20955 X65.766 Y77.13
N20960 X65.299 Y77.234
N20965 X64.437 Y77.651
N20970 X63.743 Y78.311
N20975 X63.219 Y79.113
N20980 X62.844 Y79.994
N20985 X62.589 Y80.917
N20990 X62.428 Y81.861
N20995 X62.338 Y82.815
N21000 X62.3 Y83.772
N21005 X62.298 Y84.729
N21010 X62.323 Y85.687
N21015 X62.365 Y86.644
N21020 X62.419 Y87.6
N21025 X62.478 Y88.556
N21030 X62.604 Y90.467
N21035 X62.666 Y91.423
N21040 X62.718 Y92.259
N21045 X62.775 Y93.215
N21050 X62.828 Y94.171
N21055 X62.877 Y95.128
N21060 X62.922 Y96.084
N21065 X62.963 Y97.041
N21070 X63. Y97.998
N21075 X63.032 Y98.955
N21080 X63.061 Y99.913
N21085 X63.086 Y100.87
N21090 X63.107 Y101.827
N21095 X63.125 Y102.785
N21100 X63.14 Y103.742
N21105 X63.151 Y104.7
N21110 X63.155 Y105.501
N21115 X63.156 Y105.921
N21120 X63.153 Y106.417
N21125 X63.149 Y106.704
N21130 X63.145 Y106.937
N21135 X63.14 Y107.191
N21140 X63.132 Y107.464
N21145 X63.12 Y107.777
N21150 X63.104 Y108.09
N21155 X63.086 Y108.397
N21160 X63.075 Y108.547
N21165 X63.063 Y108.696
N21170 X63.05 Y108.846
N21175 X63.036 Y108.995
N21180 X63.02 Y109.144
N21185 X63.002 Y109.293
N21190 X62.984 Y109.442
N21195 X62.963 Y109.591
N21200 X62.941 Y109.739
N21205 X62.917 Y109.887
N21210 X62.89 Y110.034
N21215 X62.861 Y110.182
N21220 X62.83 Y110.328
N21225 X62.795 Y110.474
N21230 X62.757 Y110.619
N21235 X62.716 Y110.764
N21240 X62.672 Y110.907
N21245 X62.625 Y111.049
N21250 X62.572 Y111.194
N21255 X62.4 Y111.523
N21260 X62.165 Y111.81
N21265 X61.876 Y112.042
N21270 X61.545 Y112.21
N21275 X61.187 Y112.307
N21280 X59.375 Y112.6
N21285 X59.021 Y112.535 F300.
N21290 X58.755 Y112.204
N21295 X58.721 Y112.162 F1000.
N21300 X59.074 Y109.769
N21305 X60.131 Y103.678
N21310 X60.836 Y102.373
N21315 X61.69 Y101.068
N21320 X63.367 Y99.872
N21325 X65.105 Y99.299
N21330 X66.626 Y99.213
N21335 X68.197 Y99.545
N21340 X70.086 Y100.633
N21345 G3 X70.534 Y101.004 I-1.36 J2.097
N21350 G1 X70.989 Y101.503
N21355 G3 X71.186 Y101.72 I-1.751 J1.784
N21360 G1 X71.792 Y102.808
N21365 X74.925 Y111.075
N21370 G3 X74.883 Y112.38 I-1.462 J0.606
N21375 G1 X74.882
N21380 G3 X73.856 Y113.213 I-1.419 J-0.7
N21385 X73.078 Y113.216 I-0.393 J-1.533 F300.
N21390 G1 X72.492 Y113.048 F1000.
N21395 X71.54 Y112.83
N21400 X71.39 Y112.788
N21405 X71.248 Y112.738
N21410 X71.094 Y112.672
N21415 X70.929 Y112.589
N21420 X70.751 Y112.485
N21425 X70.561 Y112.356
N21430 X70.359 Y112.2
N21435 X70.147 Y112.013
N21440 X69.923 Y111.789
N21445 X69.69 Y111.523
N21450 X69.447 Y111.207
N21455 X69.195 Y110.832
N21460 X68.935 Y110.387
N21465 X68.868 Y110.253
N21470 X68.6 Y109.697
N21475 X68.327 Y109.022
N21480 X68.049 Y108.186
N21485 X67.989 Y107.954
N21490 X67.96 Y107.838
N21495 G3 X68.275 Y107.179 I0.587 J-0.124 F300.
N21500 X69.041 Y107.374 I0.272 J0.535 F1000.
N21505 G1 X72.148 Y111.902
