%
(ATTEMPT_2)
(T1  D=6. CR=0. - ZMIN=-22.5 - FLAT END MILL)
N10 G90 G94 G17 G91.1
N15 G21
N20 G53 G0 Z0.
(2D CONTOUR1)
N25 M9
N30 T1 M6
N35 S22000 M3
N40 G54
N45 G0 X40.85 Y171.219
N50 G43 Z25. H1
N55 G0 Z8.
N60 G1 Z3.1 F200.
N65 G18 G2 X41.45 Z2.5 I0.6 K0.
N70 G1 X42.05 F400.
N75 G17 G3 X42.65 Y171.819 I0. J0.6
N80 G1 Y315. Z-2.5 F200.
N85 Y580. F1200.
N90 G2 X50. Y587.35 I7.35 J0.
N95 G1 X66.5
N100 G2 X73.817 Y580. I0. J-7.317
N105 G1 X73.811 Y579.812
N110 X73.805 Y579.624
N115 G3 X74.124 Y579.305 I0.319 J0.
N120 G1 X108.876
N125 G3 X109.195 Y579.624 I0. J0.319
N130 G1 X109.189 Y579.812
N135 X109.183 Y580.
N140 G2 X116.5 Y587.35 I7.35 J0.
N145 G1 X133.
N150 G2 X140.35 Y580. I0. J-7.35
N155 G1 Y50.
N160 G2 X133. Y42.65 I-7.35 J0.
N165 G1 X113.
N170 G2 X105.65 Y50. I0. J7.35
N175 G1 Y80.
N180 G3 X77.35 I-14.15 J0.
N185 G1 Y50.
N190 G2 X70. Y42.65 I-7.35 J0.
N195 G1 X50.
N200 G2 X42.65 Y50. I0. J7.35
N205 G1 Y315.
N210 G2 X44.625 Y317.962 I3.209 J0.
N215 G3 X46.6 Y320.925 I-1.234 J2.962
N220 G1 Y580.
N225 G2 X50. Y583.4 I3.4 J0.
N230 G1 X66.5
N235 G2 X69.9 Y580. I0. J-3.4
N240 G1 Y575.4
N245 X113.1
N250 Y580.
N255 G2 X116.5 Y583.4 I3.4 J0.
N260 G1 X133.
N265 G2 X136.4 Y580. I0. J-3.4
N270 G1 Y80.
N275 Y50.
N280 G2 X133. Y46.6 I-3.4 J0.
N285 G1 X113.
N290 G2 X109.6 Y50. I0. J3.4
N295 G1 Y80.
N300 G3 X73.4 I-18.1 J0.
N305 G1 Y50.
N310 G2 X70. Y46.6 I-3.4 J0.
N315 G1 X50.
N320 G2 X46.6 Y50. I0. J3.4
N325 G1 Y320.925
N330 G2 X46.9 Y321.375 I0.488 J0.
N335 G3 X47.2 Y321.825 I-0.188 J0.45
N340 G1 Y580.
N345 G2 X50. Y582.8 I2.8 J0.
N350 G1 X66.5
N355 G2 X69.3 Y580. I0. J-2.8
N360 G1 Y574.8
N365 X113.7
N370 Y580.
N375 G2 X116.5 Y582.8 I2.8 J0.
N380 G1 X133.
N385 G2 X135.8 Y580. I0. J-2.8
N390 G1 Y50.
N395 G2 X133. Y47.2 I-2.8 J0.
N400 G1 X113.
N405 G2 X110.2 Y50. I0. J2.8
N410 G1 Y80.
N415 G3 X72.8 I-18.7 J0.
N420 G1 Y50.
N425 G2 X70. Y47.2 I-2.8 J0.
N430 G1 X50.
N435 G2 X47.2 Y50. I0. J2.8
N440 G1 Y321.825
N445 G3 X46.6 Y322.425 I-0.6 J0. F400.
N450 G1 X46.
N455 G18 G3 X45.4 Z-1.9 I0. K0.6
N460 G0 Z10.
N465 X40.85 Y171.219
N470 Z8.
N475 G1 Z0.6 F200.
N480 G2 X41.45 Z0. I0.6 K0.
N485 G1 X42.05 F400.
N490 G17 G3 X42.65 Y171.819 I0. J0.6
N495 G1 Y315. Z-5. F200.
N500 Y580. F1200.
N505 G2 X50. Y587.35 I7.35 J0.
N510 G1 X66.5
N515 G2 X73.817 Y580. I0. J-7.317
N520 G1 X73.811 Y579.812
N525 X73.805 Y579.624
N530 G3 X74.124 Y579.305 I0.319 J0.
N535 G1 X108.876
N540 G3 X109.195 Y579.624 I0. J0.319
N545 G1 X109.189 Y579.812
N550 X109.183 Y580.
N555 G2 X116.5 Y587.35 I7.35 J0.
N560 G1 X133.
N565 G2 X140.35 Y580. I0. J-7.35
N570 G1 Y50.
N575 G2 X133. Y42.65 I-7.35 J0.
N580 G1 X113.
N585 G2 X105.65 Y50. I0. J7.35
N590 G1 Y80.
N595 G3 X77.35 I-14.15 J0.
N600 G1 Y50.
N605 G2 X70. Y42.65 I-7.35 J0.
N610 G1 X50.
N615 G2 X42.65 Y50. I0. J7.35
N620 G1 Y315.
N625 G2 X44.625 Y317.962 I3.209 J0.
N630 G3 X46.6 Y320.925 I-1.234 J2.962
N635 G1 Y580.
N640 G2 X50. Y583.4 I3.4 J0.
N645 G1 X66.5
N650 G2 X69.9 Y580. I0. J-3.4
N655 G1 Y575.4
N660 X113.1
N665 Y580.
N670 G2 X116.5 Y583.4 I3.4 J0.
N675 G1 X133.
N680 G2 X136.4 Y580. I0. J-3.4
N685 G1 Y80.
N690 Y50.
N695 G2 X133. Y46.6 I-3.4 J0.
N700 G1 X113.
N705 G2 X109.6 Y50. I0. J3.4
N710 G1 Y80.
N715 G3 X73.4 I-18.1 J0.
N720 G1 Y50.
N725 G2 X70. Y46.6 I-3.4 J0.
N730 G1 X50.
N735 G2 X46.6 Y50. I0. J3.4
N740 G1 Y320.925
N745 G2 X46.9 Y321.375 I0.488 J0.
N750 G3 X47.2 Y321.825 I-0.188 J0.45
N755 G1 Y580.
N760 G2 X50. Y582.8 I2.8 J0.
N765 G1 X66.5
N770 G2 X69.3 Y580. I0. J-2.8
N775 G1 Y574.8
N780 X113.7
N785 Y580.
N790 G2 X116.5 Y582.8 I2.8 J0.
N795 G1 X133.
N800 G2 X135.8 Y580. I0. J-2.8
N805 G1 Y50.
N810 G2 X133. Y47.2 I-2.8 J0.
N815 G1 X113.
N820 G2 X110.2 Y50. I0. J2.8
N825 G1 Y80.
N830 G3 X72.8 I-18.7 J0.
N835 G1 Y50.
N840 G2 X70. Y47.2 I-2.8 J0.
N845 G1 X50.
N850 G2 X47.2 Y50. I0. J2.8
N855 G1 Y321.825
N860 G3 X46.6 Y322.425 I-0.6 J0. F400.
N865 G1 X46.
N870 G18 G3 X45.4 Z-4.4 I0. K0.6
N875 G0 Z10.
N880 X40.85 Y171.219
N885 Z8.
N890 G1 Z-1.9 F200.
N895 G2 X41.45 Z-2.5 I0.6 K0.
N900 G1 X42.05 F400.
N905 G17 G3 X42.65 Y171.819 I0. J0.6
N910 G1 Y315. Z-7.5 F200.
N915 Y580. F1200.
N920 G2 X50. Y587.35 I7.35 J0.
N925 G1 X66.5
N930 G2 X73.817 Y580. I0. J-7.317
N935 G1 X73.811 Y579.812
N940 X73.805 Y579.624
N945 G3 X74.124 Y579.305 I0.319 J0.
N950 G1 X108.876
N955 G3 X109.195 Y579.624 I0. J0.319
N960 G1 X109.189 Y579.812
N965 X109.183 Y580.
N970 G2 X116.5 Y587.35 I7.35 J0.
N975 G1 X133.
N980 G2 X140.35 Y580. I0. J-7.35
N985 G1 Y50.
N990 G2 X133. Y42.65 I-7.35 J0.
N995 G1 X113.
N1000 G2 X105.65 Y50. I0. J7.35
N1005 G1 Y80.
N1010 G3 X77.35 I-14.15 J0.
N1015 G1 Y50.
N1020 G2 X70. Y42.65 I-7.35 J0.
N1025 G1 X50.
N1030 G2 X42.65 Y50. I0. J7.35
N1035 G1 Y315.
N1040 G2 X44.625 Y317.962 I3.209 J0.
N1045 G3 X46.6 Y320.925 I-1.234 J2.962
N1050 G1 Y580.
N1055 G2 X50. Y583.4 I3.4 J0.
N1060 G1 X66.5
N1065 G2 X69.9 Y580. I0. J-3.4
N1070 G1 Y575.4
N1075 X113.1
N1080 Y580.
N1085 G2 X116.5 Y583.4 I3.4 J0.
N1090 G1 X133.
N1095 G2 X136.4 Y580. I0. J-3.4
N1100 G1 Y80.
N1105 Y50.
N1110 G2 X133. Y46.6 I-3.4 J0.
N1115 G1 X113.
N1120 G2 X109.6 Y50. I0. J3.4
N1125 G1 Y80.
N1130 G3 X73.4 I-18.1 J0.
N1135 G1 Y50.
N1140 G2 X70. Y46.6 I-3.4 J0.
N1145 G1 X50.
N1150 G2 X46.6 Y50. I0. J3.4
N1155 G1 Y320.925
N1160 G2 X46.9 Y321.375 I0.488 J0.
N1165 G3 X47.2 Y321.825 I-0.188 J0.45
N1170 G1 Y580.
N1175 G2 X50. Y582.8 I2.8 J0.
N1180 G1 X66.5
N1185 G2 X69.3 Y580. I0. J-2.8
N1190 G1 Y574.8
N1195 X113.7
N1200 Y580.
N1205 G2 X116.5 Y582.8 I2.8 J0.
N1210 G1 X133.
N1215 G2 X135.8 Y580. I0. J-2.8
N1220 G1 Y50.
N1225 G2 X133. Y47.2 I-2.8 J0.
N1230 G1 X113.
N1235 G2 X110.2 Y50. I0. J2.8
N1240 G1 Y80.
N1245 G3 X72.8 I-18.7 J0.
N1250 G1 Y50.
N1255 G2 X70. Y47.2 I-2.8 J0.
N1260 G1 X50.
N1265 G2 X47.2 Y50. I0. J2.8
N1270 G1 Y321.825
N1275 G3 X46.6 Y322.425 I-0.6 J0. F400.
N1280 G1 X46.
N1285 G18 G3 X45.4 Z-6.9 I0. K0.6
N1290 G0 Z10.
N1295 X40.85 Y171.219
N1300 Z8.
N1305 G1 Z-4.4 F200.
N1310 G2 X41.45 Z-5. I0.6 K0.
N1315 G1 X42.05 F400.
N1320 G17 G3 X42.65 Y171.819 I0. J0.6
N1325 G1 Y315. Z-10. F200.
N1330 Y580. F1200.
N1335 G2 X50. Y587.35 I7.35 J0.
N1340 G1 X66.5
N1345 G2 X73.817 Y580. I0. J-7.317
N1350 G1 X73.811 Y579.812
N1355 X73.805 Y579.624
N1360 G3 X74.124 Y579.305 I0.319 J0.
N1365 G1 X108.876
N1370 G3 X109.195 Y579.624 I0. J0.319
N1375 G1 X109.189 Y579.812
N1380 X109.183 Y580.
N1385 G2 X116.5 Y587.35 I7.35 J0.
N1390 G1 X133.
N1395 G2 X140.35 Y580. I0. J-7.35
N1400 G1 Y50.
N1405 G2 X133. Y42.65 I-7.35 J0.
N1410 G1 X113.
N1415 G2 X105.65 Y50. I0. J7.35
N1420 G1 Y80.
N1425 G3 X77.35 I-14.15 J0.
N1430 G1 Y50.
N1435 G2 X70. Y42.65 I-7.35 J0.
N1440 G1 X50.
N1445 G2 X42.65 Y50. I0. J7.35
N1450 G1 Y315.
N1455 G2 X44.625 Y317.962 I3.209 J0.
N1460 G3 X46.6 Y320.925 I-1.234 J2.962
N1465 G1 Y580.
N1470 G2 X50. Y583.4 I3.4 J0.
N1475 G1 X66.5
N1480 G2 X69.9 Y580. I0. J-3.4
N1485 G1 Y575.4
N1490 X113.1
N1495 Y580.
N1500 G2 X116.5 Y583.4 I3.4 J0.
N1505 G1 X133.
N1510 G2 X136.4 Y580. I0. J-3.4
N1515 G1 Y80.
N1520 Y50.
N1525 G2 X133. Y46.6 I-3.4 J0.
N1530 G1 X113.
N1535 G2 X109.6 Y50. I0. J3.4
N1540 G1 Y80.
N1545 G3 X73.4 I-18.1 J0.
N1550 G1 Y50.
N1555 G2 X70. Y46.6 I-3.4 J0.
N1560 G1 X50.
N1565 G2 X46.6 Y50. I0. J3.4
N1570 G1 Y320.925
N1575 G2 X46.9 Y321.375 I0.488 J0.
N1580 G3 X47.2 Y321.825 I-0.188 J0.45
N1585 G1 Y580.
N1590 G2 X50. Y582.8 I2.8 J0.
N1595 G1 X66.5
N1600 G2 X69.3 Y580. I0. J-2.8
N1605 G1 Y574.8
N1610 X113.7
N1615 Y580.
N1620 G2 X116.5 Y582.8 I2.8 J0.
N1625 G1 X133.
N1630 G2 X135.8 Y580. I0. J-2.8
N1635 G1 Y50.
N1640 G2 X133. Y47.2 I-2.8 J0.
N1645 G1 X113.
N1650 G2 X110.2 Y50. I0. J2.8
N1655 G1 Y80.
N1660 G3 X72.8 I-18.7 J0.
N1665 G1 Y50.
N1670 G2 X70. Y47.2 I-2.8 J0.
N1675 G1 X50.
N1680 G2 X47.2 Y50. I0. J2.8
N1685 G1 Y321.825
N1690 G3 X46.6 Y322.425 I-0.6 J0. F400.
N1695 G1 X46.
N1700 G18 G3 X45.4 Z-9.4 I0. K0.6
N1705 G0 Z10.
N1710 X40.85 Y171.219
N1715 Z8.
N1720 G1 Z-6.9 F200.
N1725 G2 X41.45 Z-7.5 I0.6 K0.
N1730 G1 X42.05 F400.
N1735 G17 G3 X42.65 Y171.819 I0. J0.6
N1740 G1 Y315. Z-12.5 F200.
N1745 Y580. F1200.
N1750 G2 X50. Y587.35 I7.35 J0.
N1755 G1 X66.5
N1760 G2 X73.817 Y580. I0. J-7.317
N1765 G1 X73.811 Y579.812
N1770 X73.805 Y579.624
N1775 G3 X74.124 Y579.305 I0.319 J0.
N1780 G1 X108.876
N1785 G3 X109.195 Y579.624 I0. J0.319
N1790 G1 X109.189 Y579.812
N1795 X109.183 Y580.
N1800 G2 X116.5 Y587.35 I7.35 J0.
N1805 G1 X133.
N1810 G2 X140.35 Y580. I0. J-7.35
N1815 G1 Y50.
N1820 G2 X133. Y42.65 I-7.35 J0.
N1825 G1 X113.
N1830 G2 X105.65 Y50. I0. J7.35
N1835 G1 Y80.
N1840 G3 X77.35 I-14.15 J0.
N1845 G1 Y50.
N1850 G2 X70. Y42.65 I-7.35 J0.
N1855 G1 X50.
N1860 G2 X42.65 Y50. I0. J7.35
N1865 G1 Y315.
N1870 G2 X44.625 Y317.962 I3.209 J0.
N1875 G3 X46.6 Y320.925 I-1.234 J2.962
N1880 G1 Y580.
N1885 G2 X50. Y583.4 I3.4 J0.
N1890 G1 X66.5
N1895 G2 X69.9 Y580. I0. J-3.4
N1900 G1 Y575.4
N1905 X113.1
N1910 Y580.
N1915 G2 X116.5 Y583.4 I3.4 J0.
N1920 G1 X133.
N1925 G2 X136.4 Y580. I0. J-3.4
N1930 G1 Y80.
N1935 Y50.
N1940 G2 X133. Y46.6 I-3.4 J0.
N1945 G1 X113.
N1950 G2 X109.6 Y50. I0. J3.4
N1955 G1 Y80.
N1960 G3 X73.4 I-18.1 J0.
N1965 G1 Y50.
N1970 G2 X70. Y46.6 I-3.4 J0.
N1975 G1 X50.
N1980 G2 X46.6 Y50. I0. J3.4
N1985 G1 Y320.925
N1990 G2 X46.9 Y321.375 I0.488 J0.
N1995 G3 X47.2 Y321.825 I-0.188 J0.45
N2000 G1 Y580.
N2005 G2 X50. Y582.8 I2.8 J0.
N2010 G1 X66.5
N2015 G2 X69.3 Y580. I0. J-2.8
N2020 G1 Y574.8
N2025 X113.7
N2030 Y580.
N2035 G2 X116.5 Y582.8 I2.8 J0.
N2040 G1 X133.
N2045 G2 X135.8 Y580. I0. J-2.8
N2050 G1 Y50.
N2055 G2 X133. Y47.2 I-2.8 J0.
N2060 G1 X113.
N2065 G2 X110.2 Y50. I0. J2.8
N2070 G1 Y80.
N2075 G3 X72.8 I-18.7 J0.
N2080 G1 Y50.
N2085 G2 X70. Y47.2 I-2.8 J0.
N2090 G1 X50.
N2095 G2 X47.2 Y50. I0. J2.8
N2100 G1 Y321.825
N2105 G3 X46.6 Y322.425 I-0.6 J0. F400.
N2110 G1 X46.
N2115 G18 G3 X45.4 Z-11.9 I0. K0.6
N2120 G0 Z10.
N2125 X40.85 Y171.219
N2130 Z8.
N2135 G1 Z-9.4 F200.
N2140 G2 X41.45 Z-10. I0.6 K0.
N2145 G1 X42.05 F400.
N2150 G17 G3 X42.65 Y171.819 I0. J0.6
N2155 G1 Y315. Z-15. F200.
N2160 Y580. F1200.
N2165 G2 X50. Y587.35 I7.35 J0.
N2170 G1 X66.5
N2175 G2 X73.817 Y580. I0. J-7.317
N2180 G1 X73.811 Y579.812
N2185 X73.805 Y579.624
N2190 G3 X74.124 Y579.305 I0.319 J0.
N2195 G1 X108.876
N2200 G3 X109.195 Y579.624 I0. J0.319
N2205 G1 X109.189 Y579.812
N2210 X109.183 Y580.
N2215 G2 X116.5 Y587.35 I7.35 J0.
N2220 G1 X133.
N2225 G2 X140.35 Y580. I0. J-7.35
N2230 G1 Y50.
N2235 G2 X133. Y42.65 I-7.35 J0.
N2240 G1 X113.
N2245 G2 X105.65 Y50. I0. J7.35
N2250 G1 Y80.
N2255 G3 X77.35 I-14.15 J0.
N2260 G1 Y50.
N2265 G2 X70. Y42.65 I-7.35 J0.
N2270 G1 X50.
N2275 G2 X42.65 Y50. I0. J7.35
N2280 G1 Y315.
N2285 G2 X44.625 Y317.962 I3.209 J0.
N2290 G3 X46.6 Y320.925 I-1.234 J2.962
N2295 G1 Y580.
N2300 G2 X50. Y583.4 I3.4 J0.
N2305 G1 X66.5
N2310 G2 X69.9 Y580. I0. J-3.4
N2315 G1 Y575.4
N2320 X113.1
N2325 Y580.
N2330 G2 X116.5 Y583.4 I3.4 J0.
N2335 G1 X133.
N2340 G2 X136.4 Y580. I0. J-3.4
N2345 G1 Y80.
N2350 Y50.
N2355 G2 X133. Y46.6 I-3.4 J0.
N2360 G1 X113.
N2365 G2 X109.6 Y50. I0. J3.4
N2370 G1 Y80.
N2375 G3 X73.4 I-18.1 J0.
N2380 G1 Y50.
N2385 G2 X70. Y46.6 I-3.4 J0.
N2390 G1 X50.
N2395 G2 X46.6 Y50. I0. J3.4
N2400 G1 Y320.925
N2405 G2 X46.9 Y321.375 I0.488 J0.
N2410 G3 X47.2 Y321.825 I-0.188 J0.45
N2415 G1 Y580.
N2420 G2 X50. Y582.8 I2.8 J0.
N2425 G1 X66.5
N2430 G2 X69.3 Y580. I0. J-2.8
N2435 G1 Y574.8
N2440 X113.7
N2445 Y580.
N2450 G2 X116.5 Y582.8 I2.8 J0.
N2455 G1 X133.
N2460 G2 X135.8 Y580. I0. J-2.8
N2465 G1 Y50.
N2470 G2 X133. Y47.2 I-2.8 J0.
N2475 G1 X113.
N2480 G2 X110.2 Y50. I0. J2.8
N2485 G1 Y80.
N2490 G3 X72.8 I-18.7 J0.
N2495 G1 Y50.
N2500 G2 X70. Y47.2 I-2.8 J0.
N2505 G1 X50.
N2510 G2 X47.2 Y50. I0. J2.8
N2515 G1 Y321.825
N2520 G3 X46.6 Y322.425 I-0.6 J0. F400.
N2525 G1 X46.
N2530 G18 G3 X45.4 Z-14.4 I0. K0.6
N2535 G0 Z10.
N2540 X40.85 Y171.219
N2545 Z8.
N2550 G1 Z-11.9 F200.
N2555 G2 X41.45 Z-12.5 I0.6 K0.
N2560 G1 X42.05 F400.
N2565 G17 G3 X42.65 Y171.819 I0. J0.6
N2570 G1 Y315. Z-17.5 F200.
N2575 Y580. F1200.
N2580 G2 X50. Y587.35 I7.35 J0.
N2585 G1 X66.5
N2590 G2 X73.817 Y580. I0. J-7.317
N2595 G1 X73.811 Y579.812
N2600 X73.805 Y579.624
N2605 G3 X74.124 Y579.305 I0.319 J0.
N2610 G1 X108.876
N2615 G3 X109.195 Y579.624 I0. J0.319
N2620 G1 X109.189 Y579.812
N2625 X109.183 Y580.
N2630 G2 X116.5 Y587.35 I7.35 J0.
N2635 G1 X133.
N2640 G2 X140.35 Y580. I0. J-7.35
N2645 G1 Y50.
N2650 G2 X133. Y42.65 I-7.35 J0.
N2655 G1 X113.
N2660 G2 X105.65 Y50. I0. J7.35
N2665 G1 Y80.
N2670 G3 X77.35 I-14.15 J0.
N2675 G1 Y50.
N2680 G2 X70. Y42.65 I-7.35 J0.
N2685 G1 X50.
N2690 G2 X42.65 Y50. I0. J7.35
N2695 G1 Y315.
N2700 G2 X44.625 Y317.962 I3.209 J0.
N2705 G3 X46.6 Y320.925 I-1.234 J2.962
N2710 G1 Y580.
N2715 G2 X50. Y583.4 I3.4 J0.
N2720 G1 X66.5
N2725 G2 X69.9 Y580. I0. J-3.4
N2730 G1 Y575.4
N2735 X113.1
N2740 Y580.
N2745 G2 X116.5 Y583.4 I3.4 J0.
N2750 G1 X133.
N2755 G2 X136.4 Y580. I0. J-3.4
N2760 G1 Y80.
N2765 Y50.
N2770 G2 X133. Y46.6 I-3.4 J0.
N2775 G1 X113.
N2780 G2 X109.6 Y50. I0. J3.4
N2785 G1 Y80.
N2790 G3 X73.4 I-18.1 J0.
N2795 G1 Y50.
N2800 G2 X70. Y46.6 I-3.4 J0.
N2805 G1 X50.
N2810 G2 X46.6 Y50. I0. J3.4
N2815 G1 Y320.925
N2820 G2 X46.9 Y321.375 I0.488 J0.
N2825 G3 X47.2 Y321.825 I-0.188 J0.45
N2830 G1 Y580.
N2835 G2 X50. Y582.8 I2.8 J0.
N2840 G1 X66.5
N2845 G2 X69.3 Y580. I0. J-2.8
N2850 G1 Y574.8
N2855 X113.7
N2860 Y580.
N2865 G2 X116.5 Y582.8 I2.8 J0.
N2870 G1 X133.
N2875 G2 X135.8 Y580. I0. J-2.8
N2880 G1 Y50.
N2885 G2 X133. Y47.2 I-2.8 J0.
N2890 G1 X113.
N2895 G2 X110.2 Y50. I0. J2.8
N2900 G1 Y80.
N2905 G3 X72.8 I-18.7 J0.
N2910 G1 Y50.
N2915 G2 X70. Y47.2 I-2.8 J0.
N2920 G1 X50.
N2925 G2 X47.2 Y50. I0. J2.8
N2930 G1 Y321.825
N2935 G3 X46.6 Y322.425 I-0.6 J0. F400.
N2940 G1 X46.
N2945 G18 G3 X45.4 Z-16.9 I0. K0.6
N2950 G0 Z10.
N2955 X40.85 Y171.219
N2960 Z8.
N2965 G1 Z-14.4 F200.
N2970 G2 X41.45 Z-15. I0.6 K0.
N2975 G1 X42.05 F400.
N2980 G17 G3 X42.65 Y171.819 I0. J0.6
N2985 G1 Y302. Z-19.546 F200.
N2990 Z-19.5
N2995 Y315.
N3000 Y328. F1200.
N3005 Z-20. F200.
N3010 Y408. F1200.
N3015 Z-19.5
N3020 Y434.
N3025 Z-20. F200.
N3030 Y514. F1200.
N3035 Z-19.5
N3040 Y540.
N3045 Z-20. F200.
N3050 Y580. F1200.
N3055 G2 X50. Y587.35 I7.35 J0.
N3060 G1 X66.5
N3065 G2 X73.817 Y580. I0. J-7.317
N3070 G1 X73.811 Y579.812
N3075 X73.805 Y579.624
N3080 G3 X74.124 Y579.305 I0.319 J0.
N3085 G1 X108.876
N3090 G3 X109.195 Y579.624 I0. J0.319
N3095 G1 X109.189 Y579.812
N3100 X109.183 Y580.
N3105 G2 X116.5 Y587.35 I7.35 J0.
N3110 G1 X133.
N3115 G2 X140.35 Y580. I0. J-7.35
N3120 G1 Y540.
N3125 Z-19.5
N3130 Y514.
N3135 Z-20. F200.
N3140 Y434. F1200.
N3145 Z-19.5
N3150 Y408.
N3155 Z-20. F200.
N3160 Y328. F1200.
N3165 Z-19.5
N3170 Y302.
N3175 Z-20. F200.
N3180 Y222. F1200.
N3185 Z-19.5
N3190 Y196.
N3195 Z-20. F200.
N3200 Y116. F1200.
N3205 Z-19.5
N3210 Y90.
N3215 Z-20. F200.
N3220 Y50. F1200.
N3225 G2 X133. Y42.65 I-7.35 J0.
N3230 G1 X113.
N3235 G2 X105.65 Y50. I0. J7.35
N3240 G1 Y80.
N3245 G3 X77.35 I-14.15 J0.
N3250 G1 Y50.
N3255 G2 X70. Y42.65 I-7.35 J0.
N3260 G1 X50.
N3265 G2 X42.65 Y50. I0. J7.35
N3270 G1 Y90.
N3275 Z-19.5
N3280 Y116.
N3285 Z-20. F200.
N3290 Y196. F1200.
N3295 Z-19.5
N3300 Y222.
N3305 Z-20. F200.
N3310 Y302. F1200.
N3315 Z-19.5
N3320 Y315.
N3325 G2 X44.625 Y317.962 I3.209 J0.
N3330 G3 X46.6 Y320.925 I-1.234 J2.962
N3335 G1 Y328.
N3340 Z-20. F200.
N3345 Y408. F1200.
N3350 Z-19.5
N3355 Y434.
N3360 Z-20. F200.
N3365 Y514. F1200.
N3370 Z-19.5
N3375 Y540.
N3380 Z-20. F200.
N3385 Y580. F1200.
N3390 G2 X50. Y583.4 I3.4 J0.
N3395 G1 X66.5
N3400 G2 X69.9 Y580. I0. J-3.4
N3405 G1 Y575.4
N3410 X113.1
N3415 Y580.
N3420 G2 X116.5 Y583.4 I3.4 J0.
N3425 G1 X133.
N3430 G2 X136.4 Y580. I0. J-3.4
N3435 G1 Y540.
N3440 Z-19.5
N3445 Y514.
N3450 Z-20. F200.
N3455 Y434. F1200.
N3460 Z-19.5
N3465 Y408.
N3470 Z-20. F200.
N3475 Y328. F1200.
N3480 Z-19.5
N3485 Y302.
N3490 Z-20. F200.
N3495 Y222. F1200.
N3500 Z-19.5
N3505 Y196.
N3510 Z-20. F200.
N3515 Y116. F1200.
N3520 Z-19.5
N3525 Y90.
N3530 Z-20. F200.
N3535 Y50. F1200.
N3540 G2 X133. Y46.6 I-3.4 J0.
N3545 G1 X113.
N3550 G2 X109.6 Y50. I0. J3.4
N3555 G1 Y80.
N3560 G3 X73.4 I-18.1 J0.
N3565 G1 Y50.
N3570 G2 X70. Y46.6 I-3.4 J0.
N3575 G1 X50.
N3580 G2 X46.6 Y50. I0. J3.4
N3585 G1 Y90.
N3590 Z-19.5
N3595 Y116.
N3600 Z-20. F200.
N3605 Y196. F1200.
N3610 Z-19.5
N3615 Y222.
N3620 Z-20. F200.
N3625 Y302. F1200.
N3630 Z-19.5
N3635 Y320.925
N3640 G2 X46.9 Y321.375 I0.488 J0.
N3645 G3 X47.2 Y321.825 I-0.188 J0.45
N3650 G1 Y328.
N3655 Z-20. F200.
N3660 Y408. F1200.
N3665 Z-19.5
N3670 Y434.
N3675 Z-20. F200.
N3680 Y514. F1200.
N3685 Z-19.5
N3690 Y540.
N3695 Z-20. F200.
N3700 Y580. F1200.
N3705 G2 X50. Y582.8 I2.8 J0.
N3710 G1 X66.5
N3715 G2 X69.3 Y580. I0. J-2.8
N3720 G1 Y574.8
N3725 X113.7
N3730 Y580.
N3735 G2 X116.5 Y582.8 I2.8 J0.
N3740 G1 X133.
N3745 G2 X135.8 Y580. I0. J-2.8
N3750 G1 Y540.
N3755 Z-19.5
N3760 Y514.
N3765 Z-20. F200.
N3770 Y434. F1200.
N3775 Z-19.5
N3780 Y408.
N3785 Z-20. F200.
N3790 Y328. F1200.
N3795 Z-19.5
N3800 Y302.
N3805 Z-20. F200.
N3810 Y222. F1200.
N3815 Z-19.5
N3820 Y196.
N3825 Z-20. F200.
N3830 Y116. F1200.
N3835 Z-19.5
N3840 Y90.
N3845 Z-20. F200.
N3850 Y50. F1200.
N3855 G2 X133. Y47.2 I-2.8 J0.
N3860 G1 X113.
N3865 G2 X110.2 Y50. I0. J2.8
N3870 G1 Y80.
N3875 G3 X72.8 I-18.7 J0.
N3880 G1 Y50.
N3885 G2 X70. Y47.2 I-2.8 J0.
N3890 G1 X50.
N3895 G2 X47.2 Y50. I0. J2.8
N3900 G1 Y90.
N3905 Z-19.5
N3910 Y116.
N3915 Z-20. F200.
N3920 Y196. F1200.
N3925 Z-19.5
N3930 Y222.
N3935 Z-20. F200.
N3940 Y302. F1200.
N3945 Z-19.5
N3950 Y321.825
N3955 G3 X46.6 Y322.425 I-0.6 J0. F400.
N3960 G1 X46.
N3965 X45.408 F200.
N3970 X45.402 Z-19.45 F400.
N3975 X45.4 Z-19.4
N3980 G0 Z10.
N3985 X40.85 Y171.219
N3990 Z8.
N3995 G1 Z-16.9 F200.
N4000 G18 G2 X41.45 Z-17.5 I0.6 K0.
N4005 G1 X42.05 F400.
N4010 G17 G3 X42.65 Y171.819 I0. J0.6
N4015 G1 Y302. Z-22.046 F200.
N4020 Z-19.5
N4025 Y315.
N4030 Y328. F1200.
N4035 Z-22.5 F200.
N4040 Y408. F1200.
N4045 Z-19.5
N4050 Y434.
N4055 Z-22.5 F200.
N4060 Y514. F1200.
N4065 Z-19.5
N4070 Y540.
N4075 Z-22.5 F200.
N4080 Y580. F1200.
N4085 G2 X50. Y587.35 I7.35 J0.
N4090 G1 X66.5
N4095 G2 X73.817 Y580. I0. J-7.317
N4100 G1 X73.811 Y579.812
N4105 X73.805 Y579.624
N4110 G3 X74.124 Y579.305 I0.319 J0.
N4115 G1 X108.876
N4120 G3 X109.195 Y579.624 I0. J0.319
N4125 G1 X109.189 Y579.812
N4130 X109.183 Y580.
N4135 G2 X116.5 Y587.35 I7.35 J0.
N4140 G1 X133.
N4145 G2 X140.35 Y580. I0. J-7.35
N4150 G1 Y540.
N4155 Z-19.5
N4160 Y514.
N4165 Z-22.5 F200.
N4170 Y434. F1200.
N4175 Z-19.5
N4180 Y408.
N4185 Z-22.5 F200.
N4190 Y328. F1200.
N4195 Z-19.5
N4200 Y302.
N4205 Z-22.5 F200.
N4210 Y222. F1200.
N4215 Z-19.5
N4220 Y196.
N4225 Z-22.5 F200.
N4230 Y116. F1200.
N4235 Z-19.5
N4240 Y90.
N4245 Z-22.5 F200.
N4250 Y50. F1200.
N4255 G2 X133. Y42.65 I-7.35 J0.
N4260 G1 X113.
N4265 G2 X105.65 Y50. I0. J7.35
N4270 G1 Y80.
N4275 G3 X77.35 I-14.15 J0.
N4280 G1 Y50.
N4285 G2 X70. Y42.65 I-7.35 J0.
N4290 G1 X50.
N4295 G2 X42.65 Y50. I0. J7.35
N4300 G1 Y90.
N4305 Z-19.5
N4310 Y116.
N4315 Z-22.5 F200.
N4320 Y196. F1200.
N4325 Z-19.5
N4330 Y222.
N4335 Z-22.5 F200.
N4340 Y302. F1200.
N4345 Z-19.5
N4350 Y315.
N4355 G2 X44.625 Y317.962 I3.209 J0.
N4360 G3 X46.6 Y320.925 I-1.234 J2.962
N4365 G1 Y328.
N4370 Z-22.5 F200.
N4375 Y408. F1200.
N4380 Z-19.5
N4385 Y434.
N4390 Z-22.5 F200.
N4395 Y514. F1200.
N4400 Z-19.5
N4405 Y540.
N4410 Z-22.5 F200.
N4415 Y580. F1200.
N4420 G2 X50. Y583.4 I3.4 J0.
N4425 G1 X66.5
N4430 G2 X69.9 Y580. I0. J-3.4
N4435 G1 Y575.4
N4440 X113.1
N4445 Y580.
N4450 G2 X116.5 Y583.4 I3.4 J0.
N4455 G1 X133.
N4460 G2 X136.4 Y580. I0. J-3.4
N4465 G1 Y540.
N4470 Z-19.5
N4475 Y514.
N4480 Z-22.5 F200.
N4485 Y434. F1200.
N4490 Z-19.5
N4495 Y408.
N4500 Z-22.5 F200.
N4505 Y328. F1200.
N4510 Z-19.5
N4515 Y302.
N4520 Z-22.5 F200.
N4525 Y222. F1200.
N4530 Z-19.5
N4535 Y196.
N4540 Z-22.5 F200.
N4545 Y116. F1200.
N4550 Z-19.5
N4555 Y90.
N4560 Z-22.5 F200.
N4565 Y50. F1200.
N4570 G2 X133. Y46.6 I-3.4 J0.
N4575 G1 X113.
N4580 G2 X109.6 Y50. I0. J3.4
N4585 G1 Y80.
N4590 G3 X73.4 I-18.1 J0.
N4595 G1 Y50.
N4600 G2 X70. Y46.6 I-3.4 J0.
N4605 G1 X50.
N4610 G2 X46.6 Y50. I0. J3.4
N4615 G1 Y90.
N4620 Z-19.5
N4625 Y116.
N4630 Z-22.5 F200.
N4635 Y196. F1200.
N4640 Z-19.5
N4645 Y222.
N4650 Z-22.5 F200.
N4655 Y302. F1200.
N4660 Z-19.5
N4665 Y320.925
N4670 G2 X46.9 Y321.375 I0.488 J0.
N4675 G3 X47.2 Y321.825 I-0.188 J0.45
N4680 G1 Y328.
N4685 Z-22.5 F200.
N4690 Y408. F1200.
N4695 Z-19.5
N4700 Y434.
N4705 Z-22.5 F200.
N4710 Y514. F1200.
N4715 Z-19.5
N4720 Y540.
N4725 Z-22.5 F200.
N4730 Y580. F1200.
N4735 G2 X50. Y582.8 I2.8 J0.
N4740 G1 X66.5
N4745 G2 X69.3 Y580. I0. J-2.8
N4750 G1 Y574.8
N4755 X113.7
N4760 Y580.
N4765 G2 X116.5 Y582.8 I2.8 J0.
N4770 G1 X133.
N4775 G2 X135.8 Y580. I0. J-2.8
N4780 G1 Y540.
N4785 Z-19.5
N4790 Y514.
N4795 Z-22.5 F200.
N4800 Y434. F1200.
N4805 Z-19.5
N4810 Y408.
N4815 Z-22.5 F200.
N4820 Y328. F1200.
N4825 Z-19.5
N4830 Y302.
N4835 Z-22.5 F200.
N4840 Y222. F1200.
N4845 Z-19.5
N4850 Y196.
N4855 Z-22.5 F200.
N4860 Y116. F1200.
N4865 Z-19.5
N4870 Y90.
N4875 Z-22.5 F200.
N4880 Y50. F1200.
N4885 G2 X133. Y47.2 I-2.8 J0.
N4890 G1 X113.
N4895 G2 X110.2 Y50. I0. J2.8
N4900 G1 Y80.
N4905 G3 X72.8 I-18.7 J0.
N4910 G1 Y50.
N4915 G2 X70. Y47.2 I-2.8 J0.
N4920 G1 X50.
N4925 G2 X47.2 Y50. I0. J2.8
N4930 G1 Y90.
N4935 Z-19.5
N4940 Y116.
N4945 Z-22.5 F200.
N4950 Y196. F1200.
N4955 Z-19.5
N4960 Y222.
N4965 Z-22.5 F200.
N4970 Y302. F1200.
N4975 Z-19.5
N4980 Y321.825
N4985 G3 X46.6 Y322.425 I-0.6 J0. F400.
N4990 G1 X45.4
N4995 G0 Z10.
N5000 X263.006 Y364.309
N5005 Z8.
N5010 G1 Z3.1 F200.
N5015 G18 G2 X263.606 Z2.5 I0.6 K0.
N5020 G1 X264.206 F400.
N5025 G17 G3 X264.806 Y364.909 I0. J0.6
N5030 G1 Y380. Z1.973 F200.
N5035 G2 X272.156 Y387.35 Z1.57 I7.35 J0.
N5040 G1 X312.156 Z0.173
N5045 G2 X319.506 Y380. Z-0.23 I0. J-7.35
N5050 G1 Y315. Z-2.5
N5055 Y80. F1200.
N5060 G2 X312.156 Y72.65 I-7.35 J0.
N5065 G1 X272.156
N5070 G2 X264.806 Y80. I0. J7.35
N5075 G1 Y380.
N5080 G2 X272.156 Y387.35 I7.35 J0.
N5085 G1 X312.156
N5090 G2 X319.506 Y380. I0. J-7.35
N5095 G1 Y315.
N5100 G2 X317.531 Y312.038 I-3.209 J0.
N5105 G3 X315.556 Y309.075 I1.234 J-2.962
N5110 G1 Y80.
N5115 G2 X312.156 Y76.6 I-3.4 J0.
N5120 G1 X272.156
N5125 G2 X268.756 Y80. I0. J3.4
N5130 G1 Y380.
N5135 G2 X272.156 Y383.4 I3.4 J0.
N5140 G1 X312.156
N5145 G2 X315.556 Y380. I0. J-3.4
N5150 G1 Y309.075
N5155 G2 X315.256 Y308.625 I-0.487 J0.
N5160 G3 X314.956 Y308.175 I0.188 J-0.45
N5165 G1 Y80.
N5170 G2 X312.156 Y77.2 I-2.8 J0.
N5175 G1 X272.156
N5180 G2 X269.356 Y80. I0. J2.8
N5185 G1 Y380.
N5190 G2 X272.156 Y382.8 I2.8 J0.
N5195 G1 X312.156
N5200 G2 X314.956 Y380. I0. J-2.8
N5205 G1 Y308.175
N5210 G3 X315.556 Y307.575 I0.6 J0. F400.
N5215 G1 X316.156
N5220 G18 G2 X316.756 Z-1.9 I0. K0.6
N5225 G0 Z10.
N5230 X263.006 Y364.309
N5235 Z8.
N5240 G1 Z0.6 F200.
N5245 G2 X263.606 Z0. I0.6 K0.
N5250 G1 X264.206 F400.
N5255 G17 G3 X264.806 Y364.909 I0. J0.6
N5260 G1 Y380. Z-0.527 F200.
N5265 G2 X272.156 Y387.35 Z-0.93 I7.35 J0.
N5270 G1 X312.156 Z-2.327
N5275 G2 X319.506 Y380. Z-2.73 I0. J-7.35
N5280 G1 Y315. Z-5.
N5285 Y80. F1200.
N5290 G2 X312.156 Y72.65 I-7.35 J0.
N5295 G1 X272.156
N5300 G2 X264.806 Y80. I0. J7.35
N5305 G1 Y380.
N5310 G2 X272.156 Y387.35 I7.35 J0.
N5315 G1 X312.156
N5320 G2 X319.506 Y380. I0. J-7.35
N5325 G1 Y315.
N5330 G2 X317.531 Y312.038 I-3.209 J0.
N5335 G3 X315.556 Y309.075 I1.234 J-2.962
N5340 G1 Y80.
N5345 G2 X312.156 Y76.6 I-3.4 J0.
N5350 G1 X272.156
N5355 G2 X268.756 Y80. I0. J3.4
N5360 G1 Y380.
N5365 G2 X272.156 Y383.4 I3.4 J0.
N5370 G1 X312.156
N5375 G2 X315.556 Y380. I0. J-3.4
N5380 G1 Y309.075
N5385 G2 X315.256 Y308.625 I-0.487 J0.
N5390 G3 X314.956 Y308.175 I0.188 J-0.45
N5395 G1 Y80.
N5400 G2 X312.156 Y77.2 I-2.8 J0.
N5405 G1 X272.156
N5410 G2 X269.356 Y80. I0. J2.8
N5415 G1 Y380.
N5420 G2 X272.156 Y382.8 I2.8 J0.
N5425 G1 X312.156
N5430 G2 X314.956 Y380. I0. J-2.8
N5435 G1 Y308.175
N5440 G3 X315.556 Y307.575 I0.6 J0. F400.
N5445 G1 X316.156
N5450 G18 G2 X316.756 Z-4.4 I0. K0.6
N5455 G0 Z10.
N5460 X263.006 Y364.309
N5465 Z8.
N5470 G1 Z-1.9 F200.
N5475 G2 X263.606 Z-2.5 I0.6 K0.
N5480 G1 X264.206 F400.
N5485 G17 G3 X264.806 Y364.909 I0. J0.6
N5490 G1 Y380. Z-3.027 F200.
N5495 G2 X272.156 Y387.35 Z-3.43 I7.35 J0.
N5500 G1 X312.156 Z-4.827
N5505 G2 X319.506 Y380. Z-5.23 I0. J-7.35
N5510 G1 Y315. Z-7.5
N5515 Y80. F1200.
N5520 G2 X312.156 Y72.65 I-7.35 J0.
N5525 G1 X272.156
N5530 G2 X264.806 Y80. I0. J7.35
N5535 G1 Y380.
N5540 G2 X272.156 Y387.35 I7.35 J0.
N5545 G1 X312.156
N5550 G2 X319.506 Y380. I0. J-7.35
N5555 G1 Y315.
N5560 G2 X317.531 Y312.038 I-3.209 J0.
N5565 G3 X315.556 Y309.075 I1.234 J-2.962
N5570 G1 Y80.
N5575 G2 X312.156 Y76.6 I-3.4 J0.
N5580 G1 X272.156
N5585 G2 X268.756 Y80. I0. J3.4
N5590 G1 Y380.
N5595 G2 X272.156 Y383.4 I3.4 J0.
N5600 G1 X312.156
N5605 G2 X315.556 Y380. I0. J-3.4
N5610 G1 Y309.075
N5615 G2 X315.256 Y308.625 I-0.487 J0.
N5620 G3 X314.956 Y308.175 I0.188 J-0.45
N5625 G1 Y80.
N5630 G2 X312.156 Y77.2 I-2.8 J0.
N5635 G1 X272.156
N5640 G2 X269.356 Y80. I0. J2.8
N5645 G1 Y380.
N5650 G2 X272.156 Y382.8 I2.8 J0.
N5655 G1 X312.156
N5660 G2 X314.956 Y380. I0. J-2.8
N5665 G1 Y308.175
N5670 G3 X315.556 Y307.575 I0.6 J0. F400.
N5675 G1 X316.156
N5680 G18 G2 X316.756 Z-6.9 I0. K0.6
N5685 G0 Z10.
N5690 X263.006 Y364.309
N5695 Z8.
N5700 G1 Z-4.4 F200.
N5705 G2 X263.606 Z-5. I0.6 K0.
N5710 G1 X264.206 F400.
N5715 G17 G3 X264.806 Y364.909 I0. J0.6
N5720 G1 Y380. Z-5.527 F200.
N5725 G2 X272.156 Y387.35 Z-5.93 I7.35 J0.
N5730 G1 X312.156 Z-7.327
N5735 G2 X319.506 Y380. Z-7.73 I0. J-7.35
N5740 G1 Y315. Z-10.
N5745 Y80. F1200.
N5750 G2 X312.156 Y72.65 I-7.35 J0.
N5755 G1 X272.156
N5760 G2 X264.806 Y80. I0. J7.35
N5765 G1 Y380.
N5770 G2 X272.156 Y387.35 I7.35 J0.
N5775 G1 X312.156
N5780 G2 X319.506 Y380. I0. J-7.35
N5785 G1 Y315.
N5790 G2 X317.531 Y312.038 I-3.209 J0.
N5795 G3 X315.556 Y309.075 I1.234 J-2.962
N5800 G1 Y80.
N5805 G2 X312.156 Y76.6 I-3.4 J0.
N5810 G1 X272.156
N5815 G2 X268.756 Y80. I0. J3.4
N5820 G1 Y380.
N5825 G2 X272.156 Y383.4 I3.4 J0.
N5830 G1 X312.156
N5835 G2 X315.556 Y380. I0. J-3.4
N5840 G1 Y309.075
N5845 G2 X315.256 Y308.625 I-0.487 J0.
N5850 G3 X314.956 Y308.175 I0.188 J-0.45
N5855 G1 Y80.
N5860 G2 X312.156 Y77.2 I-2.8 J0.
N5865 G1 X272.156
N5870 G2 X269.356 Y80. I0. J2.8
N5875 G1 Y380.
N5880 G2 X272.156 Y382.8 I2.8 J0.
N5885 G1 X312.156
N5890 G2 X314.956 Y380. I0. J-2.8
N5895 G1 Y308.175
N5900 G3 X315.556 Y307.575 I0.6 J0. F400.
N5905 G1 X316.156
N5910 G18 G2 X316.756 Z-9.4 I0. K0.6
N5915 G0 Z10.
N5920 X263.006 Y364.309
N5925 Z8.
N5930 G1 Z-6.9 F200.
N5935 G2 X263.606 Z-7.5 I0.6 K0.
N5940 G1 X264.206 F400.
N5945 G17 G3 X264.806 Y364.909 I0. J0.6
N5950 G1 Y380. Z-8.027 F200.
N5955 G2 X272.156 Y387.35 Z-8.43 I7.35 J0.
N5960 G1 X312.156 Z-9.827
N5965 G2 X319.506 Y380. Z-10.23 I0. J-7.35
N5970 G1 Y315. Z-12.5
N5975 Y80. F1200.
N5980 G2 X312.156 Y72.65 I-7.35 J0.
N5985 G1 X272.156
N5990 G2 X264.806 Y80. I0. J7.35
N5995 G1 Y380.
N6000 G2 X272.156 Y387.35 I7.35 J0.
N6005 G1 X312.156
N6010 G2 X319.506 Y380. I0. J-7.35
N6015 G1 Y315.
N6020 G2 X317.531 Y312.038 I-3.209 J0.
N6025 G3 X315.556 Y309.075 I1.234 J-2.962
N6030 G1 Y80.
N6035 G2 X312.156 Y76.6 I-3.4 J0.
N6040 G1 X272.156
N6045 G2 X268.756 Y80. I0. J3.4
N6050 G1 Y380.
N6055 G2 X272.156 Y383.4 I3.4 J0.
N6060 G1 X312.156
N6065 G2 X315.556 Y380. I0. J-3.4
N6070 G1 Y309.075
N6075 G2 X315.256 Y308.625 I-0.487 J0.
N6080 G3 X314.956 Y308.175 I0.188 J-0.45
N6085 G1 Y80.
N6090 G2 X312.156 Y77.2 I-2.8 J0.
N6095 G1 X272.156
N6100 G2 X269.356 Y80. I0. J2.8
N6105 G1 Y380.
N6110 G2 X272.156 Y382.8 I2.8 J0.
N6115 G1 X312.156
N6120 G2 X314.956 Y380. I0. J-2.8
N6125 G1 Y308.175
N6130 G3 X315.556 Y307.575 I0.6 J0. F400.
N6135 G1 X316.156
N6140 G18 G2 X316.756 Z-11.9 I0. K0.6
N6145 G0 Z10.
N6150 X263.006 Y364.309
N6155 Z8.
N6160 G1 Z-9.4 F200.
N6165 G2 X263.606 Z-10. I0.6 K0.
N6170 G1 X264.206 F400.
N6175 G17 G3 X264.806 Y364.909 I0. J0.6
N6180 G1 Y380. Z-10.527 F200.
N6185 G2 X272.156 Y387.35 Z-10.93 I7.35 J0.
N6190 G1 X312.156 Z-12.327
N6195 G2 X319.506 Y380. Z-12.73 I0. J-7.35
N6200 G1 Y315. Z-15.
N6205 Y80. F1200.
N6210 G2 X312.156 Y72.65 I-7.35 J0.
N6215 G1 X272.156
N6220 G2 X264.806 Y80. I0. J7.35
N6225 G1 Y380.
N6230 G2 X272.156 Y387.35 I7.35 J0.
N6235 G1 X312.156
N6240 G2 X319.506 Y380. I0. J-7.35
N6245 G1 Y315.
N6250 G2 X317.531 Y312.038 I-3.209 J0.
N6255 G3 X315.556 Y309.075 I1.234 J-2.962
N6260 G1 Y80.
N6265 G2 X312.156 Y76.6 I-3.4 J0.
N6270 G1 X272.156
N6275 G2 X268.756 Y80. I0. J3.4
N6280 G1 Y380.
N6285 G2 X272.156 Y383.4 I3.4 J0.
N6290 G1 X312.156
N6295 G2 X315.556 Y380. I0. J-3.4
N6300 G1 Y309.075
N6305 G2 X315.256 Y308.625 I-0.487 J0.
N6310 G3 X314.956 Y308.175 I0.188 J-0.45
N6315 G1 Y80.
N6320 G2 X312.156 Y77.2 I-2.8 J0.
N6325 G1 X272.156
N6330 G2 X269.356 Y80. I0. J2.8
N6335 G1 Y380.
N6340 G2 X272.156 Y382.8 I2.8 J0.
N6345 G1 X312.156
N6350 G2 X314.956 Y380. I0. J-2.8
N6355 G1 Y308.175
N6360 G3 X315.556 Y307.575 I0.6 J0. F400.
N6365 G1 X316.156
N6370 G18 G2 X316.756 Z-14.4 I0. K0.6
N6375 G0 Z10.
N6380 X263.006 Y364.309
N6385 Z8.
N6390 G1 Z-11.9 F200.
N6395 G2 X263.606 Z-12.5 I0.6 K0.
N6400 G1 X264.206 F400.
N6405 G17 G3 X264.806 Y364.909 I0. J0.6
N6410 G1 Y380. Z-13.027 F200.
N6415 G2 X272.156 Y387.35 Z-13.43 I7.35 J0.
N6420 G1 X312.156 Z-14.827
N6425 G2 X319.506 Y380. Z-15.23 I0. J-7.35
N6430 G1 Y315. Z-17.5
N6435 Y80. F1200.
N6440 G2 X312.156 Y72.65 I-7.35 J0.
N6445 G1 X272.156
N6450 G2 X264.806 Y80. I0. J7.35
N6455 G1 Y380.
N6460 G2 X272.156 Y387.35 I7.35 J0.
N6465 G1 X312.156
N6470 G2 X319.506 Y380. I0. J-7.35
N6475 G1 Y315.
N6480 G2 X317.531 Y312.038 I-3.209 J0.
N6485 G3 X315.556 Y309.075 I1.234 J-2.962
N6490 G1 Y80.
N6495 G2 X312.156 Y76.6 I-3.4 J0.
N6500 G1 X272.156
N6505 G2 X268.756 Y80. I0. J3.4
N6510 G1 Y380.
N6515 G2 X272.156 Y383.4 I3.4 J0.
N6520 G1 X312.156
N6525 G2 X315.556 Y380. I0. J-3.4
N6530 G1 Y309.075
N6535 G2 X315.256 Y308.625 I-0.487 J0.
N6540 G3 X314.956 Y308.175 I0.188 J-0.45
N6545 G1 Y80.
N6550 G2 X312.156 Y77.2 I-2.8 J0.
N6555 G1 X272.156
N6560 G2 X269.356 Y80. I0. J2.8
N6565 G1 Y380.
N6570 G2 X272.156 Y382.8 I2.8 J0.
N6575 G1 X312.156
N6580 G2 X314.956 Y380. I0. J-2.8
N6585 G1 Y308.175
N6590 G3 X315.556 Y307.575 I0.6 J0. F400.
N6595 G1 X316.156
N6600 G18 G2 X316.756 Z-16.9 I0. K0.6
N6605 G0 Z10.
N6610 X263.006 Y364.309
N6615 Z8.
N6620 G1 Z-14.4 F200.
N6625 G2 X263.606 Z-15. I0.6 K0.
N6630 G1 X264.206 F400.
N6635 G17 G3 X264.806 Y364.909 I0. J0.6
N6640 G1 Y380. Z-15.527 F200.
N6645 G2 X272.156 Y387.35 Z-15.93 I7.35 J0.
N6650 G1 X312.156 Z-17.327
N6655 G2 X319.506 Y380. Z-17.73 I0. J-7.35
N6660 G1 Y329.318 Z-19.5
N6665 Y317.
N6670 Z-19.93
N6675 Y315. Z-20.
N6680 Y243. F1200.
N6685 Z-19.5
N6690 Y217.
N6695 Z-20. F200.
N6700 Y143. F1200.
N6705 Z-19.5
N6710 Y117.
N6715 Z-20. F200.
N6720 Y80. F1200.
N6725 G2 X312.156 Y72.65 I-7.35 J0.
N6730 G1 X272.156
N6735 G2 X264.806 Y80. I0. J7.35
N6740 G1 Y117.
N6745 Z-19.5
N6750 Y143.
N6755 Z-20. F200.
N6760 Y217. F1200.
N6765 Z-19.5
N6770 Y243.
N6775 Z-20. F200.
N6780 Y317. F1200.
N6785 Z-19.5
N6790 Y343.
N6795 Z-20. F200.
N6800 Y380. F1200.
N6805 G2 X272.156 Y387.35 I7.35 J0.
N6810 G1 X312.156
N6815 G2 X319.506 Y380. I0. J-7.35
N6820 G1 Y343.
N6825 Z-19.5
N6830 Y317.
N6835 Z-20. F200.
N6840 Y315. F1200.
N6845 G2 X317.531 Y312.038 I-3.209 J0.
N6850 G3 X315.556 Y309.075 I1.234 J-2.962
N6855 G1 Y243.
N6860 Z-19.5
N6865 Y217.
N6870 Z-20. F200.
N6875 Y143. F1200.
N6880 Z-19.5
N6885 Y117.
N6890 Z-20. F200.
N6895 Y80. F1200.
N6900 G2 X312.156 Y76.6 I-3.4 J0.
N6905 G1 X272.156
N6910 G2 X268.756 Y80. I0. J3.4
N6915 G1 Y117.
N6920 Z-19.5
N6925 Y143.
N6930 Z-20. F200.
N6935 Y217. F1200.
N6940 Z-19.5
N6945 Y243.
N6950 Z-20. F200.
N6955 Y317. F1200.
N6960 Z-19.5
N6965 Y343.
N6970 Z-20. F200.
N6975 Y380. F1200.
N6980 G2 X272.156 Y383.4 I3.4 J0.
N6985 G1 X312.156
N6990 G2 X315.556 Y380. I0. J-3.4
N6995 G1 Y343.
N7000 Z-19.5
N7005 Y317.
N7010 Z-20. F200.
N7015 Y309.075 F1200.
N7020 G2 X315.256 Y308.625 I-0.487 J0.
N7025 G3 X314.956 Y308.175 I0.188 J-0.45
N7030 G1 Y243.
N7035 Z-19.5
N7040 Y217.
N7045 Z-20. F200.
N7050 Y143. F1200.
N7055 Z-19.5
N7060 Y117.
N7065 Z-20. F200.
N7070 Y80. F1200.
N7075 G2 X312.156 Y77.2 I-2.8 J0.
N7080 G1 X272.156
N7085 G2 X269.356 Y80. I0. J2.8
N7090 G1 Y117.
N7095 Z-19.5
N7100 Y143.
N7105 Z-20. F200.
N7110 Y217. F1200.
N7115 Z-19.5
N7120 Y243.
N7125 Z-20. F200.
N7130 Y317. F1200.
N7135 Z-19.5
N7140 Y343.
N7145 Z-20. F200.
N7150 Y380. F1200.
N7155 G2 X272.156 Y382.8 I2.8 J0.
N7160 G1 X312.156
N7165 G2 X314.956 Y380. I0. J-2.8
N7170 G1 Y343.
N7175 Z-19.5
N7180 Y317.
N7185 Z-20. F200.
N7190 Y308.175 F1200.
N7195 G3 X315.556 Y307.575 I0.6 J0. F400.
N7200 G1 X316.156
N7205 G18 G2 X316.756 Z-19.4 I0. K0.6
N7210 G0 Z10.
N7215 X263.006 Y364.309
N7220 Z8.
N7225 G1 Z-16.9 F200.
N7230 G2 X263.606 Z-17.5 I0.6 K0.
N7235 G1 X264.206 F400.
N7240 G17 G3 X264.806 Y364.909 I0. J0.6
N7245 G1 Y380. Z-18.027 F200.
N7250 G2 X272.156 Y387.35 Z-18.43 I7.35 J0.
N7255 G1 X312.156 Z-19.827
N7260 G2 X319.506 Y380. Z-20.23 I0. J-7.35
N7265 G1 Y343. Z-21.522
N7270 Z-19.5
N7275 Y317.
N7280 Z-22.43
N7285 Y315. Z-22.5
N7290 Y243. F1200.
N7295 Z-19.5
N7300 Y217.
N7305 Z-22.5 F200.
N7310 Y143. F1200.
N7315 Z-19.5
N7320 Y117.
N7325 Z-22.5 F200.
N7330 Y80. F1200.
N7335 G2 X312.156 Y72.65 I-7.35 J0.
N7340 G1 X272.156
N7345 G2 X264.806 Y80. I0. J7.35
N7350 G1 Y117.
N7355 Z-19.5
N7360 Y143.
N7365 Z-22.5 F200.
N7370 Y217. F1200.
N7375 Z-19.5
N7380 Y243.
N7385 Z-22.5 F200.
N7390 Y317. F1200.
N7395 Z-19.5
N7400 Y343.
N7405 Z-22.5 F200.
N7410 Y380. F1200.
N7415 G2 X272.156 Y387.35 I7.35 J0.
N7420 G1 X312.156
N7425 G2 X319.506 Y380. I0. J-7.35
N7430 G1 Y343.
N7435 Z-19.5
N7440 Y317.
N7445 Z-22.5 F200.
N7450 Y315. F1200.
N7455 G2 X317.531 Y312.038 I-3.209 J0.
N7460 G3 X315.556 Y309.075 I1.234 J-2.962
N7465 G1 Y243.
N7470 Z-19.5
N7475 Y217.
N7480 Z-22.5 F200.
N7485 Y143. F1200.
N7490 Z-19.5
N7495 Y117.
N7500 Z-22.5 F200.
N7505 Y80. F1200.
N7510 G2 X312.156 Y76.6 I-3.4 J0.
N7515 G1 X272.156
N7520 G2 X268.756 Y80. I0. J3.4
N7525 G1 Y117.
N7530 Z-19.5
N7535 Y143.
N7540 Z-22.5 F200.
N7545 Y217. F1200.
N7550 Z-19.5
N7555 Y243.
N7560 Z-22.5 F200.
N7565 Y317. F1200.
N7570 Z-19.5
N7575 Y343.
N7580 Z-22.5 F200.
N7585 Y380. F1200.
N7590 G2 X272.156 Y383.4 I3.4 J0.
N7595 G1 X312.156
N7600 G2 X315.556 Y380. I0. J-3.4
N7605 G1 Y343.
N7610 Z-19.5
N7615 Y317.
N7620 Z-22.5 F200.
N7625 Y309.075 F1200.
N7630 G2 X315.256 Y308.625 I-0.487 J0.
N7635 G3 X314.956 Y308.175 I0.188 J-0.45
N7640 G1 Y243.
N7645 Z-19.5
N7650 Y217.
N7655 Z-22.5 F200.
N7660 Y143. F1200.
N7665 Z-19.5
N7670 Y117.
N7675 Z-22.5 F200.
N7680 Y80. F1200.
N7685 G2 X312.156 Y77.2 I-2.8 J0.
N7690 G1 X272.156
N7695 G2 X269.356 Y80. I0. J2.8
N7700 G1 Y117.
N7705 Z-19.5
N7710 Y143.
N7715 Z-22.5 F200.
N7720 Y217. F1200.
N7725 Z-19.5
N7730 Y243.
N7735 Z-22.5 F200.
N7740 Y317. F1200.
N7745 Z-19.5
N7750 Y343.
N7755 Z-22.5 F200.
N7760 Y380. F1200.
N7765 G2 X272.156 Y382.8 I2.8 J0.
N7770 G1 X312.156
N7775 G2 X314.956 Y380. I0. J-2.8
N7780 G1 Y343.
N7785 Z-19.5
N7790 Y317.
N7795 Z-22.5 F200.
N7800 Y308.175 F1200.
N7805 G3 X315.556 Y307.575 I0.6 J0. F400.
N7810 G1 X316.156
N7815 G18 G2 X316.756 Z-21.9 I0. K0.6
N7820 G0 Z25.
N7825 G17
N7830 G53 G0 Z0.
N7835 M30
%
