%
(BED_SLOTS)
(SLOTS)
(T1  D=6. CR=0. - ZMIN=-6.3 - FLAT END MILL)
N10 G90 G94 G17 G91.1
N15 G21
N20 G53 G0 Z0.
(2D POCKET2)
N25 M9
N30 T1 M6
N35 S22000 M3
N40 G54
N45 G0 X777.598 Y2446.394
N50 G43 Z20. H1
N55 G0 Z5.
N60 G1 Z-1.5 F500.
N65 G19 G2 Y2445.794 Z-2.1 J-0.6 K0.
N70 G1 Y2442.89
N75 Y-2.895 F800.
N80 G17 G3 X777.898 Y-3.195 I0.3 J0.
N85 G1 X777.899
N90 X782.102 Y-3.19
N95 G3 X782.402 Y-2.89 I0. J0.3
N100 G1 Y2442.895
N105 G2 X782.702 Y2443.195 I0.3 J0.
N110 G1 X787. Y2443.191
N115 G2 X787.3 Y2442.891 I0. J-0.3
N120 G1 Y-2.892
N125 G2 X787. Y-3.192 I-0.3 J0.
N130 G1 X773. Y-3.191
N135 G2 X772.7 Y-2.891 I0. J0.3
N140 G1 Y2442.892
N145 G2 X772.918 Y2443.181 I0.3 J0.
N150 G1 X777.216 Y2444.402
N155 G2 X777.598 Y2444.114 I0.082 J-0.289
N160 G19 G3 Y2443.514 Z-2.7 J0. K-0.6 F500.
N165 G1 Z-3.6
N170 G2 Y2442.914 Z-4.2 J-0.6 K0.
N175 G1 Y2442.89
N180 Y-2.895 F800.
N185 G17 G3 X777.898 Y-3.195 I0.3 J0.
N190 G1 X777.899
N195 X782.102 Y-3.19
N200 G3 X782.402 Y-2.89 I0. J0.3
N205 G1 Y2442.895
N210 G2 X782.702 Y2443.195 I0.3 J0.
N215 G1 X787. Y2443.191
N220 G2 X787.3 Y2442.891 I0. J-0.3
N225 G1 Y-2.892
N230 G2 X787. Y-3.192 I-0.3 J0.
N235 G1 X773. Y-3.191
N240 G2 X772.7 Y-2.891 I0. J0.3
N245 G1 Y2442.892
N250 G2 X772.918 Y2443.181 I0.3 J0.
N255 G1 X777.216 Y2444.402
N260 G2 X777.598 Y2444.114 I0.082 J-0.289
N265 G19 G3 Y2443.514 Z-4.8 J0. K-0.6 F500.
N270 G1 Z-5.7
N275 G2 Y2442.914 Z-6.3 J-0.6 K0.
N280 G1 Y2442.89
N285 Y-2.895 F800.
N290 G17 G3 X777.898 Y-3.195 I0.3 J0.
N295 G1 X777.899
N300 X782.102 Y-3.19
N305 G3 X782.402 Y-2.89 I0. J0.3
N310 G1 Y2442.895
N315 G2 X782.702 Y2443.195 I0.3 J0.
N320 G1 X787. Y2443.191
N325 G2 X787.3 Y2442.891 I0. J-0.3
N330 G1 Y-2.892
N335 G2 X787. Y-3.192 I-0.3 J0.
N340 G1 X773. Y-3.191
N345 G2 X772.7 Y-2.891 I0. J0.3
N350 G1 Y2442.892
N355 X772.707 Y2442.986 F500.
N360 X773.147 Y2445.764
N365 X773.162 Y2445.857 Z-6.293
N370 X773.176 Y2445.947 Z-6.271
N375 X773.19 Y2446.033 Z-6.235
N380 X773.203 Y2446.112 Z-6.185
N385 X773.214 Y2446.183 Z-6.124
N390 X773.223 Y2446.244 Z-6.053
N395 X773.231 Y2446.292 Z-5.972
N400 X773.237 Y2446.328 Z-5.885
N405 X773.24 Y2446.349 Z-5.794
N410 X773.241 Y2446.357 Z-5.7
N415 G0 Z5.
N420 X442.378 Y2446.391
N425 G1 Z-1.5 F500.
N430 G19 G2 Y2445.792 Z-2.1 J-0.6 K0.
N435 G1 Y2442.895
N440 X442.357 Y0. F800.
N445 Y-2.892
N450 G17 G2 X442.057 Y-3.192 I-0.3 J0.
N455 G1 X437.898 Y-3.195
N460 G2 X437.598 Y-2.895 I0. J0.3
N465 G1 Y2442.89
N470 G3 X437.298 Y2443.19 I-0.3 J0.
N475 G1 X433. Y2443.192
N480 G3 X432.7 Y2442.892 I0. J-0.3
N485 G1 Y0.
N490 Y-2.891
N495 G3 X433. Y-3.191 I0.3 J0.
N500 G1 X447. Y-3.192
N505 G3 X447.3 Y-2.892 I0. J0.3
N510 G1 Y2440.
N515 Y2442.891
N520 G3 X447.082 Y2443.18 I-0.3 J0.
N525 G1 X442.76 Y2444.406
N530 G3 X442.378 Y2444.118 I-0.082 J-0.289
N535 G19 G3 Y2443.518 Z-2.7 J0. K-0.6 F500.
N540 G1 Z-3.6
N545 G2 Y2442.918 Z-4.2 J-0.6 K0.
N550 G1 Y2442.895
N555 X442.357 Y0. F800.
N560 Y-2.892
N565 G17 G2 X442.057 Y-3.192 I-0.3 J0.
N570 G1 X437.898 Y-3.195
N575 G2 X437.598 Y-2.895 I0. J0.3
N580 G1 Y2442.89
N585 G3 X437.298 Y2443.19 I-0.3 J0.
N590 G1 X433. Y2443.192
N595 G3 X432.7 Y2442.892 I0. J-0.3
N600 G1 Y0.
N605 Y-2.891
N610 G3 X433. Y-3.191 I0.3 J0.
N615 G1 X447. Y-3.192
N620 G3 X447.3 Y-2.892 I0. J0.3
N625 G1 Y2440.
N630 Y2442.891
N635 G3 X447.082 Y2443.18 I-0.3 J0.
N640 G1 X442.76 Y2444.406
N645 G3 X442.378 Y2444.118 I-0.082 J-0.289
N650 G19 G3 Y2443.518 Z-4.8 J0. K-0.6 F500.
N655 G1 Z-5.7
N660 G2 Y2442.918 Z-6.3 J-0.6 K0.
N665 G1 Y2442.895
N670 X442.357 Y0. F800.
N675 Y-2.892
N680 G17 G2 X442.057 Y-3.192 I-0.3 J0.
N685 G1 X437.898 Y-3.195
N690 G2 X437.598 Y-2.895 I0. J0.3
N695 G1 Y2442.89
N700 G3 X437.298 Y2443.19 I-0.3 J0.
N705 G1 X433. Y2443.192
N710 G3 X432.7 Y2442.892 I0. J-0.3
N715 G1 Y0.
N720 Y-2.891
N725 G3 X433. Y-3.191 I0.3 J0.
N730 G1 X447. Y-3.192
N735 G3 X447.3 Y-2.892 I0. J0.3
N740 G1 Y2440.
N745 Y2442.891
N750 X447.293 Y2442.985 F500.
N755 X446.853 Y2445.763
N760 X446.838 Y2445.856 Z-6.293
N765 X446.824 Y2445.946 Z-6.271
N770 X446.81 Y2446.032 Z-6.235
N775 X446.797 Y2446.111 Z-6.185
N780 X446.786 Y2446.182 Z-6.124
N785 X446.777 Y2446.243 Z-6.053
N790 X446.769 Y2446.291 Z-5.972
N795 X446.763 Y2446.327 Z-5.885
N800 X446.76 Y2446.348 Z-5.794
N805 X446.759 Y2446.356 Z-5.7
N810 G0 Z5.
N815 X102.378 Y2446.391
N820 G1 Z-1.5 F500.
N825 G19 G2 Y2445.792 Z-2.1 J-0.6 K0.
N830 G1 Y2442.895
N835 X102.357 Y0. F800.
N840 Y-2.892
N845 G17 G2 X102.057 Y-3.192 I-0.3 J0.
N850 G1 X97.898 Y-3.195
N855 G2 X97.598 Y-2.895 I0. J0.3
N860 G1 Y2442.89
N865 G3 X97.298 Y2443.19 I-0.3 J0.
N870 G1 X93. Y2443.192
N875 G3 X92.7 Y2442.892 I0. J-0.3
N880 G1 Y0.
N885 Y-2.891
N890 G3 X93. Y-3.191 I0.3 J0.
N895 G1 X107. Y-3.192
N900 G3 X107.3 Y-2.892 I0. J0.3
N905 G1 Y2440.
N910 Y2442.891
N915 G3 X107.082 Y2443.18 I-0.3 J0.
N920 G1 X102.76 Y2444.406
N925 G3 X102.378 Y2444.118 I-0.082 J-0.289
N930 G19 G3 Y2443.518 Z-2.7 J0. K-0.6 F500.
N935 G1 Z-3.6
N940 G2 Y2442.918 Z-4.2 J-0.6 K0.
N945 G1 Y2442.895
N950 X102.357 Y0. F800.
N955 Y-2.892
N960 G17 G2 X102.057 Y-3.192 I-0.3 J0.
N965 G1 X97.898 Y-3.195
N970 G2 X97.598 Y-2.895 I0. J0.3
N975 G1 Y2442.89
N980 G3 X97.298 Y2443.19 I-0.3 J0.
N985 G1 X93. Y2443.192
N990 G3 X92.7 Y2442.892 I0. J-0.3
N995 G1 Y0.
N1000 Y-2.891
N1005 G3 X93. Y-3.191 I0.3 J0.
N1010 G1 X107. Y-3.192
N1015 G3 X107.3 Y-2.892 I0. J0.3
N1020 G1 Y2440.
N1025 Y2442.891
N1030 G3 X107.082 Y2443.18 I-0.3 J0.
N1035 G1 X102.76 Y2444.406
N1040 G3 X102.378 Y2444.118 I-0.082 J-0.289
N1045 G19 G3 Y2443.518 Z-4.8 J0. K-0.6 F500.
N1050 G1 Z-5.7
N1055 G2 Y2442.918 Z-6.3 J-0.6 K0.
N1060 G1 Y2442.895
N1065 X102.357 Y0. F800.
N1070 Y-2.892
N1075 G17 G2 X102.057 Y-3.192 I-0.3 J0.
N1080 G1 X97.898 Y-3.195
N1085 G2 X97.598 Y-2.895 I0. J0.3
N1090 G1 Y2442.89
N1095 G3 X97.298 Y2443.19 I-0.3 J0.
N1100 G1 X93. Y2443.192
N1105 G3 X92.7 Y2442.892 I0. J-0.3
N1110 G1 Y0.
N1115 Y-2.891
N1120 G3 X93. Y-3.191 I0.3 J0.
N1125 G1 X107. Y-3.192
N1130 G3 X107.3 Y-2.892 I0. J0.3
N1135 G1 Y2440.
N1140 Y2442.891
N1145 X107.293 Y2442.985 F500.
N1150 X106.853 Y2445.763
N1155 X106.838 Y2445.856 Z-6.293
N1160 X106.824 Y2445.946 Z-6.271
N1165 X106.81 Y2446.032 Z-6.235
N1170 X106.797 Y2446.111 Z-6.185
N1175 X106.786 Y2446.182 Z-6.124
N1180 X106.777 Y2446.243 Z-6.053
N1185 X106.769 Y2446.291 Z-5.972
N1190 X106.763 Y2446.327 Z-5.885
N1195 X106.76 Y2446.348 Z-5.794
N1200 X106.759 Y2446.356 Z-5.7
N1205 G0 Z5.
N1210 X1117.598 Y2446.394
N1215 G1 Z-1.5 F500.
N1220 G19 G2 Y2445.794 Z-2.1 J-0.6 K0.
N1225 G1 Y2442.89
N1230 Y-2.895 F800.
N1235 G17 G3 X1117.898 Y-3.195 I0.3 J0.
N1240 G1 X1122.057 Y-3.192
N1245 G3 X1122.357 Y-2.892 I0. J0.3
N1250 G1 Y0.
N1255 X1122.378 Y2442.895
N1260 G2 X1122.678 Y2443.195 I0.3 J0.
N1265 G1 X1127. Y2443.191
N1270 G2 X1127.3 Y2442.891 I0. J-0.3
N1275 G1 Y-2.892
N1280 G2 X1127. Y-3.192 I-0.3 J0.
N1285 G1 X1113. Y-3.191
N1290 G2 X1112.7 Y-2.891 I0. J0.3
N1295 G1 Y2442.892
N1300 G2 X1112.918 Y2443.181 I0.3 J0.
N1305 G1 X1117.216 Y2444.402
N1310 G2 X1117.598 Y2444.114 I0.082 J-0.289
N1315 G19 G3 Y2443.514 Z-2.7 J0. K-0.6 F500.
N1320 G1 Z-3.6
N1325 G2 Y2442.914 Z-4.2 J-0.6 K0.
N1330 G1 Y2442.89
N1335 Y-2.895 F800.
N1340 G17 G3 X1117.898 Y-3.195 I0.3 J0.
N1345 G1 X1122.057 Y-3.192
N1350 G3 X1122.357 Y-2.892 I0. J0.3
N1355 G1 Y0.
N1360 X1122.378 Y2442.895
N1365 G2 X1122.678 Y2443.195 I0.3 J0.
N1370 G1 X1127. Y2443.191
N1375 G2 X1127.3 Y2442.891 I0. J-0.3
N1380 G1 Y-2.892
N1385 G2 X1127. Y-3.192 I-0.3 J0.
N1390 G1 X1113. Y-3.191
N1395 G2 X1112.7 Y-2.891 I0. J0.3
N1400 G1 Y2442.892
N1405 G2 X1112.918 Y2443.181 I0.3 J0.
N1410 G1 X1117.216 Y2444.402
N1415 G2 X1117.598 Y2444.114 I0.082 J-0.289
N1420 G19 G3 Y2443.514 Z-4.8 J0. K-0.6 F500.
N1425 G1 Z-5.7
N1430 G2 Y2442.914 Z-6.3 J-0.6 K0.
N1435 G1 Y2442.89
N1440 Y-2.895 F800.
N1445 G17 G3 X1117.898 Y-3.195 I0.3 J0.
N1450 G1 X1122.057 Y-3.192
N1455 G3 X1122.357 Y-2.892 I0. J0.3
N1460 G1 Y0.
N1465 X1122.378 Y2442.895
N1470 G2 X1122.678 Y2443.195 I0.3 J0.
N1475 G1 X1127. Y2443.191
N1480 G2 X1127.3 Y2442.891 I0. J-0.3
N1485 G1 Y-2.892
N1490 G2 X1127. Y-3.192 I-0.3 J0.
N1495 G1 X1113. Y-3.191
N1500 G2 X1112.7 Y-2.891 I0. J0.3
N1505 G1 Y2442.892
N1510 X1112.707 Y2442.986 F500.
N1515 X1113.147 Y2445.764
N1520 X1113.162 Y2445.857 Z-6.293
N1525 X1113.176 Y2445.947 Z-6.271
N1530 X1113.19 Y2446.033 Z-6.235
N1535 X1113.203 Y2446.112 Z-6.185
N1540 X1113.214 Y2446.183 Z-6.124
N1545 X1113.223 Y2446.244 Z-6.053
N1550 X1113.231 Y2446.292 Z-5.972
N1555 X1113.237 Y2446.328 Z-5.885
N1560 X1113.24 Y2446.349 Z-5.794
N1565 X1113.241 Y2446.357 Z-5.7
N1570 G0 Z20.
N1575 G53 Z0.
N1580 M30
%
