%
(BORE2)
(T1  D=6. CR=0. - ZMIN=-9. - FLAT END MILL)
N10 G90 G94 G17 G91.1
N15 G21
N20 G53 G0 Z0.
(BORE2)
N25 M9
N30 T1 M6
N35 S22000 M3
N40 G54
N45 M8
N50 G0 X36.65 Y139.15
N55 G43 Z15. H1
N60 G0 Z2.
N65 G1 Z0.6 F500.
N70 G18 G2 X37.25 Z0. I0.6 K0.
N75 G1 X37.55
N80 G17 G3 X38.15 Y139.75 I0. J0.6
N85 G2 X91.85 Z-0.5 I26.85 J0. F800.
N90 X38.15 Z-1. I-26.85 J0.
N95 X91.85 Z-1.5 I26.85 J0.
N100 X38.15 Z-2. I-26.85 J0.
N105 X91.85 Z-2.5 I26.85 J0.
N110 X38.15 Z-3. I-26.85 J0.
N115 X91.85 Z-3.5 I26.85 J0.
N120 X38.15 Z-4. I-26.85 J0.
N125 X91.85 Z-4.5 I26.85 J0.
N130 X38.15 Z-5. I-26.85 J0.
N135 X91.85 Z-5.5 I26.85 J0.
N140 X38.15 Z-6. I-26.85 J0.
N145 X91.85 Z-6.5 I26.85 J0.
N150 X38.15 Z-7. I-26.85 J0.
N155 X91.85 Z-7.5 I26.85 J0.
N160 X38.15 Z-8. I-26.85 J0.
N165 X91.85 Z-8.5 I26.85 J0.
N170 X38.15 Z-9. I-26.85 J0.
N175 X91.85 I26.85 J0.
N180 X38.15 I-26.85 J0.
N185 G3 X37.55 Y140.35 I-0.6 J0. F500.
N190 G1 X37.25
N195 G18 G3 X36.65 Z-8.4 I0. K0.6
N200 G0 Z15.
N205 G17
N210 M9
N215 G53 G0 Z0.
N220 M30
%
