%
(BORING)
(T1  D=6. CR=0. - ZMIN=-25. - FLAT END MILL)
N10 G90 G94 G17 G91.1
N15 G21
N20 G53 G0 Z0.
(BORE1)
N25 M9
N30 T1 M6
N35 S22000 M3
N40 G54
N45 G0 X85. Y74.4
N50 G43 Z15. H1
N55 G0 Z-7.
N60 G1 Z-8.4 F300.
N65 G18 G2 X85.6 Z-9. I0.6 K0.
N70 G1 X85.9
N75 G17 G3 X86.5 Y75. I0. J0.6
N80 X43.5 Z-9.5 I-21.5 J0. F1000.
N85 X86.5 Z-10. I21.5 J0.
N90 X43.5 Z-10.5 I-21.5 J0.
N95 X86.5 Z-11. I21.5 J0.
N100 X43.5 Z-11.5 I-21.5 J0.
N105 X86.5 Z-12. I21.5 J0.
N110 X43.5 Z-12.5 I-21.5 J0.
N115 X86.5 Z-13. I21.5 J0.
N120 X43.5 Z-13.5 I-21.5 J0.
N125 X86.5 Z-14. I21.5 J0.
N130 X43.5 Z-14.5 I-21.5 J0.
N135 X86.5 Z-15. I21.5 J0.
N140 X43.5 Z-15.5 I-21.5 J0.
N145 X86.5 Z-16. I21.5 J0.
N150 X43.5 Z-16.5 I-21.5 J0.
N155 X86.5 Z-17. I21.5 J0.
N160 X43.5 Z-17.5 I-21.5 J0.
N165 X86.5 Z-18. I21.5 J0.
N170 X43.5 Z-18.5 I-21.5 J0.
N175 X86.5 Z-19. I21.5 J0.
N180 X43.5 Z-19.5 I-21.5 J0.
N185 X86.5 Z-20. I21.5 J0.
N190 X43.5 Z-20.5 I-21.5 J0.
N195 X86.5 Z-21. I21.5 J0.
N200 X43.5 Z-21.5 I-21.5 J0.
N205 X86.5 Z-22. I21.5 J0.
N210 X43.5 Z-22.5 I-21.5 J0.
N215 X86.5 Z-23. I21.5 J0.
N220 X43.5 Z-23.5 I-21.5 J0.
N225 X86.5 Z-24. I21.5 J0.
N230 X43.5 Z-24.5 I-21.5 J0.
N235 X86.5 Z-25. I21.5 J0.
N240 X43.5 I-21.5 J0.
N245 X86.5 I21.5 J0.
N250 X85.9 Y75.6 I-0.6 J0. F300.
N255 G1 X85.6
N260 G18 G3 X85. Z-24.4 I0. K0.6
N265 G0 Z5.
N270 X81.315 Y135.909
N275 Z2.
N280 G1 Z0.6 F300.
N285 X81.322 Y135.907 Z0.506
N290 X81.343 Y135.903 Z0.415
N295 X81.379 Y135.896 Z0.328
N300 X81.427 Y135.886 Z0.247
N305 X81.487 Y135.875 Z0.176
N310 X81.557 Y135.861 Z0.115
N315 X81.636 Y135.845 Z0.065
N320 X81.721 Y135.828 Z0.029
N325 X81.811 Y135.81 Z0.007
N330 X81.903 Y135.792 Z0.
N335 X82.197 Y135.734
N340 G17 G3 X82.903 Y136.206 I0.117 J0.589
N345 X47.097 Y143.294 Z-0.5 I-17.903 J3.544 F1000.
N350 X82.903 Y136.206 Z-1. I17.903 J-3.544
N355 X47.097 Y143.294 Z-1.5 I-17.903 J3.544
N360 X82.903 Y136.206 Z-2. I17.903 J-3.544
N365 X47.097 Y143.294 Z-2.5 I-17.903 J3.544
N370 X82.903 Y136.206 Z-3. I17.903 J-3.544
N375 X47.097 Y143.294 Z-3.5 I-17.903 J3.544
N380 X82.903 Y136.206 Z-4. I17.903 J-3.544
N385 X47.097 Y143.294 Z-4.5 I-17.903 J3.544
N390 X82.903 Y136.206 Z-5. I17.903 J-3.544
N395 X47.097 Y143.294 Z-5.5 I-17.903 J3.544
N400 X82.903 Y136.206 Z-6. I17.903 J-3.544
N405 X47.097 Y143.294 Z-6.5 I-17.903 J3.544
N410 X82.903 Y136.206 Z-7. I17.903 J-3.544
N415 X47.097 Y143.294 Z-7.5 I-17.903 J3.544
N420 X82.903 Y136.206 Z-8. I17.903 J-3.544
N425 X47.097 Y143.294 Z-8.5 I-17.903 J3.544
N430 X82.903 Y136.206 Z-9. I17.903 J-3.544
N435 X47.097 Y143.294 I-17.903 J3.544
N440 X82.903 Y136.206 I17.903 J-3.544
N445 X82.431 Y136.911 I-0.589 J0.117 F300.
N450 G1 X82.136 Y136.969
N455 X82.044 Y136.988 Z-8.993
N460 X81.954 Y137.005 Z-8.971
N465 X81.869 Y137.022 Z-8.935
N470 X81.79 Y137.038 Z-8.885
N475 X81.72 Y137.052 Z-8.824
N480 X81.66 Y137.064 Z-8.753
N485 X81.612 Y137.073 Z-8.672
N490 X81.576 Y137.08 Z-8.585
N495 X81.555 Y137.084 Z-8.494
N500 X81.548 Y137.086 Z-8.4
N505 G0 Z5.
N510 X93.319 Y134.755
N515 Z2.
N520 G1 Z0.6 F300.
N525 X93.312 Y134.757 Z0.506
N530 X93.29 Y134.761 Z0.415
N535 X93.255 Y134.768 Z0.328
N540 X93.207 Y134.778 Z0.247
N545 X93.147 Y134.79 Z0.176
N550 X93.077 Y134.804 Z0.115
N555 X92.998 Y134.819 Z0.065
N560 X92.913 Y134.836 Z0.029
N565 X92.823 Y134.854 Z0.007
N570 X92.731 Y134.872 Z0.
N575 X92.436 Y134.93
N580 G3 X91.731 Y134.458 I-0.117 J-0.589
N585 G2 X38.269 Y145.042 Z-0.5 I-26.731 J5.292 F1000.
N590 X91.731 Y134.458 Z-1. I26.731 J-5.292
N595 X38.269 Y145.042 Z-1.5 I-26.731 J5.292
N600 X91.731 Y134.458 Z-2. I26.731 J-5.292
N605 X38.269 Y145.042 Z-2.5 I-26.731 J5.292
N610 X91.731 Y134.458 Z-3. I26.731 J-5.292
N615 X38.269 Y145.042 Z-3.5 I-26.731 J5.292
N620 X91.731 Y134.458 Z-4. I26.731 J-5.292
N625 X38.269 Y145.042 Z-4.5 I-26.731 J5.292
N630 X91.731 Y134.458 Z-5. I26.731 J-5.292
N635 X38.269 Y145.042 Z-5.5 I-26.731 J5.292
N640 X91.731 Y134.458 Z-6. I26.731 J-5.292
N645 X38.269 Y145.042 Z-6.5 I-26.731 J5.292
N650 X91.731 Y134.458 Z-7. I26.731 J-5.292
N655 X38.269 Y145.042 Z-7.5 I-26.731 J5.292
N660 X91.731 Y134.458 Z-8. I26.731 J-5.292
N665 X38.269 Y145.042 Z-8.5 I-26.731 J5.292
N670 X91.731 Y134.458 Z-9. I26.731 J-5.292
N675 X38.269 Y145.042 I-26.731 J5.292
N680 X91.731 Y134.458 I26.731 J-5.292
N685 G3 X92.203 Y133.753 I0.589 J-0.117 F300.
N690 G1 X92.498 Y133.695
N695 X92.59 Y133.677 Z-8.993
N700 X92.679 Y133.659 Z-8.971
N705 X92.765 Y133.642 Z-8.935
N710 X92.844 Y133.626 Z-8.885
N715 X92.914 Y133.612 Z-8.824
N720 X92.974 Y133.601 Z-8.753
N725 X93.022 Y133.591 Z-8.672
N730 X93.057 Y133.584 Z-8.585
N735 X93.079 Y133.58 Z-8.494
N740 X93.086 Y133.578 Z-8.4
N745 G0 Z15.
N750 G53 Z0.
N755 M30
%
