%
(CLAMP_CUTOUT)
(T1  D=6. CR=0. - ZMIN=-20. - FLAT END MILL)
N10 G90 G94 G17 G91.1
N15 G21
N20 G53 G0 Z0.
(2D CONTOUR1)
N25 M9
N30 T1 M6
N35 S22000 M3
N40 G54
N45 G0 X130.649 Y107.579
N50 G43 Z17. H1
N55 G0 Z3.
N60 G1 Z-1.4 F333.33
N65 G19 G2 Y106.979 Z-2. J-0.6 K0.
N70 G1 Y106.379 F500.
N75 G17 G2 X130.049 Y105.779 I-0.6 J0.
N80 G1 X117.508 F1000.
N85 G3 X108.708 Y96.979 I0. J-8.8
N90 G1 Y93.279
N95 X95.008
N100 G3 X91.208 Y89.479 I0. J-3.8
N105 G1 Y80.729
N110 G3 X95.008 Y76.929 I3.8 J0.
N115 G1 X120.008
N120 G3 X123.808 Y80.729 I0. J3.8
N125 G1 Y90.679
N130 X146.208
N135 Y80.729
N140 G3 X150.008 Y76.929 I3.8 J0.
N145 G1 X175.008
N150 G3 X178.808 Y80.729 I0. J3.8
N155 G1 Y89.479
N160 G3 X175.008 Y93.279 I-3.8 J0.
N165 G1 X161.308
N170 Y96.979
N175 G3 X152.508 Y105.779 I-8.8 J0.
N180 G1 X130.049
N185 G3 X129.299 Y105.279 I0. J-0.813
N190 G2 X128.549 Y104.779 I-0.75 J0.313
N195 G1 X117.508
N200 G3 X109.708 Y96.979 I0. J-7.8
N205 G1 Y92.479
N210 G2 X109.508 Y92.279 I-0.2 J0.
N215 G1 X95.008
N220 G3 X92.208 Y89.479 I0. J-2.8
N225 G1 Y80.729
N230 G3 X95.008 Y77.929 I2.8 J0.
N235 G1 X120.008
N240 G3 X122.808 Y80.729 I0. J2.8
N245 G1 Y91.679
N250 X147.208
N255 Y80.729
N260 G3 X150.008 Y77.929 I2.8 J0.
N265 G1 X175.008
N270 G3 X177.808 Y80.729 I0. J2.8
N275 G1 Y89.479
N280 G3 X175.008 Y92.279 I-2.8 J0.
N285 G1 X160.508
N290 G2 X160.308 Y92.479 I0. J0.2
N295 G1 Y96.979
N300 G3 X152.508 Y104.779 I-7.8 J0.
N305 G1 X128.549
N310 G2 X127.949 Y105.379 I0. J0.6 F500.
N315 G1 Y105.979
N320 G19 G3 Y106.579 Z-1.4 J0. K0.6
N325 G0 Z15.
N330 X97.959 Y111.51
N335 Z3.
N340 G1 Z-1.4 F333.33
N345 X97.953 Y111.507 Z-1.494
N350 X97.932 Y111.499 Z-1.585
N355 X97.899 Y111.485 Z-1.672
N360 X97.853 Y111.467 Z-1.753
N365 X97.797 Y111.444 Z-1.824
N370 X97.73 Y111.416 Z-1.885
N375 X97.656 Y111.386 Z-1.935
N380 X97.576 Y111.353 Z-1.971
N385 X97.491 Y111.318 Z-1.993
N390 X97.404 Y111.283 Z-2.
N395 X96.849 Y111.056 F500.
N400 G17 G2 X96.066 Y111.384 I-0.227 J0.555
N405 G3 X92.549 Y113.746 I-3.517 J-1.438 F1000.
N410 G1 X66.558
N415 G3 X62.766 Y110.195 I0. J-3.8
N420 G2 X32.332 I-15.217 J1.001
N425 G3 X28.54 Y113.746 I-3.792 J-0.249
N430 G1 X2.549
N435 G3 X-1.251 Y109.946 I0. J-3.8
N440 G1 Y101.196
N445 G3 X2.549 Y97.396 I3.8 J0.
N450 G1 X15.926
N455 G2 X17.01 Y96.71 I0. J-1.2
N460 G3 X20.992 Y90.287 I30.539 J14.486
N465 G2 X21.249 Y89.545 I-0.943 J-0.742
N470 G1 Y49.995
N475 X7.549
N480 G3 X3.749 Y46.195 I0. J-3.8
N485 G1 Y37.445
N490 G3 X7.549 Y33.646 I3.8 J0.
N495 G1 X32.549
N500 G3 X36.349 Y37.445 I0. J3.8
N505 G1 Y47.396
N510 X58.749
N515 Y37.445
N520 G3 X62.549 Y33.646 I3.8 J0.
N525 G1 X87.549
N530 G3 X91.349 Y37.445 I0. J3.8
N535 G1 Y46.195
N540 G3 X87.549 Y49.995 I-3.8 J0.
N545 G1 X73.849
N550 Y89.545
N555 G2 X74.106 Y90.287 I1.2 J0.
N560 G3 X78.088 Y96.71 I-26.557 J20.909
N565 G2 X79.172 Y97.396 I1.085 J-0.514
N570 G1 X92.549
N575 G3 X96.349 Y101.196 I0. J3.8
N580 G1 Y109.946
N585 G3 X96.066 Y111.384 I-3.8 J0.
N590 X95.205 Y111.905 I-0.782 J-0.32
N595 G2 X94.237 Y112.18 I-0.131 J1.384
N600 G3 X92.549 Y112.746 I-1.688 J-2.234
N605 G1 X66.558
N610 G3 X63.764 Y110.13 I0. J-2.8
N615 G2 X31.334 I-16.215 J1.066
N620 G3 X28.54 Y112.746 I-2.794 J-0.184
N625 G1 X2.549
N630 G3 X-0.251 Y109.946 I0. J-2.8
N635 G1 Y101.196
N640 G3 X2.549 Y98.396 I2.8 J0.
N645 G1 X15.926
N650 G2 X17.914 Y97.139 I0. J-2.2
N655 G3 X21.777 Y90.906 I29.635 J14.057
N660 G2 X22.249 Y89.545 I-1.729 J-1.361
N665 G1 Y49.195
N670 G2 X22.049 Y48.995 I-0.2 J0.
N675 G1 X7.549
N680 G3 X4.749 Y46.195 I0. J-2.8
N685 G1 Y37.445
N690 G3 X7.549 Y34.646 I2.8 J0.
N695 G1 X32.549
N700 G3 X35.349 Y37.445 I0. J2.8
N705 G1 Y48.396
N710 X59.749
N715 Y37.445
N720 G3 X62.549 Y34.646 I2.8 J0.
N725 G1 X87.549
N730 G3 X90.349 Y37.445 I0. J2.8
N735 G1 Y46.195
N740 G3 X87.549 Y48.995 I-2.8 J0.
N745 G1 X73.049
N750 G2 X72.849 Y49.195 I0. J0.2
N755 G1 Y89.545
N760 G2 X73.32 Y90.906 I2.2 J0.
N765 G3 X77.184 Y97.138 I-25.772 J20.29
N770 G2 X79.172 Y98.396 I1.988 J-0.943
N775 G1 X92.549
N780 G3 X95.349 Y101.196 I0. J2.8
N785 G1 Y109.946
N790 G3 X94.237 Y112.18 I-2.8 J0.
N795 G2 X94.12 Y113.021 I0.362 J0.479 F500.
N800 G1 X94.481 Y113.499
N805 X94.538 Y113.574 Z-1.993
N810 X94.593 Y113.647 Z-1.971
N815 X94.645 Y113.717 Z-1.935
N820 X94.694 Y113.781 Z-1.885
N825 X94.737 Y113.838 Z-1.824
N830 X94.774 Y113.887 Z-1.753
N835 X94.803 Y113.926 Z-1.672
N840 X94.825 Y113.955 Z-1.585
N845 X94.838 Y113.972 Z-1.494
N850 X94.843 Y113.978 Z-1.4
N855 G0 Z15.
N860 X98.149 Y121.846
N865 Z3.
N870 G1 Z-1.4 F333.33
N875 G18 G3 X97.549 Z-2. I-0.6 K0.
N880 G1 X96.949 F500.
N885 G17 G2 X96.349 Y122.446 I0. J0.6
N890 G1 Y131.196 F1000.
N895 G3 X92.549 Y134.996 I-3.8 J0.
N900 G1 X79.172
N905 G2 X78.088 Y135.682 I0. J1.2
N910 G3 X17.01 I-30.539 J-14.486
N915 G2 X15.926 Y134.996 I-1.084 J0.514
N920 G1 X2.549
N925 G3 X-1.251 Y131.196 I0. J-3.8
N930 G1 Y122.446
N935 G3 X2.549 Y118.646 I3.8 J0.
N940 G1 X28.54
N945 G3 X32.332 Y122.197 I0. J3.8
N950 G2 X62.766 I15.217 J-1.001
N955 G3 X66.558 Y118.646 I3.792 J0.249
N960 G1 X92.549
N965 G3 X96.349 Y122.446 I0. J3.8
N970 X95.849 Y123.196 I-0.813 J0.
N975 G2 X95.349 Y123.946 I0.313 J0.75
N980 G1 Y131.196
N985 G3 X92.549 Y133.996 I-2.8 J0.
N990 G1 X79.172
N995 G2 X77.184 Y135.253 I0. J2.2
N1000 G3 X17.914 I-29.635 J-14.057
N1005 G2 X15.926 Y133.996 I-1.988 J0.943
N1010 G1 X2.549
N1015 G3 X-0.251 Y131.196 I0. J-2.8
N1020 G1 Y122.446
N1025 G3 X2.549 Y119.646 I2.8 J0.
N1030 G1 X28.54
N1035 G3 X31.334 Y122.262 I0. J2.8
N1040 G2 X63.764 I16.215 J-1.066
N1045 G3 X66.558 Y119.646 I2.794 J0.184
N1050 G1 X92.549
N1055 G3 X95.349 Y122.446 I0. J2.8
N1060 G1 Y123.946
N1065 G2 X95.949 Y124.546 I0.6 J0. F500.
N1070 G1 X96.549
N1075 G18 G2 X97.149 Z-1.4 I0. K0.6
N1080 G0 Z15.
N1085 X98.149 Y121.846
N1090 Z3.
N1095 G1 Z-3.4 F333.33
N1100 G3 X97.549 Z-4. I-0.6 K0.
N1105 G1 X96.949 F500.
N1110 G17 G2 X96.349 Y122.446 I0. J0.6
N1115 G1 Y131.196 F1000.
N1120 G3 X92.549 Y134.996 I-3.8 J0.
N1125 G1 X79.172
N1130 G2 X78.088 Y135.682 I0. J1.2
N1135 G3 X17.01 I-30.539 J-14.486
N1140 G2 X15.926 Y134.996 I-1.084 J0.514
N1145 G1 X2.549
N1150 G3 X-1.251 Y131.196 I0. J-3.8
N1155 G1 Y122.446
N1160 G3 X2.549 Y118.646 I3.8 J0.
N1165 G1 X28.54
N1170 G3 X32.332 Y122.197 I0. J3.8
N1175 G2 X62.766 I15.217 J-1.001
N1180 G3 X66.558 Y118.646 I3.792 J0.249
N1185 G1 X92.549
N1190 G3 X96.349 Y122.446 I0. J3.8
N1195 X95.849 Y123.196 I-0.813 J0.
N1200 G2 X95.349 Y123.946 I0.313 J0.75
N1205 G1 Y131.196
N1210 G3 X92.549 Y133.996 I-2.8 J0.
N1215 G1 X79.172
N1220 G2 X77.184 Y135.253 I0. J2.2
N1225 G3 X17.914 I-29.635 J-14.057
N1230 G2 X15.926 Y133.996 I-1.988 J0.943
N1235 G1 X2.549
N1240 G3 X-0.251 Y131.196 I0. J-2.8
N1245 G1 Y122.446
N1250 G3 X2.549 Y119.646 I2.8 J0.
N1255 G1 X28.54
N1260 G3 X31.334 Y122.262 I0. J2.8
N1265 G2 X63.764 I16.215 J-1.066
N1270 G3 X66.558 Y119.646 I2.794 J0.184
N1275 G1 X92.549
N1280 G3 X95.349 Y122.446 I0. J2.8
N1285 G1 Y123.946
N1290 G2 X95.949 Y124.546 I0.6 J0. F500.
N1295 G1 X96.549
N1300 G18 G2 X97.149 Z-3.4 I0. K0.6
N1305 G0 Z15.
N1310 X92.102 Y164.131
N1315 Z3.
N1320 G1 Z-1.4 F333.33
N1325 X92.095 Y164.134 Z-1.494
N1330 X92.076 Y164.145 Z-1.585
N1335 X92.045 Y164.163 Z-1.672
N1340 X92.003 Y164.188 Z-1.753
N1345 X91.95 Y164.218 Z-1.824
N1350 X91.887 Y164.254 Z-1.885
N1355 X91.818 Y164.294 Z-1.935
N1360 X91.743 Y164.338 Z-1.971
N1365 X91.663 Y164.383 Z-1.993
N1370 X91.582 Y164.43 Z-2.
N1375 X91.062 Y164.73 F500.
N1380 G17 G2 X90.842 Y165.549 I0.3 J0.52
N1385 G3 X91.349 Y167.446 I-3.293 J1.897 F1000.
N1390 G1 Y176.196
N1395 G3 X87.549 Y179.996 I-3.8 J0.
N1400 G1 X73.849
N1405 Y219.545
N1410 G2 X74.106 Y220.287 I1.2 J0.
N1415 G3 X78.087 Y226.709 I-26.557 J20.909
N1420 G1 X78.088 Y226.71
N1425 G2 X79.172 Y227.396 I1.084 J-0.514
N1430 G1 X92.549
N1435 G3 X96.349 Y231.196 I0. J3.8
N1440 G1 Y239.946
N1445 G3 X92.549 Y243.746 I-3.8 J0.
N1450 G1 X66.558
N1455 G3 X62.766 Y240.195 I0. J-3.8
N1460 G2 X32.332 I-15.217 J1.001
N1465 G3 X28.54 Y243.746 I-3.792 J-0.249
N1470 G1 X2.549
N1475 G3 X-1.251 Y239.946 I0. J-3.8
N1480 G1 Y231.196
N1485 G3 X2.549 Y227.396 I3.8 J0.
N1490 G1 X15.926
N1495 G2 X17.01 Y226.71 I0. J-1.2
N1500 G1 Y226.709
N1505 G3 X20.992 Y220.287 I30.538 J14.487
N1510 G2 X21.249 Y219.545 I-0.943 J-0.742
N1515 G1 Y179.996
N1520 X7.549
N1525 G3 X3.749 Y176.196 I0. J-3.8
N1530 G1 Y167.446
N1535 G3 X7.549 Y163.646 I3.8 J0.
N1540 G1 X32.549
N1545 G3 X36.349 Y167.446 I0. J3.8
N1550 G1 Y177.396
N1555 X58.749
N1560 Y167.446
N1565 G3 X62.549 Y163.646 I3.8 J0.
N1570 G1 X87.549
N1575 G3 X90.842 Y165.549 I0. J3.8
N1580 X90.722 Y166.548 I-0.729 J0.42
N1585 G2 X90.349 Y167.483 I0.982 J0.934
N1590 G1 Y176.196
N1595 G3 X87.549 Y178.996 I-2.8 J0.
N1600 G1 X73.049
N1605 G2 X72.849 Y179.196 I0. J0.2
N1610 G1 Y219.545
N1615 G2 X73.32 Y220.906 I2.2 J0.
N1620 G3 X77.184 Y227.138 I-25.771 J20.291
N1625 G2 X79.172 Y228.396 I1.988 J-0.942
N1630 G1 X92.549
N1635 G3 X95.349 Y231.196 I0. J2.8
N1640 G1 Y239.946
N1645 G3 X92.549 Y242.746 I-2.8 J0.
N1650 G1 X66.558
N1655 G3 X63.764 Y240.13 I0. J-2.8
N1660 G2 X31.334 I-16.215 J1.066
N1665 G3 X28.54 Y242.746 I-2.794 J-0.184
N1670 G1 X2.549
N1675 G3 X-0.251 Y239.946 I0. J-2.8
N1680 G1 Y231.196
N1685 G3 X2.549 Y228.396 I2.8 J0.
N1690 G1 X15.926
N1695 G2 X17.914 Y227.139 I0. J-2.2
N1700 G3 X21.778 Y220.906 I29.635 J14.058
N1705 G2 X22.249 Y219.545 I-1.729 J-1.361
N1710 G1 Y179.196
N1715 G2 X22.049 Y178.996 I-0.2 J0.
N1720 G1 X7.549
N1725 G3 X4.749 Y176.196 I0. J-2.8
N1730 G1 Y167.446
N1735 G3 X7.549 Y164.646 I2.8 J0.
N1740 G1 X32.549
N1745 G3 X35.349 Y167.446 I0. J2.8
N1750 G1 Y178.396
N1755 X59.749
N1760 Y167.446
N1765 G3 X62.549 Y164.646 I2.8 J0.
N1770 G1 X87.549
N1775 G3 X90.349 Y167.446 I0. J2.8
N1780 G1 Y167.483
N1785 G2 X90.949 Y168.083 I0.6 J0. F500.
N1790 G1 X91.549
N1795 G18 G2 X92.149 Z-1.4 I0. K0.6
N1800 G0 Z15.
N1805 X91.572 Y180.138
N1810 Z3.
N1815 G1 Z-3.4 F333.33
N1820 X91.567 Y180.132 Z-3.494
N1825 X91.553 Y180.115 Z-3.585
N1830 X91.53 Y180.087 Z-3.672
N1835 X91.499 Y180.049 Z-3.753
N1840 X91.46 Y180.002 Z-3.824
N1845 X91.414 Y179.947 Z-3.885
N1850 X91.363 Y179.885 Z-3.935
N1855 X91.308 Y179.818 Z-3.971
N1860 X91.25 Y179.747 Z-3.993
N1865 X91.19 Y179.675 Z-4.
N1870 X90.809 Y179.211 F500.
N1875 G17 G2 X89.964 Y179.13 I-0.463 J0.381
N1880 G3 X87.549 Y179.996 I-2.415 J-2.934 F1000.
N1885 G1 X73.849
N1890 Y219.545
N1895 G2 X74.106 Y220.287 I1.2 J0.
N1900 G3 X78.087 Y226.709 I-26.557 J20.909
N1905 G1 X78.088 Y226.71
N1910 G2 X79.172 Y227.396 I1.084 J-0.514
N1915 G1 X92.549
N1920 G3 X96.349 Y231.196 I0. J3.8
N1925 G1 Y239.946
N1930 G3 X92.549 Y243.746 I-3.8 J0.
N1935 G1 X66.558
N1940 G3 X62.766 Y240.195 I0. J-3.8
N1945 G2 X32.332 I-15.217 J1.001
N1950 G3 X28.54 Y243.746 I-3.792 J-0.249
N1955 G1 X2.549
N1960 G3 X-1.251 Y239.946 I0. J-3.8
N1965 G1 Y231.196
N1970 G3 X2.549 Y227.396 I3.8 J0.
N1975 G1 X15.926
N1980 G2 X17.01 Y226.71 I0. J-1.2
N1985 G1 Y226.709
N1990 G3 X20.992 Y220.287 I30.538 J14.487
N1995 G2 X21.249 Y219.545 I-0.943 J-0.742
N2000 G1 Y179.996
N2005 X7.549
N2010 G3 X3.749 Y176.196 I0. J-3.8
N2015 G1 Y167.446
N2020 G3 X7.549 Y163.646 I3.8 J0.
N2025 G1 X32.549
N2030 G3 X36.349 Y167.446 I0. J3.8
N2035 G1 Y177.396
N2040 X58.749
N2045 Y167.446
N2050 G3 X62.549 Y163.646 I3.8 J0.
N2055 G1 X87.549
N2060 G3 X91.349 Y167.446 I0. J3.8
N2065 G1 Y176.196
N2070 G3 X89.964 Y179.13 I-3.8 J0.
N2075 X88.959 Y179.18 I-0.537 J-0.652
N2080 G2 X87.976 Y178.963 I-0.771 J1.157
N2085 G3 X87.549 Y178.996 I-0.427 J-2.767
N2090 G1 X73.049
N2095 G2 X72.849 Y179.196 I0. J0.2
N2100 G1 Y219.545
N2105 G2 X73.32 Y220.906 I2.2 J0.
N2110 G3 X77.184 Y227.138 I-25.771 J20.291
N2115 G2 X79.172 Y228.396 I1.988 J-0.942
N2120 G1 X92.549
N2125 G3 X95.349 Y231.196 I0. J2.8
N2130 G1 Y239.946
N2135 G3 X92.549 Y242.746 I-2.8 J0.
N2140 G1 X66.558
N2145 G3 X63.764 Y240.13 I0. J-2.8
N2150 G2 X31.334 I-16.215 J1.066
N2155 G3 X28.54 Y242.746 I-2.794 J-0.184
N2160 G1 X2.549
N2165 G3 X-0.251 Y239.946 I0. J-2.8
N2170 G1 Y231.196
N2175 G3 X2.549 Y228.396 I2.8 J0.
N2180 G1 X15.926
N2185 G2 X17.914 Y227.139 I0. J-2.2
N2190 G3 X21.778 Y220.906 I29.635 J14.058
N2195 G2 X22.249 Y219.545 I-1.729 J-1.361
N2200 G1 Y179.196
N2205 G2 X22.049 Y178.996 I-0.2 J0.
N2210 G1 X7.549
N2215 G3 X4.749 Y176.196 I0. J-2.8
N2220 G1 Y167.446
N2225 G3 X7.549 Y164.646 I2.8 J0.
N2230 G1 X32.549
N2235 G3 X35.349 Y167.446 I0. J2.8
N2240 G1 Y178.396
N2245 X59.749
N2250 Y167.446
N2255 G3 X62.549 Y164.646 I2.8 J0.
N2260 G1 X87.549
N2265 G3 X90.349 Y167.446 I0. J2.8
N2270 G1 Y176.196
N2275 G3 X87.976 Y178.963 I-2.8 J0.
N2280 G2 X87.474 Y179.648 I0.091 J0.593 F500.
N2285 G1 X87.566 Y180.241
N2290 X87.58 Y180.333 Z-3.993
N2295 X87.594 Y180.424 Z-3.971
N2300 X87.607 Y180.51 Z-3.935
N2305 X87.62 Y180.589 Z-3.885
N2310 X87.631 Y180.66 Z-3.824
N2315 X87.64 Y180.72 Z-3.753
N2320 X87.647 Y180.769 Z-3.672
N2325 X87.653 Y180.805 Z-3.585
N2330 X87.656 Y180.826 Z-3.494
N2335 X87.657 Y180.834 Z-3.4
N2340 G0 Z15.
N2345 X91.572 Y180.138
N2350 Z3.
N2355 G1 Z-5.4 F333.33
N2360 X91.567 Y180.132 Z-5.494
N2365 X91.553 Y180.115 Z-5.585
N2370 X91.53 Y180.087 Z-5.672
N2375 X91.499 Y180.049 Z-5.753
N2380 X91.46 Y180.002 Z-5.824
N2385 X91.414 Y179.947 Z-5.885
N2390 X91.363 Y179.885 Z-5.935
N2395 X91.308 Y179.818 Z-5.971
N2400 X91.25 Y179.747 Z-5.993
N2405 X91.19 Y179.675 Z-6.
N2410 X90.809 Y179.211 F500.
N2415 G2 X89.964 Y179.13 I-0.463 J0.381
N2420 G3 X87.549 Y179.996 I-2.415 J-2.934 F1000.
N2425 G1 X73.849
N2430 Y219.545
N2435 G2 X74.106 Y220.287 I1.2 J0.
N2440 G3 X78.087 Y226.709 I-26.557 J20.909
N2445 G1 X78.088 Y226.71
N2450 G2 X79.172 Y227.396 I1.084 J-0.514
N2455 G1 X92.549
N2460 G3 X96.349 Y231.196 I0. J3.8
N2465 G1 Y239.946
N2470 G3 X92.549 Y243.746 I-3.8 J0.
N2475 G1 X66.558
N2480 G3 X62.766 Y240.195 I0. J-3.8
N2485 G2 X32.332 I-15.217 J1.001
N2490 G3 X28.54 Y243.746 I-3.792 J-0.249
N2495 G1 X2.549
N2500 G3 X-1.251 Y239.946 I0. J-3.8
N2505 G1 Y231.196
N2510 G3 X2.549 Y227.396 I3.8 J0.
N2515 G1 X15.926
N2520 G2 X17.01 Y226.71 I0. J-1.2
N2525 G1 Y226.709
N2530 G3 X20.992 Y220.287 I30.538 J14.487
N2535 G2 X21.249 Y219.545 I-0.943 J-0.742
N2540 G1 Y179.996
N2545 X7.549
N2550 G3 X3.749 Y176.196 I0. J-3.8
N2555 G1 Y167.446
N2560 G3 X7.549 Y163.646 I3.8 J0.
N2565 G1 X32.549
N2570 G3 X36.349 Y167.446 I0. J3.8
N2575 G1 Y177.396
N2580 X58.749
N2585 Y167.446
N2590 G3 X62.549 Y163.646 I3.8 J0.
N2595 G1 X87.549
N2600 G3 X91.349 Y167.446 I0. J3.8
N2605 G1 Y176.196
N2610 G3 X89.964 Y179.13 I-3.8 J0.
N2615 X88.959 Y179.18 I-0.537 J-0.652
N2620 G2 X87.976 Y178.963 I-0.771 J1.157
N2625 G3 X87.549 Y178.996 I-0.427 J-2.767
N2630 G1 X73.049
N2635 G2 X72.849 Y179.196 I0. J0.2
N2640 G1 Y219.545
N2645 G2 X73.32 Y220.906 I2.2 J0.
N2650 G3 X77.184 Y227.138 I-25.771 J20.291
N2655 G2 X79.172 Y228.396 I1.988 J-0.942
N2660 G1 X92.549
N2665 G3 X95.349 Y231.196 I0. J2.8
N2670 G1 Y239.946
N2675 G3 X92.549 Y242.746 I-2.8 J0.
N2680 G1 X66.558
N2685 G3 X63.764 Y240.13 I0. J-2.8
N2690 G2 X31.334 I-16.215 J1.066
N2695 G3 X28.54 Y242.746 I-2.794 J-0.184
N2700 G1 X2.549
N2705 G3 X-0.251 Y239.946 I0. J-2.8
N2710 G1 Y231.196
N2715 G3 X2.549 Y228.396 I2.8 J0.
N2720 G1 X15.926
N2725 G2 X17.914 Y227.139 I0. J-2.2
N2730 G3 X21.778 Y220.906 I29.635 J14.058
N2735 G2 X22.249 Y219.545 I-1.729 J-1.361
N2740 G1 Y179.196
N2745 G2 X22.049 Y178.996 I-0.2 J0.
N2750 G1 X7.549
N2755 G3 X4.749 Y176.196 I0. J-2.8
N2760 G1 Y167.446
N2765 G3 X7.549 Y164.646 I2.8 J0.
N2770 G1 X32.549
N2775 G3 X35.349 Y167.446 I0. J2.8
N2780 G1 Y178.396
N2785 X59.749
N2790 Y167.446
N2795 G3 X62.549 Y164.646 I2.8 J0.
N2800 G1 X87.549
N2805 G3 X90.349 Y167.446 I0. J2.8
N2810 G1 Y176.196
N2815 G3 X87.976 Y178.963 I-2.8 J0.
N2820 G2 X87.474 Y179.648 I0.091 J0.593 F500.
N2825 G1 X87.566 Y180.241
N2830 X87.58 Y180.333 Z-5.993
N2835 X87.594 Y180.424 Z-5.971
N2840 X87.607 Y180.51 Z-5.935
N2845 X87.62 Y180.589 Z-5.885
N2850 X87.631 Y180.66 Z-5.824
N2855 X87.64 Y180.72 Z-5.753
N2860 X87.647 Y180.769 Z-5.672
N2865 X87.653 Y180.805 Z-5.585
N2870 X87.656 Y180.826 Z-5.494
N2875 X87.657 Y180.834 Z-5.4
N2880 G0 Z15.
N2885 X91.572 Y180.138
N2890 Z3.
N2895 G1 Z-7.4 F333.33
N2900 X91.567 Y180.132 Z-7.494
N2905 X91.553 Y180.115 Z-7.585
N2910 X91.53 Y180.087 Z-7.672
N2915 X91.499 Y180.049 Z-7.753
N2920 X91.46 Y180.002 Z-7.824
N2925 X91.414 Y179.947 Z-7.885
N2930 X91.363 Y179.885 Z-7.935
N2935 X91.308 Y179.818 Z-7.971
N2940 X91.25 Y179.747 Z-7.993
N2945 X91.19 Y179.675 Z-8.
N2950 X90.809 Y179.211 F500.
N2955 G2 X89.964 Y179.13 I-0.463 J0.381
N2960 G3 X87.549 Y179.996 I-2.415 J-2.934 F1000.
N2965 G1 X73.849
N2970 Y219.545
N2975 G2 X74.106 Y220.287 I1.2 J0.
N2980 G3 X78.087 Y226.709 I-26.557 J20.909
N2985 G1 X78.088 Y226.71
N2990 G2 X79.172 Y227.396 I1.084 J-0.514
N2995 G1 X92.549
N3000 G3 X96.349 Y231.196 I0. J3.8
N3005 G1 Y239.946
N3010 G3 X92.549 Y243.746 I-3.8 J0.
N3015 G1 X66.558
N3020 G3 X62.766 Y240.195 I0. J-3.8
N3025 G2 X32.332 I-15.217 J1.001
N3030 G3 X28.54 Y243.746 I-3.792 J-0.249
N3035 G1 X2.549
N3040 G3 X-1.251 Y239.946 I0. J-3.8
N3045 G1 Y231.196
N3050 G3 X2.549 Y227.396 I3.8 J0.
N3055 G1 X15.926
N3060 G2 X17.01 Y226.71 I0. J-1.2
N3065 G1 Y226.709
N3070 G3 X20.992 Y220.287 I30.538 J14.487
N3075 G2 X21.249 Y219.545 I-0.943 J-0.742
N3080 G1 Y179.996
N3085 X7.549
N3090 G3 X3.749 Y176.196 I0. J-3.8
N3095 G1 Y167.446
N3100 G3 X7.549 Y163.646 I3.8 J0.
N3105 G1 X32.549
N3110 G3 X36.349 Y167.446 I0. J3.8
N3115 G1 Y177.396
N3120 X58.749
N3125 Y167.446
N3130 G3 X62.549 Y163.646 I3.8 J0.
N3135 G1 X87.549
N3140 G3 X91.349 Y167.446 I0. J3.8
N3145 G1 Y176.196
N3150 G3 X89.964 Y179.13 I-3.8 J0.
N3155 X88.959 Y179.18 I-0.537 J-0.652
N3160 G2 X87.976 Y178.963 I-0.771 J1.157
N3165 G3 X87.549 Y178.996 I-0.427 J-2.767
N3170 G1 X73.049
N3175 G2 X72.849 Y179.196 I0. J0.2
N3180 G1 Y219.545
N3185 G2 X73.32 Y220.906 I2.2 J0.
N3190 G3 X77.184 Y227.138 I-25.771 J20.291
N3195 G2 X79.172 Y228.396 I1.988 J-0.942
N3200 G1 X92.549
N3205 G3 X95.349 Y231.196 I0. J2.8
N3210 G1 Y239.946
N3215 G3 X92.549 Y242.746 I-2.8 J0.
N3220 G1 X66.558
N3225 G3 X63.764 Y240.13 I0. J-2.8
N3230 G2 X31.334 I-16.215 J1.066
N3235 G3 X28.54 Y242.746 I-2.794 J-0.184
N3240 G1 X2.549
N3245 G3 X-0.251 Y239.946 I0. J-2.8
N3250 G1 Y231.196
N3255 G3 X2.549 Y228.396 I2.8 J0.
N3260 G1 X15.926
N3265 G2 X17.914 Y227.139 I0. J-2.2
N3270 G3 X21.778 Y220.906 I29.635 J14.058
N3275 G2 X22.249 Y219.545 I-1.729 J-1.361
N3280 G1 Y179.196
N3285 G2 X22.049 Y178.996 I-0.2 J0.
N3290 G1 X7.549
N3295 G3 X4.749 Y176.196 I0. J-2.8
N3300 G1 Y167.446
N3305 G3 X7.549 Y164.646 I2.8 J0.
N3310 G1 X32.549
N3315 G3 X35.349 Y167.446 I0. J2.8
N3320 G1 Y178.396
N3325 X59.749
N3330 Y167.446
N3335 G3 X62.549 Y164.646 I2.8 J0.
N3340 G1 X87.549
N3345 G3 X90.349 Y167.446 I0. J2.8
N3350 G1 Y176.196
N3355 G3 X87.976 Y178.963 I-2.8 J0.
N3360 G2 X87.474 Y179.648 I0.091 J0.593 F500.
N3365 G1 X87.566 Y180.241
N3370 X87.58 Y180.333 Z-7.993
N3375 X87.594 Y180.424 Z-7.971
N3380 X87.607 Y180.51 Z-7.935
N3385 X87.62 Y180.589 Z-7.885
N3390 X87.631 Y180.66 Z-7.824
N3395 X87.64 Y180.72 Z-7.753
N3400 X87.647 Y180.769 Z-7.672
N3405 X87.653 Y180.805 Z-7.585
N3410 X87.656 Y180.826 Z-7.494
N3415 X87.657 Y180.834 Z-7.4
N3420 G0 Z15.
N3425 X91.572 Y180.138
N3430 Z3.
N3435 G1 Z-9.4 F333.33
N3440 X91.567 Y180.132 Z-9.494
N3445 X91.553 Y180.115 Z-9.585
N3450 X91.53 Y180.087 Z-9.672
N3455 X91.499 Y180.049 Z-9.753
N3460 X91.46 Y180.002 Z-9.824
N3465 X91.414 Y179.947 Z-9.885
N3470 X91.363 Y179.885 Z-9.935
N3475 X91.308 Y179.818 Z-9.971
N3480 X91.25 Y179.747 Z-9.993
N3485 X91.19 Y179.675 Z-10.
N3490 X90.809 Y179.211 F500.
N3495 G2 X89.964 Y179.13 I-0.463 J0.381
N3500 G3 X87.549 Y179.996 I-2.415 J-2.934 F1000.
N3505 G1 X73.849
N3510 Y219.545
N3515 G2 X74.106 Y220.287 I1.2 J0.
N3520 G3 X78.087 Y226.709 I-26.557 J20.909
N3525 G1 X78.088 Y226.71
N3530 G2 X79.172 Y227.396 I1.084 J-0.514
N3535 G1 X92.549
N3540 G3 X96.349 Y231.196 I0. J3.8
N3545 G1 Y239.946
N3550 G3 X92.549 Y243.746 I-3.8 J0.
N3555 G1 X66.558
N3560 G3 X62.766 Y240.195 I0. J-3.8
N3565 G2 X32.332 I-15.217 J1.001
N3570 G3 X28.54 Y243.746 I-3.792 J-0.249
N3575 G1 X2.549
N3580 G3 X-1.251 Y239.946 I0. J-3.8
N3585 G1 Y231.196
N3590 G3 X2.549 Y227.396 I3.8 J0.
N3595 G1 X15.926
N3600 G2 X17.01 Y226.71 I0. J-1.2
N3605 G1 Y226.709
N3610 G3 X20.992 Y220.287 I30.538 J14.487
N3615 G2 X21.249 Y219.545 I-0.943 J-0.742
N3620 G1 Y179.996
N3625 X7.549
N3630 G3 X3.749 Y176.196 I0. J-3.8
N3635 G1 Y167.446
N3640 G3 X7.549 Y163.646 I3.8 J0.
N3645 G1 X32.549
N3650 G3 X36.349 Y167.446 I0. J3.8
N3655 G1 Y177.396
N3660 X58.749
N3665 Y167.446
N3670 G3 X62.549 Y163.646 I3.8 J0.
N3675 G1 X87.549
N3680 G3 X91.349 Y167.446 I0. J3.8
N3685 G1 Y176.196
N3690 G3 X89.964 Y179.13 I-3.8 J0.
N3695 X88.959 Y179.18 I-0.537 J-0.652
N3700 G2 X87.976 Y178.963 I-0.771 J1.157
N3705 G3 X87.549 Y178.996 I-0.427 J-2.767
N3710 G1 X73.049
N3715 G2 X72.849 Y179.196 I0. J0.2
N3720 G1 Y219.545
N3725 G2 X73.32 Y220.906 I2.2 J0.
N3730 G3 X77.184 Y227.138 I-25.771 J20.291
N3735 G2 X79.172 Y228.396 I1.988 J-0.942
N3740 G1 X92.549
N3745 G3 X95.349 Y231.196 I0. J2.8
N3750 G1 Y239.946
N3755 G3 X92.549 Y242.746 I-2.8 J0.
N3760 G1 X66.558
N3765 G3 X63.764 Y240.13 I0. J-2.8
N3770 G2 X31.334 I-16.215 J1.066
N3775 G3 X28.54 Y242.746 I-2.794 J-0.184
N3780 G1 X2.549
N3785 G3 X-0.251 Y239.946 I0. J-2.8
N3790 G1 Y231.196
N3795 G3 X2.549 Y228.396 I2.8 J0.
N3800 G1 X15.926
N3805 G2 X17.914 Y227.139 I0. J-2.2
N3810 G3 X21.778 Y220.906 I29.635 J14.058
N3815 G2 X22.249 Y219.545 I-1.729 J-1.361
N3820 G1 Y179.196
N3825 G2 X22.049 Y178.996 I-0.2 J0.
N3830 G1 X7.549
N3835 G3 X4.749 Y176.196 I0. J-2.8
N3840 G1 Y167.446
N3845 G3 X7.549 Y164.646 I2.8 J0.
N3850 G1 X32.549
N3855 G3 X35.349 Y167.446 I0. J2.8
N3860 G1 Y178.396
N3865 X59.749
N3870 Y167.446
N3875 G3 X62.549 Y164.646 I2.8 J0.
N3880 G1 X87.549
N3885 G3 X90.349 Y167.446 I0. J2.8
N3890 G1 Y176.196
N3895 G3 X87.976 Y178.963 I-2.8 J0.
N3900 G2 X87.474 Y179.648 I0.091 J0.593 F500.
N3905 G1 X87.566 Y180.241
N3910 X87.58 Y180.333 Z-9.993
N3915 X87.594 Y180.424 Z-9.971
N3920 X87.607 Y180.51 Z-9.935
N3925 X87.62 Y180.589 Z-9.885
N3930 X87.631 Y180.66 Z-9.824
N3935 X87.64 Y180.72 Z-9.753
N3940 X87.647 Y180.769 Z-9.672
N3945 X87.653 Y180.805 Z-9.585
N3950 X87.656 Y180.826 Z-9.494
N3955 X87.657 Y180.834 Z-9.4
N3960 G0 Z15.
N3965 X91.572 Y180.138
N3970 Z3.
N3975 G1 Z-11.4 F333.33
N3980 X91.567 Y180.132 Z-11.494
N3985 X91.553 Y180.115 Z-11.585
N3990 X91.53 Y180.087 Z-11.672
N3995 X91.499 Y180.049 Z-11.753
N4000 X91.46 Y180.002 Z-11.824
N4005 X91.414 Y179.947 Z-11.885
N4010 X91.363 Y179.885 Z-11.935
N4015 X91.308 Y179.818 Z-11.971
N4020 X91.25 Y179.747 Z-11.993
N4025 X91.19 Y179.675 Z-12.
N4030 X90.809 Y179.211 F500.
N4035 G2 X89.964 Y179.13 I-0.463 J0.381
N4040 G3 X87.549 Y179.996 I-2.415 J-2.934 F1000.
N4045 G1 X73.849
N4050 Y219.545
N4055 G2 X74.106 Y220.287 I1.2 J0.
N4060 G3 X78.087 Y226.709 I-26.557 J20.909
N4065 G1 X78.088 Y226.71
N4070 G2 X79.172 Y227.396 I1.084 J-0.514
N4075 G1 X92.549
N4080 G3 X96.349 Y231.196 I0. J3.8
N4085 G1 Y239.946
N4090 G3 X92.549 Y243.746 I-3.8 J0.
N4095 G1 X66.558
N4100 G3 X62.766 Y240.195 I0. J-3.8
N4105 G2 X32.332 I-15.217 J1.001
N4110 G3 X28.54 Y243.746 I-3.792 J-0.249
N4115 G1 X2.549
N4120 G3 X-1.251 Y239.946 I0. J-3.8
N4125 G1 Y231.196
N4130 G3 X2.549 Y227.396 I3.8 J0.
N4135 G1 X15.926
N4140 G2 X17.01 Y226.71 I0. J-1.2
N4145 G1 Y226.709
N4150 G3 X20.992 Y220.287 I30.538 J14.487
N4155 G2 X21.249 Y219.545 I-0.943 J-0.742
N4160 G1 Y179.996
N4165 X7.549
N4170 G3 X3.749 Y176.196 I0. J-3.8
N4175 G1 Y167.446
N4180 G3 X7.549 Y163.646 I3.8 J0.
N4185 G1 X32.549
N4190 G3 X36.349 Y167.446 I0. J3.8
N4195 G1 Y177.396
N4200 X58.749
N4205 Y167.446
N4210 G3 X62.549 Y163.646 I3.8 J0.
N4215 G1 X87.549
N4220 G3 X91.349 Y167.446 I0. J3.8
N4225 G1 Y176.196
N4230 G3 X89.964 Y179.13 I-3.8 J0.
N4235 X88.959 Y179.18 I-0.537 J-0.652
N4240 G2 X87.976 Y178.963 I-0.771 J1.157
N4245 G3 X87.549 Y178.996 I-0.427 J-2.767
N4250 G1 X73.049
N4255 G2 X72.849 Y179.196 I0. J0.2
N4260 G1 Y219.545
N4265 G2 X73.32 Y220.906 I2.2 J0.
N4270 G3 X77.184 Y227.138 I-25.771 J20.291
N4275 G2 X79.172 Y228.396 I1.988 J-0.942
N4280 G1 X92.549
N4285 G3 X95.349 Y231.196 I0. J2.8
N4290 G1 Y239.946
N4295 G3 X92.549 Y242.746 I-2.8 J0.
N4300 G1 X66.558
N4305 G3 X63.764 Y240.13 I0. J-2.8
N4310 G2 X31.334 I-16.215 J1.066
N4315 G3 X28.54 Y242.746 I-2.794 J-0.184
N4320 G1 X2.549
N4325 G3 X-0.251 Y239.946 I0. J-2.8
N4330 G1 Y231.196
N4335 G3 X2.549 Y228.396 I2.8 J0.
N4340 G1 X15.926
N4345 G2 X17.914 Y227.139 I0. J-2.2
N4350 G3 X21.778 Y220.906 I29.635 J14.058
N4355 G2 X22.249 Y219.545 I-1.729 J-1.361
N4360 G1 Y179.196
N4365 G2 X22.049 Y178.996 I-0.2 J0.
N4370 G1 X7.549
N4375 G3 X4.749 Y176.196 I0. J-2.8
N4380 G1 Y167.446
N4385 G3 X7.549 Y164.646 I2.8 J0.
N4390 G1 X32.549
N4395 G3 X35.349 Y167.446 I0. J2.8
N4400 G1 Y178.396
N4405 X59.749
N4410 Y167.446
N4415 G3 X62.549 Y164.646 I2.8 J0.
N4420 G1 X87.549
N4425 G3 X90.349 Y167.446 I0. J2.8
N4430 G1 Y176.196
N4435 G3 X87.976 Y178.963 I-2.8 J0.
N4440 G2 X87.474 Y179.648 I0.091 J0.593 F500.
N4445 G1 X87.566 Y180.241
N4450 X87.58 Y180.333 Z-11.993
N4455 X87.594 Y180.424 Z-11.971
N4460 X87.607 Y180.51 Z-11.935
N4465 X87.62 Y180.589 Z-11.885
N4470 X87.631 Y180.66 Z-11.824
N4475 X87.64 Y180.72 Z-11.753
N4480 X87.647 Y180.769 Z-11.672
N4485 X87.653 Y180.805 Z-11.585
N4490 X87.656 Y180.826 Z-11.494
N4495 X87.657 Y180.834 Z-11.4
N4500 G0 Z15.
N4505 X91.572 Y180.138
N4510 Z3.
N4515 G1 Z-13.4 F333.33
N4520 X91.567 Y180.132 Z-13.494
N4525 X91.553 Y180.115 Z-13.585
N4530 X91.53 Y180.087 Z-13.672
N4535 X91.499 Y180.049 Z-13.753
N4540 X91.46 Y180.002 Z-13.824
N4545 X91.414 Y179.947 Z-13.885
N4550 X91.363 Y179.885 Z-13.935
N4555 X91.308 Y179.818 Z-13.971
N4560 X91.25 Y179.747 Z-13.993
N4565 X91.19 Y179.675 Z-14.
N4570 X90.809 Y179.211 F500.
N4575 G2 X89.964 Y179.13 I-0.463 J0.381
N4580 G3 X87.549 Y179.996 I-2.415 J-2.934 F1000.
N4585 G1 X73.849
N4590 Y219.545
N4595 G2 X74.106 Y220.287 I1.2 J0.
N4600 G3 X78.087 Y226.709 I-26.557 J20.909
N4605 G1 X78.088 Y226.71
N4610 G2 X79.172 Y227.396 I1.084 J-0.514
N4615 G1 X92.549
N4620 G3 X96.349 Y231.196 I0. J3.8
N4625 G1 Y239.946
N4630 G3 X92.549 Y243.746 I-3.8 J0.
N4635 G1 X66.558
N4640 G3 X62.766 Y240.195 I0. J-3.8
N4645 G2 X32.332 I-15.217 J1.001
N4650 G3 X28.54 Y243.746 I-3.792 J-0.249
N4655 G1 X2.549
N4660 G3 X-1.251 Y239.946 I0. J-3.8
N4665 G1 Y231.196
N4670 G3 X2.549 Y227.396 I3.8 J0.
N4675 G1 X15.926
N4680 G2 X17.01 Y226.71 I0. J-1.2
N4685 G1 Y226.709
N4690 G3 X20.992 Y220.287 I30.538 J14.487
N4695 G2 X21.249 Y219.545 I-0.943 J-0.742
N4700 G1 Y179.996
N4705 X7.549
N4710 G3 X3.749 Y176.196 I0. J-3.8
N4715 G1 Y167.446
N4720 G3 X7.549 Y163.646 I3.8 J0.
N4725 G1 X32.549
N4730 G3 X36.349 Y167.446 I0. J3.8
N4735 G1 Y177.396
N4740 X58.749
N4745 Y167.446
N4750 G3 X62.549 Y163.646 I3.8 J0.
N4755 G1 X87.549
N4760 G3 X91.349 Y167.446 I0. J3.8
N4765 G1 Y176.196
N4770 G3 X89.964 Y179.13 I-3.8 J0.
N4775 X88.959 Y179.18 I-0.537 J-0.652
N4780 G2 X87.976 Y178.963 I-0.771 J1.157
N4785 G3 X87.549 Y178.996 I-0.427 J-2.767
N4790 G1 X73.049
N4795 G2 X72.849 Y179.196 I0. J0.2
N4800 G1 Y219.545
N4805 G2 X73.32 Y220.906 I2.2 J0.
N4810 G3 X77.184 Y227.138 I-25.771 J20.291
N4815 G2 X79.172 Y228.396 I1.988 J-0.942
N4820 G1 X92.549
N4825 G3 X95.349 Y231.196 I0. J2.8
N4830 G1 Y239.946
N4835 G3 X92.549 Y242.746 I-2.8 J0.
N4840 G1 X66.558
N4845 G3 X63.764 Y240.13 I0. J-2.8
N4850 G2 X31.334 I-16.215 J1.066
N4855 G3 X28.54 Y242.746 I-2.794 J-0.184
N4860 G1 X2.549
N4865 G3 X-0.251 Y239.946 I0. J-2.8
N4870 G1 Y231.196
N4875 G3 X2.549 Y228.396 I2.8 J0.
N4880 G1 X15.926
N4885 G2 X17.914 Y227.139 I0. J-2.2
N4890 G3 X21.778 Y220.906 I29.635 J14.058
N4895 G2 X22.249 Y219.545 I-1.729 J-1.361
N4900 G1 Y179.196
N4905 G2 X22.049 Y178.996 I-0.2 J0.
N4910 G1 X7.549
N4915 G3 X4.749 Y176.196 I0. J-2.8
N4920 G1 Y167.446
N4925 G3 X7.549 Y164.646 I2.8 J0.
N4930 G1 X32.549
N4935 G3 X35.349 Y167.446 I0. J2.8
N4940 G1 Y178.396
N4945 X59.749
N4950 Y167.446
N4955 G3 X62.549 Y164.646 I2.8 J0.
N4960 G1 X87.549
N4965 G3 X90.349 Y167.446 I0. J2.8
N4970 G1 Y176.196
N4975 G3 X87.976 Y178.963 I-2.8 J0.
N4980 G2 X87.474 Y179.648 I0.091 J0.593 F500.
N4985 G1 X87.566 Y180.241
N4990 X87.58 Y180.333 Z-13.993
N4995 X87.594 Y180.424 Z-13.971
N5000 X87.607 Y180.51 Z-13.935
N5005 X87.62 Y180.589 Z-13.885
N5010 X87.631 Y180.66 Z-13.824
N5015 X87.64 Y180.72 Z-13.753
N5020 X87.647 Y180.769 Z-13.672
N5025 X87.653 Y180.805 Z-13.585
N5030 X87.656 Y180.826 Z-13.494
N5035 X87.657 Y180.834 Z-13.4
N5040 G0 Z15.
N5045 X91.572 Y180.138
N5050 Z3.
N5055 G1 Z-15.4 F333.33
N5060 X91.567 Y180.132 Z-15.494
N5065 X91.553 Y180.115 Z-15.585
N5070 X91.53 Y180.087 Z-15.672
N5075 X91.499 Y180.049 Z-15.753
N5080 X91.46 Y180.002 Z-15.824
N5085 X91.414 Y179.947 Z-15.885
N5090 X91.363 Y179.885 Z-15.935
N5095 X91.308 Y179.818 Z-15.971
N5100 X91.25 Y179.747 Z-15.993
N5105 X91.19 Y179.675 Z-16.
N5110 X90.809 Y179.211 F500.
N5115 G2 X89.964 Y179.13 I-0.463 J0.381
N5120 G3 X87.549 Y179.996 I-2.415 J-2.934 F1000.
N5125 G1 X73.849
N5130 Y219.545
N5135 G2 X74.106 Y220.287 I1.2 J0.
N5140 G3 X78.087 Y226.709 I-26.557 J20.909
N5145 G1 X78.088 Y226.71
N5150 G2 X79.172 Y227.396 I1.084 J-0.514
N5155 G1 X92.549
N5160 G3 X96.349 Y231.196 I0. J3.8
N5165 G1 Y239.946
N5170 G3 X92.549 Y243.746 I-3.8 J0.
N5175 G1 X66.558
N5180 G3 X62.766 Y240.195 I0. J-3.8
N5185 G2 X32.332 I-15.217 J1.001
N5190 G3 X28.54 Y243.746 I-3.792 J-0.249
N5195 G1 X2.549
N5200 G3 X-1.251 Y239.946 I0. J-3.8
N5205 G1 Y231.196
N5210 G3 X2.549 Y227.396 I3.8 J0.
N5215 G1 X15.926
N5220 G2 X17.01 Y226.71 I0. J-1.2
N5225 G1 Y226.709
N5230 G3 X20.992 Y220.287 I30.538 J14.487
N5235 G2 X21.249 Y219.545 I-0.943 J-0.742
N5240 G1 Y179.996
N5245 X7.549
N5250 G3 X3.749 Y176.196 I0. J-3.8
N5255 G1 Y167.446
N5260 G3 X7.549 Y163.646 I3.8 J0.
N5265 G1 X32.549
N5270 G3 X36.349 Y167.446 I0. J3.8
N5275 G1 Y177.396
N5280 X58.749
N5285 Y167.446
N5290 G3 X62.549 Y163.646 I3.8 J0.
N5295 G1 X87.549
N5300 G3 X91.349 Y167.446 I0. J3.8
N5305 G1 Y176.196
N5310 G3 X89.964 Y179.13 I-3.8 J0.
N5315 X88.959 Y179.18 I-0.537 J-0.652
N5320 G2 X87.976 Y178.963 I-0.771 J1.157
N5325 G3 X87.549 Y178.996 I-0.427 J-2.767
N5330 G1 X73.049
N5335 G2 X72.849 Y179.196 I0. J0.2
N5340 G1 Y219.545
N5345 G2 X73.32 Y220.906 I2.2 J0.
N5350 G3 X77.184 Y227.138 I-25.771 J20.291
N5355 G2 X79.172 Y228.396 I1.988 J-0.942
N5360 G1 X92.549
N5365 G3 X95.349 Y231.196 I0. J2.8
N5370 G1 Y239.946
N5375 G3 X92.549 Y242.746 I-2.8 J0.
N5380 G1 X66.558
N5385 G3 X63.764 Y240.13 I0. J-2.8
N5390 G2 X31.334 I-16.215 J1.066
N5395 G3 X28.54 Y242.746 I-2.794 J-0.184
N5400 G1 X2.549
N5405 G3 X-0.251 Y239.946 I0. J-2.8
N5410 G1 Y231.196
N5415 G3 X2.549 Y228.396 I2.8 J0.
N5420 G1 X15.926
N5425 G2 X17.914 Y227.139 I0. J-2.2
N5430 G3 X21.778 Y220.906 I29.635 J14.058
N5435 G2 X22.249 Y219.545 I-1.729 J-1.361
N5440 G1 Y179.196
N5445 G2 X22.049 Y178.996 I-0.2 J0.
N5450 G1 X7.549
N5455 G3 X4.749 Y176.196 I0. J-2.8
N5460 G1 Y167.446
N5465 G3 X7.549 Y164.646 I2.8 J0.
N5470 G1 X32.549
N5475 G3 X35.349 Y167.446 I0. J2.8
N5480 G1 Y178.396
N5485 X59.749
N5490 Y167.446
N5495 G3 X62.549 Y164.646 I2.8 J0.
N5500 G1 X87.549
N5505 G3 X90.349 Y167.446 I0. J2.8
N5510 G1 Y176.196
N5515 G3 X87.976 Y178.963 I-2.8 J0.
N5520 G2 X87.474 Y179.648 I0.091 J0.593 F500.
N5525 G1 X87.566 Y180.241
N5530 X87.58 Y180.333 Z-15.993
N5535 X87.594 Y180.424 Z-15.971
N5540 X87.607 Y180.51 Z-15.935
N5545 X87.62 Y180.589 Z-15.885
N5550 X87.631 Y180.66 Z-15.824
N5555 X87.64 Y180.72 Z-15.753
N5560 X87.647 Y180.769 Z-15.672
N5565 X87.653 Y180.805 Z-15.585
N5570 X87.656 Y180.826 Z-15.494
N5575 X87.657 Y180.834 Z-15.4
N5580 G0 Z15.
N5585 X91.572 Y180.138
N5590 Z3.
N5595 G1 Z-17.4 F333.33
N5600 X91.567 Y180.132 Z-17.494
N5605 X91.553 Y180.115 Z-17.585
N5610 X91.53 Y180.087 Z-17.672
N5615 X91.499 Y180.049 Z-17.753
N5620 X91.46 Y180.002 Z-17.824
N5625 X91.414 Y179.947 Z-17.885
N5630 X91.363 Y179.885 Z-17.935
N5635 X91.308 Y179.818 Z-17.971
N5640 X91.25 Y179.747 Z-17.993
N5645 X91.19 Y179.675 Z-18.
N5650 X90.809 Y179.211 F500.
N5655 G2 X89.964 Y179.13 I-0.463 J0.381
N5660 G3 X87.549 Y179.996 I-2.415 J-2.934 F1000.
N5665 G1 X73.849
N5670 Y219.545
N5675 G2 X74.106 Y220.287 I1.2 J0.
N5680 G3 X78.087 Y226.709 I-26.557 J20.909
N5685 G1 X78.088 Y226.71
N5690 G2 X79.172 Y227.396 I1.084 J-0.514
N5695 G1 X92.549
N5700 G3 X96.349 Y231.196 I0. J3.8
N5705 G1 Y239.946
N5710 G3 X92.549 Y243.746 I-3.8 J0.
N5715 G1 X66.558
N5720 G3 X62.766 Y240.195 I0. J-3.8
N5725 G2 X32.332 I-15.217 J1.001
N5730 G3 X28.54 Y243.746 I-3.792 J-0.249
N5735 G1 X2.549
N5740 G3 X-1.251 Y239.946 I0. J-3.8
N5745 G1 Y231.196
N5750 G3 X2.549 Y227.396 I3.8 J0.
N5755 G1 X15.926
N5760 G2 X17.01 Y226.71 I0. J-1.2
N5765 G1 Y226.709
N5770 G3 X20.992 Y220.287 I30.538 J14.487
N5775 G2 X21.249 Y219.545 I-0.943 J-0.742
N5780 G1 Y179.996
N5785 X7.549
N5790 G3 X3.749 Y176.196 I0. J-3.8
N5795 G1 Y167.446
N5800 G3 X7.549 Y163.646 I3.8 J0.
N5805 G1 X32.549
N5810 G3 X36.349 Y167.446 I0. J3.8
N5815 G1 Y177.396
N5820 X58.749
N5825 Y167.446
N5830 G3 X62.549 Y163.646 I3.8 J0.
N5835 G1 X87.549
N5840 G3 X91.349 Y167.446 I0. J3.8
N5845 G1 Y176.196
N5850 G3 X89.964 Y179.13 I-3.8 J0.
N5855 X88.959 Y179.18 I-0.537 J-0.652
N5860 G2 X87.976 Y178.963 I-0.771 J1.157
N5865 G3 X87.549 Y178.996 I-0.427 J-2.767
N5870 G1 X73.049
N5875 G2 X72.849 Y179.196 I0. J0.2
N5880 G1 Y219.545
N5885 G2 X73.32 Y220.906 I2.2 J0.
N5890 G3 X77.184 Y227.138 I-25.771 J20.291
N5895 G2 X79.172 Y228.396 I1.988 J-0.942
N5900 G1 X92.549
N5905 G3 X95.349 Y231.196 I0. J2.8
N5910 G1 Y239.946
N5915 G3 X92.549 Y242.746 I-2.8 J0.
N5920 G1 X66.558
N5925 G3 X63.764 Y240.13 I0. J-2.8
N5930 G2 X31.334 I-16.215 J1.066
N5935 G3 X28.54 Y242.746 I-2.794 J-0.184
N5940 G1 X2.549
N5945 G3 X-0.251 Y239.946 I0. J-2.8
N5950 G1 Y231.196
N5955 G3 X2.549 Y228.396 I2.8 J0.
N5960 G1 X15.926
N5965 G2 X17.914 Y227.139 I0. J-2.2
N5970 G3 X21.778 Y220.906 I29.635 J14.058
N5975 G2 X22.249 Y219.545 I-1.729 J-1.361
N5980 G1 Y179.196
N5985 G2 X22.049 Y178.996 I-0.2 J0.
N5990 G1 X7.549
N5995 G3 X4.749 Y176.196 I0. J-2.8
N6000 G1 Y167.446
N6005 G3 X7.549 Y164.646 I2.8 J0.
N6010 G1 X32.549
N6015 G3 X35.349 Y167.446 I0. J2.8
N6020 G1 Y178.396
N6025 X59.749
N6030 Y167.446
N6035 G3 X62.549 Y164.646 I2.8 J0.
N6040 G1 X87.549
N6045 G3 X90.349 Y167.446 I0. J2.8
N6050 G1 Y176.196
N6055 G3 X87.976 Y178.963 I-2.8 J0.
N6060 G2 X87.474 Y179.648 I0.091 J0.593 F500.
N6065 G1 X87.566 Y180.241
N6070 X87.58 Y180.333 Z-17.993
N6075 X87.594 Y180.424 Z-17.971
N6080 X87.607 Y180.51 Z-17.935
N6085 X87.62 Y180.589 Z-17.885
N6090 X87.631 Y180.66 Z-17.824
N6095 X87.64 Y180.72 Z-17.753
N6100 X87.647 Y180.769 Z-17.672
N6105 X87.653 Y180.805 Z-17.585
N6110 X87.656 Y180.826 Z-17.494
N6115 X87.657 Y180.834 Z-17.4
N6120 G0 Z15.
N6125 X90.936 Y179.366
N6130 Z3.
N6135 G1 Z-19.4 F333.33
N6140 X90.931 Y179.36 Z-19.494
N6145 X90.917 Y179.343 Z-19.585
N6150 X90.894 Y179.315 Z-19.672
N6155 X90.863 Y179.277 Z-19.753
N6160 X90.824 Y179.23 Z-19.824
N6165 X90.779 Y179.175 Z-19.885
N6170 X90.728 Y179.113 Z-19.935
N6175 X90.672 Y179.046 Z-19.971
N6180 X90.614 Y178.975 Z-19.993
N6185 X90.555 Y178.903 Z-20.
N6190 X90.173 Y178.439 F500.
N6195 G2 X89.329 Y178.358 I-0.463 J0.381
N6200 G3 X87.549 Y178.996 I-1.78 J-2.162 F1000.
N6205 G1 X73.049
N6210 G2 X72.849 Y179.196 I0. J0.2
N6215 G1 Y193.37
N6220 Z-18.5
N6225 Y205.37
N6230 Z-20. F333.33
N6235 Y219.545 F1000.
N6240 G2 X73.32 Y220.906 I2.2 J0.
N6245 G3 X77.184 Y227.138 I-25.771 J20.291
N6250 G2 X79.172 Y228.396 I1.988 J-0.942
N6255 G1 X92.549
N6260 G3 X95.349 Y231.196 I0. J2.8
N6265 G1 Y239.946
N6270 G3 X92.549 Y242.746 I-2.8 J0.
N6275 G1 X66.558
N6280 G3 X63.764 Y240.13 I0. J-2.8
N6285 G2 X53.549 Y226.094 I-16.215 J1.066
N6290 G1 Z-18.5
N6295 G2 X41.549 I-6. J15.102
N6300 G1 Z-20. F333.33
N6305 G2 X31.334 Y240.13 I6. J15.102 F1000.
N6310 G3 X28.54 Y242.746 I-2.794 J-0.184
N6315 G1 X2.549
N6320 G3 X-0.251 Y239.946 I0. J-2.8
N6325 G1 Y231.196
N6330 G3 X2.549 Y228.396 I2.8 J0.
N6335 G1 X15.926
N6340 G2 X17.914 Y227.139 I0. J-2.2
N6345 G3 X21.778 Y220.906 I29.635 J14.058
N6350 G2 X22.249 Y219.545 I-1.729 J-1.361
N6355 G1 Y205.37
N6360 Z-18.5
N6365 Y193.37
N6370 Z-20. F333.33
N6375 Y179.196 F1000.
N6380 G2 X22.049 Y178.996 I-0.2 J0.
N6385 G1 X7.549
N6390 G3 X4.749 Y176.196 I0. J-2.8
N6395 G1 Y167.446
N6400 G3 X7.549 Y164.646 I2.8 J0.
N6405 G1 X32.549
N6410 G3 X35.349 Y167.446 I0. J2.8
N6415 G1 Y178.396
N6420 X41.549
N6425 Z-18.5
N6430 X53.549
N6435 Z-20. F333.33
N6440 X59.749 F1000.
N6445 Y167.446
N6450 G3 X62.549 Y164.646 I2.8 J0.
N6455 G1 X87.549
N6460 G3 X90.349 Y167.446 I0. J2.8
N6465 G1 Y176.196
N6470 G3 X89.329 Y178.358 I-2.8 J0.
N6475 G2 X89.247 Y179.202 I0.381 J0.463 F500.
N6480 G1 X89.628 Y179.665
N6485 X89.688 Y179.738 Z-19.993
N6490 X89.746 Y179.809 Z-19.971
N6495 X89.801 Y179.876 Z-19.935
N6500 X89.852 Y179.938 Z-19.885
N6505 X89.898 Y179.993 Z-19.824
N6510 X89.937 Y180.04 Z-19.753
N6515 X89.968 Y180.078 Z-19.672
N6520 X89.991 Y180.106 Z-19.585
N6525 X90.005 Y180.123 Z-19.494
N6530 X90.01 Y180.129 Z-19.4
N6535 G0 Z15.
N6540 X93.657 Y189.297
N6545 Z3.
N6550 G1 Z-1.4 F333.33
N6555 G19 G3 Y189.897 Z-2. J0.6 K0.
N6560 G1 Y190.497 F500.
N6565 G17 G2 X94.257 Y191.097 I0.6 J0.
N6570 G1 X100.708 F1000.
N6575 Y187.397
N6580 G3 X109.508 Y178.597 I8.8 J0.
N6585 G1 X144.508
N6590 G3 X153.308 Y187.397 I0. J8.8
N6595 G1 Y191.097
N6600 X167.008
N6605 G3 X170.808 Y194.897 I0. J3.8
N6610 G1 Y203.647
N6615 G3 X167.008 Y207.447 I-3.8 J0.
N6620 G1 X142.008
N6625 G3 X138.208 Y203.647 I0. J-3.8
N6630 G1 Y193.697
N6635 X115.808
N6640 Y203.647
N6645 G3 X112.008 Y207.447 I-3.8 J0.
N6650 G1 X87.008
N6655 G3 X83.208 Y203.647 I0. J-3.8
N6660 G1 Y194.897
N6665 G3 X87.008 Y191.097 I3.8 J0.
N6670 G1 X94.257
N6675 G3 X95.007 Y191.597 I0. J0.813
N6680 G2 X95.757 Y192.097 I0.75 J-0.313
N6685 G1 X101.508
N6690 G2 X101.708 Y191.897 I0. J-0.2
N6695 G1 Y187.397
N6700 G3 X109.508 Y179.597 I7.8 J0.
N6705 G1 X144.508
N6710 G3 X152.308 Y187.397 I0. J7.8
N6715 G1 Y191.897
N6720 G2 X152.508 Y192.097 I0.2 J0.
N6725 G1 X167.008
N6730 G3 X169.808 Y194.897 I0. J2.8
N6735 G1 Y203.647
N6740 G3 X167.008 Y206.447 I-2.8 J0.
N6745 G1 X142.008
N6750 G3 X139.208 Y203.647 I0. J-2.8
N6755 G1 Y192.697
N6760 X114.808
N6765 Y203.647
N6770 G3 X112.008 Y206.447 I-2.8 J0.
N6775 G1 X87.008
N6780 G3 X84.208 Y203.647 I0. J-2.8
N6785 G1 Y194.897
N6790 G3 X87.008 Y192.097 I2.8 J0.
N6795 G1 X95.757
N6800 G2 X96.357 Y191.497 I0. J-0.6 F500.
N6805 G1 Y190.897
N6810 G19 G2 Y190.297 Z-1.4 J0. K0.6
N6815 G0 Z15.
N6820 X93.657 Y189.297
N6825 Z3.
N6830 G1 Z-3.4 F333.33
N6835 G3 Y189.897 Z-4. J0.6 K0.
N6840 G1 Y190.497 F500.
N6845 G17 G2 X94.257 Y191.097 I0.6 J0.
N6850 G1 X100.708 F1000.
N6855 Y187.397
N6860 G3 X109.508 Y178.597 I8.8 J0.
N6865 G1 X144.508
N6870 G3 X153.308 Y187.397 I0. J8.8
N6875 G1 Y191.097
N6880 X167.008
N6885 G3 X170.808 Y194.897 I0. J3.8
N6890 G1 Y203.647
N6895 G3 X167.008 Y207.447 I-3.8 J0.
N6900 G1 X142.008
N6905 G3 X138.208 Y203.647 I0. J-3.8
N6910 G1 Y193.697
N6915 X115.808
N6920 Y203.647
N6925 G3 X112.008 Y207.447 I-3.8 J0.
N6930 G1 X87.008
N6935 G3 X83.208 Y203.647 I0. J-3.8
N6940 G1 Y194.897
N6945 G3 X87.008 Y191.097 I3.8 J0.
N6950 G1 X94.257
N6955 G3 X95.007 Y191.597 I0. J0.813
N6960 G2 X95.757 Y192.097 I0.75 J-0.313
N6965 G1 X101.508
N6970 G2 X101.708 Y191.897 I0. J-0.2
N6975 G1 Y187.397
N6980 G3 X109.508 Y179.597 I7.8 J0.
N6985 G1 X144.508
N6990 G3 X152.308 Y187.397 I0. J7.8
N6995 G1 Y191.897
N7000 G2 X152.508 Y192.097 I0.2 J0.
N7005 G1 X167.008
N7010 G3 X169.808 Y194.897 I0. J2.8
N7015 G1 Y203.647
N7020 G3 X167.008 Y206.447 I-2.8 J0.
N7025 G1 X142.008
N7030 G3 X139.208 Y203.647 I0. J-2.8
N7035 G1 Y192.697
N7040 X114.808
N7045 Y203.647
N7050 G3 X112.008 Y206.447 I-2.8 J0.
N7055 G1 X87.008
N7060 G3 X84.208 Y203.647 I0. J-2.8
N7065 G1 Y194.897
N7070 G3 X87.008 Y192.097 I2.8 J0.
N7075 G1 X95.757
N7080 G2 X96.357 Y191.497 I0. J-0.6 F500.
N7085 G1 Y190.897
N7090 G19 G2 Y190.297 Z-3.4 J0. K0.6
N7095 G0 Z15.
N7100 X93.657 Y189.297
N7105 Z3.
N7110 G1 Z-5.4 F333.33
N7115 G3 Y189.897 Z-6. J0.6 K0.
N7120 G1 Y190.497 F500.
N7125 G17 G2 X94.257 Y191.097 I0.6 J0.
N7130 G1 X100.708 F1000.
N7135 Y187.397
N7140 G3 X109.508 Y178.597 I8.8 J0.
N7145 G1 X144.508
N7150 G3 X153.308 Y187.397 I0. J8.8
N7155 G1 Y191.097
N7160 X167.008
N7165 G3 X170.808 Y194.897 I0. J3.8
N7170 G1 Y203.647
N7175 G3 X167.008 Y207.447 I-3.8 J0.
N7180 G1 X142.008
N7185 G3 X138.208 Y203.647 I0. J-3.8
N7190 G1 Y193.697
N7195 X115.808
N7200 Y203.647
N7205 G3 X112.008 Y207.447 I-3.8 J0.
N7210 G1 X87.008
N7215 G3 X83.208 Y203.647 I0. J-3.8
N7220 G1 Y194.897
N7225 G3 X87.008 Y191.097 I3.8 J0.
N7230 G1 X94.257
N7235 G3 X95.007 Y191.597 I0. J0.813
N7240 G2 X95.757 Y192.097 I0.75 J-0.313
N7245 G1 X101.508
N7250 G2 X101.708 Y191.897 I0. J-0.2
N7255 G1 Y187.397
N7260 G3 X109.508 Y179.597 I7.8 J0.
N7265 G1 X144.508
N7270 G3 X152.308 Y187.397 I0. J7.8
N7275 G1 Y191.897
N7280 G2 X152.508 Y192.097 I0.2 J0.
N7285 G1 X167.008
N7290 G3 X169.808 Y194.897 I0. J2.8
N7295 G1 Y203.647
N7300 G3 X167.008 Y206.447 I-2.8 J0.
N7305 G1 X142.008
N7310 G3 X139.208 Y203.647 I0. J-2.8
N7315 G1 Y192.697
N7320 X114.808
N7325 Y203.647
N7330 G3 X112.008 Y206.447 I-2.8 J0.
N7335 G1 X87.008
N7340 G3 X84.208 Y203.647 I0. J-2.8
N7345 G1 Y194.897
N7350 G3 X87.008 Y192.097 I2.8 J0.
N7355 G1 X95.757
N7360 G2 X96.357 Y191.497 I0. J-0.6 F500.
N7365 G1 Y190.897
N7370 G19 G2 Y190.297 Z-5.4 J0. K0.6
N7375 G0 Z15.
N7380 X93.657 Y189.297
N7385 Z3.
N7390 G1 Z-7.4 F333.33
N7395 G3 Y189.897 Z-8. J0.6 K0.
N7400 G1 Y190.497 F500.
N7405 G17 G2 X94.257 Y191.097 I0.6 J0.
N7410 G1 X100.708 F1000.
N7415 Y187.397
N7420 G3 X109.508 Y178.597 I8.8 J0.
N7425 G1 X144.508
N7430 G3 X153.308 Y187.397 I0. J8.8
N7435 G1 Y191.097
N7440 X167.008
N7445 G3 X170.808 Y194.897 I0. J3.8
N7450 G1 Y203.647
N7455 G3 X167.008 Y207.447 I-3.8 J0.
N7460 G1 X142.008
N7465 G3 X138.208 Y203.647 I0. J-3.8
N7470 G1 Y193.697
N7475 X115.808
N7480 Y203.647
N7485 G3 X112.008 Y207.447 I-3.8 J0.
N7490 G1 X87.008
N7495 G3 X83.208 Y203.647 I0. J-3.8
N7500 G1 Y194.897
N7505 G3 X87.008 Y191.097 I3.8 J0.
N7510 G1 X94.257
N7515 G3 X95.007 Y191.597 I0. J0.813
N7520 G2 X95.757 Y192.097 I0.75 J-0.313
N7525 G1 X101.508
N7530 G2 X101.708 Y191.897 I0. J-0.2
N7535 G1 Y187.397
N7540 G3 X109.508 Y179.597 I7.8 J0.
N7545 G1 X144.508
N7550 G3 X152.308 Y187.397 I0. J7.8
N7555 G1 Y191.897
N7560 G2 X152.508 Y192.097 I0.2 J0.
N7565 G1 X167.008
N7570 G3 X169.808 Y194.897 I0. J2.8
N7575 G1 Y203.647
N7580 G3 X167.008 Y206.447 I-2.8 J0.
N7585 G1 X142.008
N7590 G3 X139.208 Y203.647 I0. J-2.8
N7595 G1 Y192.697
N7600 X114.808
N7605 Y203.647
N7610 G3 X112.008 Y206.447 I-2.8 J0.
N7615 G1 X87.008
N7620 G3 X84.208 Y203.647 I0. J-2.8
N7625 G1 Y194.897
N7630 G3 X87.008 Y192.097 I2.8 J0.
N7635 G1 X95.757
N7640 G2 X96.357 Y191.497 I0. J-0.6 F500.
N7645 G1 Y190.897
N7650 G19 G2 Y190.297 Z-7.4 J0. K0.6
N7655 G0 Z15.
N7660 X93.657 Y189.297
N7665 Z3.
N7670 G1 Z-9.4 F333.33
N7675 G3 Y189.897 Z-10. J0.6 K0.
N7680 G1 Y190.497 F500.
N7685 G17 G2 X94.257 Y191.097 I0.6 J0.
N7690 G1 X100.708 F1000.
N7695 Y187.397
N7700 G3 X109.508 Y178.597 I8.8 J0.
N7705 G1 X144.508
N7710 G3 X153.308 Y187.397 I0. J8.8
N7715 G1 Y191.097
N7720 X167.008
N7725 G3 X170.808 Y194.897 I0. J3.8
N7730 G1 Y203.647
N7735 G3 X167.008 Y207.447 I-3.8 J0.
N7740 G1 X142.008
N7745 G3 X138.208 Y203.647 I0. J-3.8
N7750 G1 Y193.697
N7755 X115.808
N7760 Y203.647
N7765 G3 X112.008 Y207.447 I-3.8 J0.
N7770 G1 X87.008
N7775 G3 X83.208 Y203.647 I0. J-3.8
N7780 G1 Y194.897
N7785 G3 X87.008 Y191.097 I3.8 J0.
N7790 G1 X94.257
N7795 G3 X95.007 Y191.597 I0. J0.813
N7800 G2 X95.757 Y192.097 I0.75 J-0.313
N7805 G1 X101.508
N7810 G2 X101.708 Y191.897 I0. J-0.2
N7815 G1 Y187.397
N7820 G3 X109.508 Y179.597 I7.8 J0.
N7825 G1 X144.508
N7830 G3 X152.308 Y187.397 I0. J7.8
N7835 G1 Y191.897
N7840 G2 X152.508 Y192.097 I0.2 J0.
N7845 G1 X167.008
N7850 G3 X169.808 Y194.897 I0. J2.8
N7855 G1 Y203.647
N7860 G3 X167.008 Y206.447 I-2.8 J0.
N7865 G1 X142.008
N7870 G3 X139.208 Y203.647 I0. J-2.8
N7875 G1 Y192.697
N7880 X114.808
N7885 Y203.647
N7890 G3 X112.008 Y206.447 I-2.8 J0.
N7895 G1 X87.008
N7900 G3 X84.208 Y203.647 I0. J-2.8
N7905 G1 Y194.897
N7910 G3 X87.008 Y192.097 I2.8 J0.
N7915 G1 X95.757
N7920 G2 X96.357 Y191.497 I0. J-0.6 F500.
N7925 G1 Y190.897
N7930 G19 G2 Y190.297 Z-9.4 J0. K0.6
N7935 G0 Z15.
N7940 X93.657 Y189.297
N7945 Z3.
N7950 G1 Z-11.4 F333.33
N7955 G3 Y189.897 Z-12. J0.6 K0.
N7960 G1 Y190.497 F500.
N7965 G17 G2 X94.257 Y191.097 I0.6 J0.
N7970 G1 X100.708 F1000.
N7975 Y187.397
N7980 G3 X109.508 Y178.597 I8.8 J0.
N7985 G1 X144.508
N7990 G3 X153.308 Y187.397 I0. J8.8
N7995 G1 Y191.097
N8000 X167.008
N8005 G3 X170.808 Y194.897 I0. J3.8
N8010 G1 Y203.647
N8015 G3 X167.008 Y207.447 I-3.8 J0.
N8020 G1 X142.008
N8025 G3 X138.208 Y203.647 I0. J-3.8
N8030 G1 Y193.697
N8035 X115.808
N8040 Y203.647
N8045 G3 X112.008 Y207.447 I-3.8 J0.
N8050 G1 X87.008
N8055 G3 X83.208 Y203.647 I0. J-3.8
N8060 G1 Y194.897
N8065 G3 X87.008 Y191.097 I3.8 J0.
N8070 G1 X94.257
N8075 G3 X95.007 Y191.597 I0. J0.813
N8080 G2 X95.757 Y192.097 I0.75 J-0.313
N8085 G1 X101.508
N8090 G2 X101.708 Y191.897 I0. J-0.2
N8095 G1 Y187.397
N8100 G3 X109.508 Y179.597 I7.8 J0.
N8105 G1 X144.508
N8110 G3 X152.308 Y187.397 I0. J7.8
N8115 G1 Y191.897
N8120 G2 X152.508 Y192.097 I0.2 J0.
N8125 G1 X167.008
N8130 G3 X169.808 Y194.897 I0. J2.8
N8135 G1 Y203.647
N8140 G3 X167.008 Y206.447 I-2.8 J0.
N8145 G1 X142.008
N8150 G3 X139.208 Y203.647 I0. J-2.8
N8155 G1 Y192.697
N8160 X114.808
N8165 Y203.647
N8170 G3 X112.008 Y206.447 I-2.8 J0.
N8175 G1 X87.008
N8180 G3 X84.208 Y203.647 I0. J-2.8
N8185 G1 Y194.897
N8190 G3 X87.008 Y192.097 I2.8 J0.
N8195 G1 X95.757
N8200 G2 X96.357 Y191.497 I0. J-0.6 F500.
N8205 G1 Y190.897
N8210 G19 G2 Y190.297 Z-11.4 J0. K0.6
N8215 G0 Z15.
N8220 X93.657 Y189.297
N8225 Z3.
N8230 G1 Z-13.4 F333.33
N8235 G3 Y189.897 Z-14. J0.6 K0.
N8240 G1 Y190.497 F500.
N8245 G17 G2 X94.257 Y191.097 I0.6 J0.
N8250 G1 X100.708 F1000.
N8255 Y187.397
N8260 G3 X109.508 Y178.597 I8.8 J0.
N8265 G1 X144.508
N8270 G3 X153.308 Y187.397 I0. J8.8
N8275 G1 Y191.097
N8280 X167.008
N8285 G3 X170.808 Y194.897 I0. J3.8
N8290 G1 Y203.647
N8295 G3 X167.008 Y207.447 I-3.8 J0.
N8300 G1 X142.008
N8305 G3 X138.208 Y203.647 I0. J-3.8
N8310 G1 Y193.697
N8315 X115.808
N8320 Y203.647
N8325 G3 X112.008 Y207.447 I-3.8 J0.
N8330 G1 X87.008
N8335 G3 X83.208 Y203.647 I0. J-3.8
N8340 G1 Y194.897
N8345 G3 X87.008 Y191.097 I3.8 J0.
N8350 G1 X94.257
N8355 G3 X95.007 Y191.597 I0. J0.813
N8360 G2 X95.757 Y192.097 I0.75 J-0.313
N8365 G1 X101.508
N8370 G2 X101.708 Y191.897 I0. J-0.2
N8375 G1 Y187.397
N8380 G3 X109.508 Y179.597 I7.8 J0.
N8385 G1 X144.508
N8390 G3 X152.308 Y187.397 I0. J7.8
N8395 G1 Y191.897
N8400 G2 X152.508 Y192.097 I0.2 J0.
N8405 G1 X167.008
N8410 G3 X169.808 Y194.897 I0. J2.8
N8415 G1 Y203.647
N8420 G3 X167.008 Y206.447 I-2.8 J0.
N8425 G1 X142.008
N8430 G3 X139.208 Y203.647 I0. J-2.8
N8435 G1 Y192.697
N8440 X114.808
N8445 Y203.647
N8450 G3 X112.008 Y206.447 I-2.8 J0.
N8455 G1 X87.008
N8460 G3 X84.208 Y203.647 I0. J-2.8
N8465 G1 Y194.897
N8470 G3 X87.008 Y192.097 I2.8 J0.
N8475 G1 X95.757
N8480 G2 X96.357 Y191.497 I0. J-0.6 F500.
N8485 G1 Y190.897
N8490 G19 G2 Y190.297 Z-13.4 J0. K0.6
N8495 G0 Z15.
N8500 X93.657 Y189.297
N8505 Z3.
N8510 G1 Z-15.4 F333.33
N8515 G3 Y189.897 Z-16. J0.6 K0.
N8520 G1 Y190.497 F500.
N8525 G17 G2 X94.257 Y191.097 I0.6 J0.
N8530 G1 X100.708 F1000.
N8535 Y187.397
N8540 G3 X109.508 Y178.597 I8.8 J0.
N8545 G1 X144.508
N8550 G3 X153.308 Y187.397 I0. J8.8
N8555 G1 Y191.097
N8560 X167.008
N8565 G3 X170.808 Y194.897 I0. J3.8
N8570 G1 Y203.647
N8575 G3 X167.008 Y207.447 I-3.8 J0.
N8580 G1 X142.008
N8585 G3 X138.208 Y203.647 I0. J-3.8
N8590 G1 Y193.697
N8595 X115.808
N8600 Y203.647
N8605 G3 X112.008 Y207.447 I-3.8 J0.
N8610 G1 X87.008
N8615 G3 X83.208 Y203.647 I0. J-3.8
N8620 G1 Y194.897
N8625 G3 X87.008 Y191.097 I3.8 J0.
N8630 G1 X94.257
N8635 G3 X95.007 Y191.597 I0. J0.813
N8640 G2 X95.757 Y192.097 I0.75 J-0.313
N8645 G1 X101.508
N8650 G2 X101.708 Y191.897 I0. J-0.2
N8655 G1 Y187.397
N8660 G3 X109.508 Y179.597 I7.8 J0.
N8665 G1 X144.508
N8670 G3 X152.308 Y187.397 I0. J7.8
N8675 G1 Y191.897
N8680 G2 X152.508 Y192.097 I0.2 J0.
N8685 G1 X167.008
N8690 G3 X169.808 Y194.897 I0. J2.8
N8695 G1 Y203.647
N8700 G3 X167.008 Y206.447 I-2.8 J0.
N8705 G1 X142.008
N8710 G3 X139.208 Y203.647 I0. J-2.8
N8715 G1 Y192.697
N8720 X114.808
N8725 Y203.647
N8730 G3 X112.008 Y206.447 I-2.8 J0.
N8735 G1 X87.008
N8740 G3 X84.208 Y203.647 I0. J-2.8
N8745 G1 Y194.897
N8750 G3 X87.008 Y192.097 I2.8 J0.
N8755 G1 X95.757
N8760 G2 X96.357 Y191.497 I0. J-0.6 F500.
N8765 G1 Y190.897
N8770 G19 G2 Y190.297 Z-15.4 J0. K0.6
N8775 G0 Z15.
N8780 X93.657 Y189.297
N8785 Z3.
N8790 G1 Z-17.4 F333.33
N8795 G3 Y189.897 Z-18. J0.6 K0.
N8800 G1 Y190.497 F500.
N8805 G17 G2 X94.257 Y191.097 I0.6 J0.
N8810 G1 X100.708 F1000.
N8815 Y187.397
N8820 G3 X109.508 Y178.597 I8.8 J0.
N8825 G1 X144.508
N8830 G3 X153.308 Y187.397 I0. J8.8
N8835 G1 Y191.097
N8840 X167.008
N8845 G3 X170.808 Y194.897 I0. J3.8
N8850 G1 Y203.647
N8855 G3 X167.008 Y207.447 I-3.8 J0.
N8860 G1 X142.008
N8865 G3 X138.208 Y203.647 I0. J-3.8
N8870 G1 Y193.697
N8875 X115.808
N8880 Y203.647
N8885 G3 X112.008 Y207.447 I-3.8 J0.
N8890 G1 X87.008
N8895 G3 X83.208 Y203.647 I0. J-3.8
N8900 G1 Y194.897
N8905 G3 X87.008 Y191.097 I3.8 J0.
N8910 G1 X94.257
N8915 G3 X95.007 Y191.597 I0. J0.813
N8920 G2 X95.757 Y192.097 I0.75 J-0.313
N8925 G1 X101.508
N8930 G2 X101.708 Y191.897 I0. J-0.2
N8935 G1 Y187.397
N8940 G3 X109.508 Y179.597 I7.8 J0.
N8945 G1 X144.508
N8950 G3 X152.308 Y187.397 I0. J7.8
N8955 G1 Y191.897
N8960 G2 X152.508 Y192.097 I0.2 J0.
N8965 G1 X167.008
N8970 G3 X169.808 Y194.897 I0. J2.8
N8975 G1 Y203.647
N8980 G3 X167.008 Y206.447 I-2.8 J0.
N8985 G1 X142.008
N8990 G3 X139.208 Y203.647 I0. J-2.8
N8995 G1 Y192.697
N9000 X114.808
N9005 Y203.647
N9010 G3 X112.008 Y206.447 I-2.8 J0.
N9015 G1 X87.008
N9020 G3 X84.208 Y203.647 I0. J-2.8
N9025 G1 Y194.897
N9030 G3 X87.008 Y192.097 I2.8 J0.
N9035 G1 X95.757
N9040 G2 X96.357 Y191.497 I0. J-0.6 F500.
N9045 G1 Y190.897
N9050 G19 G2 Y190.297 Z-17.4 J0. K0.6
N9055 G0 Z15.
N9060 X93.657
N9065 Z3.
N9070 G1 Z-19.4 F333.33
N9075 G3 Y190.897 Z-20. J0.6 K0.
N9080 G1 Y191.497 F500.
N9085 G17 G2 X94.257 Y192.097 I0.6 J0.
N9090 G1 X101.508 F1000.
N9095 G2 X101.708 Y191.897 I0. J-0.2
N9100 G1 Y187.397
N9105 G3 X109.508 Y179.597 I7.8 J0.
N9110 G1 X121.008
N9115 Z-18.5
N9120 X133.008
N9125 Z-20. F333.33
N9130 X144.508 F1000.
N9135 G3 X152.308 Y187.397 I0. J7.8
N9140 G1 Y191.897
N9145 G2 X152.508 Y192.097 I0.2 J0.
N9150 G1 X167.008
N9155 G3 X169.808 Y194.897 I0. J2.8
N9160 G1 Y203.647
N9165 G3 X167.008 Y206.447 I-2.8 J0.
N9170 G1 X142.008
N9175 G3 X139.208 Y203.647 I0. J-2.8
N9180 G1 Y192.697
N9185 X133.008
N9190 Z-18.5
N9195 X121.008
N9200 Z-20. F333.33
N9205 X114.808 F1000.
N9210 Y203.647
N9215 G3 X112.008 Y206.447 I-2.8 J0.
N9220 G1 X87.008
N9225 G3 X84.208 Y203.647 I0. J-2.8
N9230 G1 Y194.897
N9235 G3 X87.008 Y192.097 I2.8 J0.
N9240 G1 X94.257
N9245 G2 X94.857 Y191.497 I0. J-0.6 F500.
N9250 G1 Y190.897
N9255 G19 G2 Y190.297 Z-19.4 J0. K0.6
N9260 G0 Z15.
N9265 X161.949 Y240.546
N9270 Z3.
N9275 G1 Z-1.4 F333.33
N9280 G18 G2 X162.549 Z-2. I0.6 K0.
N9285 G1 X163.149 F500.
N9290 G17 G2 X163.749 Y239.946 I0. J-0.6
N9295 G1 Y231.196 F1000.
N9300 G3 X167.549 Y227.396 I3.8 J0.
N9305 G1 X180.926
N9310 G2 X182.01 Y226.71 I0. J-1.2
N9315 G3 X185.992 Y220.287 I30.538 J14.487
N9320 G2 X186.249 Y219.545 I-0.943 J-0.742
N9325 G1 Y179.996
N9330 X172.549
N9335 G3 X168.749 Y176.196 I0. J-3.8
N9340 G1 Y167.446
N9345 G3 X172.549 Y163.646 I3.8 J0.
N9350 G1 X197.549
N9355 G3 X201.349 Y167.446 I0. J3.8
N9360 G1 Y177.396
N9365 X223.749
N9370 Y167.446
N9375 G3 X227.549 Y163.646 I3.8 J0.
N9380 G1 X252.549
N9385 G3 X256.349 Y167.446 I0. J3.8
N9390 G1 Y176.196
N9395 G3 X252.549 Y179.996 I-3.8 J0.
N9400 G1 X238.849
N9405 Y219.546
N9410 G2 X239.106 Y220.287 I1.2 J0.
N9415 G3 X243.087 Y226.709 I-26.556 J20.91
N9420 G2 X244.172 Y227.396 I1.085 J-0.513
N9425 G1 X257.549
N9430 G3 X261.349 Y231.196 I0. J3.8
N9435 G1 Y239.946
N9440 G3 X257.549 Y243.746 I-3.8 J0.
N9445 G1 X231.558
N9450 G3 X227.766 Y240.195 I0. J-3.8
N9455 G2 X197.332 I-15.217 J1.001
N9460 G3 X193.54 Y243.746 I-3.792 J-0.249
N9465 G1 X167.549
N9470 G3 X163.749 Y239.946 I0. J-3.8
N9475 X164.249 Y239.196 I0.813 J0.
N9480 G2 X164.749 Y238.446 I-0.313 J-0.75
N9485 G1 Y231.196
N9490 G3 X167.549 Y228.396 I2.8 J0.
N9495 G1 X180.926
N9500 G2 X182.914 Y227.138 I0. J-2.2
N9505 G3 X186.778 Y220.906 I29.634 J14.059
N9510 G2 X187.249 Y219.545 I-1.729 J-1.361
N9515 G1 Y179.196
N9520 G2 X187.049 Y178.996 I-0.2 J0.
N9525 G1 X172.549
N9530 G3 X169.749 Y176.196 I0. J-2.8
N9535 G1 Y167.446
N9540 G3 X172.549 Y164.646 I2.8 J0.
N9545 G1 X197.549
N9550 G3 X200.349 Y167.446 I0. J2.8
N9555 G1 Y178.396
N9560 X224.749
N9565 Y167.446
N9570 G3 X227.549 Y164.646 I2.8 J0.
N9575 G1 X252.549
N9580 G3 X255.349 Y167.446 I0. J2.8
N9585 G1 Y176.196
N9590 G3 X252.549 Y178.996 I-2.8 J0.
N9595 G1 X238.049
N9600 G2 X237.849 Y179.196 I0. J0.2
N9605 G1 Y219.546
N9610 G2 X238.32 Y220.906 I2.2 J0.
N9615 G3 X242.184 Y227.138 I-25.77 J20.291
N9620 G2 X244.172 Y228.396 I1.988 J-0.942
N9625 G1 X257.549
N9630 G3 X260.349 Y231.196 I0. J2.8
N9635 G1 Y239.946
N9640 G3 X257.549 Y242.746 I-2.8 J0.
N9645 G1 X231.558
N9650 G3 X228.764 Y240.13 I0. J-2.8
N9655 G2 X196.334 I-16.215 J1.066
N9660 G3 X193.54 Y242.746 I-2.794 J-0.184
N9665 G1 X167.549
N9670 G3 X164.749 Y239.946 I0. J-2.8
N9675 G1 Y238.446
N9680 G2 X164.149 Y237.846 I-0.6 J0. F500.
N9685 G1 X163.549
N9690 G18 G3 X162.949 Z-1.4 I0. K0.6
N9695 G0 Z15.
N9700 X184.449 Y216.836
N9705 Z3.
N9710 G1 Z-3.4 F333.33
N9715 G2 X185.049 Z-4. I0.6 K0.
N9720 G1 X185.649 F500.
N9725 G17 G2 X186.249 Y216.236 I0. J-0.6
N9730 G1 Y179.996 F1000.
N9735 X172.549
N9740 G3 X168.749 Y176.196 I0. J-3.8
N9745 G1 Y167.446
N9750 G3 X172.549 Y163.646 I3.8 J0.
N9755 G1 X197.549
N9760 G3 X201.349 Y167.446 I0. J3.8
N9765 G1 Y177.396
N9770 X223.749
N9775 Y167.446
N9780 G3 X227.549 Y163.646 I3.8 J0.
N9785 G1 X252.549
N9790 G3 X256.349 Y167.446 I0. J3.8
N9795 G1 Y176.196
N9800 G3 X252.549 Y179.996 I-3.8 J0.
N9805 G1 X238.849
N9810 Y219.546
N9815 G2 X239.106 Y220.287 I1.2 J0.
N9820 G3 X243.087 Y226.709 I-26.556 J20.91
N9825 G2 X244.172 Y227.396 I1.085 J-0.513
N9830 G1 X257.549
N9835 G3 X261.349 Y231.196 I0. J3.8
N9840 G1 Y239.946
N9845 G3 X257.549 Y243.746 I-3.8 J0.
N9850 G1 X231.558
N9855 G3 X227.766 Y240.195 I0. J-3.8
N9860 G2 X197.332 I-15.217 J1.001
N9865 G3 X193.54 Y243.746 I-3.792 J-0.249
N9870 G1 X167.549
N9875 G3 X163.749 Y239.946 I0. J-3.8
N9880 G1 Y231.196
N9885 G3 X167.549 Y227.396 I3.8 J0.
N9890 G1 X180.926
N9895 G2 X182.01 Y226.71 I0. J-1.2
N9900 G3 X185.992 Y220.287 I30.538 J14.487
N9905 G2 X186.249 Y219.545 I-0.943 J-0.742
N9910 G1 Y216.236
N9915 G3 X186.749 Y215.486 I0.813 J0.
N9920 G2 X187.249 Y214.736 I-0.313 J-0.75
N9925 G1 Y179.196
N9930 G2 X187.049 Y178.996 I-0.2 J0.
N9935 G1 X172.549
N9940 G3 X169.749 Y176.196 I0. J-2.8
N9945 G1 Y167.446
N9950 G3 X172.549 Y164.646 I2.8 J0.
N9955 G1 X197.549
N9960 G3 X200.349 Y167.446 I0. J2.8
N9965 G1 Y178.396
N9970 X224.749
N9975 Y167.446
N9980 G3 X227.549 Y164.646 I2.8 J0.
N9985 G1 X252.549
N9990 G3 X255.349 Y167.446 I0. J2.8
N9995 G1 Y176.196
N10000 G3 X252.549 Y178.996 I-2.8 J0.
N10005 G1 X238.049
N10010 G2 X237.849 Y179.196 I0. J0.2
N10015 G1 Y219.546
N10020 G2 X238.32 Y220.906 I2.2 J0.
N10025 G3 X242.184 Y227.138 I-25.77 J20.291
N10030 G2 X244.172 Y228.396 I1.988 J-0.942
N10035 G1 X257.549
N10040 G3 X260.349 Y231.196 I0. J2.8
N10045 G1 Y239.946
N10050 G3 X257.549 Y242.746 I-2.8 J0.
N10055 G1 X231.558
N10060 G3 X228.764 Y240.13 I0. J-2.8
N10065 G2 X196.334 I-16.215 J1.066
N10070 G3 X193.54 Y242.746 I-2.794 J-0.184
N10075 G1 X167.549
N10080 G3 X164.749 Y239.946 I0. J-2.8
N10085 G1 Y231.196
N10090 G3 X167.549 Y228.396 I2.8 J0.
N10095 G1 X180.926
N10100 G2 X182.914 Y227.138 I0. J-2.2
N10105 G3 X186.778 Y220.906 I29.634 J14.059
N10110 G2 X187.249 Y219.545 I-1.729 J-1.361
N10115 G1 Y214.736
N10120 G2 X186.649 Y214.136 I-0.6 J0. F500.
N10125 G1 X186.049
N10130 G18 G3 X185.449 Z-3.4 I0. K0.6
N10135 G0 Z15.
N10140 X184.449 Y216.836
N10145 Z3.
N10150 G1 Z-5.4 F333.33
N10155 G2 X185.049 Z-6. I0.6 K0.
N10160 G1 X185.649 F500.
N10165 G17 G2 X186.249 Y216.236 I0. J-0.6
N10170 G1 Y179.996 F1000.
N10175 X172.549
N10180 G3 X168.749 Y176.196 I0. J-3.8
N10185 G1 Y167.446
N10190 G3 X172.549 Y163.646 I3.8 J0.
N10195 G1 X197.549
N10200 G3 X201.349 Y167.446 I0. J3.8
N10205 G1 Y177.396
N10210 X223.749
N10215 Y167.446
N10220 G3 X227.549 Y163.646 I3.8 J0.
N10225 G1 X252.549
N10230 G3 X256.349 Y167.446 I0. J3.8
N10235 G1 Y176.196
N10240 G3 X252.549 Y179.996 I-3.8 J0.
N10245 G1 X238.849
N10250 Y219.546
N10255 G2 X239.106 Y220.287 I1.2 J0.
N10260 G3 X243.087 Y226.709 I-26.556 J20.91
N10265 G2 X244.172 Y227.396 I1.085 J-0.513
N10270 G1 X257.549
N10275 G3 X261.349 Y231.196 I0. J3.8
N10280 G1 Y239.946
N10285 G3 X257.549 Y243.746 I-3.8 J0.
N10290 G1 X231.558
N10295 G3 X227.766 Y240.195 I0. J-3.8
N10300 G2 X197.332 I-15.217 J1.001
N10305 G3 X193.54 Y243.746 I-3.792 J-0.249
N10310 G1 X167.549
N10315 G3 X163.749 Y239.946 I0. J-3.8
N10320 G1 Y231.196
N10325 G3 X167.549 Y227.396 I3.8 J0.
N10330 G1 X180.926
N10335 G2 X182.01 Y226.71 I0. J-1.2
N10340 G3 X185.992 Y220.287 I30.538 J14.487
N10345 G2 X186.249 Y219.545 I-0.943 J-0.742
N10350 G1 Y216.236
N10355 G3 X186.749 Y215.486 I0.813 J0.
N10360 G2 X187.249 Y214.736 I-0.313 J-0.75
N10365 G1 Y179.196
N10370 G2 X187.049 Y178.996 I-0.2 J0.
N10375 G1 X172.549
N10380 G3 X169.749 Y176.196 I0. J-2.8
N10385 G1 Y167.446
N10390 G3 X172.549 Y164.646 I2.8 J0.
N10395 G1 X197.549
N10400 G3 X200.349 Y167.446 I0. J2.8
N10405 G1 Y178.396
N10410 X224.749
N10415 Y167.446
N10420 G3 X227.549 Y164.646 I2.8 J0.
N10425 G1 X252.549
N10430 G3 X255.349 Y167.446 I0. J2.8
N10435 G1 Y176.196
N10440 G3 X252.549 Y178.996 I-2.8 J0.
N10445 G1 X238.049
N10450 G2 X237.849 Y179.196 I0. J0.2
N10455 G1 Y219.546
N10460 G2 X238.32 Y220.906 I2.2 J0.
N10465 G3 X242.184 Y227.138 I-25.77 J20.291
N10470 G2 X244.172 Y228.396 I1.988 J-0.942
N10475 G1 X257.549
N10480 G3 X260.349 Y231.196 I0. J2.8
N10485 G1 Y239.946
N10490 G3 X257.549 Y242.746 I-2.8 J0.
N10495 G1 X231.558
N10500 G3 X228.764 Y240.13 I0. J-2.8
N10505 G2 X196.334 I-16.215 J1.066
N10510 G3 X193.54 Y242.746 I-2.794 J-0.184
N10515 G1 X167.549
N10520 G3 X164.749 Y239.946 I0. J-2.8
N10525 G1 Y231.196
N10530 G3 X167.549 Y228.396 I2.8 J0.
N10535 G1 X180.926
N10540 G2 X182.914 Y227.138 I0. J-2.2
N10545 G3 X186.778 Y220.906 I29.634 J14.059
N10550 G2 X187.249 Y219.545 I-1.729 J-1.361
N10555 G1 Y214.736
N10560 G2 X186.649 Y214.136 I-0.6 J0. F500.
N10565 G1 X186.049
N10570 G18 G3 X185.449 Z-5.4 I0. K0.6
N10575 G0 Z15.
N10580 X184.449 Y216.836
N10585 Z3.
N10590 G1 Z-7.4 F333.33
N10595 G2 X185.049 Z-8. I0.6 K0.
N10600 G1 X185.649 F500.
N10605 G17 G2 X186.249 Y216.236 I0. J-0.6
N10610 G1 Y179.996 F1000.
N10615 X172.549
N10620 G3 X168.749 Y176.196 I0. J-3.8
N10625 G1 Y167.446
N10630 G3 X172.549 Y163.646 I3.8 J0.
N10635 G1 X197.549
N10640 G3 X201.349 Y167.446 I0. J3.8
N10645 G1 Y177.396
N10650 X223.749
N10655 Y167.446
N10660 G3 X227.549 Y163.646 I3.8 J0.
N10665 G1 X252.549
N10670 G3 X256.349 Y167.446 I0. J3.8
N10675 G1 Y176.196
N10680 G3 X252.549 Y179.996 I-3.8 J0.
N10685 G1 X238.849
N10690 Y219.546
N10695 G2 X239.106 Y220.287 I1.2 J0.
N10700 G3 X243.087 Y226.709 I-26.556 J20.91
N10705 G2 X244.172 Y227.396 I1.085 J-0.513
N10710 G1 X257.549
N10715 G3 X261.349 Y231.196 I0. J3.8
N10720 G1 Y239.946
N10725 G3 X257.549 Y243.746 I-3.8 J0.
N10730 G1 X231.558
N10735 G3 X227.766 Y240.195 I0. J-3.8
N10740 G2 X197.332 I-15.217 J1.001
N10745 G3 X193.54 Y243.746 I-3.792 J-0.249
N10750 G1 X167.549
N10755 G3 X163.749 Y239.946 I0. J-3.8
N10760 G1 Y231.196
N10765 G3 X167.549 Y227.396 I3.8 J0.
N10770 G1 X180.926
N10775 G2 X182.01 Y226.71 I0. J-1.2
N10780 G3 X185.992 Y220.287 I30.538 J14.487
N10785 G2 X186.249 Y219.545 I-0.943 J-0.742
N10790 G1 Y216.236
N10795 G3 X186.749 Y215.486 I0.813 J0.
N10800 G2 X187.249 Y214.736 I-0.313 J-0.75
N10805 G1 Y179.196
N10810 G2 X187.049 Y178.996 I-0.2 J0.
N10815 G1 X172.549
N10820 G3 X169.749 Y176.196 I0. J-2.8
N10825 G1 Y167.446
N10830 G3 X172.549 Y164.646 I2.8 J0.
N10835 G1 X197.549
N10840 G3 X200.349 Y167.446 I0. J2.8
N10845 G1 Y178.396
N10850 X224.749
N10855 Y167.446
N10860 G3 X227.549 Y164.646 I2.8 J0.
N10865 G1 X252.549
N10870 G3 X255.349 Y167.446 I0. J2.8
N10875 G1 Y176.196
N10880 G3 X252.549 Y178.996 I-2.8 J0.
N10885 G1 X238.049
N10890 G2 X237.849 Y179.196 I0. J0.2
N10895 G1 Y219.546
N10900 G2 X238.32 Y220.906 I2.2 J0.
N10905 G3 X242.184 Y227.138 I-25.77 J20.291
N10910 G2 X244.172 Y228.396 I1.988 J-0.942
N10915 G1 X257.549
N10920 G3 X260.349 Y231.196 I0. J2.8
N10925 G1 Y239.946
N10930 G3 X257.549 Y242.746 I-2.8 J0.
N10935 G1 X231.558
N10940 G3 X228.764 Y240.13 I0. J-2.8
N10945 G2 X196.334 I-16.215 J1.066
N10950 G3 X193.54 Y242.746 I-2.794 J-0.184
N10955 G1 X167.549
N10960 G3 X164.749 Y239.946 I0. J-2.8
N10965 G1 Y231.196
N10970 G3 X167.549 Y228.396 I2.8 J0.
N10975 G1 X180.926
N10980 G2 X182.914 Y227.138 I0. J-2.2
N10985 G3 X186.778 Y220.906 I29.634 J14.059
N10990 G2 X187.249 Y219.545 I-1.729 J-1.361
N10995 G1 Y214.736
N11000 G2 X186.649 Y214.136 I-0.6 J0. F500.
N11005 G1 X186.049
N11010 G18 G3 X185.449 Z-7.4 I0. K0.6
N11015 G0 Z15.
N11020 X184.449 Y216.836
N11025 Z3.
N11030 G1 Z-9.4 F333.33
N11035 G2 X185.049 Z-10. I0.6 K0.
N11040 G1 X185.649 F500.
N11045 G17 G2 X186.249 Y216.236 I0. J-0.6
N11050 G1 Y179.996 F1000.
N11055 X172.549
N11060 G3 X168.749 Y176.196 I0. J-3.8
N11065 G1 Y167.446
N11070 G3 X172.549 Y163.646 I3.8 J0.
N11075 G1 X197.549
N11080 G3 X201.349 Y167.446 I0. J3.8
N11085 G1 Y177.396
N11090 X223.749
N11095 Y167.446
N11100 G3 X227.549 Y163.646 I3.8 J0.
N11105 G1 X252.549
N11110 G3 X256.349 Y167.446 I0. J3.8
N11115 G1 Y176.196
N11120 G3 X252.549 Y179.996 I-3.8 J0.
N11125 G1 X238.849
N11130 Y219.546
N11135 G2 X239.106 Y220.287 I1.2 J0.
N11140 G3 X243.087 Y226.709 I-26.556 J20.91
N11145 G2 X244.172 Y227.396 I1.085 J-0.513
N11150 G1 X257.549
N11155 G3 X261.349 Y231.196 I0. J3.8
N11160 G1 Y239.946
N11165 G3 X257.549 Y243.746 I-3.8 J0.
N11170 G1 X231.558
N11175 G3 X227.766 Y240.195 I0. J-3.8
N11180 G2 X197.332 I-15.217 J1.001
N11185 G3 X193.54 Y243.746 I-3.792 J-0.249
N11190 G1 X167.549
N11195 G3 X163.749 Y239.946 I0. J-3.8
N11200 G1 Y231.196
N11205 G3 X167.549 Y227.396 I3.8 J0.
N11210 G1 X180.926
N11215 G2 X182.01 Y226.71 I0. J-1.2
N11220 G3 X185.992 Y220.287 I30.538 J14.487
N11225 G2 X186.249 Y219.545 I-0.943 J-0.742
N11230 G1 Y216.236
N11235 G3 X186.749 Y215.486 I0.813 J0.
N11240 G2 X187.249 Y214.736 I-0.313 J-0.75
N11245 G1 Y179.196
N11250 G2 X187.049 Y178.996 I-0.2 J0.
N11255 G1 X172.549
N11260 G3 X169.749 Y176.196 I0. J-2.8
N11265 G1 Y167.446
N11270 G3 X172.549 Y164.646 I2.8 J0.
N11275 G1 X197.549
N11280 G3 X200.349 Y167.446 I0. J2.8
N11285 G1 Y178.396
N11290 X224.749
N11295 Y167.446
N11300 G3 X227.549 Y164.646 I2.8 J0.
N11305 G1 X252.549
N11310 G3 X255.349 Y167.446 I0. J2.8
N11315 G1 Y176.196
N11320 G3 X252.549 Y178.996 I-2.8 J0.
N11325 G1 X238.049
N11330 G2 X237.849 Y179.196 I0. J0.2
N11335 G1 Y219.546
N11340 G2 X238.32 Y220.906 I2.2 J0.
N11345 G3 X242.184 Y227.138 I-25.77 J20.291
N11350 G2 X244.172 Y228.396 I1.988 J-0.942
N11355 G1 X257.549
N11360 G3 X260.349 Y231.196 I0. J2.8
N11365 G1 Y239.946
N11370 G3 X257.549 Y242.746 I-2.8 J0.
N11375 G1 X231.558
N11380 G3 X228.764 Y240.13 I0. J-2.8
N11385 G2 X196.334 I-16.215 J1.066
N11390 G3 X193.54 Y242.746 I-2.794 J-0.184
N11395 G1 X167.549
N11400 G3 X164.749 Y239.946 I0. J-2.8
N11405 G1 Y231.196
N11410 G3 X167.549 Y228.396 I2.8 J0.
N11415 G1 X180.926
N11420 G2 X182.914 Y227.138 I0. J-2.2
N11425 G3 X186.778 Y220.906 I29.634 J14.059
N11430 G2 X187.249 Y219.545 I-1.729 J-1.361
N11435 G1 Y214.736
N11440 G2 X186.649 Y214.136 I-0.6 J0. F500.
N11445 G1 X186.049
N11450 G18 G3 X185.449 Z-9.4 I0. K0.6
N11455 G0 Z15.
N11460 X184.449 Y216.836
N11465 Z3.
N11470 G1 Z-11.4 F333.33
N11475 G2 X185.049 Z-12. I0.6 K0.
N11480 G1 X185.649 F500.
N11485 G17 G2 X186.249 Y216.236 I0. J-0.6
N11490 G1 Y179.996 F1000.
N11495 X172.549
N11500 G3 X168.749 Y176.196 I0. J-3.8
N11505 G1 Y167.446
N11510 G3 X172.549 Y163.646 I3.8 J0.
N11515 G1 X197.549
N11520 G3 X201.349 Y167.446 I0. J3.8
N11525 G1 Y177.396
N11530 X223.749
N11535 Y167.446
N11540 G3 X227.549 Y163.646 I3.8 J0.
N11545 G1 X252.549
N11550 G3 X256.349 Y167.446 I0. J3.8
N11555 G1 Y176.196
N11560 G3 X252.549 Y179.996 I-3.8 J0.
N11565 G1 X238.849
N11570 Y219.546
N11575 G2 X239.106 Y220.287 I1.2 J0.
N11580 G3 X243.087 Y226.709 I-26.556 J20.91
N11585 G2 X244.172 Y227.396 I1.085 J-0.513
N11590 G1 X257.549
N11595 G3 X261.349 Y231.196 I0. J3.8
N11600 G1 Y239.946
N11605 G3 X257.549 Y243.746 I-3.8 J0.
N11610 G1 X231.558
N11615 G3 X227.766 Y240.195 I0. J-3.8
N11620 G2 X197.332 I-15.217 J1.001
N11625 G3 X193.54 Y243.746 I-3.792 J-0.249
N11630 G1 X167.549
N11635 G3 X163.749 Y239.946 I0. J-3.8
N11640 G1 Y231.196
N11645 G3 X167.549 Y227.396 I3.8 J0.
N11650 G1 X180.926
N11655 G2 X182.01 Y226.71 I0. J-1.2
N11660 G3 X185.992 Y220.287 I30.538 J14.487
N11665 G2 X186.249 Y219.545 I-0.943 J-0.742
N11670 G1 Y216.236
N11675 G3 X186.749 Y215.486 I0.813 J0.
N11680 G2 X187.249 Y214.736 I-0.313 J-0.75
N11685 G1 Y179.196
N11690 G2 X187.049 Y178.996 I-0.2 J0.
N11695 G1 X172.549
N11700 G3 X169.749 Y176.196 I0. J-2.8
N11705 G1 Y167.446
N11710 G3 X172.549 Y164.646 I2.8 J0.
N11715 G1 X197.549
N11720 G3 X200.349 Y167.446 I0. J2.8
N11725 G1 Y178.396
N11730 X224.749
N11735 Y167.446
N11740 G3 X227.549 Y164.646 I2.8 J0.
N11745 G1 X252.549
N11750 G3 X255.349 Y167.446 I0. J2.8
N11755 G1 Y176.196
N11760 G3 X252.549 Y178.996 I-2.8 J0.
N11765 G1 X238.049
N11770 G2 X237.849 Y179.196 I0. J0.2
N11775 G1 Y219.546
N11780 G2 X238.32 Y220.906 I2.2 J0.
N11785 G3 X242.184 Y227.138 I-25.77 J20.291
N11790 G2 X244.172 Y228.396 I1.988 J-0.942
N11795 G1 X257.549
N11800 G3 X260.349 Y231.196 I0. J2.8
N11805 G1 Y239.946
N11810 G3 X257.549 Y242.746 I-2.8 J0.
N11815 G1 X231.558
N11820 G3 X228.764 Y240.13 I0. J-2.8
N11825 G2 X196.334 I-16.215 J1.066
N11830 G3 X193.54 Y242.746 I-2.794 J-0.184
N11835 G1 X167.549
N11840 G3 X164.749 Y239.946 I0. J-2.8
N11845 G1 Y231.196
N11850 G3 X167.549 Y228.396 I2.8 J0.
N11855 G1 X180.926
N11860 G2 X182.914 Y227.138 I0. J-2.2
N11865 G3 X186.778 Y220.906 I29.634 J14.059
N11870 G2 X187.249 Y219.545 I-1.729 J-1.361
N11875 G1 Y214.736
N11880 G2 X186.649 Y214.136 I-0.6 J0. F500.
N11885 G1 X186.049
N11890 G18 G3 X185.449 Z-11.4 I0. K0.6
N11895 G0 Z15.
N11900 X184.449 Y216.836
N11905 Z3.
N11910 G1 Z-13.4 F333.33
N11915 G2 X185.049 Z-14. I0.6 K0.
N11920 G1 X185.649 F500.
N11925 G17 G2 X186.249 Y216.236 I0. J-0.6
N11930 G1 Y179.996 F1000.
N11935 X172.549
N11940 G3 X168.749 Y176.196 I0. J-3.8
N11945 G1 Y167.446
N11950 G3 X172.549 Y163.646 I3.8 J0.
N11955 G1 X197.549
N11960 G3 X201.349 Y167.446 I0. J3.8
N11965 G1 Y177.396
N11970 X223.749
N11975 Y167.446
N11980 G3 X227.549 Y163.646 I3.8 J0.
N11985 G1 X252.549
N11990 G3 X256.349 Y167.446 I0. J3.8
N11995 G1 Y176.196
N12000 G3 X252.549 Y179.996 I-3.8 J0.
N12005 G1 X238.849
N12010 Y219.546
N12015 G2 X239.106 Y220.287 I1.2 J0.
N12020 G3 X243.087 Y226.709 I-26.556 J20.91
N12025 G2 X244.172 Y227.396 I1.085 J-0.513
N12030 G1 X257.549
N12035 G3 X261.349 Y231.196 I0. J3.8
N12040 G1 Y239.946
N12045 G3 X257.549 Y243.746 I-3.8 J0.
N12050 G1 X231.558
N12055 G3 X227.766 Y240.195 I0. J-3.8
N12060 G2 X197.332 I-15.217 J1.001
N12065 G3 X193.54 Y243.746 I-3.792 J-0.249
N12070 G1 X167.549
N12075 G3 X163.749 Y239.946 I0. J-3.8
N12080 G1 Y231.196
N12085 G3 X167.549 Y227.396 I3.8 J0.
N12090 G1 X180.926
N12095 G2 X182.01 Y226.71 I0. J-1.2
N12100 G3 X185.992 Y220.287 I30.538 J14.487
N12105 G2 X186.249 Y219.545 I-0.943 J-0.742
N12110 G1 Y216.236
N12115 G3 X186.749 Y215.486 I0.813 J0.
N12120 G2 X187.249 Y214.736 I-0.313 J-0.75
N12125 G1 Y179.196
N12130 G2 X187.049 Y178.996 I-0.2 J0.
N12135 G1 X172.549
N12140 G3 X169.749 Y176.196 I0. J-2.8
N12145 G1 Y167.446
N12150 G3 X172.549 Y164.646 I2.8 J0.
N12155 G1 X197.549
N12160 G3 X200.349 Y167.446 I0. J2.8
N12165 G1 Y178.396
N12170 X224.749
N12175 Y167.446
N12180 G3 X227.549 Y164.646 I2.8 J0.
N12185 G1 X252.549
N12190 G3 X255.349 Y167.446 I0. J2.8
N12195 G1 Y176.196
N12200 G3 X252.549 Y178.996 I-2.8 J0.
N12205 G1 X238.049
N12210 G2 X237.849 Y179.196 I0. J0.2
N12215 G1 Y219.546
N12220 G2 X238.32 Y220.906 I2.2 J0.
N12225 G3 X242.184 Y227.138 I-25.77 J20.291
N12230 G2 X244.172 Y228.396 I1.988 J-0.942
N12235 G1 X257.549
N12240 G3 X260.349 Y231.196 I0. J2.8
N12245 G1 Y239.946
N12250 G3 X257.549 Y242.746 I-2.8 J0.
N12255 G1 X231.558
N12260 G3 X228.764 Y240.13 I0. J-2.8
N12265 G2 X196.334 I-16.215 J1.066
N12270 G3 X193.54 Y242.746 I-2.794 J-0.184
N12275 G1 X167.549
N12280 G3 X164.749 Y239.946 I0. J-2.8
N12285 G1 Y231.196
N12290 G3 X167.549 Y228.396 I2.8 J0.
N12295 G1 X180.926
N12300 G2 X182.914 Y227.138 I0. J-2.2
N12305 G3 X186.778 Y220.906 I29.634 J14.059
N12310 G2 X187.249 Y219.545 I-1.729 J-1.361
N12315 G1 Y214.736
N12320 G2 X186.649 Y214.136 I-0.6 J0. F500.
N12325 G1 X186.049
N12330 G18 G3 X185.449 Z-13.4 I0. K0.6
N12335 G0 Z15.
N12340 X184.449 Y216.836
N12345 Z3.
N12350 G1 Z-15.4 F333.33
N12355 G2 X185.049 Z-16. I0.6 K0.
N12360 G1 X185.649 F500.
N12365 G17 G2 X186.249 Y216.236 I0. J-0.6
N12370 G1 Y179.996 F1000.
N12375 X172.549
N12380 G3 X168.749 Y176.196 I0. J-3.8
N12385 G1 Y167.446
N12390 G3 X172.549 Y163.646 I3.8 J0.
N12395 G1 X197.549
N12400 G3 X201.349 Y167.446 I0. J3.8
N12405 G1 Y177.396
N12410 X223.749
N12415 Y167.446
N12420 G3 X227.549 Y163.646 I3.8 J0.
N12425 G1 X252.549
N12430 G3 X256.349 Y167.446 I0. J3.8
N12435 G1 Y176.196
N12440 G3 X252.549 Y179.996 I-3.8 J0.
N12445 G1 X238.849
N12450 Y219.546
N12455 G2 X239.106 Y220.287 I1.2 J0.
N12460 G3 X243.087 Y226.709 I-26.556 J20.91
N12465 G2 X244.172 Y227.396 I1.085 J-0.513
N12470 G1 X257.549
N12475 G3 X261.349 Y231.196 I0. J3.8
N12480 G1 Y239.946
N12485 G3 X257.549 Y243.746 I-3.8 J0.
N12490 G1 X231.558
N12495 G3 X227.766 Y240.195 I0. J-3.8
N12500 G2 X197.332 I-15.217 J1.001
N12505 G3 X193.54 Y243.746 I-3.792 J-0.249
N12510 G1 X167.549
N12515 G3 X163.749 Y239.946 I0. J-3.8
N12520 G1 Y231.196
N12525 G3 X167.549 Y227.396 I3.8 J0.
N12530 G1 X180.926
N12535 G2 X182.01 Y226.71 I0. J-1.2
N12540 G3 X185.992 Y220.287 I30.538 J14.487
N12545 G2 X186.249 Y219.545 I-0.943 J-0.742
N12550 G1 Y216.236
N12555 G3 X186.749 Y215.486 I0.813 J0.
N12560 G2 X187.249 Y214.736 I-0.313 J-0.75
N12565 G1 Y179.196
N12570 G2 X187.049 Y178.996 I-0.2 J0.
N12575 G1 X172.549
N12580 G3 X169.749 Y176.196 I0. J-2.8
N12585 G1 Y167.446
N12590 G3 X172.549 Y164.646 I2.8 J0.
N12595 G1 X197.549
N12600 G3 X200.349 Y167.446 I0. J2.8
N12605 G1 Y178.396
N12610 X224.749
N12615 Y167.446
N12620 G3 X227.549 Y164.646 I2.8 J0.
N12625 G1 X252.549
N12630 G3 X255.349 Y167.446 I0. J2.8
N12635 G1 Y176.196
N12640 G3 X252.549 Y178.996 I-2.8 J0.
N12645 G1 X238.049
N12650 G2 X237.849 Y179.196 I0. J0.2
N12655 G1 Y219.546
N12660 G2 X238.32 Y220.906 I2.2 J0.
N12665 G3 X242.184 Y227.138 I-25.77 J20.291
N12670 G2 X244.172 Y228.396 I1.988 J-0.942
N12675 G1 X257.549
N12680 G3 X260.349 Y231.196 I0. J2.8
N12685 G1 Y239.946
N12690 G3 X257.549 Y242.746 I-2.8 J0.
N12695 G1 X231.558
N12700 G3 X228.764 Y240.13 I0. J-2.8
N12705 G2 X196.334 I-16.215 J1.066
N12710 G3 X193.54 Y242.746 I-2.794 J-0.184
N12715 G1 X167.549
N12720 G3 X164.749 Y239.946 I0. J-2.8
N12725 G1 Y231.196
N12730 G3 X167.549 Y228.396 I2.8 J0.
N12735 G1 X180.926
N12740 G2 X182.914 Y227.138 I0. J-2.2
N12745 G3 X186.778 Y220.906 I29.634 J14.059
N12750 G2 X187.249 Y219.545 I-1.729 J-1.361
N12755 G1 Y214.736
N12760 G2 X186.649 Y214.136 I-0.6 J0. F500.
N12765 G1 X186.049
N12770 G18 G3 X185.449 Z-15.4 I0. K0.6
N12775 G0 Z15.
N12780 X184.449 Y216.836
N12785 Z3.
N12790 G1 Z-17.4 F333.33
N12795 G2 X185.049 Z-18. I0.6 K0.
N12800 G1 X185.649 F500.
N12805 G17 G2 X186.249 Y216.236 I0. J-0.6
N12810 G1 Y179.996 F1000.
N12815 X172.549
N12820 G3 X168.749 Y176.196 I0. J-3.8
N12825 G1 Y167.446
N12830 G3 X172.549 Y163.646 I3.8 J0.
N12835 G1 X197.549
N12840 G3 X201.349 Y167.446 I0. J3.8
N12845 G1 Y177.396
N12850 X223.749
N12855 Y167.446
N12860 G3 X227.549 Y163.646 I3.8 J0.
N12865 G1 X252.549
N12870 G3 X256.349 Y167.446 I0. J3.8
N12875 G1 Y176.196
N12880 G3 X252.549 Y179.996 I-3.8 J0.
N12885 G1 X238.849
N12890 Y219.546
N12895 G2 X239.106 Y220.287 I1.2 J0.
N12900 G3 X243.087 Y226.709 I-26.556 J20.91
N12905 G2 X244.172 Y227.396 I1.085 J-0.513
N12910 G1 X257.549
N12915 G3 X261.349 Y231.196 I0. J3.8
N12920 G1 Y239.946
N12925 G3 X257.549 Y243.746 I-3.8 J0.
N12930 G1 X231.558
N12935 G3 X227.766 Y240.195 I0. J-3.8
N12940 G2 X197.332 I-15.217 J1.001
N12945 G3 X193.54 Y243.746 I-3.792 J-0.249
N12950 G1 X167.549
N12955 G3 X163.749 Y239.946 I0. J-3.8
N12960 G1 Y231.196
N12965 G3 X167.549 Y227.396 I3.8 J0.
N12970 G1 X180.926
N12975 G2 X182.01 Y226.71 I0. J-1.2
N12980 G3 X185.992 Y220.287 I30.538 J14.487
N12985 G2 X186.249 Y219.545 I-0.943 J-0.742
N12990 G1 Y216.236
N12995 G3 X186.749 Y215.486 I0.813 J0.
N13000 G2 X187.249 Y214.736 I-0.313 J-0.75
N13005 G1 Y179.196
N13010 G2 X187.049 Y178.996 I-0.2 J0.
N13015 G1 X172.549
N13020 G3 X169.749 Y176.196 I0. J-2.8
N13025 G1 Y167.446
N13030 G3 X172.549 Y164.646 I2.8 J0.
N13035 G1 X197.549
N13040 G3 X200.349 Y167.446 I0. J2.8
N13045 G1 Y178.396
N13050 X224.749
N13055 Y167.446
N13060 G3 X227.549 Y164.646 I2.8 J0.
N13065 G1 X252.549
N13070 G3 X255.349 Y167.446 I0. J2.8
N13075 G1 Y176.196
N13080 G3 X252.549 Y178.996 I-2.8 J0.
N13085 G1 X238.049
N13090 G2 X237.849 Y179.196 I0. J0.2
N13095 G1 Y219.546
N13100 G2 X238.32 Y220.906 I2.2 J0.
N13105 G3 X242.184 Y227.138 I-25.77 J20.291
N13110 G2 X244.172 Y228.396 I1.988 J-0.942
N13115 G1 X257.549
N13120 G3 X260.349 Y231.196 I0. J2.8
N13125 G1 Y239.946
N13130 G3 X257.549 Y242.746 I-2.8 J0.
N13135 G1 X231.558
N13140 G3 X228.764 Y240.13 I0. J-2.8
N13145 G2 X196.334 I-16.215 J1.066
N13150 G3 X193.54 Y242.746 I-2.794 J-0.184
N13155 G1 X167.549
N13160 G3 X164.749 Y239.946 I0. J-2.8
N13165 G1 Y231.196
N13170 G3 X167.549 Y228.396 I2.8 J0.
N13175 G1 X180.926
N13180 G2 X182.914 Y227.138 I0. J-2.2
N13185 G3 X186.778 Y220.906 I29.634 J14.059
N13190 G2 X187.249 Y219.545 I-1.729 J-1.361
N13195 G1 Y214.736
N13200 G2 X186.649 Y214.136 I-0.6 J0. F500.
N13205 G1 X186.049
N13210 G18 G3 X185.449 Z-17.4 I0. K0.6
N13215 G0 Z15.
N13220 Y216.836
N13225 Z3.
N13230 G1 Z-19.4 F333.33
N13235 G2 X186.049 Z-20. I0.6 K0.
N13240 G1 X186.649 F500.
N13245 G17 G2 X187.249 Y216.236 I0. J-0.6
N13250 G1 Y205.37 F1000.
N13255 Z-18.5
N13260 Y193.37
N13265 Z-20. F333.33
N13270 Y179.196 F1000.
N13275 G2 X187.049 Y178.996 I-0.2 J0.
N13280 G1 X172.549
N13285 G3 X169.749 Y176.196 I0. J-2.8
N13290 G1 Y167.446
N13295 G3 X172.549 Y164.646 I2.8 J0.
N13300 G1 X197.549
N13305 G3 X200.349 Y167.446 I0. J2.8
N13310 G1 Y178.396
N13315 X206.549
N13320 Z-18.5
N13325 X218.549
N13330 Z-20. F333.33
N13335 X224.749 F1000.
N13340 Y167.446
N13345 G3 X227.549 Y164.646 I2.8 J0.
N13350 G1 X252.549
N13355 G3 X255.349 Y167.446 I0. J2.8
N13360 G1 Y176.196
N13365 G3 X252.549 Y178.996 I-2.8 J0.
N13370 G1 X238.049
N13375 G2 X237.849 Y179.196 I0. J0.2
N13380 G1 Y193.37
N13385 Z-18.5
N13390 Y205.37
N13395 Z-20. F333.33
N13400 Y219.545 F1000.
N13405 G2 X238.32 Y220.906 I2.2 J0.001
N13410 G3 X242.184 Y227.138 I-25.77 J20.291
N13415 G2 X244.172 Y228.396 I1.988 J-0.942
N13420 G1 X257.549
N13425 G3 X260.349 Y231.196 I0. J2.8
N13430 G1 Y239.946
N13435 G3 X257.549 Y242.746 I-2.8 J0.
N13440 G1 X231.558
N13445 G3 X228.764 Y240.13 I0. J-2.8
N13450 G2 X218.549 Y226.094 I-16.215 J1.066
N13455 G1 Z-18.5
N13460 G2 X206.549 I-6. J15.102
N13465 G1 Z-20. F333.33
N13470 G2 X196.334 Y240.13 I6. J15.102 F1000.
N13475 G3 X193.54 Y242.746 I-2.794 J-0.184
N13480 G1 X167.549
N13485 G3 X164.749 Y239.946 I0. J-2.8
N13490 G1 Y231.196
N13495 G3 X167.549 Y228.396 I2.8 J0.
N13500 G1 X180.926
N13505 G2 X182.914 Y227.138 I0. J-2.2
N13510 G3 X186.778 Y220.906 I29.634 J14.059
N13515 G2 X187.249 Y219.545 I-1.729 J-1.361
N13520 G1 Y216.236
N13525 G2 X186.649 Y215.636 I-0.6 J0. F500.
N13530 G1 X186.049
N13535 G18 G3 X185.449 Z-19.4 I0. K0.6
N13540 G0 Z15.
N13545 X184.012 Y142.488
N13550 Z3.
N13555 G1 Z-1.4 F333.33
N13560 X184.018 Y142.484 Z-1.494
N13565 X184.036 Y142.471 Z-1.585
N13570 X184.065 Y142.45 Z-1.672
N13575 X184.105 Y142.421 Z-1.753
N13580 X184.155 Y142.385 Z-1.824
N13585 X184.213 Y142.343 Z-1.885
N13590 X184.278 Y142.297 Z-1.935
N13595 X184.349 Y142.246 Z-1.971
N13600 X184.423 Y142.192 Z-1.993
N13605 X184.499 Y142.137 Z-2.
N13610 X184.986 Y141.787 F500.
N13615 G17 G2 X185.122 Y140.949 I-0.351 J-0.487
N13620 G3 X182.011 Y135.682 I27.427 J-19.753 F1000.
N13625 G2 X180.926 Y134.996 I-1.084 J0.515
N13630 G1 X167.549
N13635 G3 X163.749 Y131.196 I0. J-3.8
N13640 G1 Y122.446
N13645 G3 X167.549 Y118.646 I3.8 J0.
N13650 G1 X193.54
N13655 G3 X197.332 Y122.197 I0. J3.8
N13660 G2 X227.766 I15.217 J-1.001
N13665 G3 X231.558 Y118.646 I3.792 J0.249
N13670 G1 X257.549
N13675 G3 X261.349 Y122.446 I0. J3.8
N13680 G1 Y131.196
N13685 G3 X257.549 Y134.996 I-3.8 J0.
N13690 G1 X244.172
N13695 G2 X243.087 Y135.682 I0. J1.2
N13700 G3 X185.122 Y140.949 I-30.538 J-14.486
N13705 X185.093 Y140.039 I0.662 J-0.477
N13710 G2 X185.085 Y139.128 I-0.715 J-0.449
N13715 G3 X182.914 Y135.253 I27.464 J-17.932
N13720 G2 X180.926 Y133.996 I-1.988 J0.943
N13725 G1 X167.549
N13730 G3 X164.749 Y131.196 I0. J-2.8
N13735 G1 Y122.446
N13740 G3 X167.549 Y119.646 I2.8 J0.
N13745 G1 X193.54
N13750 G3 X196.334 Y122.262 I0. J2.8
N13755 G2 X228.764 I16.215 J-1.066
N13760 G3 X231.558 Y119.646 I2.794 J0.184
N13765 G1 X257.549
N13770 G3 X260.349 Y122.446 I0. J2.8
N13775 G1 Y131.196
N13780 G3 X257.549 Y133.996 I-2.8 J0.
N13785 G1 X244.172
N13790 G2 X242.184 Y135.253 I0. J2.2
N13795 G3 X185.085 Y139.128 I-29.635 J-14.057
N13800 G2 X184.255 Y138.954 I-0.502 J0.328 F500.
N13805 G1 X183.752 Y139.282
N13810 X183.674 Y139.333 Z-1.993
N13815 X183.597 Y139.383 Z-1.971
N13820 X183.524 Y139.431 Z-1.935
N13825 X183.457 Y139.474 Z-1.885
N13830 X183.397 Y139.514 Z-1.824
N13835 X183.346 Y139.547 Z-1.753
N13840 X183.305 Y139.574 Z-1.672
N13845 X183.274 Y139.594 Z-1.585
N13850 X183.256 Y139.606 Z-1.494
N13855 X183.25 Y139.61 Z-1.4
N13860 G0 Z15.
N13865 X194.14 Y115.546
N13870 Z3.
N13875 G1 Z-1.4 F333.33
N13880 G19 G2 Y114.946 Z-2. J-0.6 K0.
N13885 G1 Y114.346 F500.
N13890 G17 G2 X193.54 Y113.746 I-0.6 J0.
N13895 G1 X167.549 F1000.
N13900 G3 X163.749 Y109.946 I0. J-3.8
N13905 G1 Y101.196
N13910 G3 X167.549 Y97.396 I3.8 J0.
N13915 G1 X180.926
N13920 G2 X182.011 Y96.71 I0. J-1.2
N13925 G3 X185.992 Y90.287 I30.538 J14.486
N13930 G2 X186.249 Y89.545 I-0.943 J-0.742
N13935 G1 Y49.995
N13940 X172.549
N13945 G3 X168.749 Y46.195 I0. J-3.8
N13950 G1 Y37.445
N13955 G3 X172.549 Y33.646 I3.8 J0.
N13960 G1 X197.549
N13965 G3 X201.349 Y37.445 I0. J3.8
N13970 G1 Y47.396
N13975 X223.749
N13980 Y37.445
N13985 G3 X227.549 Y33.646 I3.8 J0.
N13990 G1 X252.549
N13995 G3 X256.349 Y37.445 I0. J3.8
N14000 G1 Y46.195
N14005 G3 X252.549 Y49.995 I-3.8 J0.
N14010 G1 X238.849
N14015 Y89.545
N14020 G2 X239.106 Y90.287 I1.2 J0.
N14025 G3 X243.087 Y96.71 I-26.557 J20.909
N14030 G2 X244.172 Y97.396 I1.085 J-0.514
N14035 G1 X257.549
N14040 G3 X261.349 Y101.196 I0. J3.8
N14045 G1 Y109.946
N14050 G3 X257.549 Y113.746 I-3.8 J0.
N14055 G1 X231.558
N14060 G3 X227.766 Y110.195 I0. J-3.8
N14065 G2 X197.332 I-15.217 J1.001
N14070 G3 X193.54 Y113.746 I-3.792 J-0.249
N14075 X192.79 Y113.246 I0. J-0.813
N14080 G2 X192.04 Y112.746 I-0.75 J0.313
N14085 G1 X167.549
N14090 G3 X164.749 Y109.946 I0. J-2.8
N14095 G1 Y101.196
N14100 G3 X167.549 Y98.396 I2.8 J0.
N14105 G1 X180.926
N14110 G2 X182.914 Y97.139 I0. J-2.2
N14115 G3 X186.778 Y90.906 I29.635 J14.058
N14120 G2 X187.249 Y89.545 I-1.729 J-1.361
N14125 G1 Y49.195
N14130 G2 X187.049 Y48.995 I-0.2 J0.
N14135 G1 X172.549
N14140 G3 X169.749 Y46.195 I0. J-2.8
N14145 G1 Y37.445
N14150 G3 X172.549 Y34.646 I2.8 J0.
N14155 G1 X197.549
N14160 G3 X200.349 Y37.445 I0. J2.8
N14165 G1 Y48.396
N14170 X224.749
N14175 Y37.445
N14180 G3 X227.549 Y34.646 I2.8 J0.
N14185 G1 X252.549
N14190 G3 X255.349 Y37.445 I0. J2.8
N14195 G1 Y46.195
N14200 G3 X252.549 Y48.995 I-2.8 J0.
N14205 G1 X238.049
N14210 G2 X237.849 Y49.195 I0. J0.2
N14215 G1 Y89.545
N14220 G2 X238.32 Y90.906 I2.2 J0.
N14225 G3 X242.184 Y97.138 I-25.771 J20.29
N14230 G2 X244.172 Y98.396 I1.988 J-0.943
N14235 G1 X257.549
N14240 G3 X260.349 Y101.196 I0. J2.8
N14245 G1 Y109.946
N14250 G3 X257.549 Y112.746 I-2.8 J0.
N14255 G1 X231.558
N14260 G3 X228.764 Y110.13 I0. J-2.8
N14265 G2 X196.334 I-16.215 J1.066
N14270 G3 X193.54 Y112.746 I-2.794 J-0.184
N14275 G1 X192.04
N14280 G2 X191.44 Y113.346 I0. J0.6 F500.
N14285 G1 Y113.946
N14290 G19 G3 Y114.546 Z-1.4 J0. K0.6
N14295 G0 Z15.
N14300 X226.051 Y121.267
N14305 Z3.
N14310 G1 Z-3.4 F333.33
N14315 X226.058 Y121.269 Z-3.494
N14320 X226.079 Y121.276 Z-3.585
N14325 X226.113 Y121.287 Z-3.672
N14330 X226.16 Y121.303 Z-3.753
N14335 X226.218 Y121.322 Z-3.824
N14340 X226.286 Y121.344 Z-3.885
N14345 X226.362 Y121.369 Z-3.935
N14350 X226.445 Y121.396 Z-3.971
N14355 X226.532 Y121.425 Z-3.993
N14360 X226.621 Y121.454 Z-4.
N14365 X227.191 Y121.642 F500.
N14370 G17 G2 X227.948 Y121.259 I0.187 J-0.57
N14375 G3 X231.558 Y118.646 I3.61 J1.187 F1000.
N14380 G1 X257.549
N14385 G3 X261.349 Y122.446 I0. J3.8
N14390 G1 Y131.196
N14395 G3 X257.549 Y134.996 I-3.8 J0.
N14400 G1 X244.172
N14405 G2 X243.087 Y135.682 I0. J1.2
N14410 G3 X182.011 I-30.538 J-14.486
N14415 G2 X180.926 Y134.996 I-1.084 J0.515
N14420 G1 X167.549
N14425 G3 X163.749 Y131.196 I0. J-3.8
N14430 G1 Y122.446
N14435 G3 X167.549 Y118.646 I3.8 J0.
N14440 G1 X193.54
N14445 G3 X197.332 Y122.197 I0. J3.8
N14450 G2 X227.766 I15.217 J-1.001
N14455 G3 X227.948 Y121.259 I3.792 J0.249
N14460 X228.77 Y120.678 I0.802 J0.264
N14465 G2 X229.717 Y120.336 I0.033 J-1.39
N14470 G3 X231.558 Y119.646 I1.841 J2.11
N14475 G1 X257.549
N14480 G3 X260.349 Y122.446 I0. J2.8
N14485 G1 Y131.196
N14490 G3 X257.549 Y133.996 I-2.8 J0.
N14495 G1 X244.172
N14500 G2 X242.184 Y135.253 I0. J2.2
N14505 G3 X182.914 I-29.635 J-14.057
N14510 G2 X180.926 Y133.996 I-1.988 J0.943
N14515 G1 X167.549
N14520 G3 X164.749 Y131.196 I0. J-2.8
N14525 G1 Y122.446
N14530 G3 X167.549 Y119.646 I2.8 J0.
N14535 G1 X193.54
N14540 G3 X196.334 Y122.262 I0. J2.8
N14545 G2 X228.764 I16.215 J-1.066
N14550 G3 X229.717 Y120.336 I2.794 J0.184
N14555 G2 X229.775 Y119.49 I-0.394 J-0.452 F500.
N14560 G1 X229.38 Y119.038
N14565 X229.319 Y118.967 Z-3.993
N14570 X229.258 Y118.898 Z-3.971
N14575 X229.201 Y118.832 Z-3.935
N14580 X229.148 Y118.772 Z-3.885
N14585 X229.101 Y118.718 Z-3.824
N14590 X229.061 Y118.672 Z-3.753
N14595 X229.029 Y118.635 Z-3.672
N14600 X229.005 Y118.608 Z-3.585
N14605 X228.991 Y118.591 Z-3.494
N14610 X228.986 Y118.585 Z-3.4
N14615 G0 Z15.
N14620 X179.354 Y93.062
N14625 Z3.
N14630 G1 Z-3.4 F333.33
N14635 X179.348 Y93.056 Z-3.494
N14640 X179.333 Y93.041 Z-3.585
N14645 X179.308 Y93.015 Z-3.672
N14650 X179.273 Y92.98 Z-3.753
N14655 X179.231 Y92.936 Z-3.824
N14660 X179.181 Y92.885 Z-3.885
N14665 X179.124 Y92.828 Z-3.935
N14670 X179.064 Y92.765 Z-3.971
N14675 X179. Y92.7 Z-3.993
N14680 X178.934 Y92.633 Z-4.
N14685 X178.514 Y92.204 F500.
N14690 G2 X177.666 Y92.195 I-0.429 J0.42
N14695 G3 X175.008 Y93.279 I-2.658 J-2.716 F1000.
N14700 G1 X161.308
N14705 Y96.979
N14710 G3 X152.508 Y105.779 I-8.8 J0.
N14715 G1 X117.508
N14720 G3 X108.708 Y96.979 I0. J-8.8
N14725 G1 Y93.279
N14730 X95.008
N14735 G3 X91.208 Y89.479 I0. J-3.8
N14740 G1 Y80.729
N14745 G3 X95.008 Y76.929 I3.8 J0.
N14750 G1 X120.008
N14755 G3 X123.808 Y80.729 I0. J3.8
N14760 G1 Y90.679
N14765 X146.208
N14770 Y80.729
N14775 G3 X150.008 Y76.929 I3.8 J0.
N14780 G1 X175.008
N14785 G3 X178.808 Y80.729 I0. J3.8
N14790 G1 Y89.479
N14795 G3 X177.666 Y92.195 I-3.8 J0.
N14800 X176.668 Y92.332 I-0.591 J-0.604
N14805 G2 X175.67 Y92.199 I-0.669 J1.219
N14810 G3 X175.008 Y92.279 I-0.662 J-2.721
N14815 G1 X160.508
N14820 G2 X160.308 Y92.479 I0. J0.2
N14825 G1 Y96.979
N14830 G3 X152.508 Y104.779 I-7.8 J0.
N14835 G1 X117.508
N14840 G3 X109.708 Y96.979 I0. J-7.8
N14845 G1 Y92.479
N14850 G2 X109.508 Y92.279 I-0.2 J0.
N14855 G1 X95.008
N14860 G3 X92.208 Y89.479 I0. J-2.8
N14865 G1 Y80.729
N14870 G3 X95.008 Y77.929 I2.8 J0.
N14875 G1 X120.008
N14880 G3 X122.808 Y80.729 I0. J2.8
N14885 G1 Y91.679
N14890 X147.208
N14895 Y80.729
N14900 G3 X150.008 Y77.929 I2.8 J0.
N14905 G1 X175.008
N14910 G3 X177.808 Y80.729 I0. J2.8
N14915 G1 Y89.479
N14920 G3 X175.67 Y92.199 I-2.8 J0.
N14925 G2 X175.229 Y92.924 I0.142 J0.583 F500.
N14930 G1 X175.371 Y93.507
N14935 X175.394 Y93.598 Z-3.993
N14940 X175.415 Y93.687 Z-3.971
N14945 X175.436 Y93.772 Z-3.935
N14950 X175.455 Y93.85 Z-3.885
N14955 X175.472 Y93.92 Z-3.824
N14960 X175.486 Y93.979 Z-3.753
N14965 X175.498 Y94.027 Z-3.672
N14970 X175.506 Y94.062 Z-3.585
N14975 X175.512 Y94.083 Z-3.494
N14980 X175.513 Y94.09 Z-3.4
N14985 G0 Z15.
N14990 X222.611 Y27.653
N14995 Z3.
N15000 G1 Z-1.4 F333.33
N15005 X222.617 Y27.65 Z-1.494
N15010 X222.638 Y27.642 Z-1.585
N15015 X222.671 Y27.628 Z-1.672
N15020 X222.716 Y27.609 Z-1.753
N15025 X222.773 Y27.586 Z-1.824
N15030 X222.839 Y27.558 Z-1.885
N15035 X222.913 Y27.527 Z-1.935
N15040 X222.993 Y27.494 Z-1.971
N15045 X223.078 Y27.459 Z-1.993
N15050 X223.164 Y27.422 Z-2.
N15055 X223.718 Y27.192 F500.
N15060 G2 X224.041 Y26.407 I-0.231 J-0.554
N15065 G3 X223.749 Y24.945 I3.508 J-1.462 F1000.
N15070 G1 Y14.995
N15075 X201.349
N15080 Y24.945
N15085 G3 X197.549 Y28.746 I-3.8 J0.
N15090 G1 X172.549
N15095 G3 X168.749 Y24.945 I0. J-3.8
N15100 G1 Y16.195
N15105 G3 X172.549 Y12.396 I3.8 J0.
N15110 G1 X186.249
N15115 Y8.696
N15120 G3 X195.049 Y-0.104 I8.8 J0.
N15125 G1 X230.049
N15130 G3 X238.849 Y8.696 I0. J8.8
N15135 G1 Y12.396
N15140 X252.549
N15145 G3 X256.349 Y16.195 I0. J3.8
N15150 G1 Y24.945
N15155 G3 X252.549 Y28.746 I-3.8 J0.
N15160 G1 X227.549
N15165 G3 X224.041 Y26.407 I0. J-3.8
N15170 X224.303 Y25.444 I0.751 J-0.313
N15175 G2 X224.749 Y24.551 I-0.672 J-0.893
N15180 G1 Y13.995
N15185 X200.349
N15190 Y24.945
N15195 G3 X197.549 Y27.746 I-2.8 J0.
N15200 G1 X172.549
N15205 G3 X169.749 Y24.945 I0. J-2.8
N15210 G1 Y16.195
N15215 G3 X172.549 Y13.396 I2.8 J0.
N15220 G1 X187.049
N15225 G2 X187.249 Y13.196 I0. J-0.2
N15230 G1 Y8.696
N15235 G3 X195.049 Y0.896 I7.8 J0.
N15240 G1 X230.049
N15245 G3 X237.849 Y8.696 I0. J7.8
N15250 G1 Y13.196
N15255 G2 X238.049 Y13.396 I0.2 J0.
N15260 G1 X252.549
N15265 G3 X255.349 Y16.195 I0. J2.8
N15270 G1 Y24.945
N15275 G3 X252.549 Y27.746 I-2.8 J0.
N15280 G1 X227.549
N15285 G3 X224.749 Y24.945 I0. J-2.8
N15290 G1 Y24.551
N15295 G2 X224.149 Y23.951 I-0.6 J0. F500.
N15300 G1 X223.549
N15305 G18 G3 X222.949 Z-1.4 I0. K0.6
N15310 G0 Z15.
N15315 X222.611 Y27.653
N15320 Z3.
N15325 G1 Z-3.4 F333.33
N15330 X222.617 Y27.65 Z-3.494
N15335 X222.638 Y27.642 Z-3.585
N15340 X222.671 Y27.628 Z-3.672
N15345 X222.716 Y27.609 Z-3.753
N15350 X222.773 Y27.586 Z-3.824
N15355 X222.839 Y27.558 Z-3.885
N15360 X222.913 Y27.527 Z-3.935
N15365 X222.993 Y27.494 Z-3.971
N15370 X223.078 Y27.459 Z-3.993
N15375 X223.164 Y27.422 Z-4.
N15380 X223.718 Y27.192 F500.
N15385 G17 G2 X224.041 Y26.407 I-0.231 J-0.554
N15390 G3 X223.749 Y24.945 I3.508 J-1.462 F1000.
N15395 G1 Y14.995
N15400 X201.349
N15405 Y24.945
N15410 G3 X197.549 Y28.746 I-3.8 J0.
N15415 G1 X172.549
N15420 G3 X168.749 Y24.945 I0. J-3.8
N15425 G1 Y16.195
N15430 G3 X172.549 Y12.396 I3.8 J0.
N15435 G1 X186.249
N15440 Y8.696
N15445 G3 X195.049 Y-0.104 I8.8 J0.
N15450 G1 X230.049
N15455 G3 X238.849 Y8.696 I0. J8.8
N15460 G1 Y12.396
N15465 X252.549
N15470 G3 X256.349 Y16.195 I0. J3.8
N15475 G1 Y24.945
N15480 G3 X252.549 Y28.746 I-3.8 J0.
N15485 G1 X227.549
N15490 G3 X224.041 Y26.407 I0. J-3.8
N15495 X224.303 Y25.444 I0.751 J-0.313
N15500 G2 X224.749 Y24.551 I-0.672 J-0.893
N15505 G1 Y13.995
N15510 X200.349
N15515 Y24.945
N15520 G3 X197.549 Y27.746 I-2.8 J0.
N15525 G1 X172.549
N15530 G3 X169.749 Y24.945 I0. J-2.8
N15535 G1 Y16.195
N15540 G3 X172.549 Y13.396 I2.8 J0.
N15545 G1 X187.049
N15550 G2 X187.249 Y13.196 I0. J-0.2
N15555 G1 Y8.696
N15560 G3 X195.049 Y0.896 I7.8 J0.
N15565 G1 X230.049
N15570 G3 X237.849 Y8.696 I0. J7.8
N15575 G1 Y13.196
N15580 G2 X238.049 Y13.396 I0.2 J0.
N15585 G1 X252.549
N15590 G3 X255.349 Y16.195 I0. J2.8
N15595 G1 Y24.945
N15600 G3 X252.549 Y27.746 I-2.8 J0.
N15605 G1 X227.549
N15610 G3 X224.749 Y24.945 I0. J-2.8
N15615 G1 Y24.551
N15620 G2 X224.149 Y23.951 I-0.6 J0. F500.
N15625 G1 X223.549
N15630 G18 G3 X222.949 Z-3.4 I0. K0.6
N15635 G0 Z15.
N15640 X226.949 Y31.846
N15645 Z3.
N15650 G1 Z-3.4 F333.33
N15655 G19 G3 Y32.445 Z-4. J0.6 K0.
N15660 G1 Y33.046 F500.
N15665 G17 G2 X227.549 Y33.646 I0.6 J0.
N15670 G1 X252.549 F1000.
N15675 G3 X256.349 Y37.445 I0. J3.8
N15680 G1 Y46.195
N15685 G3 X252.549 Y49.995 I-3.8 J0.
N15690 G1 X238.849
N15695 Y89.545
N15700 G2 X239.106 Y90.287 I1.2 J0.
N15705 G3 X243.087 Y96.71 I-26.557 J20.909
N15710 G2 X244.172 Y97.396 I1.085 J-0.514
N15715 G1 X257.549
N15720 G3 X261.349 Y101.196 I0. J3.8
N15725 G1 Y109.946
N15730 G3 X257.549 Y113.746 I-3.8 J0.
N15735 G1 X231.558
N15740 G3 X227.766 Y110.195 I0. J-3.8
N15745 G2 X197.332 I-15.217 J1.001
N15750 G3 X193.54 Y113.746 I-3.792 J-0.249
N15755 G1 X167.549
N15760 G3 X163.749 Y109.946 I0. J-3.8
N15765 G1 Y101.196
N15770 G3 X167.549 Y97.396 I3.8 J0.
N15775 G1 X180.926
N15780 G2 X182.011 Y96.71 I0. J-1.2
N15785 G3 X185.992 Y90.287 I30.538 J14.486
N15790 G2 X186.249 Y89.545 I-0.943 J-0.742
N15795 G1 Y49.995
N15800 X172.549
N15805 G3 X168.749 Y46.195 I0. J-3.8
N15810 G1 Y37.445
N15815 G3 X172.549 Y33.646 I3.8 J0.
N15820 G1 X197.549
N15825 G3 X201.349 Y37.445 I0. J3.8
N15830 G1 Y47.396
N15835 X223.749
N15840 Y37.445
N15845 G3 X227.549 Y33.646 I3.8 J0.
N15850 X228.299 Y34.146 I0. J0.813
N15855 G2 X229.049 Y34.646 I0.75 J-0.313
N15860 G1 X252.549
N15865 G3 X255.349 Y37.445 I0. J2.8
N15870 G1 Y46.195
N15875 G3 X252.549 Y48.995 I-2.8 J0.
N15880 G1 X238.049
N15885 G2 X237.849 Y49.195 I0. J0.2
N15890 G1 Y89.545
N15895 G2 X238.32 Y90.906 I2.2 J0.
N15900 G3 X242.184 Y97.138 I-25.771 J20.29
N15905 G2 X244.172 Y98.396 I1.988 J-0.943
N15910 G1 X257.549
N15915 G3 X260.349 Y101.196 I0. J2.8
N15920 G1 Y109.946
N15925 G3 X257.549 Y112.746 I-2.8 J0.
N15930 G1 X231.558
N15935 G3 X228.764 Y110.13 I0. J-2.8
N15940 G2 X196.334 I-16.215 J1.066
N15945 G3 X193.54 Y112.746 I-2.794 J-0.184
N15950 G1 X167.549
N15955 G3 X164.749 Y109.946 I0. J-2.8
N15960 G1 Y101.196
N15965 G3 X167.549 Y98.396 I2.8 J0.
N15970 G1 X180.926
N15975 G2 X182.914 Y97.139 I0. J-2.2
N15980 G3 X186.778 Y90.906 I29.635 J14.058
N15985 G2 X187.249 Y89.545 I-1.729 J-1.361
N15990 G1 Y49.195
N15995 G2 X187.049 Y48.995 I-0.2 J0.
N16000 G1 X172.549
N16005 G3 X169.749 Y46.195 I0. J-2.8
N16010 G1 Y37.445
N16015 G3 X172.549 Y34.646 I2.8 J0.
N16020 G1 X197.549
N16025 G3 X200.349 Y37.445 I0. J2.8
N16030 G1 Y48.396
N16035 X224.749
N16040 Y37.445
N16045 G3 X227.549 Y34.646 I2.8 J0.
N16050 G1 X229.049
N16055 G2 X229.649 Y34.046 I0. J-0.6 F500.
N16060 G1 Y33.445
N16065 G19 G2 Y32.846 Z-3.4 J0. K0.6
N16070 G0 Z15.
N16075 X226.949 Y31.846
N16080 Z3.
N16085 G1 Z-5.4 F333.33
N16090 G3 Y32.445 Z-6. J0.6 K0.
N16095 G1 Y33.046 F500.
N16100 G17 G2 X227.549 Y33.646 I0.6 J0.
N16105 G1 X252.549 F1000.
N16110 G3 X256.349 Y37.445 I0. J3.8
N16115 G1 Y46.195
N16120 G3 X252.549 Y49.995 I-3.8 J0.
N16125 G1 X238.849
N16130 Y89.545
N16135 G2 X239.106 Y90.287 I1.2 J0.
N16140 G3 X243.087 Y96.71 I-26.557 J20.909
N16145 G2 X244.172 Y97.396 I1.085 J-0.514
N16150 G1 X257.549
N16155 G3 X261.349 Y101.196 I0. J3.8
N16160 G1 Y109.946
N16165 G3 X257.549 Y113.746 I-3.8 J0.
N16170 G1 X231.558
N16175 G3 X227.766 Y110.195 I0. J-3.8
N16180 G2 X197.332 I-15.217 J1.001
N16185 G3 X193.54 Y113.746 I-3.792 J-0.249
N16190 G1 X167.549
N16195 G3 X163.749 Y109.946 I0. J-3.8
N16200 G1 Y101.196
N16205 G3 X167.549 Y97.396 I3.8 J0.
N16210 G1 X180.926
N16215 G2 X182.011 Y96.71 I0. J-1.2
N16220 G3 X185.992 Y90.287 I30.538 J14.486
N16225 G2 X186.249 Y89.545 I-0.943 J-0.742
N16230 G1 Y49.995
N16235 X172.549
N16240 G3 X168.749 Y46.195 I0. J-3.8
N16245 G1 Y37.445
N16250 G3 X172.549 Y33.646 I3.8 J0.
N16255 G1 X197.549
N16260 G3 X201.349 Y37.445 I0. J3.8
N16265 G1 Y47.396
N16270 X223.749
N16275 Y37.445
N16280 G3 X227.549 Y33.646 I3.8 J0.
N16285 X228.299 Y34.146 I0. J0.813
N16290 G2 X229.049 Y34.646 I0.75 J-0.313
N16295 G1 X252.549
N16300 G3 X255.349 Y37.445 I0. J2.8
N16305 G1 Y46.195
N16310 G3 X252.549 Y48.995 I-2.8 J0.
N16315 G1 X238.049
N16320 G2 X237.849 Y49.195 I0. J0.2
N16325 G1 Y89.545
N16330 G2 X238.32 Y90.906 I2.2 J0.
N16335 G3 X242.184 Y97.138 I-25.771 J20.29
N16340 G2 X244.172 Y98.396 I1.988 J-0.943
N16345 G1 X257.549
N16350 G3 X260.349 Y101.196 I0. J2.8
N16355 G1 Y109.946
N16360 G3 X257.549 Y112.746 I-2.8 J0.
N16365 G1 X231.558
N16370 G3 X228.764 Y110.13 I0. J-2.8
N16375 G2 X196.334 I-16.215 J1.066
N16380 G3 X193.54 Y112.746 I-2.794 J-0.184
N16385 G1 X167.549
N16390 G3 X164.749 Y109.946 I0. J-2.8
N16395 G1 Y101.196
N16400 G3 X167.549 Y98.396 I2.8 J0.
N16405 G1 X180.926
N16410 G2 X182.914 Y97.139 I0. J-2.2
N16415 G3 X186.778 Y90.906 I29.635 J14.058
N16420 G2 X187.249 Y89.545 I-1.729 J-1.361
N16425 G1 Y49.195
N16430 G2 X187.049 Y48.995 I-0.2 J0.
N16435 G1 X172.549
N16440 G3 X169.749 Y46.195 I0. J-2.8
N16445 G1 Y37.445
N16450 G3 X172.549 Y34.646 I2.8 J0.
N16455 G1 X197.549
N16460 G3 X200.349 Y37.445 I0. J2.8
N16465 G1 Y48.396
N16470 X224.749
N16475 Y37.445
N16480 G3 X227.549 Y34.646 I2.8 J0.
N16485 G1 X229.049
N16490 G2 X229.649 Y34.046 I0. J-0.6 F500.
N16495 G1 Y33.445
N16500 G19 G2 Y32.846 Z-5.4 J0. K0.6
N16505 G0 Z15.
N16510 X222.611 Y27.653
N16515 Z3.
N16520 G1 Z-5.4 F333.33
N16525 X222.617 Y27.65 Z-5.494
N16530 X222.638 Y27.642 Z-5.585
N16535 X222.671 Y27.628 Z-5.672
N16540 X222.716 Y27.609 Z-5.753
N16545 X222.773 Y27.586 Z-5.824
N16550 X222.839 Y27.558 Z-5.885
N16555 X222.913 Y27.527 Z-5.935
N16560 X222.993 Y27.494 Z-5.971
N16565 X223.078 Y27.459 Z-5.993
N16570 X223.164 Y27.422 Z-6.
N16575 X223.718 Y27.192 F500.
N16580 G17 G2 X224.041 Y26.407 I-0.231 J-0.554
N16585 G3 X223.749 Y24.945 I3.508 J-1.462 F1000.
N16590 G1 Y14.995
N16595 X201.349
N16600 Y24.945
N16605 G3 X197.549 Y28.746 I-3.8 J0.
N16610 G1 X172.549
N16615 G3 X168.749 Y24.945 I0. J-3.8
N16620 G1 Y16.195
N16625 G3 X172.549 Y12.396 I3.8 J0.
N16630 G1 X186.249
N16635 Y8.696
N16640 G3 X195.049 Y-0.104 I8.8 J0.
N16645 G1 X230.049
N16650 G3 X238.849 Y8.696 I0. J8.8
N16655 G1 Y12.396
N16660 X252.549
N16665 G3 X256.349 Y16.195 I0. J3.8
N16670 G1 Y24.945
N16675 G3 X252.549 Y28.746 I-3.8 J0.
N16680 G1 X227.549
N16685 G3 X224.041 Y26.407 I0. J-3.8
N16690 X224.303 Y25.444 I0.751 J-0.313
N16695 G2 X224.749 Y24.551 I-0.672 J-0.893
N16700 G1 Y13.995
N16705 X200.349
N16710 Y24.945
N16715 G3 X197.549 Y27.746 I-2.8 J0.
N16720 G1 X172.549
N16725 G3 X169.749 Y24.945 I0. J-2.8
N16730 G1 Y16.195
N16735 G3 X172.549 Y13.396 I2.8 J0.
N16740 G1 X187.049
N16745 G2 X187.249 Y13.196 I0. J-0.2
N16750 G1 Y8.696
N16755 G3 X195.049 Y0.896 I7.8 J0.
N16760 G1 X230.049
N16765 G3 X237.849 Y8.696 I0. J7.8
N16770 G1 Y13.196
N16775 G2 X238.049 Y13.396 I0.2 J0.
N16780 G1 X252.549
N16785 G3 X255.349 Y16.195 I0. J2.8
N16790 G1 Y24.945
N16795 G3 X252.549 Y27.746 I-2.8 J0.
N16800 G1 X227.549
N16805 G3 X224.749 Y24.945 I0. J-2.8
N16810 G1 Y24.551
N16815 G2 X224.149 Y23.951 I-0.6 J0. F500.
N16820 G1 X223.549
N16825 G18 G3 X222.949 Z-5.4 I0. K0.6
N16830 G0 Z15.
N16835 X222.611 Y27.653
N16840 Z3.
N16845 G1 Z-7.4 F333.33
N16850 X222.617 Y27.65 Z-7.494
N16855 X222.638 Y27.642 Z-7.585
N16860 X222.671 Y27.628 Z-7.672
N16865 X222.716 Y27.609 Z-7.753
N16870 X222.773 Y27.586 Z-7.824
N16875 X222.839 Y27.558 Z-7.885
N16880 X222.913 Y27.527 Z-7.935
N16885 X222.993 Y27.494 Z-7.971
N16890 X223.078 Y27.459 Z-7.993
N16895 X223.164 Y27.422 Z-8.
N16900 X223.718 Y27.192 F500.
N16905 G17 G2 X224.041 Y26.407 I-0.231 J-0.554
N16910 G3 X223.749 Y24.945 I3.508 J-1.462 F1000.
N16915 G1 Y14.995
N16920 X201.349
N16925 Y24.945
N16930 G3 X197.549 Y28.746 I-3.8 J0.
N16935 G1 X172.549
N16940 G3 X168.749 Y24.945 I0. J-3.8
N16945 G1 Y16.195
N16950 G3 X172.549 Y12.396 I3.8 J0.
N16955 G1 X186.249
N16960 Y8.696
N16965 G3 X195.049 Y-0.104 I8.8 J0.
N16970 G1 X230.049
N16975 G3 X238.849 Y8.696 I0. J8.8
N16980 G1 Y12.396
N16985 X252.549
N16990 G3 X256.349 Y16.195 I0. J3.8
N16995 G1 Y24.945
N17000 G3 X252.549 Y28.746 I-3.8 J0.
N17005 G1 X227.549
N17010 G3 X224.041 Y26.407 I0. J-3.8
N17015 X224.303 Y25.444 I0.751 J-0.313
N17020 G2 X224.749 Y24.551 I-0.672 J-0.893
N17025 G1 Y13.995
N17030 X200.349
N17035 Y24.945
N17040 G3 X197.549 Y27.746 I-2.8 J0.
N17045 G1 X172.549
N17050 G3 X169.749 Y24.945 I0. J-2.8
N17055 G1 Y16.195
N17060 G3 X172.549 Y13.396 I2.8 J0.
N17065 G1 X187.049
N17070 G2 X187.249 Y13.196 I0. J-0.2
N17075 G1 Y8.696
N17080 G3 X195.049 Y0.896 I7.8 J0.
N17085 G1 X230.049
N17090 G3 X237.849 Y8.696 I0. J7.8
N17095 G1 Y13.196
N17100 G2 X238.049 Y13.396 I0.2 J0.
N17105 G1 X252.549
N17110 G3 X255.349 Y16.195 I0. J2.8
N17115 G1 Y24.945
N17120 G3 X252.549 Y27.746 I-2.8 J0.
N17125 G1 X227.549
N17130 G3 X224.749 Y24.945 I0. J-2.8
N17135 G1 Y24.551
N17140 G2 X224.149 Y23.951 I-0.6 J0. F500.
N17145 G1 X223.549
N17150 G18 G3 X222.949 Z-7.4 I0. K0.6
N17155 G0 Z15.
N17160 X226.051 Y121.267
N17165 Z3.
N17170 G1 Z-5.4 F333.33
N17175 X226.058 Y121.269 Z-5.494
N17180 X226.079 Y121.276 Z-5.585
N17185 X226.113 Y121.287 Z-5.672
N17190 X226.16 Y121.303 Z-5.753
N17195 X226.218 Y121.322 Z-5.824
N17200 X226.286 Y121.344 Z-5.885
N17205 X226.362 Y121.369 Z-5.935
N17210 X226.445 Y121.396 Z-5.971
N17215 X226.532 Y121.425 Z-5.993
N17220 X226.621 Y121.454 Z-6.
N17225 X227.191 Y121.642 F500.
N17230 G17 G2 X227.948 Y121.259 I0.187 J-0.57
N17235 G3 X231.558 Y118.646 I3.61 J1.187 F1000.
N17240 G1 X257.549
N17245 G3 X261.349 Y122.446 I0. J3.8
N17250 G1 Y131.196
N17255 G3 X257.549 Y134.996 I-3.8 J0.
N17260 G1 X244.172
N17265 G2 X243.087 Y135.682 I0. J1.2
N17270 G3 X182.011 I-30.538 J-14.486
N17275 G2 X180.926 Y134.996 I-1.084 J0.515
N17280 G1 X167.549
N17285 G3 X163.749 Y131.196 I0. J-3.8
N17290 G1 Y122.446
N17295 G3 X167.549 Y118.646 I3.8 J0.
N17300 G1 X193.54
N17305 G3 X197.332 Y122.197 I0. J3.8
N17310 G2 X227.766 I15.217 J-1.001
N17315 G3 X227.948 Y121.259 I3.792 J0.249
N17320 X228.77 Y120.678 I0.802 J0.264
N17325 G2 X229.717 Y120.336 I0.033 J-1.39
N17330 G3 X231.558 Y119.646 I1.841 J2.11
N17335 G1 X257.549
N17340 G3 X260.349 Y122.446 I0. J2.8
N17345 G1 Y131.196
N17350 G3 X257.549 Y133.996 I-2.8 J0.
N17355 G1 X244.172
N17360 G2 X242.184 Y135.253 I0. J2.2
N17365 G3 X182.914 I-29.635 J-14.057
N17370 G2 X180.926 Y133.996 I-1.988 J0.943
N17375 G1 X167.549
N17380 G3 X164.749 Y131.196 I0. J-2.8
N17385 G1 Y122.446
N17390 G3 X167.549 Y119.646 I2.8 J0.
N17395 G1 X193.54
N17400 G3 X196.334 Y122.262 I0. J2.8
N17405 G2 X228.764 I16.215 J-1.066
N17410 G3 X229.717 Y120.336 I2.794 J0.184
N17415 G2 X229.775 Y119.49 I-0.394 J-0.452 F500.
N17420 G1 X229.38 Y119.038
N17425 X229.319 Y118.967 Z-5.993
N17430 X229.258 Y118.898 Z-5.971
N17435 X229.201 Y118.832 Z-5.935
N17440 X229.148 Y118.772 Z-5.885
N17445 X229.101 Y118.718 Z-5.824
N17450 X229.061 Y118.672 Z-5.753
N17455 X229.029 Y118.635 Z-5.672
N17460 X229.005 Y118.608 Z-5.585
N17465 X228.991 Y118.591 Z-5.494
N17470 X228.986 Y118.585 Z-5.4
N17475 G0 Z15.
N17480 X226.051 Y121.267
N17485 Z3.
N17490 G1 Z-7.4 F333.33
N17495 X226.058 Y121.269 Z-7.494
N17500 X226.079 Y121.276 Z-7.585
N17505 X226.113 Y121.287 Z-7.672
N17510 X226.16 Y121.303 Z-7.753
N17515 X226.218 Y121.322 Z-7.824
N17520 X226.286 Y121.344 Z-7.885
N17525 X226.362 Y121.369 Z-7.935
N17530 X226.445 Y121.396 Z-7.971
N17535 X226.532 Y121.425 Z-7.993
N17540 X226.621 Y121.454 Z-8.
N17545 X227.191 Y121.642 F500.
N17550 G2 X227.948 Y121.259 I0.187 J-0.57
N17555 G3 X231.558 Y118.646 I3.61 J1.187 F1000.
N17560 G1 X257.549
N17565 G3 X261.349 Y122.446 I0. J3.8
N17570 G1 Y131.196
N17575 G3 X257.549 Y134.996 I-3.8 J0.
N17580 G1 X244.172
N17585 G2 X243.087 Y135.682 I0. J1.2
N17590 G3 X182.011 I-30.538 J-14.486
N17595 G2 X180.926 Y134.996 I-1.084 J0.515
N17600 G1 X167.549
N17605 G3 X163.749 Y131.196 I0. J-3.8
N17610 G1 Y122.446
N17615 G3 X167.549 Y118.646 I3.8 J0.
N17620 G1 X193.54
N17625 G3 X197.332 Y122.197 I0. J3.8
N17630 G2 X227.766 I15.217 J-1.001
N17635 G3 X227.948 Y121.259 I3.792 J0.249
N17640 X228.77 Y120.678 I0.802 J0.264
N17645 G2 X229.717 Y120.336 I0.033 J-1.39
N17650 G3 X231.558 Y119.646 I1.841 J2.11
N17655 G1 X257.549
N17660 G3 X260.349 Y122.446 I0. J2.8
N17665 G1 Y131.196
N17670 G3 X257.549 Y133.996 I-2.8 J0.
N17675 G1 X244.172
N17680 G2 X242.184 Y135.253 I0. J2.2
N17685 G3 X182.914 I-29.635 J-14.057
N17690 G2 X180.926 Y133.996 I-1.988 J0.943
N17695 G1 X167.549
N17700 G3 X164.749 Y131.196 I0. J-2.8
N17705 G1 Y122.446
N17710 G3 X167.549 Y119.646 I2.8 J0.
N17715 G1 X193.54
