%
(CLAMP_PREDRILL)
(T3  D=5. CR=0. TAPER=118DEG - ZMIN=-22.502 - DRILL)
N10 G90 G94 G17 G91.1
N15 G21
N20 G53 G0 Z0.
(DRILL3)
N25 M9
N30 T3 M6
N35 S12000 M3
N40 G54
N45 G0 X62.549 Y11.196
N50 G43 Z20. H3
N55 G0 Z8.
N60 G98 G81 X62.549 Y11.196 Z-22.502 R5. F150.
N65 X32.549
N70 Y51.196
N75 X62.549
N80 X120.008 Y94.479
N85 X150.008
N90 X227.549 Y51.196
N95 X197.549
N100 Y11.196
N105 X227.549
N110 Y181.196
N115 X197.549
N120 X142.008 Y189.897
N125 X112.008
N130 X62.549 Y181.196
N135 X32.549
N140 G80
N145 G0 Z20.
N150 G53 Z0.
N155 M30
%
