%
(CONTOUR_PROFILE)
(T1  D=6. CR=0. - ZMIN=-25. - FLAT END MILL)
N10 G90 G94 G17 G91.1
N15 G21
N20 G53 G0 Z0.
(2D CONTOUR1)
N25 M9
N30 T1 M6
N35 S22000 M3
N40 G54
N45 M8
N50 G0 X63.775 Y35.214
N55 G43 Z15. H1
N60 G0 Z5.
N65 G1 Z3.5 F200.
N70 Z-1.9
N75 Y35.222 Z-1.994
N80 X63.776 Y35.244 Z-2.085
N85 X63.778 Y35.28 Z-2.172
N90 X63.78 Y35.329 Z-2.253
N95 X63.783 Y35.39 Z-2.324
N100 X63.786 Y35.461 Z-2.385
N105 X63.79 Y35.542 Z-2.435
N110 X63.794 Y35.628 Z-2.471
N115 X63.798 Y35.72 Z-2.493
N120 X63.802 Y35.814 Z-2.5
N125 X63.83 Y36.413 F500.
N130 G3 X63.258 Y37.04 I-0.599 J0.028
N135 G2 X28.081 Y66. I1.742 J37.96 F800.
N140 G1 X15.
N145 X12.
N150 Y84.
N155 X27.
N160 Y139.75
N165 G2 X103. I38. J0.
N170 G1 Y75.
N175 G2 X63.258 Y37.04 I-38. J0.
N180 G3 X62.631 Y36.468 I-0.028 J-0.599 F500.
N185 G1 X62.603 Y35.869
N190 X62.599 Y35.775 Z-2.493
N195 X62.595 Y35.684 Z-2.471
N200 X62.591 Y35.597 Z-2.435
N205 X62.587 Y35.516 Z-2.385
N210 X62.584 Y35.445 Z-2.324
N215 X62.581 Y35.384 Z-2.253
N220 X62.579 Y35.335 Z-2.172
N225 X62.577 Y35.299 Z-2.085
N230 X62.576 Y35.277 Z-1.994
N235 Y35.269 Z-1.9
N240 G0 Z5.
N245 X63.775 Y35.214
N250 G1 Z1. F200.
N255 Z-4.4
N260 Y35.222 Z-4.494
N265 X63.776 Y35.244 Z-4.585
N270 X63.778 Y35.28 Z-4.672
N275 X63.78 Y35.329 Z-4.753
N280 X63.783 Y35.39 Z-4.824
N285 X63.786 Y35.461 Z-4.885
N290 X63.79 Y35.542 Z-4.935
N295 X63.794 Y35.628 Z-4.971
N300 X63.798 Y35.72 Z-4.993
N305 X63.802 Y35.814 Z-5.
N310 X63.83 Y36.413 F500.
N315 G3 X63.258 Y37.04 I-0.599 J0.028
N320 G2 X28.081 Y66. I1.742 J37.96 F800.
N325 G1 X15.
N330 X12.
N335 Y84.
N340 X27.
N345 Y139.75
N350 G2 X103. I38. J0.
N355 G1 Y75.
N360 G2 X63.258 Y37.04 I-38. J0.
N365 G3 X62.631 Y36.468 I-0.028 J-0.599 F500.
N370 G1 X62.603 Y35.869
N375 X62.599 Y35.775 Z-4.993
N380 X62.595 Y35.684 Z-4.971
N385 X62.591 Y35.597 Z-4.935
N390 X62.587 Y35.516 Z-4.885
N395 X62.584 Y35.445 Z-4.824
N400 X62.581 Y35.384 Z-4.753
N405 X62.579 Y35.335 Z-4.672
N410 X62.577 Y35.299 Z-4.585
N415 X62.576 Y35.277 Z-4.494
N420 Y35.269 Z-4.4
N425 G0 Z5.
N430 X63.775 Y35.214
N435 G1 Z-1.5 F200.
N440 Z-6.9
N445 Y35.222 Z-6.994
N450 X63.776 Y35.244 Z-7.085
N455 X63.778 Y35.28 Z-7.172
N460 X63.78 Y35.329 Z-7.253
N465 X63.783 Y35.39 Z-7.324
N470 X63.786 Y35.461 Z-7.385
N475 X63.79 Y35.542 Z-7.435
N480 X63.794 Y35.628 Z-7.471
N485 X63.798 Y35.72 Z-7.493
N490 X63.802 Y35.814 Z-7.5
N495 X63.83 Y36.413 F500.
N500 G3 X63.258 Y37.04 I-0.599 J0.028
N505 G2 X28.081 Y66. I1.742 J37.96 F800.
N510 G1 X15.
N515 X12.
N520 Y84.
N525 X27.
N530 Y139.75
N535 G2 X103. I38. J0.
N540 G1 Y75.
N545 G2 X63.258 Y37.04 I-38. J0.
N550 G3 X62.631 Y36.468 I-0.028 J-0.599 F500.
N555 G1 X62.603 Y35.869
N560 X62.599 Y35.775 Z-7.493
N565 X62.595 Y35.684 Z-7.471
N570 X62.591 Y35.597 Z-7.435
N575 X62.587 Y35.516 Z-7.385
N580 X62.584 Y35.445 Z-7.324
N585 X62.581 Y35.384 Z-7.253
N590 X62.579 Y35.335 Z-7.172
N595 X62.577 Y35.299 Z-7.085
N600 X62.576 Y35.277 Z-6.994
N605 Y35.269 Z-6.9
N610 G0 Z5.
N615 X63.775 Y35.214
N620 G1 Z-4. F200.
N625 Z-9.4
N630 Y35.222 Z-9.494
N635 X63.776 Y35.244 Z-9.585
N640 X63.778 Y35.28 Z-9.672
N645 X63.78 Y35.329 Z-9.753
N650 X63.783 Y35.39 Z-9.824
N655 X63.786 Y35.461 Z-9.885
N660 X63.79 Y35.542 Z-9.935
N665 X63.794 Y35.628 Z-9.971
N670 X63.798 Y35.72 Z-9.993
N675 X63.802 Y35.814 Z-10.
N680 X63.83 Y36.413 F500.
N685 G3 X63.258 Y37.04 I-0.599 J0.028
N690 G2 X28.081 Y66. I1.742 J37.96 F800.
N695 G1 X15.
N700 X12.
N705 Y84.
N710 X27.
N715 Y139.75
N720 G2 X103. I38. J0.
N725 G1 Y75.
N730 G2 X63.258 Y37.04 I-38. J0.
N735 G3 X62.631 Y36.468 I-0.028 J-0.599 F500.
N740 G1 X62.603 Y35.869
N745 X62.599 Y35.775 Z-9.993
N750 X62.595 Y35.684 Z-9.971
N755 X62.591 Y35.597 Z-9.935
N760 X62.587 Y35.516 Z-9.885
N765 X62.584 Y35.445 Z-9.824
N770 X62.581 Y35.384 Z-9.753
N775 X62.579 Y35.335 Z-9.672
N780 X62.577 Y35.299 Z-9.585
N785 X62.576 Y35.277 Z-9.494
N790 Y35.269 Z-9.4
N795 G0 Z5.
N800 X63.775 Y35.214
N805 G1 Z-6.5 F200.
N810 Z-11.9
N815 Y35.222 Z-11.994
N820 X63.776 Y35.244 Z-12.085
N825 X63.778 Y35.28 Z-12.172
N830 X63.78 Y35.329 Z-12.253
N835 X63.783 Y35.39 Z-12.324
N840 X63.786 Y35.461 Z-12.385
N845 X63.79 Y35.542 Z-12.435
N850 X63.794 Y35.628 Z-12.471
N855 X63.798 Y35.72 Z-12.493
N860 X63.802 Y35.814 Z-12.5
N865 X63.83 Y36.413 F500.
N870 G3 X63.258 Y37.04 I-0.599 J0.028
N875 G2 X28.081 Y66. I1.742 J37.96 F800.
N880 G1 X15.
N885 X12.
N890 Y84.
N895 X27.
N900 Y139.75
N905 G2 X103. I38. J0.
N910 G1 Y75.
N915 G2 X63.258 Y37.04 I-38. J0.
N920 G3 X62.631 Y36.468 I-0.028 J-0.599 F500.
N925 G1 X62.603 Y35.869
N930 X62.599 Y35.775 Z-12.493
N935 X62.595 Y35.684 Z-12.471
N940 X62.591 Y35.597 Z-12.435
N945 X62.587 Y35.516 Z-12.385
N950 X62.584 Y35.445 Z-12.324
N955 X62.581 Y35.384 Z-12.253
N960 X62.579 Y35.335 Z-12.172
N965 X62.577 Y35.299 Z-12.085
N970 X62.576 Y35.277 Z-11.994
N975 Y35.269 Z-11.9
N980 G0 Z5.
N985 X63.775 Y35.214
N990 G1 Z-9. F200.
N995 Z-14.4
N1000 Y35.222 Z-14.494
N1005 X63.776 Y35.244 Z-14.585
N1010 X63.778 Y35.28 Z-14.672
N1015 X63.78 Y35.329 Z-14.753
N1020 X63.783 Y35.39 Z-14.824
N1025 X63.786 Y35.461 Z-14.885
N1030 X63.79 Y35.542 Z-14.935
N1035 X63.794 Y35.628 Z-14.971
N1040 X63.798 Y35.72 Z-14.993
N1045 X63.802 Y35.814 Z-15.
N1050 X63.83 Y36.413 F500.
N1055 G3 X63.258 Y37.04 I-0.599 J0.028
N1060 G2 X28.081 Y66. I1.742 J37.96 F800.
N1065 G1 X15.
N1070 X12.
N1075 Y84.
N1080 X27.
N1085 Y139.75
N1090 G2 X103. I38. J0.
N1095 G1 Y75.
N1100 G2 X63.258 Y37.04 I-38. J0.
N1105 G3 X62.631 Y36.468 I-0.028 J-0.599 F500.
N1110 G1 X62.603 Y35.869
N1115 X62.599 Y35.775 Z-14.993
N1120 X62.595 Y35.684 Z-14.971
N1125 X62.591 Y35.597 Z-14.935
N1130 X62.587 Y35.516 Z-14.885
N1135 X62.584 Y35.445 Z-14.824
N1140 X62.581 Y35.384 Z-14.753
N1145 X62.579 Y35.335 Z-14.672
N1150 X62.577 Y35.299 Z-14.585
N1155 X62.576 Y35.277 Z-14.494
N1160 Y35.269 Z-14.4
N1165 G0 Z5.
N1170 X63.775 Y35.214
N1175 G1 Z-11.5 F200.
N1180 Z-16.9
N1185 Y35.222 Z-16.994
N1190 X63.776 Y35.244 Z-17.085
N1195 X63.778 Y35.28 Z-17.172
N1200 X63.78 Y35.329 Z-17.253
N1205 X63.783 Y35.39 Z-17.324
N1210 X63.786 Y35.461 Z-17.385
N1215 X63.79 Y35.542 Z-17.435
N1220 X63.794 Y35.628 Z-17.471
N1225 X63.798 Y35.72 Z-17.493
N1230 X63.802 Y35.814 Z-17.5
N1235 X63.83 Y36.413 F500.
N1240 G3 X63.258 Y37.04 I-0.599 J0.028
N1245 G2 X28.081 Y66. I1.742 J37.96 F800.
N1250 G1 X15.
N1255 X12.
N1260 Y84.
N1265 X27.
N1270 Y139.75
N1275 G2 X103. I38. J0.
N1280 G1 Y75.
N1285 G2 X63.258 Y37.04 I-38. J0.
N1290 G3 X62.631 Y36.468 I-0.028 J-0.599 F500.
N1295 G1 X62.603 Y35.869
N1300 X62.599 Y35.775 Z-17.493
N1305 X62.595 Y35.684 Z-17.471
N1310 X62.591 Y35.597 Z-17.435
N1315 X62.587 Y35.516 Z-17.385
N1320 X62.584 Y35.445 Z-17.324
N1325 X62.581 Y35.384 Z-17.253
N1330 X62.579 Y35.335 Z-17.172
N1335 X62.577 Y35.299 Z-17.085
N1340 X62.576 Y35.277 Z-16.994
N1345 Y35.269 Z-16.9
N1350 G0 Z5.
N1355 X63.775 Y35.214
N1360 G1 Z-14. F200.
N1365 Z-19.4
N1370 Y35.222 Z-19.494
N1375 X63.776 Y35.244 Z-19.585
N1380 X63.778 Y35.28 Z-19.672
N1385 X63.78 Y35.329 Z-19.753
N1390 X63.783 Y35.39 Z-19.824
N1395 X63.786 Y35.461 Z-19.885
N1400 X63.79 Y35.542 Z-19.935
N1405 X63.794 Y35.628 Z-19.971
N1410 X63.798 Y35.72 Z-19.993
N1415 X63.802 Y35.814 Z-20.
N1420 X63.83 Y36.413 F500.
N1425 G3 X63.258 Y37.04 I-0.599 J0.028
N1430 G2 X28.081 Y66. I1.742 J37.96 F800.
N1435 G1 X15.
N1440 X12.
N1445 Y84.
N1450 X27.
N1455 Y139.75
N1460 G2 X103. I38. J0.
N1465 G1 Y75.
N1470 G2 X63.258 Y37.04 I-38. J0.
N1475 G3 X62.631 Y36.468 I-0.028 J-0.599 F500.
N1480 G1 X62.603 Y35.869
N1485 X62.599 Y35.775 Z-19.993
N1490 X62.595 Y35.684 Z-19.971
N1495 X62.591 Y35.597 Z-19.935
N1500 X62.587 Y35.516 Z-19.885
N1505 X62.584 Y35.445 Z-19.824
N1510 X62.581 Y35.384 Z-19.753
N1515 X62.579 Y35.335 Z-19.672
N1520 X62.577 Y35.299 Z-19.585
N1525 X62.576 Y35.277 Z-19.494
N1530 Y35.269 Z-19.4
N1535 G0 Z5.
N1540 X63.775 Y35.214
N1545 G1 Z-16.5 F200.
N1550 Z-21.9
N1555 Y35.222 Z-21.994
N1560 X63.776 Y35.244 Z-22.085
N1565 X63.778 Y35.28 Z-22.172
N1570 X63.78 Y35.329 Z-22.253
N1575 X63.783 Y35.39 Z-22.324
N1580 X63.786 Y35.461 Z-22.385
N1585 X63.79 Y35.542 Z-22.435
N1590 X63.794 Y35.628 Z-22.471
N1595 X63.798 Y35.72 Z-22.493
N1600 X63.802 Y35.814 Z-22.5
N1605 X63.83 Y36.413 F500.
N1610 G3 X63.258 Y37.04 I-0.599 J0.028
N1615 G2 X28.081 Y66. I1.742 J37.96 F800.
N1620 G1 X15.
N1625 X12.
N1630 Y84.
N1635 X27.
N1640 Y139.75
N1645 G2 X103. I38. J0.
N1650 G1 Y75.
N1655 G2 X63.258 Y37.04 I-38. J0.
N1660 G3 X62.631 Y36.468 I-0.028 J-0.599 F500.
N1665 G1 X62.603 Y35.869
N1670 X62.599 Y35.775 Z-22.493
N1675 X62.595 Y35.684 Z-22.471
N1680 X62.591 Y35.597 Z-22.435
N1685 X62.587 Y35.516 Z-22.385
N1690 X62.584 Y35.445 Z-22.324
N1695 X62.581 Y35.384 Z-22.253
N1700 X62.579 Y35.335 Z-22.172
N1705 X62.577 Y35.299 Z-22.085
N1710 X62.576 Y35.277 Z-21.994
N1715 Y35.269 Z-21.9
N1720 G0 Z5.
N1725 X63.775 Y35.214
N1730 G1 Z-19. F200.
N1735 Z-24.4
N1740 Y35.222 Z-24.494
N1745 X63.776 Y35.244 Z-24.585
N1750 X63.778 Y35.28 Z-24.672
N1755 X63.78 Y35.329 Z-24.753
N1760 X63.783 Y35.39 Z-24.824
N1765 X63.786 Y35.461 Z-24.885
N1770 X63.79 Y35.542 Z-24.935
N1775 X63.794 Y35.628 Z-24.971
N1780 X63.798 Y35.72 Z-24.993
N1785 X63.802 Y35.814 Z-25.
N1790 X63.83 Y36.413 F500.
N1795 G3 X63.258 Y37.04 I-0.599 J0.028
N1800 G2 X48.102 Y40.964 I1.742 J37.96 F800.
N1805 G1 Z-23.5
N1810 G2 X39.061 Y47.23 I16.898 J34.036
N1815 G1 Z-25. F200.
N1820 G2 X28.081 Y66. I25.939 J27.77 F800.
N1825 G1 X15.
N1830 X12.
N1835 Y84.
N1840 X27.
N1845 Y106.375
N1850 Z-23.5
N1855 Y117.375
N1860 Z-25. F200.
N1865 Y139.75 F800.
N1870 G2 X34.524 Y162.448 I38. J0.
N1875 G1 Z-23.5
N1880 G2 X42.302 Y170.226 I30.476 J-22.698
N1885 G1 Z-25. F200.
N1890 G2 X87.698 I22.698 J-30.476 F800.
N1895 G1 Z-23.5
N1900 G2 X95.476 Y162.448 I-22.698 J-30.476
N1905 G1 Z-25. F200.
N1910 G2 X103. Y139.75 I-30.476 J-22.698 F800.
N1915 G1 Y112.875
N1920 Z-23.5
N1925 Y101.875
N1930 Z-25. F200.
N1935 Y75. F800.
N1940 G2 X96.778 Y54.163 I-38. J0.
N1945 G1 Z-23.5
N1950 G2 X89.478 Y45.934 I-31.778 J20.837
N1955 G1 Z-25. F200.
N1960 G2 X63.258 Y37.04 I-24.478 J29.066 F800.
N1965 G3 X62.631 Y36.468 I-0.028 J-0.599 F500.
N1970 G1 X62.603 Y35.869
N1975 X62.599 Y35.775 Z-24.993
N1980 X62.595 Y35.684 Z-24.971
N1985 X62.591 Y35.597 Z-24.935
N1990 X62.587 Y35.516 Z-24.885
N1995 X62.584 Y35.445 Z-24.824
N2000 X62.581 Y35.384 Z-24.753
N2005 X62.579 Y35.335 Z-24.672
N2010 X62.577 Y35.299 Z-24.585
N2015 X62.576 Y35.277 Z-24.494
N2020 Y35.269 Z-24.4
N2025 G0 Z15.
N2030 M9
N2035 G53 Z0.
N2040 M30
%
