%
(DEEP_SLOTS)
(T1  D=6. CR=0. - ZMIN=-25. - FLAT END MILL)
N10 G90 G94 G17 G91.1
N15 G21
N20 G53 G0 Z0.
(DEEP_SLOTS)
N25 M9
N30 T1 M6
N35 S22000 M3
N40 G54
N45 G0 X273.405 Y1231.501
N50 G43 Z15. H1
N55 G0 Z5.
N60 G1 Z3.1 F500.
N65 X273.412 Y1231.465 Z2.893 F333.33
N70 X273.427 Y1231.36 Z2.711
N75 X273.443 Y1231.198 Z2.577
N80 X273.45 Y1231. Z2.507
N85 X273.449 Y1230.925 Z2.5
N90 G2 X267.751 Y1231.075 Z2.187 I-2.849 J0.075
N95 X273.449 Y1230.925 Z1.875 I2.849 J-0.075
N100 X267.751 Y1231.075 Z1.562 I-2.849 J0.075
N105 X273.449 Y1230.925 Z1.249 I2.849 J-0.075
N110 X267.751 Y1231.075 Z0.937 I-2.849 J0.075
N115 X273.449 Y1230.925 Z0.624 I2.849 J-0.075
N120 X267.751 Y1231.075 Z0.311 I-2.849 J0.075
N125 X273.449 Y1230.925 Z-0.001 I2.849 J-0.075
N130 X267.751 Y1231.075 Z-0.314 I-2.849 J0.075
N135 X273.449 Y1230.925 Z-0.627 I2.849 J-0.075
N140 X267.751 Y1231.075 Z-0.939 I-2.849 J0.075
N145 X273.449 Y1230.925 Z-1.252 I2.849 J-0.075
N150 X267.751 Y1231.075 Z-1.565 I-2.849 J0.075
N155 X273.449 Y1230.925 Z-1.877 I2.849 J-0.075
N160 X267.751 Y1231.075 Z-2.19 I-2.849 J0.075
N165 X273.45 Y1231. Z-2.5 I2.849 J-0.075
N170 X268.895 I-2.277 J0.
N175 G1 Y1738. F1000.
N180 G2 X271.105 I1.105 J0.
N185 G1 Y1231.
N190 G2 X268.895 I-1.105 J0.
N195 G3 X267.698 Y1232.796 I-1.946 J0.
N200 G2 X266.5 Y1234.593 I0.748 J1.796
N205 G1 Y1738.
N210 G2 X273.5 I3.5 J0.
N215 G1 Y1231.
N220 G2 X266.5 I-3.5 J0.
N225 G1 Y1234.593
N230 G2 X266.735 Y1234.727 I0.156 J0.
N235 G1 X267.369 Y1234.354
N240 X272.742 Y1231.162
N245 X272.767 Y1231.15
N250 X272.794 Y1231.145
N255 X273.335 Y1231.09
N260 X273.372 Y1231.081
N265 X273.404 Y1231.062
N270 X273.429 Y1231.034
N275 X273.445 Y1230.999
N280 X273.45 Y1230.962
N285 G2 X267.75 Y1231.038 Z-2.813 I-2.85 J0.038 F333.33
N290 X273.45 Y1230.962 Z-3.125 I2.85 J-0.038
N295 X267.75 Y1231.038 Z-3.438 I-2.85 J0.038
N300 X273.45 Y1230.962 Z-3.751 I2.85 J-0.038
N305 X267.75 Y1231.038 Z-4.063 I-2.85 J0.038
N310 X273.45 Y1230.962 Z-4.376 I2.85 J-0.038
N315 X267.75 Y1231.038 Z-4.689 I-2.85 J0.038
N320 X273.45 Y1231. Z-5. I2.85 J-0.038
N325 X268.895 I-2.277 J0.
N330 G1 Y1738. F1000.
N335 G2 X271.105 I1.105 J0.
N340 G1 Y1231.
N345 G2 X268.895 I-1.105 J0.
N350 G3 X267.698 Y1232.796 I-1.946 J0.
N355 G2 X266.5 Y1234.593 I0.748 J1.796
N360 G1 Y1738.
N365 G2 X273.5 I3.5 J0.
N370 G1 Y1231.
N375 G2 X266.5 I-3.5 J0.
N380 G1 Y1234.593
N385 G2 X266.735 Y1234.727 I0.156 J0.
N390 G1 X267.369 Y1234.354
N395 X272.742 Y1231.162
N400 X272.767 Y1231.15
N405 X272.794 Y1231.145
N410 X273.335 Y1231.09
N415 X273.372 Y1231.081
N420 X273.404 Y1231.062
N425 X273.429 Y1231.034
N430 X273.445 Y1230.999
N435 X273.45 Y1230.962
N440 G2 X267.75 Y1231.038 Z-5.313 I-2.85 J0.038 F333.33
N445 X273.45 Y1230.962 Z-5.625 I2.85 J-0.038
N450 X267.75 Y1231.038 Z-5.938 I-2.85 J0.038
N455 X273.45 Y1230.962 Z-6.251 I2.85 J-0.038
N460 X267.75 Y1231.038 Z-6.563 I-2.85 J0.038
N465 X273.45 Y1230.962 Z-6.876 I2.85 J-0.038
N470 X267.75 Y1231.038 Z-7.189 I-2.85 J0.038
N475 X273.45 Y1231. Z-7.5 I2.85 J-0.038
N480 X268.895 I-2.277 J0.
N485 G1 Y1738. F1000.
N490 G2 X271.105 I1.105 J0.
N495 G1 Y1231.
N500 G2 X268.895 I-1.105 J0.
N505 G3 X267.698 Y1232.796 I-1.946 J0.
N510 G2 X266.5 Y1234.593 I0.748 J1.796
N515 G1 Y1738.
N520 G2 X273.5 I3.5 J0.
N525 G1 Y1231.
N530 G2 X266.5 I-3.5 J0.
N535 G1 Y1234.593
N540 G2 X266.735 Y1234.727 I0.156 J0.
N545 G1 X267.369 Y1234.354
N550 X272.742 Y1231.162
N555 X272.767 Y1231.15
N560 X272.794 Y1231.145
N565 X273.335 Y1231.09
N570 X273.372 Y1231.081
N575 X273.404 Y1231.062
N580 X273.429 Y1231.034
N585 X273.445 Y1230.999
N590 X273.45 Y1230.962
N595 G2 X267.75 Y1231.038 Z-7.813 I-2.85 J0.038 F333.33
N600 X273.45 Y1230.962 Z-8.125 I2.85 J-0.038
N605 X267.75 Y1231.038 Z-8.438 I-2.85 J0.038
N610 X273.45 Y1230.962 Z-8.751 I2.85 J-0.038
N615 X267.75 Y1231.038 Z-9.063 I-2.85 J0.038
N620 X273.45 Y1230.962 Z-9.376 I2.85 J-0.038
N625 X267.75 Y1231.038 Z-9.689 I-2.85 J0.038
N630 X273.45 Y1231. Z-10. I2.85 J-0.038
N635 X268.895 I-2.277 J0.
N640 G1 Y1738. F1000.
N645 G2 X271.105 I1.105 J0.
N650 G1 Y1231.
N655 G2 X268.895 I-1.105 J0.
N660 G3 X267.698 Y1232.796 I-1.946 J0.
N665 G2 X266.5 Y1234.593 I0.748 J1.796
N670 G1 Y1738.
N675 G2 X273.5 I3.5 J0.
N680 G1 Y1231.
N685 G2 X266.5 I-3.5 J0.
N690 G1 Y1234.593
N695 G2 X266.735 Y1234.727 I0.156 J0.
N700 G1 X267.369 Y1234.354
N705 X272.742 Y1231.162
N710 X272.767 Y1231.15
N715 X272.794 Y1231.145
N720 X273.335 Y1231.09
N725 X273.372 Y1231.081
N730 X273.404 Y1231.062
N735 X273.429 Y1231.034
N740 X273.445 Y1230.999
N745 X273.45 Y1230.962
N750 G2 X267.75 Y1231.038 Z-10.313 I-2.85 J0.038 F333.33
N755 X273.45 Y1230.962 Z-10.625 I2.85 J-0.038
N760 X267.75 Y1231.038 Z-10.938 I-2.85 J0.038
N765 X273.45 Y1230.962 Z-11.251 I2.85 J-0.038
N770 X267.75 Y1231.038 Z-11.563 I-2.85 J0.038
N775 X273.45 Y1230.962 Z-11.876 I2.85 J-0.038
N780 X267.75 Y1231.038 Z-12.189 I-2.85 J0.038
N785 X273.45 Y1231. Z-12.5 I2.85 J-0.038
N790 X268.895 I-2.277 J0.
N795 G1 Y1738. F1000.
N800 G2 X271.105 I1.105 J0.
N805 G1 Y1231.
N810 G2 X268.895 I-1.105 J0.
N815 G3 X267.698 Y1232.796 I-1.946 J0.
N820 G2 X266.5 Y1234.593 I0.748 J1.796
N825 G1 Y1738.
N830 G2 X273.5 I3.5 J0.
N835 G1 Y1231.
N840 G2 X266.5 I-3.5 J0.
N845 G1 Y1234.593
N850 G2 X266.735 Y1234.727 I0.156 J0.
N855 G1 X267.369 Y1234.354
N860 X272.742 Y1231.162
N865 X272.767 Y1231.15
N870 X272.794 Y1231.145
N875 X273.335 Y1231.09
N880 X273.372 Y1231.081
N885 X273.404 Y1231.062
N890 X273.429 Y1231.034
N895 X273.445 Y1230.999
N900 X273.45 Y1230.962
N905 G2 X267.75 Y1231.038 Z-12.813 I-2.85 J0.038 F333.33
N910 X273.45 Y1230.962 Z-13.125 I2.85 J-0.038
N915 X267.75 Y1231.038 Z-13.438 I-2.85 J0.038
N920 X273.45 Y1230.962 Z-13.751 I2.85 J-0.038
N925 X267.75 Y1231.038 Z-14.063 I-2.85 J0.038
N930 X273.45 Y1230.962 Z-14.376 I2.85 J-0.038
N935 X267.75 Y1231.038 Z-14.689 I-2.85 J0.038
N940 X273.45 Y1231. Z-15. I2.85 J-0.038
N945 X268.895 I-2.277 J0.
N950 G1 Y1738. F1000.
N955 G2 X271.105 I1.105 J0.
N960 G1 Y1231.
N965 G2 X268.895 I-1.105 J0.
N970 G3 X267.698 Y1232.796 I-1.946 J0.
N975 G2 X266.5 Y1234.593 I0.748 J1.796
N980 G1 Y1738.
N985 G2 X273.5 I3.5 J0.
N990 G1 Y1231.
N995 G2 X266.5 I-3.5 J0.
N1000 G1 Y1234.593
N1005 G2 X266.735 Y1234.727 I0.156 J0.
N1010 G1 X267.369 Y1234.354
N1015 X272.742 Y1231.162
N1020 X272.767 Y1231.15
N1025 X272.794 Y1231.145
N1030 X273.335 Y1231.09
N1035 X273.372 Y1231.081
N1040 X273.404 Y1231.062
N1045 X273.429 Y1231.034
N1050 X273.445 Y1230.999
N1055 X273.45 Y1230.962
N1060 G2 X267.75 Y1231.038 Z-15.313 I-2.85 J0.038 F333.33
N1065 X273.45 Y1230.962 Z-15.625 I2.85 J-0.038
N1070 X267.75 Y1231.038 Z-15.938 I-2.85 J0.038
N1075 X273.45 Y1230.962 Z-16.251 I2.85 J-0.038
N1080 X267.75 Y1231.038 Z-16.563 I-2.85 J0.038
N1085 X273.45 Y1230.962 Z-16.876 I2.85 J-0.038
N1090 X267.75 Y1231.038 Z-17.189 I-2.85 J0.038
N1095 X273.45 Y1231. Z-17.5 I2.85 J-0.038
N1100 X268.895 I-2.277 J0.
N1105 G1 Y1738. F1000.
N1110 G2 X271.105 I1.105 J0.
N1115 G1 Y1231.
N1120 G2 X268.895 I-1.105 J0.
N1125 G3 X267.698 Y1232.796 I-1.946 J0.
N1130 G2 X266.5 Y1234.593 I0.748 J1.796
N1135 G1 Y1738.
N1140 G2 X273.5 I3.5 J0.
N1145 G1 Y1231.
N1150 G2 X266.5 I-3.5 J0.
N1155 G1 Y1234.593
N1160 G2 X266.735 Y1234.727 I0.156 J0.
N1165 G1 X267.369 Y1234.354
N1170 X272.742 Y1231.162
N1175 X272.767 Y1231.15
N1180 X272.794 Y1231.145
N1185 X273.335 Y1231.09
N1190 X273.372 Y1231.081
N1195 X273.404 Y1231.062
N1200 X273.429 Y1231.034
N1205 X273.445 Y1230.999
N1210 X273.45 Y1230.962
N1215 G2 X267.75 Y1231.038 Z-17.813 I-2.85 J0.038 F333.33
N1220 X273.45 Y1230.962 Z-18.125 I2.85 J-0.038
N1225 X267.75 Y1231.038 Z-18.438 I-2.85 J0.038
N1230 X273.45 Y1230.962 Z-18.751 I2.85 J-0.038
N1235 X267.75 Y1231.038 Z-19.063 I-2.85 J0.038
N1240 X273.45 Y1230.962 Z-19.376 I2.85 J-0.038
N1245 X267.75 Y1231.038 Z-19.689 I-2.85 J0.038
N1250 X273.45 Y1231. Z-20. I2.85 J-0.038
N1255 X268.895 I-2.277 J0.
N1260 G1 Y1738. F1000.
N1265 G2 X271.105 I1.105 J0.
N1270 G1 Y1231.
N1275 G2 X268.895 I-1.105 J0.
N1280 G3 X267.698 Y1232.796 I-1.946 J0.
N1285 G2 X266.5 Y1234.593 I0.748 J1.796
N1290 G1 Y1738.
N1295 G2 X273.5 I3.5 J0.
N1300 G1 Y1231.
N1305 G2 X266.5 I-3.5 J0.
N1310 G1 Y1234.593
N1315 G2 X266.735 Y1234.727 I0.156 J0.
N1320 G1 X267.369 Y1234.354
N1325 X272.742 Y1231.162
N1330 X272.767 Y1231.15
N1335 X272.794 Y1231.145
N1340 X273.335 Y1231.09
N1345 X273.372 Y1231.081
N1350 X273.404 Y1231.062
N1355 X273.429 Y1231.034
N1360 X273.445 Y1230.999
N1365 X273.45 Y1230.962
N1370 G2 X267.75 Y1231.038 Z-20.313 I-2.85 J0.038 F333.33
N1375 X273.45 Y1230.962 Z-20.625 I2.85 J-0.038
N1380 X267.75 Y1231.038 Z-20.938 I-2.85 J0.038
N1385 X273.45 Y1230.962 Z-21.251 I2.85 J-0.038
N1390 X267.75 Y1231.038 Z-21.563 I-2.85 J0.038
N1395 X273.45 Y1230.962 Z-21.876 I2.85 J-0.038
N1400 X267.75 Y1231.038 Z-22.189 I-2.85 J0.038
N1405 X273.45 Y1231. Z-22.5 I2.85 J-0.038
N1410 X268.895 I-2.277 J0.
N1415 G1 Y1738. F1000.
N1420 G2 X271.105 I1.105 J0.
N1425 G1 Y1231.
N1430 G2 X268.895 I-1.105 J0.
N1435 G3 X267.698 Y1232.796 I-1.946 J0.
N1440 G2 X266.5 Y1234.593 I0.748 J1.796
N1445 G1 Y1738.
N1450 G2 X273.5 I3.5 J0.
N1455 G1 Y1231.
N1460 G2 X266.5 I-3.5 J0.
N1465 G1 Y1234.593
N1470 G2 X266.735 Y1234.727 I0.156 J0.
N1475 G1 X267.369 Y1234.354
N1480 X272.742 Y1231.162
N1485 X272.767 Y1231.15
N1490 X272.794 Y1231.145
N1495 X273.335 Y1231.09
N1500 X273.372 Y1231.081
N1505 X273.404 Y1231.062
N1510 X273.429 Y1231.034
N1515 X273.445 Y1230.999
N1520 X273.45 Y1230.962
N1525 G2 X267.75 Y1231.038 Z-22.813 I-2.85 J0.038 F333.33
N1530 X273.45 Y1230.962 Z-23.125 I2.85 J-0.038
N1535 X267.75 Y1231.038 Z-23.438 I-2.85 J0.038
N1540 X273.45 Y1230.962 Z-23.751 I2.85 J-0.038
N1545 X267.75 Y1231.038 Z-24.063 I-2.85 J0.038
N1550 X273.45 Y1230.962 Z-24.376 I2.85 J-0.038
N1555 X267.75 Y1231.038 Z-24.689 I-2.85 J0.038
N1560 X273.45 Y1231. Z-25. I2.85 J-0.038
N1565 X268.895 I-2.277 J0.
N1570 G1 Y1738. F1000.
N1575 G2 X271.105 I1.105 J0.
N1580 G1 Y1231.
N1585 G2 X268.895 I-1.105 J0.
N1590 G3 X267.698 Y1232.796 I-1.946 J0.
N1595 G2 X266.5 Y1234.593 I0.748 J1.796
N1600 G1 Y1738.
N1605 G2 X273.5 I3.5 J0.
N1610 G1 Y1231.
N1615 G2 X266.5 I-3.5 J0.
N1620 G1 Y1234.593
N1625 X266.507 Y1234.685 Z-24.985 F500.
N1630 X266.528 Y1234.775 Z-24.971
N1635 X266.559 Y1234.853 Z-24.928
N1640 X266.601 Y1234.925 Z-24.885
N1645 X266.64 Y1234.978 Z-24.819
N1650 X266.686 Y1235.027 Z-24.753
N1655 X266.751 Y1235.081 Z-24.585
N1660 X266.776 Y1235.097 Z-24.4
N1665 G0 Z5.
N1670 X269.499 Y1122.061
N1675 G1 Z3.1 F500.
N1680 X269.535 Y1122.067 Z2.893 F333.33
N1685 X269.64 Y1122.082 Z2.711
N1690 X269.802 Y1122.098 Z2.577
N1695 X270. Y1122.105 Z2.507
N1700 X270.075 Y1122.104 Z2.5
N1705 G2 X269.925 Y1116.406 Z2.187 I-0.075 J-2.849
N1710 X270.075 Y1122.104 Z1.875 I0.075 J2.849
N1715 X269.925 Y1116.406 Z1.562 I-0.075 J-2.849
N1720 X270.075 Y1122.104 Z1.249 I0.075 J2.849
N1725 X269.925 Y1116.406 Z0.937 I-0.075 J-2.849
N1730 X270.075 Y1122.104 Z0.624 I0.075 J2.849
N1735 X269.925 Y1116.406 Z0.311 I-0.075 J-2.849
N1740 X270.075 Y1122.104 Z-0.001 I0.075 J2.849
N1745 X269.925 Y1116.406 Z-0.314 I-0.075 J-2.849
N1750 X270.075 Y1122.104 Z-0.627 I0.075 J2.849
N1755 X269.925 Y1116.406 Z-0.939 I-0.075 J-2.849
N1760 X270.075 Y1122.104 Z-1.252 I0.075 J2.849
N1765 X269.925 Y1116.406 Z-1.565 I-0.075 J-2.849
N1770 X270.075 Y1122.104 Z-1.877 I0.075 J2.849
N1775 X269.925 Y1116.406 Z-2.19 I-0.075 J-2.849
N1780 X270. Y1122.105 Z-2.5 I0.075 J2.849
N1785 X271.105 Y1121. I0. J-1.105 F1000.
N1790 G1 Y706.
N1795 G2 X268.895 I-1.105 J0.
N1800 G1 Y1121.
N1805 G2 X270. Y1122.105 I1.105 J0.
N1810 G3 X271.404 Y1122.852 I0. J1.694
N1815 G2 X272.994 Y1122.813 I0.782 J-0.528
N1820 X273.5 Y1121. I-2.994 J-1.813
N1825 G1 Y706.
N1830 G2 X266.5 I-3.5 J0.
N1835 G1 Y1121.
N1840 G2 X272.994 Y1122.813 I3.5 J0.
N1845 X272.699 Y1122.36 I-0.257 J-0.155
N1850 G1 X270.081 Y1122.702
N1855 G3 X269.742 Y1122.426 I-0.039 J-0.297
N1860 X270.038 Y1122.105 I0.299 J-0.021
N1865 G2 X269.962 Y1116.405 Z-2.813 I-0.038 J-2.85 F333.33
N1870 X270.038 Y1122.105 Z-3.125 I0.038 J2.85
N1875 X269.962 Y1116.405 Z-3.438 I-0.038 J-2.85
N1880 X270.038 Y1122.105 Z-3.751 I0.038 J2.85
N1885 X269.962 Y1116.405 Z-4.063 I-0.038 J-2.85
N1890 X270.038 Y1122.105 Z-4.376 I0.038 J2.85
N1895 X269.962 Y1116.405 Z-4.689 I-0.038 J-2.85
N1900 X270. Y1122.105 Z-5. I0.038 J2.85
N1905 X271.105 Y1121. I0. J-1.105 F1000.
N1910 G1 Y706.
N1915 G2 X268.895 I-1.105 J0.
N1920 G1 Y1121.
N1925 G2 X270. Y1122.105 I1.105 J0.
N1930 G3 X271.404 Y1122.852 I0. J1.694
N1935 G2 X272.994 Y1122.813 I0.782 J-0.528
N1940 X273.5 Y1121. I-2.994 J-1.813
N1945 G1 Y706.
N1950 G2 X266.5 I-3.5 J0.
N1955 G1 Y1121.
N1960 G2 X272.994 Y1122.813 I3.5 J0.
N1965 X272.699 Y1122.36 I-0.257 J-0.155
N1970 G1 X270.081 Y1122.702
N1975 G3 X269.742 Y1122.426 I-0.039 J-0.297
N1980 X270.038 Y1122.105 I0.299 J-0.021
N1985 G2 X269.962 Y1116.405 Z-5.313 I-0.038 J-2.85 F333.33
N1990 X270.038 Y1122.105 Z-5.625 I0.038 J2.85
N1995 X269.962 Y1116.405 Z-5.938 I-0.038 J-2.85
N2000 X270.038 Y1122.105 Z-6.251 I0.038 J2.85
N2005 X269.962 Y1116.405 Z-6.563 I-0.038 J-2.85
N2010 X270.038 Y1122.105 Z-6.876 I0.038 J2.85
N2015 X269.962 Y1116.405 Z-7.189 I-0.038 J-2.85
N2020 X270. Y1122.105 Z-7.5 I0.038 J2.85
N2025 X271.105 Y1121. I0. J-1.105 F1000.
N2030 G1 Y706.
N2035 G2 X268.895 I-1.105 J0.
N2040 G1 Y1121.
N2045 G2 X270. Y1122.105 I1.105 J0.
N2050 G3 X271.404 Y1122.852 I0. J1.694
N2055 G2 X272.994 Y1122.813 I0.782 J-0.528
N2060 X273.5 Y1121. I-2.994 J-1.813
N2065 G1 Y706.
N2070 G2 X266.5 I-3.5 J0.
N2075 G1 Y1121.
N2080 G2 X272.994 Y1122.813 I3.5 J0.
N2085 X272.699 Y1122.36 I-0.257 J-0.155
N2090 G1 X270.081 Y1122.702
N2095 G3 X269.742 Y1122.426 I-0.039 J-0.297
N2100 X270.038 Y1122.105 I0.299 J-0.021
N2105 G2 X269.962 Y1116.405 Z-7.813 I-0.038 J-2.85 F333.33
N2110 X270.038 Y1122.105 Z-8.125 I0.038 J2.85
N2115 X269.962 Y1116.405 Z-8.438 I-0.038 J-2.85
N2120 X270.038 Y1122.105 Z-8.751 I0.038 J2.85
N2125 X269.962 Y1116.405 Z-9.063 I-0.038 J-2.85
N2130 X270.038 Y1122.105 Z-9.376 I0.038 J2.85
N2135 X269.962 Y1116.405 Z-9.689 I-0.038 J-2.85
N2140 X270. Y1122.105 Z-10. I0.038 J2.85
N2145 X271.105 Y1121. I0. J-1.105 F1000.
N2150 G1 Y706.
N2155 G2 X268.895 I-1.105 J0.
N2160 G1 Y1121.
N2165 G2 X270. Y1122.105 I1.105 J0.
N2170 G3 X271.404 Y1122.852 I0. J1.694
N2175 G2 X272.994 Y1122.813 I0.782 J-0.528
N2180 X273.5 Y1121. I-2.994 J-1.813
N2185 G1 Y706.
N2190 G2 X266.5 I-3.5 J0.
N2195 G1 Y1121.
N2200 G2 X272.994 Y1122.813 I3.5 J0.
N2205 X272.699 Y1122.36 I-0.257 J-0.155
N2210 G1 X270.081 Y1122.702
N2215 G3 X269.742 Y1122.426 I-0.039 J-0.297
N2220 X270.038 Y1122.105 I0.299 J-0.021
N2225 G2 X269.962 Y1116.405 Z-10.313 I-0.038 J-2.85 F333.33
N2230 X270.038 Y1122.105 Z-10.625 I0.038 J2.85
N2235 X269.962 Y1116.405 Z-10.938 I-0.038 J-2.85
N2240 X270.038 Y1122.105 Z-11.251 I0.038 J2.85
N2245 X269.962 Y1116.405 Z-11.563 I-0.038 J-2.85
N2250 X270.038 Y1122.105 Z-11.876 I0.038 J2.85
N2255 X269.962 Y1116.405 Z-12.189 I-0.038 J-2.85
N2260 X270. Y1122.105 Z-12.5 I0.038 J2.85
N2265 X271.105 Y1121. I0. J-1.105 F1000.
N2270 G1 Y706.
N2275 G2 X268.895 I-1.105 J0.
N2280 G1 Y1121.
N2285 G2 X270. Y1122.105 I1.105 J0.
N2290 G3 X271.404 Y1122.852 I0. J1.694
N2295 G2 X272.994 Y1122.813 I0.782 J-0.528
N2300 X273.5 Y1121. I-2.994 J-1.813
N2305 G1 Y706.
N2310 G2 X266.5 I-3.5 J0.
N2315 G1 Y1121.
N2320 G2 X272.994 Y1122.813 I3.5 J0.
N2325 X272.699 Y1122.36 I-0.257 J-0.155
N2330 G1 X270.081 Y1122.702
N2335 G3 X269.742 Y1122.426 I-0.039 J-0.297
N2340 X270.038 Y1122.105 I0.299 J-0.021
N2345 G2 X269.962 Y1116.405 Z-12.813 I-0.038 J-2.85 F333.33
N2350 X270.038 Y1122.105 Z-13.125 I0.038 J2.85
N2355 X269.962 Y1116.405 Z-13.438 I-0.038 J-2.85
N2360 X270.038 Y1122.105 Z-13.751 I0.038 J2.85
N2365 X269.962 Y1116.405 Z-14.063 I-0.038 J-2.85
N2370 X270.038 Y1122.105 Z-14.376 I0.038 J2.85
N2375 X269.962 Y1116.405 Z-14.689 I-0.038 J-2.85
N2380 X270. Y1122.105 Z-15. I0.038 J2.85
N2385 X271.105 Y1121. I0. J-1.105 F1000.
N2390 G1 Y706.
N2395 G2 X268.895 I-1.105 J0.
N2400 G1 Y1121.
N2405 G2 X270. Y1122.105 I1.105 J0.
N2410 G3 X271.404 Y1122.852 I0. J1.694
N2415 G2 X272.994 Y1122.813 I0.782 J-0.528
N2420 X273.5 Y1121. I-2.994 J-1.813
N2425 G1 Y706.
N2430 G2 X266.5 I-3.5 J0.
N2435 G1 Y1121.
N2440 G2 X272.994 Y1122.813 I3.5 J0.
N2445 X272.699 Y1122.36 I-0.257 J-0.155
N2450 G1 X270.081 Y1122.702
N2455 G3 X269.742 Y1122.426 I-0.039 J-0.297
N2460 X270.038 Y1122.105 I0.299 J-0.021
N2465 G2 X269.962 Y1116.405 Z-15.313 I-0.038 J-2.85 F333.33
N2470 X270.038 Y1122.105 Z-15.625 I0.038 J2.85
N2475 X269.962 Y1116.405 Z-15.938 I-0.038 J-2.85
N2480 X270.038 Y1122.105 Z-16.251 I0.038 J2.85
N2485 X269.962 Y1116.405 Z-16.563 I-0.038 J-2.85
N2490 X270.038 Y1122.105 Z-16.876 I0.038 J2.85
N2495 X269.962 Y1116.405 Z-17.189 I-0.038 J-2.85
N2500 X270. Y1122.105 Z-17.5 I0.038 J2.85
N2505 X271.105 Y1121. I0. J-1.105 F1000.
N2510 G1 Y706.
N2515 G2 X268.895 I-1.105 J0.
N2520 G1 Y1121.
N2525 G2 X270. Y1122.105 I1.105 J0.
N2530 G3 X271.404 Y1122.852 I0. J1.694
N2535 G2 X272.994 Y1122.813 I0.782 J-0.528
N2540 X273.5 Y1121. I-2.994 J-1.813
N2545 G1 Y706.
N2550 G2 X266.5 I-3.5 J0.
N2555 G1 Y1121.
N2560 G2 X272.994 Y1122.813 I3.5 J0.
N2565 X272.699 Y1122.36 I-0.257 J-0.155
N2570 G1 X270.081 Y1122.702
N2575 G3 X269.742 Y1122.426 I-0.039 J-0.297
N2580 X270.038 Y1122.105 I0.299 J-0.021
N2585 G2 X269.962 Y1116.405 Z-17.813 I-0.038 J-2.85 F333.33
N2590 X270.038 Y1122.105 Z-18.125 I0.038 J2.85
N2595 X269.962 Y1116.405 Z-18.438 I-0.038 J-2.85
N2600 X270.038 Y1122.105 Z-18.751 I0.038 J2.85
N2605 X269.962 Y1116.405 Z-19.063 I-0.038 J-2.85
N2610 X270.038 Y1122.105 Z-19.376 I0.038 J2.85
N2615 X269.962 Y1116.405 Z-19.689 I-0.038 J-2.85
N2620 X270. Y1122.105 Z-20. I0.038 J2.85
N2625 X271.105 Y1121. I0. J-1.105 F1000.
N2630 G1 Y706.
N2635 G2 X268.895 I-1.105 J0.
N2640 G1 Y1121.
N2645 G2 X270. Y1122.105 I1.105 J0.
N2650 G3 X271.404 Y1122.852 I0. J1.694
N2655 G2 X272.994 Y1122.813 I0.782 J-0.528
N2660 X273.5 Y1121. I-2.994 J-1.813
N2665 G1 Y706.
N2670 G2 X266.5 I-3.5 J0.
N2675 G1 Y1121.
N2680 G2 X272.994 Y1122.813 I3.5 J0.
N2685 X272.699 Y1122.36 I-0.257 J-0.155
N2690 G1 X270.081 Y1122.702
N2695 G3 X269.742 Y1122.426 I-0.039 J-0.297
N2700 X270.038 Y1122.105 I0.299 J-0.021
N2705 G2 X269.962 Y1116.405 Z-20.313 I-0.038 J-2.85 F333.33
N2710 X270.038 Y1122.105 Z-20.625 I0.038 J2.85
N2715 X269.962 Y1116.405 Z-20.938 I-0.038 J-2.85
N2720 X270.038 Y1122.105 Z-21.251 I0.038 J2.85
N2725 X269.962 Y1116.405 Z-21.563 I-0.038 J-2.85
N2730 X270.038 Y1122.105 Z-21.876 I0.038 J2.85
N2735 X269.962 Y1116.405 Z-22.189 I-0.038 J-2.85
N2740 X270. Y1122.105 Z-22.5 I0.038 J2.85
N2745 X271.105 Y1121. I0. J-1.105 F1000.
N2750 G1 Y706.
N2755 G2 X268.895 I-1.105 J0.
N2760 G1 Y1121.
N2765 G2 X270. Y1122.105 I1.105 J0.
N2770 G3 X271.404 Y1122.852 I0. J1.694
N2775 G2 X272.994 Y1122.813 I0.782 J-0.528
N2780 X273.5 Y1121. I-2.994 J-1.813
N2785 G1 Y706.
N2790 G2 X266.5 I-3.5 J0.
N2795 G1 Y1121.
N2800 G2 X272.994 Y1122.813 I3.5 J0.
N2805 X272.699 Y1122.36 I-0.257 J-0.155
N2810 G1 X270.081 Y1122.702
N2815 G3 X269.742 Y1122.426 I-0.039 J-0.297
N2820 X270.038 Y1122.105 I0.299 J-0.021
N2825 G2 X269.962 Y1116.405 Z-22.813 I-0.038 J-2.85 F333.33
N2830 X270.038 Y1122.105 Z-23.125 I0.038 J2.85
N2835 X269.962 Y1116.405 Z-23.438 I-0.038 J-2.85
N2840 X270.038 Y1122.105 Z-23.751 I0.038 J2.85
N2845 X269.962 Y1116.405 Z-24.063 I-0.038 J-2.85
N2850 X270.038 Y1122.105 Z-24.376 I0.038 J2.85
N2855 X269.962 Y1116.405 Z-24.689 I-0.038 J-2.85
N2860 X270. Y1122.105 Z-25. I0.038 J2.85
N2865 X271.105 Y1121. I0. J-1.105 F1000.
N2870 G1 Y706.
N2875 G2 X268.895 I-1.105 J0.
N2880 G1 Y1121.
N2885 G2 X270. Y1122.105 I1.105 J0.
N2890 G3 X271.404 Y1122.852 I0. J1.694
N2895 G2 X272.994 Y1122.813 I0.782 J-0.528
N2900 X273.5 Y1121. I-2.994 J-1.813
N2905 G1 Y706.
N2910 G2 X266.5 I-3.5 J0.
N2915 G1 Y1121.
N2920 G2 X272.994 Y1122.813 I3.5 J0.
N2925 G1 X273.036 Y1122.73 Z-24.985 F500.
N2930 X273.064 Y1122.642 Z-24.971
N2935 X273.078 Y1122.559 Z-24.928
N2940 X273.08 Y1122.476 Z-24.885
N2945 X273.074 Y1122.41 Z-24.819
N2950 X273.06 Y1122.345 Z-24.753
N2955 X273.032 Y1122.265 Z-24.585
N2960 X273.02 Y1122.238 Z-24.4
N2965 G0 Z5.
N2970 X613.405 Y1121.501
N2975 G1 Z3.1 F500.
N2980 X613.412 Y1121.465 Z2.893 F333.33
N2985 X613.427 Y1121.36 Z2.711
N2990 X613.443 Y1121.198 Z2.577
N2995 X613.45 Y1121. Z2.507
N3000 X613.449 Y1120.925 Z2.5
N3005 G2 X607.751 Y1121.075 Z2.187 I-2.849 J0.075
N3010 X613.449 Y1120.925 Z1.875 I2.849 J-0.075
N3015 X607.751 Y1121.075 Z1.562 I-2.849 J0.075
N3020 X613.449 Y1120.925 Z1.249 I2.849 J-0.075
N3025 X607.751 Y1121.075 Z0.937 I-2.849 J0.075
N3030 X613.449 Y1120.925 Z0.624 I2.849 J-0.075
N3035 X607.751 Y1121.075 Z0.311 I-2.849 J0.075
N3040 X613.449 Y1120.925 Z-0.001 I2.849 J-0.075
N3045 X607.751 Y1121.075 Z-0.314 I-2.849 J0.075
N3050 X613.449 Y1120.925 Z-0.627 I2.849 J-0.075
N3055 X607.751 Y1121.075 Z-0.939 I-2.849 J0.075
N3060 X613.449 Y1120.925 Z-1.252 I2.849 J-0.075
N3065 X607.751 Y1121.075 Z-1.565 I-2.849 J0.075
N3070 X613.449 Y1120.925 Z-1.877 I2.849 J-0.075
N3075 X607.751 Y1121.075 Z-2.19 I-2.849 J0.075
N3080 X613.45 Y1121. Z-2.5 I2.849 J-0.075
N3085 X608.895 I-2.277 J0.
N3090 X611.105 I1.105 J0. F1000.
N3095 G1 Y706.
N3100 G2 X608.895 I-1.105 J0.
N3105 G1 Y1121.
N3110 G3 X608.148 Y1122.404 I-1.694 J0.
N3115 G2 X608.187 Y1123.994 I0.528 J0.782
N3120 X613.5 Y1121. I1.813 J-2.994
N3125 G1 Y706.
N3130 G2 X606.5 I-3.5 J0.
N3135 G1 Y1121.
N3140 G2 X608.187 Y1123.994 I3.5 J0.
N3145 X608.493 Y1123.997 I0.155 J-0.257
N3150 G1 X613.299 Y1121.226
N3155 G2 X613.45 Y1120.962 I-0.15 J-0.26
N3160 X607.75 Y1121.038 Z-2.813 I-2.85 J0.038 F333.33
N3165 X613.45 Y1120.962 Z-3.125 I2.85 J-0.038
N3170 X607.75 Y1121.038 Z-3.438 I-2.85 J0.038
N3175 X613.45 Y1120.962 Z-3.751 I2.85 J-0.038
N3180 X607.75 Y1121.038 Z-4.063 I-2.85 J0.038
N3185 X613.45 Y1120.962 Z-4.376 I2.85 J-0.038
N3190 X607.75 Y1121.038 Z-4.689 I-2.85 J0.038
N3195 X613.45 Y1121. Z-5. I2.85 J-0.038
N3200 X608.895 I-2.277 J0.
N3205 X611.105 I1.105 J0. F1000.
N3210 G1 Y706.
N3215 G2 X608.895 I-1.105 J0.
N3220 G1 Y1121.
N3225 G3 X608.148 Y1122.404 I-1.694 J0.
N3230 G2 X608.187 Y1123.994 I0.528 J0.782
N3235 X613.5 Y1121. I1.813 J-2.994
N3240 G1 Y706.
N3245 G2 X606.5 I-3.5 J0.
N3250 G1 Y1121.
N3255 G2 X608.187 Y1123.994 I3.5 J0.
N3260 X608.493 Y1123.997 I0.155 J-0.257
N3265 G1 X613.299 Y1121.226
N3270 G2 X613.45 Y1120.962 I-0.15 J-0.26
N3275 X607.75 Y1121.038 Z-5.313 I-2.85 J0.038 F333.33
N3280 X613.45 Y1120.962 Z-5.625 I2.85 J-0.038
N3285 X607.75 Y1121.038 Z-5.938 I-2.85 J0.038
N3290 X613.45 Y1120.962 Z-6.251 I2.85 J-0.038
N3295 X607.75 Y1121.038 Z-6.563 I-2.85 J0.038
N3300 X613.45 Y1120.962 Z-6.876 I2.85 J-0.038
N3305 X607.75 Y1121.038 Z-7.189 I-2.85 J0.038
N3310 X613.45 Y1121. Z-7.5 I2.85 J-0.038
N3315 X608.895 I-2.277 J0.
N3320 X611.105 I1.105 J0. F1000.
N3325 G1 Y706.
N3330 G2 X608.895 I-1.105 J0.
N3335 G1 Y1121.
N3340 G3 X608.148 Y1122.404 I-1.694 J0.
N3345 G2 X608.187 Y1123.994 I0.528 J0.782
N3350 X613.5 Y1121. I1.813 J-2.994
N3355 G1 Y706.
N3360 G2 X606.5 I-3.5 J0.
N3365 G1 Y1121.
N3370 G2 X608.187 Y1123.994 I3.5 J0.
N3375 X608.493 Y1123.997 I0.155 J-0.257
N3380 G1 X613.299 Y1121.226
N3385 G2 X613.45 Y1120.962 I-0.15 J-0.26
N3390 X607.75 Y1121.038 Z-7.813 I-2.85 J0.038 F333.33
N3395 X613.45 Y1120.962 Z-8.125 I2.85 J-0.038
N3400 X607.75 Y1121.038 Z-8.438 I-2.85 J0.038
N3405 X613.45 Y1120.962 Z-8.751 I2.85 J-0.038
N3410 X607.75 Y1121.038 Z-9.063 I-2.85 J0.038
N3415 X613.45 Y1120.962 Z-9.376 I2.85 J-0.038
N3420 X607.75 Y1121.038 Z-9.689 I-2.85 J0.038
N3425 X613.45 Y1121. Z-10. I2.85 J-0.038
N3430 X608.895 I-2.277 J0.
N3435 X611.105 I1.105 J0. F1000.
N3440 G1 Y706.
N3445 G2 X608.895 I-1.105 J0.
N3450 G1 Y1121.
N3455 G3 X608.148 Y1122.404 I-1.694 J0.
N3460 G2 X608.187 Y1123.994 I0.528 J0.782
N3465 X613.5 Y1121. I1.813 J-2.994
N3470 G1 Y706.
N3475 G2 X606.5 I-3.5 J0.
N3480 G1 Y1121.
N3485 G2 X608.187 Y1123.994 I3.5 J0.
N3490 X608.493 Y1123.997 I0.155 J-0.257
N3495 G1 X613.299 Y1121.226
N3500 G2 X613.45 Y1120.962 I-0.15 J-0.26
N3505 X607.75 Y1121.038 Z-10.313 I-2.85 J0.038 F333.33
N3510 X613.45 Y1120.962 Z-10.625 I2.85 J-0.038
N3515 X607.75 Y1121.038 Z-10.938 I-2.85 J0.038
N3520 X613.45 Y1120.962 Z-11.251 I2.85 J-0.038
N3525 X607.75 Y1121.038 Z-11.563 I-2.85 J0.038
N3530 X613.45 Y1120.962 Z-11.876 I2.85 J-0.038
N3535 X607.75 Y1121.038 Z-12.189 I-2.85 J0.038
N3540 X613.45 Y1121. Z-12.5 I2.85 J-0.038
N3545 X608.895 I-2.277 J0.
N3550 X611.105 I1.105 J0. F1000.
N3555 G1 Y706.
N3560 G2 X608.895 I-1.105 J0.
N3565 G1 Y1121.
N3570 G3 X608.148 Y1122.404 I-1.694 J0.
N3575 G2 X608.187 Y1123.994 I0.528 J0.782
N3580 X613.5 Y1121. I1.813 J-2.994
N3585 G1 Y706.
N3590 G2 X606.5 I-3.5 J0.
N3595 G1 Y1121.
N3600 G2 X608.187 Y1123.994 I3.5 J0.
N3605 X608.493 Y1123.997 I0.155 J-0.257
N3610 G1 X613.299 Y1121.226
N3615 G2 X613.45 Y1120.962 I-0.15 J-0.26
N3620 X607.75 Y1121.038 Z-12.813 I-2.85 J0.038 F333.33
N3625 X613.45 Y1120.962 Z-13.125 I2.85 J-0.038
N3630 X607.75 Y1121.038 Z-13.438 I-2.85 J0.038
N3635 X613.45 Y1120.962 Z-13.751 I2.85 J-0.038
N3640 X607.75 Y1121.038 Z-14.063 I-2.85 J0.038
N3645 X613.45 Y1120.962 Z-14.376 I2.85 J-0.038
N3650 X607.75 Y1121.038 Z-14.689 I-2.85 J0.038
N3655 X613.45 Y1121. Z-15. I2.85 J-0.038
N3660 X608.895 I-2.277 J0.
N3665 X611.105 I1.105 J0. F1000.
N3670 G1 Y706.
N3675 G2 X608.895 I-1.105 J0.
N3680 G1 Y1121.
N3685 G3 X608.148 Y1122.404 I-1.694 J0.
N3690 G2 X608.187 Y1123.994 I0.528 J0.782
N3695 X613.5 Y1121. I1.813 J-2.994
N3700 G1 Y706.
N3705 G2 X606.5 I-3.5 J0.
N3710 G1 Y1121.
N3715 G2 X608.187 Y1123.994 I3.5 J0.
N3720 X608.493 Y1123.997 I0.155 J-0.257
N3725 G1 X613.299 Y1121.226
N3730 G2 X613.45 Y1120.962 I-0.15 J-0.26
N3735 X607.75 Y1121.038 Z-15.313 I-2.85 J0.038 F333.33
N3740 X613.45 Y1120.962 Z-15.625 I2.85 J-0.038
N3745 X607.75 Y1121.038 Z-15.938 I-2.85 J0.038
N3750 X613.45 Y1120.962 Z-16.251 I2.85 J-0.038
N3755 X607.75 Y1121.038 Z-16.563 I-2.85 J0.038
N3760 X613.45 Y1120.962 Z-16.876 I2.85 J-0.038
N3765 X607.75 Y1121.038 Z-17.189 I-2.85 J0.038
N3770 X613.45 Y1121. Z-17.5 I2.85 J-0.038
N3775 X608.895 I-2.277 J0.
N3780 X611.105 I1.105 J0. F1000.
N3785 G1 Y706.
N3790 G2 X608.895 I-1.105 J0.
N3795 G1 Y1121.
N3800 G3 X608.148 Y1122.404 I-1.694 J0.
N3805 G2 X608.187 Y1123.994 I0.528 J0.782
N3810 X613.5 Y1121. I1.813 J-2.994
N3815 G1 Y706.
N3820 G2 X606.5 I-3.5 J0.
N3825 G1 Y1121.
N3830 G2 X608.187 Y1123.994 I3.5 J0.
N3835 X608.493 Y1123.997 I0.155 J-0.257
N3840 G1 X613.299 Y1121.226
N3845 G2 X613.45 Y1120.962 I-0.15 J-0.26
N3850 X607.75 Y1121.038 Z-17.813 I-2.85 J0.038 F333.33
N3855 X613.45 Y1120.962 Z-18.125 I2.85 J-0.038
N3860 X607.75 Y1121.038 Z-18.438 I-2.85 J0.038
N3865 X613.45 Y1120.962 Z-18.751 I2.85 J-0.038
N3870 X607.75 Y1121.038 Z-19.063 I-2.85 J0.038
N3875 X613.45 Y1120.962 Z-19.376 I2.85 J-0.038
N3880 X607.75 Y1121.038 Z-19.689 I-2.85 J0.038
N3885 X613.45 Y1121. Z-20. I2.85 J-0.038
N3890 X608.895 I-2.277 J0.
N3895 X611.105 I1.105 J0. F1000.
N3900 G1 Y706.
N3905 G2 X608.895 I-1.105 J0.
N3910 G1 Y1121.
N3915 G3 X608.148 Y1122.404 I-1.694 J0.
N3920 G2 X608.187 Y1123.994 I0.528 J0.782
N3925 X613.5 Y1121. I1.813 J-2.994
N3930 G1 Y706.
N3935 G2 X606.5 I-3.5 J0.
N3940 G1 Y1121.
N3945 G2 X608.187 Y1123.994 I3.5 J0.
N3950 X608.493 Y1123.997 I0.155 J-0.257
N3955 G1 X613.299 Y1121.226
N3960 G2 X613.45 Y1120.962 I-0.15 J-0.26
N3965 X607.75 Y1121.038 Z-20.313 I-2.85 J0.038 F333.33
N3970 X613.45 Y1120.962 Z-20.625 I2.85 J-0.038
N3975 X607.75 Y1121.038 Z-20.938 I-2.85 J0.038
N3980 X613.45 Y1120.962 Z-21.251 I2.85 J-0.038
N3985 X607.75 Y1121.038 Z-21.563 I-2.85 J0.038
N3990 X613.45 Y1120.962 Z-21.876 I2.85 J-0.038
N3995 X607.75 Y1121.038 Z-22.189 I-2.85 J0.038
N4000 X613.45 Y1121. Z-22.5 I2.85 J-0.038
N4005 X608.895 I-2.277 J0.
N4010 X611.105 I1.105 J0. F1000.
N4015 G1 Y706.
N4020 G2 X608.895 I-1.105 J0.
N4025 G1 Y1121.
N4030 G3 X608.148 Y1122.404 I-1.694 J0.
N4035 G2 X608.187 Y1123.994 I0.528 J0.782
N4040 X613.5 Y1121. I1.813 J-2.994
N4045 G1 Y706.
N4050 G2 X606.5 I-3.5 J0.
N4055 G1 Y1121.
N4060 G2 X608.187 Y1123.994 I3.5 J0.
N4065 X608.493 Y1123.997 I0.155 J-0.257
N4070 G1 X613.299 Y1121.226
N4075 G2 X613.45 Y1120.962 I-0.15 J-0.26
N4080 X607.75 Y1121.038 Z-22.813 I-2.85 J0.038 F333.33
N4085 X613.45 Y1120.962 Z-23.125 I2.85 J-0.038
N4090 X607.75 Y1121.038 Z-23.438 I-2.85 J0.038
N4095 X613.45 Y1120.962 Z-23.751 I2.85 J-0.038
N4100 X607.75 Y1121.038 Z-24.063 I-2.85 J0.038
N4105 X613.45 Y1120.962 Z-24.376 I2.85 J-0.038
N4110 X607.75 Y1121.038 Z-24.689 I-2.85 J0.038
N4115 X613.45 Y1121. Z-25. I2.85 J-0.038
N4120 X608.895 I-2.277 J0.
N4125 X611.105 I1.105 J0. F1000.
N4130 G1 Y706.
N4135 G2 X608.895 I-1.105 J0.
N4140 G1 Y1121.
N4145 G3 X608.148 Y1122.404 I-1.694 J0.
N4150 G2 X608.187 Y1123.994 I0.528 J0.782
N4155 X613.5 Y1121. I1.813 J-2.994
N4160 G1 Y706.
N4165 G2 X606.5 I-3.5 J0.
N4170 G1 Y1121.
N4175 G2 X608.187 Y1123.994 I3.5 J0.
N4180 G1 X608.27 Y1124.036 Z-24.985 F500.
N4185 X608.358 Y1124.064 Z-24.971
N4190 X608.441 Y1124.078 Z-24.928
N4195 X608.524 Y1124.08 Z-24.885
N4200 X608.59 Y1124.074 Z-24.819
N4205 X608.655 Y1124.06 Z-24.753
N4210 X608.735 Y1124.032 Z-24.585
N4215 X608.762 Y1124.02 Z-24.4
N4220 G0 Z5.
N4225 X613.405 Y1231.501
N4230 G1 Z3.1 F500.
N4235 X613.412 Y1231.465 Z2.893 F333.33
N4240 X613.427 Y1231.36 Z2.711
N4245 X613.443 Y1231.198 Z2.577
N4250 X613.45 Y1231. Z2.507
N4255 X613.449 Y1230.925 Z2.5
N4260 G2 X607.751 Y1231.075 Z2.187 I-2.849 J0.075
N4265 X613.449 Y1230.925 Z1.875 I2.849 J-0.075
N4270 X607.751 Y1231.075 Z1.562 I-2.849 J0.075
N4275 X613.449 Y1230.925 Z1.249 I2.849 J-0.075
N4280 X607.751 Y1231.075 Z0.937 I-2.849 J0.075
N4285 X613.449 Y1230.925 Z0.624 I2.849 J-0.075
N4290 X607.751 Y1231.075 Z0.311 I-2.849 J0.075
N4295 X613.449 Y1230.925 Z-0.001 I2.849 J-0.075
N4300 X607.751 Y1231.075 Z-0.314 I-2.849 J0.075
N4305 X613.449 Y1230.925 Z-0.627 I2.849 J-0.075
N4310 X607.751 Y1231.075 Z-0.939 I-2.849 J0.075
N4315 X613.449 Y1230.925 Z-1.252 I2.849 J-0.075
N4320 X607.751 Y1231.075 Z-1.565 I-2.849 J0.075
N4325 X613.449 Y1230.925 Z-1.877 I2.849 J-0.075
N4330 X607.751 Y1231.075 Z-2.19 I-2.849 J0.075
N4335 X613.45 Y1231. Z-2.5 I2.849 J-0.075
N4340 X608.895 I-2.277 J0.
N4345 G1 Y1738. F1000.
N4350 G2 X611.105 I1.105 J0.
N4355 G1 Y1231.
N4360 G2 X608.895 I-1.105 J0.
N4365 G3 X607.698 Y1232.796 I-1.946 J0.
N4370 G2 X606.5 Y1234.593 I0.748 J1.796
N4375 G1 Y1738.
N4380 G2 X613.5 I3.5 J0.
N4385 G1 Y1231.
N4390 G2 X606.5 I-3.5 J0.
N4395 G1 Y1234.593
N4400 G2 X606.735 Y1234.727 I0.156 J0.
N4405 G1 X607.369 Y1234.354
N4410 X612.742 Y1231.162
N4415 X612.767 Y1231.15
N4420 X612.794 Y1231.145
N4425 X613.335 Y1231.09
N4430 X613.372 Y1231.081
N4435 X613.404 Y1231.062
N4440 X613.429 Y1231.034
N4445 X613.445 Y1230.999
N4450 X613.45 Y1230.962
N4455 G2 X607.75 Y1231.038 Z-2.813 I-2.85 J0.038 F333.33
N4460 X613.45 Y1230.962 Z-3.125 I2.85 J-0.038
N4465 X607.75 Y1231.038 Z-3.438 I-2.85 J0.038
N4470 X613.45 Y1230.962 Z-3.751 I2.85 J-0.038
N4475 X607.75 Y1231.038 Z-4.063 I-2.85 J0.038
N4480 X613.45 Y1230.962 Z-4.376 I2.85 J-0.038
N4485 X607.75 Y1231.038 Z-4.689 I-2.85 J0.038
N4490 X613.45 Y1231. Z-5. I2.85 J-0.038
N4495 X608.895 I-2.277 J0.
N4500 G1 Y1738. F1000.
N4505 G2 X611.105 I1.105 J0.
N4510 G1 Y1231.
N4515 G2 X608.895 I-1.105 J0.
N4520 G3 X607.698 Y1232.796 I-1.946 J0.
N4525 G2 X606.5 Y1234.593 I0.748 J1.796
N4530 G1 Y1738.
N4535 G2 X613.5 I3.5 J0.
N4540 G1 Y1231.
N4545 G2 X606.5 I-3.5 J0.
N4550 G1 Y1234.593
N4555 G2 X606.735 Y1234.727 I0.156 J0.
N4560 G1 X607.369 Y1234.354
N4565 X612.742 Y1231.162
N4570 X612.767 Y1231.15
N4575 X612.794 Y1231.145
N4580 X613.335 Y1231.09
N4585 X613.372 Y1231.081
N4590 X613.404 Y1231.062
N4595 X613.429 Y1231.034
N4600 X613.445 Y1230.999
N4605 X613.45 Y1230.962
N4610 G2 X607.75 Y1231.038 Z-5.313 I-2.85 J0.038 F333.33
N4615 X613.45 Y1230.962 Z-5.625 I2.85 J-0.038
N4620 X607.75 Y1231.038 Z-5.938 I-2.85 J0.038
N4625 X613.45 Y1230.962 Z-6.251 I2.85 J-0.038
N4630 X607.75 Y1231.038 Z-6.563 I-2.85 J0.038
N4635 X613.45 Y1230.962 Z-6.876 I2.85 J-0.038
N4640 X607.75 Y1231.038 Z-7.189 I-2.85 J0.038
N4645 X613.45 Y1231. Z-7.5 I2.85 J-0.038
N4650 X608.895 I-2.277 J0.
N4655 G1 Y1738. F1000.
N4660 G2 X611.105 I1.105 J0.
N4665 G1 Y1231.
N4670 G2 X608.895 I-1.105 J0.
N4675 G3 X607.698 Y1232.796 I-1.946 J0.
N4680 G2 X606.5 Y1234.593 I0.748 J1.796
N4685 G1 Y1738.
N4690 G2 X613.5 I3.5 J0.
N4695 G1 Y1231.
N4700 G2 X606.5 I-3.5 J0.
N4705 G1 Y1234.593
N4710 G2 X606.735 Y1234.727 I0.156 J0.
N4715 G1 X607.369 Y1234.354
N4720 X612.742 Y1231.162
N4725 X612.767 Y1231.15
N4730 X612.794 Y1231.145
N4735 X613.335 Y1231.09
N4740 X613.372 Y1231.081
N4745 X613.404 Y1231.062
N4750 X613.429 Y1231.034
N4755 X613.445 Y1230.999
N4760 X613.45 Y1230.962
N4765 G2 X607.75 Y1231.038 Z-7.813 I-2.85 J0.038 F333.33
N4770 X613.45 Y1230.962 Z-8.125 I2.85 J-0.038
N4775 X607.75 Y1231.038 Z-8.438 I-2.85 J0.038
N4780 X613.45 Y1230.962 Z-8.751 I2.85 J-0.038
N4785 X607.75 Y1231.038 Z-9.063 I-2.85 J0.038
N4790 X613.45 Y1230.962 Z-9.376 I2.85 J-0.038
N4795 X607.75 Y1231.038 Z-9.689 I-2.85 J0.038
N4800 X613.45 Y1231. Z-10. I2.85 J-0.038
N4805 X608.895 I-2.277 J0.
N4810 G1 Y1738. F1000.
N4815 G2 X611.105 I1.105 J0.
N4820 G1 Y1231.
N4825 G2 X608.895 I-1.105 J0.
N4830 G3 X607.698 Y1232.796 I-1.946 J0.
N4835 G2 X606.5 Y1234.593 I0.748 J1.796
N4840 G1 Y1738.
N4845 G2 X613.5 I3.5 J0.
N4850 G1 Y1231.
N4855 G2 X606.5 I-3.5 J0.
N4860 G1 Y1234.593
N4865 G2 X606.735 Y1234.727 I0.156 J0.
N4870 G1 X607.369 Y1234.354
N4875 X612.742 Y1231.162
N4880 X612.767 Y1231.15
N4885 X612.794 Y1231.145
N4890 X613.335 Y1231.09
N4895 X613.372 Y1231.081
N4900 X613.404 Y1231.062
N4905 X613.429 Y1231.034
N4910 X613.445 Y1230.999
N4915 X613.45 Y1230.962
N4920 G2 X607.75 Y1231.038 Z-10.313 I-2.85 J0.038 F333.33
N4925 X613.45 Y1230.962 Z-10.625 I2.85 J-0.038
N4930 X607.75 Y1231.038 Z-10.938 I-2.85 J0.038
N4935 X613.45 Y1230.962 Z-11.251 I2.85 J-0.038
N4940 X607.75 Y1231.038 Z-11.563 I-2.85 J0.038
N4945 X613.45 Y1230.962 Z-11.876 I2.85 J-0.038
N4950 X607.75 Y1231.038 Z-12.189 I-2.85 J0.038
N4955 X613.45 Y1231. Z-12.5 I2.85 J-0.038
N4960 X608.895 I-2.277 J0.
N4965 G1 Y1738. F1000.
N4970 G2 X611.105 I1.105 J0.
N4975 G1 Y1231.
N4980 G2 X608.895 I-1.105 J0.
N4985 G3 X607.698 Y1232.796 I-1.946 J0.
N4990 G2 X606.5 Y1234.593 I0.748 J1.796
N4995 G1 Y1738.
N5000 G2 X613.5 I3.5 J0.
N5005 G1 Y1231.
N5010 G2 X606.5 I-3.5 J0.
N5015 G1 Y1234.593
N5020 G2 X606.735 Y1234.727 I0.156 J0.
N5025 G1 X607.369 Y1234.354
N5030 X612.742 Y1231.162
N5035 X612.767 Y1231.15
N5040 X612.794 Y1231.145
N5045 X613.335 Y1231.09
N5050 X613.372 Y1231.081
N5055 X613.404 Y1231.062
N5060 X613.429 Y1231.034
N5065 X613.445 Y1230.999
N5070 X613.45 Y1230.962
N5075 G2 X607.75 Y1231.038 Z-12.813 I-2.85 J0.038 F333.33
N5080 X613.45 Y1230.962 Z-13.125 I2.85 J-0.038
N5085 X607.75 Y1231.038 Z-13.438 I-2.85 J0.038
N5090 X613.45 Y1230.962 Z-13.751 I2.85 J-0.038
N5095 X607.75 Y1231.038 Z-14.063 I-2.85 J0.038
N5100 X613.45 Y1230.962 Z-14.376 I2.85 J-0.038
N5105 X607.75 Y1231.038 Z-14.689 I-2.85 J0.038
N5110 X613.45 Y1231. Z-15. I2.85 J-0.038
N5115 X608.895 I-2.277 J0.
N5120 G1 Y1738. F1000.
N5125 G2 X611.105 I1.105 J0.
N5130 G1 Y1231.
N5135 G2 X608.895 I-1.105 J0.
N5140 G3 X607.698 Y1232.796 I-1.946 J0.
N5145 G2 X606.5 Y1234.593 I0.748 J1.796
N5150 G1 Y1738.
N5155 G2 X613.5 I3.5 J0.
N5160 G1 Y1231.
N5165 G2 X606.5 I-3.5 J0.
N5170 G1 Y1234.593
N5175 G2 X606.735 Y1234.727 I0.156 J0.
N5180 G1 X607.369 Y1234.354
N5185 X612.742 Y1231.162
N5190 X612.767 Y1231.15
N5195 X612.794 Y1231.145
N5200 X613.335 Y1231.09
N5205 X613.372 Y1231.081
N5210 X613.404 Y1231.062
N5215 X613.429 Y1231.034
N5220 X613.445 Y1230.999
N5225 X613.45 Y1230.962
N5230 G2 X607.75 Y1231.038 Z-15.313 I-2.85 J0.038 F333.33
N5235 X613.45 Y1230.962 Z-15.625 I2.85 J-0.038
N5240 X607.75 Y1231.038 Z-15.938 I-2.85 J0.038
N5245 X613.45 Y1230.962 Z-16.251 I2.85 J-0.038
N5250 X607.75 Y1231.038 Z-16.563 I-2.85 J0.038
N5255 X613.45 Y1230.962 Z-16.876 I2.85 J-0.038
N5260 X607.75 Y1231.038 Z-17.189 I-2.85 J0.038
N5265 X613.45 Y1231. Z-17.5 I2.85 J-0.038
N5270 X608.895 I-2.277 J0.
N5275 G1 Y1738. F1000.
N5280 G2 X611.105 I1.105 J0.
N5285 G1 Y1231.
N5290 G2 X608.895 I-1.105 J0.
N5295 G3 X607.698 Y1232.796 I-1.946 J0.
N5300 G2 X606.5 Y1234.593 I0.748 J1.796
N5305 G1 Y1738.
N5310 G2 X613.5 I3.5 J0.
N5315 G1 Y1231.
N5320 G2 X606.5 I-3.5 J0.
N5325 G1 Y1234.593
N5330 G2 X606.735 Y1234.727 I0.156 J0.
N5335 G1 X607.369 Y1234.354
N5340 X612.742 Y1231.162
N5345 X612.767 Y1231.15
N5350 X612.794 Y1231.145
N5355 X613.335 Y1231.09
N5360 X613.372 Y1231.081
N5365 X613.404 Y1231.062
N5370 X613.429 Y1231.034
N5375 X613.445 Y1230.999
N5380 X613.45 Y1230.962
N5385 G2 X607.75 Y1231.038 Z-17.813 I-2.85 J0.038 F333.33
N5390 X613.45 Y1230.962 Z-18.125 I2.85 J-0.038
N5395 X607.75 Y1231.038 Z-18.438 I-2.85 J0.038
N5400 X613.45 Y1230.962 Z-18.751 I2.85 J-0.038
N5405 X607.75 Y1231.038 Z-19.063 I-2.85 J0.038
N5410 X613.45 Y1230.962 Z-19.376 I2.85 J-0.038
N5415 X607.75 Y1231.038 Z-19.689 I-2.85 J0.038
N5420 X613.45 Y1231. Z-20. I2.85 J-0.038
N5425 X608.895 I-2.277 J0.
N5430 G1 Y1738. F1000.
N5435 G2 X611.105 I1.105 J0.
N5440 G1 Y1231.
N5445 G2 X608.895 I-1.105 J0.
N5450 G3 X607.698 Y1232.796 I-1.946 J0.
N5455 G2 X606.5 Y1234.593 I0.748 J1.796
N5460 G1 Y1738.
N5465 G2 X613.5 I3.5 J0.
N5470 G1 Y1231.
N5475 G2 X606.5 I-3.5 J0.
N5480 G1 Y1234.593
N5485 G2 X606.735 Y1234.727 I0.156 J0.
N5490 G1 X607.369 Y1234.354
N5495 X612.742 Y1231.162
N5500 X612.767 Y1231.15
N5505 X612.794 Y1231.145
N5510 X613.335 Y1231.09
N5515 X613.372 Y1231.081
N5520 X613.404 Y1231.062
N5525 X613.429 Y1231.034
N5530 X613.445 Y1230.999
N5535 X613.45 Y1230.962
N5540 G2 X607.75 Y1231.038 Z-20.313 I-2.85 J0.038 F333.33
N5545 X613.45 Y1230.962 Z-20.625 I2.85 J-0.038
N5550 X607.75 Y1231.038 Z-20.938 I-2.85 J0.038
N5555 X613.45 Y1230.962 Z-21.251 I2.85 J-0.038
N5560 X607.75 Y1231.038 Z-21.563 I-2.85 J0.038
N5565 X613.45 Y1230.962 Z-21.876 I2.85 J-0.038
N5570 X607.75 Y1231.038 Z-22.189 I-2.85 J0.038
N5575 X613.45 Y1231. Z-22.5 I2.85 J-0.038
N5580 X608.895 I-2.277 J0.
N5585 G1 Y1738. F1000.
N5590 G2 X611.105 I1.105 J0.
N5595 G1 Y1231.
N5600 G2 X608.895 I-1.105 J0.
N5605 G3 X607.698 Y1232.796 I-1.946 J0.
N5610 G2 X606.5 Y1234.593 I0.748 J1.796
N5615 G1 Y1738.
N5620 G2 X613.5 I3.5 J0.
N5625 G1 Y1231.
N5630 G2 X606.5 I-3.5 J0.
N5635 G1 Y1234.593
N5640 G2 X606.735 Y1234.727 I0.156 J0.
N5645 G1 X607.369 Y1234.354
N5650 X612.742 Y1231.162
N5655 X612.767 Y1231.15
N5660 X612.794 Y1231.145
N5665 X613.335 Y1231.09
N5670 X613.372 Y1231.081
N5675 X613.404 Y1231.062
N5680 X613.429 Y1231.034
N5685 X613.445 Y1230.999
N5690 X613.45 Y1230.962
N5695 G2 X607.75 Y1231.038 Z-22.813 I-2.85 J0.038 F333.33
N5700 X613.45 Y1230.962 Z-23.125 I2.85 J-0.038
N5705 X607.75 Y1231.038 Z-23.438 I-2.85 J0.038
N5710 X613.45 Y1230.962 Z-23.751 I2.85 J-0.038
N5715 X607.75 Y1231.038 Z-24.063 I-2.85 J0.038
N5720 X613.45 Y1230.962 Z-24.376 I2.85 J-0.038
N5725 X607.75 Y1231.038 Z-24.689 I-2.85 J0.038
N5730 X613.45 Y1231. Z-25. I2.85 J-0.038
N5735 X608.895 I-2.277 J0.
N5740 G1 Y1738. F1000.
N5745 G2 X611.105 I1.105 J0.
N5750 G1 Y1231.
N5755 G2 X608.895 I-1.105 J0.
N5760 G3 X607.698 Y1232.796 I-1.946 J0.
N5765 G2 X606.5 Y1234.593 I0.748 J1.796
N5770 G1 Y1738.
N5775 G2 X613.5 I3.5 J0.
N5780 G1 Y1231.
N5785 G2 X606.5 I-3.5 J0.
N5790 G1 Y1234.593
N5795 X606.507 Y1234.685 Z-24.985 F500.
N5800 X606.528 Y1234.775 Z-24.971
N5805 X606.559 Y1234.853 Z-24.928
N5810 X606.601 Y1234.925 Z-24.885
N5815 X606.64 Y1234.978 Z-24.819
N5820 X606.686 Y1235.027 Z-24.753
N5825 X606.752 Y1235.081 Z-24.585
N5830 X606.776 Y1235.097 Z-24.4
N5835 G0 Z5.
N5840 X613.405 Y1830.501
N5845 G1 Z3.1 F500.
N5850 X613.412 Y1830.465 Z2.893 F333.33
N5855 X613.427 Y1830.36 Z2.711
N5860 X613.443 Y1830.198 Z2.577
N5865 X613.45 Y1830. Z2.507
N5870 X613.449 Y1829.925 Z2.5
N5875 G2 X607.751 Y1830.075 Z2.187 I-2.849 J0.075
N5880 X613.449 Y1829.925 Z1.875 I2.849 J-0.075
N5885 X607.751 Y1830.075 Z1.562 I-2.849 J0.075
N5890 X613.449 Y1829.925 Z1.249 I2.849 J-0.075
N5895 X607.751 Y1830.075 Z0.937 I-2.849 J0.075
N5900 X613.449 Y1829.925 Z0.624 I2.849 J-0.075
N5905 X607.751 Y1830.075 Z0.311 I-2.849 J0.075
N5910 X613.449 Y1829.925 Z-0.001 I2.849 J-0.075
N5915 X607.751 Y1830.075 Z-0.314 I-2.849 J0.075
N5920 X613.449 Y1829.925 Z-0.627 I2.849 J-0.075
N5925 X607.751 Y1830.075 Z-0.939 I-2.849 J0.075
N5930 X613.449 Y1829.925 Z-1.252 I2.849 J-0.075
N5935 X607.751 Y1830.075 Z-1.565 I-2.849 J0.075
N5940 X613.449 Y1829.925 Z-1.877 I2.849 J-0.075
N5945 X607.751 Y1830.075 Z-2.19 I-2.849 J0.075
N5950 X613.45 Y1830. Z-2.5 I2.849 J-0.075
N5955 X608.895 I-2.277 J0.
N5960 G1 Y2370. F1000.
N5965 G2 X611.105 I1.105 J0.
N5970 G1 Y1830.
N5975 G2 X608.895 I-1.105 J0.
N5980 G3 X607.698 Y1831.796 I-1.946 J0.
N5985 G2 X606.5 Y1833.593 I0.748 J1.796
N5990 G1 Y2370.
N5995 G2 X613.5 I3.5 J0.
N6000 G1 Y1830.
N6005 G2 X606.5 I-3.5 J0.
N6010 G1 Y1833.593
N6015 G2 X606.735 Y1833.727 I0.156 J0.
N6020 G1 X607.369 Y1833.354
N6025 X612.742 Y1830.162
N6030 X612.767 Y1830.15
N6035 X612.794 Y1830.145
N6040 X613.335 Y1830.09
N6045 X613.372 Y1830.081
N6050 X613.404 Y1830.062
N6055 X613.429 Y1830.034
N6060 X613.445 Y1829.999
N6065 X613.45 Y1829.962
N6070 G2 X607.75 Y1830.038 Z-2.813 I-2.85 J0.038 F333.33
N6075 X613.45 Y1829.962 Z-3.125 I2.85 J-0.038
N6080 X607.75 Y1830.038 Z-3.438 I-2.85 J0.038
N6085 X613.45 Y1829.962 Z-3.751 I2.85 J-0.038
N6090 X607.75 Y1830.038 Z-4.063 I-2.85 J0.038
N6095 X613.45 Y1829.962 Z-4.376 I2.85 J-0.038
N6100 X607.75 Y1830.038 Z-4.689 I-2.85 J0.038
N6105 X613.45 Y1830. Z-5. I2.85 J-0.038
N6110 X608.895 I-2.277 J0.
N6115 G1 Y2370. F1000.
N6120 G2 X611.105 I1.105 J0.
N6125 G1 Y1830.
N6130 G2 X608.895 I-1.105 J0.
N6135 G3 X607.698 Y1831.796 I-1.946 J0.
N6140 G2 X606.5 Y1833.593 I0.748 J1.796
N6145 G1 Y2370.
N6150 G2 X613.5 I3.5 J0.
N6155 G1 Y1830.
N6160 G2 X606.5 I-3.5 J0.
N6165 G1 Y1833.593
N6170 G2 X606.735 Y1833.727 I0.156 J0.
N6175 G1 X607.369 Y1833.354
N6180 X612.742 Y1830.162
N6185 X612.767 Y1830.15
N6190 X612.794 Y1830.145
N6195 X613.335 Y1830.09
N6200 X613.372 Y1830.081
N6205 X613.404 Y1830.062
N6210 X613.429 Y1830.034
N6215 X613.445 Y1829.999
N6220 X613.45 Y1829.962
N6225 G2 X607.75 Y1830.038 Z-5.313 I-2.85 J0.038 F333.33
N6230 X613.45 Y1829.962 Z-5.625 I2.85 J-0.038
N6235 X607.75 Y1830.038 Z-5.938 I-2.85 J0.038
N6240 X613.45 Y1829.962 Z-6.251 I2.85 J-0.038
N6245 X607.75 Y1830.038 Z-6.563 I-2.85 J0.038
N6250 X613.45 Y1829.962 Z-6.876 I2.85 J-0.038
N6255 X607.75 Y1830.038 Z-7.189 I-2.85 J0.038
N6260 X613.45 Y1830. Z-7.5 I2.85 J-0.038
N6265 X608.895 I-2.277 J0.
N6270 G1 Y2370. F1000.
N6275 G2 X611.105 I1.105 J0.
N6280 G1 Y1830.
N6285 G2 X608.895 I-1.105 J0.
N6290 G3 X607.698 Y1831.796 I-1.946 J0.
N6295 G2 X606.5 Y1833.593 I0.748 J1.796
N6300 G1 Y2370.
N6305 G2 X613.5 I3.5 J0.
N6310 G1 Y1830.
N6315 G2 X606.5 I-3.5 J0.
N6320 G1 Y1833.593
N6325 G2 X606.735 Y1833.727 I0.156 J0.
N6330 G1 X607.369 Y1833.354
N6335 X612.742 Y1830.162
N6340 X612.767 Y1830.15
N6345 X612.794 Y1830.145
N6350 X613.335 Y1830.09
N6355 X613.372 Y1830.081
N6360 X613.404 Y1830.062
N6365 X613.429 Y1830.034
N6370 X613.445 Y1829.999
N6375 X613.45 Y1829.962
N6380 G2 X607.75 Y1830.038 Z-7.813 I-2.85 J0.038 F333.33
N6385 X613.45 Y1829.962 Z-8.125 I2.85 J-0.038
N6390 X607.75 Y1830.038 Z-8.438 I-2.85 J0.038
N6395 X613.45 Y1829.962 Z-8.751 I2.85 J-0.038
N6400 X607.75 Y1830.038 Z-9.063 I-2.85 J0.038
N6405 X613.45 Y1829.962 Z-9.376 I2.85 J-0.038
N6410 X607.75 Y1830.038 Z-9.689 I-2.85 J0.038
N6415 X613.45 Y1830. Z-10. I2.85 J-0.038
N6420 X608.895 I-2.277 J0.
N6425 G1 Y2370. F1000.
N6430 G2 X611.105 I1.105 J0.
N6435 G1 Y1830.
N6440 G2 X608.895 I-1.105 J0.
N6445 G3 X607.698 Y1831.796 I-1.946 J0.
N6450 G2 X606.5 Y1833.593 I0.748 J1.796
N6455 G1 Y2370.
N6460 G2 X613.5 I3.5 J0.
N6465 G1 Y1830.
N6470 G2 X606.5 I-3.5 J0.
N6475 G1 Y1833.593
N6480 G2 X606.735 Y1833.727 I0.156 J0.
N6485 G1 X607.369 Y1833.354
N6490 X612.742 Y1830.162
N6495 X612.767 Y1830.15
N6500 X612.794 Y1830.145
N6505 X613.335 Y1830.09
N6510 X613.372 Y1830.081
N6515 X613.404 Y1830.062
N6520 X613.429 Y1830.034
N6525 X613.445 Y1829.999
N6530 X613.45 Y1829.962
N6535 G2 X607.75 Y1830.038 Z-10.313 I-2.85 J0.038 F333.33
N6540 X613.45 Y1829.962 Z-10.625 I2.85 J-0.038
N6545 X607.75 Y1830.038 Z-10.938 I-2.85 J0.038
N6550 X613.45 Y1829.962 Z-11.251 I2.85 J-0.038
N6555 X607.75 Y1830.038 Z-11.563 I-2.85 J0.038
N6560 X613.45 Y1829.962 Z-11.876 I2.85 J-0.038
N6565 X607.75 Y1830.038 Z-12.189 I-2.85 J0.038
N6570 X613.45 Y1830. Z-12.5 I2.85 J-0.038
N6575 X608.895 I-2.277 J0.
N6580 G1 Y2370. F1000.
N6585 G2 X611.105 I1.105 J0.
N6590 G1 Y1830.
N6595 G2 X608.895 I-1.105 J0.
N6600 G3 X607.698 Y1831.796 I-1.946 J0.
N6605 G2 X606.5 Y1833.593 I0.748 J1.796
N6610 G1 Y2370.
N6615 G2 X613.5 I3.5 J0.
N6620 G1 Y1830.
N6625 G2 X606.5 I-3.5 J0.
N6630 G1 Y1833.593
N6635 G2 X606.735 Y1833.727 I0.156 J0.
N6640 G1 X607.369 Y1833.354
N6645 X612.742 Y1830.162
N6650 X612.767 Y1830.15
N6655 X612.794 Y1830.145
N6660 X613.335 Y1830.09
N6665 X613.372 Y1830.081
N6670 X613.404 Y1830.062
N6675 X613.429 Y1830.034
N6680 X613.445 Y1829.999
N6685 X613.45 Y1829.962
N6690 G2 X607.75 Y1830.038 Z-12.813 I-2.85 J0.038 F333.33
N6695 X613.45 Y1829.962 Z-13.125 I2.85 J-0.038
N6700 X607.75 Y1830.038 Z-13.438 I-2.85 J0.038
N6705 X613.45 Y1829.962 Z-13.751 I2.85 J-0.038
N6710 X607.75 Y1830.038 Z-14.063 I-2.85 J0.038
N6715 X613.45 Y1829.962 Z-14.376 I2.85 J-0.038
N6720 X607.75 Y1830.038 Z-14.689 I-2.85 J0.038
N6725 X613.45 Y1830. Z-15. I2.85 J-0.038
N6730 X608.895 I-2.277 J0.
N6735 G1 Y2370. F1000.
N6740 G2 X611.105 I1.105 J0.
N6745 G1 Y1830.
N6750 G2 X608.895 I-1.105 J0.
N6755 G3 X607.698 Y1831.796 I-1.946 J0.
N6760 G2 X606.5 Y1833.593 I0.748 J1.796
N6765 G1 Y2370.
N6770 G2 X613.5 I3.5 J0.
N6775 G1 Y1830.
N6780 G2 X606.5 I-3.5 J0.
N6785 G1 Y1833.593
N6790 G2 X606.735 Y1833.727 I0.156 J0.
N6795 G1 X607.369 Y1833.354
N6800 X612.742 Y1830.162
N6805 X612.767 Y1830.15
N6810 X612.794 Y1830.145
N6815 X613.335 Y1830.09
N6820 X613.372 Y1830.081
N6825 X613.404 Y1830.062
N6830 X613.429 Y1830.034
N6835 X613.445 Y1829.999
N6840 X613.45 Y1829.962
N6845 G2 X607.75 Y1830.038 Z-15.313 I-2.85 J0.038 F333.33
N6850 X613.45 Y1829.962 Z-15.625 I2.85 J-0.038
N6855 X607.75 Y1830.038 Z-15.938 I-2.85 J0.038
N6860 X613.45 Y1829.962 Z-16.251 I2.85 J-0.038
N6865 X607.75 Y1830.038 Z-16.563 I-2.85 J0.038
N6870 X613.45 Y1829.962 Z-16.876 I2.85 J-0.038
N6875 X607.75 Y1830.038 Z-17.189 I-2.85 J0.038
N6880 X613.45 Y1830. Z-17.5 I2.85 J-0.038
N6885 X608.895 I-2.277 J0.
N6890 G1 Y2370. F1000.
N6895 G2 X611.105 I1.105 J0.
N6900 G1 Y1830.
N6905 G2 X608.895 I-1.105 J0.
N6910 G3 X607.698 Y1831.796 I-1.946 J0.
N6915 G2 X606.5 Y1833.593 I0.748 J1.796
N6920 G1 Y2370.
N6925 G2 X613.5 I3.5 J0.
N6930 G1 Y1830.
N6935 G2 X606.5 I-3.5 J0.
N6940 G1 Y1833.593
N6945 G2 X606.735 Y1833.727 I0.156 J0.
N6950 G1 X607.369 Y1833.354
N6955 X612.742 Y1830.162
N6960 X612.767 Y1830.15
N6965 X612.794 Y1830.145
N6970 X613.335 Y1830.09
N6975 X613.372 Y1830.081
N6980 X613.404 Y1830.062
N6985 X613.429 Y1830.034
N6990 X613.445 Y1829.999
N6995 X613.45 Y1829.962
N7000 G2 X607.75 Y1830.038 Z-17.813 I-2.85 J0.038 F333.33
N7005 X613.45 Y1829.962 Z-18.125 I2.85 J-0.038
N7010 X607.75 Y1830.038 Z-18.438 I-2.85 J0.038
N7015 X613.45 Y1829.962 Z-18.751 I2.85 J-0.038
N7020 X607.75 Y1830.038 Z-19.063 I-2.85 J0.038
N7025 X613.45 Y1829.962 Z-19.376 I2.85 J-0.038
N7030 X607.75 Y1830.038 Z-19.689 I-2.85 J0.038
N7035 X613.45 Y1830. Z-20. I2.85 J-0.038
N7040 X608.895 I-2.277 J0.
N7045 G1 Y2370. F1000.
N7050 G2 X611.105 I1.105 J0.
N7055 G1 Y1830.
N7060 G2 X608.895 I-1.105 J0.
N7065 G3 X607.698 Y1831.796 I-1.946 J0.
N7070 G2 X606.5 Y1833.593 I0.748 J1.796
N7075 G1 Y2370.
N7080 G2 X613.5 I3.5 J0.
N7085 G1 Y1830.
N7090 G2 X606.5 I-3.5 J0.
N7095 G1 Y1833.593
N7100 G2 X606.735 Y1833.727 I0.156 J0.
N7105 G1 X607.369 Y1833.354
N7110 X612.742 Y1830.162
N7115 X612.767 Y1830.15
N7120 X612.794 Y1830.145
N7125 X613.335 Y1830.09
N7130 X613.372 Y1830.081
N7135 X613.404 Y1830.062
N7140 X613.429 Y1830.034
N7145 X613.445 Y1829.999
N7150 X613.45 Y1829.962
N7155 G2 X607.75 Y1830.038 Z-20.313 I-2.85 J0.038 F333.33
N7160 X613.45 Y1829.962 Z-20.625 I2.85 J-0.038
N7165 X607.75 Y1830.038 Z-20.938 I-2.85 J0.038
N7170 X613.45 Y1829.962 Z-21.251 I2.85 J-0.038
N7175 X607.75 Y1830.038 Z-21.563 I-2.85 J0.038
N7180 X613.45 Y1829.962 Z-21.876 I2.85 J-0.038
N7185 X607.75 Y1830.038 Z-22.189 I-2.85 J0.038
N7190 X613.45 Y1830. Z-22.5 I2.85 J-0.038
N7195 X608.895 I-2.277 J0.
N7200 G1 Y2370. F1000.
N7205 G2 X611.105 I1.105 J0.
N7210 G1 Y1830.
N7215 G2 X608.895 I-1.105 J0.
N7220 G3 X607.698 Y1831.796 I-1.946 J0.
N7225 G2 X606.5 Y1833.593 I0.748 J1.796
N7230 G1 Y2370.
N7235 G2 X613.5 I3.5 J0.
N7240 G1 Y1830.
N7245 G2 X606.5 I-3.5 J0.
N7250 G1 Y1833.593
N7255 G2 X606.735 Y1833.727 I0.156 J0.
N7260 G1 X607.369 Y1833.354
N7265 X612.742 Y1830.162
N7270 X612.767 Y1830.15
N7275 X612.794 Y1830.145
N7280 X613.335 Y1830.09
N7285 X613.372 Y1830.081
N7290 X613.404 Y1830.062
N7295 X613.429 Y1830.034
N7300 X613.445 Y1829.999
N7305 X613.45 Y1829.962
N7310 G2 X607.75 Y1830.038 Z-22.813 I-2.85 J0.038 F333.33
N7315 X613.45 Y1829.962 Z-23.125 I2.85 J-0.038
N7320 X607.75 Y1830.038 Z-23.438 I-2.85 J0.038
N7325 X613.45 Y1829.962 Z-23.751 I2.85 J-0.038
N7330 X607.75 Y1830.038 Z-24.063 I-2.85 J0.038
N7335 X613.45 Y1829.962 Z-24.376 I2.85 J-0.038
N7340 X607.75 Y1830.038 Z-24.689 I-2.85 J0.038
N7345 X613.45 Y1830. Z-25. I2.85 J-0.038
N7350 X608.895 I-2.277 J0.
N7355 G1 Y2370. F1000.
N7360 G2 X611.105 I1.105 J0.
N7365 G1 Y1830.
N7370 G2 X608.895 I-1.105 J0.
N7375 G3 X607.698 Y1831.796 I-1.946 J0.
N7380 G2 X606.5 Y1833.593 I0.748 J1.796
N7385 G1 Y2370.
N7390 G2 X613.5 I3.5 J0.
N7395 G1 Y1830.
N7400 G2 X606.5 I-3.5 J0.
N7405 G1 Y1833.593
N7410 X606.507 Y1833.685 Z-24.985 F500.
N7415 X606.528 Y1833.775 Z-24.971
N7420 X606.559 Y1833.853 Z-24.928
N7425 X606.601 Y1833.925 Z-24.885
N7430 X606.64 Y1833.978 Z-24.819
N7435 X606.686 Y1834.027 Z-24.753
N7440 X606.752 Y1834.081 Z-24.585
N7445 X606.776 Y1834.097 Z-24.4
N7450 G0 Z5.
N7455 X273.405 Y1830.501
N7460 G1 Z3.1 F500.
N7465 X273.412 Y1830.465 Z2.893 F333.33
N7470 X273.427 Y1830.36 Z2.711
N7475 X273.443 Y1830.198 Z2.577
N7480 X273.45 Y1830. Z2.507
N7485 X273.449 Y1829.925 Z2.5
N7490 G2 X267.751 Y1830.075 Z2.187 I-2.849 J0.075
N7495 X273.449 Y1829.925 Z1.875 I2.849 J-0.075
N7500 X267.751 Y1830.075 Z1.562 I-2.849 J0.075
N7505 X273.449 Y1829.925 Z1.249 I2.849 J-0.075
N7510 X267.751 Y1830.075 Z0.937 I-2.849 J0.075
N7515 X273.449 Y1829.925 Z0.624 I2.849 J-0.075
N7520 X267.751 Y1830.075 Z0.311 I-2.849 J0.075
N7525 X273.449 Y1829.925 Z-0.001 I2.849 J-0.075
N7530 X267.751 Y1830.075 Z-0.314 I-2.849 J0.075
N7535 X273.449 Y1829.925 Z-0.627 I2.849 J-0.075
N7540 X267.751 Y1830.075 Z-0.939 I-2.849 J0.075
N7545 X273.449 Y1829.925 Z-1.252 I2.849 J-0.075
N7550 X267.751 Y1830.075 Z-1.565 I-2.849 J0.075
N7555 X273.449 Y1829.925 Z-1.877 I2.849 J-0.075
N7560 X267.751 Y1830.075 Z-2.19 I-2.849 J0.075
N7565 X273.45 Y1830. Z-2.5 I2.849 J-0.075
N7570 X268.895 I-2.277 J0.
N7575 G1 Y2370. F1000.
N7580 G2 X271.105 I1.105 J0.
N7585 G1 Y1830.
N7590 G2 X268.895 I-1.105 J0.
N7595 G3 X267.698 Y1831.796 I-1.946 J0.
N7600 G2 X266.5 Y1833.593 I0.748 J1.796
N7605 G1 Y2370.
N7610 G2 X273.5 I3.5 J0.
N7615 G1 Y1830.
N7620 G2 X266.5 I-3.5 J0.
N7625 G1 Y1833.593
N7630 G2 X267.1 Y1833.597 I0.3 J0.
N7635 G1 X267.15 Y1830.038
N7640 G2 X266.85 Y1829.734 I-0.3 J-0.004
N7645 X266.55 Y1830.038 I0. J0.3
N7650 X272.25 Y1829.962 Z-2.813 I2.85 J-0.038 F333.33
N7655 X266.55 Y1830.038 Z-3.125 I-2.85 J0.038
N7660 X272.25 Y1829.962 Z-3.438 I2.85 J-0.038
N7665 X266.55 Y1830.038 Z-3.751 I-2.85 J0.038
N7670 X272.25 Y1829.962 Z-4.063 I2.85 J-0.038
N7675 X266.55 Y1830.038 Z-4.376 I-2.85 J0.038
N7680 X272.25 Y1829.962 Z-4.689 I2.85 J-0.038
N7685 X266.55 Y1830. Z-5. I-2.85 J0.038
N7690 X271.105 I2.277 J0.
N7695 X268.895 I-1.105 J0. F1000.
N7700 G1 Y2370.
N7705 G2 X271.105 I1.105 J0.
N7710 G1 Y1830.
N7715 G3 X271.852 Y1828.596 I1.694 J0.
N7720 G2 X271.813 Y1827.006 I-0.528 J-0.782
N7725 X266.5 Y1830. I-1.813 J2.994
N7730 G1 Y2370.
N7735 G2 X273.5 I3.5 J0.
N7740 G1 Y1830.
N7745 G2 X271.813 Y1827.006 I-3.5 J0.
N7750 X271.395 Y1827.407 I-0.155 J0.257
N7755 G1 X272.887 Y1830.111
N7760 G2 X273.45 Y1829.962 I0.263 J-0.145
N7765 X267.75 Y1830.038 Z-5.313 I-2.85 J0.038 F333.33
N7770 X273.45 Y1829.962 Z-5.625 I2.85 J-0.038
N7775 X267.75 Y1830.038 Z-5.938 I-2.85 J0.038
N7780 X273.45 Y1829.962 Z-6.251 I2.85 J-0.038
N7785 X267.75 Y1830.038 Z-6.563 I-2.85 J0.038
N7790 X273.45 Y1829.962 Z-6.876 I2.85 J-0.038
N7795 X267.75 Y1830.038 Z-7.189 I-2.85 J0.038
N7800 X273.45 Y1830. Z-7.5 I2.85 J-0.038
N7805 X268.895 I-2.277 J0.
N7810 G1 Y2370. F1000.
N7815 G2 X271.105 I1.105 J0.
N7820 G1 Y1830.
N7825 G2 X268.895 I-1.105 J0.
N7830 G3 X267.698 Y1831.796 I-1.946 J0.
N7835 G2 X266.5 Y1833.593 I0.748 J1.796
N7840 G1 Y2370.
N7845 G2 X273.5 I3.5 J0.
N7850 G1 Y1830.
N7855 G2 X266.5 I-3.5 J0.
N7860 G1 Y1833.593
N7865 G2 X267.1 Y1833.597 I0.3 J0.
N7870 G1 X267.15 Y1830.038
N7875 G2 X266.85 Y1829.734 I-0.3 J-0.004
N7880 X266.55 Y1830.038 I0. J0.3
N7885 X272.25 Y1829.962 Z-7.813 I2.85 J-0.038 F333.33
N7890 X266.55 Y1830.038 Z-8.125 I-2.85 J0.038
N7895 X272.25 Y1829.962 Z-8.438 I2.85 J-0.038
N7900 X266.55 Y1830.038 Z-8.751 I-2.85 J0.038
N7905 X272.25 Y1829.962 Z-9.063 I2.85 J-0.038
N7910 X266.55 Y1830.038 Z-9.376 I-2.85 J0.038
N7915 X272.25 Y1829.962 Z-9.689 I2.85 J-0.038
N7920 X266.55 Y1830. Z-10. I-2.85 J0.038
N7925 X271.105 I2.277 J0.
N7930 X268.895 I-1.105 J0. F1000.
N7935 G1 Y2370.
N7940 G2 X271.105 I1.105 J0.
N7945 G1 Y1830.
N7950 G3 X271.852 Y1828.596 I1.694 J0.
N7955 G2 X271.813 Y1827.006 I-0.528 J-0.782
N7960 X266.5 Y1830. I-1.813 J2.994
N7965 G1 Y2370.
N7970 G2 X273.5 I3.5 J0.
N7975 G1 Y1830.
N7980 G2 X271.813 Y1827.006 I-3.5 J0.
N7985 X271.395 Y1827.407 I-0.155 J0.257
N7990 G1 X272.887 Y1830.111
N7995 G2 X273.45 Y1829.962 I0.263 J-0.145
N8000 X267.75 Y1830.038 Z-10.313 I-2.85 J0.038 F333.33
N8005 X273.45 Y1829.962 Z-10.625 I2.85 J-0.038
N8010 X267.75 Y1830.038 Z-10.938 I-2.85 J0.038
N8015 X273.45 Y1829.962 Z-11.251 I2.85 J-0.038
N8020 X267.75 Y1830.038 Z-11.563 I-2.85 J0.038
N8025 X273.45 Y1829.962 Z-11.876 I2.85 J-0.038
N8030 X267.75 Y1830.038 Z-12.189 I-2.85 J0.038
N8035 X273.45 Y1830. Z-12.5 I2.85 J-0.038
N8040 X268.895 I-2.277 J0.
N8045 G1 Y2370. F1000.
N8050 G2 X271.105 I1.105 J0.
N8055 G1 Y1830.
N8060 G2 X268.895 I-1.105 J0.
N8065 G3 X267.698 Y1831.796 I-1.946 J0.
N8070 G2 X266.5 Y1833.593 I0.748 J1.796
N8075 G1 Y2370.
N8080 G2 X273.5 I3.5 J0.
N8085 G1 Y1830.
N8090 G2 X266.5 I-3.5 J0.
N8095 G1 Y1833.593
N8100 G2 X267.1 Y1833.597 I0.3 J0.
N8105 G1 X267.15 Y1830.038
N8110 G2 X266.85 Y1829.734 I-0.3 J-0.004
N8115 X266.55 Y1830.038 I0. J0.3
N8120 X272.25 Y1829.962 Z-12.813 I2.85 J-0.038 F333.33
N8125 X266.55 Y1830.038 Z-13.125 I-2.85 J0.038
N8130 X272.25 Y1829.962 Z-13.438 I2.85 J-0.038
N8135 X266.55 Y1830.038 Z-13.751 I-2.85 J0.038
N8140 X272.25 Y1829.962 Z-14.063 I2.85 J-0.038
N8145 X266.55 Y1830.038 Z-14.376 I-2.85 J0.038
N8150 X272.25 Y1829.962 Z-14.689 I2.85 J-0.038
N8155 X266.55 Y1830. Z-15. I-2.85 J0.038
N8160 X271.105 I2.277 J0.
N8165 X268.895 I-1.105 J0. F1000.
N8170 G1 Y2370.
N8175 G2 X271.105 I1.105 J0.
N8180 G1 Y1830.
N8185 G3 X271.852 Y1828.596 I1.694 J0.
N8190 G2 X271.813 Y1827.006 I-0.528 J-0.782
N8195 X266.5 Y1830. I-1.813 J2.994
N8200 G1 Y2370.
N8205 G2 X273.5 I3.5 J0.
N8210 G1 Y1830.
N8215 G2 X271.813 Y1827.006 I-3.5 J0.
N8220 X271.395 Y1827.407 I-0.155 J0.257
N8225 G1 X272.887 Y1830.111
N8230 G2 X273.45 Y1829.962 I0.263 J-0.145
N8235 X267.75 Y1830.038 Z-15.313 I-2.85 J0.038 F333.33
N8240 X273.45 Y1829.962 Z-15.625 I2.85 J-0.038
N8245 X267.75 Y1830.038 Z-15.938 I-2.85 J0.038
N8250 X273.45 Y1829.962 Z-16.251 I2.85 J-0.038
N8255 X267.75 Y1830.038 Z-16.563 I-2.85 J0.038
N8260 X273.45 Y1829.962 Z-16.876 I2.85 J-0.038
N8265 X267.75 Y1830.038 Z-17.189 I-2.85 J0.038
N8270 X273.45 Y1830. Z-17.5 I2.85 J-0.038
N8275 X268.895 I-2.277 J0.
N8280 G1 Y2370. F1000.
N8285 G2 X271.105 I1.105 J0.
N8290 G1 Y1830.
N8295 G2 X268.895 I-1.105 J0.
N8300 G3 X267.698 Y1831.796 I-1.946 J0.
N8305 G2 X266.5 Y1833.593 I0.748 J1.796
N8310 G1 Y2370.
N8315 G2 X273.5 I3.5 J0.
N8320 G1 Y1830.
N8325 G2 X266.5 I-3.5 J0.
N8330 G1 Y1833.593
N8335 G2 X267.1 Y1833.597 I0.3 J0.
N8340 G1 X267.15 Y1830.038
N8345 G2 X266.85 Y1829.734 I-0.3 J-0.004
N8350 X266.55 Y1830.038 I0. J0.3
N8355 X272.25 Y1829.962 Z-17.813 I2.85 J-0.038 F333.33
N8360 X266.55 Y1830.038 Z-18.125 I-2.85 J0.038
N8365 X272.25 Y1829.962 Z-18.438 I2.85 J-0.038
N8370 X266.55 Y1830.038 Z-18.751 I-2.85 J0.038
N8375 X272.25 Y1829.962 Z-19.063 I2.85 J-0.038
N8380 X266.55 Y1830.038 Z-19.376 I-2.85 J0.038
N8385 X272.25 Y1829.962 Z-19.689 I2.85 J-0.038
N8390 X266.55 Y1830. Z-20. I-2.85 J0.038
N8395 X271.105 I2.277 J0.
N8400 X268.895 I-1.105 J0. F1000.
N8405 G1 Y2370.
N8410 G2 X271.105 I1.105 J0.
N8415 G1 Y1830.
N8420 G3 X271.852 Y1828.596 I1.694 J0.
N8425 G2 X271.813 Y1827.006 I-0.528 J-0.782
N8430 X266.5 Y1830. I-1.813 J2.994
N8435 G1 Y2370.
N8440 G2 X273.5 I3.5 J0.
N8445 G1 Y1830.
N8450 G2 X271.813 Y1827.006 I-3.5 J0.
N8455 X271.395 Y1827.407 I-0.155 J0.257
N8460 G1 X272.887 Y1830.111
N8465 G2 X273.45 Y1829.962 I0.263 J-0.145
N8470 X267.75 Y1830.038 Z-20.313 I-2.85 J0.038 F333.33
N8475 X273.45 Y1829.962 Z-20.625 I2.85 J-0.038
N8480 X267.75 Y1830.038 Z-20.938 I-2.85 J0.038
N8485 X273.45 Y1829.962 Z-21.251 I2.85 J-0.038
N8490 X267.75 Y1830.038 Z-21.563 I-2.85 J0.038
N8495 X273.45 Y1829.962 Z-21.876 I2.85 J-0.038
N8500 X267.75 Y1830.038 Z-22.189 I-2.85 J0.038
N8505 X273.45 Y1830. Z-22.5 I2.85 J-0.038
N8510 X268.895 I-2.277 J0.
N8515 G1 Y2370. F1000.
N8520 G2 X271.105 I1.105 J0.
N8525 G1 Y1830.
N8530 G2 X268.895 I-1.105 J0.
N8535 G3 X267.698 Y1831.796 I-1.946 J0.
N8540 G2 X266.5 Y1833.593 I0.748 J1.796
N8545 G1 Y2370.
N8550 G2 X273.5 I3.5 J0.
N8555 G1 Y1830.
N8560 G2 X266.5 I-3.5 J0.
N8565 G1 Y1833.593
N8570 G2 X267.1 Y1833.597 I0.3 J0.
N8575 G1 X267.15 Y1830.038
N8580 G2 X266.85 Y1829.734 I-0.3 J-0.004
N8585 X266.55 Y1830.038 I0. J0.3
N8590 X272.25 Y1829.962 Z-22.813 I2.85 J-0.038 F333.33
N8595 X266.55 Y1830.038 Z-23.125 I-2.85 J0.038
N8600 X272.25 Y1829.962 Z-23.438 I2.85 J-0.038
N8605 X266.55 Y1830.038 Z-23.751 I-2.85 J0.038
N8610 X272.25 Y1829.962 Z-24.063 I2.85 J-0.038
N8615 X266.55 Y1830.038 Z-24.376 I-2.85 J0.038
N8620 X272.25 Y1829.962 Z-24.689 I2.85 J-0.038
N8625 X266.55 Y1830. Z-25. I-2.85 J0.038
N8630 X271.105 I2.277 J0.
N8635 X268.895 I-1.105 J0. F1000.
N8640 G1 Y2370.
N8645 G2 X271.105 I1.105 J0.
N8650 G1 Y1830.
N8655 G3 X271.852 Y1828.596 I1.694 J0.
N8660 G2 X271.813 Y1827.006 I-0.528 J-0.782
N8665 X266.5 Y1830. I-1.813 J2.994
N8670 G1 Y2370.
N8675 G2 X273.5 I3.5 J0.
N8680 G1 Y1830.
N8685 G2 X271.813 Y1827.006 I-3.5 J0.
N8690 G1 X271.73 Y1826.964 Z-24.985 F500.
N8695 X271.642 Y1826.936 Z-24.971
N8700 X271.559 Y1826.922 Z-24.928
N8705 X271.476 Y1826.92 Z-24.885
N8710 X271.41 Y1826.926 Z-24.819
N8715 X271.345 Y1826.94 Z-24.753
N8720 X271.264 Y1826.968 Z-24.585
N8725 X271.238 Y1826.98 Z-24.4
N8730 G0 Z5.
N8735 X266.595 Y595.499
N8740 G1 Z3.1 F500.
N8745 X266.588 Y595.535 Z2.893 F333.33
N8750 X266.573 Y595.64 Z2.711
N8755 X266.557 Y595.802 Z2.577
N8760 X266.55 Y596. Z2.507
N8765 X266.551 Y596.075 Z2.5
N8770 G2 X272.249 Y595.925 Z2.187 I2.849 J-0.075
N8775 X266.551 Y596.075 Z1.875 I-2.849 J0.075
N8780 X272.249 Y595.925 Z1.562 I2.849 J-0.075
N8785 X266.551 Y596.075 Z1.249 I-2.849 J0.075
N8790 X272.249 Y595.925 Z0.937 I2.849 J-0.075
N8795 X266.551 Y596.075 Z0.624 I-2.849 J0.075
N8800 X272.249 Y595.925 Z0.311 I2.849 J-0.075
N8805 X266.551 Y596.075 Z-0.001 I-2.849 J0.075
N8810 X272.249 Y595.925 Z-0.314 I2.849 J-0.075
N8815 X266.551 Y596.075 Z-0.627 I-2.849 J0.075
N8820 X272.249 Y595.925 Z-0.939 I2.849 J-0.075
N8825 X266.551 Y596.075 Z-1.252 I-2.849 J0.075
N8830 X272.249 Y595.925 Z-1.565 I2.849 J-0.075
N8835 X266.551 Y596.075 Z-1.877 I-2.849 J0.075
N8840 X272.249 Y595.925 Z-2.19 I2.849 J-0.075
N8845 X266.55 Y596. Z-2.5 I-2.849 J0.075
N8850 X271.105 I2.277 J0.
N8855 G1 Y81. F1000.
N8860 G2 X268.895 I-1.105 J0.
N8865 G1 Y596.
N8870 G2 X271.105 I1.105 J0.
N8875 G3 X272.302 Y594.204 I1.946 J0.
N8880 G2 X273.5 Y592.407 I-0.748 J-1.796
N8885 G1 Y81.
N8890 G2 X266.5 I-3.5 J0.
N8895 G1 Y596.
N8900 G2 X273.5 I3.5 J0.
N8905 G1 Y592.407
N8910 G2 X273.265 Y592.273 I-0.156 J0.
N8915 G1 X272.631 Y592.646
N8920 X267.258 Y595.838
N8925 X267.233 Y595.85
N8930 X267.206 Y595.855
N8935 X266.665 Y595.91
N8940 X266.628 Y595.919
N8945 X266.596 Y595.939
N8950 X266.571 Y595.966
N8955 X266.555 Y596.001
N8960 X266.55 Y596.038
N8965 G2 X272.25 Y595.962 Z-2.813 I2.85 J-0.038 F333.33
N8970 X266.55 Y596.038 Z-3.125 I-2.85 J0.038
N8975 X272.25 Y595.962 Z-3.438 I2.85 J-0.038
N8980 X266.55 Y596.038 Z-3.751 I-2.85 J0.038
N8985 X272.25 Y595.962 Z-4.063 I2.85 J-0.038
N8990 X266.55 Y596.038 Z-4.376 I-2.85 J0.038
N8995 X272.25 Y595.962 Z-4.689 I2.85 J-0.038
N9000 X266.55 Y596. Z-5. I-2.85 J0.038
N9005 X271.105 I2.277 J0.
N9010 G1 Y81. F1000.
N9015 G2 X268.895 I-1.105 J0.
N9020 G1 Y596.
N9025 G2 X271.105 I1.105 J0.
N9030 G3 X272.302 Y594.204 I1.946 J0.
N9035 G2 X273.5 Y592.407 I-0.748 J-1.796
N9040 G1 Y81.
N9045 G2 X266.5 I-3.5 J0.
N9050 G1 Y596.
N9055 G2 X273.5 I3.5 J0.
N9060 G1 Y592.407
N9065 G2 X273.265 Y592.273 I-0.156 J0.
N9070 G1 X272.631 Y592.646
N9075 X267.258 Y595.838
N9080 X267.233 Y595.85
N9085 X267.206 Y595.855
N9090 X266.665 Y595.91
N9095 X266.628 Y595.919
N9100 X266.596 Y595.939
N9105 X266.571 Y595.966
N9110 X266.555 Y596.001
N9115 X266.55 Y596.038
N9120 G2 X272.25 Y595.962 Z-5.313 I2.85 J-0.038 F333.33
N9125 X266.55 Y596.038 Z-5.625 I-2.85 J0.038
N9130 X272.25 Y595.962 Z-5.938 I2.85 J-0.038
N9135 X266.55 Y596.038 Z-6.251 I-2.85 J0.038
N9140 X272.25 Y595.962 Z-6.563 I2.85 J-0.038
N9145 X266.55 Y596.038 Z-6.876 I-2.85 J0.038
N9150 X272.25 Y595.962 Z-7.189 I2.85 J-0.038
N9155 X266.55 Y596. Z-7.5 I-2.85 J0.038
N9160 X271.105 I2.277 J0.
N9165 G1 Y81. F1000.
N9170 G2 X268.895 I-1.105 J0.
N9175 G1 Y596.
N9180 G2 X271.105 I1.105 J0.
N9185 G3 X272.302 Y594.204 I1.946 J0.
N9190 G2 X273.5 Y592.407 I-0.748 J-1.796
N9195 G1 Y81.
N9200 G2 X266.5 I-3.5 J0.
N9205 G1 Y596.
N9210 G2 X273.5 I3.5 J0.
N9215 G1 Y592.407
N9220 G2 X273.265 Y592.273 I-0.156 J0.
N9225 G1 X272.631 Y592.646
N9230 X267.258 Y595.838
N9235 X267.233 Y595.85
N9240 X267.206 Y595.855
N9245 X266.665 Y595.91
N9250 X266.628 Y595.919
N9255 X266.596 Y595.939
N9260 X266.571 Y595.966
N9265 X266.555 Y596.001
N9270 X266.55 Y596.038
N9275 G2 X272.25 Y595.962 Z-7.813 I2.85 J-0.038 F333.33
N9280 X266.55 Y596.038 Z-8.125 I-2.85 J0.038
N9285 X272.25 Y595.962 Z-8.438 I2.85 J-0.038
N9290 X266.55 Y596.038 Z-8.751 I-2.85 J0.038
N9295 X272.25 Y595.962 Z-9.063 I2.85 J-0.038
N9300 X266.55 Y596.038 Z-9.376 I-2.85 J0.038
N9305 X272.25 Y595.962 Z-9.689 I2.85 J-0.038
N9310 X266.55 Y596. Z-10. I-2.85 J0.038
N9315 X271.105 I2.277 J0.
N9320 G1 Y81. F1000.
N9325 G2 X268.895 I-1.105 J0.
N9330 G1 Y596.
N9335 G2 X271.105 I1.105 J0.
N9340 G3 X272.302 Y594.204 I1.946 J0.
N9345 G2 X273.5 Y592.407 I-0.748 J-1.796
N9350 G1 Y81.
N9355 G2 X266.5 I-3.5 J0.
N9360 G1 Y596.
N9365 G2 X273.5 I3.5 J0.
N9370 G1 Y592.407
N9375 G2 X273.265 Y592.273 I-0.156 J0.
N9380 G1 X272.631 Y592.646
N9385 X267.258 Y595.838
N9390 X267.233 Y595.85
N9395 X267.206 Y595.855
N9400 X266.665 Y595.91
N9405 X266.628 Y595.919
N9410 X266.596 Y595.939
N9415 X266.571 Y595.966
N9420 X266.555 Y596.001
N9425 X266.55 Y596.038
N9430 G2 X272.25 Y595.962 Z-10.313 I2.85 J-0.038 F333.33
N9435 X266.55 Y596.038 Z-10.625 I-2.85 J0.038
N9440 X272.25 Y595.962 Z-10.938 I2.85 J-0.038
N9445 X266.55 Y596.038 Z-11.251 I-2.85 J0.038
N9450 X272.25 Y595.962 Z-11.563 I2.85 J-0.038
N9455 X266.55 Y596.038 Z-11.876 I-2.85 J0.038
N9460 X272.25 Y595.962 Z-12.189 I2.85 J-0.038
N9465 X266.55 Y596. Z-12.5 I-2.85 J0.038
N9470 X271.105 I2.277 J0.
N9475 G1 Y81. F1000.
N9480 G2 X268.895 I-1.105 J0.
N9485 G1 Y596.
N9490 G2 X271.105 I1.105 J0.
N9495 G3 X272.302 Y594.204 I1.946 J0.
N9500 G2 X273.5 Y592.407 I-0.748 J-1.796
N9505 G1 Y81.
N9510 G2 X266.5 I-3.5 J0.
N9515 G1 Y596.
N9520 G2 X273.5 I3.5 J0.
N9525 G1 Y592.407
N9530 G2 X273.265 Y592.273 I-0.156 J0.
N9535 G1 X272.631 Y592.646
N9540 X267.258 Y595.838
N9545 X267.233 Y595.85
N9550 X267.206 Y595.855
N9555 X266.665 Y595.91
N9560 X266.628 Y595.919
N9565 X266.596 Y595.939
N9570 X266.571 Y595.966
N9575 X266.555 Y596.001
N9580 X266.55 Y596.038
N9585 G2 X272.25 Y595.962 Z-12.813 I2.85 J-0.038 F333.33
N9590 X266.55 Y596.038 Z-13.125 I-2.85 J0.038
N9595 X272.25 Y595.962 Z-13.438 I2.85 J-0.038
N9600 X266.55 Y596.038 Z-13.751 I-2.85 J0.038
N9605 X272.25 Y595.962 Z-14.063 I2.85 J-0.038
N9610 X266.55 Y596.038 Z-14.376 I-2.85 J0.038
N9615 X272.25 Y595.962 Z-14.689 I2.85 J-0.038
N9620 X266.55 Y596. Z-15. I-2.85 J0.038
N9625 X271.105 I2.277 J0.
N9630 G1 Y81. F1000.
N9635 G2 X268.895 I-1.105 J0.
N9640 G1 Y596.
N9645 G2 X271.105 I1.105 J0.
N9650 G3 X272.302 Y594.204 I1.946 J0.
N9655 G2 X273.5 Y592.407 I-0.748 J-1.796
N9660 G1 Y81.
N9665 G2 X266.5 I-3.5 J0.
N9670 G1 Y596.
N9675 G2 X273.5 I3.5 J0.
N9680 G1 Y592.407
N9685 G2 X273.265 Y592.273 I-0.156 J0.
N9690 G1 X272.631 Y592.646
N9695 X267.258 Y595.838
N9700 X267.233 Y595.85
N9705 X267.206 Y595.855
N9710 X266.665 Y595.91
N9715 X266.628 Y595.919
N9720 X266.596 Y595.939
N9725 X266.571 Y595.966
N9730 X266.555 Y596.001
N9735 X266.55 Y596.038
N9740 G2 X272.25 Y595.962 Z-15.313 I2.85 J-0.038 F333.33
N9745 X266.55 Y596.038 Z-15.625 I-2.85 J0.038
N9750 X272.25 Y595.962 Z-15.938 I2.85 J-0.038
N9755 X266.55 Y596.038 Z-16.251 I-2.85 J0.038
N9760 X272.25 Y595.962 Z-16.563 I2.85 J-0.038
N9765 X266.55 Y596.038 Z-16.876 I-2.85 J0.038
N9770 X272.25 Y595.962 Z-17.189 I2.85 J-0.038
N9775 X266.55 Y596. Z-17.5 I-2.85 J0.038
N9780 X271.105 I2.277 J0.
N9785 G1 Y81. F1000.
N9790 G2 X268.895 I-1.105 J0.
N9795 G1 Y596.
N9800 G2 X271.105 I1.105 J0.
N9805 G3 X272.302 Y594.204 I1.946 J0.
N9810 G2 X273.5 Y592.407 I-0.748 J-1.796
N9815 G1 Y81.
N9820 G2 X266.5 I-3.5 J0.
N9825 G1 Y596.
N9830 G2 X273.5 I3.5 J0.
N9835 G1 Y592.407
N9840 G2 X273.265 Y592.273 I-0.156 J0.
N9845 G1 X272.631 Y592.646
N9850 X267.258 Y595.838
N9855 X267.233 Y595.85
N9860 X267.206 Y595.855
N9865 X266.665 Y595.91
N9870 X266.628 Y595.919
N9875 X266.596 Y595.939
N9880 X266.571 Y595.966
N9885 X266.555 Y596.001
N9890 X266.55 Y596.038
N9895 G2 X272.25 Y595.962 Z-17.813 I2.85 J-0.038 F333.33
N9900 X266.55 Y596.038 Z-18.125 I-2.85 J0.038
N9905 X272.25 Y595.962 Z-18.438 I2.85 J-0.038
N9910 X266.55 Y596.038 Z-18.751 I-2.85 J0.038
N9915 X272.25 Y595.962 Z-19.063 I2.85 J-0.038
N9920 X266.55 Y596.038 Z-19.376 I-2.85 J0.038
N9925 X272.25 Y595.962 Z-19.689 I2.85 J-0.038
N9930 X266.55 Y596. Z-20. I-2.85 J0.038
N9935 X271.105 I2.277 J0.
N9940 G1 Y81. F1000.
N9945 G2 X268.895 I-1.105 J0.
N9950 G1 Y596.
N9955 G2 X271.105 I1.105 J0.
N9960 G3 X272.302 Y594.204 I1.946 J0.
N9965 G2 X273.5 Y592.407 I-0.748 J-1.796
N9970 G1 Y81.
N9975 G2 X266.5 I-3.5 J0.
N9980 G1 Y596.
N9985 G2 X273.5 I3.5 J0.
N9990 G1 Y592.407
N9995 G2 X273.265 Y592.273 I-0.156 J0.
N10000 G1 X272.631 Y592.646
N10005 X267.258 Y595.838
N10010 X267.233 Y595.85
N10015 X267.206 Y595.855
N10020 X266.665 Y595.91
N10025 X266.628 Y595.919
N10030 X266.596 Y595.939
N10035 X266.571 Y595.966
N10040 X266.555 Y596.001
N10045 X266.55 Y596.038
N10050 G2 X272.25 Y595.962 Z-20.313 I2.85 J-0.038 F333.33
N10055 X266.55 Y596.038 Z-20.625 I-2.85 J0.038
N10060 X272.25 Y595.962 Z-20.938 I2.85 J-0.038
N10065 X266.55 Y596.038 Z-21.251 I-2.85 J0.038
N10070 X272.25 Y595.962 Z-21.563 I2.85 J-0.038
N10075 X266.55 Y596.038 Z-21.876 I-2.85 J0.038
N10080 X272.25 Y595.962 Z-22.189 I2.85 J-0.038
N10085 X266.55 Y596. Z-22.5 I-2.85 J0.038
N10090 X271.105 I2.277 J0.
N10095 G1 Y81. F1000.
N10100 G2 X268.895 I-1.105 J0.
N10105 G1 Y596.
N10110 G2 X271.105 I1.105 J0.
N10115 G3 X272.302 Y594.204 I1.946 J0.
N10120 G2 X273.5 Y592.407 I-0.748 J-1.796
N10125 G1 Y81.
N10130 G2 X266.5 I-3.5 J0.
N10135 G1 Y596.
N10140 G2 X273.5 I3.5 J0.
N10145 G1 Y592.407
N10150 G2 X273.265 Y592.273 I-0.156 J0.
N10155 G1 X272.631 Y592.646
N10160 X267.258 Y595.838
N10165 X267.233 Y595.85
N10170 X267.206 Y595.855
N10175 X266.665 Y595.91
N10180 X266.628 Y595.919
N10185 X266.596 Y595.939
N10190 X266.571 Y595.966
N10195 X266.555 Y596.001
N10200 X266.55 Y596.038
N10205 G2 X272.25 Y595.962 Z-22.813 I2.85 J-0.038 F333.33
N10210 X266.55 Y596.038 Z-23.125 I-2.85 J0.038
N10215 X272.25 Y595.962 Z-23.438 I2.85 J-0.038
N10220 X266.55 Y596.038 Z-23.751 I-2.85 J0.038
N10225 X272.25 Y595.962 Z-24.063 I2.85 J-0.038
N10230 X266.55 Y596.038 Z-24.376 I-2.85 J0.038
N10235 X272.25 Y595.962 Z-24.689 I2.85 J-0.038
N10240 X266.55 Y596. Z-25. I-2.85 J0.038
N10245 X271.105 I2.277 J0.
N10250 G1 Y81. F1000.
N10255 G2 X268.895 I-1.105 J0.
N10260 G1 Y596.
N10265 G2 X271.105 I1.105 J0.
N10270 G3 X272.302 Y594.204 I1.946 J0.
N10275 G2 X273.5 Y592.407 I-0.748 J-1.796
N10280 G1 Y81.
N10285 G2 X266.5 I-3.5 J0.
N10290 G1 Y596.
N10295 G2 X273.5 I3.5 J0.
N10300 G1 Y592.407
N10305 X273.493 Y592.315 Z-24.985 F500.
N10310 X273.472 Y592.225 Z-24.971
N10315 X273.441 Y592.147 Z-24.928
N10320 X273.399 Y592.075 Z-24.885
N10325 X273.36 Y592.022 Z-24.819
N10330 X273.314 Y591.973 Z-24.753
N10335 X273.249 Y591.919 Z-24.585
N10340 X273.224 Y591.903 Z-24.4
N10345 G0 Z5.
N10350 X606.595 Y595.499
N10355 G1 Z3.1 F500.
N10360 X606.588 Y595.535 Z2.893 F333.33
N10365 X606.573 Y595.64 Z2.711
N10370 X606.557 Y595.802 Z2.577
N10375 X606.55 Y596. Z2.507
N10380 X606.551 Y596.075 Z2.5
N10385 G2 X612.249 Y595.925 Z2.187 I2.849 J-0.075
N10390 X606.551 Y596.075 Z1.875 I-2.849 J0.075
N10395 X612.249 Y595.925 Z1.562 I2.849 J-0.075
N10400 X606.551 Y596.075 Z1.249 I-2.849 J0.075
N10405 X612.249 Y595.925 Z0.937 I2.849 J-0.075
N10410 X606.551 Y596.075 Z0.624 I-2.849 J0.075
N10415 X612.249 Y595.925 Z0.311 I2.849 J-0.075
N10420 X606.551 Y596.075 Z-0.001 I-2.849 J0.075
N10425 X612.249 Y595.925 Z-0.314 I2.849 J-0.075
N10430 X606.551 Y596.075 Z-0.627 I-2.849 J0.075
N10435 X612.249 Y595.925 Z-0.939 I2.849 J-0.075
N10440 X606.551 Y596.075 Z-1.252 I-2.849 J0.075
N10445 X612.249 Y595.925 Z-1.565 I2.849 J-0.075
N10450 X606.551 Y596.075 Z-1.877 I-2.849 J0.075
N10455 X612.249 Y595.925 Z-2.19 I2.849 J-0.075
N10460 X606.55 Y596. Z-2.5 I-2.849 J0.075
N10465 X611.105 I2.277 J0.
N10470 G1 Y81. F1000.
N10475 G2 X608.895 I-1.105 J0.
N10480 G1 Y596.
N10485 G2 X611.105 I1.105 J0.
N10490 G3 X612.302 Y594.204 I1.946 J0.
N10495 G2 X613.5 Y592.407 I-0.748 J-1.796
N10500 G1 Y81.
N10505 G2 X606.5 I-3.5 J0.
N10510 G1 Y596.
N10515 G2 X613.5 I3.5 J0.
N10520 G1 Y592.407
N10525 G2 X612.9 Y592.403 I-0.3 J0.
N10530 G1 X612.85 Y595.962
N10535 G2 X613.149 Y596.266 I0.3 J0.004
N10540 X613.45 Y595.962 I0. J-0.3
N10545 X607.75 Y596.038 Z-2.813 I-2.85 J0.038 F333.33
N10550 X613.45 Y595.962 Z-3.125 I2.85 J-0.038
N10555 X607.75 Y596.038 Z-3.438 I-2.85 J0.038
N10560 X613.45 Y595.962 Z-3.751 I2.85 J-0.038
N10565 X607.75 Y596.038 Z-4.063 I-2.85 J0.038
N10570 X613.45 Y595.962 Z-4.376 I2.85 J-0.038
N10575 X607.75 Y596.038 Z-4.689 I-2.85 J0.038
N10580 X613.45 Y596. Z-5. I2.85 J-0.038
N10585 X608.895 I-2.277 J0.
N10590 X611.105 I1.105 J0. F1000.
N10595 G1 Y81.
N10600 G2 X608.895 I-1.105 J0.
N10605 G1 Y596.
N10610 G3 X608.148 Y597.404 I-1.694 J0.
N10615 G2 X608.187 Y598.994 I0.528 J0.782
N10620 X613.5 Y596. I1.813 J-2.994
N10625 G1 Y81.
N10630 G2 X606.5 I-3.5 J0.
N10635 G1 Y596.
N10640 G2 X608.187 Y598.994 I3.5 J0.
N10645 X608.605 Y598.592 I0.155 J-0.257
N10650 G1 X607.113 Y595.889
N10655 G2 X606.55 Y596.038 I-0.263 J0.145
N10660 X612.25 Y595.962 Z-5.313 I2.85 J-0.038 F333.33
N10665 X606.55 Y596.038 Z-5.625 I-2.85 J0.038
N10670 X612.25 Y595.962 Z-5.938 I2.85 J-0.038
N10675 X606.55 Y596.038 Z-6.251 I-2.85 J0.038
N10680 X612.25 Y595.962 Z-6.563 I2.85 J-0.038
N10685 X606.55 Y596.038 Z-6.876 I-2.85 J0.038
N10690 X612.25 Y595.962 Z-7.189 I2.85 J-0.038
N10695 X606.55 Y596. Z-7.5 I-2.85 J0.038
N10700 X611.105 I2.277 J0.
N10705 G1 Y81. F1000.
N10710 G2 X608.895 I-1.105 J0.
N10715 G1 Y596.
N10720 G2 X611.105 I1.105 J0.
N10725 G3 X612.302 Y594.204 I1.946 J0.
N10730 G2 X613.5 Y592.407 I-0.748 J-1.796
N10735 G1 Y81.
N10740 G2 X606.5 I-3.5 J0.
N10745 G1 Y596.
N10750 G2 X613.5 I3.5 J0.
N10755 G1 Y592.407
N10760 G2 X612.9 Y592.403 I-0.3 J0.
N10765 G1 X612.85 Y595.962
N10770 G2 X613.149 Y596.266 I0.3 J0.004
N10775 X613.45 Y595.962 I0. J-0.3
N10780 X607.75 Y596.038 Z-7.813 I-2.85 J0.038 F333.33
N10785 X613.45 Y595.962 Z-8.125 I2.85 J-0.038
N10790 X607.75 Y596.038 Z-8.438 I-2.85 J0.038
N10795 X613.45 Y595.962 Z-8.751 I2.85 J-0.038
N10800 X607.75 Y596.038 Z-9.063 I-2.85 J0.038
N10805 X613.45 Y595.962 Z-9.376 I2.85 J-0.038
N10810 X607.75 Y596.038 Z-9.689 I-2.85 J0.038
N10815 X613.45 Y596. Z-10. I2.85 J-0.038
N10820 X608.895 I-2.277 J0.
N10825 X611.105 I1.105 J0. F1000.
N10830 G1 Y81.
N10835 G2 X608.895 I-1.105 J0.
N10840 G1 Y596.
N10845 G3 X608.148 Y597.404 I-1.694 J0.
N10850 G2 X608.187 Y598.994 I0.528 J0.782
N10855 X613.5 Y596. I1.813 J-2.994
N10860 G1 Y81.
N10865 G2 X606.5 I-3.5 J0.
N10870 G1 Y596.
N10875 G2 X608.187 Y598.994 I3.5 J0.
N10880 X608.605 Y598.592 I0.155 J-0.257
N10885 G1 X607.113 Y595.889
N10890 G2 X606.55 Y596.038 I-0.263 J0.145
N10895 X612.25 Y595.962 Z-10.313 I2.85 J-0.038 F333.33
N10900 X606.55 Y596.038 Z-10.625 I-2.85 J0.038
N10905 X612.25 Y595.962 Z-10.938 I2.85 J-0.038
N10910 X606.55 Y596.038 Z-11.251 I-2.85 J0.038
N10915 X612.25 Y595.962 Z-11.563 I2.85 J-0.038
N10920 X606.55 Y596.038 Z-11.876 I-2.85 J0.038
N10925 X612.25 Y595.962 Z-12.189 I2.85 J-0.038
N10930 X606.55 Y596. Z-12.5 I-2.85 J0.038
N10935 X611.105 I2.277 J0.
N10940 G1 Y81. F1000.
N10945 G2 X608.895 I-1.105 J0.
N10950 G1 Y596.
N10955 G2 X611.105 I1.105 J0.
N10960 G3 X612.302 Y594.204 I1.946 J0.
N10965 G2 X613.5 Y592.407 I-0.748 J-1.796
N10970 G1 Y81.
N10975 G2 X606.5 I-3.5 J0.
N10980 G1 Y596.
N10985 G2 X613.5 I3.5 J0.
N10990 G1 Y592.407
N10995 G2 X612.9 Y592.403 I-0.3 J0.
N11000 G1 X612.85 Y595.962
N11005 G2 X613.149 Y596.266 I0.3 J0.004
N11010 X613.45 Y595.962 I0. J-0.3
N11015 X607.75 Y596.038 Z-12.813 I-2.85 J0.038 F333.33
N11020 X613.45 Y595.962 Z-13.125 I2.85 J-0.038
N11025 X607.75 Y596.038 Z-13.438 I-2.85 J0.038
N11030 X613.45 Y595.962 Z-13.751 I2.85 J-0.038
N11035 X607.75 Y596.038 Z-14.063 I-2.85 J0.038
N11040 X613.45 Y595.962 Z-14.376 I2.85 J-0.038
N11045 X607.75 Y596.038 Z-14.689 I-2.85 J0.038
N11050 X613.45 Y596. Z-15. I2.85 J-0.038
N11055 X608.895 I-2.277 J0.
N11060 X611.105 I1.105 J0. F1000.
N11065 G1 Y81.
N11070 G2 X608.895 I-1.105 J0.
N11075 G1 Y596.
N11080 G3 X608.148 Y597.404 I-1.694 J0.
N11085 G2 X608.187 Y598.994 I0.528 J0.782
N11090 X613.5 Y596. I1.813 J-2.994
N11095 G1 Y81.
N11100 G2 X606.5 I-3.5 J0.
N11105 G1 Y596.
N11110 G2 X608.187 Y598.994 I3.5 J0.
N11115 X608.605 Y598.592 I0.155 J-0.257
N11120 G1 X607.113 Y595.889
N11125 G2 X606.55 Y596.038 I-0.263 J0.145
N11130 X612.25 Y595.962 Z-15.313 I2.85 J-0.038 F333.33
N11135 X606.55 Y596.038 Z-15.625 I-2.85 J0.038
N11140 X612.25 Y595.962 Z-15.938 I2.85 J-0.038
N11145 X606.55 Y596.038 Z-16.251 I-2.85 J0.038
N11150 X612.25 Y595.962 Z-16.563 I2.85 J-0.038
N11155 X606.55 Y596.038 Z-16.876 I-2.85 J0.038
N11160 X612.25 Y595.962 Z-17.189 I2.85 J-0.038
N11165 X606.55 Y596. Z-17.5 I-2.85 J0.038
N11170 X611.105 I2.277 J0.
N11175 G1 Y81. F1000.
N11180 G2 X608.895 I-1.105 J0.
N11185 G1 Y596.
N11190 G2 X611.105 I1.105 J0.
N11195 G3 X612.302 Y594.204 I1.946 J0.
N11200 G2 X613.5 Y592.407 I-0.748 J-1.796
N11205 G1 Y81.
N11210 G2 X606.5 I-3.5 J0.
N11215 G1 Y596.
N11220 G2 X613.5 I3.5 J0.
N11225 G1 Y592.407
N11230 G2 X612.9 Y592.403 I-0.3 J0.
N11235 G1 X612.85 Y595.962
N11240 G2 X613.149 Y596.266 I0.3 J0.004
N11245 X613.45 Y595.962 I0. J-0.3
N11250 X607.75 Y596.038 Z-17.813 I-2.85 J0.038 F333.33
N11255 X613.45 Y595.962 Z-18.125 I2.85 J-0.038
N11260 X607.75 Y596.038 Z-18.438 I-2.85 J0.038
N11265 X613.45 Y595.962 Z-18.751 I2.85 J-0.038
N11270 X607.75 Y596.038 Z-19.063 I-2.85 J0.038
N11275 X613.45 Y595.962 Z-19.376 I2.85 J-0.038
N11280 X607.75 Y596.038 Z-19.689 I-2.85 J0.038
N11285 X613.45 Y596. Z-20. I2.85 J-0.038
N11290 X608.895 I-2.277 J0.
N11295 X611.105 I1.105 J0. F1000.
N11300 G1 Y81.
N11305 G2 X608.895 I-1.105 J0.
N11310 G1 Y596.
N11315 G3 X608.148 Y597.404 I-1.694 J0.
N11320 G2 X608.187 Y598.994 I0.528 J0.782
N11325 X613.5 Y596. I1.813 J-2.994
N11330 G1 Y81.
N11335 G2 X606.5 I-3.5 J0.
N11340 G1 Y596.
N11345 G2 X608.187 Y598.994 I3.5 J0.
N11350 X608.605 Y598.592 I0.155 J-0.257
N11355 G1 X607.113 Y595.889
N11360 G2 X606.55 Y596.038 I-0.263 J0.145
N11365 X612.25 Y595.962 Z-20.313 I2.85 J-0.038 F333.33
N11370 X606.55 Y596.038 Z-20.625 I-2.85 J0.038
N11375 X612.25 Y595.962 Z-20.938 I2.85 J-0.038
N11380 X606.55 Y596.038 Z-21.251 I-2.85 J0.038
N11385 X612.25 Y595.962 Z-21.563 I2.85 J-0.038
N11390 X606.55 Y596.038 Z-21.876 I-2.85 J0.038
N11395 X612.25 Y595.962 Z-22.189 I2.85 J-0.038
N11400 X606.55 Y596. Z-22.5 I-2.85 J0.038
N11405 X611.105 I2.277 J0.
N11410 G1 Y81. F1000.
N11415 G2 X608.895 I-1.105 J0.
N11420 G1 Y596.
N11425 G2 X611.105 I1.105 J0.
N11430 G3 X612.302 Y594.204 I1.946 J0.
N11435 G2 X613.5 Y592.407 I-0.748 J-1.796
N11440 G1 Y81.
N11445 G2 X606.5 I-3.5 J0.
N11450 G1 Y596.
N11455 G2 X613.5 I3.5 J0.
N11460 G1 Y592.407
N11465 G2 X612.9 Y592.403 I-0.3 J0.
N11470 G1 X612.85 Y595.962
N11475 G2 X613.149 Y596.266 I0.3 J0.004
N11480 X613.45 Y595.962 I0. J-0.3
N11485 X607.75 Y596.038 Z-22.813 I-2.85 J0.038 F333.33
N11490 X613.45 Y595.962 Z-23.125 I2.85 J-0.038
N11495 X607.75 Y596.038 Z-23.438 I-2.85 J0.038
N11500 X613.45 Y595.962 Z-23.751 I2.85 J-0.038
N11505 X607.75 Y596.038 Z-24.063 I-2.85 J0.038
N11510 X613.45 Y595.962 Z-24.376 I2.85 J-0.038
N11515 X607.75 Y596.038 Z-24.689 I-2.85 J0.038
N11520 X613.45 Y596. Z-25. I2.85 J-0.038
N11525 X608.895 I-2.277 J0.
N11530 X611.105 I1.105 J0. F1000.
N11535 G1 Y81.
N11540 G2 X608.895 I-1.105 J0.
N11545 G1 Y596.
N11550 G3 X608.148 Y597.404 I-1.694 J0.
N11555 G2 X608.187 Y598.994 I0.528 J0.782
N11560 X613.5 Y596. I1.813 J-2.994
N11565 G1 Y81.
N11570 G2 X606.5 I-3.5 J0.
N11575 G1 Y596.
N11580 G2 X608.187 Y598.994 I3.5 J0.
N11585 G1 X608.27 Y599.036 Z-24.985 F500.
N11590 X608.358 Y599.064 Z-24.971
N11595 X608.441 Y599.078 Z-24.928
N11600 X608.524 Y599.08 Z-24.885
N11605 X608.59 Y599.074 Z-24.819
N11610 X608.655 Y599.06 Z-24.753
N11615 X608.735 Y599.032 Z-24.585
N11620 X608.762 Y599.02 Z-24.4
N11625 G0 Z15.
N11630 G53 Z0.
N11635 M30
%
