%
(1001)
(T3  D=5. CR=0. TAPER=118DEG - ZMIN=-15. - DRILL)
N10 G90 G94 G17 G91.1
N15 G21
N20 G53 G0 Z0.
(DRILL2)
N25 M9
N30 T3 M6
N35 S12000 M3
N40 G54
N45 G0 X150. Y25.
N50 G43 Z15. H3
N55 G0 Z5.
N60 G98 G81 X150. Y25. Z-15. R5. F150.
N65 Y50.
N70 Y75.
N75 Y100.
N80 Y125.
N85 Y150.
N90 Y175.
N95 X125.
N100 X100.
N105 X75.
N110 X50.
N115 X25.
N120 X73.518 Y448.172
N125 X228.012 Y437.172
N130 X227.614 Y592.057
N135 G80
N140 G0 Z15.
N145 G53 Z0.
N150 M30
%
