%
(DRILL)
(T3  D=3. CR=0. TAPER=118DEG - ZMIN=-17.401 - DRILL)
N10 G90 G94 G17 G91.1
N15 G21
N20 G53 G0 Z0.
(DRILL1)
N25 M9
N30 T3 M6
N35 S12000 M3
N40 G54
N45 G0 X132.21 Y210.4
N50 G43 Z15. H3
N55 G0 Z5.
N60 G98 G81 X132.21 Y210.4 Z-17.401 R-7. F50.
N65 X17.25
N70 Y53.5
N75 X132.21
N80 G80
N85 G0 Z15.
N90 G53 Z0.
N95 M30
%
