(Exported by FreeCAD)
(Post Processor: linuxcnc_post)
(Output Time:2019-06-12 12:19:56.675254)
(begin preamble)
G17 G54 G40 G49 G80 G90
G21
(begin operation: T1: 6mm end mill002)
(machine: not set, mm/min)
(T1: 6mm end mill002)
M6 T1
M3 S18000
(finish operation: T1: 6mm end mill002)
(begin operation: TagDressup006)
(machine: not set, mm/min)
G0 Z15.000
G0 X279.170 Y129.145 Z15.000
G0 X279.170 Y129.145 Z10.000
G1 X279.170 Y129.145 Z0.000 F600.000
G2 X282.998 Y120.033 Z0.000 I-9.246 J-9.244 F600.000
G1 X283.001 Y15.482 Z0.000 F600.000
G2 X264.644 Y-2.980 Z0.000 I-18.465 J0.003 F600.000
G1 X200.022 Y-2.982 Z-0.000 F600.000
G2 X197.022 Y0.018 Z-0.000 I0.000 J3.000 F600.000
G1 X197.022 Y19.998 Z-0.000 F600.000
G2 X200.022 Y22.998 Z-0.000 I3.000 J-0.000 F600.000
G1 X248.266 Y22.998 Z0.000 F600.000
G3 X256.009 Y30.741 Z0.000 I0.055 J7.688 F600.000
G1 X256.009 Y98.618 Z0.000 F600.000
G3 X247.672 Y106.955 Z0.000 I-8.282 J0.055 F600.000
G1 X200.022 Y106.955 Z-0.000 F600.000
G2 X197.022 Y109.955 Z-0.000 I0.000 J3.000 F600.000
G1 X197.022 Y129.975 Z-0.000 F600.000
G2 X200.022 Y132.975 Z-0.000 I3.000 J-0.000 F600.000
G1 X269.928 Y132.975 Z0.000 F600.000
G2 X279.170 Y129.145 Z0.000 I-0.004 J-13.074 F600.000
G1 X279.170 Y129.145 Z-2.000 F600.000
G2 X282.998 Y120.033 Z-2.000 I-9.246 J-9.244 F600.000
G1 X283.001 Y15.482 Z-2.000 F600.000
G2 X264.644 Y-2.980 Z-2.000 I-18.465 J0.003 F600.000
G1 X200.022 Y-2.982 Z-2.000 F600.000
G2 X197.022 Y0.018 Z-2.000 I0.000 J3.000 F600.000
G1 X197.022 Y19.998 Z-2.000 F600.000
G2 X200.022 Y22.998 Z-2.000 I3.000 J-0.000 F600.000
G1 X248.266 Y22.998 Z-2.000 F600.000
G3 X256.009 Y30.741 Z-2.000 I0.055 J7.688 F600.000
G1 X256.009 Y98.618 Z-2.000 F600.000
G3 X247.672 Y106.955 Z-2.000 I-8.282 J0.055 F600.000
G1 X200.022 Y106.955 Z-2.000 F600.000
G2 X197.022 Y109.955 Z-2.000 I0.000 J3.000 F600.000
G1 X197.022 Y129.975 Z-2.000 F600.000
G2 X200.022 Y132.975 Z-2.000 I3.000 J-0.000 F600.000
G1 X269.928 Y132.975 Z-2.000 F600.000
G2 X279.170 Y129.145 Z-2.000 I-0.004 J-13.074 F600.000
G1 X279.170 Y129.145 Z-4.000 F600.000
G2 X282.998 Y120.033 Z-4.000 I-9.246 J-9.244 F600.000
G1 X283.001 Y15.482 Z-4.000 F600.000
G2 X264.644 Y-2.980 Z-4.000 I-18.465 J0.003 F600.000
G1 X200.022 Y-2.982 Z-4.000 F600.000
G2 X197.022 Y0.018 Z-4.000 I0.000 J3.000 F600.000
G1 X197.022 Y19.998 Z-4.000 F600.000
G2 X200.022 Y22.998 Z-4.000 I3.000 J-0.000 F600.000
G1 X248.266 Y22.998 Z-4.000 F600.000
G3 X256.009 Y30.741 Z-4.000 I0.055 J7.688 F600.000
G1 X256.009 Y98.618 Z-4.000 F600.000
G3 X247.672 Y106.955 Z-4.000 I-8.282 J0.055 F600.000
G1 X200.022 Y106.955 Z-4.000 F600.000
G2 X197.022 Y109.955 Z-4.000 I0.000 J3.000 F600.000
G1 X197.022 Y129.975 Z-4.000 F600.000
G2 X200.022 Y132.975 Z-4.000 I3.000 J-0.000 F600.000
G1 X269.928 Y132.975 Z-4.000 F600.000
G2 X279.170 Y129.145 Z-4.000 I-0.004 J-13.074 F600.000
G1 X279.170 Y129.145 Z-6.000 F600.000
G2 X282.998 Y120.033 Z-6.000 I-9.246 J-9.244 F600.000
G1 X283.001 Y15.482 Z-6.000 F600.000
G2 X264.644 Y-2.980 Z-6.000 I-18.465 J0.003 F600.000
G1 X200.022 Y-2.982 Z-6.000 F600.000
G2 X197.022 Y0.018 Z-6.000 I0.000 J3.000 F600.000
G1 X197.022 Y19.998 Z-6.000 F600.000
G2 X200.022 Y22.998 Z-6.000 I3.000 J-0.000 F600.000
G1 X248.266 Y22.998 Z-6.000 F600.000
G3 X256.009 Y30.741 Z-6.000 I0.055 J7.688 F600.000
G1 X256.009 Y98.618 Z-6.000 F600.000
G3 X247.672 Y106.955 Z-6.000 I-8.282 J0.055 F600.000
G1 X200.022 Y106.955 Z-6.000 F600.000
G2 X197.022 Y109.955 Z-6.000 I0.000 J3.000 F600.000
G1 X197.022 Y129.975 Z-6.000 F600.000
G2 X200.022 Y132.975 Z-6.000 I3.000 J-0.000 F600.000
G1 X269.928 Y132.975 Z-6.000 F600.000
G2 X279.170 Y129.145 Z-6.000 I-0.004 J-13.074 F600.000
G1 X279.170 Y129.145 Z-8.000 F600.000
G2 X282.998 Y120.033 Z-8.000 I-9.246 J-9.244 F600.000
G1 X283.001 Y15.482 Z-8.000 F600.000
G2 X264.644 Y-2.980 Z-8.000 I-18.465 J0.003 F600.000
G1 X200.022 Y-2.982 Z-8.000 F600.000
G2 X197.022 Y0.018 Z-8.000 I0.000 J3.000 F600.000
G1 X197.022 Y19.998 Z-8.000 F600.000
G2 X200.022 Y22.998 Z-8.000 I3.000 J-0.000 F600.000
G1 X248.266 Y22.998 Z-8.000 F600.000
G3 X256.009 Y30.741 Z-8.000 I0.055 J7.688 F600.000
G1 X256.009 Y98.618 Z-8.000 F600.000
G3 X247.672 Y106.955 Z-8.000 I-8.282 J0.055 F600.000
G1 X200.022 Y106.955 Z-8.000 F600.000
G2 X197.022 Y109.955 Z-8.000 I0.000 J3.000 F600.000
G1 X197.022 Y129.975 Z-8.000 F600.000
G2 X200.022 Y132.975 Z-8.000 I3.000 J-0.000 F600.000
G1 X269.928 Y132.975 Z-8.000 F600.000
G2 X279.170 Y129.145 Z-8.000 I-0.004 J-13.074 F600.000
G1 X279.170 Y129.145 Z-10.000 F600.000
G2 X282.998 Y120.033 Z-10.000 I-9.246 J-9.244 F600.000
G1 X283.001 Y15.482 Z-10.000 F600.000
G2 X264.644 Y-2.980 Z-10.000 I-18.465 J0.003 F600.000
G1 X200.022 Y-2.982 Z-10.000 F600.000
G2 X197.022 Y0.018 Z-10.000 I0.000 J3.000 F600.000
G1 X197.022 Y19.998 Z-10.000 F600.000
G2 X200.022 Y22.998 Z-10.000 I3.000 J-0.000 F600.000
G1 X248.266 Y22.998 Z-10.000 F600.000
G3 X256.009 Y30.741 Z-10.000 I0.055 J7.688 F600.000
G1 X256.009 Y98.618 Z-10.000 F600.000
G3 X247.672 Y106.955 Z-10.000 I-8.282 J0.055 F600.000
G1 X200.022 Y106.955 Z-10.000 F600.000
G2 X197.022 Y109.955 Z-10.000 I0.000 J3.000 F600.000
G1 X197.022 Y129.975 Z-10.000 F600.000
G2 X200.022 Y132.975 Z-10.000 I3.000 J-0.000 F600.000
G1 X269.928 Y132.975 Z-10.000 F600.000
G2 X279.170 Y129.145 Z-10.000 I-0.004 J-13.074 F600.000
G1 X279.170 Y129.145 Z-12.000 F600.000
G2 X282.998 Y120.033 Z-12.000 I-9.246 J-9.244 F600.000
G1 X283.001 Y15.482 Z-12.000 F600.000
G2 X264.644 Y-2.980 Z-12.000 I-18.465 J0.003 F600.000
G1 X200.022 Y-2.982 Z-12.000 F600.000
G2 X197.022 Y0.018 Z-12.000 I0.000 J3.000 F600.000
G1 X197.022 Y19.998 Z-12.000 F600.000
G2 X200.022 Y22.998 Z-12.000 I3.000 J-0.000 F600.000
G1 X248.266 Y22.998 Z-12.000 F600.000
G3 X256.009 Y30.741 Z-12.000 I0.055 J7.688 F600.000
G1 X256.009 Y98.618 Z-12.000 F600.000
G3 X247.672 Y106.955 Z-12.000 I-8.282 J0.055 F600.000
G1 X200.022 Y106.955 Z-12.000 F600.000
G2 X197.022 Y109.955 Z-12.000 I0.000 J3.000 F600.000
G1 X197.022 Y129.975 Z-12.000 F600.000
G2 X200.022 Y132.975 Z-12.000 I3.000 J-0.000 F600.000
G1 X269.928 Y132.975 Z-12.000 F600.000
G2 X279.170 Y129.145 Z-12.000 I-0.004 J-13.074 F600.000
G1 X279.170 Y129.145 Z-14.000 F600.000
G2 X282.998 Y120.033 Z-14.000 I-9.246 J-9.244 F600.000
G1 X283.001 Y15.482 Z-14.000 F600.000
G2 X264.644 Y-2.980 Z-14.000 I-18.465 J0.003 F600.000
G1 X200.022 Y-2.982 Z-14.000 F600.000
G2 X197.022 Y0.018 Z-14.000 I0.000 J3.000 F600.000
G1 X197.022 Y19.998 Z-14.000 F600.000
G2 X200.022 Y22.998 Z-14.000 I3.000 J-0.000 F600.000
G1 X248.266 Y22.998 Z-14.000 F600.000
G3 X256.009 Y30.741 Z-14.000 I0.055 J7.688 F600.000
G1 X256.009 Y98.618 Z-14.000 F600.000
G3 X247.672 Y106.955 Z-14.000 I-8.282 J0.055 F600.000
G1 X200.022 Y106.955 Z-14.000 F600.000
G2 X197.022 Y109.955 Z-14.000 I0.000 J3.000 F600.000
G1 X197.022 Y129.975 Z-14.000 F600.000
G2 X200.022 Y132.975 Z-14.000 I3.000 J-0.000 F600.000
G1 X269.928 Y132.975 Z-14.000 F600.000
G2 X279.170 Y129.145 Z-14.000 I-0.004 J-13.074 F600.000
G1 X279.170 Y129.145 Z-16.000 F600.000
G2 X282.998 Y120.033 Z-16.000 I-9.246 J-9.244 F600.000
G1 X283.001 Y15.482 Z-16.000 F600.000
G2 X264.644 Y-2.980 Z-16.000 I-18.465 J0.003 F600.000
G1 X200.022 Y-2.982 Z-16.000 F600.000
G2 X197.022 Y0.018 Z-16.000 I0.000 J3.000 F600.000
G1 X197.022 Y19.998 Z-16.000 F600.000
G2 X200.022 Y22.998 Z-16.000 I3.000 J-0.000 F600.000
G1 X248.266 Y22.998 Z-16.000 F600.000
G3 X256.009 Y30.741 Z-16.000 I0.055 J7.688 F600.000
G1 X256.009 Y98.618 Z-16.000 F600.000
G3 X247.672 Y106.955 Z-16.000 I-8.282 J0.055 F600.000
G1 X200.022 Y106.955 Z-16.000 F600.000
G2 X197.022 Y109.955 Z-16.000 I0.000 J3.000 F600.000
G1 X197.022 Y129.975 Z-16.000 F600.000
G2 X200.022 Y132.975 Z-16.000 I3.000 J-0.000 F600.000
G1 X269.928 Y132.975 Z-16.000 F600.000
G2 X279.170 Y129.145 Z-16.000 I-0.004 J-13.074 F600.000
G1 X279.170 Y129.145 Z-18.000 F600.000
G2 X282.998 Y120.033 Z-18.000 I-9.246 J-9.244 F600.000
G1 X283.001 Y15.482 Z-18.000 F600.000
G2 X264.644 Y-2.980 Z-18.000 I-18.465 J0.003 F600.000
G1 X200.022 Y-2.982 Z-18.000 F600.000
G2 X197.022 Y0.018 Z-18.000 I0.000 J3.000 F600.000
G1 X197.022 Y19.998 Z-18.000 F600.000
G2 X200.022 Y22.998 Z-18.000 I3.000 J-0.000 F600.000
G1 X248.266 Y22.998 Z-18.000 F600.000
G3 X256.009 Y30.741 Z-18.000 I0.055 J7.688 F600.000
G1 X256.009 Y98.618 Z-18.000 F600.000
G3 X247.672 Y106.955 Z-18.000 I-8.282 J0.055 F600.000
G1 X200.022 Y106.955 Z-18.000 F600.000
G2 X197.022 Y109.955 Z-18.000 I0.000 J3.000 F600.000
G1 X197.022 Y129.975 Z-18.000 F600.000
G2 X200.022 Y132.975 Z-18.000 I3.000 J-0.000 F600.000
G1 X269.928 Y132.975 Z-18.000 F600.000
G2 X279.170 Y129.145 Z-18.000 I-0.004 J-13.074 F600.000
G1 X279.170 Y129.145 Z-20.000 F600.000
G2 X282.998 Y120.033 Z-20.000 I-9.246 J-9.244 F600.000
G1 X282.999 Y80.928 Z-20.000 F600.000
G1 X282.999 Y80.228 Z-19.300 F600.000
G1 X282.999 Y55.288 Z-19.300 F600.000
G1 X283.000 Y54.588 Z-20.000 F600.000
G1 X283.001 Y15.482 Z-20.000 F600.000
G2 X264.644 Y-2.980 Z-20.000 I-18.465 J0.003 F600.000
G1 X245.503 Y-2.980 Z-20.000 F600.000
G1 X244.803 Y-2.980 Z-19.300 F600.000
G1 X219.863 Y-2.981 Z-19.300 F600.000
G1 X219.163 Y-2.981 Z-20.000 F600.000
G1 X200.022 Y-2.982 Z-20.000 F600.000
G2 X197.022 Y0.018 Z-20.000 I0.000 J3.000 F600.000
G1 X197.022 Y19.998 Z-20.000 F600.000
G2 X200.022 Y22.998 Z-20.000 I3.000 J-0.000 F600.000
G1 X248.266 Y22.998 Z-20.000 F600.000
G3 X256.009 Y30.741 Z-20.000 I0.055 J7.688 F600.000
G1 X256.009 Y51.509 Z-20.000 F600.000
G1 X256.009 Y52.209 Z-19.300 F600.000
G1 X256.009 Y77.149 Z-19.300 F600.000
G1 X256.009 Y77.849 Z-20.000 F600.000
G1 X256.009 Y98.618 Z-20.000 F600.000
G3 X247.672 Y106.955 Z-20.000 I-8.282 J0.055 F600.000
G1 X200.022 Y106.955 Z-20.000 F600.000
G2 X197.022 Y109.955 Z-20.000 I0.000 J3.000 F600.000
G1 X197.022 Y129.975 Z-20.000 F600.000
G2 X200.022 Y132.975 Z-20.000 I3.000 J-0.000 F600.000
G1 X221.805 Y132.975 Z-20.000 F600.000
G1 X222.505 Y132.975 Z-19.300 F600.000
G1 X247.445 Y132.975 Z-19.300 F600.000
G1 X248.145 Y132.975 Z-20.000 F600.000
G1 X269.928 Y132.975 Z-20.000 F600.000
G2 X279.170 Y129.145 Z-20.000 I-0.004 J-13.074 F600.000
G1 X279.170 Y129.145 Z-22.000 F600.000
G2 X282.998 Y120.033 Z-22.000 I-9.246 J-9.244 F600.000
G1 X282.999 Y82.928 Z-22.000 F600.000
G1 X282.999 Y80.228 Z-19.300 F600.000
G1 X282.999 Y55.288 Z-19.300 F600.000
G1 X283.000 Y52.588 Z-22.000 F600.000
G1 X283.001 Y15.482 Z-22.000 F600.000
G2 X264.644 Y-2.980 Z-22.000 I-18.465 J0.003 F600.000
G1 X247.503 Y-2.980 Z-22.000 F600.000
G1 X244.803 Y-2.980 Z-19.300 F600.000
G1 X219.863 Y-2.981 Z-19.300 F600.000
G1 X217.163 Y-2.981 Z-22.000 F600.000
G1 X200.022 Y-2.982 Z-22.000 F600.000
G2 X197.022 Y0.018 Z-22.000 I0.000 J3.000 F600.000
G1 X197.022 Y19.998 Z-22.000 F600.000
G2 X200.022 Y22.998 Z-22.000 I3.000 J-0.000 F600.000
G1 X248.266 Y22.998 Z-22.000 F600.000
G3 X256.009 Y30.741 Z-22.000 I0.055 J7.688 F600.000
G1 X256.009 Y49.509 Z-22.000 F600.000
G1 X256.009 Y52.209 Z-19.300 F600.000
G1 X256.009 Y77.149 Z-19.300 F600.000
G1 X256.009 Y79.849 Z-22.000 F600.000
G1 X256.009 Y98.618 Z-22.000 F600.000
G3 X247.672 Y106.955 Z-22.000 I-8.282 J0.055 F600.000
G1 X200.022 Y106.955 Z-22.000 F600.000
G2 X197.022 Y109.955 Z-22.000 I0.000 J3.000 F600.000
G1 X197.022 Y129.975 Z-22.000 F600.000
G2 X200.022 Y132.975 Z-22.000 I3.000 J-0.000 F600.000
G1 X219.805 Y132.975 Z-22.000 F600.000
G1 X222.505 Y132.975 Z-19.300 F600.000
G1 X247.445 Y132.975 Z-19.300 F600.000
G1 X250.145 Y132.975 Z-22.000 F600.000
G1 X269.928 Y132.975 Z-22.000 F600.000
G2 X279.170 Y129.145 Z-22.000 I-0.004 J-13.074 F600.000
G1 X279.170 Y129.145 Z-22.300 F600.000
G2 X282.998 Y120.033 Z-22.300 I-9.246 J-9.244 F600.000
G1 X282.999 Y83.228 Z-22.300 F600.000
G1 X282.999 Y80.228 Z-19.300 F600.000
G1 X282.999 Y55.288 Z-19.300 F600.000
G1 X283.000 Y52.288 Z-22.300 F600.000
G1 X283.001 Y15.482 Z-22.300 F600.000
G2 X264.644 Y-2.980 Z-22.300 I-18.465 J0.003 F600.000
G1 X247.803 Y-2.980 Z-22.300 F600.000
G1 X244.803 Y-2.980 Z-19.300 F600.000
G1 X219.863 Y-2.981 Z-19.300 F600.000
G1 X216.863 Y-2.981 Z-22.300 F600.000
G1 X200.022 Y-2.982 Z-22.300 F600.000
G2 X197.022 Y0.018 Z-22.300 I0.000 J3.000 F600.000
G1 X197.022 Y19.998 Z-22.300 F600.000
G2 X200.022 Y22.998 Z-22.300 I3.000 J-0.000 F600.000
G1 X248.266 Y22.998 Z-22.300 F600.000
G3 X256.009 Y30.741 Z-22.300 I0.055 J7.688 F600.000
G1 X256.009 Y49.209 Z-22.300 F600.000
G1 X256.009 Y52.209 Z-19.300 F600.000
G1 X256.009 Y77.149 Z-19.300 F600.000
G1 X256.009 Y80.149 Z-22.300 F600.000
G1 X256.009 Y98.618 Z-22.300 F600.000
G3 X247.672 Y106.955 Z-22.300 I-8.282 J0.055 F600.000
G1 X200.022 Y106.955 Z-22.300 F600.000
G2 X197.022 Y109.955 Z-22.300 I0.000 J3.000 F600.000
G1 X197.022 Y129.975 Z-22.300 F600.000
G2 X200.022 Y132.975 Z-22.300 I3.000 J-0.000 F600.000
G1 X219.505 Y132.975 Z-22.300 F600.000
G1 X222.505 Y132.975 Z-19.300 F600.000
G1 X247.445 Y132.975 Z-19.300 F600.000
G1 X250.445 Y132.975 Z-22.300 F600.000
G1 X269.928 Y132.975 Z-22.300 F600.000
G2 X279.170 Y129.145 Z-22.300 I-0.004 J-13.074 F600.000
G0 X279.170 Y129.145 Z15.000
(finish operation: TagDressup006)
(begin postamble)
M05
G17 G54 G90 G80 G40
M2
