%
(MARCUS_IS_GAY)
(T1  D=6. CR=0. - ZMIN=-22.5 - FLAT END MILL)
N10 G90 G94 G17 G91.1
N15 G21
N20 G53 G0 Z0.
(2D POCKET1)
N25 M9
N30 T1 M6
N35 S22000 M3
N40 G54
N45 M8
N50 G0 X100.001 Y143.306
N55 G43 Z15. H1
N60 G0 Z5.
N65 G1 Z3.1 F400.
N70 X99.965 Y143.312 Z2.893 F200.
N75 X99.86 Y143.327 Z2.711
N80 X99.698 Y143.343 Z2.577
N85 X99.5 Y143.35 Z2.507
N90 X99.425 Y143.349 Z2.5
N95 G3 X99.575 Y137.651 Z2.187 I0.075 J-2.849
N100 X99.425 Y143.349 Z1.875 I-0.075 J2.849
N105 X99.575 Y137.651 Z1.562 I0.075 J-2.849
N110 X99.425 Y143.349 Z1.249 I-0.075 J2.849
N115 X99.575 Y137.651 Z0.937 I0.075 J-2.849
N120 X99.425 Y143.349 Z0.624 I-0.075 J2.849
N125 X99.575 Y137.651 Z0.311 I0.075 J-2.849
N130 X99.425 Y143.349 Z-0.001 I-0.075 J2.849
N135 X99.575 Y137.651 Z-0.314 I0.075 J-2.849
N140 X99.425 Y143.349 Z-0.627 I-0.075 J2.849
N145 X99.575 Y137.651 Z-0.939 I0.075 J-2.849
N150 X99.425 Y143.349 Z-1.252 I-0.075 J2.849
N155 X99.575 Y137.651 Z-1.565 I0.075 J-2.849
N160 X99.425 Y143.349 Z-1.877 I-0.075 J2.849
N165 X99.575 Y137.651 Z-2.19 I0.075 J-2.849
N170 X99.5 Y143.35 Z-2.5 I-0.075 J2.849
N175 G1 X82.469 F1200.
N180 G3 X82.15 Y143.031 I0. J-0.319
N185 G1 Y140.969
N190 G3 X82.469 Y140.65 I0.319 J0.
N195 G1 X100.531
N200 G3 X100.85 Y140.969 I0. J0.319
N205 G1 Y143.031
N210 G3 X100.531 Y143.35 I-0.319 J0.
N215 G1 X99.5
N220 G2 X97.436 Y144.726 I0. J2.236
N225 G3 X95.373 Y146.102 I-2.064 J-0.86
N230 G1 X79.718
N235 G3 X79.398 Y145.782 I0. J-0.319
N240 G1 Y138.218
N245 G3 X79.718 Y137.898 I0.319 J0.
N250 G1 X103.282
N255 G3 X103.602 Y138.218 I0. J0.319
N260 G1 Y145.782
N265 G3 X103.282 Y146.102 I-0.319 J0.
N270 G1 X95.373
N275 G2 X91.699 Y148.551 I0. J3.98
N280 G3 X88.025 Y151. I-3.674 J-1.531
N285 G1 X74.5
N290 Y133.
N295 X108.5
N300 Y151.
N305 X88.025
N310 G3 X87.791 Y150.512 I0. J-0.3
N315 G1 X89.83 Y147.973
N320 X89.875 Y147.929
N325 X89.928 Y147.894
N330 X99.181 Y143.175
N335 X99.451 Y143.137
N340 X99.49 Y143.14
N345 X99.525 Y143.156
N350 X99.552 Y143.183
N355 X99.568 Y143.219
N360 X99.57 Y143.257
N365 X99.558 Y143.294
N370 X99.534 Y143.324
N375 X99.5 Y143.343
N380 X99.462 Y143.35
N385 G3 X99.538 Y137.65 Z-2.813 I0.038 J-2.85 F200.
N390 X99.462 Y143.35 Z-3.125 I-0.038 J2.85
N395 X99.538 Y137.65 Z-3.438 I0.038 J-2.85
N400 X99.462 Y143.35 Z-3.751 I-0.038 J2.85
N405 X99.538 Y137.65 Z-4.063 I0.038 J-2.85
N410 X99.462 Y143.35 Z-4.376 I-0.038 J2.85
N415 X99.538 Y137.65 Z-4.689 I0.038 J-2.85
N420 X99.5 Y143.35 Z-5. I-0.038 J2.85
N425 G1 X82.469 F1200.
N430 G3 X82.15 Y143.031 I0. J-0.319
N435 G1 Y140.969
N440 G3 X82.469 Y140.65 I0.319 J0.
N445 G1 X100.531
N450 G3 X100.85 Y140.969 I0. J0.319
N455 G1 Y143.031
N460 G3 X100.531 Y143.35 I-0.319 J0.
N465 G1 X99.5
N470 G2 X97.436 Y144.726 I0. J2.236
N475 G3 X95.373 Y146.102 I-2.064 J-0.86
N480 G1 X79.718
N485 G3 X79.398 Y145.782 I0. J-0.319
N490 G1 Y138.218
N495 G3 X79.718 Y137.898 I0.319 J0.
N500 G1 X103.282
N505 G3 X103.602 Y138.218 I0. J0.319
N510 G1 Y145.782
N515 G3 X103.282 Y146.102 I-0.319 J0.
N520 G1 X95.373
N525 G2 X91.699 Y148.551 I0. J3.98
N530 G3 X88.025 Y151. I-3.674 J-1.531
N535 G1 X74.5
N540 Y133.
N545 X108.5
N550 Y151.
N555 X88.025
N560 G3 X87.791 Y150.512 I0. J-0.3
N565 G1 X89.83 Y147.973
N570 X89.875 Y147.929
N575 X89.928 Y147.894
N580 X99.181 Y143.175
N585 X99.451 Y143.137
N590 X99.49 Y143.14
N595 X99.525 Y143.156
N600 X99.552 Y143.183
N605 X99.568 Y143.219
N610 X99.57 Y143.257
N615 X99.558 Y143.294
N620 X99.534 Y143.324
N625 X99.5 Y143.343
N630 X99.462 Y143.35
N635 G3 X99.538 Y137.65 Z-5.313 I0.038 J-2.85 F200.
N640 X99.462 Y143.35 Z-5.625 I-0.038 J2.85
N645 X99.538 Y137.65 Z-5.938 I0.038 J-2.85
N650 X99.462 Y143.35 Z-6.251 I-0.038 J2.85
N655 X99.538 Y137.65 Z-6.563 I0.038 J-2.85
N660 X99.462 Y143.35 Z-6.876 I-0.038 J2.85
N665 X99.538 Y137.65 Z-7.189 I0.038 J-2.85
N670 X99.5 Y143.35 Z-7.5 I-0.038 J2.85
N675 G1 X82.469 F1200.
N680 G3 X82.15 Y143.031 I0. J-0.319
N685 G1 Y140.969
N690 G3 X82.469 Y140.65 I0.319 J0.
N695 G1 X100.531
N700 G3 X100.85 Y140.969 I0. J0.319
N705 G1 Y143.031
N710 G3 X100.531 Y143.35 I-0.319 J0.
N715 G1 X99.5
N720 G2 X97.436 Y144.726 I0. J2.236
N725 G3 X95.373 Y146.102 I-2.064 J-0.86
N730 G1 X79.718
N735 G3 X79.398 Y145.782 I0. J-0.319
N740 G1 Y138.218
N745 G3 X79.718 Y137.898 I0.319 J0.
N750 G1 X103.282
N755 G3 X103.602 Y138.218 I0. J0.319
N760 G1 Y145.782
N765 G3 X103.282 Y146.102 I-0.319 J0.
N770 G1 X95.373
N775 G2 X91.699 Y148.551 I0. J3.98
N780 G3 X88.025 Y151. I-3.674 J-1.531
N785 G1 X74.5
N790 Y133.
N795 X108.5
N800 Y151.
N805 X88.025
N810 G3 X87.791 Y150.512 I0. J-0.3
N815 G1 X89.83 Y147.973
N820 X89.875 Y147.929
N825 X89.928 Y147.894
N830 X99.181 Y143.175
N835 X99.451 Y143.137
N840 X99.49 Y143.14
N845 X99.525 Y143.156
N850 X99.552 Y143.183
N855 X99.568 Y143.219
N860 X99.57 Y143.257
N865 X99.558 Y143.294
N870 X99.534 Y143.324
N875 X99.5 Y143.343
N880 X99.462 Y143.35
N885 G3 X99.538 Y137.65 Z-7.813 I0.038 J-2.85 F200.
N890 X99.462 Y143.35 Z-8.125 I-0.038 J2.85
N895 X99.538 Y137.65 Z-8.438 I0.038 J-2.85
N900 X99.462 Y143.35 Z-8.751 I-0.038 J2.85
N905 X99.538 Y137.65 Z-9.063 I0.038 J-2.85
N910 X99.462 Y143.35 Z-9.376 I-0.038 J2.85
N915 X99.538 Y137.65 Z-9.689 I0.038 J-2.85
N920 X99.5 Y143.35 Z-10. I-0.038 J2.85
N925 G1 X82.469 F1200.
N930 G3 X82.15 Y143.031 I0. J-0.319
N935 G1 Y140.969
N940 G3 X82.469 Y140.65 I0.319 J0.
N945 G1 X100.531
N950 G3 X100.85 Y140.969 I0. J0.319
N955 G1 Y143.031
N960 G3 X100.531 Y143.35 I-0.319 J0.
N965 G1 X99.5
N970 G2 X97.436 Y144.726 I0. J2.236
N975 G3 X95.373 Y146.102 I-2.064 J-0.86
N980 G1 X79.718
N985 G3 X79.398 Y145.782 I0. J-0.319
N990 G1 Y138.218
N995 G3 X79.718 Y137.898 I0.319 J0.
N1000 G1 X103.282
N1005 G3 X103.602 Y138.218 I0. J0.319
N1010 G1 Y145.782
N1015 G3 X103.282 Y146.102 I-0.319 J0.
N1020 G1 X95.373
N1025 G2 X91.699 Y148.551 I0. J3.98
N1030 G3 X88.025 Y151. I-3.674 J-1.531
N1035 G1 X74.5
N1040 Y133.
N1045 X108.5
N1050 Y151.
N1055 X88.025
N1060 G3 X87.791 Y150.512 I0. J-0.3
N1065 G1 X89.83 Y147.973
N1070 X89.875 Y147.929
N1075 X89.928 Y147.894
N1080 X99.181 Y143.175
N1085 X99.451 Y143.137
N1090 X99.49 Y143.14
N1095 X99.525 Y143.156
N1100 X99.552 Y143.183
N1105 X99.568 Y143.219
N1110 X99.57 Y143.257
N1115 X99.558 Y143.294
N1120 X99.534 Y143.324
N1125 X99.5 Y143.343
N1130 X99.462 Y143.35
N1135 G3 X99.538 Y137.65 Z-10.313 I0.038 J-2.85 F200.
N1140 X99.462 Y143.35 Z-10.625 I-0.038 J2.85
N1145 X99.538 Y137.65 Z-10.938 I0.038 J-2.85
N1150 X99.462 Y143.35 Z-11.251 I-0.038 J2.85
N1155 X99.538 Y137.65 Z-11.563 I0.038 J-2.85
N1160 X99.462 Y143.35 Z-11.876 I-0.038 J2.85
N1165 X99.538 Y137.65 Z-12.189 I0.038 J-2.85
N1170 X99.5 Y143.35 Z-12.5 I-0.038 J2.85
N1175 G1 X82.469 F1200.
N1180 G3 X82.15 Y143.031 I0. J-0.319
N1185 G1 Y140.969
N1190 G3 X82.469 Y140.65 I0.319 J0.
N1195 G1 X100.531
N1200 G3 X100.85 Y140.969 I0. J0.319
N1205 G1 Y143.031
N1210 G3 X100.531 Y143.35 I-0.319 J0.
N1215 G1 X99.5
N1220 G2 X97.436 Y144.726 I0. J2.236
N1225 G3 X95.373 Y146.102 I-2.064 J-0.86
N1230 G1 X79.718
N1235 G3 X79.398 Y145.782 I0. J-0.319
N1240 G1 Y138.218
N1245 G3 X79.718 Y137.898 I0.319 J0.
N1250 G1 X103.282
N1255 G3 X103.602 Y138.218 I0. J0.319
N1260 G1 Y145.782
N1265 G3 X103.282 Y146.102 I-0.319 J0.
N1270 G1 X95.373
N1275 G2 X91.699 Y148.551 I0. J3.98
N1280 G3 X88.025 Y151. I-3.674 J-1.531
N1285 G1 X74.5
N1290 Y133.
N1295 X108.5
N1300 Y151.
N1305 X88.025
N1310 G3 X87.791 Y150.512 I0. J-0.3
N1315 G1 X89.83 Y147.973
N1320 X89.875 Y147.929
N1325 X89.928 Y147.894
N1330 X99.181 Y143.175
N1335 X99.451 Y143.137
N1340 X99.49 Y143.14
N1345 X99.525 Y143.156
N1350 X99.552 Y143.183
N1355 X99.568 Y143.219
N1360 X99.57 Y143.257
N1365 X99.558 Y143.294
N1370 X99.534 Y143.324
N1375 X99.5 Y143.343
N1380 X99.462 Y143.35
N1385 G3 X99.538 Y137.65 Z-12.813 I0.038 J-2.85 F200.
N1390 X99.462 Y143.35 Z-13.125 I-0.038 J2.85
N1395 X99.538 Y137.65 Z-13.438 I0.038 J-2.85
N1400 X99.462 Y143.35 Z-13.751 I-0.038 J2.85
N1405 X99.538 Y137.65 Z-14.063 I0.038 J-2.85
N1410 X99.462 Y143.35 Z-14.376 I-0.038 J2.85
N1415 X99.538 Y137.65 Z-14.689 I0.038 J-2.85
N1420 X99.5 Y143.35 Z-15. I-0.038 J2.85
N1425 G1 X82.469 F1200.
N1430 G3 X82.15 Y143.031 I0. J-0.319
N1435 G1 Y140.969
N1440 G3 X82.469 Y140.65 I0.319 J0.
N1445 G1 X100.531
N1450 G3 X100.85 Y140.969 I0. J0.319
N1455 G1 Y143.031
N1460 G3 X100.531 Y143.35 I-0.319 J0.
N1465 G1 X99.5
N1470 G2 X97.436 Y144.726 I0. J2.236
N1475 G3 X95.373 Y146.102 I-2.064 J-0.86
N1480 G1 X79.718
N1485 G3 X79.398 Y145.782 I0. J-0.319
N1490 G1 Y138.218
N1495 G3 X79.718 Y137.898 I0.319 J0.
N1500 G1 X103.282
N1505 G3 X103.602 Y138.218 I0. J0.319
N1510 G1 Y145.782
N1515 G3 X103.282 Y146.102 I-0.319 J0.
N1520 G1 X95.373
N1525 G2 X91.699 Y148.551 I0. J3.98
N1530 G3 X88.025 Y151. I-3.674 J-1.531
N1535 G1 X74.5
N1540 Y133.
N1545 X108.5
N1550 Y151.
N1555 X88.025
N1560 G3 X87.791 Y150.512 I0. J-0.3
N1565 G1 X89.83 Y147.973
N1570 X89.875 Y147.929
N1575 X89.928 Y147.894
N1580 X99.181 Y143.175
N1585 X99.451 Y143.137
N1590 X99.49 Y143.14
N1595 X99.525 Y143.156
N1600 X99.552 Y143.183
N1605 X99.568 Y143.219
N1610 X99.57 Y143.257
N1615 X99.558 Y143.294
N1620 X99.534 Y143.324
N1625 X99.5 Y143.343
N1630 X99.462 Y143.35
N1635 G3 X99.538 Y137.65 Z-15.313 I0.038 J-2.85 F200.
N1640 X99.462 Y143.35 Z-15.625 I-0.038 J2.85
N1645 X99.538 Y137.65 Z-15.938 I0.038 J-2.85
N1650 X99.462 Y143.35 Z-16.251 I-0.038 J2.85
N1655 X99.538 Y137.65 Z-16.563 I0.038 J-2.85
N1660 X99.462 Y143.35 Z-16.876 I-0.038 J2.85
N1665 X99.538 Y137.65 Z-17.189 I0.038 J-2.85
N1670 X99.5 Y143.35 Z-17.5 I-0.038 J2.85
N1675 G1 X82.469 F1200.
N1680 G3 X82.15 Y143.031 I0. J-0.319
N1685 G1 Y140.969
N1690 G3 X82.469 Y140.65 I0.319 J0.
N1695 G1 X100.531
N1700 G3 X100.85 Y140.969 I0. J0.319
N1705 G1 Y143.031
N1710 G3 X100.531 Y143.35 I-0.319 J0.
N1715 G1 X99.5
N1720 G2 X97.436 Y144.726 I0. J2.236
N1725 G3 X95.373 Y146.102 I-2.064 J-0.86
N1730 G1 X79.718
N1735 G3 X79.398 Y145.782 I0. J-0.319
N1740 G1 Y138.218
N1745 G3 X79.718 Y137.898 I0.319 J0.
N1750 G1 X103.282
N1755 G3 X103.602 Y138.218 I0. J0.319
N1760 G1 Y145.782
N1765 G3 X103.282 Y146.102 I-0.319 J0.
N1770 G1 X95.373
N1775 G2 X91.699 Y148.551 I0. J3.98
N1780 G3 X88.025 Y151. I-3.674 J-1.531
N1785 G1 X74.5
N1790 Y133.
N1795 X108.5
N1800 Y151.
N1805 X88.025
N1810 G3 X87.791 Y150.512 I0. J-0.3
N1815 G1 X89.83 Y147.973
N1820 X89.875 Y147.929
N1825 X89.928 Y147.894
N1830 X99.181 Y143.175
N1835 X99.451 Y143.137
N1840 X99.49 Y143.14
N1845 X99.525 Y143.156
N1850 X99.552 Y143.183
N1855 X99.568 Y143.219
N1860 X99.57 Y143.257
N1865 X99.558 Y143.294
N1870 X99.534 Y143.324
N1875 X99.5 Y143.343
N1880 X99.462 Y143.35
N1885 G3 X99.538 Y137.65 Z-17.813 I0.038 J-2.85 F200.
N1890 X99.462 Y143.35 Z-18.125 I-0.038 J2.85
N1895 X99.538 Y137.65 Z-18.438 I0.038 J-2.85
N1900 X99.462 Y143.35 Z-18.751 I-0.038 J2.85
N1905 X99.538 Y137.65 Z-19.063 I0.038 J-2.85
N1910 X99.462 Y143.35 Z-19.376 I-0.038 J2.85
N1915 X99.538 Y137.65 Z-19.689 I0.038 J-2.85
N1920 X99.5 Y143.35 Z-20. I-0.038 J2.85
N1925 G1 X82.469 F1200.
N1930 G3 X82.15 Y143.031 I0. J-0.319
N1935 G1 Y140.969
N1940 G3 X82.469 Y140.65 I0.319 J0.
N1945 G1 X100.531
N1950 G3 X100.85 Y140.969 I0. J0.319
N1955 G1 Y143.031
N1960 G3 X100.531 Y143.35 I-0.319 J0.
N1965 G1 X99.5
N1970 G2 X97.436 Y144.726 I0. J2.236
N1975 G3 X95.373 Y146.102 I-2.064 J-0.86
N1980 G1 X79.718
N1985 G3 X79.398 Y145.782 I0. J-0.319
N1990 G1 Y138.218
N1995 G3 X79.718 Y137.898 I0.319 J0.
N2000 G1 X103.282
N2005 G3 X103.602 Y138.218 I0. J0.319
N2010 G1 Y145.782
N2015 G3 X103.282 Y146.102 I-0.319 J0.
N2020 G1 X95.373
N2025 G2 X91.699 Y148.551 I0. J3.98
N2030 G3 X88.025 Y151. I-3.674 J-1.531
N2035 G1 X74.5
N2040 Y133.
N2045 X108.5
N2050 Y151.
N2055 X88.025
N2060 G3 X87.791 Y150.512 I0. J-0.3
N2065 G1 X89.83 Y147.973
N2070 X89.875 Y147.929
N2075 X89.928 Y147.894
N2080 X99.181 Y143.175
N2085 X99.451 Y143.137
N2090 X99.49 Y143.14
N2095 X99.525 Y143.156
N2100 X99.552 Y143.183
N2105 X99.568 Y143.219
N2110 X99.57 Y143.257
N2115 X99.558 Y143.294
N2120 X99.534 Y143.324
N2125 X99.5 Y143.343
N2130 X99.462 Y143.35
N2135 G3 X99.538 Y137.65 Z-20.313 I0.038 J-2.85 F200.
N2140 X99.462 Y143.35 Z-20.625 I-0.038 J2.85
N2145 X99.538 Y137.65 Z-20.938 I0.038 J-2.85
N2150 X99.462 Y143.35 Z-21.251 I-0.038 J2.85
N2155 X99.538 Y137.65 Z-21.563 I0.038 J-2.85
N2160 X99.462 Y143.35 Z-21.876 I-0.038 J2.85
N2165 X99.538 Y137.65 Z-22.189 I0.038 J-2.85
N2170 X99.5 Y143.35 Z-22.5 I-0.038 J2.85
N2175 G1 X82.469 F1200.
N2180 G3 X82.15 Y143.031 I0. J-0.319
N2185 G1 Y140.969
N2190 G3 X82.469 Y140.65 I0.319 J0.
N2195 G1 X100.531
N2200 G3 X100.85 Y140.969 I0. J0.319
N2205 G1 Y143.031
N2210 G3 X100.531 Y143.35 I-0.319 J0.
N2215 G1 X99.5
N2220 G2 X97.436 Y144.726 I0. J2.236
N2225 G3 X95.373 Y146.102 I-2.064 J-0.86
N2230 G1 X79.718
N2235 G3 X79.398 Y145.782 I0. J-0.319
N2240 G1 Y138.218
N2245 G3 X79.718 Y137.898 I0.319 J0.
N2250 G1 X103.282
N2255 G3 X103.602 Y138.218 I0. J0.319
N2260 G1 Y145.782
N2265 G3 X103.282 Y146.102 I-0.319 J0.
N2270 G1 X95.373
N2275 G2 X91.699 Y148.551 I0. J3.98
N2280 G3 X88.025 Y151. I-3.674 J-1.531
N2285 G1 X74.5
N2290 Y133.
N2295 X108.5
N2300 Y151.
N2305 X88.025
N2310 X87.933 Y150.993 Z-22.485 F400.
N2315 X87.843 Y150.972 Z-22.471
N2320 X87.765 Y150.941 Z-22.428
N2325 X87.693 Y150.899 Z-22.385
N2330 X87.64 Y150.86 Z-22.319
N2335 X87.591 Y150.814 Z-22.253
N2340 X87.537 Y150.748 Z-22.085
N2345 X87.52 Y150.724 Z-21.9
N2350 G0 Z5.
N2355 X192.194 Y142.501
N2360 G1 Z3.1 F400.
N2365 X192.188 Y142.465 Z2.893 F200.
N2370 X192.173 Y142.36 Z2.711
N2375 X192.157 Y142.198 Z2.577
N2380 X192.15 Y142. Z2.507
N2385 X192.151 Y141.925 Z2.5
N2390 G3 X197.849 Y142.075 Z2.187 I2.849 J0.075
N2395 X192.151 Y141.925 Z1.875 I-2.849 J-0.075
N2400 X197.849 Y142.075 Z1.562 I2.849 J0.075
N2405 X192.151 Y141.925 Z1.249 I-2.849 J-0.075
N2410 X197.849 Y142.075 Z0.937 I2.849 J0.075
N2415 X192.151 Y141.925 Z0.624 I-2.849 J-0.075
N2420 X197.849 Y142.075 Z0.311 I2.849 J0.075
N2425 X192.151 Y141.925 Z-0.001 I-2.849 J-0.075
N2430 X197.849 Y142.075 Z-0.314 I2.849 J0.075
N2435 X192.151 Y141.925 Z-0.627 I-2.849 J-0.075
N2440 X197.849 Y142.075 Z-0.939 I2.849 J0.075
N2445 X192.151 Y141.925 Z-1.252 I-2.849 J-0.075
N2450 X197.849 Y142.075 Z-1.565 I2.849 J0.075
N2455 X192.151 Y141.925 Z-1.877 I-2.849 J-0.075
N2460 X197.849 Y142.075 Z-2.19 I2.849 J0.075
N2465 X192.15 Y142. Z-2.5 I-2.849 J-0.075
N2470 G1 Y140.969 F1200.
N2475 G3 X192.469 Y140.65 I0.319 J0.
N2480 G1 X210.531
N2485 G3 X210.85 Y140.969 I0. J0.319
N2490 G1 Y143.031
N2495 G3 X210.531 Y143.35 I-0.319 J0.
N2500 G1 X192.469
N2505 G3 X192.15 Y143.031 I0. J-0.319
N2510 G1 Y142.
N2515 G2 X191.038 Y140.058 I-2.252 J0.
N2520 G3 X191.625 Y137.898 I0.587 J-1.
N2525 G1 X213.282
N2530 G3 X213.602 Y138.218 I0. J0.319
N2535 G1 Y145.782
N2540 G3 X213.282 Y146.102 I-0.319 J0.
N2545 G1 X189.718
N2550 G3 X189.398 Y145.782 I0. J-0.319
N2555 G1 Y138.218
N2560 G3 X189.718 Y137.898 I0.319 J0.
N2565 G1 X191.625
N2570 G2 X195.298 Y135.449 I0. J-3.98
N2575 G3 X198.972 Y133. I3.674 J1.531
N2580 G1 X218.5
N2585 Y151.
N2590 X184.5
N2595 Y133.
N2600 X198.972
N2605 G3 X199.255 Y133.399 I0. J0.3
N2610 G1 X197.254 Y139.111
N2615 X197.226 Y139.17
N2620 X197.186 Y139.221
N2625 X197.135 Y139.263
N2630 X192.614 Y142.217
N2635 G3 X192.15 Y141.962 I-0.164 J-0.251
N2640 X197.85 Y142.038 Z-2.813 I2.85 J0.038 F200.
N2645 X192.15 Y141.962 Z-3.125 I-2.85 J-0.038
N2650 X197.85 Y142.038 Z-3.438 I2.85 J0.038
N2655 X192.15 Y141.962 Z-3.751 I-2.85 J-0.038
N2660 X197.85 Y142.038 Z-4.063 I2.85 J0.038
N2665 X192.15 Y141.962 Z-4.376 I-2.85 J-0.038
N2670 X197.85 Y142.038 Z-4.689 I2.85 J0.038
N2675 X192.15 Y142. Z-5. I-2.85 J-0.038
N2680 G1 Y140.969 F1200.
N2685 G3 X192.469 Y140.65 I0.319 J0.
N2690 G1 X210.531
N2695 G3 X210.85 Y140.969 I0. J0.319
N2700 G1 Y143.031
N2705 G3 X210.531 Y143.35 I-0.319 J0.
N2710 G1 X192.469
N2715 G3 X192.15 Y143.031 I0. J-0.319
N2720 G1 Y142.
N2725 G2 X191.038 Y140.058 I-2.252 J0.
N2730 G3 X191.625 Y137.898 I0.587 J-1.
N2735 G1 X213.282
N2740 G3 X213.602 Y138.218 I0. J0.319
N2745 G1 Y145.782
N2750 G3 X213.282 Y146.102 I-0.319 J0.
N2755 G1 X189.718
N2760 G3 X189.398 Y145.782 I0. J-0.319
N2765 G1 Y138.218
N2770 G3 X189.718 Y137.898 I0.319 J0.
N2775 G1 X191.625
N2780 G2 X195.298 Y135.449 I0. J-3.98
N2785 G3 X198.972 Y133. I3.674 J1.531
N2790 G1 X218.5
N2795 Y151.
N2800 X184.5
N2805 Y133.
N2810 X198.972
N2815 G3 X199.255 Y133.399 I0. J0.3
N2820 G1 X197.254 Y139.111
N2825 X197.226 Y139.17
N2830 X197.186 Y139.221
N2835 X197.135 Y139.263
N2840 X192.614 Y142.217
N2845 G3 X192.15 Y141.962 I-0.164 J-0.251
N2850 X197.85 Y142.038 Z-5.313 I2.85 J0.038 F200.
N2855 X192.15 Y141.962 Z-5.625 I-2.85 J-0.038
N2860 X197.85 Y142.038 Z-5.938 I2.85 J0.038
N2865 X192.15 Y141.962 Z-6.251 I-2.85 J-0.038
N2870 X197.85 Y142.038 Z-6.563 I2.85 J0.038
N2875 X192.15 Y141.962 Z-6.876 I-2.85 J-0.038
N2880 X197.85 Y142.038 Z-7.189 I2.85 J0.038
N2885 X192.15 Y142. Z-7.5 I-2.85 J-0.038
N2890 G1 Y140.969 F1200.
N2895 G3 X192.469 Y140.65 I0.319 J0.
N2900 G1 X210.531
N2905 G3 X210.85 Y140.969 I0. J0.319
N2910 G1 Y143.031
N2915 G3 X210.531 Y143.35 I-0.319 J0.
N2920 G1 X192.469
N2925 G3 X192.15 Y143.031 I0. J-0.319
N2930 G1 Y142.
N2935 G2 X191.038 Y140.058 I-2.252 J0.
N2940 G3 X191.625 Y137.898 I0.587 J-1.
N2945 G1 X213.282
N2950 G3 X213.602 Y138.218 I0. J0.319
N2955 G1 Y145.782
N2960 G3 X213.282 Y146.102 I-0.319 J0.
N2965 G1 X189.718
N2970 G3 X189.398 Y145.782 I0. J-0.319
N2975 G1 Y138.218
N2980 G3 X189.718 Y137.898 I0.319 J0.
N2985 G1 X191.625
N2990 G2 X195.298 Y135.449 I0. J-3.98
N2995 G3 X198.972 Y133. I3.674 J1.531
N3000 G1 X218.5
N3005 Y151.
N3010 X184.5
N3015 Y133.
N3020 X198.972
N3025 G3 X199.255 Y133.399 I0. J0.3
N3030 G1 X197.254 Y139.111
N3035 X197.226 Y139.17
N3040 X197.186 Y139.221
N3045 X197.135 Y139.263
N3050 X192.614 Y142.217
N3055 G3 X192.15 Y141.962 I-0.164 J-0.251
N3060 X197.85 Y142.038 Z-7.813 I2.85 J0.038 F200.
N3065 X192.15 Y141.962 Z-8.125 I-2.85 J-0.038
N3070 X197.85 Y142.038 Z-8.438 I2.85 J0.038
N3075 X192.15 Y141.962 Z-8.751 I-2.85 J-0.038
N3080 X197.85 Y142.038 Z-9.063 I2.85 J0.038
N3085 X192.15 Y141.962 Z-9.376 I-2.85 J-0.038
N3090 X197.85 Y142.038 Z-9.689 I2.85 J0.038
N3095 X192.15 Y142. Z-10. I-2.85 J-0.038
N3100 G1 Y140.969 F1200.
N3105 G3 X192.469 Y140.65 I0.319 J0.
N3110 G1 X210.531
N3115 G3 X210.85 Y140.969 I0. J0.319
N3120 G1 Y143.031
N3125 G3 X210.531 Y143.35 I-0.319 J0.
N3130 G1 X192.469
N3135 G3 X192.15 Y143.031 I0. J-0.319
N3140 G1 Y142.
N3145 G2 X191.038 Y140.058 I-2.252 J0.
N3150 G3 X191.625 Y137.898 I0.587 J-1.
N3155 G1 X213.282
N3160 G3 X213.602 Y138.218 I0. J0.319
N3165 G1 Y145.782
N3170 G3 X213.282 Y146.102 I-0.319 J0.
N3175 G1 X189.718
N3180 G3 X189.398 Y145.782 I0. J-0.319
N3185 G1 Y138.218
N3190 G3 X189.718 Y137.898 I0.319 J0.
N3195 G1 X191.625
N3200 G2 X195.298 Y135.449 I0. J-3.98
N3205 G3 X198.972 Y133. I3.674 J1.531
N3210 G1 X218.5
N3215 Y151.
N3220 X184.5
N3225 Y133.
N3230 X198.972
N3235 G3 X199.255 Y133.399 I0. J0.3
N3240 G1 X197.254 Y139.111
N3245 X197.226 Y139.17
N3250 X197.186 Y139.221
N3255 X197.135 Y139.263
N3260 X192.614 Y142.217
N3265 G3 X192.15 Y141.962 I-0.164 J-0.251
N3270 X197.85 Y142.038 Z-10.313 I2.85 J0.038 F200.
N3275 X192.15 Y141.962 Z-10.625 I-2.85 J-0.038
N3280 X197.85 Y142.038 Z-10.938 I2.85 J0.038
N3285 X192.15 Y141.962 Z-11.251 I-2.85 J-0.038
N3290 X197.85 Y142.038 Z-11.563 I2.85 J0.038
N3295 X192.15 Y141.962 Z-11.876 I-2.85 J-0.038
N3300 X197.85 Y142.038 Z-12.189 I2.85 J0.038
N3305 X192.15 Y142. Z-12.5 I-2.85 J-0.038
N3310 G1 Y140.969 F1200.
N3315 G3 X192.469 Y140.65 I0.319 J0.
N3320 G1 X210.531
N3325 G3 X210.85 Y140.969 I0. J0.319
N3330 G1 Y143.031
N3335 G3 X210.531 Y143.35 I-0.319 J0.
N3340 G1 X192.469
N3345 G3 X192.15 Y143.031 I0. J-0.319
N3350 G1 Y142.
N3355 G2 X191.038 Y140.058 I-2.252 J0.
N3360 G3 X191.625 Y137.898 I0.587 J-1.
N3365 G1 X213.282
N3370 G3 X213.602 Y138.218 I0. J0.319
N3375 G1 Y145.782
N3380 G3 X213.282 Y146.102 I-0.319 J0.
N3385 G1 X189.718
N3390 G3 X189.398 Y145.782 I0. J-0.319
N3395 G1 Y138.218
N3400 G3 X189.718 Y137.898 I0.319 J0.
N3405 G1 X191.625
N3410 G2 X195.298 Y135.449 I0. J-3.98
N3415 G3 X198.972 Y133. I3.674 J1.531
N3420 G1 X218.5
N3425 Y151.
N3430 X184.5
N3435 Y133.
N3440 X198.972
N3445 G3 X199.255 Y133.399 I0. J0.3
N3450 G1 X197.254 Y139.111
N3455 X197.226 Y139.17
N3460 X197.186 Y139.221
N3465 X197.135 Y139.263
N3470 X192.614 Y142.217
N3475 G3 X192.15 Y141.962 I-0.164 J-0.251
N3480 X197.85 Y142.038 Z-12.813 I2.85 J0.038 F200.
N3485 X192.15 Y141.962 Z-13.125 I-2.85 J-0.038
N3490 X197.85 Y142.038 Z-13.438 I2.85 J0.038
N3495 X192.15 Y141.962 Z-13.751 I-2.85 J-0.038
N3500 X197.85 Y142.038 Z-14.063 I2.85 J0.038
N3505 X192.15 Y141.962 Z-14.376 I-2.85 J-0.038
N3510 X197.85 Y142.038 Z-14.689 I2.85 J0.038
N3515 X192.15 Y142. Z-15. I-2.85 J-0.038
N3520 G1 Y140.969 F1200.
N3525 G3 X192.469 Y140.65 I0.319 J0.
N3530 G1 X210.531
N3535 G3 X210.85 Y140.969 I0. J0.319
N3540 G1 Y143.031
N3545 G3 X210.531 Y143.35 I-0.319 J0.
N3550 G1 X192.469
N3555 G3 X192.15 Y143.031 I0. J-0.319
N3560 G1 Y142.
N3565 G2 X191.038 Y140.058 I-2.252 J0.
N3570 G3 X191.625 Y137.898 I0.587 J-1.
N3575 G1 X213.282
N3580 G3 X213.602 Y138.218 I0. J0.319
N3585 G1 Y145.782
N3590 G3 X213.282 Y146.102 I-0.319 J0.
N3595 G1 X189.718
N3600 G3 X189.398 Y145.782 I0. J-0.319
N3605 G1 Y138.218
N3610 G3 X189.718 Y137.898 I0.319 J0.
N3615 G1 X191.625
N3620 G2 X195.298 Y135.449 I0. J-3.98
N3625 G3 X198.972 Y133. I3.674 J1.531
N3630 G1 X218.5
N3635 Y151.
N3640 X184.5
N3645 Y133.
N3650 X198.972
N3655 G3 X199.255 Y133.399 I0. J0.3
N3660 G1 X197.254 Y139.111
N3665 X197.226 Y139.17
N3670 X197.186 Y139.221
N3675 X197.135 Y139.263
N3680 X192.614 Y142.217
N3685 G3 X192.15 Y141.962 I-0.164 J-0.251
N3690 X197.85 Y142.038 Z-15.313 I2.85 J0.038 F200.
N3695 X192.15 Y141.962 Z-15.625 I-2.85 J-0.038
N3700 X197.85 Y142.038 Z-15.938 I2.85 J0.038
N3705 X192.15 Y141.962 Z-16.251 I-2.85 J-0.038
N3710 X197.85 Y142.038 Z-16.563 I2.85 J0.038
N3715 X192.15 Y141.962 Z-16.876 I-2.85 J-0.038
N3720 X197.85 Y142.038 Z-17.189 I2.85 J0.038
N3725 X192.15 Y142. Z-17.5 I-2.85 J-0.038
N3730 G1 Y140.969 F1200.
N3735 G3 X192.469 Y140.65 I0.319 J0.
N3740 G1 X210.531
N3745 G3 X210.85 Y140.969 I0. J0.319
N3750 G1 Y143.031
N3755 G3 X210.531 Y143.35 I-0.319 J0.
N3760 G1 X192.469
N3765 G3 X192.15 Y143.031 I0. J-0.319
N3770 G1 Y142.
N3775 G2 X191.038 Y140.058 I-2.252 J0.
N3780 G3 X191.625 Y137.898 I0.587 J-1.
N3785 G1 X213.282
N3790 G3 X213.602 Y138.218 I0. J0.319
N3795 G1 Y145.782
N3800 G3 X213.282 Y146.102 I-0.319 J0.
N3805 G1 X189.718
N3810 G3 X189.398 Y145.782 I0. J-0.319
N3815 G1 Y138.218
N3820 G3 X189.718 Y137.898 I0.319 J0.
N3825 G1 X191.625
N3830 G2 X195.298 Y135.449 I0. J-3.98
N3835 G3 X198.972 Y133. I3.674 J1.531
N3840 G1 X218.5
N3845 Y151.
N3850 X184.5
N3855 Y133.
N3860 X198.972
N3865 G3 X199.255 Y133.399 I0. J0.3
N3870 G1 X197.254 Y139.111
N3875 X197.226 Y139.17
N3880 X197.186 Y139.221
N3885 X197.135 Y139.263
N3890 X192.614 Y142.217
N3895 G3 X192.15 Y141.962 I-0.164 J-0.251
N3900 X197.85 Y142.038 Z-17.813 I2.85 J0.038 F200.
N3905 X192.15 Y141.962 Z-18.125 I-2.85 J-0.038
N3910 X197.85 Y142.038 Z-18.438 I2.85 J0.038
N3915 X192.15 Y141.962 Z-18.751 I-2.85 J-0.038
N3920 X197.85 Y142.038 Z-19.063 I2.85 J0.038
N3925 X192.15 Y141.962 Z-19.376 I-2.85 J-0.038
N3930 X197.85 Y142.038 Z-19.689 I2.85 J0.038
N3935 X192.15 Y142. Z-20. I-2.85 J-0.038
N3940 G1 Y140.969 F1200.
N3945 G3 X192.469 Y140.65 I0.319 J0.
N3950 G1 X210.531
N3955 G3 X210.85 Y140.969 I0. J0.319
N3960 G1 Y143.031
N3965 G3 X210.531 Y143.35 I-0.319 J0.
N3970 G1 X192.469
N3975 G3 X192.15 Y143.031 I0. J-0.319
N3980 G1 Y142.
N3985 G2 X191.038 Y140.058 I-2.252 J0.
N3990 G3 X191.625 Y137.898 I0.587 J-1.
N3995 G1 X213.282
N4000 G3 X213.602 Y138.218 I0. J0.319
N4005 G1 Y145.782
N4010 G3 X213.282 Y146.102 I-0.319 J0.
N4015 G1 X189.718
N4020 G3 X189.398 Y145.782 I0. J-0.319
N4025 G1 Y138.218
N4030 G3 X189.718 Y137.898 I0.319 J0.
N4035 G1 X191.625
N4040 G2 X195.298 Y135.449 I0. J-3.98
N4045 G3 X198.972 Y133. I3.674 J1.531
N4050 G1 X218.5
N4055 Y151.
N4060 X184.5
N4065 Y133.
N4070 X198.972
N4075 G3 X199.255 Y133.399 I0. J0.3
N4080 G1 X197.254 Y139.111
N4085 X197.226 Y139.17
N4090 X197.186 Y139.221
N4095 X197.135 Y139.263
N4100 X192.614 Y142.217
N4105 G3 X192.15 Y141.962 I-0.164 J-0.251
N4110 X197.85 Y142.038 Z-20.313 I2.85 J0.038 F200.
N4115 X192.15 Y141.962 Z-20.625 I-2.85 J-0.038
N4120 X197.85 Y142.038 Z-20.938 I2.85 J0.038
N4125 X192.15 Y141.962 Z-21.251 I-2.85 J-0.038
N4130 X197.85 Y142.038 Z-21.563 I2.85 J0.038
N4135 X192.15 Y141.962 Z-21.876 I-2.85 J-0.038
N4140 X197.85 Y142.038 Z-22.189 I2.85 J0.038
N4145 X192.15 Y142. Z-22.5 I-2.85 J-0.038
N4150 G1 Y140.969 F1200.
N4155 G3 X192.469 Y140.65 I0.319 J0.
N4160 G1 X210.531
N4165 G3 X210.85 Y140.969 I0. J0.319
N4170 G1 Y143.031
N4175 G3 X210.531 Y143.35 I-0.319 J0.
N4180 G1 X192.469
N4185 G3 X192.15 Y143.031 I0. J-0.319
N4190 G1 Y142.
N4195 G2 X191.038 Y140.058 I-2.252 J0.
N4200 G3 X191.625 Y137.898 I0.587 J-1.
N4205 G1 X213.282
N4210 G3 X213.602 Y138.218 I0. J0.319
N4215 G1 Y145.782
N4220 G3 X213.282 Y146.102 I-0.319 J0.
N4225 G1 X189.718
N4230 G3 X189.398 Y145.782 I0. J-0.319
N4235 G1 Y138.218
N4240 G3 X189.718 Y137.898 I0.319 J0.
N4245 G1 X191.625
N4250 G2 X195.298 Y135.449 I0. J-3.98
N4255 G3 X198.972 Y133. I3.674 J1.531
N4260 G1 X218.5
N4265 Y151.
N4270 X184.5
N4275 Y133.
N4280 X198.972
N4285 X199.064 Y133.007 Z-22.485 F400.
N4290 X199.154 Y133.028 Z-22.471
N4295 X199.232 Y133.059 Z-22.428
N4300 X199.305 Y133.101 Z-22.385
N4305 X199.358 Y133.14 Z-22.319
N4310 X199.406 Y133.186 Z-22.253
N4315 X199.46 Y133.252 Z-22.085
N4320 X199.477 Y133.276 Z-21.9
N4325 G0 Z15.
(2D CONTOUR1)
N4330 G0 X218.4 Y80.6
N4335 Z15.
N4340 Z5.
N4345 G1 Z3.5 F200.
N4350 Z-1.9
N4355 G18 G2 X219. Z-2.5 I0.6 K0.
N4360 G1 X219.6 F400.
N4365 G17 G2 X220.2 Y80. I0. J-0.6
N4370 G1 Y50. F1200.
N4375 Y47.2
N4380 X245.8
N4385 Y580.
N4390 Y582.8
N4395 X223.7
N4400 Y574.8
N4405 X179.3
N4410 Y580.
N4415 Y582.8
N4420 X157.2
N4425 Y47.2
N4430 X182.8
N4435 Y80.
N4440 G2 X220.2 I18.7 J0.
N4445 X219.6 Y79.4 I-0.6 J0. F400.
N4450 G1 X219.
N4455 G18 G3 X218.4 Z-1.9 I0. K0.6
N4460 G0 Z5.
N4465 Y80.6
N4470 G1 Z1. F200.
N4475 Z-4.4
N4480 G2 X219. Z-5. I0.6 K0.
N4485 G1 X219.6 F400.
N4490 G17 G2 X220.2 Y80. I0. J-0.6
N4495 G1 Y50. F1200.
N4500 Y47.2
N4505 X245.8
N4510 Y580.
N4515 Y582.8
N4520 X223.7
N4525 Y574.8
N4530 X179.3
N4535 Y580.
N4540 Y582.8
N4545 X157.2
N4550 Y47.2
N4555 X182.8
N4560 Y80.
N4565 G2 X220.2 I18.7 J0.
N4570 X219.6 Y79.4 I-0.6 J0. F400.
N4575 G1 X219.
N4580 G18 G3 X218.4 Z-4.4 I0. K0.6
N4585 G0 Z5.
N4590 Y80.6
N4595 G1 Z-1.5 F200.
N4600 Z-6.9
N4605 G2 X219. Z-7.5 I0.6 K0.
N4610 G1 X219.6 F400.
N4615 G17 G2 X220.2 Y80. I0. J-0.6
N4620 G1 Y50. F1200.
N4625 Y47.2
N4630 X245.8
N4635 Y580.
N4640 Y582.8
N4645 X223.7
N4650 Y574.8
N4655 X179.3
N4660 Y580.
N4665 Y582.8
N4670 X157.2
N4675 Y47.2
N4680 X182.8
N4685 Y80.
N4690 G2 X220.2 I18.7 J0.
N4695 X219.6 Y79.4 I-0.6 J0. F400.
N4700 G1 X219.
N4705 G18 G3 X218.4 Z-6.9 I0. K0.6
N4710 G0 Z5.
N4715 Y80.6
N4720 G1 Z-4. F200.
N4725 Z-9.4
N4730 G2 X219. Z-10. I0.6 K0.
N4735 G1 X219.6 F400.
N4740 G17 G2 X220.2 Y80. I0. J-0.6
N4745 G1 Y50. F1200.
N4750 Y47.2
N4755 X245.8
N4760 Y580.
N4765 Y582.8
N4770 X223.7
N4775 Y574.8
N4780 X179.3
N4785 Y580.
N4790 Y582.8
N4795 X157.2
N4800 Y47.2
N4805 X182.8
N4810 Y80.
N4815 G2 X220.2 I18.7 J0.
N4820 X219.6 Y79.4 I-0.6 J0. F400.
N4825 G1 X219.
N4830 G18 G3 X218.4 Z-9.4 I0. K0.6
N4835 G0 Z5.
N4840 Y80.6
N4845 G1 Z-6.5 F200.
N4850 Z-11.9
N4855 G2 X219. Z-12.5 I0.6 K0.
N4860 G1 X219.6 F400.
N4865 G17 G2 X220.2 Y80. I0. J-0.6
N4870 G1 Y50. F1200.
N4875 Y47.2
N4880 X245.8
N4885 Y580.
N4890 Y582.8
N4895 X223.7
N4900 Y574.8
N4905 X179.3
N4910 Y580.
N4915 Y582.8
N4920 X157.2
N4925 Y47.2
N4930 X182.8
N4935 Y80.
N4940 G2 X220.2 I18.7 J0.
N4945 X219.6 Y79.4 I-0.6 J0. F400.
N4950 G1 X219.
N4955 G18 G3 X218.4 Z-11.9 I0. K0.6
N4960 G0 Z5.
N4965 Y80.6
N4970 G1 Z-9. F200.
N4975 Z-14.4
N4980 G2 X219. Z-15. I0.6 K0.
N4985 G1 X219.6 F400.
N4990 G17 G2 X220.2 Y80. I0. J-0.6
N4995 G1 Y50. F1200.
N5000 Y47.2
N5005 X245.8
N5010 Y580.
N5015 Y582.8
N5020 X223.7
N5025 Y574.8
N5030 X179.3
N5035 Y580.
N5040 Y582.8
N5045 X157.2
N5050 Y47.2
N5055 X182.8
N5060 Y80.
N5065 G2 X220.2 I18.7 J0.
N5070 X219.6 Y79.4 I-0.6 J0. F400.
N5075 G1 X219.
N5080 G18 G3 X218.4 Z-14.4 I0. K0.6
N5085 G0 Z5.
N5090 Y80.6
N5095 G1 Z-11.5 F200.
N5100 Z-16.9
N5105 G2 X219. Z-17.5 I0.6 K0.
N5110 G1 X219.6 F400.
N5115 G17 G2 X220.2 Y80. I0. J-0.6
N5120 G1 Y50. F1200.
N5125 Y47.2
N5130 X245.8
N5135 Y580.
N5140 Y582.8
N5145 X223.7
N5150 Y574.8
N5155 X179.3
N5160 Y580.
N5165 Y582.8
N5170 X157.2
N5175 Y47.2
N5180 X182.8
N5185 Y80.
N5190 G2 X220.2 I18.7 J0.
N5195 X219.6 Y79.4 I-0.6 J0. F400.
N5200 G1 X219.
N5205 G18 G3 X218.4 Z-16.9 I0. K0.6
N5210 G0 Z5.
N5215 Y80.6
N5220 G1 Z-14. F200.
N5225 Z-19.4
N5230 G2 X219. Z-20. I0.6 K0.
N5235 G1 X219.6 F400.
N5240 G17 G2 X220.2 Y80. I0. J-0.6
N5245 G1 Y47.2 F1200.
N5250 X245.8
N5255 Y90.
N5260 Z-19.5
N5265 Y116.
N5270 Z-20. F200.
N5275 Y196. F1200.
N5280 Z-19.5
N5285 Y222.
N5290 Z-20. F200.
N5295 Y302. F1200.
N5300 Z-19.5
N5305 Y328.
N5310 Z-20. F200.
N5315 Y408. F1200.
N5320 Z-19.5
N5325 Y434.
N5330 Z-20. F200.
N5335 Y514. F1200.
N5340 Z-19.5
N5345 Y540.
N5350 Z-20. F200.
N5355 Y582.8 F1200.
N5360 X223.7
N5365 Y574.8
N5370 X179.3
N5375 Y582.8
N5380 X157.2
N5385 Y540.
N5390 Z-19.5
N5395 Y514.
N5400 Z-20. F200.
N5405 Y434. F1200.
N5410 Z-19.5
N5415 Y408.
N5420 Z-20. F200.
N5425 Y328. F1200.
N5430 Z-19.5
N5435 Y302.
N5440 Z-20. F200.
N5445 Y222. F1200.
N5450 Z-19.5
N5455 Y196.
N5460 Z-20. F200.
N5465 Y116. F1200.
N5470 Z-19.5
N5475 Y90.
N5480 Z-20. F200.
N5485 Y47.2 F1200.
N5490 X182.8
N5495 Y80.
N5500 G2 X220.2 I18.7 J0.
N5505 X219.6 Y79.4 I-0.6 J0. F400.
N5510 G1 X219.
N5515 G18 G3 X218.4 Z-19.4 I0. K0.6
N5520 G0 Z5.
N5525 Y80.6
N5530 G1 Z-16.5 F200.
N5535 Z-21.9
N5540 G2 X219. Z-22.5 I0.6 K0.
N5545 G1 X219.6 F400.
N5550 G17 G2 X220.2 Y80. I0. J-0.6
N5555 G1 Y47.2 F1200.
N5560 X245.8
N5565 Y90.
N5570 Z-19.5
N5575 Y116.
N5580 Z-22.5 F200.
N5585 Y196. F1200.
N5590 Z-19.5
N5595 Y222.
N5600 Z-22.5 F200.
N5605 Y302. F1200.
N5610 Z-19.5
N5615 Y328.
N5620 Z-22.5 F200.
N5625 Y408. F1200.
N5630 Z-19.5
N5635 Y434.
N5640 Z-22.5 F200.
N5645 Y514. F1200.
N5650 Z-19.5
N5655 Y540.
N5660 Z-22.5 F200.
N5665 Y582.8 F1200.
N5670 X223.7
N5675 Y574.8
N5680 X179.3
N5685 Y582.8
N5690 X157.2
N5695 Y540.
N5700 Z-19.5
N5705 Y514.
N5710 Z-22.5 F200.
N5715 Y434. F1200.
N5720 Z-19.5
N5725 Y408.
N5730 Z-22.5 F200.
N5735 Y328. F1200.
N5740 Z-19.5
N5745 Y302.
N5750 Z-22.5 F200.
N5755 Y222. F1200.
N5760 Z-19.5
N5765 Y196.
N5770 Z-22.5 F200.
N5775 Y116. F1200.
N5780 Z-19.5
N5785 Y90.
N5790 Z-22.5 F200.
N5795 Y47.2 F1200.
N5800 X182.8
N5805 Y80.
N5810 G2 X220.2 I18.7 J0.
N5815 X219.6 Y79.4 I-0.6 J0. F400.
N5820 G1 X219.
N5825 G18 G3 X218.4 Z-21.9 I0. K0.6
N5830 G0 Z5.
N5835 X316.756
N5840 G1 Z3.5 F200.
N5845 Z-1.9
N5850 G3 X316.156 Z-2.5 I-0.6 K0.
N5855 G1 X315.556 F400.
N5860 G17 G2 X314.956 Y80. I0. J0.6
N5865 G1 Y380. F1200.
N5870 Y382.8
N5875 X269.356
N5880 Y80.
N5885 Y77.2
N5890 X314.956
N5895 Y80.
N5900 G2 X315.556 Y80.6 I0.6 J0. F400.
N5905 G1 X316.156
N5910 G18 G2 X316.756 Z-1.9 I0. K0.6
N5915 G0 Z5.
N5920 Y79.4
N5925 G1 Z1. F200.
N5930 Z-4.4
N5935 G3 X316.156 Z-5. I-0.6 K0.
N5940 G1 X315.556 F400.
N5945 G17 G2 X314.956 Y80. I0. J0.6
N5950 G1 Y380. F1200.
N5955 Y382.8
N5960 X269.356
N5965 Y80.
N5970 Y77.2
N5975 X314.956
N5980 Y80.
N5985 G2 X315.556 Y80.6 I0.6 J0. F400.
N5990 G1 X316.156
N5995 G18 G2 X316.756 Z-4.4 I0. K0.6
N6000 G0 Z5.
N6005 Y79.4
N6010 G1 Z-1.5 F200.
N6015 Z-6.9
N6020 G3 X316.156 Z-7.5 I-0.6 K0.
N6025 G1 X315.556 F400.
N6030 G17 G2 X314.956 Y80. I0. J0.6
N6035 G1 Y380. F1200.
N6040 Y382.8
N6045 X269.356
N6050 Y80.
N6055 Y77.2
N6060 X314.956
N6065 Y80.
N6070 G2 X315.556 Y80.6 I0.6 J0. F400.
N6075 G1 X316.156
N6080 G18 G2 X316.756 Z-6.9 I0. K0.6
N6085 G0 Z5.
N6090 Y79.4
N6095 G1 Z-4. F200.
N6100 Z-9.4
N6105 G3 X316.156 Z-10. I-0.6 K0.
N6110 G1 X315.556 F400.
N6115 G17 G2 X314.956 Y80. I0. J0.6
N6120 G1 Y380. F1200.
N6125 Y382.8
N6130 X269.356
N6135 Y80.
N6140 Y77.2
N6145 X314.956
N6150 Y80.
N6155 G2 X315.556 Y80.6 I0.6 J0. F400.
N6160 G1 X316.156
N6165 G18 G2 X316.756 Z-9.4 I0. K0.6
N6170 G0 Z5.
N6175 Y79.4
N6180 G1 Z-6.5 F200.
N6185 Z-11.9
N6190 G3 X316.156 Z-12.5 I-0.6 K0.
N6195 G1 X315.556 F400.
N6200 G17 G2 X314.956 Y80. I0. J0.6
N6205 G1 Y380. F1200.
N6210 Y382.8
N6215 X269.356
N6220 Y80.
N6225 Y77.2
N6230 X314.956
N6235 Y80.
N6240 G2 X315.556 Y80.6 I0.6 J0. F400.
N6245 G1 X316.156
N6250 G18 G2 X316.756 Z-11.9 I0. K0.6
N6255 G0 Z5.
N6260 Y79.4
N6265 G1 Z-9. F200.
N6270 Z-14.4
N6275 G3 X316.156 Z-15. I-0.6 K0.
N6280 G1 X315.556 F400.
N6285 G17 G2 X314.956 Y80. I0. J0.6
N6290 G1 Y380. F1200.
N6295 Y382.8
N6300 X269.356
N6305 Y80.
N6310 Y77.2
N6315 X314.956
N6320 Y80.
N6325 G2 X315.556 Y80.6 I0.6 J0. F400.
N6330 G1 X316.156
N6335 G18 G2 X316.756 Z-14.4 I0. K0.6
N6340 G0 Z5.
N6345 Y79.4
N6350 G1 Z-11.5 F200.
N6355 Z-16.9
N6360 G3 X316.156 Z-17.5 I-0.6 K0.
N6365 G1 X315.556 F400.
N6370 G17 G2 X314.956 Y80. I0. J0.6
N6375 G1 Y380. F1200.
N6380 Y382.8
N6385 X269.356
N6390 Y80.
N6395 Y77.2
N6400 X314.956
N6405 Y80.
N6410 G2 X315.556 Y80.6 I0.6 J0. F400.
N6415 G1 X316.156
N6420 G18 G2 X316.756 Z-16.9 I0. K0.6
N6425 G0 Z5.
N6430 Y79.4
N6435 G1 Z-14. F200.
N6440 Z-19.4
N6445 G3 X316.156 Z-20. I-0.6 K0.
N6450 G1 X315.556 F400.
N6455 G17 G2 X314.956 Y80. I0. J0.6
N6460 G1 Y117. F1200.
N6465 Z-19.5
N6470 Y143.
N6475 Z-20. F200.
N6480 Y217. F1200.
N6485 Z-19.5
N6490 Y243.
N6495 Z-20. F200.
N6500 Y317. F1200.
N6505 Z-19.5
N6510 Y343.
N6515 Z-20. F200.
N6520 Y382.8 F1200.
N6525 X269.356
N6530 Y343.
N6535 Z-19.5
N6540 Y317.
N6545 Z-20. F200.
N6550 Y243. F1200.
N6555 Z-19.5
N6560 Y217.
N6565 Z-20. F200.
N6570 Y143. F1200.
N6575 Z-19.5
N6580 Y117.
N6585 Z-20. F200.
N6590 Y77.2 F1200.
N6595 X314.956
N6600 Y80.
N6605 G2 X315.556 Y80.6 I0.6 J0. F400.
N6610 G1 X316.156
N6615 G18 G2 X316.756 Z-19.4 I0. K0.6
N6620 G0 Z5.
N6625 Y79.4
N6630 G1 Z-16.5 F200.
N6635 Z-21.9
N6640 G3 X316.156 Z-22.5 I-0.6 K0.
N6645 G1 X315.556 F400.
N6650 G17 G2 X314.956 Y80. I0. J0.6
N6655 G1 Y117. F1200.
N6660 Z-19.5
N6665 Y143.
N6670 Z-22.5 F200.
N6675 Y217. F1200.
N6680 Z-19.5
N6685 Y243.
N6690 Z-22.5 F200.
N6695 Y317. F1200.
N6700 Z-19.5
N6705 Y343.
N6710 Z-22.5 F200.
N6715 Y382.8 F1200.
N6720 X269.356
N6725 Y343.
N6730 Z-19.5
N6735 Y317.
N6740 Z-22.5 F200.
N6745 Y243. F1200.
N6750 Z-19.5
N6755 Y217.
N6760 Z-22.5 F200.
N6765 Y143. F1200.
N6770 Z-19.5
N6775 Y117.
N6780 Z-22.5 F200.
N6785 Y77.2 F1200.
N6790 X314.956
N6795 Y80.
N6800 G2 X315.556 Y80.6 I0.6 J0. F400.
N6805 G1 X316.156
N6810 G18 G2 X316.756 Z-21.9 I0. K0.6
N6815 G0 Z5.
N6820 X137.6 Y49.4
N6825 G1 Z3.5 F200.
N6830 Z-1.9
N6835 G3 X137. Z-2.5 I-0.6 K0.
N6840 G1 X136.4 F400.
N6845 G17 G2 X135.8 Y50. I0. J0.6
N6850 G1 Y580. F1200.
N6855 Y582.8
N6860 X113.7
N6865 Y574.8
N6870 X69.3
N6875 Y580.
N6880 Y582.8
N6885 X47.2
N6890 Y47.2
N6895 X72.8
N6900 Y80.
N6905 G2 X110.2 I18.7 J0.
N6910 G1 Y50.
N6915 Y47.2
N6920 X135.8
N6925 Y50.
N6930 G2 X136.4 Y50.6 I0.6 J0. F400.
N6935 G1 X137.
N6940 G18 G2 X137.6 Z-1.9 I0. K0.6
N6945 G0 Z5.
N6950 Y49.4
N6955 G1 Z1. F200.
N6960 Z-4.4
N6965 G3 X137. Z-5. I-0.6 K0.
N6970 G1 X136.4 F400.
N6975 G17 G2 X135.8 Y50. I0. J0.6
N6980 G1 Y580. F1200.
N6985 Y582.8
N6990 X113.7
N6995 Y574.8
N7000 X69.3
N7005 Y580.
N7010 Y582.8
N7015 X47.2
N7020 Y47.2
N7025 X72.8
N7030 Y80.
N7035 G2 X110.2 I18.7 J0.
N7040 G1 Y50.
N7045 Y47.2
N7050 X135.8
N7055 Y50.
N7060 G2 X136.4 Y50.6 I0.6 J0. F400.
N7065 G1 X137.
N7070 G18 G2 X137.6 Z-4.4 I0. K0.6
N7075 G0 Z5.
N7080 Y49.4
N7085 G1 Z-1.5 F200.
N7090 Z-6.9
N7095 G3 X137. Z-7.5 I-0.6 K0.
N7100 G1 X136.4 F400.
N7105 G17 G2 X135.8 Y50. I0. J0.6
N7110 G1 Y580. F1200.
N7115 Y582.8
N7120 X113.7
N7125 Y574.8
N7130 X69.3
N7135 Y580.
N7140 Y582.8
N7145 X47.2
N7150 Y47.2
N7155 X72.8
N7160 Y80.
N7165 G2 X110.2 I18.7 J0.
N7170 G1 Y50.
N7175 Y47.2
N7180 X135.8
N7185 Y50.
N7190 G2 X136.4 Y50.6 I0.6 J0. F400.
N7195 G1 X137.
N7200 G18 G2 X137.6 Z-6.9 I0. K0.6
N7205 G0 Z5.
N7210 Y49.4
N7215 G1 Z-4. F200.
N7220 Z-9.4
N7225 G3 X137. Z-10. I-0.6 K0.
N7230 G1 X136.4 F400.
N7235 G17 G2 X135.8 Y50. I0. J0.6
N7240 G1 Y580. F1200.
N7245 Y582.8
N7250 X113.7
N7255 Y574.8
N7260 X69.3
N7265 Y580.
N7270 Y582.8
N7275 X47.2
N7280 Y47.2
N7285 X72.8
N7290 Y80.
N7295 G2 X110.2 I18.7 J0.
N7300 G1 Y50.
N7305 Y47.2
N7310 X135.8
N7315 Y50.
N7320 G2 X136.4 Y50.6 I0.6 J0. F400.
N7325 G1 X137.
N7330 G18 G2 X137.6 Z-9.4 I0. K0.6
N7335 G0 Z5.
N7340 Y49.4
N7345 G1 Z-6.5 F200.
N7350 Z-11.9
N7355 G3 X137. Z-12.5 I-0.6 K0.
N7360 G1 X136.4 F400.
N7365 G17 G2 X135.8 Y50. I0. J0.6
N7370 G1 Y580. F1200.
N7375 Y582.8
N7380 X113.7
N7385 Y574.8
N7390 X69.3
N7395 Y580.
N7400 Y582.8
N7405 X47.2
N7410 Y47.2
N7415 X72.8
N7420 Y80.
N7425 G2 X110.2 I18.7 J0.
N7430 G1 Y50.
N7435 Y47.2
N7440 X135.8
N7445 Y50.
N7450 G2 X136.4 Y50.6 I0.6 J0. F400.
N7455 G1 X137.
N7460 G18 G2 X137.6 Z-11.9 I0. K0.6
N7465 G0 Z5.
N7470 Y49.4
N7475 G1 Z-9. F200.
N7480 Z-14.4
N7485 G3 X137. Z-15. I-0.6 K0.
N7490 G1 X136.4 F400.
N7495 G17 G2 X135.8 Y50. I0. J0.6
N7500 G1 Y580. F1200.
N7505 Y582.8
N7510 X113.7
N7515 Y574.8
N7520 X69.3
N7525 Y580.
N7530 Y582.8
N7535 X47.2
N7540 Y47.2
N7545 X72.8
N7550 Y80.
N7555 G2 X110.2 I18.7 J0.
N7560 G1 Y50.
N7565 Y47.2
N7570 X135.8
N7575 Y50.
N7580 G2 X136.4 Y50.6 I0.6 J0. F400.
N7585 G1 X137.
N7590 G18 G2 X137.6 Z-14.4 I0. K0.6
N7595 G0 Z5.
N7600 Y49.4
N7605 G1 Z-11.5 F200.
N7610 Z-16.9
N7615 G3 X137. Z-17.5 I-0.6 K0.
N7620 G1 X136.4 F400.
N7625 G17 G2 X135.8 Y50. I0. J0.6
N7630 G1 Y580. F1200.
N7635 Y582.8
N7640 X113.7
N7645 Y574.8
N7650 X69.3
N7655 Y580.
N7660 Y582.8
N7665 X47.2
N7670 Y47.2
N7675 X72.8
N7680 Y80.
N7685 G2 X110.2 I18.7 J0.
N7690 G1 Y50.
N7695 Y47.2
N7700 X135.8
N7705 Y50.
N7710 G2 X136.4 Y50.6 I0.6 J0. F400.
N7715 G1 X137.
N7720 G18 G2 X137.6 Z-16.9 I0. K0.6
N7725 G0 Z5.
N7730 Y49.4
N7735 G1 Z-14. F200.
N7740 Z-19.4
N7745 G3 X137. Z-20. I-0.6 K0.
N7750 G1 X136.4 F400.
N7755 G17 G2 X135.8 Y50. I0. J0.6
N7760 G1 Y90. F1200.
N7765 Z-19.5
N7770 Y116.
N7775 Z-20. F200.
N7780 Y196. F1200.
N7785 Z-19.5
N7790 Y222.
N7795 Z-20. F200.
N7800 Y302. F1200.
N7805 Z-19.5
N7810 Y328.
N7815 Z-20. F200.
N7820 Y408. F1200.
N7825 Z-19.5
N7830 Y434.
N7835 Z-20. F200.
N7840 Y514. F1200.
N7845 Z-19.5
N7850 Y540.
N7855 Z-20. F200.
N7860 Y582.8 F1200.
N7865 X113.7
N7870 Y574.8
N7875 X69.3
N7880 Y582.8
N7885 X47.2
N7890 Y540.
N7895 Z-19.5
N7900 Y514.
N7905 Z-20. F200.
N7910 Y434. F1200.
N7915 Z-19.5
N7920 Y408.
N7925 Z-20. F200.
N7930 Y328. F1200.
N7935 Z-19.5
N7940 Y302.
N7945 Z-20. F200.
N7950 Y222. F1200.
N7955 Z-19.5
N7960 Y196.
N7965 Z-20. F200.
N7970 Y116. F1200.
N7975 Z-19.5
N7980 Y90.
N7985 Z-20. F200.
N7990 Y47.2 F1200.
N7995 X72.8
N8000 Y80.
N8005 G2 X110.2 I18.7 J0.
N8010 G1 Y47.2
N8015 X135.8
N8020 Y50.
N8025 G2 X136.4 Y50.6 I0.6 J0. F400.
N8030 G1 X137.
N8035 G18 G2 X137.6 Z-19.4 I0. K0.6
N8040 G0 Z5.
N8045 Y49.4
N8050 G1 Z-16.5 F200.
N8055 Z-21.9
N8060 G3 X137. Z-22.5 I-0.6 K0.
N8065 G1 X136.4 F400.
N8070 G17 G2 X135.8 Y50. I0. J0.6
N8075 G1 Y90. F1200.
N8080 Z-19.5
N8085 Y116.
N8090 Z-22.5 F200.
N8095 Y196. F1200.
N8100 Z-19.5
N8105 Y222.
N8110 Z-22.5 F200.
N8115 Y302. F1200.
N8120 Z-19.5
N8125 Y328.
N8130 Z-22.5 F200.
N8135 Y408. F1200.
N8140 Z-19.5
N8145 Y434.
N8150 Z-22.5 F200.
N8155 Y514. F1200.
N8160 Z-19.5
N8165 Y540.
N8170 Z-22.5 F200.
N8175 Y582.8 F1200.
N8180 X113.7
N8185 Y574.8
N8190 X69.3
N8195 Y582.8
N8200 X47.2
N8205 Y540.
N8210 Z-19.5
N8215 Y514.
N8220 Z-22.5 F200.
N8225 Y434. F1200.
N8230 Z-19.5
N8235 Y408.
N8240 Z-22.5 F200.
N8245 Y328. F1200.
N8250 Z-19.5
N8255 Y302.
N8260 Z-22.5 F200.
N8265 Y222. F1200.
N8270 Z-19.5
N8275 Y196.
N8280 Z-22.5 F200.
N8285 Y116. F1200.
N8290 Z-19.5
N8295 Y90.
N8300 Z-22.5 F200.
N8305 Y47.2 F1200.
N8310 X72.8
N8315 Y80.
N8320 G2 X110.2 I18.7 J0.
N8325 G1 Y47.2
N8330 X135.8
N8335 Y50.
N8340 G2 X136.4 Y50.6 I0.6 J0. F400.
N8345 G1 X137.
N8350 G18 G2 X137.6 Z-21.9 I0. K0.6
N8355 G0 Z15.
N8360 G17
N8365 M9
N8370 G53 G0 Z0.
N8375 M30
%
