%
(SLOT_FINISH)
(T1  D=6. CR=0. - ZMIN=-6.3 - FLAT END MILL)
N10 G90 G94 G17 G91.1
N15 G21
N20 G53 G0 Z0.
(2D POCKET3)
N25 M9
N30 T1 M6
N35 S22000 M3
N40 G54
N45 G0 X442.357 Y-3.896
N50 G43 Z5.5 H1
N55 G0 Z-1.
N60 G1 Z-5.7 F500.
N65 G19 G3 Y-3.296 Z-6.3 J0.6 K0.
N70 G1 Y-2.892
N75 Y0. F1200.
N80 X442.378 Y2442.895
N85 G17 G2 X442.678 Y2443.195 I0.3 J0.
N90 G1 X447. Y2443.191
N95 G2 X447.3 Y2442.891 I0. J-0.3
N100 G1 Y-2.892
N105 X447.293 Y-2.986 F500.
N110 X447.241 Y-3.31
N115 X447.227 Y-3.403 Z-6.293
N120 X447.212 Y-3.494 Z-6.271
N125 X447.199 Y-3.579 Z-6.235
N130 X447.186 Y-3.659 Z-6.185
N135 X447.175 Y-3.729 Z-6.124
N140 X447.165 Y-3.79 Z-6.053
N145 X447.158 Y-3.838 Z-5.972
N150 X447.152 Y-3.874 Z-5.885
N155 X447.149 Y-3.896 Z-5.794
N160 X447.147 Y-3.903 Z-5.7
N165 G0 Z5.
N170 X437.598 Y2443.902
N175 Z-1.
N180 G1 Z-5.7 F500.
N185 G19 G2 Y2443.302 Z-6.3 J-0.6 K0.
N190 G1 Y2442.89
N195 Y-2.895 F1200.
N200 G17 G2 X437.298 Y-3.195 I-0.3 J0.
N205 G1 X433. Y-3.191
N210 G2 X432.7 Y-2.891 I0. J0.3
N215 G1 Y2442.892
N220 X432.707 Y2442.986 F500.
N225 X432.759 Y2443.31
N230 X432.773 Y2443.403 Z-6.293
N235 X432.788 Y2443.493 Z-6.271
N240 X432.801 Y2443.579 Z-6.235
N245 X432.814 Y2443.659 Z-6.185
N250 X432.825 Y2443.729 Z-6.124
N255 X432.835 Y2443.79 Z-6.053
N260 X432.842 Y2443.838 Z-5.972
N265 X432.848 Y2443.874 Z-5.885
N270 X432.851 Y2443.896 Z-5.794
N275 X432.853 Y2443.903 Z-5.7
N280 G0 Z5.5
N285 G53 Z0.
N290 M30
%
