%
(NEW_SLOT_ALL)
(T1  D=6. CR=0. - ZMIN=-6.3 - FLAT END MILL)
N10 G90 G94 G17 G91.1
N15 G21
N20 G53 G0 Z0.
(2D POCKET3)
N25 M9
N30 T1 M6
N35 S22000 M3
N40 G54
N45 G0 X442.357 Y-3.896
N50 G43 Z5.5 H1
N55 G0 Z-1.
N60 G1 Z-5.7 F500.
N65 G19 G3 Y-3.296 Z-6.3 J0.6 K0.
N70 G1 Y-2.892
N75 Y0. F1200.
N80 X442.378 Y2442.895
N85 G17 G2 X442.678 Y2443.195 I0.3 J0.
N90 G1 X447. Y2443.191
N95 G2 X447.3 Y2442.891 I0. J-0.3
N100 G1 Y-2.892
N105 X447.293 Y-2.986 F500.
N110 X447.241 Y-3.31
N115 X447.227 Y-3.403 Z-6.293
N120 X447.212 Y-3.494 Z-6.271
N125 X447.199 Y-3.579 Z-6.235
N130 X447.186 Y-3.659 Z-6.185
N135 X447.175 Y-3.729 Z-6.124
N140 X447.165 Y-3.79 Z-6.053
N145 X447.158 Y-3.838 Z-5.972
N150 X447.152 Y-3.874 Z-5.885
N155 X447.149 Y-3.896 Z-5.794
N160 X447.147 Y-3.903 Z-5.7
N165 G0 Z5.
N170 X437.598 Y2443.902
N175 Z-1.
N180 G1 Z-5.7 F500.
N185 G19 G2 Y2443.302 Z-6.3 J-0.6 K0.
N190 G1 Y2442.89
N195 Y-2.895 F1200.
N200 G17 G2 X437.298 Y-3.195 I-0.3 J0.
N205 G1 X433. Y-3.191
N210 G2 X432.7 Y-2.891 I0. J0.3
N215 G1 Y2442.892
N220 X432.707 Y2442.986 F500.
N225 X432.759 Y2443.31
N230 X432.773 Y2443.403 Z-6.293
N235 X432.788 Y2443.493 Z-6.271
N240 X432.801 Y2443.579 Z-6.235
N245 X432.814 Y2443.659 Z-6.185
N250 X432.825 Y2443.729 Z-6.124
N255 X432.835 Y2443.79 Z-6.053
N260 X432.842 Y2443.838 Z-5.972
N265 X432.848 Y2443.874 Z-5.885
N270 X432.851 Y2443.896 Z-5.794
N275 X432.853 Y2443.903 Z-5.7
N280 G0 Z5.5
(2D POCKET2)
N285 G0 Z20.
N290 X1117.598 Y2446.902
N295 Z5.
N300 G1 Z-1.5 F500.
N305 G19 G2 Y2446.302 Z-2.1 J-0.6 K0.
N310 G1 Y2442.89
N315 Y-2.895 F1200.
N320 G17 G3 X1117.898 Y-3.195 I0.3 J0.
N325 G1 X1122.057 Y-3.192
N330 G3 X1122.357 Y-2.892 I0. J0.3
N335 G1 Y0.
N340 X1122.378 Y2442.895
N345 G2 X1122.678 Y2443.195 I0.3 J0.
N350 G1 X1127. Y2443.191
N355 G2 X1127.3 Y2442.891 I0. J-0.3
N360 G1 Y-2.892
N365 G2 X1127. Y-3.192 I-0.3 J0.
N370 G1 X1113. Y-3.191
N375 G2 X1112.7 Y-2.891 I0. J0.3
N380 G1 Y2442.892
N385 G2 X1112.918 Y2443.181 I0.3 J0.
N390 G1 X1117.216 Y2444.402
N395 G2 X1117.598 Y2444.114 I0.082 J-0.289
N400 G19 G3 Y2443.514 Z-2.7 J0. K-0.6 F500.
N405 G1 Z-3.6
N410 G2 Y2442.914 Z-4.2 J-0.6 K0.
N415 G1 Y2442.89
N420 Y-2.895 F1200.
N425 G17 G3 X1117.898 Y-3.195 I0.3 J0.
N430 G1 X1122.057 Y-3.192
N435 G3 X1122.357 Y-2.892 I0. J0.3
N440 G1 Y0.
N445 X1122.378 Y2442.895
N450 G2 X1122.678 Y2443.195 I0.3 J0.
N455 G1 X1127. Y2443.191
N460 G2 X1127.3 Y2442.891 I0. J-0.3
N465 G1 Y-2.892
N470 G2 X1127. Y-3.192 I-0.3 J0.
N475 G1 X1113. Y-3.191
N480 G2 X1112.7 Y-2.891 I0. J0.3
N485 G1 Y2442.892
N490 G2 X1112.918 Y2443.181 I0.3 J0.
N495 G1 X1117.216 Y2444.402
N500 G2 X1117.598 Y2444.114 I0.082 J-0.289
N505 G19 G3 Y2443.514 Z-4.8 J0. K-0.6 F500.
N510 G1 Z-5.7
N515 G2 Y2442.914 Z-6.3 J-0.6 K0.
N520 G1 Y2442.89
N525 Y-2.895 F1200.
N530 G17 G3 X1117.898 Y-3.195 I0.3 J0.
N535 G1 X1122.057 Y-3.192
N540 G3 X1122.357 Y-2.892 I0. J0.3
N545 G1 Y0.
N550 X1122.378 Y2442.895
N555 G2 X1122.678 Y2443.195 I0.3 J0.
N560 G1 X1127. Y2443.191
N565 G2 X1127.3 Y2442.891 I0. J-0.3
N570 G1 Y-2.892
N575 G2 X1127. Y-3.192 I-0.3 J0.
N580 G1 X1113. Y-3.191
N585 G2 X1112.7 Y-2.891 I0. J0.3
N590 G1 Y2442.892
N595 X1112.707 Y2442.986 F500.
N600 X1113.177 Y2445.949
N605 X1113.191 Y2446.042 Z-6.293
N610 X1113.206 Y2446.133 Z-6.271
N615 X1113.219 Y2446.218 Z-6.235
N620 X1113.232 Y2446.298 Z-6.185
N625 X1113.243 Y2446.368 Z-6.124
N630 X1113.253 Y2446.429 Z-6.053
N635 X1113.26 Y2446.477 Z-5.972
N640 X1113.266 Y2446.513 Z-5.885
N645 X1113.269 Y2446.535 Z-5.794
N650 X1113.271 Y2446.542 Z-5.7
N655 G0 Z20.
(2D POCKET2 3)
N660 G0 X97.598 Y2446.902
N665 Z20.
N670 Z5.
N675 G1 Z-1.5 F500.
N680 G19 G2 Y2446.302 Z-2.1 J-0.6 K0.
N685 G1 Y2442.89
N690 Y-2.895 F1200.
N695 G17 G3 X97.898 Y-3.195 I0.3 J0.
N700 G1 X102.057 Y-3.192
N705 G3 X102.357 Y-2.892 I0. J0.3
N710 G1 Y0.
N715 X102.378 Y2442.895
N720 G2 X102.678 Y2443.195 I0.3 J0.
N725 G1 X107. Y2443.191
N730 G2 X107.3 Y2442.891 I0. J-0.3
N735 G1 Y-2.892
N740 G2 X107. Y-3.192 I-0.3 J0.
N745 G1 X93. Y-3.191
N750 G2 X92.7 Y-2.891 I0. J0.3
N755 G1 Y2442.892
N760 G2 X92.918 Y2443.181 I0.3 J0.
N765 G1 X97.216 Y2444.402
N770 G2 X97.598 Y2444.114 I0.082 J-0.289
N775 G19 G3 Y2443.514 Z-2.7 J0. K-0.6 F500.
N780 G1 Z-3.6
N785 G2 Y2442.914 Z-4.2 J-0.6 K0.
N790 G1 Y2442.89
N795 Y-2.895 F1200.
N800 G17 G3 X97.898 Y-3.195 I0.3 J0.
N805 G1 X102.057 Y-3.192
N810 G3 X102.357 Y-2.892 I0. J0.3
N815 G1 Y0.
N820 X102.378 Y2442.895
N825 G2 X102.678 Y2443.195 I0.3 J0.
N830 G1 X107. Y2443.191
N835 G2 X107.3 Y2442.891 I0. J-0.3
N840 G1 Y-2.892
N845 G2 X107. Y-3.192 I-0.3 J0.
N850 G1 X93. Y-3.191
N855 G2 X92.7 Y-2.891 I0. J0.3
N860 G1 Y2442.892
N865 G2 X92.918 Y2443.181 I0.3 J0.
N870 G1 X97.216 Y2444.402
N875 G2 X97.598 Y2444.114 I0.082 J-0.289
N880 G19 G3 Y2443.514 Z-4.8 J0. K-0.6 F500.
N885 G1 Z-5.7
N890 G2 Y2442.914 Z-6.3 J-0.6 K0.
N895 G1 Y2442.89
N900 Y-2.895 F1200.
N905 G17 G3 X97.898 Y-3.195 I0.3 J0.
N910 G1 X102.057 Y-3.192
N915 G3 X102.357 Y-2.892 I0. J0.3
N920 G1 Y0.
N925 X102.378 Y2442.895
N930 G2 X102.678 Y2443.195 I0.3 J0.
N935 G1 X107. Y2443.191
N940 G2 X107.3 Y2442.891 I0. J-0.3
N945 G1 Y-2.892
N950 G2 X107. Y-3.192 I-0.3 J0.
N955 G1 X93. Y-3.191
N960 G2 X92.7 Y-2.891 I0. J0.3
N965 G1 Y2442.892
N970 X92.707 Y2442.986 F500.
N975 X93.177 Y2445.949
N980 X93.191 Y2446.042 Z-6.293
N985 X93.206 Y2446.133 Z-6.271
N990 X93.219 Y2446.218 Z-6.235
N995 X93.232 Y2446.298 Z-6.185
N1000 X93.243 Y2446.368 Z-6.124
N1005 X93.253 Y2446.429 Z-6.053
N1010 X93.26 Y2446.477 Z-5.972
N1015 X93.266 Y2446.513 Z-5.885
N1020 X93.269 Y2446.535 Z-5.794
N1025 X93.271 Y2446.542 Z-5.7
N1030 G0 Z20.
N1035 G53 Z0.
N1040 M30
%
