%
(PECK_DRILL)
(7MM DRILL)
(T3  D=5. CR=0. TAPER=118DEG - ZMIN=-12. - DRILL)
N10 G90 G94 G17 G91.1
N15 G21
N20 G53 G0 Z0.
(PECK DRILL ALUMINIUM)
N25 M9
N30 T3 M6
N35 S12000 M3
N40 G54
N45 G0 X1120. Y20.
N50 G43 Z15. H3
N55 G0 Z5.
N60 Z2.
N65 G1 Z-0.5 F30.
N70 G0 Z5.
N75 Z1.5
N80 G1 Z-1. F30.
N85 G0 Z5.
N90 Z1.
N95 G1 Z-1.5 F30.
N100 G0 Z5.
N105 Z0.5
N110 G1 Z-2. F30.
N115 G0 Z5.
N120 Z0.
N125 G1 Z-2.5 F30.
N130 G0 Z5.
N135 Z-0.5
N140 G1 Z-3. F30.
N145 G0 Z5.
N150 Z-1.
N155 G1 Z-3.5 F30.
N160 G0 Z5.
N165 Z-1.5
N170 G1 Z-4. F30.
N175 G0 Z5.
N180 Z-2.
N185 G1 Z-4.5 F30.
N190 G0 Z5.
N195 Z-2.5
N200 G1 Z-5. F30.
N205 G0 Z5.
N210 Z-3.
N215 G1 Z-5.5 F30.
N220 G0 Z5.
N225 Z-3.5
N230 G1 Z-6. F30.
N235 G0 Z5.
N240 Z-4.
N245 G1 Z-6.5 F30.
N250 G0 Z5.
N255 Z-4.5
N260 G1 Z-7. F30.
N265 G0 Z5.
N270 Z-5.
N275 G1 Z-7.5 F30.
N280 G0 Z5.
N285 Z-5.5
N290 G1 Z-8. F30.
N295 G0 Z5.
N300 Z-6.
N305 G1 Z-8.5 F30.
N310 G0 Z5.
N315 Z-6.5
N320 G1 Z-9. F30.
N325 G0 Z5.
N330 Z-7.
N335 G1 Z-9.5 F30.
N340 G0 Z5.
N345 Z-7.5
N350 G1 Z-10. F30.
N355 G0 Z5.
N360 Z-8.
N365 G1 Z-10.5 F30.
N370 G0 Z5.
N375 Z-8.5
N380 G1 Z-11. F30.
N385 G0 Z5.
N390 Z-9.
N395 G1 Z-11.5 F30.
N400 G0 Z5.
N405 Z-9.5
N410 G1 Z-12. F30.
N415 G4 P0.5
N420 G0 Z5.
N425 Y220.
N430 Z2.
N435 G1 Z-0.5 F30.
N440 G0 Z5.
N445 Z1.5
N450 G1 Z-1. F30.
N455 G0 Z5.
N460 Z1.
N465 G1 Z-1.5 F30.
N470 G0 Z5.
N475 Z0.5
N480 G1 Z-2. F30.
N485 G0 Z5.
N490 Z0.
N495 G1 Z-2.5 F30.
N500 G0 Z5.
N505 Z-0.5
N510 G1 Z-3. F30.
N515 G0 Z5.
N520 Z-1.
N525 G1 Z-3.5 F30.
N530 G0 Z5.
N535 Z-1.5
N540 G1 Z-4. F30.
N545 G0 Z5.
N550 Z-2.
N555 G1 Z-4.5 F30.
N560 G0 Z5.
N565 Z-2.5
N570 G1 Z-5. F30.
N575 G0 Z5.
N580 Z-3.
N585 G1 Z-5.5 F30.
N590 G0 Z5.
N595 Z-3.5
N600 G1 Z-6. F30.
N605 G0 Z5.
N610 Z-4.
N615 G1 Z-6.5 F30.
N620 G0 Z5.
N625 Z-4.5
N630 G1 Z-7. F30.
N635 G0 Z5.
N640 Z-5.
N645 G1 Z-7.5 F30.
N650 G0 Z5.
N655 Z-5.5
N660 G1 Z-8. F30.
N665 G0 Z5.
N670 Z-6.
N675 G1 Z-8.5 F30.
N680 G0 Z5.
N685 Z-6.5
N690 G1 Z-9. F30.
N695 G0 Z5.
N700 Z-7.
N705 G1 Z-9.5 F30.
N710 G0 Z5.
N715 Z-7.5
N720 G1 Z-10. F30.
N725 G0 Z5.
N730 Z-8.
N735 G1 Z-10.5 F30.
N740 G0 Z5.
N745 Z-8.5
N750 G1 Z-11. F30.
N755 G0 Z5.
N760 Z-9.
N765 G1 Z-11.5 F30.
N770 G0 Z5.
N775 Z-9.5
N780 G1 Z-12. F30.
N785 G4 P0.5
N790 G0 Z5.
N795 Y420.
N800 Z2.
N805 G1 Z-0.5 F30.
N810 G0 Z5.
N815 Z1.5
N820 G1 Z-1. F30.
N825 G0 Z5.
N830 Z1.
N835 G1 Z-1.5 F30.
N840 G0 Z5.
N845 Z0.5
N850 G1 Z-2. F30.
N855 G0 Z5.
N860 Z0.
N865 G1 Z-2.5 F30.
N870 G0 Z5.
N875 Z-0.5
N880 G1 Z-3. F30.
N885 G0 Z5.
N890 Z-1.
N895 G1 Z-3.5 F30.
N900 G0 Z5.
N905 Z-1.5
N910 G1 Z-4. F30.
N915 G0 Z5.
N920 Z-2.
N925 G1 Z-4.5 F30.
N930 G0 Z5.
N935 Z-2.5
N940 G1 Z-5. F30.
N945 G0 Z5.
N950 Z-3.
N955 G1 Z-5.5 F30.
N960 G0 Z5.
N965 Z-3.5
N970 G1 Z-6. F30.
N975 G0 Z5.
N980 Z-4.
N985 G1 Z-6.5 F30.
N990 G0 Z5.
N995 Z-4.5
N1000 G1 Z-7. F30.
N1005 G0 Z5.
N1010 Z-5.
N1015 G1 Z-7.5 F30.
N1020 G0 Z5.
N1025 Z-5.5
N1030 G1 Z-8. F30.
N1035 G0 Z5.
N1040 Z-6.
N1045 G1 Z-8.5 F30.
N1050 G0 Z5.
N1055 Z-6.5
N1060 G1 Z-9. F30.
N1065 G0 Z5.
N1070 Z-7.
N1075 G1 Z-9.5 F30.
N1080 G0 Z5.
N1085 Z-7.5
N1090 G1 Z-10. F30.
N1095 G0 Z5.
N1100 Z-8.
N1105 G1 Z-10.5 F30.
N1110 G0 Z5.
N1115 Z-8.5
N1120 G1 Z-11. F30.
N1125 G0 Z5.
N1130 Z-9.
N1135 G1 Z-11.5 F30.
N1140 G0 Z5.
N1145 Z-9.5
N1150 G1 Z-12. F30.
N1155 G4 P0.5
N1160 G0 Z5.
N1165 Y620.
N1170 Z2.
N1175 G1 Z-0.5 F30.
N1180 G0 Z5.
N1185 Z1.5
N1190 G1 Z-1. F30.
N1195 G0 Z5.
N1200 Z1.
N1205 G1 Z-1.5 F30.
N1210 G0 Z5.
N1215 Z0.5
N1220 G1 Z-2. F30.
N1225 G0 Z5.
N1230 Z0.
N1235 G1 Z-2.5 F30.
N1240 G0 Z5.
N1245 Z-0.5
N1250 G1 Z-3. F30.
N1255 G0 Z5.
N1260 Z-1.
N1265 G1 Z-3.5 F30.
N1270 G0 Z5.
N1275 Z-1.5
N1280 G1 Z-4. F30.
N1285 G0 Z5.
N1290 Z-2.
N1295 G1 Z-4.5 F30.
N1300 G0 Z5.
N1305 Z-2.5
N1310 G1 Z-5. F30.
N1315 G0 Z5.
N1320 Z-3.
N1325 G1 Z-5.5 F30.
N1330 G0 Z5.
N1335 Z-3.5
N1340 G1 Z-6. F30.
N1345 G0 Z5.
N1350 Z-4.
N1355 G1 Z-6.5 F30.
N1360 G0 Z5.
N1365 Z-4.5
N1370 G1 Z-7. F30.
N1375 G0 Z5.
N1380 Z-5.
N1385 G1 Z-7.5 F30.
N1390 G0 Z5.
N1395 Z-5.5
N1400 G1 Z-8. F30.
N1405 G0 Z5.
N1410 Z-6.
N1415 G1 Z-8.5 F30.
N1420 G0 Z5.
N1425 Z-6.5
N1430 G1 Z-9. F30.
N1435 G0 Z5.
N1440 Z-7.
N1445 G1 Z-9.5 F30.
N1450 G0 Z5.
N1455 Z-7.5
N1460 G1 Z-10. F30.
N1465 G0 Z5.
N1470 Z-8.
N1475 G1 Z-10.5 F30.
N1480 G0 Z5.
N1485 Z-8.5
N1490 G1 Z-11. F30.
N1495 G0 Z5.
N1500 Z-9.
N1505 G1 Z-11.5 F30.
N1510 G0 Z5.
N1515 Z-9.5
N1520 G1 Z-12. F30.
N1525 G4 P0.5
N1530 G0 Z5.
N1535 Y820.
N1540 Z2.
N1545 G1 Z-0.5 F30.
N1550 G0 Z5.
N1555 Z1.5
N1560 G1 Z-1. F30.
N1565 G0 Z5.
N1570 Z1.
N1575 G1 Z-1.5 F30.
N1580 G0 Z5.
N1585 Z0.5
N1590 G1 Z-2. F30.
N1595 G0 Z5.
N1600 Z0.
N1605 G1 Z-2.5 F30.
N1610 G0 Z5.
N1615 Z-0.5
N1620 G1 Z-3. F30.
N1625 G0 Z5.
N1630 Z-1.
N1635 G1 Z-3.5 F30.
N1640 G0 Z5.
N1645 Z-1.5
N1650 G1 Z-4. F30.
N1655 G0 Z5.
N1660 Z-2.
N1665 G1 Z-4.5 F30.
N1670 G0 Z5.
N1675 Z-2.5
N1680 G1 Z-5. F30.
N1685 G0 Z5.
N1690 Z-3.
N1695 G1 Z-5.5 F30.
N1700 G0 Z5.
N1705 Z-3.5
N1710 G1 Z-6. F30.
N1715 G0 Z5.
N1720 Z-4.
N1725 G1 Z-6.5 F30.
N1730 G0 Z5.
N1735 Z-4.5
N1740 G1 Z-7. F30.
N1745 G0 Z5.
N1750 Z-5.
N1755 G1 Z-7.5 F30.
N1760 G0 Z5.
N1765 Z-5.5
N1770 G1 Z-8. F30.
N1775 G0 Z5.
N1780 Z-6.
N1785 G1 Z-8.5 F30.
N1790 G0 Z5.
N1795 Z-6.5
N1800 G1 Z-9. F30.
N1805 G0 Z5.
N1810 Z-7.
N1815 G1 Z-9.5 F30.
N1820 G0 Z5.
N1825 Z-7.5
N1830 G1 Z-10. F30.
N1835 G0 Z5.
N1840 Z-8.
N1845 G1 Z-10.5 F30.
N1850 G0 Z5.
N1855 Z-8.5
N1860 G1 Z-11. F30.
N1865 G0 Z5.
N1870 Z-9.
N1875 G1 Z-11.5 F30.
N1880 G0 Z5.
N1885 Z-9.5
N1890 G1 Z-12. F30.
N1895 G4 P0.5
N1900 G0 Z5.
N1905 Y1020.
N1910 Z2.
N1915 G1 Z-0.5 F30.
N1920 G0 Z5.
N1925 Z1.5
N1930 G1 Z-1. F30.
N1935 G0 Z5.
N1940 Z1.
N1945 G1 Z-1.5 F30.
N1950 G0 Z5.
N1955 Z0.5
N1960 G1 Z-2. F30.
N1965 G0 Z5.
N1970 Z0.
N1975 G1 Z-2.5 F30.
N1980 G0 Z5.
N1985 Z-0.5
N1990 G1 Z-3. F30.
N1995 G0 Z5.
N2000 Z-1.
N2005 G1 Z-3.5 F30.
N2010 G0 Z5.
N2015 Z-1.5
N2020 G1 Z-4. F30.
N2025 G0 Z5.
N2030 Z-2.
N2035 G1 Z-4.5 F30.
N2040 G0 Z5.
N2045 Z-2.5
N2050 G1 Z-5. F30.
N2055 G0 Z5.
N2060 Z-3.
N2065 G1 Z-5.5 F30.
N2070 G0 Z5.
N2075 Z-3.5
N2080 G1 Z-6. F30.
N2085 G0 Z5.
N2090 Z-4.
N2095 G1 Z-6.5 F30.
N2100 G0 Z5.
N2105 Z-4.5
N2110 G1 Z-7. F30.
N2115 G0 Z5.
N2120 Z-5.
N2125 G1 Z-7.5 F30.
N2130 G0 Z5.
N2135 Z-5.5
N2140 G1 Z-8. F30.
N2145 G0 Z5.
N2150 Z-6.
N2155 G1 Z-8.5 F30.
N2160 G0 Z5.
N2165 Z-6.5
N2170 G1 Z-9. F30.
N2175 G0 Z5.
N2180 Z-7.
N2185 G1 Z-9.5 F30.
N2190 G0 Z5.
N2195 Z-7.5
N2200 G1 Z-10. F30.
N2205 G0 Z5.
N2210 Z-8.
N2215 G1 Z-10.5 F30.
N2220 G0 Z5.
N2225 Z-8.5
N2230 G1 Z-11. F30.
N2235 G0 Z5.
N2240 Z-9.
N2245 G1 Z-11.5 F30.
N2250 G0 Z5.
N2255 Z-9.5
N2260 G1 Z-12. F30.
N2265 G4 P0.5
N2270 G0 Z5.
N2275 Y1220.
N2280 Z2.
N2285 G1 Z-0.5 F30.
N2290 G0 Z5.
N2295 Z1.5
N2300 G1 Z-1. F30.
N2305 G0 Z5.
N2310 Z1.
N2315 G1 Z-1.5 F30.
N2320 G0 Z5.
N2325 Z0.5
N2330 G1 Z-2. F30.
N2335 G0 Z5.
N2340 Z0.
N2345 G1 Z-2.5 F30.
N2350 G0 Z5.
N2355 Z-0.5
N2360 G1 Z-3. F30.
N2365 G0 Z5.
N2370 Z-1.
N2375 G1 Z-3.5 F30.
N2380 G0 Z5.
N2385 Z-1.5
N2390 G1 Z-4. F30.
N2395 G0 Z5.
N2400 Z-2.
N2405 G1 Z-4.5 F30.
N2410 G0 Z5.
N2415 Z-2.5
N2420 G1 Z-5. F30.
N2425 G0 Z5.
N2430 Z-3.
N2435 G1 Z-5.5 F30.
N2440 G0 Z5.
N2445 Z-3.5
N2450 G1 Z-6. F30.
N2455 G0 Z5.
N2460 Z-4.
N2465 G1 Z-6.5 F30.
N2470 G0 Z5.
N2475 Z-4.5
N2480 G1 Z-7. F30.
N2485 G0 Z5.
N2490 Z-5.
N2495 G1 Z-7.5 F30.
N2500 G0 Z5.
N2505 Z-5.5
N2510 G1 Z-8. F30.
N2515 G0 Z5.
N2520 Z-6.
N2525 G1 Z-8.5 F30.
N2530 G0 Z5.
N2535 Z-6.5
N2540 G1 Z-9. F30.
N2545 G0 Z5.
N2550 Z-7.
N2555 G1 Z-9.5 F30.
N2560 G0 Z5.
N2565 Z-7.5
N2570 G1 Z-10. F30.
N2575 G0 Z5.
N2580 Z-8.
N2585 G1 Z-10.5 F30.
N2590 G0 Z5.
N2595 Z-8.5
N2600 G1 Z-11. F30.
N2605 G0 Z5.
N2610 Z-9.
N2615 G1 Z-11.5 F30.
N2620 G0 Z5.
N2625 Z-9.5
N2630 G1 Z-12. F30.
N2635 G4 P0.5
N2640 G0 Z5.
N2645 Y1420.
N2650 Z2.
N2655 G1 Z-0.5 F30.
N2660 G0 Z5.
N2665 Z1.5
N2670 G1 Z-1. F30.
N2675 G0 Z5.
N2680 Z1.
N2685 G1 Z-1.5 F30.
N2690 G0 Z5.
N2695 Z0.5
N2700 G1 Z-2. F30.
N2705 G0 Z5.
N2710 Z0.
N2715 G1 Z-2.5 F30.
N2720 G0 Z5.
N2725 Z-0.5
N2730 G1 Z-3. F30.
N2735 G0 Z5.
N2740 Z-1.
N2745 G1 Z-3.5 F30.
N2750 G0 Z5.
N2755 Z-1.5
N2760 G1 Z-4. F30.
N2765 G0 Z5.
N2770 Z-2.
N2775 G1 Z-4.5 F30.
N2780 G0 Z5.
N2785 Z-2.5
N2790 G1 Z-5. F30.
N2795 G0 Z5.
N2800 Z-3.
N2805 G1 Z-5.5 F30.
N2810 G0 Z5.
N2815 Z-3.5
N2820 G1 Z-6. F30.
N2825 G0 Z5.
N2830 Z-4.
N2835 G1 Z-6.5 F30.
N2840 G0 Z5.
N2845 Z-4.5
N2850 G1 Z-7. F30.
N2855 G0 Z5.
N2860 Z-5.
N2865 G1 Z-7.5 F30.
N2870 G0 Z5.
N2875 Z-5.5
N2880 G1 Z-8. F30.
N2885 G0 Z5.
N2890 Z-6.
N2895 G1 Z-8.5 F30.
N2900 G0 Z5.
N2905 Z-6.5
N2910 G1 Z-9. F30.
N2915 G0 Z5.
N2920 Z-7.
N2925 G1 Z-9.5 F30.
N2930 G0 Z5.
N2935 Z-7.5
N2940 G1 Z-10. F30.
N2945 G0 Z5.
N2950 Z-8.
N2955 G1 Z-10.5 F30.
N2960 G0 Z5.
N2965 Z-8.5
N2970 G1 Z-11. F30.
N2975 G0 Z5.
N2980 Z-9.
N2985 G1 Z-11.5 F30.
N2990 G0 Z5.
N2995 Z-9.5
N3000 G1 Z-12. F30.
N3005 G4 P0.5
N3010 G0 Z5.
N3015 Y1620.
N3020 Z2.
N3025 G1 Z-0.5 F30.
N3030 G0 Z5.
N3035 Z1.5
N3040 G1 Z-1. F30.
N3045 G0 Z5.
N3050 Z1.
N3055 G1 Z-1.5 F30.
N3060 G0 Z5.
N3065 Z0.5
N3070 G1 Z-2. F30.
N3075 G0 Z5.
N3080 Z0.
N3085 G1 Z-2.5 F30.
N3090 G0 Z5.
N3095 Z-0.5
N3100 G1 Z-3. F30.
N3105 G0 Z5.
N3110 Z-1.
N3115 G1 Z-3.5 F30.
N3120 G0 Z5.
N3125 Z-1.5
N3130 G1 Z-4. F30.
N3135 G0 Z5.
N3140 Z-2.
N3145 G1 Z-4.5 F30.
N3150 G0 Z5.
N3155 Z-2.5
N3160 G1 Z-5. F30.
N3165 G0 Z5.
N3170 Z-3.
N3175 G1 Z-5.5 F30.
N3180 G0 Z5.
N3185 Z-3.5
N3190 G1 Z-6. F30.
N3195 G0 Z5.
N3200 Z-4.
N3205 G1 Z-6.5 F30.
N3210 G0 Z5.
N3215 Z-4.5
N3220 G1 Z-7. F30.
N3225 G0 Z5.
N3230 Z-5.
N3235 G1 Z-7.5 F30.
N3240 G0 Z5.
N3245 Z-5.5
N3250 G1 Z-8. F30.
N3255 G0 Z5.
N3260 Z-6.
N3265 G1 Z-8.5 F30.
N3270 G0 Z5.
N3275 Z-6.5
N3280 G1 Z-9. F30.
N3285 G0 Z5.
N3290 Z-7.
N3295 G1 Z-9.5 F30.
N3300 G0 Z5.
N3305 Z-7.5
N3310 G1 Z-10. F30.
N3315 G0 Z5.
N3320 Z-8.
N3325 G1 Z-10.5 F30.
N3330 G0 Z5.
N3335 Z-8.5
N3340 G1 Z-11. F30.
N3345 G0 Z5.
N3350 Z-9.
N3355 G1 Z-11.5 F30.
N3360 G0 Z5.
N3365 Z-9.5
N3370 G1 Z-12. F30.
N3375 G4 P0.5
N3380 G0 Z5.
N3385 Y1820.
N3390 Z2.
N3395 G1 Z-0.5 F30.
N3400 G0 Z5.
N3405 Z1.5
N3410 G1 Z-1. F30.
N3415 G0 Z5.
N3420 Z1.
N3425 G1 Z-1.5 F30.
N3430 G0 Z5.
N3435 Z0.5
N3440 G1 Z-2. F30.
N3445 G0 Z5.
N3450 Z0.
N3455 G1 Z-2.5 F30.
N3460 G0 Z5.
N3465 Z-0.5
N3470 G1 Z-3. F30.
N3475 G0 Z5.
N3480 Z-1.
N3485 G1 Z-3.5 F30.
N3490 G0 Z5.
N3495 Z-1.5
N3500 G1 Z-4. F30.
N3505 G0 Z5.
N3510 Z-2.
N3515 G1 Z-4.5 F30.
N3520 G0 Z5.
N3525 Z-2.5
N3530 G1 Z-5. F30.
N3535 G0 Z5.
N3540 Z-3.
N3545 G1 Z-5.5 F30.
N3550 G0 Z5.
N3555 Z-3.5
N3560 G1 Z-6. F30.
N3565 G0 Z5.
N3570 Z-4.
N3575 G1 Z-6.5 F30.
N3580 G0 Z5.
N3585 Z-4.5
N3590 G1 Z-7. F30.
N3595 G0 Z5.
N3600 Z-5.
N3605 G1 Z-7.5 F30.
N3610 G0 Z5.
N3615 Z-5.5
N3620 G1 Z-8. F30.
N3625 G0 Z5.
N3630 Z-6.
N3635 G1 Z-8.5 F30.
N3640 G0 Z5.
N3645 Z-6.5
N3650 G1 Z-9. F30.
N3655 G0 Z5.
N3660 Z-7.
N3665 G1 Z-9.5 F30.
N3670 G0 Z5.
N3675 Z-7.5
N3680 G1 Z-10. F30.
N3685 G0 Z5.
N3690 Z-8.
N3695 G1 Z-10.5 F30.
N3700 G0 Z5.
N3705 Z-8.5
N3710 G1 Z-11. F30.
N3715 G0 Z5.
N3720 Z-9.
N3725 G1 Z-11.5 F30.
N3730 G0 Z5.
N3735 Z-9.5
N3740 G1 Z-12. F30.
N3745 G4 P0.5
N3750 G0 Z5.
N3755 Y2020.
N3760 Z2.
N3765 G1 Z-0.5 F30.
N3770 G0 Z5.
N3775 Z1.5
N3780 G1 Z-1. F30.
N3785 G0 Z5.
N3790 Z1.
N3795 G1 Z-1.5 F30.
N3800 G0 Z5.
N3805 Z0.5
N3810 G1 Z-2. F30.
N3815 G0 Z5.
N3820 Z0.
N3825 G1 Z-2.5 F30.
N3830 G0 Z5.
N3835 Z-0.5
N3840 G1 Z-3. F30.
N3845 G0 Z5.
N3850 Z-1.
N3855 G1 Z-3.5 F30.
N3860 G0 Z5.
N3865 Z-1.5
N3870 G1 Z-4. F30.
N3875 G0 Z5.
N3880 Z-2.
N3885 G1 Z-4.5 F30.
N3890 G0 Z5.
N3895 Z-2.5
N3900 G1 Z-5. F30.
N3905 G0 Z5.
N3910 Z-3.
N3915 G1 Z-5.5 F30.
N3920 G0 Z5.
N3925 Z-3.5
N3930 G1 Z-6. F30.
N3935 G0 Z5.
N3940 Z-4.
N3945 G1 Z-6.5 F30.
N3950 G0 Z5.
N3955 Z-4.5
N3960 G1 Z-7. F30.
N3965 G0 Z5.
N3970 Z-5.
N3975 G1 Z-7.5 F30.
N3980 G0 Z5.
N3985 Z-5.5
N3990 G1 Z-8. F30.
N3995 G0 Z5.
N4000 Z-6.
N4005 G1 Z-8.5 F30.
N4010 G0 Z5.
N4015 Z-6.5
N4020 G1 Z-9. F30.
N4025 G0 Z5.
N4030 Z-7.
N4035 G1 Z-9.5 F30.
N4040 G0 Z5.
N4045 Z-7.5
N4050 G1 Z-10. F30.
N4055 G0 Z5.
N4060 Z-8.
N4065 G1 Z-10.5 F30.
N4070 G0 Z5.
N4075 Z-8.5
N4080 G1 Z-11. F30.
N4085 G0 Z5.
N4090 Z-9.
N4095 G1 Z-11.5 F30.
N4100 G0 Z5.
N4105 Z-9.5
N4110 G1 Z-12. F30.
N4115 G4 P0.5
N4120 G0 Z5.
N4125 Y2220.
N4130 Z2.
N4135 G1 Z-0.5 F30.
N4140 G0 Z5.
N4145 Z1.5
N4150 G1 Z-1. F30.
N4155 G0 Z5.
N4160 Z1.
N4165 G1 Z-1.5 F30.
N4170 G0 Z5.
N4175 Z0.5
N4180 G1 Z-2. F30.
N4185 G0 Z5.
N4190 Z0.
N4195 G1 Z-2.5 F30.
N4200 G0 Z5.
N4205 Z-0.5
N4210 G1 Z-3. F30.
N4215 G0 Z5.
N4220 Z-1.
N4225 G1 Z-3.5 F30.
N4230 G0 Z5.
N4235 Z-1.5
N4240 G1 Z-4. F30.
N4245 G0 Z5.
N4250 Z-2.
N4255 G1 Z-4.5 F30.
N4260 G0 Z5.
N4265 Z-2.5
N4270 G1 Z-5. F30.
N4275 G0 Z5.
N4280 Z-3.
N4285 G1 Z-5.5 F30.
N4290 G0 Z5.
N4295 Z-3.5
N4300 G1 Z-6. F30.
N4305 G0 Z5.
N4310 Z-4.
N4315 G1 Z-6.5 F30.
N4320 G0 Z5.
N4325 Z-4.5
N4330 G1 Z-7. F30.
N4335 G0 Z5.
N4340 Z-5.
N4345 G1 Z-7.5 F30.
N4350 G0 Z5.
N4355 Z-5.5
N4360 G1 Z-8. F30.
N4365 G0 Z5.
N4370 Z-6.
N4375 G1 Z-8.5 F30.
N4380 G0 Z5.
N4385 Z-6.5
N4390 G1 Z-9. F30.
N4395 G0 Z5.
N4400 Z-7.
N4405 G1 Z-9.5 F30.
N4410 G0 Z5.
N4415 Z-7.5
N4420 G1 Z-10. F30.
N4425 G0 Z5.
N4430 Z-8.
N4435 G1 Z-10.5 F30.
N4440 G0 Z5.
N4445 Z-8.5
N4450 G1 Z-11. F30.
N4455 G0 Z5.
N4460 Z-9.
N4465 G1 Z-11.5 F30.
N4470 G0 Z5.
N4475 Z-9.5
N4480 G1 Z-12. F30.
N4485 G4 P0.5
N4490 G0 Z5.
N4495 Y2420.
N4500 Z2.
N4505 G1 Z-0.5 F30.
N4510 G0 Z5.
N4515 Z1.5
N4520 G1 Z-1. F30.
N4525 G0 Z5.
N4530 Z1.
N4535 G1 Z-1.5 F30.
N4540 G0 Z5.
N4545 Z0.5
N4550 G1 Z-2. F30.
N4555 G0 Z5.
N4560 Z0.
N4565 G1 Z-2.5 F30.
N4570 G0 Z5.
N4575 Z-0.5
N4580 G1 Z-3. F30.
N4585 G0 Z5.
N4590 Z-1.
N4595 G1 Z-3.5 F30.
N4600 G0 Z5.
N4605 Z-1.5
N4610 G1 Z-4. F30.
N4615 G0 Z5.
N4620 Z-2.
N4625 G1 Z-4.5 F30.
N4630 G0 Z5.
N4635 Z-2.5
N4640 G1 Z-5. F30.
N4645 G0 Z5.
N4650 Z-3.
N4655 G1 Z-5.5 F30.
N4660 G0 Z5.
N4665 Z-3.5
N4670 G1 Z-6. F30.
N4675 G0 Z5.
N4680 Z-4.
N4685 G1 Z-6.5 F30.
N4690 G0 Z5.
N4695 Z-4.5
N4700 G1 Z-7. F30.
N4705 G0 Z5.
N4710 Z-5.
N4715 G1 Z-7.5 F30.
N4720 G0 Z5.
N4725 Z-5.5
N4730 G1 Z-8. F30.
N4735 G0 Z5.
N4740 Z-6.
N4745 G1 Z-8.5 F30.
N4750 G0 Z5.
N4755 Z-6.5
N4760 G1 Z-9. F30.
N4765 G0 Z5.
N4770 Z-7.
N4775 G1 Z-9.5 F30.
N4780 G0 Z5.
N4785 Z-7.5
N4790 G1 Z-10. F30.
N4795 G0 Z5.
N4800 Z-8.
N4805 G1 Z-10.5 F30.
N4810 G0 Z5.
N4815 Z-8.5
N4820 G1 Z-11. F30.
N4825 G0 Z5.
N4830 Z-9.
N4835 G1 Z-11.5 F30.
N4840 G0 Z5.
N4845 Z-9.5
N4850 G1 Z-12. F30.
N4855 G4 P0.5
N4860 G0 Z5.
N4865 X780.
N4870 Z2.
N4875 G1 Z-0.5 F30.
N4880 G0 Z5.
N4885 Z1.5
N4890 G1 Z-1. F30.
N4895 G0 Z5.
N4900 Z1.
N4905 G1 Z-1.5 F30.
N4910 G0 Z5.
N4915 Z0.5
N4920 G1 Z-2. F30.
N4925 G0 Z5.
N4930 Z0.
N4935 G1 Z-2.5 F30.
N4940 G0 Z5.
N4945 Z-0.5
N4950 G1 Z-3. F30.
N4955 G0 Z5.
N4960 Z-1.
N4965 G1 Z-3.5 F30.
N4970 G0 Z5.
N4975 Z-1.5
N4980 G1 Z-4. F30.
N4985 G0 Z5.
N4990 Z-2.
N4995 G1 Z-4.5 F30.
N5000 G0 Z5.
N5005 Z-2.5
N5010 G1 Z-5. F30.
N5015 G0 Z5.
N5020 Z-3.
N5025 G1 Z-5.5 F30.
N5030 G0 Z5.
N5035 Z-3.5
N5040 G1 Z-6. F30.
N5045 G0 Z5.
N5050 Z-4.
N5055 G1 Z-6.5 F30.
N5060 G0 Z5.
N5065 Z-4.5
N5070 G1 Z-7. F30.
N5075 G0 Z5.
N5080 Z-5.
N5085 G1 Z-7.5 F30.
N5090 G0 Z5.
N5095 Z-5.5
N5100 G1 Z-8. F30.
N5105 G0 Z5.
N5110 Z-6.
N5115 G1 Z-8.5 F30.
N5120 G0 Z5.
N5125 Z-6.5
N5130 G1 Z-9. F30.
N5135 G0 Z5.
N5140 Z-7.
N5145 G1 Z-9.5 F30.
N5150 G0 Z5.
N5155 Z-7.5
N5160 G1 Z-10. F30.
N5165 G0 Z5.
N5170 Z-8.
N5175 G1 Z-10.5 F30.
N5180 G0 Z5.
N5185 Z-8.5
N5190 G1 Z-11. F30.
N5195 G0 Z5.
N5200 Z-9.
N5205 G1 Z-11.5 F30.
N5210 G0 Z5.
N5215 Z-9.5
N5220 G1 Z-12. F30.
N5225 G4 P0.5
N5230 G0 Z5.
N5235 Y2220.
N5240 Z2.
N5245 G1 Z-0.5 F30.
N5250 G0 Z5.
N5255 Z1.5
N5260 G1 Z-1. F30.
N5265 G0 Z5.
N5270 Z1.
N5275 G1 Z-1.5 F30.
N5280 G0 Z5.
N5285 Z0.5
N5290 G1 Z-2. F30.
N5295 G0 Z5.
N5300 Z0.
N5305 G1 Z-2.5 F30.
N5310 G0 Z5.
N5315 Z-0.5
N5320 G1 Z-3. F30.
N5325 G0 Z5.
N5330 Z-1.
N5335 G1 Z-3.5 F30.
N5340 G0 Z5.
N5345 Z-1.5
N5350 G1 Z-4. F30.
N5355 G0 Z5.
N5360 Z-2.
N5365 G1 Z-4.5 F30.
N5370 G0 Z5.
N5375 Z-2.5
N5380 G1 Z-5. F30.
N5385 G0 Z5.
N5390 Z-3.
N5395 G1 Z-5.5 F30.
N5400 G0 Z5.
N5405 Z-3.5
N5410 G1 Z-6. F30.
N5415 G0 Z5.
N5420 Z-4.
N5425 G1 Z-6.5 F30.
N5430 G0 Z5.
N5435 Z-4.5
N5440 G1 Z-7. F30.
N5445 G0 Z5.
N5450 Z-5.
N5455 G1 Z-7.5 F30.
N5460 G0 Z5.
N5465 Z-5.5
N5470 G1 Z-8. F30.
N5475 G0 Z5.
N5480 Z-6.
N5485 G1 Z-8.5 F30.
N5490 G0 Z5.
N5495 Z-6.5
N5500 G1 Z-9. F30.
N5505 G0 Z5.
N5510 Z-7.
N5515 G1 Z-9.5 F30.
N5520 G0 Z5.
N5525 Z-7.5
N5530 G1 Z-10. F30.
N5535 G0 Z5.
N5540 Z-8.
N5545 G1 Z-10.5 F30.
N5550 G0 Z5.
N5555 Z-8.5
N5560 G1 Z-11. F30.
N5565 G0 Z5.
N5570 Z-9.
N5575 G1 Z-11.5 F30.
N5580 G0 Z5.
N5585 Z-9.5
N5590 G1 Z-12. F30.
N5595 G4 P0.5
N5600 G0 Z5.
N5605 Y2020.
N5610 Z2.
N5615 G1 Z-0.5 F30.
N5620 G0 Z5.
N5625 Z1.5
N5630 G1 Z-1. F30.
N5635 G0 Z5.
N5640 Z1.
N5645 G1 Z-1.5 F30.
N5650 G0 Z5.
N5655 Z0.5
N5660 G1 Z-2. F30.
N5665 G0 Z5.
N5670 Z0.
N5675 G1 Z-2.5 F30.
N5680 G0 Z5.
N5685 Z-0.5
N5690 G1 Z-3. F30.
N5695 G0 Z5.
N5700 Z-1.
N5705 G1 Z-3.5 F30.
N5710 G0 Z5.
N5715 Z-1.5
N5720 G1 Z-4. F30.
N5725 G0 Z5.
N5730 Z-2.
N5735 G1 Z-4.5 F30.
N5740 G0 Z5.
N5745 Z-2.5
N5750 G1 Z-5. F30.
N5755 G0 Z5.
N5760 Z-3.
N5765 G1 Z-5.5 F30.
N5770 G0 Z5.
N5775 Z-3.5
N5780 G1 Z-6. F30.
N5785 G0 Z5.
N5790 Z-4.
N5795 G1 Z-6.5 F30.
N5800 G0 Z5.
N5805 Z-4.5
N5810 G1 Z-7. F30.
N5815 G0 Z5.
N5820 Z-5.
N5825 G1 Z-7.5 F30.
N5830 G0 Z5.
N5835 Z-5.5
N5840 G1 Z-8. F30.
N5845 G0 Z5.
N5850 Z-6.
N5855 G1 Z-8.5 F30.
N5860 G0 Z5.
N5865 Z-6.5
N5870 G1 Z-9. F30.
N5875 G0 Z5.
N5880 Z-7.
N5885 G1 Z-9.5 F30.
N5890 G0 Z5.
N5895 Z-7.5
N5900 G1 Z-10. F30.
N5905 G0 Z5.
N5910 Z-8.
N5915 G1 Z-10.5 F30.
N5920 G0 Z5.
N5925 Z-8.5
N5930 G1 Z-11. F30.
N5935 G0 Z5.
N5940 Z-9.
N5945 G1 Z-11.5 F30.
N5950 G0 Z5.
N5955 Z-9.5
N5960 G1 Z-12. F30.
N5965 G4 P0.5
N5970 G0 Z5.
N5975 Y1820.
N5980 Z2.
N5985 G1 Z-0.5 F30.
N5990 G0 Z5.
N5995 Z1.5
N6000 G1 Z-1. F30.
N6005 G0 Z5.
N6010 Z1.
N6015 G1 Z-1.5 F30.
N6020 G0 Z5.
N6025 Z0.5
N6030 G1 Z-2. F30.
N6035 G0 Z5.
N6040 Z0.
N6045 G1 Z-2.5 F30.
N6050 G0 Z5.
N6055 Z-0.5
N6060 G1 Z-3. F30.
N6065 G0 Z5.
N6070 Z-1.
N6075 G1 Z-3.5 F30.
N6080 G0 Z5.
N6085 Z-1.5
N6090 G1 Z-4. F30.
N6095 G0 Z5.
N6100 Z-2.
N6105 G1 Z-4.5 F30.
N6110 G0 Z5.
N6115 Z-2.5
N6120 G1 Z-5. F30.
N6125 G0 Z5.
N6130 Z-3.
N6135 G1 Z-5.5 F30.
N6140 G0 Z5.
N6145 Z-3.5
N6150 G1 Z-6. F30.
N6155 G0 Z5.
N6160 Z-4.
N6165 G1 Z-6.5 F30.
N6170 G0 Z5.
N6175 Z-4.5
N6180 G1 Z-7. F30.
N6185 G0 Z5.
N6190 Z-5.
N6195 G1 Z-7.5 F30.
N6200 G0 Z5.
N6205 Z-5.5
N6210 G1 Z-8. F30.
N6215 G0 Z5.
N6220 Z-6.
N6225 G1 Z-8.5 F30.
N6230 G0 Z5.
N6235 Z-6.5
N6240 G1 Z-9. F30.
N6245 G0 Z5.
N6250 Z-7.
N6255 G1 Z-9.5 F30.
N6260 G0 Z5.
N6265 Z-7.5
N6270 G1 Z-10. F30.
N6275 G0 Z5.
N6280 Z-8.
N6285 G1 Z-10.5 F30.
N6290 G0 Z5.
N6295 Z-8.5
N6300 G1 Z-11. F30.
N6305 G0 Z5.
N6310 Z-9.
N6315 G1 Z-11.5 F30.
N6320 G0 Z5.
N6325 Z-9.5
N6330 G1 Z-12. F30.
N6335 G4 P0.5
N6340 G0 Z5.
N6345 Y1620.
N6350 Z2.
N6355 G1 Z-0.5 F30.
N6360 G0 Z5.
N6365 Z1.5
N6370 G1 Z-1. F30.
N6375 G0 Z5.
N6380 Z1.
N6385 G1 Z-1.5 F30.
N6390 G0 Z5.
N6395 Z0.5
N6400 G1 Z-2. F30.
N6405 G0 Z5.
N6410 Z0.
N6415 G1 Z-2.5 F30.
N6420 G0 Z5.
N6425 Z-0.5
N6430 G1 Z-3. F30.
N6435 G0 Z5.
N6440 Z-1.
N6445 G1 Z-3.5 F30.
N6450 G0 Z5.
N6455 Z-1.5
N6460 G1 Z-4. F30.
N6465 G0 Z5.
N6470 Z-2.
N6475 G1 Z-4.5 F30.
N6480 G0 Z5.
N6485 Z-2.5
N6490 G1 Z-5. F30.
N6495 G0 Z5.
N6500 Z-3.
N6505 G1 Z-5.5 F30.
N6510 G0 Z5.
N6515 Z-3.5
N6520 G1 Z-6. F30.
N6525 G0 Z5.
N6530 Z-4.
N6535 G1 Z-6.5 F30.
N6540 G0 Z5.
N6545 Z-4.5
N6550 G1 Z-7. F30.
N6555 G0 Z5.
N6560 Z-5.
N6565 G1 Z-7.5 F30.
N6570 G0 Z5.
N6575 Z-5.5
N6580 G1 Z-8. F30.
N6585 G0 Z5.
N6590 Z-6.
N6595 G1 Z-8.5 F30.
N6600 G0 Z5.
N6605 Z-6.5
N6610 G1 Z-9. F30.
N6615 G0 Z5.
N6620 Z-7.
N6625 G1 Z-9.5 F30.
N6630 G0 Z5.
N6635 Z-7.5
N6640 G1 Z-10. F30.
N6645 G0 Z5.
N6650 Z-8.
N6655 G1 Z-10.5 F30.
N6660 G0 Z5.
N6665 Z-8.5
N6670 G1 Z-11. F30.
N6675 G0 Z5.
N6680 Z-9.
N6685 G1 Z-11.5 F30.
N6690 G0 Z5.
N6695 Z-9.5
N6700 G1 Z-12. F30.
N6705 G4 P0.5
N6710 G0 Z5.
N6715 Y1420.
N6720 Z2.
N6725 G1 Z-0.5 F30.
N6730 G0 Z5.
N6735 Z1.5
N6740 G1 Z-1. F30.
N6745 G0 Z5.
N6750 Z1.
N6755 G1 Z-1.5 F30.
N6760 G0 Z5.
N6765 Z0.5
N6770 G1 Z-2. F30.
N6775 G0 Z5.
N6780 Z0.
N6785 G1 Z-2.5 F30.
N6790 G0 Z5.
N6795 Z-0.5
N6800 G1 Z-3. F30.
N6805 G0 Z5.
N6810 Z-1.
N6815 G1 Z-3.5 F30.
N6820 G0 Z5.
N6825 Z-1.5
N6830 G1 Z-4. F30.
N6835 G0 Z5.
N6840 Z-2.
N6845 G1 Z-4.5 F30.
N6850 G0 Z5.
N6855 Z-2.5
N6860 G1 Z-5. F30.
N6865 G0 Z5.
N6870 Z-3.
N6875 G1 Z-5.5 F30.
N6880 G0 Z5.
N6885 Z-3.5
N6890 G1 Z-6. F30.
N6895 G0 Z5.
N6900 Z-4.
N6905 G1 Z-6.5 F30.
N6910 G0 Z5.
N6915 Z-4.5
N6920 G1 Z-7. F30.
N6925 G0 Z5.
N6930 Z-5.
N6935 G1 Z-7.5 F30.
N6940 G0 Z5.
N6945 Z-5.5
N6950 G1 Z-8. F30.
N6955 G0 Z5.
N6960 Z-6.
N6965 G1 Z-8.5 F30.
N6970 G0 Z5.
N6975 Z-6.5
N6980 G1 Z-9. F30.
N6985 G0 Z5.
N6990 Z-7.
N6995 G1 Z-9.5 F30.
N7000 G0 Z5.
N7005 Z-7.5
N7010 G1 Z-10. F30.
N7015 G0 Z5.
N7020 Z-8.
N7025 G1 Z-10.5 F30.
N7030 G0 Z5.
N7035 Z-8.5
N7040 G1 Z-11. F30.
N7045 G0 Z5.
N7050 Z-9.
N7055 G1 Z-11.5 F30.
N7060 G0 Z5.
N7065 Z-9.5
N7070 G1 Z-12. F30.
N7075 G4 P0.5
N7080 G0 Z5.
N7085 Y1220.
N7090 Z2.
N7095 G1 Z-0.5 F30.
N7100 G0 Z5.
N7105 Z1.5
N7110 G1 Z-1. F30.
N7115 G0 Z5.
N7120 Z1.
N7125 G1 Z-1.5 F30.
N7130 G0 Z5.
N7135 Z0.5
N7140 G1 Z-2. F30.
N7145 G0 Z5.
N7150 Z0.
N7155 G1 Z-2.5 F30.
N7160 G0 Z5.
N7165 Z-0.5
N7170 G1 Z-3. F30.
N7175 G0 Z5.
N7180 Z-1.
N7185 G1 Z-3.5 F30.
N7190 G0 Z5.
N7195 Z-1.5
N7200 G1 Z-4. F30.
N7205 G0 Z5.
N7210 Z-2.
N7215 G1 Z-4.5 F30.
N7220 G0 Z5.
N7225 Z-2.5
N7230 G1 Z-5. F30.
N7235 G0 Z5.
N7240 Z-3.
N7245 G1 Z-5.5 F30.
N7250 G0 Z5.
N7255 Z-3.5
N7260 G1 Z-6. F30.
N7265 G0 Z5.
N7270 Z-4.
N7275 G1 Z-6.5 F30.
N7280 G0 Z5.
N7285 Z-4.5
N7290 G1 Z-7. F30.
N7295 G0 Z5.
N7300 Z-5.
N7305 G1 Z-7.5 F30.
N7310 G0 Z5.
N7315 Z-5.5
N7320 G1 Z-8. F30.
N7325 G0 Z5.
N7330 Z-6.
N7335 G1 Z-8.5 F30.
N7340 G0 Z5.
N7345 Z-6.5
N7350 G1 Z-9. F30.
N7355 G0 Z5.
N7360 Z-7.
N7365 G1 Z-9.5 F30.
N7370 G0 Z5.
N7375 Z-7.5
N7380 G1 Z-10. F30.
N7385 G0 Z5.
N7390 Z-8.
N7395 G1 Z-10.5 F30.
N7400 G0 Z5.
N7405 Z-8.5
N7410 G1 Z-11. F30.
N7415 G0 Z5.
N7420 Z-9.
N7425 G1 Z-11.5 F30.
N7430 G0 Z5.
N7435 Z-9.5
N7440 G1 Z-12. F30.
N7445 G4 P0.5
N7450 G0 Z5.
N7455 Y1020.
N7460 Z2.
N7465 G1 Z-0.5 F30.
N7470 G0 Z5.
N7475 Z1.5
N7480 G1 Z-1. F30.
N7485 G0 Z5.
N7490 Z1.
N7495 G1 Z-1.5 F30.
N7500 G0 Z5.
N7505 Z0.5
N7510 G1 Z-2. F30.
N7515 G0 Z5.
N7520 Z0.
N7525 G1 Z-2.5 F30.
N7530 G0 Z5.
N7535 Z-0.5
N7540 G1 Z-3. F30.
N7545 G0 Z5.
N7550 Z-1.
N7555 G1 Z-3.5 F30.
N7560 G0 Z5.
N7565 Z-1.5
N7570 G1 Z-4. F30.
N7575 G0 Z5.
N7580 Z-2.
N7585 G1 Z-4.5 F30.
N7590 G0 Z5.
N7595 Z-2.5
N7600 G1 Z-5. F30.
N7605 G0 Z5.
N7610 Z-3.
N7615 G1 Z-5.5 F30.
N7620 G0 Z5.
N7625 Z-3.5
N7630 G1 Z-6. F30.
N7635 G0 Z5.
N7640 Z-4.
N7645 G1 Z-6.5 F30.
N7650 G0 Z5.
N7655 Z-4.5
N7660 G1 Z-7. F30.
N7665 G0 Z5.
N7670 Z-5.
N7675 G1 Z-7.5 F30.
N7680 G0 Z5.
N7685 Z-5.5
N7690 G1 Z-8. F30.
N7695 G0 Z5.
N7700 Z-6.
N7705 G1 Z-8.5 F30.
N7710 G0 Z5.
N7715 Z-6.5
N7720 G1 Z-9. F30.
N7725 G0 Z5.
N7730 Z-7.
N7735 G1 Z-9.5 F30.
N7740 G0 Z5.
N7745 Z-7.5
N7750 G1 Z-10. F30.
N7755 G0 Z5.
N7760 Z-8.
N7765 G1 Z-10.5 F30.
N7770 G0 Z5.
N7775 Z-8.5
N7780 G1 Z-11. F30.
N7785 G0 Z5.
N7790 Z-9.
N7795 G1 Z-11.5 F30.
N7800 G0 Z5.
N7805 Z-9.5
N7810 G1 Z-12. F30.
N7815 G4 P0.5
N7820 G0 Z5.
N7825 Y820.
N7830 Z2.
N7835 G1 Z-0.5 F30.
N7840 G0 Z5.
N7845 Z1.5
N7850 G1 Z-1. F30.
N7855 G0 Z5.
N7860 Z1.
N7865 G1 Z-1.5 F30.
N7870 G0 Z5.
N7875 Z0.5
N7880 G1 Z-2. F30.
N7885 G0 Z5.
N7890 Z0.
N7895 G1 Z-2.5 F30.
N7900 G0 Z5.
N7905 Z-0.5
N7910 G1 Z-3. F30.
N7915 G0 Z5.
N7920 Z-1.
N7925 G1 Z-3.5 F30.
N7930 G0 Z5.
N7935 Z-1.5
N7940 G1 Z-4. F30.
N7945 G0 Z5.
N7950 Z-2.
N7955 G1 Z-4.5 F30.
N7960 G0 Z5.
N7965 Z-2.5
N7970 G1 Z-5. F30.
N7975 G0 Z5.
N7980 Z-3.
N7985 G1 Z-5.5 F30.
N7990 G0 Z5.
N7995 Z-3.5
N8000 G1 Z-6. F30.
N8005 G0 Z5.
N8010 Z-4.
N8015 G1 Z-6.5 F30.
N8020 G0 Z5.
N8025 Z-4.5
N8030 G1 Z-7. F30.
N8035 G0 Z5.
N8040 Z-5.
N8045 G1 Z-7.5 F30.
N8050 G0 Z5.
N8055 Z-5.5
N8060 G1 Z-8. F30.
N8065 G0 Z5.
N8070 Z-6.
N8075 G1 Z-8.5 F30.
N8080 G0 Z5.
N8085 Z-6.5
N8090 G1 Z-9. F30.
N8095 G0 Z5.
N8100 Z-7.
N8105 G1 Z-9.5 F30.
N8110 G0 Z5.
N8115 Z-7.5
N8120 G1 Z-10. F30.
N8125 G0 Z5.
N8130 Z-8.
N8135 G1 Z-10.5 F30.
N8140 G0 Z5.
N8145 Z-8.5
N8150 G1 Z-11. F30.
N8155 G0 Z5.
N8160 Z-9.
N8165 G1 Z-11.5 F30.
N8170 G0 Z5.
N8175 Z-9.5
N8180 G1 Z-12. F30.
N8185 G4 P0.5
N8190 G0 Z5.
N8195 Y620.
N8200 Z2.
N8205 G1 Z-0.5 F30.
N8210 G0 Z5.
N8215 Z1.5
N8220 G1 Z-1. F30.
N8225 G0 Z5.
N8230 Z1.
N8235 G1 Z-1.5 F30.
N8240 G0 Z5.
N8245 Z0.5
N8250 G1 Z-2. F30.
N8255 G0 Z5.
N8260 Z0.
N8265 G1 Z-2.5 F30.
N8270 G0 Z5.
N8275 Z-0.5
N8280 G1 Z-3. F30.
N8285 G0 Z5.
N8290 Z-1.
N8295 G1 Z-3.5 F30.
N8300 G0 Z5.
N8305 Z-1.5
N8310 G1 Z-4. F30.
N8315 G0 Z5.
N8320 Z-2.
N8325 G1 Z-4.5 F30.
N8330 G0 Z5.
N8335 Z-2.5
N8340 G1 Z-5. F30.
N8345 G0 Z5.
N8350 Z-3.
N8355 G1 Z-5.5 F30.
N8360 G0 Z5.
N8365 Z-3.5
N8370 G1 Z-6. F30.
N8375 G0 Z5.
N8380 Z-4.
N8385 G1 Z-6.5 F30.
N8390 G0 Z5.
N8395 Z-4.5
N8400 G1 Z-7. F30.
N8405 G0 Z5.
N8410 Z-5.
N8415 G1 Z-7.5 F30.
N8420 G0 Z5.
N8425 Z-5.5
N8430 G1 Z-8. F30.
N8435 G0 Z5.
N8440 Z-6.
N8445 G1 Z-8.5 F30.
N8450 G0 Z5.
N8455 Z-6.5
N8460 G1 Z-9. F30.
N8465 G0 Z5.
N8470 Z-7.
N8475 G1 Z-9.5 F30.
N8480 G0 Z5.
N8485 Z-7.5
N8490 G1 Z-10. F30.
N8495 G0 Z5.
N8500 Z-8.
N8505 G1 Z-10.5 F30.
N8510 G0 Z5.
N8515 Z-8.5
N8520 G1 Z-11. F30.
N8525 G0 Z5.
N8530 Z-9.
N8535 G1 Z-11.5 F30.
N8540 G0 Z5.
N8545 Z-9.5
N8550 G1 Z-12. F30.
N8555 G4 P0.5
N8560 G0 Z5.
N8565 Y420.
N8570 Z2.
N8575 G1 Z-0.5 F30.
N8580 G0 Z5.
N8585 Z1.5
N8590 G1 Z-1. F30.
N8595 G0 Z5.
N8600 Z1.
N8605 G1 Z-1.5 F30.
N8610 G0 Z5.
N8615 Z0.5
N8620 G1 Z-2. F30.
N8625 G0 Z5.
N8630 Z0.
N8635 G1 Z-2.5 F30.
N8640 G0 Z5.
N8645 Z-0.5
N8650 G1 Z-3. F30.
N8655 G0 Z5.
N8660 Z-1.
N8665 G1 Z-3.5 F30.
N8670 G0 Z5.
N8675 Z-1.5
N8680 G1 Z-4. F30.
N8685 G0 Z5.
N8690 Z-2.
N8695 G1 Z-4.5 F30.
N8700 G0 Z5.
N8705 Z-2.5
N8710 G1 Z-5. F30.
N8715 G0 Z5.
N8720 Z-3.
N8725 G1 Z-5.5 F30.
N8730 G0 Z5.
N8735 Z-3.5
N8740 G1 Z-6. F30.
N8745 G0 Z5.
N8750 Z-4.
N8755 G1 Z-6.5 F30.
N8760 G0 Z5.
N8765 Z-4.5
N8770 G1 Z-7. F30.
N8775 G0 Z5.
N8780 Z-5.
N8785 G1 Z-7.5 F30.
N8790 G0 Z5.
N8795 Z-5.5
N8800 G1 Z-8. F30.
N8805 G0 Z5.
N8810 Z-6.
N8815 G1 Z-8.5 F30.
N8820 G0 Z5.
N8825 Z-6.5
N8830 G1 Z-9. F30.
N8835 G0 Z5.
N8840 Z-7.
N8845 G1 Z-9.5 F30.
N8850 G0 Z5.
N8855 Z-7.5
N8860 G1 Z-10. F30.
N8865 G0 Z5.
N8870 Z-8.
N8875 G1 Z-10.5 F30.
N8880 G0 Z5.
N8885 Z-8.5
N8890 G1 Z-11. F30.
N8895 G0 Z5.
N8900 Z-9.
N8905 G1 Z-11.5 F30.
N8910 G0 Z5.
N8915 Z-9.5
N8920 G1 Z-12. F30.
N8925 G4 P0.5
N8930 G0 Z5.
N8935 Y220.
N8940 Z2.
N8945 G1 Z-0.5 F30.
N8950 G0 Z5.
N8955 Z1.5
N8960 G1 Z-1. F30.
N8965 G0 Z5.
N8970 Z1.
N8975 G1 Z-1.5 F30.
N8980 G0 Z5.
N8985 Z0.5
N8990 G1 Z-2. F30.
N8995 G0 Z5.
N9000 Z0.
N9005 G1 Z-2.5 F30.
N9010 G0 Z5.
N9015 Z-0.5
N9020 G1 Z-3. F30.
N9025 G0 Z5.
N9030 Z-1.
N9035 G1 Z-3.5 F30.
N9040 G0 Z5.
N9045 Z-1.5
N9050 G1 Z-4. F30.
N9055 G0 Z5.
N9060 Z-2.
N9065 G1 Z-4.5 F30.
N9070 G0 Z5.
N9075 Z-2.5
N9080 G1 Z-5. F30.
N9085 G0 Z5.
N9090 Z-3.
N9095 G1 Z-5.5 F30.
N9100 G0 Z5.
N9105 Z-3.5
N9110 G1 Z-6. F30.
N9115 G0 Z5.
N9120 Z-4.
N9125 G1 Z-6.5 F30.
N9130 G0 Z5.
N9135 Z-4.5
N9140 G1 Z-7. F30.
N9145 G0 Z5.
N9150 Z-5.
N9155 G1 Z-7.5 F30.
N9160 G0 Z5.
N9165 Z-5.5
N9170 G1 Z-8. F30.
N9175 G0 Z5.
N9180 Z-6.
N9185 G1 Z-8.5 F30.
N9190 G0 Z5.
N9195 Z-6.5
N9200 G1 Z-9. F30.
N9205 G0 Z5.
N9210 Z-7.
N9215 G1 Z-9.5 F30.
N9220 G0 Z5.
N9225 Z-7.5
N9230 G1 Z-10. F30.
N9235 G0 Z5.
N9240 Z-8.
N9245 G1 Z-10.5 F30.
N9250 G0 Z5.
N9255 Z-8.5
N9260 G1 Z-11. F30.
N9265 G0 Z5.
N9270 Z-9.
N9275 G1 Z-11.5 F30.
N9280 G0 Z5.
N9285 Z-9.5
N9290 G1 Z-12. F30.
N9295 G4 P0.5
N9300 G0 Z5.
N9305 Y20.
N9310 Z2.
N9315 G1 Z-0.5 F30.
N9320 G0 Z5.
N9325 Z1.5
N9330 G1 Z-1. F30.
N9335 G0 Z5.
N9340 Z1.
N9345 G1 Z-1.5 F30.
N9350 G0 Z5.
N9355 Z0.5
N9360 G1 Z-2. F30.
N9365 G0 Z5.
N9370 Z0.
N9375 G1 Z-2.5 F30.
N9380 G0 Z5.
N9385 Z-0.5
N9390 G1 Z-3. F30.
N9395 G0 Z5.
N9400 Z-1.
N9405 G1 Z-3.5 F30.
N9410 G0 Z5.
N9415 Z-1.5
N9420 G1 Z-4. F30.
N9425 G0 Z5.
N9430 Z-2.
N9435 G1 Z-4.5 F30.
N9440 G0 Z5.
N9445 Z-2.5
N9450 G1 Z-5. F30.
N9455 G0 Z5.
N9460 Z-3.
N9465 G1 Z-5.5 F30.
N9470 G0 Z5.
N9475 Z-3.5
N9480 G1 Z-6. F30.
N9485 G0 Z5.
N9490 Z-4.
N9495 G1 Z-6.5 F30.
N9500 G0 Z5.
N9505 Z-4.5
N9510 G1 Z-7. F30.
N9515 G0 Z5.
N9520 Z-5.
N9525 G1 Z-7.5 F30.
N9530 G0 Z5.
N9535 Z-5.5
N9540 G1 Z-8. F30.
N9545 G0 Z5.
N9550 Z-6.
N9555 G1 Z-8.5 F30.
N9560 G0 Z5.
N9565 Z-6.5
N9570 G1 Z-9. F30.
N9575 G0 Z5.
N9580 Z-7.
N9585 G1 Z-9.5 F30.
N9590 G0 Z5.
N9595 Z-7.5
N9600 G1 Z-10. F30.
N9605 G0 Z5.
N9610 Z-8.
N9615 G1 Z-10.5 F30.
N9620 G0 Z5.
N9625 Z-8.5
N9630 G1 Z-11. F30.
N9635 G0 Z5.
N9640 Z-9.
N9645 G1 Z-11.5 F30.
N9650 G0 Z5.
N9655 Z-9.5
N9660 G1 Z-12. F30.
N9665 G4 P0.5
N9670 G0 Z5.
N9675 X440.
N9680 Z2.
N9685 G1 Z-0.5 F30.
N9690 G0 Z5.
N9695 Z1.5
N9700 G1 Z-1. F30.
N9705 G0 Z5.
N9710 Z1.
N9715 G1 Z-1.5 F30.
N9720 G0 Z5.
N9725 Z0.5
N9730 G1 Z-2. F30.
N9735 G0 Z5.
N9740 Z0.
N9745 G1 Z-2.5 F30.
N9750 G0 Z5.
N9755 Z-0.5
N9760 G1 Z-3. F30.
N9765 G0 Z5.
N9770 Z-1.
N9775 G1 Z-3.5 F30.
N9780 G0 Z5.
N9785 Z-1.5
N9790 G1 Z-4. F30.
N9795 G0 Z5.
N9800 Z-2.
N9805 G1 Z-4.5 F30.
N9810 G0 Z5.
N9815 Z-2.5
N9820 G1 Z-5. F30.
N9825 G0 Z5.
N9830 Z-3.
N9835 G1 Z-5.5 F30.
N9840 G0 Z5.
N9845 Z-3.5
N9850 G1 Z-6. F30.
N9855 G0 Z5.
N9860 Z-4.
N9865 G1 Z-6.5 F30.
N9870 G0 Z5.
N9875 Z-4.5
N9880 G1 Z-7. F30.
N9885 G0 Z5.
N9890 Z-5.
N9895 G1 Z-7.5 F30.
N9900 G0 Z5.
N9905 Z-5.5
N9910 G1 Z-8. F30.
N9915 G0 Z5.
N9920 Z-6.
N9925 G1 Z-8.5 F30.
N9930 G0 Z5.
N9935 Z-6.5
N9940 G1 Z-9. F30.
N9945 G0 Z5.
N9950 Z-7.
N9955 G1 Z-9.5 F30.
N9960 G0 Z5.
N9965 Z-7.5
N9970 G1 Z-10. F30.
N9975 G0 Z5.
N9980 Z-8.
N9985 G1 Z-10.5 F30.
N9990 G0 Z5.
N9995 Z-8.5
N10000 G1 Z-11. F30.
N10005 G0 Z5.
N10010 Z-9.
N10015 G1 Z-11.5 F30.
N10020 G0 Z5.
N10025 Z-9.5
N10030 G1 Z-12. F30.
N10035 G4 P0.5
N10040 G0 Z5.
N10045 Y220.
N10050 Z2.
N10055 G1 Z-0.5 F30.
N10060 G0 Z5.
N10065 Z1.5
N10070 G1 Z-1. F30.
N10075 G0 Z5.
N10080 Z1.
N10085 G1 Z-1.5 F30.
N10090 G0 Z5.
N10095 Z0.5
N10100 G1 Z-2. F30.
N10105 G0 Z5.
N10110 Z0.
N10115 G1 Z-2.5 F30.
N10120 G0 Z5.
N10125 Z-0.5
N10130 G1 Z-3. F30.
N10135 G0 Z5.
N10140 Z-1.
N10145 G1 Z-3.5 F30.
N10150 G0 Z5.
N10155 Z-1.5
N10160 G1 Z-4. F30.
N10165 G0 Z5.
N10170 Z-2.
N10175 G1 Z-4.5 F30.
N10180 G0 Z5.
N10185 Z-2.5
N10190 G1 Z-5. F30.
N10195 G0 Z5.
N10200 Z-3.
N10205 G1 Z-5.5 F30.
N10210 G0 Z5.
N10215 Z-3.5
N10220 G1 Z-6. F30.
N10225 G0 Z5.
N10230 Z-4.
N10235 G1 Z-6.5 F30.
N10240 G0 Z5.
N10245 Z-4.5
N10250 G1 Z-7. F30.
N10255 G0 Z5.
N10260 Z-5.
N10265 G1 Z-7.5 F30.
N10270 G0 Z5.
N10275 Z-5.5
N10280 G1 Z-8. F30.
N10285 G0 Z5.
N10290 Z-6.
N10295 G1 Z-8.5 F30.
N10300 G0 Z5.
N10305 Z-6.5
N10310 G1 Z-9. F30.
N10315 G0 Z5.
N10320 Z-7.
N10325 G1 Z-9.5 F30.
N10330 G0 Z5.
N10335 Z-7.5
N10340 G1 Z-10. F30.
N10345 G0 Z5.
N10350 Z-8.
N10355 G1 Z-10.5 F30.
N10360 G0 Z5.
N10365 Z-8.5
N10370 G1 Z-11. F30.
N10375 G0 Z5.
N10380 Z-9.
N10385 G1 Z-11.5 F30.
N10390 G0 Z5.
N10395 Z-9.5
N10400 G1 Z-12. F30.
N10405 G4 P0.5
N10410 G0 Z5.
N10415 Y420.
N10420 Z2.
N10425 G1 Z-0.5 F30.
N10430 G0 Z5.
N10435 Z1.5
N10440 G1 Z-1. F30.
N10445 G0 Z5.
N10450 Z1.
N10455 G1 Z-1.5 F30.
N10460 G0 Z5.
N10465 Z0.5
N10470 G1 Z-2. F30.
N10475 G0 Z5.
N10480 Z0.
N10485 G1 Z-2.5 F30.
N10490 G0 Z5.
N10495 Z-0.5
N10500 G1 Z-3. F30.
N10505 G0 Z5.
N10510 Z-1.
N10515 G1 Z-3.5 F30.
N10520 G0 Z5.
N10525 Z-1.5
N10530 G1 Z-4. F30.
N10535 G0 Z5.
N10540 Z-2.
N10545 G1 Z-4.5 F30.
N10550 G0 Z5.
N10555 Z-2.5
N10560 G1 Z-5. F30.
N10565 G0 Z5.
N10570 Z-3.
N10575 G1 Z-5.5 F30.
N10580 G0 Z5.
N10585 Z-3.5
N10590 G1 Z-6. F30.
N10595 G0 Z5.
N10600 Z-4.
N10605 G1 Z-6.5 F30.
N10610 G0 Z5.
N10615 Z-4.5
N10620 G1 Z-7. F30.
N10625 G0 Z5.
N10630 Z-5.
N10635 G1 Z-7.5 F30.
N10640 G0 Z5.
N10645 Z-5.5
N10650 G1 Z-8. F30.
N10655 G0 Z5.
N10660 Z-6.
N10665 G1 Z-8.5 F30.
N10670 G0 Z5.
N10675 Z-6.5
N10680 G1 Z-9. F30.
N10685 G0 Z5.
N10690 Z-7.
N10695 G1 Z-9.5 F30.
N10700 G0 Z5.
N10705 Z-7.5
N10710 G1 Z-10. F30.
N10715 G0 Z5.
N10720 Z-8.
N10725 G1 Z-10.5 F30.
N10730 G0 Z5.
N10735 Z-8.5
N10740 G1 Z-11. F30.
N10745 G0 Z5.
N10750 Z-9.
N10755 G1 Z-11.5 F30.
N10760 G0 Z5.
N10765 Z-9.5
N10770 G1 Z-12. F30.
N10775 G4 P0.5
N10780 G0 Z5.
N10785 Y620.
N10790 Z2.
N10795 G1 Z-0.5 F30.
N10800 G0 Z5.
N10805 Z1.5
N10810 G1 Z-1. F30.
N10815 G0 Z5.
N10820 Z1.
N10825 G1 Z-1.5 F30.
N10830 G0 Z5.
N10835 Z0.5
N10840 G1 Z-2. F30.
N10845 G0 Z5.
N10850 Z0.
N10855 G1 Z-2.5 F30.
N10860 G0 Z5.
N10865 Z-0.5
N10870 G1 Z-3. F30.
N10875 G0 Z5.
N10880 Z-1.
N10885 G1 Z-3.5 F30.
N10890 G0 Z5.
N10895 Z-1.5
N10900 G1 Z-4. F30.
N10905 G0 Z5.
N10910 Z-2.
N10915 G1 Z-4.5 F30.
N10920 G0 Z5.
N10925 Z-2.5
N10930 G1 Z-5. F30.
N10935 G0 Z5.
N10940 Z-3.
N10945 G1 Z-5.5 F30.
N10950 G0 Z5.
N10955 Z-3.5
N10960 G1 Z-6. F30.
N10965 G0 Z5.
N10970 Z-4.
N10975 G1 Z-6.5 F30.
N10980 G0 Z5.
N10985 Z-4.5
N10990 G1 Z-7. F30.
N10995 G0 Z5.
N11000 Z-5.
N11005 G1 Z-7.5 F30.
N11010 G0 Z5.
N11015 Z-5.5
N11020 G1 Z-8. F30.
N11025 G0 Z5.
N11030 Z-6.
N11035 G1 Z-8.5 F30.
N11040 G0 Z5.
N11045 Z-6.5
N11050 G1 Z-9. F30.
N11055 G0 Z5.
N11060 Z-7.
N11065 G1 Z-9.5 F30.
N11070 G0 Z5.
N11075 Z-7.5
N11080 G1 Z-10. F30.
N11085 G0 Z5.
N11090 Z-8.
N11095 G1 Z-10.5 F30.
N11100 G0 Z5.
N11105 Z-8.5
N11110 G1 Z-11. F30.
N11115 G0 Z5.
N11120 Z-9.
N11125 G1 Z-11.5 F30.
N11130 G0 Z5.
N11135 Z-9.5
N11140 G1 Z-12. F30.
N11145 G4 P0.5
N11150 G0 Z5.
N11155 Y820.
N11160 Z2.
N11165 G1 Z-0.5 F30.
N11170 G0 Z5.
N11175 Z1.5
N11180 G1 Z-1. F30.
N11185 G0 Z5.
N11190 Z1.
N11195 G1 Z-1.5 F30.
N11200 G0 Z5.
N11205 Z0.5
N11210 G1 Z-2. F30.
N11215 G0 Z5.
N11220 Z0.
N11225 G1 Z-2.5 F30.
N11230 G0 Z5.
N11235 Z-0.5
N11240 G1 Z-3. F30.
N11245 G0 Z5.
N11250 Z-1.
N11255 G1 Z-3.5 F30.
N11260 G0 Z5.
N11265 Z-1.5
N11270 G1 Z-4. F30.
N11275 G0 Z5.
N11280 Z-2.
N11285 G1 Z-4.5 F30.
N11290 G0 Z5.
N11295 Z-2.5
N11300 G1 Z-5. F30.
N11305 G0 Z5.
N11310 Z-3.
N11315 G1 Z-5.5 F30.
N11320 G0 Z5.
N11325 Z-3.5
N11330 G1 Z-6. F30.
N11335 G0 Z5.
N11340 Z-4.
N11345 G1 Z-6.5 F30.
N11350 G0 Z5.
N11355 Z-4.5
N11360 G1 Z-7. F30.
N11365 G0 Z5.
N11370 Z-5.
N11375 G1 Z-7.5 F30.
N11380 G0 Z5.
N11385 Z-5.5
N11390 G1 Z-8. F30.
N11395 G0 Z5.
N11400 Z-6.
N11405 G1 Z-8.5 F30.
N11410 G0 Z5.
N11415 Z-6.5
N11420 G1 Z-9. F30.
N11425 G0 Z5.
N11430 Z-7.
N11435 G1 Z-9.5 F30.
N11440 G0 Z5.
N11445 Z-7.5
N11450 G1 Z-10. F30.
N11455 G0 Z5.
N11460 Z-8.
N11465 G1 Z-10.5 F30.
N11470 G0 Z5.
N11475 Z-8.5
N11480 G1 Z-11. F30.
N11485 G0 Z5.
N11490 Z-9.
N11495 G1 Z-11.5 F30.
N11500 G0 Z5.
N11505 Z-9.5
N11510 G1 Z-12. F30.
N11515 G4 P0.5
N11520 G0 Z5.
N11525 Y1020.
N11530 Z2.
N11535 G1 Z-0.5 F30.
N11540 G0 Z5.
N11545 Z1.5
N11550 G1 Z-1. F30.
N11555 G0 Z5.
N11560 Z1.
N11565 G1 Z-1.5 F30.
N11570 G0 Z5.
N11575 Z0.5
N11580 G1 Z-2. F30.
N11585 G0 Z5.
N11590 Z0.
N11595 G1 Z-2.5 F30.
N11600 G0 Z5.
N11605 Z-0.5
N11610 G1 Z-3. F30.
N11615 G0 Z5.
N11620 Z-1.
N11625 G1 Z-3.5 F30.
N11630 G0 Z5.
N11635 Z-1.5
N11640 G1 Z-4. F30.
N11645 G0 Z5.
N11650 Z-2.
N11655 G1 Z-4.5 F30.
N11660 G0 Z5.
N11665 Z-2.5
N11670 G1 Z-5. F30.
N11675 G0 Z5.
N11680 Z-3.
N11685 G1 Z-5.5 F30.
N11690 G0 Z5.
N11695 Z-3.5
N11700 G1 Z-6. F30.
N11705 G0 Z5.
N11710 Z-4.
N11715 G1 Z-6.5 F30.
N11720 G0 Z5.
N11725 Z-4.5
N11730 G1 Z-7. F30.
N11735 G0 Z5.
N11740 Z-5.
N11745 G1 Z-7.5 F30.
N11750 G0 Z5.
N11755 Z-5.5
N11760 G1 Z-8. F30.
N11765 G0 Z5.
N11770 Z-6.
N11775 G1 Z-8.5 F30.
N11780 G0 Z5.
N11785 Z-6.5
N11790 G1 Z-9. F30.
N11795 G0 Z5.
N11800 Z-7.
N11805 G1 Z-9.5 F30.
N11810 G0 Z5.
N11815 Z-7.5
N11820 G1 Z-10. F30.
N11825 G0 Z5.
N11830 Z-8.
N11835 G1 Z-10.5 F30.
N11840 G0 Z5.
N11845 Z-8.5
N11850 G1 Z-11. F30.
N11855 G0 Z5.
N11860 Z-9.
N11865 G1 Z-11.5 F30.
N11870 G0 Z5.
N11875 Z-9.5
N11880 G1 Z-12. F30.
N11885 G4 P0.5
N11890 G0 Z5.
N11895 Y1220.
N11900 Z2.
N11905 G1 Z-0.5 F30.
N11910 G0 Z5.
N11915 Z1.5
N11920 G1 Z-1. F30.
N11925 G0 Z5.
N11930 Z1.
N11935 G1 Z-1.5 F30.
N11940 G0 Z5.
N11945 Z0.5
N11950 G1 Z-2. F30.
N11955 G0 Z5.
N11960 Z0.
N11965 G1 Z-2.5 F30.
N11970 G0 Z5.
N11975 Z-0.5
N11980 G1 Z-3. F30.
N11985 G0 Z5.
N11990 Z-1.
N11995 G1 Z-3.5 F30.
N12000 G0 Z5.
N12005 Z-1.5
N12010 G1 Z-4. F30.
N12015 G0 Z5.
N12020 Z-2.
N12025 G1 Z-4.5 F30.
N12030 G0 Z5.
N12035 Z-2.5
N12040 G1 Z-5. F30.
N12045 G0 Z5.
N12050 Z-3.
N12055 G1 Z-5.5 F30.
N12060 G0 Z5.
N12065 Z-3.5
N12070 G1 Z-6. F30.
N12075 G0 Z5.
N12080 Z-4.
N12085 G1 Z-6.5 F30.
N12090 G0 Z5.
N12095 Z-4.5
N12100 G1 Z-7. F30.
N12105 G0 Z5.
N12110 Z-5.
N12115 G1 Z-7.5 F30.
N12120 G0 Z5.
N12125 Z-5.5
N12130 G1 Z-8. F30.
N12135 G0 Z5.
N12140 Z-6.
N12145 G1 Z-8.5 F30.
N12150 G0 Z5.
N12155 Z-6.5
N12160 G1 Z-9. F30.
N12165 G0 Z5.
N12170 Z-7.
N12175 G1 Z-9.5 F30.
N12180 G0 Z5.
N12185 Z-7.5
N12190 G1 Z-10. F30.
N12195 G0 Z5.
N12200 Z-8.
N12205 G1 Z-10.5 F30.
N12210 G0 Z5.
N12215 Z-8.5
N12220 G1 Z-11. F30.
N12225 G0 Z5.
N12230 Z-9.
N12235 G1 Z-11.5 F30.
N12240 G0 Z5.
N12245 Z-9.5
N12250 G1 Z-12. F30.
N12255 G4 P0.5
N12260 G0 Z5.
N12265 Y1420.
N12270 Z2.
N12275 G1 Z-0.5 F30.
N12280 G0 Z5.
N12285 Z1.5
N12290 G1 Z-1. F30.
N12295 G0 Z5.
N12300 Z1.
N12305 G1 Z-1.5 F30.
N12310 G0 Z5.
N12315 Z0.5
N12320 G1 Z-2. F30.
N12325 G0 Z5.
N12330 Z0.
N12335 G1 Z-2.5 F30.
N12340 G0 Z5.
N12345 Z-0.5
N12350 G1 Z-3. F30.
N12355 G0 Z5.
N12360 Z-1.
N12365 G1 Z-3.5 F30.
N12370 G0 Z5.
N12375 Z-1.5
N12380 G1 Z-4. F30.
N12385 G0 Z5.
N12390 Z-2.
N12395 G1 Z-4.5 F30.
N12400 G0 Z5.
N12405 Z-2.5
N12410 G1 Z-5. F30.
N12415 G0 Z5.
N12420 Z-3.
N12425 G1 Z-5.5 F30.
N12430 G0 Z5.
N12435 Z-3.5
N12440 G1 Z-6. F30.
N12445 G0 Z5.
N12450 Z-4.
N12455 G1 Z-6.5 F30.
N12460 G0 Z5.
N12465 Z-4.5
N12470 G1 Z-7. F30.
N12475 G0 Z5.
N12480 Z-5.
N12485 G1 Z-7.5 F30.
N12490 G0 Z5.
N12495 Z-5.5
N12500 G1 Z-8. F30.
N12505 G0 Z5.
N12510 Z-6.
N12515 G1 Z-8.5 F30.
N12520 G0 Z5.
N12525 Z-6.5
N12530 G1 Z-9. F30.
N12535 G0 Z5.
N12540 Z-7.
N12545 G1 Z-9.5 F30.
N12550 G0 Z5.
N12555 Z-7.5
N12560 G1 Z-10. F30.
N12565 G0 Z5.
N12570 Z-8.
N12575 G1 Z-10.5 F30.
N12580 G0 Z5.
N12585 Z-8.5
N12590 G1 Z-11. F30.
N12595 G0 Z5.
N12600 Z-9.
N12605 G1 Z-11.5 F30.
N12610 G0 Z5.
N12615 Z-9.5
N12620 G1 Z-12. F30.
N12625 G4 P0.5
N12630 G0 Z5.
N12635 Y1620.
N12640 Z2.
N12645 G1 Z-0.5 F30.
N12650 G0 Z5.
N12655 Z1.5
N12660 G1 Z-1. F30.
N12665 G0 Z5.
N12670 Z1.
N12675 G1 Z-1.5 F30.
N12680 G0 Z5.
N12685 Z0.5
N12690 G1 Z-2. F30.
N12695 G0 Z5.
N12700 Z0.
N12705 G1 Z-2.5 F30.
N12710 G0 Z5.
N12715 Z-0.5
N12720 G1 Z-3. F30.
N12725 G0 Z5.
N12730 Z-1.
N12735 G1 Z-3.5 F30.
N12740 G0 Z5.
N12745 Z-1.5
N12750 G1 Z-4. F30.
N12755 G0 Z5.
N12760 Z-2.
N12765 G1 Z-4.5 F30.
N12770 G0 Z5.
N12775 Z-2.5
N12780 G1 Z-5. F30.
N12785 G0 Z5.
N12790 Z-3.
N12795 G1 Z-5.5 F30.
N12800 G0 Z5.
N12805 Z-3.5
N12810 G1 Z-6. F30.
N12815 G0 Z5.
N12820 Z-4.
N12825 G1 Z-6.5 F30.
N12830 G0 Z5.
N12835 Z-4.5
N12840 G1 Z-7. F30.
N12845 G0 Z5.
N12850 Z-5.
N12855 G1 Z-7.5 F30.
N12860 G0 Z5.
N12865 Z-5.5
N12870 G1 Z-8. F30.
N12875 G0 Z5.
N12880 Z-6.
N12885 G1 Z-8.5 F30.
N12890 G0 Z5.
N12895 Z-6.5
N12900 G1 Z-9. F30.
N12905 G0 Z5.
N12910 Z-7.
N12915 G1 Z-9.5 F30.
N12920 G0 Z5.
N12925 Z-7.5
N12930 G1 Z-10. F30.
N12935 G0 Z5.
N12940 Z-8.
N12945 G1 Z-10.5 F30.
N12950 G0 Z5.
N12955 Z-8.5
N12960 G1 Z-11. F30.
N12965 G0 Z5.
N12970 Z-9.
N12975 G1 Z-11.5 F30.
N12980 G0 Z5.
N12985 Z-9.5
N12990 G1 Z-12. F30.
N12995 G4 P0.5
N13000 G0 Z5.
N13005 Y1820.
N13010 Z2.
N13015 G1 Z-0.5 F30.
N13020 G0 Z5.
N13025 Z1.5
N13030 G1 Z-1. F30.
N13035 G0 Z5.
N13040 Z1.
N13045 G1 Z-1.5 F30.
N13050 G0 Z5.
N13055 Z0.5
N13060 G1 Z-2. F30.
N13065 G0 Z5.
N13070 Z0.
N13075 G1 Z-2.5 F30.
N13080 G0 Z5.
N13085 Z-0.5
N13090 G1 Z-3. F30.
N13095 G0 Z5.
N13100 Z-1.
N13105 G1 Z-3.5 F30.
N13110 G0 Z5.
N13115 Z-1.5
N13120 G1 Z-4. F30.
N13125 G0 Z5.
N13130 Z-2.
N13135 G1 Z-4.5 F30.
N13140 G0 Z5.
N13145 Z-2.5
N13150 G1 Z-5. F30.
N13155 G0 Z5.
N13160 Z-3.
N13165 G1 Z-5.5 F30.
N13170 G0 Z5.
N13175 Z-3.5
N13180 G1 Z-6. F30.
N13185 G0 Z5.
N13190 Z-4.
N13195 G1 Z-6.5 F30.
N13200 G0 Z5.
N13205 Z-4.5
N13210 G1 Z-7. F30.
N13215 G0 Z5.
N13220 Z-5.
N13225 G1 Z-7.5 F30.
N13230 G0 Z5.
N13235 Z-5.5
N13240 G1 Z-8. F30.
N13245 G0 Z5.
N13250 Z-6.
N13255 G1 Z-8.5 F30.
N13260 G0 Z5.
N13265 Z-6.5
N13270 G1 Z-9. F30.
N13275 G0 Z5.
N13280 Z-7.
N13285 G1 Z-9.5 F30.
N13290 G0 Z5.
N13295 Z-7.5
N13300 G1 Z-10. F30.
N13305 G0 Z5.
N13310 Z-8.
N13315 G1 Z-10.5 F30.
N13320 G0 Z5.
N13325 Z-8.5
N13330 G1 Z-11. F30.
N13335 G0 Z5.
N13340 Z-9.
N13345 G1 Z-11.5 F30.
N13350 G0 Z5.
N13355 Z-9.5
N13360 G1 Z-12. F30.
N13365 G4 P0.5
N13370 G0 Z5.
N13375 Y2020.
N13380 Z2.
N13385 G1 Z-0.5 F30.
N13390 G0 Z5.
N13395 Z1.5
N13400 G1 Z-1. F30.
N13405 G0 Z5.
N13410 Z1.
N13415 G1 Z-1.5 F30.
N13420 G0 Z5.
N13425 Z0.5
N13430 G1 Z-2. F30.
N13435 G0 Z5.
N13440 Z0.
N13445 G1 Z-2.5 F30.
N13450 G0 Z5.
N13455 Z-0.5
N13460 G1 Z-3. F30.
N13465 G0 Z5.
N13470 Z-1.
N13475 G1 Z-3.5 F30.
N13480 G0 Z5.
N13485 Z-1.5
N13490 G1 Z-4. F30.
N13495 G0 Z5.
N13500 Z-2.
N13505 G1 Z-4.5 F30.
N13510 G0 Z5.
N13515 Z-2.5
N13520 G1 Z-5. F30.
N13525 G0 Z5.
N13530 Z-3.
N13535 G1 Z-5.5 F30.
N13540 G0 Z5.
N13545 Z-3.5
N13550 G1 Z-6. F30.
N13555 G0 Z5.
N13560 Z-4.
N13565 G1 Z-6.5 F30.
N13570 G0 Z5.
N13575 Z-4.5
N13580 G1 Z-7. F30.
N13585 G0 Z5.
N13590 Z-5.
N13595 G1 Z-7.5 F30.
N13600 G0 Z5.
N13605 Z-5.5
N13610 G1 Z-8. F30.
N13615 G0 Z5.
N13620 Z-6.
N13625 G1 Z-8.5 F30.
N13630 G0 Z5.
N13635 Z-6.5
N13640 G1 Z-9. F30.
N13645 G0 Z5.
N13650 Z-7.
N13655 G1 Z-9.5 F30.
N13660 G0 Z5.
N13665 Z-7.5
N13670 G1 Z-10. F30.
N13675 G0 Z5.
N13680 Z-8.
N13685 G1 Z-10.5 F30.
N13690 G0 Z5.
N13695 Z-8.5
N13700 G1 Z-11. F30.
N13705 G0 Z5.
N13710 Z-9.
N13715 G1 Z-11.5 F30.
N13720 G0 Z5.
N13725 Z-9.5
N13730 G1 Z-12. F30.
N13735 G4 P0.5
N13740 G0 Z5.
N13745 Y2220.
N13750 Z2.
N13755 G1 Z-0.5 F30.
N13760 G0 Z5.
N13765 Z1.5
N13770 G1 Z-1. F30.
N13775 G0 Z5.
N13780 Z1.
N13785 G1 Z-1.5 F30.
N13790 G0 Z5.
N13795 Z0.5
N13800 G1 Z-2. F30.
N13805 G0 Z5.
N13810 Z0.
N13815 G1 Z-2.5 F30.
N13820 G0 Z5.
N13825 Z-0.5
N13830 G1 Z-3. F30.
N13835 G0 Z5.
N13840 Z-1.
N13845 G1 Z-3.5 F30.
N13850 G0 Z5.
N13855 Z-1.5
N13860 G1 Z-4. F30.
N13865 G0 Z5.
N13870 Z-2.
N13875 G1 Z-4.5 F30.
N13880 G0 Z5.
N13885 Z-2.5
N13890 G1 Z-5. F30.
N13895 G0 Z5.
N13900 Z-3.
N13905 G1 Z-5.5 F30.
N13910 G0 Z5.
N13915 Z-3.5
N13920 G1 Z-6. F30.
N13925 G0 Z5.
N13930 Z-4.
N13935 G1 Z-6.5 F30.
N13940 G0 Z5.
N13945 Z-4.5
N13950 G1 Z-7. F30.
N13955 G0 Z5.
N13960 Z-5.
N13965 G1 Z-7.5 F30.
N13970 G0 Z5.
N13975 Z-5.5
N13980 G1 Z-8. F30.
N13985 G0 Z5.
N13990 Z-6.
N13995 G1 Z-8.5 F30.
N14000 G0 Z5.
N14005 Z-6.5
N14010 G1 Z-9. F30.
N14015 G0 Z5.
N14020 Z-7.
N14025 G1 Z-9.5 F30.
N14030 G0 Z5.
N14035 Z-7.5
N14040 G1 Z-10. F30.
N14045 G0 Z5.
N14050 Z-8.
N14055 G1 Z-10.5 F30.
N14060 G0 Z5.
N14065 Z-8.5
N14070 G1 Z-11. F30.
N14075 G0 Z5.
N14080 Z-9.
N14085 G1 Z-11.5 F30.
N14090 G0 Z5.
N14095 Z-9.5
N14100 G1 Z-12. F30.
N14105 G4 P0.5
N14110 G0 Z5.
N14115 Y2420.
N14120 Z2.
N14125 G1 Z-0.5 F30.
N14130 G0 Z5.
N14135 Z1.5
N14140 G1 Z-1. F30.
N14145 G0 Z5.
N14150 Z1.
N14155 G1 Z-1.5 F30.
N14160 G0 Z5.
N14165 Z0.5
N14170 G1 Z-2. F30.
N14175 G0 Z5.
N14180 Z0.
N14185 G1 Z-2.5 F30.
N14190 G0 Z5.
N14195 Z-0.5
N14200 G1 Z-3. F30.
N14205 G0 Z5.
N14210 Z-1.
N14215 G1 Z-3.5 F30.
N14220 G0 Z5.
N14225 Z-1.5
N14230 G1 Z-4. F30.
N14235 G0 Z5.
N14240 Z-2.
N14245 G1 Z-4.5 F30.
N14250 G0 Z5.
N14255 Z-2.5
N14260 G1 Z-5. F30.
N14265 G0 Z5.
N14270 Z-3.
N14275 G1 Z-5.5 F30.
N14280 G0 Z5.
N14285 Z-3.5
N14290 G1 Z-6. F30.
N14295 G0 Z5.
N14300 Z-4.
N14305 G1 Z-6.5 F30.
N14310 G0 Z5.
N14315 Z-4.5
N14320 G1 Z-7. F30.
N14325 G0 Z5.
N14330 Z-5.
N14335 G1 Z-7.5 F30.
N14340 G0 Z5.
N14345 Z-5.5
N14350 G1 Z-8. F30.
N14355 G0 Z5.
N14360 Z-6.
N14365 G1 Z-8.5 F30.
N14370 G0 Z5.
N14375 Z-6.5
N14380 G1 Z-9. F30.
N14385 G0 Z5.
N14390 Z-7.
N14395 G1 Z-9.5 F30.
N14400 G0 Z5.
N14405 Z-7.5
N14410 G1 Z-10. F30.
N14415 G0 Z5.
N14420 Z-8.
N14425 G1 Z-10.5 F30.
N14430 G0 Z5.
N14435 Z-8.5
N14440 G1 Z-11. F30.
N14445 G0 Z5.
N14450 Z-9.
N14455 G1 Z-11.5 F30.
N14460 G0 Z5.
N14465 Z-9.5
N14470 G1 Z-12. F30.
N14475 G4 P0.5
N14480 G0 Z5.
N14485 X100.
N14490 Z2.
N14495 G1 Z-0.5 F30.
N14500 G0 Z5.
N14505 Z1.5
N14510 G1 Z-1. F30.
N14515 G0 Z5.
N14520 Z1.
N14525 G1 Z-1.5 F30.
N14530 G0 Z5.
N14535 Z0.5
N14540 G1 Z-2. F30.
N14545 G0 Z5.
N14550 Z0.
N14555 G1 Z-2.5 F30.
N14560 G0 Z5.
N14565 Z-0.5
N14570 G1 Z-3. F30.
N14575 G0 Z5.
N14580 Z-1.
N14585 G1 Z-3.5 F30.
N14590 G0 Z5.
N14595 Z-1.5
N14600 G1 Z-4. F30.
N14605 G0 Z5.
N14610 Z-2.
N14615 G1 Z-4.5 F30.
N14620 G0 Z5.
N14625 Z-2.5
N14630 G1 Z-5. F30.
N14635 G0 Z5.
N14640 Z-3.
N14645 G1 Z-5.5 F30.
N14650 G0 Z5.
N14655 Z-3.5
N14660 G1 Z-6. F30.
N14665 G0 Z5.
N14670 Z-4.
N14675 G1 Z-6.5 F30.
N14680 G0 Z5.
N14685 Z-4.5
N14690 G1 Z-7. F30.
N14695 G0 Z5.
N14700 Z-5.
N14705 G1 Z-7.5 F30.
N14710 G0 Z5.
N14715 Z-5.5
N14720 G1 Z-8. F30.
N14725 G0 Z5.
N14730 Z-6.
N14735 G1 Z-8.5 F30.
N14740 G0 Z5.
N14745 Z-6.5
N14750 G1 Z-9. F30.
N14755 G0 Z5.
N14760 Z-7.
N14765 G1 Z-9.5 F30.
N14770 G0 Z5.
N14775 Z-7.5
N14780 G1 Z-10. F30.
N14785 G0 Z5.
N14790 Z-8.
N14795 G1 Z-10.5 F30.
N14800 G0 Z5.
N14805 Z-8.5
N14810 G1 Z-11. F30.
N14815 G0 Z5.
N14820 Z-9.
N14825 G1 Z-11.5 F30.
N14830 G0 Z5.
N14835 Z-9.5
N14840 G1 Z-12. F30.
N14845 G4 P0.5
N14850 G0 Z5.
N14855 Y2220.
N14860 Z2.
N14865 G1 Z-0.5 F30.
N14870 G0 Z5.
N14875 Z1.5
N14880 G1 Z-1. F30.
N14885 G0 Z5.
N14890 Z1.
N14895 G1 Z-1.5 F30.
N14900 G0 Z5.
N14905 Z0.5
N14910 G1 Z-2. F30.
N14915 G0 Z5.
N14920 Z0.
N14925 G1 Z-2.5 F30.
N14930 G0 Z5.
N14935 Z-0.5
N14940 G1 Z-3. F30.
N14945 G0 Z5.
N14950 Z-1.
N14955 G1 Z-3.5 F30.
N14960 G0 Z5.
N14965 Z-1.5
N14970 G1 Z-4. F30.
N14975 G0 Z5.
N14980 Z-2.
N14985 G1 Z-4.5 F30.
N14990 G0 Z5.
N14995 Z-2.5
N15000 G1 Z-5. F30.
N15005 G0 Z5.
N15010 Z-3.
N15015 G1 Z-5.5 F30.
N15020 G0 Z5.
N15025 Z-3.5
N15030 G1 Z-6. F30.
N15035 G0 Z5.
N15040 Z-4.
N15045 G1 Z-6.5 F30.
N15050 G0 Z5.
N15055 Z-4.5
N15060 G1 Z-7. F30.
N15065 G0 Z5.
N15070 Z-5.
N15075 G1 Z-7.5 F30.
N15080 G0 Z5.
N15085 Z-5.5
N15090 G1 Z-8. F30.
N15095 G0 Z5.
N15100 Z-6.
N15105 G1 Z-8.5 F30.
N15110 G0 Z5.
N15115 Z-6.5
N15120 G1 Z-9. F30.
N15125 G0 Z5.
N15130 Z-7.
N15135 G1 Z-9.5 F30.
N15140 G0 Z5.
N15145 Z-7.5
N15150 G1 Z-10. F30.
N15155 G0 Z5.
N15160 Z-8.
N15165 G1 Z-10.5 F30.
N15170 G0 Z5.
N15175 Z-8.5
N15180 G1 Z-11. F30.
N15185 G0 Z5.
N15190 Z-9.
N15195 G1 Z-11.5 F30.
N15200 G0 Z5.
N15205 Z-9.5
N15210 G1 Z-12. F30.
N15215 G4 P0.5
N15220 G0 Z5.
N15225 Y2020.
N15230 Z2.
N15235 G1 Z-0.5 F30.
N15240 G0 Z5.
N15245 Z1.5
N15250 G1 Z-1. F30.
N15255 G0 Z5.
N15260 Z1.
N15265 G1 Z-1.5 F30.
N15270 G0 Z5.
N15275 Z0.5
N15280 G1 Z-2. F30.
N15285 G0 Z5.
N15290 Z0.
N15295 G1 Z-2.5 F30.
N15300 G0 Z5.
N15305 Z-0.5
N15310 G1 Z-3. F30.
N15315 G0 Z5.
N15320 Z-1.
N15325 G1 Z-3.5 F30.
N15330 G0 Z5.
N15335 Z-1.5
N15340 G1 Z-4. F30.
N15345 G0 Z5.
N15350 Z-2.
N15355 G1 Z-4.5 F30.
N15360 G0 Z5.
N15365 Z-2.5
N15370 G1 Z-5. F30.
N15375 G0 Z5.
N15380 Z-3.
N15385 G1 Z-5.5 F30.
N15390 G0 Z5.
N15395 Z-3.5
N15400 G1 Z-6. F30.
N15405 G0 Z5.
N15410 Z-4.
N15415 G1 Z-6.5 F30.
N15420 G0 Z5.
N15425 Z-4.5
N15430 G1 Z-7. F30.
N15435 G0 Z5.
N15440 Z-5.
N15445 G1 Z-7.5 F30.
N15450 G0 Z5.
N15455 Z-5.5
N15460 G1 Z-8. F30.
N15465 G0 Z5.
N15470 Z-6.
N15475 G1 Z-8.5 F30.
N15480 G0 Z5.
N15485 Z-6.5
N15490 G1 Z-9. F30.
N15495 G0 Z5.
N15500 Z-7.
N15505 G1 Z-9.5 F30.
N15510 G0 Z5.
N15515 Z-7.5
N15520 G1 Z-10. F30.
N15525 G0 Z5.
N15530 Z-8.
N15535 G1 Z-10.5 F30.
N15540 G0 Z5.
N15545 Z-8.5
N15550 G1 Z-11. F30.
N15555 G0 Z5.
N15560 Z-9.
N15565 G1 Z-11.5 F30.
N15570 G0 Z5.
N15575 Z-9.5
N15580 G1 Z-12. F30.
N15585 G4 P0.5
N15590 G0 Z5.
N15595 Y1820.
N15600 Z2.
N15605 G1 Z-0.5 F30.
N15610 G0 Z5.
N15615 Z1.5
N15620 G1 Z-1. F30.
N15625 G0 Z5.
N15630 Z1.
N15635 G1 Z-1.5 F30.
N15640 G0 Z5.
N15645 Z0.5
N15650 G1 Z-2. F30.
N15655 G0 Z5.
N15660 Z0.
N15665 G1 Z-2.5 F30.
N15670 G0 Z5.
N15675 Z-0.5
N15680 G1 Z-3. F30.
N15685 G0 Z5.
N15690 Z-1.
N15695 G1 Z-3.5 F30.
N15700 G0 Z5.
N15705 Z-1.5
N15710 G1 Z-4. F30.
N15715 G0 Z5.
N15720 Z-2.
N15725 G1 Z-4.5 F30.
N15730 G0 Z5.
N15735 Z-2.5
N15740 G1 Z-5. F30.
N15745 G0 Z5.
N15750 Z-3.
N15755 G1 Z-5.5 F30.
N15760 G0 Z5.
N15765 Z-3.5
N15770 G1 Z-6. F30.
N15775 G0 Z5.
N15780 Z-4.
N15785 G1 Z-6.5 F30.
N15790 G0 Z5.
N15795 Z-4.5
N15800 G1 Z-7. F30.
N15805 G0 Z5.
N15810 Z-5.
N15815 G1 Z-7.5 F30.
N15820 G0 Z5.
N15825 Z-5.5
N15830 G1 Z-8. F30.
N15835 G0 Z5.
N15840 Z-6.
N15845 G1 Z-8.5 F30.
N15850 G0 Z5.
N15855 Z-6.5
N15860 G1 Z-9. F30.
N15865 G0 Z5.
N15870 Z-7.
N15875 G1 Z-9.5 F30.
N15880 G0 Z5.
N15885 Z-7.5
N15890 G1 Z-10. F30.
N15895 G0 Z5.
N15900 Z-8.
N15905 G1 Z-10.5 F30.
N15910 G0 Z5.
N15915 Z-8.5
N15920 G1 Z-11. F30.
N15925 G0 Z5.
N15930 Z-9.
N15935 G1 Z-11.5 F30.
N15940 G0 Z5.
N15945 Z-9.5
N15950 G1 Z-12. F30.
N15955 G4 P0.5
N15960 G0 Z5.
N15965 Y1620.
N15970 Z2.
N15975 G1 Z-0.5 F30.
N15980 G0 Z5.
N15985 Z1.5
N15990 G1 Z-1. F30.
N15995 G0 Z5.
N16000 Z1.
N16005 G1 Z-1.5 F30.
N16010 G0 Z5.
N16015 Z0.5
N16020 G1 Z-2. F30.
N16025 G0 Z5.
N16030 Z0.
N16035 G1 Z-2.5 F30.
N16040 G0 Z5.
N16045 Z-0.5
N16050 G1 Z-3. F30.
N16055 G0 Z5.
N16060 Z-1.
N16065 G1 Z-3.5 F30.
N16070 G0 Z5.
N16075 Z-1.5
N16080 G1 Z-4. F30.
N16085 G0 Z5.
N16090 Z-2.
N16095 G1 Z-4.5 F30.
N16100 G0 Z5.
N16105 Z-2.5
N16110 G1 Z-5. F30.
N16115 G0 Z5.
N16120 Z-3.
N16125 G1 Z-5.5 F30.
N16130 G0 Z5.
N16135 Z-3.5
N16140 G1 Z-6. F30.
N16145 G0 Z5.
N16150 Z-4.
N16155 G1 Z-6.5 F30.
N16160 G0 Z5.
N16165 Z-4.5
N16170 G1 Z-7. F30.
N16175 G0 Z5.
N16180 Z-5.
N16185 G1 Z-7.5 F30.
N16190 G0 Z5.
N16195 Z-5.5
N16200 G1 Z-8. F30.
N16205 G0 Z5.
N16210 Z-6.
N16215 G1 Z-8.5 F30.
N16220 G0 Z5.
N16225 Z-6.5
N16230 G1 Z-9. F30.
N16235 G0 Z5.
N16240 Z-7.
N16245 G1 Z-9.5 F30.
N16250 G0 Z5.
N16255 Z-7.5
N16260 G1 Z-10. F30.
N16265 G0 Z5.
N16270 Z-8.
N16275 G1 Z-10.5 F30.
N16280 G0 Z5.
N16285 Z-8.5
N16290 G1 Z-11. F30.
N16295 G0 Z5.
N16300 Z-9.
N16305 G1 Z-11.5 F30.
N16310 G0 Z5.
N16315 Z-9.5
N16320 G1 Z-12. F30.
N16325 G4 P0.5
N16330 G0 Z5.
N16335 Y1420.
N16340 Z2.
N16345 G1 Z-0.5 F30.
N16350 G0 Z5.
N16355 Z1.5
N16360 G1 Z-1. F30.
N16365 G0 Z5.
N16370 Z1.
N16375 G1 Z-1.5 F30.
N16380 G0 Z5.
N16385 Z0.5
N16390 G1 Z-2. F30.
N16395 G0 Z5.
N16400 Z0.
N16405 G1 Z-2.5 F30.
N16410 G0 Z5.
N16415 Z-0.5
N16420 G1 Z-3. F30.
N16425 G0 Z5.
N16430 Z-1.
N16435 G1 Z-3.5 F30.
N16440 G0 Z5.
N16445 Z-1.5
N16450 G1 Z-4. F30.
N16455 G0 Z5.
N16460 Z-2.
N16465 G1 Z-4.5 F30.
N16470 G0 Z5.
N16475 Z-2.5
N16480 G1 Z-5. F30.
N16485 G0 Z5.
N16490 Z-3.
N16495 G1 Z-5.5 F30.
N16500 G0 Z5.
N16505 Z-3.5
N16510 G1 Z-6. F30.
N16515 G0 Z5.
N16520 Z-4.
N16525 G1 Z-6.5 F30.
N16530 G0 Z5.
N16535 Z-4.5
N16540 G1 Z-7. F30.
N16545 G0 Z5.
N16550 Z-5.
N16555 G1 Z-7.5 F30.
N16560 G0 Z5.
N16565 Z-5.5
N16570 G1 Z-8. F30.
N16575 G0 Z5.
N16580 Z-6.
N16585 G1 Z-8.5 F30.
N16590 G0 Z5.
N16595 Z-6.5
N16600 G1 Z-9. F30.
N16605 G0 Z5.
N16610 Z-7.
N16615 G1 Z-9.5 F30.
N16620 G0 Z5.
N16625 Z-7.5
N16630 G1 Z-10. F30.
N16635 G0 Z5.
N16640 Z-8.
N16645 G1 Z-10.5 F30.
N16650 G0 Z5.
N16655 Z-8.5
N16660 G1 Z-11. F30.
N16665 G0 Z5.
N16670 Z-9.
N16675 G1 Z-11.5 F30.
N16680 G0 Z5.
N16685 Z-9.5
N16690 G1 Z-12. F30.
N16695 G4 P0.5
N16700 G0 Z5.
N16705 Y1220.
N16710 Z2.
N16715 G1 Z-0.5 F30.
N16720 G0 Z5.
N16725 Z1.5
N16730 G1 Z-1. F30.
N16735 G0 Z5.
N16740 Z1.
N16745 G1 Z-1.5 F30.
N16750 G0 Z5.
N16755 Z0.5
N16760 G1 Z-2. F30.
N16765 G0 Z5.
N16770 Z0.
N16775 G1 Z-2.5 F30.
N16780 G0 Z5.
N16785 Z-0.5
N16790 G1 Z-3. F30.
N16795 G0 Z5.
N16800 Z-1.
N16805 G1 Z-3.5 F30.
N16810 G0 Z5.
N16815 Z-1.5
N16820 G1 Z-4. F30.
N16825 G0 Z5.
N16830 Z-2.
N16835 G1 Z-4.5 F30.
N16840 G0 Z5.
N16845 Z-2.5
N16850 G1 Z-5. F30.
N16855 G0 Z5.
N16860 Z-3.
N16865 G1 Z-5.5 F30.
N16870 G0 Z5.
N16875 Z-3.5
N16880 G1 Z-6. F30.
N16885 G0 Z5.
N16890 Z-4.
N16895 G1 Z-6.5 F30.
N16900 G0 Z5.
N16905 Z-4.5
N16910 G1 Z-7. F30.
N16915 G0 Z5.
N16920 Z-5.
N16925 G1 Z-7.5 F30.
N16930 G0 Z5.
N16935 Z-5.5
N16940 G1 Z-8. F30.
N16945 G0 Z5.
N16950 Z-6.
N16955 G1 Z-8.5 F30.
N16960 G0 Z5.
N16965 Z-6.5
N16970 G1 Z-9. F30.
N16975 G0 Z5.
N16980 Z-7.
N16985 G1 Z-9.5 F30.
N16990 G0 Z5.
N16995 Z-7.5
N17000 G1 Z-10. F30.
N17005 G0 Z5.
N17010 Z-8.
N17015 G1 Z-10.5 F30.
N17020 G0 Z5.
N17025 Z-8.5
N17030 G1 Z-11. F30.
N17035 G0 Z5.
N17040 Z-9.
N17045 G1 Z-11.5 F30.
N17050 G0 Z5.
N17055 Z-9.5
N17060 G1 Z-12. F30.
N17065 G4 P0.5
N17070 G0 Z5.
N17075 Y1020.
N17080 Z2.
N17085 G1 Z-0.5 F30.
N17090 G0 Z5.
N17095 Z1.5
N17100 G1 Z-1. F30.
N17105 G0 Z5.
N17110 Z1.
N17115 G1 Z-1.5 F30.
N17120 G0 Z5.
N17125 Z0.5
N17130 G1 Z-2. F30.
N17135 G0 Z5.
N17140 Z0.
N17145 G1 Z-2.5 F30.
N17150 G0 Z5.
N17155 Z-0.5
N17160 G1 Z-3. F30.
N17165 G0 Z5.
N17170 Z-1.
N17175 G1 Z-3.5 F30.
N17180 G0 Z5.
N17185 Z-1.5
N17190 G1 Z-4. F30.
N17195 G0 Z5.
N17200 Z-2.
N17205 G1 Z-4.5 F30.
N17210 G0 Z5.
N17215 Z-2.5
N17220 G1 Z-5. F30.
N17225 G0 Z5.
N17230 Z-3.
N17235 G1 Z-5.5 F30.
N17240 G0 Z5.
N17245 Z-3.5
N17250 G1 Z-6. F30.
N17255 G0 Z5.
N17260 Z-4.
N17265 G1 Z-6.5 F30.
N17270 G0 Z5.
N17275 Z-4.5
N17280 G1 Z-7. F30.
N17285 G0 Z5.
N17290 Z-5.
N17295 G1 Z-7.5 F30.
N17300 G0 Z5.
N17305 Z-5.5
N17310 G1 Z-8. F30.
N17315 G0 Z5.
N17320 Z-6.
N17325 G1 Z-8.5 F30.
N17330 G0 Z5.
N17335 Z-6.5
N17340 G1 Z-9. F30.
N17345 G0 Z5.
N17350 Z-7.
N17355 G1 Z-9.5 F30.
N17360 G0 Z5.
N17365 Z-7.5
N17370 G1 Z-10. F30.
N17375 G0 Z5.
N17380 Z-8.
N17385 G1 Z-10.5 F30.
N17390 G0 Z5.
N17395 Z-8.5
N17400 G1 Z-11. F30.
N17405 G0 Z5.
N17410 Z-9.
N17415 G1 Z-11.5 F30.
N17420 G0 Z5.
N17425 Z-9.5
N17430 G1 Z-12. F30.
N17435 G4 P0.5
N17440 G0 Z5.
N17445 Y820.
N17450 Z2.
N17455 G1 Z-0.5 F30.
N17460 G0 Z5.
N17465 Z1.5
N17470 G1 Z-1. F30.
N17475 G0 Z5.
N17480 Z1.
N17485 G1 Z-1.5 F30.
N17490 G0 Z5.
N17495 Z0.5
N17500 G1 Z-2. F30.
N17505 G0 Z5.
N17510 Z0.
N17515 G1 Z-2.5 F30.
N17520 G0 Z5.
N17525 Z-0.5
N17530 G1 Z-3. F30.
N17535 G0 Z5.
N17540 Z-1.
N17545 G1 Z-3.5 F30.
N17550 G0 Z5.
N17555 Z-1.5
N17560 G1 Z-4. F30.
N17565 G0 Z5.
N17570 Z-2.
N17575 G1 Z-4.5 F30.
N17580 G0 Z5.
N17585 Z-2.5
N17590 G1 Z-5. F30.
N17595 G0 Z5.
N17600 Z-3.
N17605 G1 Z-5.5 F30.
N17610 G0 Z5.
N17615 Z-3.5
N17620 G1 Z-6. F30.
N17625 G0 Z5.
N17630 Z-4.
N17635 G1 Z-6.5 F30.
N17640 G0 Z5.
N17645 Z-4.5
N17650 G1 Z-7. F30.
N17655 G0 Z5.
N17660 Z-5.
N17665 G1 Z-7.5 F30.
N17670 G0 Z5.
N17675 Z-5.5
N17680 G1 Z-8. F30.
N17685 G0 Z5.
N17690 Z-6.
N17695 G1 Z-8.5 F30.
N17700 G0 Z5.
N17705 Z-6.5
N17710 G1 Z-9. F30.
N17715 G0 Z5.
N17720 Z-7.
N17725 G1 Z-9.5 F30.
N17730 G0 Z5.
N17735 Z-7.5
N17740 G1 Z-10. F30.
N17745 G0 Z5.
N17750 Z-8.
N17755 G1 Z-10.5 F30.
N17760 G0 Z5.
N17765 Z-8.5
N17770 G1 Z-11. F30.
N17775 G0 Z5.
N17780 Z-9.
N17785 G1 Z-11.5 F30.
N17790 G0 Z5.
N17795 Z-9.5
N17800 G1 Z-12. F30.
N17805 G4 P0.5
N17810 G0 Z5.
N17815 Y620.
N17820 Z2.
N17825 G1 Z-0.5 F30.
N17830 G0 Z5.
N17835 Z1.5
N17840 G1 Z-1. F30.
N17845 G0 Z5.
N17850 Z1.
N17855 G1 Z-1.5 F30.
N17860 G0 Z5.
N17865 Z0.5
N17870 G1 Z-2. F30.
N17875 G0 Z5.
N17880 Z0.
N17885 G1 Z-2.5 F30.
N17890 G0 Z5.
N17895 Z-0.5
N17900 G1 Z-3. F30.
N17905 G0 Z5.
N17910 Z-1.
N17915 G1 Z-3.5 F30.
N17920 G0 Z5.
N17925 Z-1.5
N17930 G1 Z-4. F30.
N17935 G0 Z5.
N17940 Z-2.
N17945 G1 Z-4.5 F30.
N17950 G0 Z5.
N17955 Z-2.5
N17960 G1 Z-5. F30.
N17965 G0 Z5.
N17970 Z-3.
N17975 G1 Z-5.5 F30.
N17980 G0 Z5.
N17985 Z-3.5
N17990 G1 Z-6. F30.
N17995 G0 Z5.
N18000 Z-4.
N18005 G1 Z-6.5 F30.
N18010 G0 Z5.
N18015 Z-4.5
N18020 G1 Z-7. F30.
N18025 G0 Z5.
N18030 Z-5.
N18035 G1 Z-7.5 F30.
N18040 G0 Z5.
N18045 Z-5.5
N18050 G1 Z-8. F30.
N18055 G0 Z5.
N18060 Z-6.
N18065 G1 Z-8.5 F30.
N18070 G0 Z5.
N18075 Z-6.5
N18080 G1 Z-9. F30.
N18085 G0 Z5.
N18090 Z-7.
N18095 G1 Z-9.5 F30.
N18100 G0 Z5.
N18105 Z-7.5
N18110 G1 Z-10. F30.
N18115 G0 Z5.
N18120 Z-8.
N18125 G1 Z-10.5 F30.
N18130 G0 Z5.
N18135 Z-8.5
N18140 G1 Z-11. F30.
N18145 G0 Z5.
N18150 Z-9.
N18155 G1 Z-11.5 F30.
N18160 G0 Z5.
N18165 Z-9.5
N18170 G1 Z-12. F30.
N18175 G4 P0.5
N18180 G0 Z5.
N18185 Y420.
N18190 Z2.
N18195 G1 Z-0.5 F30.
N18200 G0 Z5.
N18205 Z1.5
N18210 G1 Z-1. F30.
N18215 G0 Z5.
N18220 Z1.
N18225 G1 Z-1.5 F30.
N18230 G0 Z5.
N18235 Z0.5
N18240 G1 Z-2. F30.
N18245 G0 Z5.
N18250 Z0.
N18255 G1 Z-2.5 F30.
N18260 G0 Z5.
N18265 Z-0.5
N18270 G1 Z-3. F30.
N18275 G0 Z5.
N18280 Z-1.
N18285 G1 Z-3.5 F30.
N18290 G0 Z5.
N18295 Z-1.5
N18300 G1 Z-4. F30.
N18305 G0 Z5.
N18310 Z-2.
N18315 G1 Z-4.5 F30.
N18320 G0 Z5.
N18325 Z-2.5
N18330 G1 Z-5. F30.
N18335 G0 Z5.
N18340 Z-3.
N18345 G1 Z-5.5 F30.
N18350 G0 Z5.
N18355 Z-3.5
N18360 G1 Z-6. F30.
N18365 G0 Z5.
N18370 Z-4.
N18375 G1 Z-6.5 F30.
N18380 G0 Z5.
N18385 Z-4.5
N18390 G1 Z-7. F30.
N18395 G0 Z5.
N18400 Z-5.
N18405 G1 Z-7.5 F30.
N18410 G0 Z5.
N18415 Z-5.5
N18420 G1 Z-8. F30.
N18425 G0 Z5.
N18430 Z-6.
N18435 G1 Z-8.5 F30.
N18440 G0 Z5.
N18445 Z-6.5
N18450 G1 Z-9. F30.
N18455 G0 Z5.
N18460 Z-7.
N18465 G1 Z-9.5 F30.
N18470 G0 Z5.
N18475 Z-7.5
N18480 G1 Z-10. F30.
N18485 G0 Z5.
N18490 Z-8.
N18495 G1 Z-10.5 F30.
N18500 G0 Z5.
N18505 Z-8.5
N18510 G1 Z-11. F30.
N18515 G0 Z5.
N18520 Z-9.
N18525 G1 Z-11.5 F30.
N18530 G0 Z5.
N18535 Z-9.5
N18540 G1 Z-12. F30.
N18545 G4 P0.5
N18550 G0 Z5.
N18555 Y220.
N18560 Z2.
N18565 G1 Z-0.5 F30.
N18570 G0 Z5.
N18575 Z1.5
N18580 G1 Z-1. F30.
N18585 G0 Z5.
N18590 Z1.
N18595 G1 Z-1.5 F30.
N18600 G0 Z5.
N18605 Z0.5
N18610 G1 Z-2. F30.
N18615 G0 Z5.
N18620 Z0.
N18625 G1 Z-2.5 F30.
N18630 G0 Z5.
N18635 Z-0.5
N18640 G1 Z-3. F30.
N18645 G0 Z5.
N18650 Z-1.
N18655 G1 Z-3.5 F30.
N18660 G0 Z5.
N18665 Z-1.5
N18670 G1 Z-4. F30.
N18675 G0 Z5.
N18680 Z-2.
N18685 G1 Z-4.5 F30.
N18690 G0 Z5.
N18695 Z-2.5
N18700 G1 Z-5. F30.
N18705 G0 Z5.
N18710 Z-3.
N18715 G1 Z-5.5 F30.
N18720 G0 Z5.
N18725 Z-3.5
N18730 G1 Z-6. F30.
N18735 G0 Z5.
N18740 Z-4.
N18745 G1 Z-6.5 F30.
N18750 G0 Z5.
N18755 Z-4.5
N18760 G1 Z-7. F30.
N18765 G0 Z5.
N18770 Z-5.
N18775 G1 Z-7.5 F30.
N18780 G0 Z5.
N18785 Z-5.5
N18790 G1 Z-8. F30.
N18795 G0 Z5.
N18800 Z-6.
N18805 G1 Z-8.5 F30.
N18810 G0 Z5.
N18815 Z-6.5
N18820 G1 Z-9. F30.
N18825 G0 Z5.
N18830 Z-7.
N18835 G1 Z-9.5 F30.
N18840 G0 Z5.
N18845 Z-7.5
N18850 G1 Z-10. F30.
N18855 G0 Z5.
N18860 Z-8.
N18865 G1 Z-10.5 F30.
N18870 G0 Z5.
N18875 Z-8.5
N18880 G1 Z-11. F30.
N18885 G0 Z5.
N18890 Z-9.
N18895 G1 Z-11.5 F30.
N18900 G0 Z5.
N18905 Z-9.5
N18910 G1 Z-12. F30.
N18915 G4 P0.5
N18920 G0 Z5.
N18925 Y20.
N18930 Z2.
N18935 G1 Z-0.5 F30.
N18940 G0 Z5.
N18945 Z1.5
N18950 G1 Z-1. F30.
N18955 G0 Z5.
N18960 Z1.
N18965 G1 Z-1.5 F30.
N18970 G0 Z5.
N18975 Z0.5
N18980 G1 Z-2. F30.
N18985 G0 Z5.
N18990 Z0.
N18995 G1 Z-2.5 F30.
N19000 G0 Z5.
N19005 Z-0.5
N19010 G1 Z-3. F30.
N19015 G0 Z5.
N19020 Z-1.
N19025 G1 Z-3.5 F30.
N19030 G0 Z5.
N19035 Z-1.5
N19040 G1 Z-4. F30.
N19045 G0 Z5.
N19050 Z-2.
N19055 G1 Z-4.5 F30.
N19060 G0 Z5.
N19065 Z-2.5
N19070 G1 Z-5. F30.
N19075 G0 Z5.
N19080 Z-3.
N19085 G1 Z-5.5 F30.
N19090 G0 Z5.
N19095 Z-3.5
N19100 G1 Z-6. F30.
N19105 G0 Z5.
N19110 Z-4.
N19115 G1 Z-6.5 F30.
N19120 G0 Z5.
N19125 Z-4.5
N19130 G1 Z-7. F30.
N19135 G0 Z5.
N19140 Z-5.
N19145 G1 Z-7.5 F30.
N19150 G0 Z5.
N19155 Z-5.5
N19160 G1 Z-8. F30.
N19165 G0 Z5.
N19170 Z-6.
N19175 G1 Z-8.5 F30.
N19180 G0 Z5.
N19185 Z-6.5
N19190 G1 Z-9. F30.
N19195 G0 Z5.
N19200 Z-7.
N19205 G1 Z-9.5 F30.
N19210 G0 Z5.
N19215 Z-7.5
N19220 G1 Z-10. F30.
N19225 G0 Z5.
N19230 Z-8.
N19235 G1 Z-10.5 F30.
N19240 G0 Z5.
N19245 Z-8.5
N19250 G1 Z-11. F30.
N19255 G0 Z5.
N19260 Z-9.
N19265 G1 Z-11.5 F30.
N19270 G0 Z5.
N19275 Z-9.5
N19280 G1 Z-12. F30.
N19285 G4 P0.5
N19290 G0 Z5.
N19295 Z15.
N19300 G53 Z0.
N19305 M30
%
