%
(SLOT_2)
(T1  D=6. CR=0. - ZMIN=-28. - FLAT END MILL)
N10 G90 G94 G17 G91.1
N15 G21
N20 G53 G0 Z0.
(2D POCKET1 2)
N25 M9
N30 T1 M6
N35 S22000 M3
N40 G54
N45 G0 X41.54 Y901.674
N50 G43 Z15. H1
N55 G0 Z5.
N60 G1 Z1. F500.
N65 Y845.001 Z-1.97 F350.
N70 G2 X41.475 Y844.436 Z-2. I-2.482 J0.
N75 X36.576 Y845.001 I-2.417 J0.565 F850.
N80 G1 Y1359.96
N85 G2 X41.54 I2.482 J0.
N90 G1 Y845.001
N95 G2 X41.475 Y844.436 I-2.482 J0.
N100 X36.576 Y845.001 Z-2.111 I-2.417 J0.565 F350.
N105 G1 Y968.463 Z-4.
N110 Y1359.96 F850.
N115 G2 X41.54 I2.482 J0.
N120 G1 Y845.001
N125 G2 X36.576 I-2.482 J0.
N130 G1 Y968.463
N135 Y1099.152 Z-6. F350.
N140 Y1359.96 F850.
N145 G2 X41.54 I2.482 J0.
N150 G1 Y845.001
N155 G2 X36.576 I-2.482 J0.
N160 G1 Y1099.152
N165 Y1229.841 Z-8. F350.
N170 Y1359.96 F850.
N175 G2 X41.54 I2.482 J0.
N180 G1 Y845.001
N185 G2 X36.576 I-2.482 J0.
N190 G1 Y1099.152
N195 Y1229.841
N200 Y1359.96 Z-9.991 F350.
N205 G2 X36.641 Y1360.525 Z-10. I2.482 J0.
N210 X41.54 Y1359.96 I2.417 J-0.565 F850.
N215 G1 Y845.001
N220 G2 X36.576 I-2.482 J0.
N225 G1 Y1229.841
N230 Y1359.96
N235 G2 X36.641 Y1360.525 I2.482 J0.
N240 X41.54 Y1359.96 Z-10.111 I2.417 J-0.565 F350.
N245 G1 Y1236.498 Z-12.
N250 Y845.001 F850.
N255 G2 X36.576 I-2.482 J0.
N260 G1 Y1359.96
N265 G2 X41.54 I2.482 J0.
N270 G1 Y1236.498
N275 Y1105.809 Z-14. F350.
N280 Y845.001 F850.
N285 G2 X36.576 I-2.482 J0.
N290 G1 Y1359.96
N295 G2 X41.54 I2.482 J0.
N300 G1 Y1105.809
N305 Y975.12 Z-16. F350.
N310 Y845.001 F850.
N315 G2 X36.576 I-2.482 J0.
N320 G1 Y1359.96
N325 G2 X41.54 I2.482 J0.
N330 G1 Y1105.809
N335 Y975.12
N340 Y845.001 Z-17.991 F350.
N345 G2 X41.475 Y844.436 Z-18. I-2.482 J0.
N350 X36.576 Y845.001 I-2.417 J0.565 F850.
N355 G1 Y1359.96
N360 G2 X41.54 I2.482 J0.
N365 G1 Y975.12
N370 Y845.001
N375 G2 X41.475 Y844.436 I-2.482 J0.
N380 X36.576 Y845.001 Z-18.111 I-2.417 J0.565 F350.
N385 G1 Y968.463 Z-20.
N390 Y1359.96 F850.
N395 G2 X41.54 I2.482 J0.
N400 G1 Y845.001
N405 G2 X36.576 I-2.482 J0.
N410 G1 Y968.463
N415 Y1099.152 Z-22. F350.
N420 Y1359.96 F850.
N425 G2 X41.54 I2.482 J0.
N430 G1 Y845.001
N435 G2 X36.576 I-2.482 J0.
N440 G1 Y1099.152
N445 Y1229.841 Z-24. F350.
N450 Y1359.96 F850.
N455 G2 X41.54 I2.482 J0.
N460 G1 Y845.001
N465 G2 X36.576 I-2.482 J0.
N470 G1 Y1099.152
N475 Y1229.841
N480 Y1359.96 Z-25.991 F350.
N485 G2 X36.641 Y1360.525 Z-26. I2.482 J0.
N490 X41.54 Y1359.96 I2.417 J-0.565 F850.
N495 G1 Y845.001
N500 G2 X36.576 I-2.482 J0.
N505 G1 Y1229.841
N510 Y1359.96
N515 G2 X36.641 Y1360.525 I2.482 J0.
N520 X41.54 Y1359.96 Z-26.111 I2.417 J-0.565 F350.
N525 G1 Y1236.498 Z-28.
N530 Y845.001 F850.
N535 G2 X36.576 I-2.482 J0.
N540 G1 Y1359.96
N545 G2 X41.54 I2.482 J0.
N550 G1 Y1236.498
N555 G0 Z15.
N560 G53 Z0.
N565 M30
%
