%
(SQUARE_HOLE)
(T2  D=3. CR=0. - ZMIN=-15.6 - FLAT END MILL)
N10 G90 G94 G17 G91.1
N15 G21
N20 G53 G0 Z0.
(2D CONTOUR2)
N25 M9
N30 T2 M6
N35 S24000 M3
N40 G54
N45 G0 X121.15 Y164.05
N50 G43 Z20. H2
N55 G0 Z-5.
N60 G1 Z-8. F80.
N65 Z-10.7
N70 G18 G2 X121.45 Z-11. I0.3 K0.
N75 G1 X121.75 F150.
N80 G17 G2 X122.05 Y163.75 I0. J-0.3
N85 G1 Y54.2 F350.
N90 X37.95
N95 Y205.8
N100 X122.05
N105 Y163.75
N110 G3 X122.2 Y163.525 I0.244 J0.
N115 G2 X122.35 Y163.3 I-0.094 J-0.225
N120 G1 Y53.9
N125 X37.65
N130 Y206.1
N135 X122.35
N140 Y163.3
N145 G2 X122.05 Y163. I-0.3 J0. F150.
N150 G1 X121.75
N155 G18 G3 X121.45 Z-10.7 I0. K0.3
N160 G0 Z5.
N165 X121.15 Y164.05
N170 Z-5.
N175 G1 Z-9. F80.
N180 Z-11.7
N185 G2 X121.45 Z-12. I0.3 K0.
N190 G1 X121.75 F150.
N195 G17 G2 X122.05 Y163.75 I0. J-0.3
N200 G1 Y54.2 F350.
N205 X37.95
N210 Y205.8
N215 X122.05
N220 Y163.75
N225 G3 X122.2 Y163.525 I0.244 J0.
N230 G2 X122.35 Y163.3 I-0.094 J-0.225
N235 G1 Y53.9
N240 X37.65
N245 Y206.1
N250 X122.35
N255 Y163.3
N260 G2 X122.05 Y163. I-0.3 J0. F150.
N265 G1 X121.75
N270 G18 G3 X121.45 Z-11.7 I0. K0.3
N275 G0 Z5.
N280 X121.15 Y164.05
N285 Z-5.
N290 G1 Z-10. F80.
N295 Z-12.7
N300 G2 X121.45 Z-13. I0.3 K0.
N305 G1 X121.75 F150.
N310 G17 G2 X122.05 Y163.75 I0. J-0.3
N315 G1 Y54.2 F350.
N320 X37.95
N325 Y205.8
N330 X122.05
N335 Y163.75
N340 G3 X122.2 Y163.525 I0.244 J0.
N345 G2 X122.35 Y163.3 I-0.094 J-0.225
N350 G1 Y53.9
N355 X37.65
N360 Y206.1
N365 X122.35
N370 Y163.3
N375 G2 X122.05 Y163. I-0.3 J0. F150.
N380 G1 X121.75
N385 G18 G3 X121.45 Z-12.7 I0. K0.3
N390 G0 Z5.
N395 X121.15 Y164.05
N400 Z-5.
N405 G1 Z-11. F80.
N410 Z-13.7
N415 G2 X121.45 Z-14. I0.3 K0.
N420 G1 X121.75 F150.
N425 G17 G2 X122.05 Y163.75 I0. J-0.3
N430 G1 Y54.2 F350.
N435 X37.95
N440 Y205.8
N445 X122.05
N450 Y163.75
N455 G3 X122.2 Y163.525 I0.244 J0.
N460 G2 X122.35 Y163.3 I-0.094 J-0.225
N465 G1 Y53.9
N470 X37.65
N475 Y206.1
N480 X122.35
N485 Y163.3
N490 G2 X122.05 Y163. I-0.3 J0. F150.
N495 G1 X121.75
N500 G18 G3 X121.45 Z-13.7 I0. K0.3
N505 G0 Z5.
N510 X121.15 Y164.05
N515 Z-5.
N520 G1 Z-12. F80.
N525 Z-14.7
N530 X121.154 Z-14.75
N535 X121.45
N540 X121.75 F150.
N545 G17 G2 X122.05 Y163.75 I0. J-0.3
N550 G1 Y160.405 F350.
N555 Z-15. F80.
N560 Y98.5 F350.
N565 Z-14.75
N570 Y90.5
N575 Z-15. F80.
N580 Y54.2 F350.
N585 X37.95
N590 Y90.566
N595 Z-14.75
N600 Y98.566
N605 Z-15. F80.
N610 Y162.986 F350.
N615 Z-14.75
N620 Y170.986
N625 Z-15. F80.
N630 Y205.8 F350.
N635 X122.05
N640 Y168.405
N645 Z-14.75
N650 Y163.75
N655 G3 X122.2 Y163.525 I0.244 J0.
N660 G2 X122.35 Y163.3 I-0.094 J-0.225
N665 G1 Y160.405
N670 Z-15. F80.
N675 Y98.5 F350.
N680 Z-14.75
N685 Y90.5
N690 Z-15. F80.
N695 Y53.9 F350.
N700 X37.65
N705 Y90.566
N710 Z-14.75
N715 Y98.566
N720 Z-15. F80.
N725 Y162.986 F350.
N730 Z-14.75
N735 Y170.986
N740 Z-15. F80.
N745 Y206.1 F350.
N750 X122.35
N755 Y168.405
N760 Z-14.75
N765 Y163.3
N770 G2 X122.05 Y163. I-0.3 J0. F150.
N775 G1 X121.75
N780 X121.454 F80.
N785 X121.45 Z-14.7 F150.
N790 G0 Z5.
N795 X121.15 Y164.05
N800 Z-5.
N805 G1 Z-13. F80.
N810 Z-14.75
N815 X121.45
N820 X121.75 F150.
N825 G2 X122.05 Y163.75 I0. J-0.3
N830 G1 Y160.405 F350.
N835 Z-15.6 F80.
N840 Y98.5 F350.
N845 Z-14.75
N850 Y90.5
N855 Z-15.6 F80.
N860 Y54.2 F350.
N865 X37.95
N870 Y90.566
N875 Z-14.75
N880 Y98.566
N885 Z-15.6 F80.
N890 Y162.986 F350.
N895 Z-14.75
N900 Y170.986
N905 Z-15.6 F80.
N910 Y205.8 F350.
N915 X122.05
N920 Y168.405
N925 Z-14.75
N930 Y163.75
N935 G3 X122.2 Y163.525 I0.244 J0.
N940 G2 X122.35 Y163.3 I-0.094 J-0.225
N945 G1 Y160.405
N950 Z-15.6 F80.
N955 Y98.5 F350.
N960 Z-14.75
N965 Y90.5
N970 Z-15.6 F80.
N975 Y53.9 F350.
N980 X37.65
N985 Y90.566
N990 Z-14.75
N995 Y98.566
N1000 Z-15.6 F80.
N1005 Y162.986 F350.
N1010 Z-14.75
N1015 Y170.986
N1020 Z-15.6 F80.
N1025 Y206.1 F350.
N1030 X122.35
N1035 Y168.405
N1040 Z-14.75
N1045 Y163.3
N1050 G2 X122.05 Y163. I-0.3 J0. F150.
N1055 G1 X121.45
N1060 G0 Z20.
N1065 G53 Z0.
N1070 M30
%
