%
(MINI_BOARD_TEST_TOP)
(T5  D=19.05 CR=9.525 - ZMIN=-38.538 - BALL END MILL)
N10 G90 G94 G17 G91.1
N15 G21
N20 G53 G0 Z0.
(PARALLEL1)
N25 M9
N30 T5 M6
N35 S24000 M3
N40 G54
N45 G0 X144.475 Y602.923
N50 G43 Z15. H5
N55 G0 Z-15.633
N60 G19 G2 Y601.018 Z-17.538 J-1.905 K0. F1000.
N65 G1 Y-1.018 F3000.
N70 G2 Y-1.437 Z-17.441 J0. K0.953
N75 G3 Y-1.856 Z-17.343 J-0.419 K-0.855
N80 G1 Y-17.893
N85 G17 G2 X141.617 Y-20.751 I-2.858 J0.
N90 G1 X137.336
N95 G2 X134.478 Y-17.893 I0. J2.858
N100 G19 G2 Y-17.474 Z-17.441 J0. K-0.953
N105 G3 Y-17.055 Z-17.538 J0.419 K0.855
N110 G1 Y617.055
N115 G3 Y617.474 Z-17.441 J0. K0.953
N120 G2 Y617.893 Z-17.343 J0.419 K-0.855
N125 G1 Y620.363
N130 G17 G3 X131.621 Y623.221 I-2.857 J0.
N135 G1 X127.339
N140 G3 X124.482 Y620.363 I0. J-2.857
N145 G19 G3 Y619.944 Z-17.441 J0. K-0.953
N150 G2 Y619.525 Z-17.538 J-0.419 K0.855
N155 G1 Y-19.525
N160 G2 Y-19.944 Z-17.441 J0. K0.953
N165 G3 Y-20.363 Z-17.343 J-0.419 K-0.855
N170 G17 G2 X121.624 Y-23.221 I-2.857 J0.
N175 G1 X117.343
N180 G2 X114.485 Y-20.363 I0. J2.858
N185 G19 G2 Y-19.944 Z-17.441 J0. K-0.953
N190 G3 Y-19.525 Z-17.538 J0.419 K0.855
N195 G1 Y619.525
N200 G3 Y619.944 Z-17.441 J0. K0.953
N205 G2 Y620.363 Z-17.343 J0.419 K-0.855
N210 G17 G3 X111.628 Y623.221 I-2.857 J0.
N215 G1 X107.346
N220 G3 X104.489 Y620.363 I0. J-2.857
N225 G19 G3 Y619.944 Z-17.441 J0. K-0.953
N230 G2 Y619.525 Z-17.538 J-0.419 K0.855
N235 G1 Y-19.525
N240 G2 Y-19.944 Z-17.441 J0. K0.953
N245 G3 Y-20.363 Z-17.343 J-0.419 K-0.855
N250 G17 G2 X101.631 Y-23.221 I-2.857 J0.
N255 G1 X97.35
N260 G2 X94.492 Y-20.363 I0. J2.858
N265 G19 G2 Y-19.944 Z-17.441 J0. K-0.953
N270 G3 Y-19.525 Z-17.538 J0.419 K0.855
N275 G1 Y619.525
N280 G3 Y619.944 Z-17.441 J0. K0.953
N285 G2 Y620.363 Z-17.343 J0.419 K-0.855
N290 G17 G3 X91.635 Y623.221 I-2.857 J0.
N295 G1 X87.353
N300 G3 X84.496 Y620.363 I0. J-2.857
N305 G19 G3 Y619.944 Z-17.441 J0. K-0.953
N310 G2 Y619.525 Z-17.538 J-0.419 K0.855
N315 G1 Y-19.525
N320 G2 Y-19.944 Z-17.441 J0. K0.953
N325 G3 Y-20.363 Z-17.343 J-0.419 K-0.855
N330 G17 G2 X81.638 Y-23.221 I-2.857 J0.
N335 G1 X77.357
N340 G2 X74.499 Y-20.363 I0. J2.858
N345 G19 G2 Y-19.944 Z-17.441 J0. K-0.953
N350 G3 Y-19.525 Z-17.538 J0.419 K0.855
N355 G1 Y94.811
N360 Y109.958 Z-17.041
N365 Y129.528 Z-16.506
N370 Y163.118 Z-16.028
N375 Y206.038 Z-15.751
N380 Y269.486 Z-15.714
N385 Y349.73 Z-15.945
N390 Y442.449 Z-16.086
N395 Y478.839 Z-16.225
N400 Y494.701 Z-16.495
N405 Y506.354 Z-16.939
N410 Y514.325 Z-17.508
N415 Y619.525 Z-17.538
N420 G3 Y619.944 Z-17.441 J0. K0.953
N425 G2 Y620.364 Z-17.343 J0.419 K-0.855
N430 G17 G3 X71.642 Y623.221 I-2.857 J0.
N435 G1 X67.36
N440 G3 X64.503 Y620.364 I0. J-2.857
N445 G1 Y620.363
N450 G19 G3 Y619.944 Z-17.441 J0. K-0.953
N455 G2 Y619.525 Z-17.538 J-0.419 K0.855
N460 G1 Y545.451
N465 Y541.289 Z-16.461
N470 Y536.331 Z-15.631
N475 Y531.704 Z-15.13
N480 Y526.253 Z-14.764
N485 Y516.933 Z-14.459
N490 Y501.071 Z-14.345
N495 Y412.431 Z-14.858
N500 Y345.78 Z-14.837
N505 Y216.084 Z-14.494
N510 Y163.833 Z-14.603
N515 Y125.577 Z-14.95
N520 Y94.787 Z-15.751
N525 Y73.912 Z-16.469
N530 Y55.099 Z-17.282
N535 Y49.274 Z-17.538
N540 Y-19.525
N545 G2 Y-19.944 Z-17.441 J0. K0.953
N550 G3 Y-20.363 Z-17.343 J-0.419 K-0.855
N555 G17 G2 X61.645 Y-23.221 I-2.857 J0.
N560 G1 X57.364
N565 G2 X54.506 Y-20.363 I0. J2.858
N570 G19 G2 Y-19.944 Z-17.441 J0. K-0.953
N575 G3 Y-19.525 Z-17.538 J0.419 K0.855
N580 G1 Y22.823
N585 Y29.792 Z-17.099
N590 Y50.136 Z-16.049
N595 Y68.34 Z-15.303
N600 Y85.89 Z-14.745
N605 Y119.48 Z-13.971
N610 Y141.874 Z-13.755
N615 Y195.058 Z-13.645
N620 Y341.549 Z-14.089
N625 Y407.115 Z-14.095
N630 Y457.5 Z-13.75
N635 Y499.488 Z-13.125
N640 Y527.48 Z-12.692
N645 Y538.093 Z-12.761
N650 Y545.144 Z-13.1
N655 Y549.233 Z-13.506
N660 Y553.281 Z-14.171
N665 Y556.646 Z-15.031
N670 Y559.847 Z-16.225
N675 Y562.317 Z-17.514
N680 Y619.525 Z-17.538
N685 G3 Y619.945 Z-17.441 J0. K0.953
N690 G2 Y620.364 Z-17.343 J0.419 K-0.855
N695 G17 G3 X51.649 Y623.221 I-2.857 J0.
N700 G1 X47.367
N705 G3 X44.51 Y620.364 I0. J-2.857
N710 G1 Y620.363
N715 G19 G3 Y619.944 Z-17.441 J0. K-0.953
N720 G2 Y619.525 Z-17.538 J-0.419 K0.855
N725 G1 Y573.832 Z-17.537
N730 Y571.899 Z-15.916
N735 Y569.777 Z-14.609
N740 Y567.284 Z-13.483
N745 Y564.757 Z-12.664
N750 Y561.657 Z-11.98
N755 Y558.496 Z-11.544
N760 Y554.855 Z-11.266
N765 Y548.336 Z-11.131
N770 Y537.139 Z-11.331
N775 Y499.872 Z-12.4
N780 Y461.617 Z-13.101
N785 Y421.495 Z-13.478
N790 Y363.011 Z-13.608
N795 Y276.236 Z-13.352
N800 Y178.265 Z-13.066
N805 Y127.88 Z-13.187
N810 Y96.156 Z-13.655
N815 Y66.531 Z-14.389
N820 Y50.184 Z-14.983
N825 Y33.15 Z-15.789
N830 Y23.292 Z-16.409
N835 Y18.966 Z-17.035
N840 Y16.708 Z-17.538
N845 Y-19.525
N850 G2 Y-19.944 Z-17.441 J0. K0.953
N855 G3 Y-20.363 Z-17.343 J-0.419 K-0.855
N860 G17 G2 X41.652 Y-23.221 I-2.857 J0.
N865 G1 X37.371
N870 G2 X34.513 Y-20.363 I0. J2.858
N875 G19 G2 Y-19.944 Z-17.441 J0. K-0.953
N880 G3 Y-19.525 Z-17.538 J0.419 K0.855
N885 G1 Y13.678
N890 Y15.771 Z-16.883
N895 Y18.182 Z-16.315
N900 Y19.809 Z-16.053
N905 Y23.076 Z-15.69
N910 Y32.11 Z-15.11
N915 Y46.471 Z-14.44
N920 Y60.882 Z-13.928
N925 Y87.941 Z-13.284
N930 Y123.397 Z-12.809
N935 Y172.383 Z-12.693
N940 Y351.997 Z-13.23
N945 Y413.245 Z-13.128
N950 Y454.3 Z-12.769
N955 Y487.89 Z-12.198
N960 Y518.64 Z-11.345
N965 Y555.683 Z-9.797
N970 Y561.748 Z-9.694
N975 Y566.571 Z-9.905
N980 Y569.955 Z-10.369
N985 Y572.512 Z-10.977
N990 Y575.13 Z-11.919
N995 Y577.118 Z-12.922
N1000 Y579.025 Z-14.2
N1005 Y580.868 Z-15.874
N1010 Y582.203 Z-17.516
N1015 Y619.525 Z-17.538
N1020 G3 Y619.945 Z-17.441 J0.001 K0.953
N1025 G2 Y620.364 Z-17.343 J0.419 K-0.855
N1030 G17 G3 X31.656 Y623.221 I-2.858 J0.
N1035 G1 X27.374
N1040 G3 X24.517 Y620.364 I0. J-2.858
N1045 G19 G3 Y619.945 Z-17.441 J0. K-0.952
N1050 G2 Y619.525 Z-17.538 J-0.419 K0.855
N1055 G1 Y588.503 Z-17.52
N1060 Y587.293 Z-15.511
N1065 Y585.796 Z-13.73
N1070 Y584.043 Z-12.194
N1075 Y582.012 Z-10.888
N1080 Y580.003 Z-9.949
N1085 Y577.368 Z-9.119
N1090 Y574.373 Z-8.585
N1095 Y571.118 Z-8.374
N1100 Y567.386 Z-8.421
N1105 Y559.096 Z-8.897
N1110 Y537.666 Z-10.144
N1115 Y513.418 Z-11.151
N1120 Y482.627 Z-11.986
N1125 Y443.439 Z-12.602
N1130 Y393.053 Z-12.94
N1135 Y323.933 Z-12.932
N1140 Y172.777 Z-12.468
N1145 Y122.392 Z-12.573
N1150 Y86.002 Z-12.993
N1155 Y58.944 Z-13.597
N1160 Y44.42 Z-14.099
N1165 Y32.569 Z-14.651
N1170 Y24.35 Z-15.154
N1175 Y21.076 Z-15.428
N1180 Y18.423 Z-15.76
N1185 Y15.404 Z-16.448
N1190 Y12.57 Z-17.472
N1195 Y12.394 Z-17.538
N1200 Y-19.525
N1205 G2 Y-19.944 Z-17.441 J0. K0.953
N1210 G3 Y-20.363 Z-17.343 J-0.419 K-0.855
N1215 G17 G2 X21.659 Y-23.221 I-2.858 J0.
N1220 G1 X17.377
N1225 G2 X14.52 Y-20.363 I0. J2.858
N1230 G19 G2 Y-19.944 Z-17.441 J0. K-0.953
N1235 G3 Y-19.525 Z-17.538 J0.419 K0.855
N1240 G1 Y11.697
N1245 Y12.471 Z-17.227
N1250 Y15.292 Z-16.202
N1255 Y17.699 Z-15.623
N1260 Y19.48 Z-15.339
N1265 Y24.238 Z-14.93
N1270 Y32.456 Z-14.423
N1275 Y44.332 Z-13.874
N1280 Y58.007 Z-13.411
N1285 Y84.133 Z-12.845
N1290 Y120.522 Z-12.456
N1295 Y170.907 Z-12.342
N1300 Y324.862 Z-12.793
N1305 Y393.757 Z-12.77
N1310 Y443.209 Z-12.415
N1315 Y481.931 Z-11.789
N1320 Y512.256 Z-10.95
N1325 Y534.523 Z-10.02
N1330 Y552.843 Z-8.939
N1335 Y570.698 Z-7.502
N1340 Y575.374 Z-7.18
N1345 Y578.502 Z-7.198
N1350 Y581.321 Z-7.553
N1355 Y583.918 Z-8.263
N1360 Y586.116 Z-9.229
N1365 Y588.112 Z-10.482
N1370 Y589.823 Z-11.959
N1375 Y591.313 Z-13.712
N1380 Y592.466 Z-15.594
N1385 Y593.293 Z-17.538
N1390 Y619.525
N1395 G3 Y619.944 Z-17.441 J0. K0.953
N1400 G2 Y620.363 Z-17.343 J0.419 K-0.855
N1405 G17 G3 X11.662 Y623.221 I-2.858 J0.
N1410 G1 X7.381
N1415 G3 X4.523 Y620.363 I0. J-2.857
N1420 G19 G3 Y619.944 Z-17.441 J0. K-0.953
N1425 G2 Y619.525 Z-17.538 J-0.419 K0.855
N1430 G1 Y596.933
N1435 Y596.315 Z-15.34
N1440 Y595.499 Z-13.53
N1445 Y594.65 Z-12.15
N1450 Y593.604 Z-10.827
N1455 Y592.043 Z-9.328
N1460 Y590.255 Z-8.079
N1465 Y588.682 Z-7.283
N1470 Y586.576 Z-6.568
N1475 Y584.012 Z-6.095
N1480 Y581.269 Z-6.002
N1485 Y579.041 Z-6.168
N1490 Y566.879 Z-7.565
N1495 Y554.128 Z-8.668
N1500 Y537.684 Z-9.712
N1505 Y515.356 Z-10.716
N1510 Y491.097 Z-11.465
N1515 Y455.641 Z-12.158
N1520 Y409.921 Z-12.61
N1525 Y348.802 Z-12.758
N1530 Y164.989 Z-12.288
N1535 Y115.537 Z-12.434
N1540 Y81.014 Z-12.822
N1545 Y55.821 Z-13.386
N1550 Y42.261 Z-13.862
N1555 Y30.496 Z-14.438
N1560 Y22.296 Z-14.98
N1565 Y19.227 Z-15.268
N1570 Y16.037 Z-15.887
N1575 Y14.202 Z-16.439
N1580 Y12.066 Z-17.298
N1585 Y11.482 Z-17.538
N1590 Y-19.525
N1595 G2 Y-19.944 Z-17.441 J0. K0.953
N1600 G3 Y-20.363 Z-17.343 J-0.419 K-0.855
N1605 G17 G2 X1.666 Y-23.221 I-2.857 J0.
N1610 G1 X-2.616
N1615 G2 X-5.473 Y-20.363 I0. J2.858
N1620 G19 G2 Y-19.944 Z-17.441 J0. K-0.953
N1625 G3 Y-19.525 Z-17.538 J0.419 K0.855
N1630 G1 Y11.494
N1635 Y12.066 Z-17.303
N1640 Y14.189 Z-16.448
N1645 Y15.476 Z-16.044
N1650 Y18.602 Z-15.364
N1655 Y22.283 Z-14.985
N1660 Y32.134 Z-14.35
N1665 Y43.992 Z-13.797
N1670 Y57.673 Z-13.337
N1675 Y83.799 Z-12.781
N1680 Y119.255 Z-12.413
N1685 Y170.573 Z-12.292
N1690 Y314.265 Z-12.709
N1695 Y386.81 Z-12.716
N1700 Y438.128 Z-12.383
N1705 Y477.316 Z-11.787
N1710 Y508.082 Z-10.977
N1715 Y532.245 Z-10.
N1720 Y550.577 Z-8.932
N1725 Y565.157 Z-7.747
N1730 Y577.509 Z-6.387
N1735 Y581.082 Z-6.108
N1740 Y583.85 Z-6.239
N1745 Y586.343 Z-6.735
N1750 Y588.69 Z-7.597
N1755 Y590.78 Z-8.763
N1760 Y592.511 Z-10.134
N1765 Y593.684 Z-11.373
N1770 Y594.678 Z-12.72
N1775 Y595.382 Z-13.938
N1780 Y596.198 Z-15.883
N1785 Y596.641 Z-17.538
N1790 Y619.525
N1795 G3 Y619.944 Z-17.441 J0. K0.953
N1800 G2 Y620.363 Z-17.343 J0.419 K-0.855
N1805 G17 G3 X-8.331 Y623.221 I-2.858 J0.
N1810 G1 X-12.612
N1815 G3 X-15.47 Y620.363 I0. J-2.857
N1820 G19 G3 Y619.944 Z-17.441 J0. K-0.953
N1825 G2 Y619.525 Z-17.538 J-0.419 K0.855
N1830 G1 Y592.893
N1835 Y592.407 Z-16.341
N1840 Y591.533 Z-14.712
N1845 Y590.236 Z-12.939
N1850 Y588.575 Z-11.281
N1855 Y586.723 Z-9.928
N1860 Y584.664 Z-8.845
N1865 Y582.562 Z-8.082
N1870 Y579.887 Z-7.504
N1875 Y578.562 Z-7.352
N1880 Y576.157 Z-7.26
N1885 Y573.133 Z-7.376
N1890 Y552.184 Z-9.01
N1895 Y533.85 Z-10.074
N1900 Y509.676 Z-11.055
N1905 Y478.9 Z-11.869
N1910 Y441.577 Z-12.447
N1915 Y391.192 Z-12.79
N1920 Y321.131 Z-12.794
N1925 Y170.909 Z-12.35
N1930 Y120.523 Z-12.465
N1935 Y85.067 Z-12.843
N1940 Y58.942 Z-13.399
N1945 Y46.098 Z-13.82
N1950 Y34.121 Z-14.35
N1955 Y24.246 Z-14.946
N1960 Y19.487 Z-15.354
N1965 Y17.706 Z-15.638
N1970 Y15.3 Z-16.218
N1975 Y12.497 Z-17.234
N1980 Y11.741 Z-17.538
N1985 Y-19.525
N1990 G2 Y-19.944 Z-17.441 J0. K0.953
N1995 G3 Y-20.363 Z-17.343 J-0.419 K-0.855
N2000 G17 G2 X-18.327 Y-23.221 I-2.858 J0.
N2005 G1 X-22.609
N2010 G2 X-25.466 Y-20.363 I0. J2.858
N2015 G19 G2 Y-19.944 Z-17.441 J0. K-0.953
N2020 G3 Y-19.525 Z-17.538 J0.419 K0.855
N2025 G1 Y12.491
N2030 Y14.046 Z-16.926
N2035 Y17.028 Z-16.07
N2040 Y19.463 Z-15.637
N2045 Y24.372 Z-15.183
N2050 Y32.592 Z-14.68
N2055 Y44.44 Z-14.13
N2060 Y58.946 Z-13.625
N2065 Y86.005 Z-13.017
N2070 Y122.394 Z-12.591
N2075 Y171.846 Z-12.484
N2080 Y331.399 Z-12.968
N2085 Y398.062 Z-12.944
N2090 Y446.581 Z-12.589
N2095 Y484.836 Z-11.964
N2100 Y511.895 Z-11.231
N2105 Y536.076 Z-10.256
N2110 Y564.501 Z-8.636
N2115 Y569.01 Z-8.485
N2120 Y571.806 Z-8.547
N2125 Y573.624 Z-8.694
N2130 Y576.585 Z-9.193
N2135 Y579.333 Z-10.023
N2140 Y581.553 Z-11.043
N2145 Y583.606 Z-12.363
N2150 Y585.302 Z-13.843
N2155 Y586.748 Z-15.533
N2160 Y587.976 Z-17.516
N2165 Y619.525 Z-17.538
N2170 G3 Y619.945 Z-17.441 J0.001 K0.953
N2175 G2 Y620.364 Z-17.343 J0.419 K-0.855
N2180 G17 G3 X-28.324 Y623.221 I-2.858 J0.
N2185 G1 X-32.605
N2190 G3 X-35.463 Y620.364 I0. J-2.857
N2195 G19 G3 Y619.945 Z-17.441 J0. K-0.952
N2200 G2 Y619.525 Z-17.538 J-0.419 K0.855
N2205 G1 Y581.507 Z-17.517
N2210 Y580.029 Z-15.775
N2215 Y578.41 Z-14.351
N2220 Y576.397 Z-13.02
N2225 Y574.25 Z-11.969
N2230 Y571.643 Z-11.069
N2235 Y568.939 Z-10.458
N2240 Y565.122 Z-9.991
N2245 Y560.312 Z-9.822
N2250 Y554.713 Z-9.921
N2255 Y517.326 Z-11.433
N2260 Y485.602 Z-12.284
N2265 Y450.145 Z-12.854
N2270 Y401.626 Z-13.21
N2275 Y336.136 Z-13.229
N2280 Y176.583 Z-12.725
N2285 Y125.265 Z-12.825
N2290 Y88.875 Z-13.308
N2295 Y61.817 Z-13.949
N2300 Y46.49 Z-14.492
N2305 Y29.664 Z-15.306
N2310 Y23.105 Z-15.743
N2315 Y19.025 Z-16.233
N2320 Y16.599 Z-16.73
N2325 Y13.886 Z-17.538
N2330 Y-19.525
N2335 G2 Y-19.944 Z-17.441 J0. K0.953
N2340 G3 Y-20.363 Z-17.343 J-0.419 K-0.855
N2345 G17 G2 X-38.32 Y-23.221 I-2.858 J0.
N2350 G1 X-42.602
N2355 G2 X-45.459 Y-20.363 I0. J2.858
N2360 G19 G2 Y-19.944 Z-17.441 J0. K-0.953
N2365 G3 Y-19.525 Z-17.538 J0.419 K0.855
N2370 G1 Y16.959
N2375 Y18.47 Z-17.234
N2380 Y22.279 Z-16.621
N2385 Y26.629 Z-16.265
N2390 Y38.205 Z-15.619
N2395 Y55.431 Z-14.855
N2400 Y71.895 Z-14.304
N2405 Y101.753 Z-13.612
N2410 Y129.744 Z-13.224
N2415 Y182.929 Z-13.112
N2420 Y343.415 Z-13.62
N2425 Y407.053 Z-13.594
N2430 Y451.84 Z-13.269
N2435 Y491.962 Z-12.632
N2440 Y540.877 Z-11.337
N2445 Y550.266 Z-11.3
N2450 Y554.424 Z-11.454
N2455 Y556.929 Z-11.638
N2460 Y560.769 Z-12.144
N2465 Y563.82 Z-12.806
N2470 Y566.431 Z-13.641
N2475 Y568.908 Z-14.742
N2480 Y570.995 Z-15.996
N2485 Y572.872 Z-17.513
N2490 Y619.525 Z-17.538
N2495 G3 Y619.945 Z-17.441 J0. K0.953
N2500 G2 Y620.364 Z-17.343 J0.419 K-0.855
N2505 G17 G3 X-48.317 Y623.221 I-2.858 J0.
N2510 G1 X-52.598
N2515 G3 X-55.456 Y620.364 I0. J-2.858
N2520 G19 G3 Y619.945 Z-17.441 J0. K-0.952
N2525 G2 Y619.525 Z-17.538 J-0.419 K0.855
N2530 G1 Y561.006 Z-17.518
N2535 Y558.737 Z-16.376
N2540 Y555.528 Z-15.201
N2545 Y551.865 Z-14.295
N2550 Y547.816 Z-13.655
N2555 Y544.18 Z-13.29
N2560 Y539.598 Z-13.025
N2565 Y531.201 Z-12.843
N2570 Y514.406 Z-12.962
N2575 Y463.087 Z-13.754
N2580 Y418.301 Z-14.115
N2585 Y356.971 Z-14.182
N2590 Y196.485 Z-13.714
N2595 Y145.167 Z-13.815
N2600 Y119.974 Z-14.046
N2605 Y84.984 Z-14.873
N2610 Y66.181 Z-15.498
N2615 Y48.971 Z-16.229
N2620 Y28.839 Z-17.28
N2625 Y23.922 Z-17.538
N2630 Y-19.525
N2635 G2 Y-19.944 Z-17.441 J0. K0.953
N2640 G3 Y-20.363 Z-17.343 J-0.419 K-0.855
N2645 G17 G2 X-58.313 Y-23.221 I-2.858 J0.
N2650 G1 X-62.595
N2655 G2 X-65.452 Y-20.363 I0. J2.858
N2660 G19 G2 Y-19.944 Z-17.441 J0. K-0.953
N2665 G3 Y-19.525 Z-17.538 J0.419 K0.855
N2670 G1 Y52.749
N2675 Y66.183 Z-16.938
N2680 Y88.746 Z-16.085
N2685 Y121.844 Z-15.148
N2690 Y155.434 Z-14.766
N2695 Y207.685 Z-14.589
N2700 Y307.522 Z-14.795
N2705 Y392.666 Z-14.981
N2710 Y455.181 Z-14.754
N2715 Y500.889 Z-14.509
N2720 Y514.884 Z-14.637
N2725 Y524.435 Z-14.945
N2730 Y530.597 Z-15.366
N2735 Y534.683 Z-15.814
N2740 Y539.635 Z-16.623
N2745 Y543.359 Z-17.537
N2750 Y619.525 Z-17.538
N2755 G3 Y619.944 Z-17.441 J0. K0.953
N2760 G2 Y620.363 Z-17.343 J0.419 K-0.855
N2765 G1 Y620.364
N2770 G17 G3 X-68.31 Y623.221 I-2.857 J0.
N2775 G1 X-72.591
N2780 G3 X-75.449 Y620.364 I0. J-2.857
N2785 G19 G3 Y619.944 Z-17.441 J0. K-0.953
N2790 G2 Y619.525 Z-17.538 J-0.419 K0.855
N2795 G1 Y509.424 Z-17.519
N2800 Y502.394 Z-17.079
N2805 Y492.277 Z-16.703
N2810 Y475.482 Z-16.416
N2815 Y441.891 Z-16.253
N2820 Y342.054 Z-16.048
N2825 Y268.342 Z-15.846
N2830 Y202.095 Z-15.912
N2835 Y155.909 Z-16.274
N2840 Y122.668 Z-16.85
N2845 Y101.599 Z-17.538
N2850 Y-19.525
N2855 G2 Y-19.944 Z-17.441 J0. K0.953
N2860 G3 Y-20.363 Z-17.343 J-0.419 K-0.855
N2865 G17 G2 X-78.306 Y-23.221 I-2.857 J0.
N2870 G1 X-82.588
N2875 G2 X-85.445 Y-20.363 I0. J2.858
N2880 G19 G2 Y-19.944 Z-17.441 J0. K-0.953
N2885 G3 Y-19.525 Z-17.538 J0.419 K0.855
N2890 G1 Y619.525
N2895 G3 Y619.944 Z-17.441 J0. K0.953
N2900 G2 Y620.363 Z-17.343 J0.419 K-0.855
N2905 G17 G3 X-88.303 Y623.221 I-2.858 J0.
N2910 G1 X-92.584
N2915 G3 X-95.442 Y620.363 I0. J-2.857
N2920 G19 G3 Y619.944 Z-17.441 J0. K-0.953
N2925 G2 Y619.525 Z-17.538 J-0.419 K0.855
N2930 G1 Y-19.525
N2935 G2 Y-19.944 Z-17.441 J0. K0.953
N2940 G3 Y-20.363 Z-17.343 J-0.419 K-0.855
N2945 G17 G2 X-98.299 Y-23.221 I-2.857 J0.
N2950 G1 X-102.581
N2955 G2 X-105.438 Y-20.363 I0. J2.858
N2960 G19 G2 Y-19.944 Z-17.441 J0. K-0.953
N2965 G3 Y-19.525 Z-17.538 J0.419 K0.855
N2970 G1 Y619.525
N2975 G3 Y619.944 Z-17.441 J0. K0.953
N2980 G2 Y620.363 Z-17.343 J0.419 K-0.855
N2985 G17 G3 X-108.296 Y623.221 I-2.858 J0.
N2990 G1 X-112.578
N2995 G3 X-115.435 Y620.363 I0. J-2.857
N3000 G19 G3 Y619.944 Z-17.441 J0. K-0.953
N3005 G2 Y619.525 Z-17.538 J-0.419 K0.855
N3010 G1 Y-19.525
N3015 G2 Y-19.944 Z-17.441 J0. K0.953
N3020 G3 Y-20.363 Z-17.343 J-0.419 K-0.855
N3025 G17 G2 X-118.293 Y-23.221 I-2.857 J0.
N3030 G1 X-122.574
N3035 G2 X-125.432 Y-20.363 I0. J2.858
N3040 G1 Y-20.342
N3045 G19 G2 Y-19.923 Z-17.441 J0. K-0.953
N3050 G3 Y-19.504 Z-17.538 J0.419 K0.855
N3055 G1 Y619.504
N3060 G3 Y619.923 Z-17.441 J0. K0.953
N3065 G2 Y620.342 Z-17.343 J0.419 K-0.855
N3070 G17 G3 X-128.289 Y623.2 I-2.858 J0.
N3075 G1 X-132.571
N3080 G3 X-135.428 Y620.342 I0. J-2.857
N3085 G1 Y617.324
N3090 G19 G3 Y616.905 Z-17.441 J0. K-0.953
N3095 G2 Y616.486 Z-17.538 J-0.419 K0.855
N3100 G1 Y-16.486
N3105 G2 Y-18.391 Z-15.633 J0. K1.905 F1000.
N3110 G0 Z15.
N3115 G17
(PARALLEL1 2)
N3120 G0 X126.486 Y611.636
N3125 Z15.
N3130 Z-22.633
N3135 G19 G2 Y609.731 Z-24.538 J-1.905 K0. F1000.
N3140 G1 Y-9.74 F3000.
N3145 G2 Y-10.159 Z-24.441 J0. K0.953
N3150 G3 Y-10.579 Z-24.343 J-0.419 K-0.855
N3155 G1 Y-10.759
N3160 G17 G2 X123.628 Y-13.616 I-2.857 J0.
N3165 G1 X120.346
N3170 G2 X117.488 Y-10.759 I0. J2.858
N3175 G19 G2 Y-10.34 Z-24.441 J0. K-0.953
N3180 G3 Y-9.92 Z-24.538 J0.419 K0.855
N3185 G1 Y609.931
N3190 G3 Y610.35 Z-24.441 J0. K0.953
N3195 G2 Y610.769 Z-24.343 J0.419 K-0.855
N3200 G1 Y610.811
N3205 G17 G3 X114.631 Y613.669 I-2.858 J0.
N3210 G1 X111.349
N3215 G3 X108.491 Y610.811 I0. J-2.857
N3220 G19 G3 Y610.392 Z-24.441 J0. K-0.953
N3225 G2 Y609.973 Z-24.538 J-0.419 K0.855
N3230 G1 Y-9.963
N3235 G2 Y-10.382 Z-24.441 J0. K0.953
N3240 G3 Y-10.801 Z-24.343 J-0.419 K-0.855
N3245 G1 Y-10.827
N3250 G17 G2 X105.634 Y-13.684 I-2.857 J0.
N3255 G1 X102.352
N3260 G2 X99.494 Y-10.827 I0. J2.858
N3265 G19 G2 Y-10.407 Z-24.441 J0. K-0.953
N3270 G3 Y-9.988 Z-24.538 J0.419 K0.855
N3275 G1 Y224.
N3280 Y241.131 Z-24.32
N3285 Y272.643 Z-24.056
N3290 Y306.855 Z-24.119
N3295 Y341.969 Z-24.498
N3300 Y609.987 Z-24.538
N3305 G3 Y610.406 Z-24.441 J0. K0.953
N3310 G2 Y610.826 Z-24.343 J0.419 K-0.855
N3315 G17 G3 X96.637 Y613.683 I-2.857 J0.
N3320 G1 X93.354
N3325 G3 X90.497 Y610.826 I0. J-2.858
N3330 G1 Y610.812
N3335 G19 G3 Y610.392 Z-24.441 J0. K-0.952
N3340 G2 Y609.973 Z-24.538 J-0.419 K0.855
N3345 G1 Y479.383 Z-24.501
N3350 Y473.118 Z-23.767
N3355 Y465.209 Z-23.092
N3360 Y456.399 Z-22.507
N3365 Y436.611 Z-21.709
N3370 Y403.298 Z-21.028
N3375 Y332.172 Z-20.353
N3380 Y288.956 Z-20.167
N3385 Y242.139 Z-20.254
N3390 Y200.723 Z-20.64
N3395 Y169.212 Z-21.301
N3400 Y148.757 Z-21.946
N3405 Y128.916 Z-22.849
N3410 Y117.005 Z-23.603
N3415 Y104.364 Z-24.538
N3420 Y-9.969
N3425 G2 Y-10.388 Z-24.441 J0. K0.953
N3430 G3 Y-10.808 Z-24.343 J-0.419 K-0.855
N3435 G17 G2 X87.639 Y-13.665 I-2.858 J0.
N3440 G1 X84.357
N3445 G2 X81.5 Y-10.808 I0. J2.858
N3450 G1 Y-10.763
N3455 G19 G2 Y-10.344 Z-24.441 J0. K-0.952
N3460 G3 Y-9.924 Z-24.538 J0.419 K0.855
N3465 G1 Y49.463 Z-24.519
N3470 Y59.141 Z-23.344
N3475 Y72.439 Z-22.125
N3480 Y86.968 Z-21.132
N3485 Y103.232 Z-20.262
N3490 Y123.57 Z-19.405
N3495 Y154.164 Z-18.66
N3500 Y191.077 Z-18.17
N3505 Y233.393 Z-17.919
N3510 Y301.818 Z-17.926
N3515 Y426.064 Z-18.509
N3520 Y455.775 Z-18.801
N3525 Y472.882 Z-19.165
N3530 Y483.686 Z-19.571
N3535 Y492.571 Z-20.086
N3540 Y499.601 Z-20.691
N3545 Y505.286 Z-21.407
N3550 Y510.493 Z-22.305
N3555 Y515.194 Z-23.444
N3560 Y518.469 Z-24.518
N3565 Y609.931 Z-24.538
N3570 G3 Y610.35 Z-24.441 J0. K0.953
N3575 G2 Y610.769 Z-24.343 J0.419 K-0.855
N3580 G17 G3 X78.642 Y613.627 I-2.857 J0.
N3585 G1 X75.36
N3590 G3 X72.502 Y610.769 I0. J-2.858
N3595 G1 Y610.713
N3600 G19 G3 Y610.294 Z-24.441 J0. K-0.952
N3605 G2 Y609.875 Z-24.538 J-0.419 K0.855
N3610 G1 Y540.685 Z-24.516
N3615 Y538.303 Z-22.993
N3620 Y535.392 Z-21.64
N3625 Y532.086 Z-20.514
N3630 Y528.468 Z-19.609
N3635 Y523.923 Z-18.783
N3640 Y519.114 Z-18.181
N3645 Y511.971 Z-17.604
N3650 Y501.317 Z-17.146
N3655 Y487.812 Z-16.884
N3660 Y458.884 Z-16.757
N3665 Y364.958 Z-16.74
N3670 Y261.42 Z-16.447
N3675 Y195.695 Z-16.498
N3680 Y149.553 Z-16.846
N3685 Y120.968 Z-17.322
N3690 Y98.564 Z-18.035
N3695 Y81.364 Z-18.708
N3700 Y62.945 Z-19.601
N3705 Y47.204 Z-20.598
N3710 Y35.213 Z-21.565
N3715 Y26.362 Z-22.473
N3720 Y22.341 Z-22.994
N3725 Y20.7 Z-23.432
N3730 Y18.839 Z-24.243
N3735 Y18.298 Z-24.538
N3740 Y-9.877
N3745 G2 Y-10.297 Z-24.441 J0. K0.953
N3750 G3 Y-10.716 Z-24.343 J-0.419 K-0.855
N3755 G17 G2 X69.645 Y-13.573 I-2.857 J0.
N3760 G1 X66.363
N3765 G2 X63.505 Y-10.716 I0. J2.858
N3770 G1 Y-10.691
N3775 G19 G2 Y-10.271 Z-24.441 J0. K-0.953
N3780 G3 Y-9.852 Z-24.538 J0.419 K0.855
N3785 G1 Y12.012
N3790 Y14.25 Z-23.1
N3795 Y16.591 Z-21.953
N3800 Y20.069 Z-20.698
N3805 Y22.692 Z-20.075
N3810 Y28.928 Z-19.576
N3815 Y50.474 Z-18.356
N3820 Y68.996 Z-17.516
N3825 Y90.433 Z-16.751
N3830 Y123.745 Z-15.861
N3835 Y159.759 Z-15.518
N3840 Y213.779 Z-15.399
N3845 Y339.825 Z-15.735
N3850 Y401.624 Z-15.797
N3855 Y454.744 Z-15.548
N3860 Y505.162 Z-15.189
N3865 Y519.568 Z-15.313
N3870 Y528.11 Z-15.613
N3875 Y532.955 Z-15.954
N3880 Y537.335 Z-16.439
N3885 Y541.673 Z-17.17
N3890 Y545.288 Z-18.078
N3895 Y547.966 Z-18.996
N3900 Y550.529 Z-20.169
N3905 Y552.969 Z-21.697
N3910 Y554.793 Z-23.279
N3915 Y555.854 Z-24.501
N3920 Y609.846 Z-24.538
N3925 G3 Y610.266 Z-24.441 J0.001 K0.953
N3930 G2 Y610.685 Z-24.343 J0.419 K-0.855
N3935 G17 G3 X60.648 Y613.543 I-2.858 J0.
N3940 G1 X57.366
N3945 G3 X54.508 Y610.685 I0. J-2.857
N3950 G19 G3 Y610.266 Z-24.441 J0. K-0.953
N3955 G2 Y609.846 Z-24.538 J-0.419 K0.855
N3960 G1 Y567.077
N3965 Y566.042 Z-22.699
N3970 Y564.681 Z-21.019
N3975 Y562.972 Z-19.479
N3980 Y560.85 Z-18.072
N3985 Y558.412 Z-16.887
N3990 Y556.065 Z-16.03
N3995 Y552.241 Z-15.071
N4000 Y548.331 Z-14.461
N4005 Y543.944 Z-14.054
N4010 Y536.79 Z-13.756
N4015 Y525.085 Z-13.717
N4020 Y462.062 Z-14.701
N4025 Y416.145 Z-15.063
N4030 Y360.703 Z-15.132
N4035 Y193.241 Z-14.647
N4040 Y141.022 Z-14.764
N4045 Y118.513 Z-14.993
N4050 Y85.201 Z-15.771
N4055 Y66.471 Z-16.38
N4060 Y49.673 Z-17.081
N4065 Y29.98 Z-18.098
N4070 Y23.646 Z-18.502
N4075 Y20.506 Z-19.006
N4080 Y17.404 Z-19.715
N4085 Y15.081 Z-20.476
N4090 Y12.23 Z-21.78
N4095 Y9.804 Z-23.299
N4100 Y8.227 Z-24.538
N4105 Y-9.85
N4110 G2 Y-10.269 Z-24.441 J0. K0.953
N4115 G3 Y-10.688 Z-24.343 J-0.419 K-0.855
N4120 G17 G2 X51.651 Y-13.546 I-2.857 J0.
N4125 G1 X48.368
N4130 G2 X45.511 Y-10.688 I0. J2.858
N4135 G1 Y-10.681
N4140 G19 G2 Y-10.262 Z-24.441 J0. K-0.953
N4145 G3 Y-9.843 Z-24.538 J0.419 K0.855
N4150 G1 Y6.517
N4155 Y6.945 Z-24.128
N4160 Y9.144 Z-22.283
N4165 Y11.541 Z-20.765
N4170 Y14.275 Z-19.498
N4175 Y17.321 Z-18.532
N4180 Y19.853 Z-18.01
N4185 Y22.994 Z-17.547
N4190 Y24.574 Z-17.413
N4195 Y35.723 Z-16.752
N4200 Y53.999 Z-15.919
N4205 Y70.794 Z-15.344
N4210 Y100.505 Z-14.64
N4215 Y129.315 Z-14.231
N4220 Y182.435 Z-14.116
N4225 Y346.296 Z-14.629
N4230 Y408.892 Z-14.589
N4235 Y456.61 Z-14.217
N4240 Y495.324 Z-13.565
N4245 Y540.341 Z-12.361
N4250 Y549.344 Z-12.311
N4255 Y553.807 Z-12.456
N4260 Y556.445 Z-12.644
N4265 Y560.371 Z-13.162
N4270 Y563.256 Z-13.793
N4275 Y565.857 Z-14.636
N4280 Y567.828 Z-15.5
N4285 Y570.042 Z-16.809
N4290 Y571.693 Z-18.124
N4295 Y572.561 Z-18.98
N4300 Y573.896 Z-20.669
N4305 Y574.961 Z-22.588
N4310 Y575.634 Z-24.511
N4315 Y609.846 Z-24.538
N4320 G3 Y610.266 Z-24.441 J0.001 K0.953
N4325 G2 Y610.685 Z-24.343 J0.419 K-0.855
N4330 G1 Y610.713
N4335 G17 G3 X42.653 Y613.57 I-2.857 J0.
N4340 G1 X39.371
N4345 G3 X36.514 Y610.713 I0. J-2.857
N4350 G19 G3 Y610.294 Z-24.441 J0. K-0.953
N4355 G2 Y609.875 Z-24.538 J-0.419 K0.855
N4360 G1 Y582.303
N4365 Y581.831 Z-22.303
N4370 Y580.989 Z-20.193
N4375 Y579.993 Z-18.521
N4380 Y578.484 Z-16.716
N4385 Y576.815 Z-15.263
N4390 Y574.96 Z-14.053
N4395 Y572.711 Z-12.978
N4400 Y570.036 Z-12.105
N4405 Y567.135 Z-11.506
N4410 Y565.066 Z-11.248
N4415 Y563.311 Z-11.108
N4420 Y559.971 Z-10.988
N4425 Y552.543 Z-11.099
N4430 Y515.624 Z-12.54
N4435 Y487.72 Z-13.284
N4440 Y449.005 Z-13.907
N4445 Y400.387 Z-14.252
N4450 Y334.514 Z-14.258
N4455 Y176.956 Z-13.758
N4460 Y125.637 Z-13.859
N4465 Y89.624 Z-14.341
N4470 Y61.713 Z-15.011
N4475 Y46.827 Z-15.542
N4480 Y31.524 Z-16.266
N4485 Y23.991 Z-16.739
N4490 Y20.835 Z-17.072
N4495 Y19.262 Z-17.285
N4500 Y16.923 Z-17.762
N4505 Y13.971 Z-18.695
N4510 Y11.33 Z-19.929
N4515 Y8.939 Z-21.467
N4520 Y6.848 Z-23.257
N4525 Y5.606 Z-24.538
N4530 Y-9.877
N4535 G2 Y-10.296 Z-24.441 J0. K0.953
N4540 G3 Y-10.715 Z-24.343 J-0.419 K-0.855
N4545 G1 Y-10.768
N4550 G17 G2 X33.656 Y-13.625 I-2.858 J0.
N4555 G1 X30.374
N4560 G2 X27.516 Y-10.768 I0. J2.858
N4565 G19 G2 Y-10.349 Z-24.441 J0. K-0.953
N4570 G3 Y-9.929 Z-24.538 J0.419 K0.855
N4575 G1 Y5.119
N4580 Y6.829 Z-22.66
N4585 Y8.954 Z-20.84
N4590 Y11.165 Z-19.417
N4595 Y13.717 Z-18.212
N4600 Y15.796 Z-17.506
N4605 Y16.57 Z-17.297
N4610 Y19.389 Z-16.743
N4615 Y23.642 Z-16.313
N4620 Y33.179 Z-15.726
N4625 Y46.377 Z-15.126
N4630 Y60.533 Z-14.647
N4635 Y87.093 Z-14.055
N4640 Y123.556 Z-13.624
N4645 Y173.975 Z-13.525
N4650 Y315.327 Z-13.969
N4655 Y388.256 Z-14.022
N4660 Y439.575 Z-13.72
N4665 Y478.289 Z-13.159
N4670 Y508. Z-12.422
N4675 Y533.107 Z-11.476
N4680 Y558.614 Z-10.111
N4685 Y565.422 Z-9.789
N4690 Y568.123 Z-9.761
N4695 Y570.783 Z-9.863
N4700 Y572.535 Z-10.033
N4705 Y574.269 Z-10.31
N4710 Y575.968 Z-10.709
N4715 Y576.793 Z-10.951
N4720 Y579.206 Z-11.916
N4725 Y581.402 Z-13.201
N4730 Y583.193 Z-14.663
N4735 Y584.697 Z-16.347
N4740 Y585.838 Z-18.124
N4745 Y586.761 Z-20.248
N4750 Y587.31 Z-22.455
N4755 Y587.502 Z-24.538
N4760 Y609.931
N4765 G3 Y610.35 Z-24.441 J0. K0.953
N4770 G2 Y610.769 Z-24.343 J0.419 K-0.855
N4775 G1 Y610.811
N4780 G17 G3 X24.659 Y613.669 I-2.858 J0.
N4785 G1 X21.377
N4790 G3 X18.519 Y610.811 I0. J-2.857
N4795 G19 G3 Y610.392 Z-24.441 J0. K-0.953
N4800 G2 Y609.973 Z-24.538 J-0.419 K0.855
N4805 G1 Y591.556
N4810 Y591.474 Z-21.834
N4815 Y591.038 Z-19.477
N4820 Y590.377 Z-17.586
N4825 Y589.328 Z-15.618
N4830 Y588.385 Z-14.324
N4835 Y587.27 Z-13.122
N4840 Y585.498 Z-11.671
N4845 Y583.577 Z-10.538
N4850 Y581.486 Z-9.674
N4855 Y578.816 Z-8.995
N4860 Y575.803 Z-8.663
N4865 Y572.773 Z-8.658
N4870 Y568.668 Z-8.896
N4875 Y548.445 Z-10.345
N4880 Y527.016 Z-11.463
N4885 Y500.906 Z-12.389
N4890 Y467.594 Z-13.137
N4895 Y424.378 Z-13.658
N4900 Y367.657 Z-13.879
N4905 Y274.758 Z-13.687
N4910 Y170.319 Z-13.381
N4915 Y120.801 Z-13.496
N4920 Y84.787 Z-13.892
N4925 Y58.678 Z-14.46
N4930 Y44.522 Z-14.94
N4935 Y32.982 Z-15.47
N4940 Y23.451 Z-16.064
N4945 Y20.292 Z-16.332
N4950 Y17.837 Z-16.699
N4955 Y14.939 Z-17.445
N4960 Y12.599 Z-18.355
N4965 Y10.64 Z-19.38
N4970 Y8.354 Z-20.962
N4975 Y6.343 Z-22.818
N4980 Y4.898 Z-24.538
N4985 Y-9.971
N4990 G2 Y-10.39 Z-24.441 J0. K0.953
N4995 G3 Y-10.81 Z-24.343 J-0.419 K-0.855
N5000 G1 Y-10.836
N5005 G17 G2 X15.662 Y-13.694 I-2.857 J0.
N5010 G1 X12.38
N5015 G2 X9.522 Y-10.836 I0. J2.858
N5020 G19 G2 Y-10.417 Z-24.441 J0. K-0.953
N5025 G3 Y-9.998 Z-24.538 J0.419 K0.855
N5030 G1 Y4.772
N5035 Y5.803 Z-23.257
N5040 Y7.482 Z-21.541
N5045 Y9.458 Z-19.974
N5050 Y11.712 Z-18.623
N5055 Y14.299 Z-17.503
N5060 Y16.4 Z-16.865
N5065 Y18.741 Z-16.386
N5070 Y22.291 Z-16.017
N5075 Y32.204 Z-15.377
N5080 Y43.704 Z-14.838
N5085 Y56.953 Z-14.385
N5090 Y82.162 Z-13.829
N5095 Y117.275 Z-13.442
N5100 Y165.893 Z-13.307
N5105 Y260.428 Z-13.555
N5110 Y359.781 Z-13.785
N5115 Y418.303 Z-13.588
N5120 Y462.419 Z-13.092
N5125 Y495.732 Z-12.385
N5130 Y522.742 Z-11.475
N5135 Y544.047 Z-10.408
N5140 Y559.89 Z-9.292
N5145 Y575.162 Z-7.842
N5150 Y579.335 Z-7.578
N5155 Y581.685 Z-7.688
N5160 Y584.226 Z-8.156
N5165 Y586.56 Z-8.982
N5170 Y588.441 Z-9.998
N5175 Y589.923 Z-11.093
N5180 Y591.537 Z-12.714
N5185 Y592.47 Z-13.966
N5190 Y593.503 Z-15.853
N5195 Y594.259 Z-18.012
N5200 Y594.667 Z-20.362
N5205 Y594.734 Z-24.538
N5210 Y609.987
N5215 G3 Y610.406 Z-24.441 J0. K0.953
N5220 G2 Y610.825 Z-24.343 J0.419 K-0.855
N5225 G17 G3 X6.665 Y613.683 I-2.857 J0.
N5230 G1 X3.382
N5235 G3 X0.525 Y610.825 I0. J-2.857
N5240 G1 Y610.811
N5245 G19 G3 Y610.392 Z-24.441 J0. K-0.953
N5250 G2 Y609.973 Z-24.538 J-0.419 K0.855
N5255 G1 Y596.688
N5260 Y596.63 Z-18.849
N5265 Y596.229 Z-16.592
N5270 Y595.554 Z-14.658
N5275 Y594.887 Z-13.334
N5280 Y594.008 Z-11.995
N5285 Y592.575 Z-10.361
N5290 Y591.056 Z-9.09
N5295 Y589.628 Z-8.192
N5300 Y588.082 Z-7.473
N5305 Y586.442 Z-6.95
N5310 Y584.734 Z-6.638
N5315 Y583.163 Z-6.546
N5320 Y581.166 Z-6.695
N5325 Y572.983 Z-7.858
N5330 Y562.456 Z-8.964
N5335 Y548.383 Z-10.055
N5340 Y528.817 Z-11.142
N5345 Y503.608 Z-12.101
N5350 Y471.196 Z-12.89
N5355 Y429.78 Z-13.452
N5360 Y375.76 Z-13.732
N5365 Y295.774 Z-13.649
N5370 Y171.528 Z-13.285
N5375 Y120.209 Z-13.4
N5380 Y84.195 Z-13.764
N5385 Y58.086 Z-14.313
N5390 Y45.601 Z-14.722
N5395 Y33.982 Z-15.239
N5400 Y24.437 Z-15.817
N5405 Y19.697 Z-16.206
N5410 Y16.492 Z-16.794
N5415 Y15.026 Z-17.209
N5420 Y13.518 Z-17.75
N5425 Y11.512 Z-18.677
N5430 Y9.178 Z-20.123
N5435 Y7.063 Z-21.882
N5440 Y5.206 Z-23.934
N5445 Y4.733 Z-24.538
N5450 Y-9.968
N5455 G2 Y-10.387 Z-24.441 J0. K0.953
N5460 G3 Y-10.806 Z-24.343 J-0.419 K-0.855
N5465 G17 G2 X-2.333 Y-13.663 I-2.857 J0.
N5470 G1 X-5.615
N5475 G2 X-8.472 Y-10.806 I0. J2.858
N5480 G1 Y-10.754
N5485 G19 G2 Y-10.335 Z-24.441 J0. K-0.953
N5490 G3 Y-9.916 Z-24.538 J0.419 K0.855
N5495 G1 Y4.759
N5500 Y5.296 Z-23.856
N5505 Y7.065 Z-21.918
N5510 Y9.18 Z-20.159
N5515 Y11.515 Z-18.714
N5520 Y13.52 Z-17.788
N5525 Y15.028 Z-17.246
N5530 Y16.494 Z-16.831
N5535 Y19.698 Z-16.242
N5540 Y24.439 Z-15.849
N5545 Y33.984 Z-15.272
N5550 Y45.601 Z-14.754
N5555 Y58.079 Z-14.344
N5560 Y84.189 Z-13.79
N5565 Y120.202 Z-13.418
N5570 Y171.521 Z-13.303
N5575 Y292.166 Z-13.659
N5580 Y374.335 Z-13.763
N5585 Y429.255 Z-13.491
N5590 Y470.67 Z-12.94
N5595 Y503.082 Z-12.163
N5600 Y525.48 Z-11.345
N5605 Y546.003 Z-10.272
N5610 Y560.082 Z-9.256
N5615 Y576.812 Z-7.629
N5620 Y580.421 Z-7.46
N5625 Y583.095 Z-7.694
N5630 Y585.47 Z-8.271
N5635 Y587.643 Z-9.177
N5640 Y589.442 Z-10.281
N5645 Y590.956 Z-11.552
N5650 Y592.384 Z-13.184
N5655 Y593.254 Z-14.521
N5660 Y593.922 Z-15.869
N5665 Y594.597 Z-17.862
N5670 Y594.984 Z-20.101
N5675 Y595.055 Z-24.538
N5680 Y609.917
N5685 G3 Y610.336 Z-24.441 J0. K0.953
N5690 G2 Y610.755 Z-24.343 J0.419 K-0.855
N5695 G17 G3 X-11.33 Y613.613 I-2.858 J0.
N5700 G1 X-14.612
N5705 G3 X-17.47 Y610.755 I0. J-2.857
N5710 G1 Y610.713
N5715 G19 G3 Y610.294 Z-24.441 J0. K-0.953
N5720 G2 Y609.875 Z-24.538 J-0.419 K0.855
N5725 G1 Y591.968
N5730 Y591.879 Z-21.578
N5735 Y591.443 Z-19.263
N5740 Y590.805 Z-17.439
N5745 Y589.737 Z-15.432
N5750 Y588.339 Z-13.616
N5755 Y586.659 Z-12.049
N5760 Y584.91 Z-10.858
N5765 Y582.803 Z-9.837
N5770 Y580.637 Z-9.138
N5775 Y577.843 Z-8.646
N5780 Y574.97 Z-8.503
N5785 Y572.269 Z-8.587
N5790 Y548.697 Z-10.298
N5795 Y528.184 Z-11.386
N5800 Y502.212 Z-12.329
N5805 Y468.9 Z-13.094
N5810 Y426.584 Z-13.623
N5815 Y371.664 Z-13.86
N5820 Y284.66 Z-13.71
N5825 Y171.218 Z-13.371
N5830 Y120.799 Z-13.483
N5835 Y84.786 Z-13.876
N5840 Y58.676 Z-14.441
N5845 Y44.504 Z-14.919
N5850 Y32.969 Z-15.449
N5855 Y23.438 Z-16.044
N5860 Y20.279 Z-16.309
N5865 Y17.824 Z-16.677
N5870 Y14.832 Z-17.455
N5875 Y12.588 Z-18.334
N5880 Y10.627 Z-19.36
N5885 Y8.352 Z-20.937
N5890 Y6.333 Z-22.803
N5895 Y4.879 Z-24.538
N5900 Y-9.878
N5905 G2 Y-10.297 Z-24.441 J0. K0.953
N5910 G3 Y-10.716 Z-24.343 J-0.419 K-0.855
N5915 G17 G2 X-20.327 Y-13.574 I-2.858 J0.
N5920 G1 X-23.609
N5925 G2 X-26.467 Y-10.716 I0. J2.858
N5930 G1 Y-10.691
N5935 G19 G2 Y-10.272 Z-24.441 J0. K-0.953
N5940 G3 Y-9.852 Z-24.538 J0.419 K0.855
N5945 G1 Y5.067
N5950 Y6.486 Z-22.955
N5955 Y8.554 Z-21.093
N5960 Y10.744 Z-19.606
N5965 Y13.266 Z-18.346
N5970 Y16.104 Z-17.371
N5975 Y18.95 Z-16.764
N5980 Y23.56 Z-16.281
N5985 Y33.094 Z-15.691
N5990 Y46.305 Z-15.091
N5995 Y59.582 Z-14.64
N6000 Y86.592 Z-14.033
N6005 Y123.506 Z-13.604
N6010 Y173.924 Z-13.504
N6015 Y302.672 Z-13.91
N6020 Y381.812 Z-14.012
N6025 Y434.932 Z-13.736
N6030 Y475.447 Z-13.183
N6035 Y506.959 Z-12.419
N6040 Y532.028 Z-11.484
N6045 Y555.549 Z-10.229
N6050 Y565.214 Z-9.693
N6055 Y569.96 Z-9.643
N6060 Y573.619 Z-9.942
N6065 Y576.56 Z-10.547
N6070 Y578.918 Z-11.367
N6075 Y580.986 Z-12.411
N6080 Y582.912 Z-13.765
N6085 Y584.272 Z-15.039
N6090 Y585.678 Z-16.808
N6095 Y586.438 Z-18.087
N6100 Y587.226 Z-19.899
N6105 Y587.816 Z-22.185
N6110 Y588.026 Z-24.538
N6115 Y609.846
N6120 G3 Y610.266 Z-24.441 J0. K0.953
N6125 G2 Y610.685 Z-24.343 J0.419 K-0.855
N6130 G17 G3 X-29.324 Y613.542 I-2.858 J0.
N6135 G1 X-32.606
N6140 G3 X-35.464 Y610.685 I0. J-2.858
N6145 G19 G3 Y610.266 Z-24.441 J0. K-0.953
N6150 G2 Y609.846 Z-24.538 J-0.419 K0.855
N6155 G1 Y582.978
N6160 Y582.522 Z-22.243
N6165 Y581.714 Z-20.142
N6170 Y580.636 Z-18.308
N6175 Y579.205 Z-16.581
N6180 Y577.413 Z-15.011
N6185 Y575.345 Z-13.698
N6190 Y573.395 Z-12.789
N6195 Y570.979 Z-11.983
N6200 Y567.926 Z-11.338
N6205 Y566.183 Z-11.116
N6210 Y564.429 Z-10.967
N6215 Y561.093 Z-10.841
N6220 Y554.566 Z-10.931
N6225 Y517.017 Z-12.445
N6230 Y485.506 Z-13.287
N6235 Y449.492 Z-13.863
N6240 Y400.874 Z-14.214
N6245 Y334.513 Z-14.226
N6250 Y176.955 Z-13.726
N6255 Y125.636 Z-13.823
N6260 Y89.622 Z-14.296
N6265 Y62.612 Z-14.927
N6270 Y48.494 Z-15.413
N6275 Y33.488 Z-16.096
N6280 Y23.948 Z-16.676
N6285 Y20.792 Z-17.005
N6290 Y18.24 Z-17.392
N6295 Y15.342 Z-18.128
N6300 Y13.089 Z-18.976
N6305 Y10.934 Z-20.064
N6310 Y8.578 Z-21.652
N6315 Y6.625 Z-23.39
N6320 Y5.566 Z-24.538
N6325 Y-9.855
N6330 G2 Y-10.274 Z-24.441 J0. K0.953
N6335 G3 Y-10.694 Z-24.343 J-0.419 K-0.855
N6340 G17 G2 X-38.321 Y-13.551 I-2.857 J0.
N6345 G1 X-41.604
N6350 G2 X-44.461 Y-10.694 I0. J2.858
N6355 G1 Y-10.686
N6360 G19 G2 Y-10.267 Z-24.441 J0. K-0.953
N6365 G3 Y-9.847 Z-24.538 J0.419 K0.855
N6370 G1 Y6.387
N6375 Y6.769 Z-24.169
N6380 Y8.952 Z-22.293
N6385 Y11.11 Z-20.877
N6390 Y13.632 Z-19.632
N6395 Y15.131 Z-19.06
N6400 Y17.432 Z-18.386
N6405 Y19.772 Z-17.911
N6410 Y22.128 Z-17.562
N6415 Y24.496 Z-17.319
N6420 Y30.836 Z-16.919
N6425 Y47.249 Z-16.109
N6430 Y62.693 Z-15.514
N6435 Y86.996 Z-14.847
N6440 Y121.209 Z-14.248
N6445 Y162.624 Z-14.068
N6450 Y237.352 Z-14.203
N6455 Y362.498 Z-14.606
N6460 Y421.112 Z-14.48
N6465 Y461.627 Z-14.099
N6470 Y496.74 Z-13.472
N6475 Y536.349 Z-12.353
N6480 Y548.053 Z-12.135
N6485 Y554.187 Z-12.248
N6490 Y558.746 Z-12.603
N6495 Y562.218 Z-13.137
N6500 Y565.598 Z-14.018
N6505 Y568.025 Z-14.97
N6510 Y569.875 Z-15.951
N6515 Y571.819 Z-17.304
N6520 Y573.555 Z-18.957
N6525 Y574.923 Z-20.778
N6530 Y575.929 Z-22.747
N6535 Y576.499 Z-24.51
N6540 Y609.846 Z-24.538
N6545 G3 Y610.266 Z-24.441 J0.001 K0.952
N6550 G2 Y610.686 Z-24.343 J0.419 K-0.855
N6555 G1 Y610.713
N6560 G17 G3 X-47.319 Y613.571 I-2.857 J0.
N6565 G1 X-50.601
N6570 G3 X-53.458 Y610.713 I0. J-2.857
N6575 G19 G3 Y610.294 Z-24.441 J0. K-0.952
N6580 G2 Y609.875 Z-24.538 J-0.419 K0.855
N6585 G1 Y568.187 Z-24.52
N6590 Y567.137 Z-22.58
N6595 Y565.992 Z-21.098
N6600 Y564.495 Z-19.639
N6605 Y562.431 Z-18.151
N6610 Y560.543 Z-17.125
N6615 Y557.515 Z-15.917
N6620 Y553.923 Z-14.963
N6625 Y550.02 Z-14.314
N6630 Y546.955 Z-13.986
N6635 Y542.535 Z-13.711
N6640 Y534.432 Z-13.532
N6645 Y520.026 Z-13.65
N6650 Y468.707 Z-14.542
N6655 Y420.99 Z-14.971
N6660 Y361.608 Z-15.07
N6665 Y190.545 Z-14.573
N6670 Y138.325 Z-14.696
N6675 Y117.618 Z-14.921
N6680 Y84.305 Z-15.684
N6685 Y64.661 Z-16.322
N6690 Y47.925 Z-17.033
N6695 Y29.838 Z-17.97
N6700 Y23.111 Z-18.424
N6705 Y19.978 Z-18.964
N6710 Y17.265 Z-19.589
N6715 Y14.988 Z-20.336
N6720 Y12.265 Z-21.563
N6725 Y9.849 Z-23.047
N6730 Y7.927 Z-24.538
N6735 Y-9.871
N6740 G2 Y-10.29 Z-24.441 J0. K0.953
N6745 G3 Y-10.709 Z-24.343 J-0.419 K-0.855
N6750 G1 Y-10.758
N6755 G17 G2 X-56.316 Y-13.616 I-2.858 J0.
N6760 G1 X-59.598
N6765 G2 X-62.456 Y-10.758 I0. J2.858
N6770 G19 G2 Y-10.339 Z-24.441 J0. K-0.953
N6775 G3 Y-9.92 Z-24.538 J0.419 K0.855
N6780 G1 Y11.393
N6785 Y12.322 Z-23.919
N6790 Y14.636 Z-22.546
N6795 Y17.391 Z-21.341
N6800 Y20.623 Z-20.317
N6805 Y22.966 Z-19.817
N6810 Y30.873 Z-19.254
N6815 Y47.044 Z-18.358
N6820 Y65.064 Z-17.516
N6825 Y85.926 Z-16.744
N6830 Y121.039 Z-15.78
N6835 Y152.551 Z-15.444
N6840 Y206.571 Z-15.295
N6845 Y370.431 Z-15.716
N6850 Y425.71 Z-15.628
N6855 Y504.039 Z-15.018
N6860 Y520.245 Z-15.086
N6865 Y529.249 Z-15.379
N6870 Y535.425 Z-15.81
N6875 Y539.143 Z-16.249
N6880 Y543.261 Z-16.962
N6885 Y546.659 Z-17.824
N6890 Y549.536 Z-18.827
N6895 Y551.884 Z-19.926
N6900 Y554.068 Z-21.285
N6905 Y555.911 Z-22.841
N6910 Y557.341 Z-24.515
N6915 Y609.931 Z-24.538
N6920 G3 Y610.35 Z-24.441 J0. K0.953
N6925 G2 Y610.77 Z-24.343 J0.419 K-0.855
N6930 G1 Y610.797
N6935 G17 G3 X-65.313 Y613.655 I-2.857 J0.
N6940 G1 X-68.595
N6945 G3 X-71.453 Y610.797 I0. J-2.857
N6950 G19 G3 Y610.378 Z-24.441 J0. K-0.953
N6955 G2 Y609.959 Z-24.538 J-0.419 K0.855
N6960 G1 Y542.753
N6965 Y540.684 Z-23.099
N6970 Y537.897 Z-21.67
N6975 Y534.738 Z-20.494
N6980 Y530.951 Z-19.472
N6985 Y526.172 Z-18.566
N6990 Y520.267 Z-17.843
N6995 Y514.072 Z-17.359
N7000 Y506.002 Z-16.986
N7005 Y493.397 Z-16.709
N7010 Y469.989 Z-16.572
N7015 Y370.354 Z-16.619
N7020 Y244.308 Z-16.294
N7025 Y184.886 Z-16.397
N7030 Y142.57 Z-16.76
N7035 Y120.062 Z-17.159
N7040 Y96.747 Z-17.885
N7045 Y76.167 Z-18.693
N7050 Y56.775 Z-19.677
N7055 Y41.747 Z-20.681
N7060 Y31.3 Z-21.537
N7065 Y22.846 Z-22.434
N7070 Y20.899 Z-22.893
N7075 Y18.657 Z-23.833
N7080 Y17.403 Z-24.538
N7085 Y-9.957
N7090 G2 Y-10.376 Z-24.441 J0. K0.953
N7095 G3 Y-10.795 Z-24.343 J-0.419 K-0.855
N7100 G1 Y-10.847
N7105 G17 G2 X-74.31 Y-13.704 I-2.857 J0.
N7110 G1 X-77.592
N7115 G2 X-80.45 Y-10.847 I0. J2.857
N7120 G19 G2 Y-10.428 Z-24.441 J0. K-0.953
N7125 G3 Y-10.008 Z-24.538 J0.419 K0.855
N7130 G1 Y44.282
N7135 Y50.015 Z-23.785
N7140 Y59.075 Z-22.805
N7145 Y69.633 Z-21.877
N7150 Y85.339 Z-20.813
N7155 Y103.02 Z-19.92
N7160 Y120.118 Z-19.222
N7165 Y146.177 Z-18.538
N7170 Y185.791 Z-17.979
N7175 Y233.509 Z-17.711
N7180 Y301.034 Z-17.718
N7185 Y438.785 Z-18.339
N7190 Y464.895 Z-18.635
N7195 Y482.901 Z-19.109
N7200 Y493.435 Z-19.644
N7205 Y501.579 Z-20.314
N7210 Y508.168 Z-21.144
N7215 Y513.178 Z-22.031
N7220 Y517.628 Z-23.134
N7225 Y521.632 Z-24.518
N7230 Y610.001 Z-24.538
N7235 G3 Y610.421 Z-24.441 J0. K0.953
N7240 G2 Y610.84 Z-24.343 J0.419 K-0.855
N7245 G17 G3 X-83.307 Y613.697 I-2.858 J0.
N7250 G1 X-86.59
N7255 G3 X-89.447 Y610.84 I0. J-2.857
N7260 G1 Y610.812
N7265 G19 G3 Y610.393 Z-24.441 J0. K-0.952
N7270 G2 Y609.973 Z-24.538 J-0.419 K0.855
N7275 G1 Y485.495 Z-24.494
N7280 Y480.471 Z-23.8
N7285 Y475.211 Z-23.217
N7290 Y465.017 Z-22.413
N7295 Y449.498 Z-21.651
N7300 Y431.941 Z-21.143
N7305 Y408.533 Z-20.716
N7310 Y340.108 Z-20.061
N7315 Y300.493 Z-19.856
N7320 Y250.074 Z-19.864
N7325 Y207.759 Z-20.197
N7330 Y175.797 Z-20.709
N7335 Y146.1 Z-21.56
N7340 Y132.949 Z-22.125
N7345 Y118.109 Z-22.907
N7350 Y106.861 Z-23.704
N7355 Y96.741 Z-24.538
N7360 Y-9.96
N7365 G2 Y-10.379 Z-24.441 J0. K0.953
N7370 G3 Y-10.799 Z-24.343 J-0.419 K-0.855
N7375 G17 G2 X-92.305 Y-13.656 I-2.857 J0.
N7380 G1 X-95.587
N7385 G2 X-98.444 Y-10.799 I0. J2.858
N7390 G1 Y-10.765
N7395 G19 G2 Y-10.346 Z-24.441 J0. K-0.953
N7400 G3 Y-9.927 Z-24.538 J0.419 K0.855
N7405 G1 Y198.177
N7410 Y210.49 Z-24.253
N7415 Y237.5 Z-23.726
N7420 Y269.012 Z-23.48
N7425 Y307.726 Z-23.537
N7430 Y345.54 Z-23.908
N7435 Y378.852 Z-24.497
N7440 Y609.931 Z-24.538
N7445 G3 Y610.35 Z-24.441 J0. K0.953
N7450 G2 Y610.769 Z-24.343 J0.419 K-0.855
N7455 G17 G3 X-101.302 Y613.627 I-2.857 J0.
N7460 G1 X-104.584
N7465 G3 X-107.442 Y610.769 I0. J-2.857
N7470 G1 Y610.713
N7475 G19 G3 Y610.294 Z-24.441 J0. K-0.953
N7480 G2 Y609.875 Z-24.538 J-0.419 K0.855
N7485 G1 Y-9.864
N7490 G2 Y-10.283 Z-24.441 J0. K0.953
N7495 G3 Y-10.703 Z-24.343 J-0.419 K-0.855
N7500 G17 G2 X-110.299 Y-13.56 I-2.858 J0.
N7505 G1 X-113.581
N7510 G2 X-116.439 Y-10.703 I0. J2.858
N7515 G1 Y-10.689
N7520 G19 G2 Y-10.269 Z-24.441 J0. K-0.953
N7525 G3 Y-9.85 Z-24.538 J0.419 K0.855
N7530 G1 Y609.846
N7535 G3 Y610.266 Z-24.441 J0. K0.953
N7540 G2 Y610.685 Z-24.343 J0.419 K-0.855
N7545 G17 G3 X-119.296 Y613.542 I-2.857 J0.
N7550 G1 X-122.578
N7555 G3 X-125.436 Y610.685 I0. J-2.858
N7560 G1 Y610.677
N7565 G19 G3 Y610.258 Z-24.441 J0. K-0.953
N7570 G2 Y609.839 Z-24.538 J-0.419 K0.855
N7575 G1 Y-9.843
N7580 G2 Y-10.263 Z-24.441 J0. K0.953
N7585 G3 Y-10.682 Z-24.343 J-0.419 K-0.855
N7590 G17 G2 X-128.293 Y-13.539 I-2.857 J0.
N7595 G1 X-131.576
N7600 G2 X-134.433 Y-10.682 I0. J2.857
N7605 G1 Y-3.692
N7610 G19 G2 Y-3.273 Z-24.441 J0. K-0.953
N7615 G3 Y-2.854 Z-24.538 J0.419 K0.855
N7620 G1 Y602.846
N7625 G3 Y604.751 Z-22.633 J0. K1.905 F1000.
N7630 G0 Z15.
N7635 G17
(PARALLEL1 3)
N7640 G0 X128.489 Y611.117
N7645 Z15.
N7650 Z-29.633
N7655 G19 G2 Y609.212 Z-31.538 J-1.905 K0. F1000.
N7660 G1 Y-9.212 F3000.
N7665 G2 Y-9.631 Z-31.441 J0. K0.953
N7670 G3 Y-10.051 Z-31.343 J-0.419 K-0.855
N7675 G1 Y-10.762
N7680 G17 G2 X125.632 Y-13.619 I-2.857 J0.
N7685 G1 X123.349
N7690 G2 X120.492 Y-10.762 I0. J2.858
N7695 G19 G2 Y-10.343 Z-31.441 J0. K-0.952
N7700 G3 Y-9.923 Z-31.538 J0.419 K0.855
N7705 G1 Y609.929
N7710 G3 Y610.348 Z-31.441 J0. K0.953
N7715 G2 Y610.768 Z-31.343 J0.419 K-0.855
N7720 G1 Y610.807
N7725 G17 G3 X117.634 Y613.664 I-2.858 J0.
N7730 G1 X115.351
N7735 G3 X112.494 Y610.807 I0. J-2.857
N7740 G19 G3 Y610.387 Z-31.441 J0. K-0.952
N7745 G2 Y609.968 Z-31.538 J-0.419 K0.855
N7750 G1 Y-9.962
N7755 G2 Y-10.381 Z-31.441 J0. K0.953
N7760 G3 Y-10.801 Z-31.343 J-0.419 K-0.855
N7765 G1 Y-10.804
N7770 G17 G2 X109.636 Y-13.661 I-2.857 J0.
N7775 G1 X107.354
N7780 G2 X104.496 Y-10.804 I0. J2.858
N7785 G19 G2 Y-10.384 Z-31.441 J0. K-0.952
N7790 G3 Y-9.965 Z-31.538 J0.419 K0.855
N7795 G1 Y224.128
N7800 Y235.396 Z-31.141
N7805 Y256.172 Z-30.633
N7810 Y280.272 Z-30.385
N7815 Y304.371 Z-30.478
N7820 Y328.471 Z-30.847
N7825 Y353.292 Z-31.504
N7830 Y609.968 Z-31.538
N7835 G3 Y610.388 Z-31.441 J0. K0.953
N7840 G2 Y610.807 Z-31.343 J0.419 K-0.855
N7845 G17 G3 X101.639 Y613.664 I-2.857 J0.
N7850 G1 X99.356
N7855 G3 X96.498 Y610.807 I0. J-2.857
N7860 G1 Y610.768
N7865 G19 G3 Y610.348 Z-31.441 J0. K-0.952
N7870 G2 Y609.929 Z-31.538 J-0.419 K0.855
N7875 G1 Y462.717 Z-31.536
N7880 Y458.116 Z-30.533
N7885 Y451.69 Z-29.492
N7890 Y444.415 Z-28.62
N7895 Y437.115 Z-27.97
N7900 Y427.338 Z-27.304
N7905 Y415.732 Z-26.712
N7910 Y389.139 Z-25.873
N7915 Y360.884 Z-25.349
N7920 Y312.685 Z-24.821
N7925 Y271.965 Z-24.731
N7930 Y236.231 Z-24.976
N7935 Y209.638 Z-25.421
N7940 Y183.079 Z-26.235
N7945 Y167.323 Z-26.924
N7950 Y152.789 Z-27.787
N7955 Y141.52 Z-28.676
N7960 Y132.619 Z-29.548
N7965 Y124.3 Z-30.54
N7970 Y117.542 Z-31.538
N7975 Y-9.929
N7980 G2 Y-10.348 Z-31.441 J0. K0.953
N7985 G3 Y-10.768 Z-31.343 J-0.419 K-0.855
N7990 G17 G2 X93.641 Y-13.625 I-2.857 J0.
N7995 G1 X91.358
N8000 G2 X88.501 Y-10.768 I0. J2.857
N8005 G1 Y-10.718
N8010 G19 G2 Y-10.299 Z-31.441 J0. K-0.952
N8015 G3 Y-9.88 Z-31.538 J0.419 K0.855
N8020 G1 Y63.623
N8025 Y68.991 Z-30.239
N8030 Y75.461 Z-29.008
N8035 Y83.42 Z-27.816
N8040 Y92.682 Z-26.73
N8045 Y103.061 Z-25.779
N8050 Y115.63 Z-24.83
N8055 Y128.61 Z-24.104
N8060 Y143.78 Z-23.416
N8065 Y174.521 Z-22.516
N8070 Y208.593 Z-21.98
N8075 Y248.482 Z-21.671
N8080 Y304.16 Z-21.677
N8085 Y355.684 Z-21.979
N8090 Y415.517 Z-22.595
N8095 Y441.279 Z-23.146
N8100 Y454.576 Z-23.635
N8105 Y465.76 Z-24.236
N8110 Y475.043 Z-24.985
N8115 Y481.511 Z-25.742
N8120 Y487.93 Z-26.792
N8125 Y492.68 Z-27.876
N8130 Y496.54 Z-29.082
N8135 Y499.473 Z-30.334
N8140 Y501.522 Z-31.514
N8145 Y609.877 Z-31.538
N8150 G3 Y610.297 Z-31.441 J0. K0.953
N8155 G2 Y610.716 Z-31.343 J0.419 K-0.855
N8160 G17 G3 X85.643 Y613.573 I-2.858 J0.
N8165 G1 X83.36
N8170 G3 X80.503 Y610.716 I0. J-2.858
N8175 G1 Y610.69
N8180 G19 G3 Y610.271 Z-31.441 J0. K-0.952
N8185 G2 Y609.851 Z-31.538 J-0.419 K0.855
N8190 G1 Y524.976
N8195 Y524.035 Z-30.292
N8200 Y522.613 Z-28.979
N8205 Y520.801 Z-27.754
N8210 Y518.497 Z-26.585
N8215 Y515.855 Z-25.566
N8220 Y512.359 Z-24.551
N8225 Y508.389 Z-23.69
N8230 Y503.974 Z-22.983
N8235 Y498.62 Z-22.332
N8240 Y490.606 Z-21.686
N8245 Y477.352 Z-21.064
N8250 Y459.901 Z-20.655
N8255 Y432.477 Z-20.367
N8260 Y301.175 Z-19.766
N8265 Y233.032 Z-19.761
N8270 Y188.987 Z-20.012
N8275 Y149.929 Z-20.546
N8280 Y120.843 Z-21.29
N8285 Y101.815 Z-22.105
N8290 Y88.097 Z-22.818
N8295 Y72.573 Z-23.862
N8300 Y59.462 Z-25.054
N8305 Y50.022 Z-26.197
N8310 Y42.791 Z-27.319
N8315 Y36.702 Z-28.518
N8320 Y31.2 Z-29.929
N8325 Y27.195 Z-31.273
N8330 Y26.516 Z-31.538
N8335 Y-9.854
N8340 G2 Y-10.273 Z-31.441 J0. K0.953
N8345 G3 Y-10.692 Z-31.343 J-0.419 K-0.855
N8350 G17 G2 X77.645 Y-13.55 I-2.857 J0.
N8355 G1 X75.362
N8360 G2 X72.505 Y-10.692 I0. J2.858
N8365 G1 Y-10.687
N8370 G19 G2 Y-10.268 Z-31.441 J0. K-0.952
N8375 G3 Y-9.849 Z-31.538 J0.419 K0.855
N8380 G1 Y14.236
N8385 Y14.562 Z-31.048
N8390 Y15.971 Z-29.279
N8395 Y17.951 Z-27.416
N8400 Y19.529 Z-26.397
N8405 Y21.227 Z-25.607
N8410 Y23.022 Z-25.134
N8415 Y29.356 Z-24.333
N8420 Y38.089 Z-23.455
N8425 Y49.189 Z-22.561
N8430 Y60.931 Z-21.8
N8435 Y73.087 Z-21.143
N8440 Y93.514 Z-20.261
N8445 Y121.744 Z-19.34
N8450 Y150.83 Z-18.861
N8455 Y196.329 Z-18.517
N8460 Y263.018 Z-18.467
N8465 Y362.741 Z-18.752
N8470 Y454.995 Z-18.787
N8475 Y485.248 Z-18.908
N8480 Y499.376 Z-19.172
N8485 Y510.15 Z-19.628
N8490 Y516.643 Z-20.135
N8495 Y521.491 Z-20.717
N8500 Y526.292 Z-21.566
N8505 Y530.208 Z-22.578
N8510 Y533.237 Z-23.679
N8515 Y535.513 Z-24.791
N8520 Y537.534 Z-26.116
N8525 Y538.988 Z-27.403
N8530 Y540.032 Z-28.675
N8535 Y540.812 Z-30.035
N8540 Y541.31 Z-31.506
N8545 Y609.851 Z-31.538
N8550 G3 Y610.271 Z-31.441 J0. K0.953
N8555 G2 Y610.69 Z-31.343 J0.419 K-0.855
N8560 G17 G3 X69.647 Y613.548 I-2.857 J0.
N8565 G1 X67.365
N8570 G3 X64.507 Y610.69 I0. J-2.857
N8575 G19 G3 Y610.271 Z-31.441 J0. K-0.952
N8580 G2 Y609.851 Z-31.538 J-0.419 K0.855
N8585 G1 Y553.553
N8590 Y553.381 Z-29.814
N8595 Y553.001 Z-28.47
N8600 Y552.243 Z-26.895
N8605 Y551.168 Z-25.427
N8610 Y550.099 Z-24.352
N8615 Y548.241 Z-22.947
N8620 Y546.058 Z-21.742
N8625 Y543.275 Z-20.614
N8630 Y539.674 Z-19.6
N8635 Y537.691 Z-19.192
N8640 Y534.482 Z-18.667
N8645 Y530.439 Z-18.212
N8650 Y524.522 Z-17.803
N8655 Y515.614 Z-17.512
N8660 Y499.825 Z-17.39
N8665 Y410.905 Z-17.875
N8670 Y343.838 Z-17.844
N8675 Y215.861 Z-17.509
N8680 Y162.675 Z-17.63
N8685 Y125.279 Z-17.982
N8690 Y93.7 Z-18.82
N8695 Y75.542 Z-19.449
N8700 Y58.145 Z-20.187
N8705 Y43.119 Z-20.976
N8710 Y30.963 Z-21.702
N8715 Y23.333 Z-22.273
N8720 Y21.882 Z-22.554
N8725 Y20.464 Z-22.973
N8730 Y18.019 Z-23.908
N8735 Y15.412 Z-25.226
N8740 Y13.111 Z-26.842
N8745 Y11.128 Z-28.754
N8750 Y9.637 Z-30.728
N8755 Y9.138 Z-31.538
N8760 Y-9.844
N8765 G2 Y-10.263 Z-31.441 J0. K0.953
N8770 G3 Y-10.682 Z-31.343 J-0.419 K-0.855
N8775 G1 Y-10.708
N8780 G17 G2 X61.65 Y-13.566 I-2.857 J0.
N8785 G1 X59.367
N8790 G2 X56.509 Y-10.708 I0. J2.858
N8795 G19 G2 Y-10.289 Z-31.441 J0. K-0.952
N8800 G3 Y-9.87 Z-31.538 J0.419 K0.855
N8805 G1 Y5.72
N8810 Y7.181 Z-29.315
N8815 Y8.859 Z-27.349
N8820 Y10.834 Z-25.585
N8825 Y12.959 Z-24.148
N8830 Y15.344 Z-22.947
N8835 Y18.106 Z-21.962
N8840 Y20.961 Z-21.267
N8845 Y23.859 Z-20.781
N8850 Y29.9 Z-20.395
N8855 Y49.899 Z-19.354
N8860 Y67.189 Z-18.617
N8865 Y86.225 Z-17.981
N8870 Y119.466 Z-17.171
N8875 Y143.566 Z-16.923
N8880 Y197.582 Z-16.797
N8885 Y339.687 Z-17.217
N8890 Y405.275 Z-17.241
N8895 Y456.798 Z-16.913
N8900 Y508.322 Z-16.196
N8905 Y526.604 Z-16.05
N8910 Y535.745 Z-16.207
N8915 Y539.848 Z-16.409
N8920 Y543.901 Z-16.753
N8925 Y547.323 Z-17.219
N8930 Y550.693 Z-17.917
N8935 Y553.392 Z-18.737
N8940 Y555.625 Z-19.654
N8945 Y557.842 Z-20.9
N8950 Y559.676 Z-22.338
N8955 Y561.055 Z-23.854
N8960 Y562.081 Z-25.461
N8965 Y562.73 Z-27.061
N8970 Y563.119 Z-28.999
N8975 Y563.165 Z-31.538
N8980 Y609.877
N8985 G3 Y610.297 Z-31.441 J0. K0.953
N8990 G2 Y610.716 Z-31.343 J0.419 K-0.855
N8995 G1 Y610.768
N9000 G17 G3 X53.652 Y613.625 I-2.857 J0.
N9005 G1 X51.369
N9010 G3 X48.512 Y610.768 I0. J-2.857
N9015 G19 G3 Y610.348 Z-31.441 J0. K-0.952
N9020 G2 Y609.929 Z-31.538 J-0.419 K0.855
N9025 G1 Y570.95
N9030 Y570.884 Z-27.301
N9035 Y570.65 Z-25.962
N9040 Y570.016 Z-24.108
N9045 Y569.02 Z-22.341
N9050 Y567.723 Z-20.787
N9055 Y566.227 Z-19.474
N9060 Y564.244 Z-18.198
N9065 Y562.078 Z-17.191
N9070 Y559.012 Z-16.215
N9075 Y557.43 Z-15.862
N9080 Y555.032 Z-15.461
N9085 Y550.583 Z-15.016
N9090 Y544.378 Z-14.792
N9095 Y533.367 Z-14.855
N9100 Y485.375 Z-15.953
N9105 Y443.824 Z-16.519
N9110 Y394.794 Z-16.786
N9115 Y325.175 Z-16.712
N9120 Y187.225 Z-16.276
N9125 Y134.039 Z-16.382
N9130 Y113.264 Z-16.621
N9135 Y80.854 Z-17.318
N9140 Y56.873 Z-18.1
N9145 Y39.686 Z-18.877
N9150 Y27.433 Z-19.548
N9155 Y23.046 Z-19.879
N9160 Y18.445 Z-20.693
N9165 Y17.286 Z-20.992
N9170 Y15.101 Z-21.721
N9175 Y12.662 Z-22.844
N9180 Y10.316 Z-24.329
N9185 Y8.241 Z-26.097
N9190 Y6.42 Z-28.167
N9195 Y4.922 Z-30.46
N9200 Y4.354 Z-31.538
N9205 Y-9.925
N9210 G2 Y-10.344 Z-31.441 J0. K0.953
N9215 G3 Y-10.763 Z-31.343 J-0.419 K-0.855
N9220 G1 Y-10.802
N9225 G17 G2 X45.654 Y-13.659 I-2.858 J0.
N9230 G1 X43.371
N9235 G2 X40.514 Y-10.802 I0. J2.858
N9240 G19 G2 Y-10.382 Z-31.441 J0. K-0.952
N9245 G3 Y-9.963 Z-31.538 J0.419 K0.855
N9250 G1 Y3.938
N9255 Y4.72 Z-29.862
N9260 Y6.119 Z-27.572
N9265 Y7.818 Z-25.517
N9270 Y9.811 Z-23.713
N9275 Y11.913 Z-22.287
N9280 Y14.293 Z-21.1
N9285 Y16.406 Z-20.338
N9290 Y18.909 Z-19.716
N9295 Y23.443 Z-19.08
N9300 Y32.455 Z-18.503
N9305 Y49.232 Z-17.714
N9310 Y65.269 Z-17.15
N9315 Y93.524 Z-16.473
N9320 Y127.595 Z-16.002
N9325 Y179.95 Z-15.902
N9330 Y315.407 Z-16.339
N9335 Y388.779 Z-16.433
N9340 Y436.147 Z-16.197
N9345 Y474.374 Z-15.718
N9350 Y506.784 Z-15.007
N9355 Y544.898 Z-13.736
N9360 Y554.039 Z-13.574
N9365 Y559.412 Z-13.744
N9370 Y562.244 Z-14.02
N9375 Y565.162 Z-14.521
N9380 Y568.131 Z-15.375
N9385 Y570.663 Z-16.521
N9390 Y572.312 Z-17.57
N9395 Y573.791 Z-18.825
N9400 Y575.221 Z-20.504
N9405 Y576.218 Z-22.216
N9410 Y576.909 Z-24.097
N9415 Y577.247 Z-25.967
N9420 Y577.304 Z-31.538
N9425 Y609.968
N9430 G3 Y610.387 Z-31.441 J0. K0.953
N9435 G2 Y610.807 Z-31.343 J0.419 K-0.855
N9440 G17 G3 X37.656 Y613.664 I-2.857 J0.
N9445 G1 X35.374
N9450 G3 X32.516 Y610.807 I0. J-2.857
N9455 G19 G3 Y610.387 Z-31.441 J0. K-0.952
N9460 G2 Y609.968 Z-31.538 J-0.419 K0.855
N9465 G1 Y582.503
N9470 Y582.466 Z-24.827
N9475 Y582.116 Z-22.709
N9480 Y581.442 Z-20.797
N9485 Y580.404 Z-18.968
N9490 Y579.017 Z-17.299
N9495 Y577.864 Z-16.272
N9500 Y576.246 Z-15.169
N9505 Y574.106 Z-14.122
N9510 Y572.217 Z-13.48
N9515 Y570.654 Z-13.102
N9520 Y568.352 Z-12.731
N9525 Y564.989 Z-12.483
N9530 Y560.003 Z-12.479
N9535 Y551.912 Z-12.808
N9540 Y522.672 Z-14.116
N9545 Y492.755 Z-15.013
N9550 Y457.021 Z-15.666
N9555 Y410.484 Z-16.079
N9560 Y348.643 Z-16.168
N9565 Y173.297 Z-15.641
N9570 Y123.435 Z-15.749
N9575 Y86.87 Z-16.227
N9580 Y60.277 Z-16.856
N9585 Y46.296 Z-17.35
N9590 Y32.302 Z-18.002
N9595 Y23.467 Z-18.562
N9600 Y19.465 Z-19.015
N9605 Y16.947 Z-19.543
N9610 Y14.835 Z-20.214
N9615 Y12.302 Z-21.373
N9620 Y10.024 Z-22.841
N9625 Y8.019 Z-24.604
N9630 Y6.349 Z-26.567
N9635 Y4.91 Z-28.863
N9640 Y3.801 Z-31.359
N9645 Y3.728 Z-31.538
N9650 Y-9.964
N9655 G2 Y-10.383 Z-31.441 J0. K0.953
N9660 G3 Y-10.803 Z-31.343 J-0.419 K-0.855
N9665 G17 G2 X29.659 Y-13.66 I-2.858 J0.
N9670 G1 X27.376
N9675 G2 X24.518 Y-10.803 I0. J2.858
N9680 G1 Y-10.76
N9685 G19 G2 Y-10.341 Z-31.441 J0. K-0.952
N9690 G3 Y-9.922 Z-31.538 J0.419 K0.855
N9695 G1 Y3.606
N9700 Y3.666 Z-31.388
N9705 Y4.607 Z-29.06
N9710 Y5.959 Z-26.695
N9715 Y6.877 Z-25.448
N9720 Y7.639 Z-24.563
N9725 Y9.47 Z-22.836
N9730 Y11.656 Z-21.305
N9735 Y14.066 Z-20.097
N9740 Y16.69 Z-19.205
N9745 Y19.752 Z-18.592
N9750 Y24.125 Z-18.178
N9755 Y32.974 Z-17.635
N9760 Y44.652 Z-17.094
N9765 Y59.389 Z-16.587
N9770 Y85.982 Z-15.995
N9775 Y122.547 Z-15.573
N9780 Y173.239 Z-15.469
N9785 Y323.654 Z-15.932
N9790 Y392.815 Z-15.941
N9795 Y442.676 Z-15.611
N9800 Y481.735 Z-15.006
N9805 Y512.482 Z-14.185
N9810 Y536.475 Z-13.208
N9815 Y566.661 Z-11.467
N9820 Y570.816 Z-11.399
N9825 Y573.269 Z-11.544
N9830 Y575.567 Z-11.891
N9835 Y577.993 Z-12.564
N9840 Y580.152 Z-13.525
N9845 Y582.115 Z-14.822
N9850 Y583.761 Z-16.392
N9855 Y584.673 Z-17.576
N9860 Y585.672 Z-19.373
N9865 Y586.355 Z-21.334
N9870 Y586.69 Z-23.275
N9875 Y586.748 Z-31.538
N9880 Y609.929
N9885 G3 Y610.348 Z-31.441 J0. K0.953
N9890 G2 Y610.768 Z-31.343 J0.419 K-0.855
N9895 G17 G3 X21.661 Y613.625 I-2.858 J0.
N9900 G1 X19.378
N9905 G3 X16.52 Y610.768 I0. J-2.857
N9910 G1 Y610.716
N9915 G19 G3 Y610.297 Z-31.441 J0. K-0.952
N9920 G2 Y609.877 Z-31.538 J-0.419 K0.855
N9925 G1 Y590.191
N9930 Y590.14 Z-22.029
N9935 Y589.789 Z-19.941
N9940 Y589.224 Z-18.245
N9945 Y588.324 Z-16.51
N9950 Y587.153 Z-14.949
N9955 Y585.617 Z-13.494
N9960 Y583.959 Z-12.377
N9965 Y581.881 Z-11.418
N9970 Y579.482 Z-10.76
N9975 Y576.924 Z-10.445
N9980 Y573.348 Z-10.462
N9985 Y565.973 Z-11.01
N9990 Y548.429 Z-12.292
N9995 Y529.415 Z-13.312
N10000 Y503.653 Z-14.268
N10005 Y475.399 Z-14.958
N10010 Y434.678 Z-15.536
N10015 Y381.493 Z-15.831
N10020 Y303.708 Z-15.76
N10025 Y172.406 Z-15.362
N10030 Y121.714 Z-15.468
N10035 Y85.149 Z-15.856
N10040 Y58.556 Z-16.428
N10045 Y43.707 Z-16.935
N10050 Y31.408 Z-17.52
N10055 Y22.597 Z-18.098
N10060 Y18.957 Z-18.485
N10065 Y16.797 Z-18.939
N10070 Y14.123 Z-19.826
N10075 Y11.691 Z-21.033
N10080 Y9.515 Z-22.547
N10085 Y7.594 Z-24.363
N10090 Y6.83 Z-25.261
N10095 Y5.92 Z-26.514
N10100 Y4.848 Z-28.35
N10105 Y3.81 Z-30.76
N10110 Y3.547 Z-31.538
N10115 Y-9.875
N10120 G2 Y-10.294 Z-31.441 J0. K0.953
N10125 G3 Y-10.713 Z-31.343 J-0.419 K-0.855
N10130 G17 G2 X13.663 Y-13.57 I-2.858 J0.
N10135 G1 X11.38
N10140 G2 X8.523 Y-10.713 I0. J2.857
N10145 G1 Y-10.68
N10150 G19 G2 Y-10.261 Z-31.441 J0. K-0.952
N10155 G3 Y-9.842 Z-31.538 J0.419 K0.855
N10160 G1 Y3.517
N10165 Y4.18 Z-29.695
N10170 Y4.717 Z-28.502
N10175 Y6.048 Z-26.205
N10180 Y7.653 Z-24.176
N10185 Y9.534 Z-22.405
N10190 Y11.68 Z-20.913
N10195 Y13.491 Z-19.973
N10200 Y14.264 Z-19.645
N10205 Y16.898 Z-18.792
N10210 Y19.148 Z-18.337
N10215 Y20.603 Z-18.153
N10220 Y24.979 Z-17.817
N10225 Y33.849 Z-17.282
N10230 Y44.725 Z-16.79
N10235 Y58.799 Z-16.325
N10240 Y84.561 Z-15.785
N10245 Y120.295 Z-15.418
N10250 Y170.987 Z-15.303
N10255 Y283.176 Z-15.63
N10260 Y369.774 Z-15.769
N10265 Y425.453 Z-15.524
N10270 Y467.835 Z-14.991
N10275 Y501.076 Z-14.224
N10280 Y524.242 Z-13.401
N10285 Y544.132 Z-12.392
N10290 Y560.398 Z-11.237
N10295 Y574.656 Z-9.856
N10300 Y579.232 Z-9.486
N10305 Y581.899 Z-9.585
N10310 Y584.167 Z-10.033
N10315 Y586.289 Z-10.84
N10320 Y588.096 Z-11.919
N10325 Y589.588 Z-13.198
N10330 Y590.875 Z-14.756
N10335 Y591.867 Z-16.521
N10340 Y592.543 Z-18.441
N10345 Y592.894 Z-20.493
N10350 Y592.949 Z-31.538
N10355 Y609.851
N10360 G3 Y610.271 Z-31.441 J0. K0.953
N10365 G2 Y610.69 Z-31.343 J0.419 K-0.855
N10370 G17 G3 X5.665 Y613.547 I-2.858 J0.
N10375 G1 X3.382
N10380 G3 X0.525 Y610.69 I0. J-2.858
N10385 G19 G3 Y610.271 Z-31.441 J0. K-0.952
N10390 G2 Y609.851 Z-31.538 J-0.419 K0.855
N10395 G1 Y594.687
N10400 Y594.633 Z-18.981
N10405 Y594.257 Z-16.964
N10410 Y593.53 Z-15.045
N10415 Y592.604 Z-13.468
N10420 Y591.297 Z-11.911
N10425 Y590. Z-10.796
N10430 Y588.689 Z-9.96
N10435 Y587.26 Z-9.301
N10440 Y585.737 Z-8.839
N10445 Y584.15 Z-8.59
N10450 Y582.527 Z-8.565
N10455 Y580.054 Z-8.897
N10460 Y572.153 Z-9.972
N10465 Y560.813 Z-11.118
N10470 Y546.19 Z-12.202
N10475 Y526.346 Z-13.257
N10480 Y500.702 Z-14.19
N10485 Y467.461 Z-14.958
N10490 Y425.079 Z-15.493
N10495 Y369.4 Z-15.742
N10500 Y283.446 Z-15.61
N10505 Y170.427 Z-15.284
N10510 Y119.734 Z-15.402
N10515 Y84. Z-15.767
N10520 Y58.239 Z-16.31
N10525 Y44.174 Z-16.779
N10530 Y33.329 Z-17.276
N10535 Y24.474 Z-17.82
N10540 Y20.098 Z-18.172
N10545 Y17.745 Z-18.557
N10550 Y15.082 Z-19.299
N10555 Y13.025 Z-20.153
N10560 Y11.236 Z-21.146
N10565 Y9.113 Z-22.719
N10570 Y7.623 Z-24.172
N10575 Y6.017 Z-26.216
N10580 Y4.793 Z-28.315
N10585 Y3.724 Z-30.877
N10590 Y3.499 Z-31.538
N10595 Y-9.852
N10600 G2 Y-10.271 Z-31.441 J0. K0.953
N10605 G3 Y-10.691 Z-31.343 J-0.419 K-0.855
N10610 G17 G2 X-2.333 Y-13.548 I-2.857 J0.
N10615 G1 X-4.615
N10620 G2 X-7.473 Y-10.691 I0. J2.858
N10625 G1 Y-10.683
N10630 G19 G2 Y-10.263 Z-31.441 J0. K-0.952
N10635 G3 Y-9.844 Z-31.538 J0.419 K0.855
N10640 G1 Y3.507
N10645 Y3.727 Z-30.892
N10650 Y4.794 Z-28.337
N10655 Y6.019 Z-26.239
N10660 Y7.627 Z-24.195
N10665 Y9.118 Z-22.744
N10670 Y11.241 Z-21.172
N10675 Y13.03 Z-20.18
N10680 Y15.088 Z-19.326
N10685 Y17.751 Z-18.584
N10690 Y20.104 Z-18.199
N10695 Y24.48 Z-17.844
N10700 Y33.335 Z-17.302
N10705 Y44.178 Z-16.804
N10710 Y58.237 Z-16.333
N10715 Y83.999 Z-15.787
N10720 Y119.733 Z-15.416
N10725 Y171.256 Z-15.299
N10730 Y289.261 Z-15.646
N10735 Y372.515 Z-15.759
N10740 Y427.363 Z-15.5
N10745 Y468.914 Z-14.962
N10750 Y502.155 Z-14.182
N10755 Y527.857 Z-13.23
N10760 Y547.682 Z-12.156
N10765 Y562.302 Z-11.055
N10770 Y576.388 Z-9.627
N10775 Y580.105 Z-9.357
N10780 Y582.681 Z-9.504
N10785 Y584.922 Z-10.005
N10790 Y586.888 Z-10.808
N10795 Y588.741 Z-11.978
N10800 Y590.266 Z-13.386
N10805 Y591.448 Z-14.944
N10810 Y592.411 Z-16.843
N10815 Y592.915 Z-18.444
N10820 Y593.212 Z-20.278
N10825 Y593.266 Z-31.538
N10830 Y609.851
N10835 G3 Y610.271 Z-31.441 J0. K0.953
N10840 G2 Y610.69 Z-31.343 J0.419 K-0.855
N10845 G1 Y610.716
N10850 G17 G3 X-10.33 Y613.573 I-2.858 J0.
N10855 G1 X-12.613
N10860 G3 X-15.471 Y610.716 I0. J-2.857
N10865 G19 G3 Y610.297 Z-31.441 J0. K-0.952
N10870 G2 Y609.877 Z-31.538 J-0.419 K0.855
N10875 G1 Y590.59
N10880 Y590.537 Z-21.819
N10885 Y590.18 Z-19.72
N10890 Y589.486 Z-17.749
N10895 Y588.515 Z-16.006
N10900 Y587.606 Z-14.827
N10905 Y586.106 Z-13.385
N10910 Y584.378 Z-12.212
N10915 Y582.549 Z-11.352
N10920 Y581.808 Z-11.092
N10925 Y579.86 Z-10.6
N10930 Y577.15 Z-10.303
N10935 Y573.701 Z-10.357
N10940 Y564.784 Z-11.064
N10945 Y550.164 Z-12.152
N10950 Y530.361 Z-13.244
N10955 Y505.507 Z-14.191
N10960 Y473.097 Z-14.984
N10965 Y436.532 Z-15.501
N10970 Y385.009 Z-15.809
N10975 Y310.355 Z-15.768
N10980 Y171.574 Z-15.351
N10985 Y120.882 Z-15.463
N10990 Y85.148 Z-15.842
N10995 Y58.555 Z-16.412
N11000 Y43.699 Z-16.917
N11005 Y32.149 Z-17.46
N11010 Y24.052 Z-17.967
N11015 Y19.769 Z-18.343
N11020 Y18.229 Z-18.594
N11025 Y16.042 Z-19.128
N11030 Y13.484 Z-20.079
N11035 Y12.641 Z-20.486
N11040 Y10.876 Z-21.521
N11045 Y8.823 Z-23.117
N11050 Y7.331 Z-24.637
N11055 Y6.827 Z-25.243
N11060 Y5.918 Z-26.497
N11065 Y5.11 Z-27.834
N11070 Y4.108 Z-29.955
N11075 Y3.525 Z-31.538
N11080 Y-9.873
N11085 G2 Y-10.292 Z-31.441 J0. K0.953
N11090 G3 Y-10.711 Z-31.343 J-0.419 K-0.855
N11095 G1 Y-10.771
N11100 G17 G2 X-18.328 Y-13.628 I-2.858 J0.
N11105 G1 X-20.611
N11110 G2 X-23.468 Y-10.771 I0. J2.858
N11115 G19 G2 Y-10.352 Z-31.441 J0. K-0.952
N11120 G3 Y-9.932 Z-31.538 J0.419 K0.855
N11125 G1 Y3.594
N11130 Y4.122 Z-30.113
N11135 Y5.135 Z-28.
N11140 Y6.408 Z-26.017
N11145 Y8.025 Z-24.114
N11150 Y10.006 Z-22.372
N11155 Y12.23 Z-20.936
N11160 Y14.722 Z-19.795
N11165 Y16.852 Z-19.123
N11170 Y19.736 Z-18.557
N11175 Y24.109 Z-18.147
N11180 Y32.211 Z-17.642
N11185 Y45.347 Z-17.035
N11190 Y59.389 Z-16.557
N11195 Y85.151 Z-15.984
N11200 Y121.716 Z-15.561
N11205 Y170.746 Z-15.45
N11210 Y333.627 Z-15.936
N11215 Y399.911 Z-15.895
N11220 Y448.11 Z-15.524
N11225 Y485.506 Z-14.897
N11230 Y515.423 Z-14.053
N11235 Y539.474 Z-13.021
N11240 Y565.686 Z-11.432
N11245 Y570.518 Z-11.254
N11250 Y573.801 Z-11.393
N11255 Y576.544 Z-11.827
N11260 Y578.524 Z-12.402
N11265 Y580.505 Z-13.271
N11270 Y582.284 Z-14.392
N11275 Y583.847 Z-15.767
N11280 Y585.172 Z-17.404
N11285 Y586.147 Z-19.152
N11290 Y586.855 Z-21.181
N11295 Y587.19 Z-23.167
N11300 Y587.242 Z-31.538
N11305 Y609.929
N11310 G3 Y610.348 Z-31.441 J0. K0.953
N11315 G2 Y610.768 Z-31.343 J0.419 K-0.855
N11320 G1 Y610.807
N11325 G17 G3 X-26.326 Y613.664 I-2.858 J0.
N11330 G1 X-28.609
N11335 G3 X-31.466 Y610.807 I0. J-2.857
N11340 G19 G3 Y610.387 Z-31.441 J0. K-0.952
N11345 G2 Y609.968 Z-31.538 J-0.419 K0.855
N11350 G1 Y583.111
N11355 Y583.064 Z-24.525
N11360 Y582.7 Z-22.435
N11365 Y582.025 Z-20.553
N11370 Y581.034 Z-18.805
N11375 Y580.116 Z-17.629
N11380 Y578.459 Z-16.064
N11385 Y576.497 Z-14.765
N11390 Y574.34 Z-13.78
N11395 Y571.833 Z-13.039
N11400 Y569.652 Z-12.646
N11405 Y568.039 Z-12.466
N11410 Y565.377 Z-12.322
N11415 Y559.768 Z-12.379
N11420 Y545.094 Z-13.083
N11425 Y519.052 Z-14.203
N11430 Y488.304 Z-15.078
N11435 Y450.077 Z-15.72
N11440 Y401.878 Z-16.086
N11445 Y336.178 Z-16.117
N11450 Y173.297 Z-15.613
N11455 Y123.436 Z-15.721
N11460 Y86.871 Z-16.187
N11465 Y60.278 Z-16.81
N11470 Y46.275 Z-17.299
N11475 Y32.397 Z-17.944
N11480 Y23.561 Z-18.501
N11485 Y20.649 Z-18.795
N11490 Y18.248 Z-19.174
N11495 Y15.404 Z-19.943
N11500 Y12.781 Z-21.05
N11505 Y10.482 Z-22.436
N11510 Y8.572 Z-23.992
N11515 Y6.831 Z-25.87
N11520 Y5.644 Z-27.532
N11525 Y4.341 Z-29.958
N11530 Y3.704 Z-31.538
N11535 Y-9.967
N11540 G2 Y-10.386 Z-31.441 J0. K0.953
N11545 G3 Y-10.806 Z-31.343 J-0.419 K-0.855
N11550 G1 Y-10.807
N11555 G17 G2 X-34.324 Y-13.665 I-2.857 J0.
N11560 G1 X-36.607
N11565 G2 X-39.464 Y-10.807 I0. J2.858
N11570 G19 G2 Y-10.388 Z-31.441 J0. K-0.952
N11575 G3 Y-9.969 Z-31.538 J0.419 K0.855
N11580 G1 Y3.899
N11585 Y4.261 Z-30.718
N11590 Y5.561 Z-28.298
N11595 Y7.182 Z-26.109
N11600 Y8.64 Z-24.599
N11605 Y9.792 Z-23.618
N11610 Y11.97 Z-22.147
N11615 Y14.302 Z-20.991
N11620 Y16.385 Z-20.244
N11625 Y18.887 Z-19.627
N11630 Y23.603 Z-18.982
N11635 Y33.932 Z-18.345
N11640 Y49.623 Z-17.626
N11645 Y64.018 Z-17.118
N11650 Y92.688 Z-16.433
N11655 Y126.76 Z-15.964
N11660 Y179.114 Z-15.862
N11665 Y310.416 Z-16.286
N11670 Y386.254 Z-16.397
N11675 Y438.608 Z-16.131
N11680 Y479.328 Z-15.582
N11685 Y508.83 Z-14.895
N11690 Y542.315 Z-13.734
N11695 Y552.262 Z-13.44
N11700 Y558.495 Z-13.482
N11705 Y561.364 Z-13.659
N11710 Y562.978 Z-13.824
N11715 Y566.176 Z-14.379
N11720 Y568.87 Z-15.162
N11725 Y571.405 Z-16.305
N11730 Y572.795 Z-17.175
N11735 Y574.536 Z-18.615
N11740 Y575.94 Z-20.266
N11745 Y576.987 Z-22.071
N11750 Y577.662 Z-23.94
N11755 Y577.987 Z-25.744
N11760 Y578.048 Z-31.538
N11765 Y609.968
N11770 G3 Y610.387 Z-31.441 J0. K0.953
N11775 G2 Y610.807 Z-31.343 J0.419 K-0.855
N11780 G17 G3 X-42.322 Y613.664 I-2.857 J0.
N11785 G1 X-44.604
N11790 G3 X-47.462 Y610.807 I0. J-2.857
N11795 G1 Y610.768
N11800 G19 G3 Y610.348 Z-31.441 J0. K-0.952
N11805 G2 Y609.929 Z-31.538 J-0.419 K0.855
N11810 G1 Y571.86
N11815 Y571.791 Z-27.091
N11820 Y571.41 Z-25.201
N11825 Y570.757 Z-23.536
N11830 Y569.675 Z-21.775
N11835 Y568.308 Z-20.236
N11840 Y566.486 Z-18.778
N11845 Y564.451 Z-17.613
N11850 Y562.225 Z-16.683
N11855 Y559.522 Z-15.898
N11860 Y556.738 Z-15.363
N11865 Y553.51 Z-14.976
N11870 Y550.243 Z-14.755
N11875 Y546.094 Z-14.631
N11880 Y535.706 Z-14.69
N11885 Y488.753 Z-15.822
N11890 Y452.188 Z-16.375
N11895 Y408.975 Z-16.689
N11900 Y345.951 Z-16.721
N11905 Y185.564 Z-16.219
N11910 Y133.209 Z-16.324
N11915 Y112.434 Z-16.563
N11920 Y79.193 Z-17.272
N11925 Y58.462 Z-17.937
N11930 Y44.301 Z-18.543
N11935 Y30.461 Z-19.252
N11940 Y23.216 Z-19.743
N11945 Y19.148 Z-20.409
N11950 Y17.359 Z-20.838
N11955 Y15.259 Z-21.521
N11960 Y13.216 Z-22.413
N11965 Y10.828 Z-23.814
N11970 Y8.703 Z-25.5
N11975 Y7.032 Z-27.237
N11980 Y6.309 Z-28.149
N11985 Y5.436 Z-29.421
N11990 Y4.264 Z-31.538
N11995 Y-9.928
N12000 G2 Y-10.347 Z-31.441 J0. K0.953
N12005 G3 Y-10.766 Z-31.343 J-0.419 K-0.855
N12010 G17 G2 X-50.319 Y-13.624 I-2.857 J0.
N12015 G1 X-52.602
N12020 G2 X-55.46 Y-10.766 I0. J2.858
N12025 G1 Y-10.714
N12030 G19 G2 Y-10.294 Z-31.441 J0. K-0.952
N12035 G3 Y-9.875 Z-31.538 J0.419 K0.855
N12040 G1 Y5.45
N12045 Y5.958 Z-30.666
N12050 Y7.59 Z-28.399
N12055 Y9.343 Z-26.552
N12060 Y11.175 Z-25.052
N12065 Y12.979 Z-23.889
N12070 Y14.296 Z-23.204
N12075 Y16.266 Z-22.373
N12080 Y18.46 Z-21.681
N12085 Y19.887 Z-21.338
N12090 Y22.767 Z-20.769
N12095 Y24.229 Z-20.609
N12100 Y30.099 Z-20.238
N12105 Y48.283 Z-19.292
N12110 Y65.521 Z-18.547
N12115 Y86.227 Z-17.858
N12120 Y120.298 Z-17.055
N12125 Y145.229 Z-16.826
N12130 Y196.753 Z-16.722
N12135 Y352.985 Z-17.181
N12140 Y415.494 Z-17.134
N12145 Y461.2 Z-16.784
N12150 Y511.062 Z-16.036
N12155 Y528.513 Z-15.877
N12160 Y537.655 Z-16.034
N12165 Y542.576 Z-16.298
N12170 Y546.218 Z-16.654
N12175 Y550.621 Z-17.382
N12180 Y553.747 Z-18.213
N12185 Y556.369 Z-19.22
N12190 Y558.464 Z-20.335
N12195 Y560.357 Z-21.705
N12200 Y561.948 Z-23.328
N12205 Y563.062 Z-24.983
N12210 Y563.846 Z-26.845
N12215 Y564.222 Z-28.67
N12220 Y564.282 Z-31.538
N12225 Y609.877
N12230 G3 Y610.297 Z-31.441 J0. K0.953
N12235 G2 Y610.716 Z-31.343 J0.419 K-0.855
N12240 G17 G3 X-58.317 Y613.573 I-2.858 J0.
N12245 G1 X-60.6
N12250 G3 X-63.457 Y610.716 I0. J-2.857
N12255 G1 Y610.69
N12260 G19 G3 Y610.271 Z-31.441 J0. K-0.952
N12265 G2 Y609.851 Z-31.538 J-0.419 K0.855
N12270 G1 Y554.937
N12275 Y554.783 Z-29.672
N12280 Y554.368 Z-28.18
N12285 Y553.744 Z-26.846
N12290 Y552.806 Z-25.467
N12295 Y551.223 Z-23.854
N12300 Y549.307 Z-22.472
N12305 Y546.915 Z-21.209
N12310 Y544.221 Z-20.184
N12315 Y540.304 Z-19.154
N12320 Y537.108 Z-18.578
N12325 Y531.454 Z-17.933
N12330 Y525.748 Z-17.568
N12335 Y515.878 Z-17.276
N12340 Y497.596 Z-17.225
N12345 Y417.818 Z-17.758
N12350 Y352.15 Z-17.773
N12355 Y215.032 Z-17.406
N12360 Y161.536 Z-17.516
N12365 Y124.971 Z-17.851
N12370 Y92.561 Z-18.699
N12375 Y71.503 Z-19.435
N12380 Y52.446 Z-20.28
N12385 Y30.727 Z-21.492
N12390 Y23.344 Z-22.035
N12395 Y21.098 Z-22.512
N12400 Y17.972 Z-23.612
N12405 Y15.619 Z-24.719
N12410 Y13.359 Z-26.165
N12415 Y11.413 Z-27.841
N12420 Y9.874 Z-29.596
N12425 Y8.734 Z-31.293
N12430 Y8.571 Z-31.538
N12435 Y-9.85
N12440 G2 Y-10.269 Z-31.441 J0. K0.953
N12445 G3 Y-10.688 Z-31.343 J-0.419 K-0.855
N12450 G17 G2 X-66.315 Y-13.546 I-2.858 J0.
N12455 G1 X-68.598
N12460 G2 X-71.455 Y-10.688 I0. J2.858
N12465 G1 Y-10.682
N12470 G19 G2 Y-10.262 Z-31.441 J0. K-0.952
N12475 G3 Y-9.843 Z-31.538 J0.419 K0.855
N12480 G1 Y13.474
N12485 Y14.762 Z-29.795
N12490 Y16.228 Z-28.253
N12495 Y18.27 Z-26.59
N12500 Y20.078 Z-25.55
N12505 Y21.468 Z-24.996
N12510 Y22.986 Z-24.629
N12515 Y25.973 Z-24.254
N12520 Y34.141 Z-23.414
N12525 Y44.513 Z-22.573
N12530 Y59.167 Z-21.611
N12535 Y74.264 Z-20.839
N12540 Y90.205 Z-20.168
N12545 Y119.248 Z-19.214
N12550 Y141.166 Z-18.805
N12555 Y184.899 Z-18.417
N12560 Y246.395 Z-18.31
N12565 Y369.386 Z-18.631
N12570 Y461.052 Z-18.604
N12575 Y489.138 Z-18.709
N12580 Y502.434 Z-18.962
N12585 Y512.055 Z-19.365
N12590 Y518.755 Z-19.879
N12595 Y523.839 Z-20.498
N12600 Y528.434 Z-21.341
N12605 Y532.151 Z-22.322
N12610 Y535.17 Z-23.442
N12615 Y537.316 Z-24.509
N12620 Y539.197 Z-25.746
N12625 Y540.718 Z-27.093
N12630 Y541.849 Z-28.495
N12635 Y542.629 Z-29.921
N12640 Y543.121 Z-31.538
N12645 Y609.851
N12650 G3 Y610.271 Z-31.441 J0. K0.953
N12655 G2 Y610.69 Z-31.343 J0.419 K-0.855
N12660 G17 G3 X-74.313 Y613.548 I-2.857 J0.
N12665 G1 X-76.595
N12670 G3 X-79.453 Y610.69 I0. J-2.857
N12675 G19 G3 Y610.271 Z-31.441 J0. K-0.952
N12680 G2 Y609.851 Z-31.538 J-0.419 K0.855
N12685 G1 Y527.422 Z-31.509
N12690 Y526.525 Z-30.202
N12695 Y525.176 Z-28.869
N12700 Y523.385 Z-27.583
N12705 Y521.084 Z-26.362
N12710 Y518.378 Z-25.285
N12715 Y515.285 Z-24.349
N12720 Y510.93 Z-23.374
N12725 Y506.515 Z-22.666
N12730 Y501.835 Z-22.083
N12735 Y493.888 Z-21.423
N12740 Y482.873 Z-20.875
N12745 Y466.668 Z-20.458
N12750 Y442.568 Z-20.182
N12755 Y299.632 Z-19.572
N12760 Y230.657 Z-19.56
N12765 Y180.796 Z-19.855
N12770 Y140.907 Z-20.458
N12775 Y119.304 Z-21.052
N12780 Y102.368 Z-21.727
N12785 Y82.778 Z-22.732
N12790 Y67.995 Z-23.755
N12795 Y58.525 Z-24.604
N12800 Y49.799 Z-25.563
N12805 Y41.829 Z-26.673
N12810 Y35.9 Z-27.723
N12815 Y30.894 Z-28.831
N12820 Y26.306 Z-30.119
N12825 Y22.51 Z-31.495
N12830 Y21.779 Z-31.538
N12835 Y-9.85
N12840 G2 Y-10.269 Z-31.441 J0. K0.953
N12845 G3 Y-10.688 Z-31.343 J-0.419 K-0.855
N12850 G1 Y-10.71
N12855 G17 G2 X-82.31 Y-13.567 I-2.857 J0.
N12860 G1 X-84.593
N12865 G2 X-87.451 Y-10.71 I0. J2.858
N12870 G19 G2 Y-10.291 Z-31.441 J0. K-0.952
N12875 G3 Y-9.871 Z-31.538 J0.419 K0.855
N12880 G1 Y58.013
N12885 Y61.16 Z-30.715
N12890 Y66.163 Z-29.602
N12895 Y72.646 Z-28.44
N12900 Y80.431 Z-27.328
N12905 Y89.499 Z-26.297
N12910 Y101.653 Z-25.233
N12915 Y115.178 Z-24.314
N12920 Y130.825 Z-23.476
N12925 Y147.203 Z-22.871
N12930 Y169.641 Z-22.248
N12935 Y207.868 Z-21.637
N12940 Y251.081 Z-21.371
N12945 Y307.591 Z-21.391
N12950 Y387.369 Z-21.91
N12955 Y432.244 Z-22.485
N12960 Y455.513 Z-23.14
N12965 Y469.434 Z-23.858
N12970 Y479.042 Z-24.655
N12975 Y484.498 Z-25.302
N12980 Y489.923 Z-26.148
N12985 Y494.886 Z-27.209
N12990 Y498.392 Z-28.22
N12995 Y501.044 Z-29.216
N13000 Y503.378 Z-30.344
N13005 Y505.185 Z-31.515
N13010 Y609.877 Z-31.538
N13015 G3 Y610.297 Z-31.441 J0. K0.953
N13020 G2 Y610.716 Z-31.343 J0.419 K-0.855
N13025 G1 Y610.768
N13030 G17 G3 X-90.308 Y613.625 I-2.857 J0.
N13035 G1 X-92.591
N13040 G3 X-95.449 Y610.768 I0. J-2.857
N13045 G19 G3 Y610.349 Z-31.441 J0. K-0.952
N13050 G2 Y609.929 Z-31.538 J-0.419 K0.855
N13055 G1 Y469.33 Z-31.511
N13060 Y464.693 Z-30.366
N13065 Y459.256 Z-29.365
N13070 Y452.971 Z-28.505
N13075 Y444.956 Z-27.684
N13080 Y436.104 Z-27.016
N13085 Y425.744 Z-26.427
N13090 Y407.571 Z-25.739
N13095 Y386.796 Z-25.227
N13100 Y341.09 Z-24.557
N13105 Y304.524 Z-24.251
N13110 Y265.466 Z-24.224
N13115 Y230.563 Z-24.518
N13120 Y198.361 Z-25.1
N13125 Y181.55 Z-25.634
N13130 Y162.804 Z-26.412
N13135 Y149.119 Z-27.214
N13140 Y138.732 Z-27.971
N13145 Y128.204 Z-28.942
N13150 Y117.907 Z-30.16
N13155 Y109.75 Z-31.402
N13160 Y108.932 Z-31.538
N13165 Y-9.926
N13170 G2 Y-10.345 Z-31.441 J0. K0.953
N13175 G3 Y-10.764 Z-31.343 J-0.419 K-0.855
N13180 G1 Y-10.808
N13185 G17 G2 X-98.306 Y-13.666 I-2.858 J0.
N13190 G1 X-100.589
N13195 G2 X-103.446 Y-10.808 I0. J2.858
N13200 G19 G2 Y-10.389 Z-31.441 J0. K-0.952
N13205 G3 Y-9.97 Z-31.538 J0.419 K0.855
N13210 G1 Y201.008
N13215 Y210.41 Z-30.985
N13220 Y224.933 Z-30.361
N13225 Y239.057 Z-29.905
N13230 Y260.456 Z-29.51
N13235 Y285.595 Z-29.369
N13240 Y314.68 Z-29.553
N13245 Y342.104 Z-30.049
N13250 Y365.373 Z-30.758
N13255 Y382.268 Z-31.506
N13260 Y609.968 Z-31.538
N13265 G3 Y610.388 Z-31.441 J0. K0.953
N13270 G2 Y610.807 Z-31.343 J0.419 K-0.855
N13275 G17 G3 X-106.304 Y613.664 I-2.857 J0.
N13280 G1 X-108.587
N13285 G3 X-111.444 Y610.807 I0. J-2.857
N13290 G19 G3 Y610.387 Z-31.441 J0. K-0.952
N13295 G2 Y609.968 Z-31.538 J-0.419 K0.855
N13300 G1 Y-9.962
N13305 G2 Y-10.381 Z-31.441 J0. K0.953
N13310 G3 Y-10.801 Z-31.343 J-0.419 K-0.855
N13315 G17 G2 X-114.302 Y-13.658 I-2.857 J0.
N13320 G1 X-116.584
N13325 G2 X-119.442 Y-10.801 I0. J2.858
N13330 G1 Y-10.762
N13335 G19 G2 Y-10.343 Z-31.441 J0. K-0.952
N13340 G3 Y-9.923 Z-31.538 J0.419 K0.855
N13345 G1 Y609.929
N13350 G3 Y610.348 Z-31.441 J0. K0.953
N13355 G2 Y610.768 Z-31.343 J0.419 K-0.855
N13360 G17 G3 X-122.299 Y613.625 I-2.857 J0.
N13365 G1 X-124.582
N13370 G3 X-127.44 Y610.768 I0. J-2.857
N13375 G1 Y610.375
N13380 G19 G3 Y609.956 Z-31.441 J0. K-0.952
N13385 G2 Y609.536 Z-31.538 J-0.419 K0.855
N13390 G1 Y-9.537
N13395 G2 Y-11.442 Z-29.633 J0. K1.905 F1000.
N13400 G0 Z15.
N13405 G17
(PARALLEL1 4)
N13410 G0 X131.985 Y608.979
N13415 Z15.
N13420 Z-36.633
N13425 G19 G2 Y607.074 Z-38.538 J-1.905 K0. F1000.
N13430 G1 Y-7.079 F3000.
N13435 G2 Y-7.498 Z-38.441 J0. K0.952
N13440 G3 Y-7.917 Z-38.343 J-0.419 K-0.855
N13445 G1 Y-9.946
N13450 G17 G2 X128.986 I-1.5 J0.
N13455 G19 G2 Y-9.526 Z-38.441 J0. K-0.952
N13460 G3 Y-9.107 Z-38.538 J0.419 K0.855
N13465 G1 Y609.1
N13470 G3 Y609.519 Z-38.441 J0. K0.952
N13475 G2 Y609.938 Z-38.343 J0.419 K-0.855
N13480 G1 Y610.725
N13485 G17 G3 X125.986 I-1.5 J0.
N13490 G19 G3 Y610.306 Z-38.441 J0. K-0.952
N13495 G2 Y609.887 Z-38.538 J-0.419 K0.855
N13500 G1 Y-9.892
N13505 G2 Y-10.311 Z-38.441 J0. K0.952
N13510 G3 Y-10.73 Z-38.343 J-0.419 K-0.855
N13515 G1 Y-10.747
N13520 G17 G2 X122.986 I-1.5 J0.
N13525 G19 G2 Y-10.328 Z-38.441 J0. K-0.952
N13530 G3 Y-9.908 Z-38.538 J0.419 K0.855
N13535 G1 Y609.903
N13540 G3 Y610.322 Z-38.441 J0. K0.952
N13545 G2 Y610.741 Z-38.343 J0.419 K-0.855
N13550 G17 G3 X119.987 I-1.5 J0.
N13555 G1 Y610.693
N13560 G19 G3 Y610.274 Z-38.441 J0. K-0.952
N13565 G2 Y609.855 Z-38.538 J-0.419 K0.855
N13570 G1 Y-9.845
N13575 G2 Y-10.264 Z-38.441 J0. K0.952
N13580 G3 Y-10.683 Z-38.343 J-0.419 K-0.855
N13585 G1 Y-10.791
N13590 G17 G2 X116.987 I-1.5 J0.
N13595 G19 G2 Y-10.372 Z-38.441 J0. K-0.952
N13600 G3 Y-9.953 Z-38.538 J0.419 K0.855
N13605 G1 Y609.952
N13610 G3 Y610.371 Z-38.441 J0. K0.952
N13615 G2 Y610.79 Z-38.343 J0.419 K-0.855
N13620 G17 G3 X113.987 I-1.5 J0.
N13625 G1 Y610.693
N13630 G19 G3 Y610.274 Z-38.441 J0. K-0.952
N13635 G2 Y609.855 Z-38.538 J-0.419 K0.855
N13640 G1 Y-9.856
N13645 G2 Y-10.275 Z-38.441 J0. K0.952
N13650 G3 Y-10.694 Z-38.343 J-0.419 K-0.855
N13655 G17 G2 X110.988 I-1.5 J0.
N13660 G19 G2 Y-10.275 Z-38.441 J0. K-0.952
N13665 G3 Y-9.856 Z-38.538 J0.419 K0.855
N13670 G1 Y609.855
N13675 G3 Y610.274 Z-38.441 J0. K0.952
N13680 G2 Y610.693 Z-38.343 J0.419 K-0.855
N13685 G1 Y610.79
N13690 G17 G3 X107.988 I-1.5 J0.
N13695 G19 G3 Y610.371 Z-38.441 J0. K-0.952
N13700 G2 Y609.952 Z-38.538 J-0.419 K0.855
N13705 G1 Y-9.953
N13710 G2 Y-10.372 Z-38.441 J0. K0.952
N13715 G3 Y-10.791 Z-38.343 J-0.419 K-0.855
N13720 G17 G2 X104.988 I-1.5 J0.
N13725 G1 Y-10.689
N13730 G19 G2 Y-10.27 Z-38.441 J0. K-0.952
N13735 G3 Y-9.85 Z-38.538 J0.419 K0.855
N13740 G1 Y191.226
N13745 Y196.255 Z-37.692
N13750 Y202.334 Z-36.821
N13755 Y210.104 Z-36.001
N13760 Y219.627 Z-35.193
N13765 Y232.629 Z-34.425
N13770 Y246.611 Z-33.829
N13775 Y264.823 Z-33.405
N13780 Y285.747 Z-33.242
N13785 Y308.222 Z-33.394
N13790 Y329.147 Z-33.825
N13795 Y347.746 Z-34.482
N13800 Y362.332 Z-35.223
N13805 Y372.218 Z-35.94
N13810 Y381.287 Z-36.803
N13815 Y388.055 Z-37.74
N13820 Y392.392 Z-38.508
N13825 Y609.855 Z-38.538
N13830 G3 Y610.274 Z-38.441 J0. K0.952
N13835 G2 Y610.693 Z-38.343 J0.419 K-0.855
N13840 G1 Y610.742
N13845 G17 G3 X101.989 I-1.5 J0.
N13850 G19 G3 Y610.322 Z-38.441 J0. K-0.952
N13855 G2 Y609.903 Z-38.538 J-0.419 K0.855
N13860 G1 Y428.925 Z-38.516
N13865 Y425.981 Z-37.367
N13870 Y424.537 Z-36.949
N13875 Y420.264 Z-35.921
N13880 Y414.283 Z-34.887
N13885 Y408.262 Z-34.117
N13890 Y400.709 Z-33.343
N13895 Y390.28 Z-32.573
N13900 Y376.971 Z-31.859
N13905 Y361.506 Z-31.253
N13910 Y337.482 Z-30.64
N13915 Y308.033 Z-30.19
N13920 Y279.689 Z-30.08
N13925 Y253.34 Z-30.314
N13930 Y230.865 Z-30.804
N13935 Y217.029 Z-31.317
N13940 Y203.032 Z-31.997
N13945 Y191.226 Z-32.803
N13950 Y180.2 Z-33.765
N13955 Y171.238 Z-34.802
N13960 Y165.165 Z-35.717
N13965 Y159.122 Z-36.825
N13970 Y153.819 Z-38.139
N13975 Y152.537 Z-38.538
N13980 Y-9.905
N13985 G2 Y-10.324 Z-38.441 J0. K0.952
N13990 G3 Y-10.744 Z-38.343 J-0.419 K-0.855
N13995 G1 Y-10.745
N14000 G17 G2 X98.989 I-1.5 J0.
N14005 G19 G2 Y-10.326 Z-38.441 J0. K-0.952
N14010 G3 Y-9.907 Z-38.538 J0.419 K0.855
N14015 G1 Y124.243
N14020 Y125.805 Z-37.884
N14025 Y129.054 Z-36.815
N14030 Y131.69 Z-36.073
N14035 Y136.508 Z-34.996
N14040 Y142.711 Z-33.905
N14045 Y149.463 Z-32.926
N14050 Y159.446 Z-31.807
N14055 Y168.775 Z-31.01
N14060 Y180.501 Z-30.193
N14065 Y196.673 Z-29.361
N14070 Y218.297 Z-28.624
N14075 Y241.547 Z-28.129
N14080 Y271.771 Z-27.869
N14085 Y305.096 Z-27.923
N14090 Y336.095 Z-28.238
N14095 Y367.094 Z-28.808
N14100 Y392.669 Z-29.589
N14105 Y410.465 Z-30.486
N14110 Y420.323 Z-31.222
N14115 Y427.877 Z-31.975
N14120 Y434.651 Z-32.849
N14125 Y439.886 Z-33.753
N14130 Y445.037 Z-34.974
N14135 Y447.898 Z-35.929
N14140 Y449.955 Z-36.793
N14145 Y451.806 Z-37.889
N14150 Y452.518 Z-38.536
N14155 Y609.903 Z-38.538
N14160 G3 Y610.322 Z-38.441 J0. K0.952
N14165 G2 Y610.741 Z-38.343 J0.419 K-0.855
N14170 G17 G3 X95.989 I-1.5 J0.
N14175 G1 Y610.693
N14180 G19 G3 Y610.274 Z-38.441 J0. K-0.952
N14185 G2 Y609.855 Z-38.538 J-0.419 K0.855
N14190 G1 Y470.01 Z-38.521
N14195 Y469.231 Z-37.376
N14200 Y468.291 Z-36.493
N14205 Y467.068 Z-35.674
N14210 Y464.38 Z-34.387
N14215 Y460.807 Z-33.199
N14220 Y456.395 Z-32.131
N14225 Y452.671 Z-31.433
N14230 Y447.417 Z-30.64
N14235 Y439.873 Z-29.788
N14240 Y430.224 Z-29.002
N14245 Y413.818 Z-28.11
N14250 Y389.019 Z-27.327
N14255 Y362.669 Z-26.8
N14260 Y313.845 Z-26.251
N14265 Y272.771 Z-26.153
N14270 Y237.897 Z-26.379
N14275 Y213.097 Z-26.784
N14280 Y185.198 Z-27.61
N14285 Y170.324 Z-28.26
N14290 Y156.076 Z-29.092
N14295 Y144.047 Z-30.033
N14300 Y135.071 Z-30.942
N14305 Y127.653 Z-31.853
N14310 Y121.09 Z-32.833
N14315 Y114.468 Z-34.082
N14320 Y110.398 Z-35.063
N14325 Y107.11 Z-35.994
N14330 Y103.263 Z-37.454
N14335 Y101.24 Z-38.538
N14340 Y-9.854
N14345 G2 Y-10.273 Z-38.441 J0. K0.952
N14350 G3 Y-10.693 Z-38.343 J-0.419 K-0.855
N14355 G1 Y-10.793
N14360 G17 G2 X92.99 I-1.5 J0.
N14365 G19 G2 Y-10.373 Z-38.441 J0. K-0.952
N14370 G3 Y-9.954 Z-38.538 J0.419 K0.855
N14375 G1 Y81.818
N14380 Y82.68 Z-37.935
N14385 Y84.485 Z-36.872
N14390 Y87.645 Z-35.514
N14395 Y92.213 Z-34.081
N14400 Y97.53 Z-32.818
N14405 Y102.897 Z-31.817
N14410 Y109.797 Z-30.767
N14415 Y117.242 Z-29.836
N14420 Y128.257 Z-28.75
N14425 Y140.977 Z-27.789
N14430 Y154.858 Z-27.021
N14435 Y170.005 Z-26.339
N14440 Y197.129 Z-25.569
N14445 Y222.704 Z-25.108
N14450 Y262.228 Z-24.814
N14455 Y305.627 Z-24.842
N14460 Y348.251 Z-25.171
N14465 Y390.1 Z-25.705
N14470 Y421.099 Z-26.45
N14475 Y440.469 Z-27.321
N14480 Y449.587 Z-27.963
N14485 Y456.389 Z-28.609
N14490 Y461.663 Z-29.244
N14495 Y466.911 Z-30.062
N14500 Y471.215 Z-30.947
N14505 Y475.586 Z-32.16
N14510 Y478.394 Z-33.242
N14515 Y480.295 Z-34.22
N14520 Y481.706 Z-35.2
N14525 Y482.854 Z-36.303
N14530 Y483.532 Z-37.366
N14535 Y483.836 Z-38.538
N14540 Y609.952
N14545 G3 Y610.371 Z-38.441 J0. K0.952
N14550 G2 Y610.79 Z-38.343 J0.419 K-0.855
N14555 G17 G3 X89.99 I-1.5 J0.
N14560 G1 Y610.681
N14565 G19 G3 Y610.262 Z-38.441 J0. K-0.952
N14570 G2 Y609.843 Z-38.538 J-0.419 K0.855
N14575 G1 Y495.234
N14580 Y495.133 Z-37.144
N14585 Y494.771 Z-36.087
N14590 Y494.046 Z-34.964
N14595 Y493.14 Z-34.067
N14600 Y491.366 Z-32.823
N14605 Y489.034 Z-31.662
N14610 Y485.85 Z-30.503
N14615 Y481.463 Z-29.348
N14620 Y475.501 Z-28.235
N14625 Y469.483 Z-27.436
N14630 Y461.926 Z-26.703
N14635 Y450.476 Z-25.951
N14640 Y434.208 Z-25.294
N14645 Y417.158 Z-24.857
N14650 Y381.509 Z-24.31
N14655 Y310.21 Z-23.746
N14660 Y259.061 Z-23.707
N14665 Y215.662 Z-23.984
N14670 Y183.113 Z-24.543
N14675 Y160.638 Z-25.147
N14680 Y140.677 Z-25.955
N14685 Y129.935 Z-26.55
N14690 Y116.312 Z-27.478
N14695 Y105.105 Z-28.494
N14700 Y96.634 Z-29.47
N14705 Y89.878 Z-30.424
N14710 Y83.826 Z-31.472
N14715 Y77.826 Z-32.807
N14720 Y73.882 Z-33.931
N14725 Y69.755 Z-35.488
N14730 Y66.978 Z-36.981
N14735 Y65.197 Z-38.423
N14740 Y65.075 Z-38.538
N14745 Y-9.852
N14750 G2 Y-10.271 Z-38.441 J0. K0.952
N14755 G3 Y-10.69 Z-38.343 J-0.419 K-0.855
N14760 G17 G2 X86.99 I-1.5 J0.
N14765 G1 Y-10.687
N14770 G19 G2 Y-10.268 Z-38.441 J0. K-0.952
N14775 G3 Y-9.848 Z-38.538 J0.419 K0.855
N14780 G1 Y50.357
N14785 Y50.646 Z-38.168
N14790 Y51.638 Z-37.173
N14795 Y52.763 Z-36.302
N14800 Y54.87 Z-35.087
N14805 Y58.353 Z-33.625
N14810 Y62.597 Z-32.295
N14815 Y67.575 Z-31.088
N14820 Y73.61 Z-29.937
N14825 Y80.862 Z-28.844
N14830 Y90.516 Z-27.709
N14835 Y100.027 Z-26.855
N14840 Y111.428 Z-25.99
N14845 Y128.315 Z-25.043
N14850 Y144.236 Z-24.404
N14855 Y169.036 Z-23.688
N14860 Y207.398 Z-23.07
N14865 Y250.409 Z-22.802
N14870 Y306.983 Z-22.818
N14875 Y382.156 Z-23.298
N14880 Y427.105 Z-23.824
N14885 Y451.905 Z-24.443
N14890 Y468.138 Z-25.241
N14895 Y477.219 Z-25.985
N14900 Y483.249 Z-26.692
N14905 Y487.372 Z-27.337
N14910 Y492.012 Z-28.28
N14915 Y496.192 Z-29.454
N14920 Y499.32 Z-30.693
N14925 Y501.275 Z-31.756
N14930 Y502.982 Z-33.023
N14935 Y504.212 Z-34.463
N14940 Y504.844 Z-35.834
N14945 Y504.99 Z-36.65
N14950 Y505.026 Z-38.538
N14955 Y609.855
N14960 G3 Y610.274 Z-38.441 J0. K0.952
N14965 G2 Y610.693 Z-38.343 J0.419 K-0.855
N14970 G1 Y610.79
N14975 G17 G3 X83.991 I-1.5 J0.
N14980 G19 G3 Y610.371 Z-38.441 J0. K-0.952
N14985 G2 Y609.952 Z-38.538 J-0.419 K0.855
N14990 G1 Y513.575
N14995 Y513.515 Z-35.593
N15000 Y513.175 Z-34.347
N15005 Y513.079 Z-34.119
N15010 Y512.164 Z-32.691
N15015 Y510.891 Z-31.457
N15020 Y509.241 Z-30.325
N15025 Y507.05 Z-29.215
N15030 Y504.287 Z-28.165
N15035 Y500.835 Z-27.183
N15040 Y498.622 Z-26.682
N15045 Y494.587 Z-25.95
N15050 Y490.384 Z-25.358
N15055 Y482.453 Z-24.564
N15060 Y472.887 Z-23.952
N15065 Y455.839 Z-23.311
N15070 Y427.939 Z-22.828
N15075 Y370.591 Z-22.39
N15080 Y303.167 Z-22.044
N15085 Y241.168 Z-22.041
N15090 Y201.644 Z-22.279
N15095 Y162.12 Z-22.837
N15100 Y130.346 Z-23.701
N15105 Y115.469 Z-24.355
N15110 Y101.691 Z-25.1
N15115 Y85.847 Z-26.24
N15120 Y74.986 Z-27.298
N15125 Y66.861 Z-28.297
N15130 Y59.966 Z-29.371
N15135 Y54.455 Z-30.453
N15140 Y50.47 Z-31.415
N15145 Y46.704 Z-32.54
N15150 Y43.187 Z-33.906
N15155 Y40.886 Z-35.085
N15160 Y39.018 Z-36.394
N15165 Y37.866 Z-37.577
N15170 Y37.287 Z-38.538
N15175 Y-9.954
N15180 G2 Y-10.373 Z-38.441 J0. K0.952
N15185 G3 Y-10.793 Z-38.343 J-0.419 K-0.855
N15190 G17 G2 X80.991 I-1.5 J0.
N15195 G1 Y-10.688
N15200 G19 G2 Y-10.269 Z-38.441 J0. K-0.952
N15205 G3 Y-9.85 Z-38.538 J0.419 K0.855
N15210 G1 Y25.472
N15215 Y26.098 Z-37.293
N15220 Y27.275 Z-35.957
N15225 Y28.868 Z-34.752
N15230 Y31.058 Z-33.536
N15235 Y33.827 Z-32.361
N15240 Y37.237 Z-31.23
N15245 Y41.202 Z-30.182
N15250 Y46.547 Z-29.052
N15255 Y51.93 Z-28.14
N15260 Y57.335 Z-27.378
N15265 Y66.808 Z-26.302
N15270 Y80.572 Z-25.135
N15275 Y97.134 Z-24.103
N15280 Y111.103 Z-23.432
N15285 Y127.102 Z-22.802
N15290 Y156.551 Z-22.104
N15295 Y189.876 Z-21.657
N15300 Y234.05 Z-21.385
N15305 Y302.248 Z-21.394
N15310 Y419.271 Z-21.945
N15315 Y450.27 Z-22.222
N15320 Y467.32 Z-22.544
N15325 Y478.945 Z-22.933
N15330 Y488.182 Z-23.429
N15335 Y494.993 Z-23.974
N15340 Y501.022 Z-24.696
N15345 Y504.764 Z-25.31
N15350 Y507.729 Z-25.931
N15355 Y511.009 Z-26.812
N15360 Y513.84 Z-27.818
N15365 Y516.043 Z-28.856
N15370 Y517.843 Z-29.996
N15375 Y519.21 Z-31.17
N15380 Y520.223 Z-32.459
N15385 Y520.828 Z-33.725
N15390 Y521.071 Z-34.757
N15395 Y521.13 Z-38.538
N15400 Y609.855
N15405 G3 Y610.274 Z-38.441 J0. K0.952
N15410 G2 Y610.693 Z-38.343 J0.419 K-0.855
N15415 G1 Y610.741
N15420 G17 G3 X77.991 I-1.5 J0.
N15425 G19 G3 Y610.322 Z-38.441 J0. K-0.952
N15430 G2 Y609.903 Z-38.538 J-0.419 K0.855
N15435 G1 Y527.868
N15440 Y527.814 Z-33.999
N15445 Y527.485 Z-32.662
N15450 Y526.857 Z-31.411
N15455 Y525.829 Z-30.119
N15460 Y524.202 Z-28.744
N15465 Y522.311 Z-27.602
N15470 Y519.574 Z-26.397
N15475 Y516.344 Z-25.371
N15480 Y513.033 Z-24.586
N15485 Y509.302 Z-23.925
N15490 Y504.412 Z-23.273
N15495 Y497.227 Z-22.639
N15500 Y486.409 Z-22.079
N15505 Y471.684 Z-21.686
N15510 Y449.985 Z-21.428
N15515 Y294.988 Z-20.835
N15520 Y223.689
N15525 Y177.19 Z-21.123
N15530 Y143.866 Z-21.6
N15535 Y122.166 Z-22.105
N15540 Y101.327 Z-22.893
N15545 Y87.965 Z-23.536
N15550 Y73.856 Z-24.353
N15555 Y60.615 Z-25.356
N15560 Y49.941 Z-26.426
N15565 Y40.812 Z-27.643
N15570 Y34.09 Z-28.825
N15575 Y30.087 Z-29.708
N15580 Y26.31 Z-30.737
N15585 Y22.751 Z-31.968
N15590 Y21.5 Z-32.577
N15595 Y20.492 Z-33.386
N15600 Y19.838 Z-34.106
N15605 Y18.988 Z-35.473
N15610 Y18.45 Z-36.879
N15615 Y18.124 Z-38.538
N15620 Y-9.907
N15625 G2 Y-10.327 Z-38.441 J0. K0.952
N15630 G3 Y-10.746 Z-38.343 J-0.419 K-0.855
N15635 G17 G2 X74.992 I-1.5 J0.
N15640 G1 Y-10.735
N15645 G19 G2 Y-10.316 Z-38.441 J0. K-0.952
N15650 G3 Y-9.897 Z-38.538 J0.419 K0.855
N15655 G1 Y15.543
N15660 Y15.709 Z-37.229
N15665 Y16.246 Z-35.127
N15670 Y17.066 Z-33.269
N15675 Y17.901 Z-32.003
N15680 Y19.131 Z-30.646
N15685 Y20.262 Z-29.745
N15690 Y21.507 Z-29.07
N15695 Y22.82 Z-28.628
N15700 Y28.001 Z-27.629
N15705 Y34.902 Z-26.595
N15710 Y43.299 Z-25.625
N15715 Y53.87 Z-24.666
N15720 Y63.583 Z-23.967
N15725 Y76.101 Z-23.22
N15730 Y94.995 Z-22.329
N15735 Y122.86 Z-21.36
N15740 Y148.435 Z-20.874
N15745 Y187.959 Z-20.474
N15750 Y242.208 Z-20.315
N15755 Y331.331 Z-20.482
N15760 Y425.879 Z-20.727
N15765 Y470.053 Z-20.879
N15770 Y487.103 Z-21.134
N15775 Y498.727 Z-21.522
N15780 Y506.608 Z-22.004
N15785 Y512.792 Z-22.617
N15790 Y517.669 Z-23.347
N15795 Y520.637 Z-23.949
N15800 Y523.94 Z-24.84
N15805 Y527.073 Z-26.016
N15810 Y529.054 Z-27.042
N15815 Y530.847 Z-28.29
N15820 Y532.132 Z-29.53
N15825 Y532.986 Z-30.707
N15830 Y533.567 Z-31.957
N15835 Y533.867 Z-33.225
N15840 Y533.922 Z-38.538
N15845 Y609.903
N15850 G3 Y610.322 Z-38.441 J0. K0.952
N15855 G2 Y610.741 Z-38.343 J0.419 K-0.855
N15860 G17 G3 X71.992 I-1.5 J0.
N15865 G1 Y610.693
N15870 G19 G3 Y610.274 Z-38.441 J0. K-0.952
N15875 G2 Y609.855 Z-38.538 J-0.419 K0.855
N15880 G1 Y539.399
N15885 Y539.352 Z-32.608
N15890 Y539.041 Z-31.197
N15895 Y538.291 Z-29.63
N15900 Y537.14 Z-28.198
N15905 Y535.712 Z-26.951
N15910 Y533.841 Z-25.76
N15915 Y531.217 Z-24.545
N15920 Y528.09 Z-23.522
N15925 Y524.779 Z-22.744
N15930 Y521.044 Z-22.093
N15935 Y515.77 Z-21.473
N15940 Y509.037 Z-20.976
N15945 Y498.87 Z-20.573
N15950 Y484.92 Z-20.325
N15955 Y453.957 Z-20.22
N15960 Y362.993 Z-20.198
N15965 Y260.695 Z-19.909
N15970 Y194.821 Z-19.964
N15975 Y149.097 Z-20.316
N15980 Y121.198 Z-20.784
N15985 Y89.451 Z-21.844
N15990 Y68.861 Z-22.769
N15995 Y52.705 Z-23.722
N16000 Y39.277 Z-24.761
N16005 Y30.975 Z-25.566
N16010 Y23.439 Z-26.517
N16015 Y21.699 Z-26.952
N16020 Y20.041 Z-27.738
N16025 Y18.654 Z-28.669
N16030 Y16.987 Z-30.286
N16035 Y15.588 Z-32.102
N16040 Y14.544 Z-34.043
N16045 Y13.889 Z-35.927
N16050 Y13.521 Z-37.897
N16055 Y13.452 Z-38.538
N16060 Y-9.843
N16065 G2 Y-10.262 Z-38.441 J0. K0.952
N16070 G3 Y-10.681 Z-38.343 J-0.419 K-0.855
N16075 G1 Y-10.787
N16080 G17 G2 X68.992 I-1.5 J0.
N16085 G19 G2 Y-10.367 Z-38.441 J0. K-0.952
N16090 G3 Y-9.948 Z-38.538 J0.419 K0.855
N16095 G1 Y11.467
N16100 Y11.793 Z-36.263
N16105 Y12.487 Z-34.068
N16110 Y13.541 Z-32.027
N16115 Y14.655 Z-30.503
N16120 Y15.898 Z-29.187
N16125 Y17.806 Z-27.633
N16130 Y20.196 Z-26.183
N16135 Y22.146 Z-25.439
N16140 Y23.57 Z-25.154
N16145 Y27.039 Z-24.793
N16150 Y35.348 Z-24.079
N16155 Y46.209 Z-23.32
N16160 Y62.627 Z-22.377
N16165 Y82.304 Z-21.502
N16170 Y115.224 Z-20.414
N16175 Y133.436 Z-20.036
N16180 Y172.96 Z-19.651
N16185 Y227.984 Z-19.514
N16190 Y389.18 Z-19.879
N16195 Y472.075 Z-19.695
N16200 Y496.875 Z-19.775
N16205 Y509.274 Z-20.037
N16210 Y517.402 Z-20.418
N16215 Y523.457 Z-20.928
N16220 Y527.966 Z-21.543
N16225 Y531.311 Z-22.211
N16230 Y533.14 Z-22.665
N16235 Y536.26 Z-23.703
N16240 Y538.878 Z-24.925
N16245 Y540.861 Z-26.244
N16250 Y541.921 Z-27.182
N16255 Y542.825 Z-28.223
N16260 Y543.497 Z-29.263
N16265 Y544.078 Z-30.671
N16270 Y544.32 Z-31.833
N16275 Y544.375 Z-38.538
N16280 Y609.952
N16285 G3 Y610.371 Z-38.441 J0. K0.952
N16290 G2 Y610.79 Z-38.343 J0.419 K-0.855
N16295 G17 G3 X65.993 I-1.5 J0.
N16300 G1 Y610.693
N16305 G19 G3 Y610.274 Z-38.441 J0. K-0.952
N16310 G2 Y609.855 Z-38.538 J-0.419 K0.855
N16315 G1 Y548.916
N16320 Y548.862 Z-31.166
N16325 Y548.534 Z-29.698
N16330 Y547.856 Z-28.22
N16335 Y546.804 Z-26.766
N16340 Y545.408 Z-25.439
N16345 Y543.432 Z-24.109
N16350 Y541.623 Z-23.203
N16355 Y538.976 Z-22.212
N16360 Y535.509 Z-21.299
N16365 Y532.909 Z-20.812
N16370 Y529.719 Z-20.348
N16375 Y524.998 Z-19.891
N16380 Y519.254 Z-19.555
N16385 Y509.179 Z-19.273
N16390 Y491.354 Z-19.17
N16395 Y403.781 Z-19.547
N16400 Y338.438 Z-19.467
N16405 Y220.64 Z-19.173
N16410 Y166.391 Z-19.298
N16415 Y127.642 Z-19.668
N16420 Y100.518 Z-20.355
N16425 Y71.918 Z-21.366
N16430 Y55.731 Z-22.105
N16435 Y38.824 Z-23.072
N16440 Y28.87 Z-23.746
N16445 Y23.466 Z-24.192
N16450 Y21.519 Z-24.649
N16455 Y18.91 Z-25.721
N16460 Y16.616 Z-26.99
N16465 Y14.788 Z-28.341
N16470 Y13.161 Z-29.937
N16475 Y11.759 Z-31.829
N16480 Y10.741 Z-33.795
N16485 Y10.048 Z-35.9
N16490 Y9.678 Z-38.243
N16495 Y9.657 Z-38.538
N16500 Y-9.857
N16505 G2 Y-10.276 Z-38.441 J0. K0.952
N16510 G3 Y-10.695 Z-38.343 J-0.419 K-0.855
N16515 G17 G2 X62.993 I-1.5 J0.
N16520 G19 G2 Y-10.276 Z-38.441 J0. K-0.952
N16525 G3 Y-9.857 Z-38.538 J0.419 K0.855
N16530 G1 Y8.012
N16535 Y8.266 Z-36.561
N16540 Y8.859 Z-34.419
N16545 Y9.627 Z-32.656
N16550 Y10.896 Z-30.617
N16555 Y12.395 Z-28.882
N16560 Y14.176 Z-27.337
N16565 Y16.268 Z-25.99
N16570 Y18.133 Z-25.091
N16575 Y21.376 Z-23.927
N16580 Y23.39 Z-23.477
N16585 Y30.373 Z-22.956
N16590 Y50.528 Z-21.821
N16595 Y68.196 Z-21.015
N16600 Y89.068 Z-20.259
N16605 Y123.167 Z-19.334
N16610 Y158.817 Z-18.988
N16615 Y213.065 Z-18.866
N16620 Y356.437 Z-19.25
N16625 Y417.206 Z-19.224
N16630 Y502.454 Z-18.652
N16635 Y517.954 Z-18.752
N16640 Y527.052 Z-19.056
N16645 Y532.548 Z-19.46
N16650 Y536.688 Z-19.967
N16655 Y540.776 Z-20.753
N16660 Y543.855 Z-21.639
N16665 Y546.276 Z-22.622
N16670 Y548.39 Z-23.794
N16675 Y550.101 Z-25.124
N16680 Y551.077 Z-26.146
N16685 Y552.015 Z-27.505
N16690 Y552.639 Z-28.876
N16695 Y553.025 Z-30.563
N16700 Y553.075 Z-38.538
N16705 Y609.855
N16710 G3 Y610.274 Z-38.441 J0. K0.952
N16715 G2 Y610.693 Z-38.343 J0.419 K-0.855
N16720 G1 Y610.79
N16725 G17 G3 X59.993 I-1.5 J0.
N16730 G19 G3 Y610.371 Z-38.441 J0. K-0.952
N16735 G2 Y609.952 Z-38.538 J-0.419 K0.855
N16740 G1 Y556.891
N16745 Y556.865 Z-30.224
N16750 Y556.575 Z-28.583
N16755 Y555.945 Z-27.015
N16760 Y555.341 Z-26.019
N16765 Y554.487 Z-24.954
N16770 Y553.46 Z-23.975
N16775 Y551.99 Z-22.89
N16780 Y550.371 Z-21.974
N16785 Y547.604 Z-20.837
N16790 Y544.222 Z-19.907
N16795 Y540.615 Z-19.258
N16800 Y536.469 Z-18.784
N16805 Y532.668 Z-18.509
N16810 Y524.143 Z-18.209
N16815 Y509.418 Z-18.16
N16820 Y435.795 Z-18.87
N16825 Y378.127 Z-19.033
N16830 Y200.656 Z-18.588
N16835 Y149.507 Z-18.725
N16840 Y120.833 Z-19.018
N16845 Y85.958 Z-19.937
N16850 Y63.55 Z-20.751
N16855 Y46.02 Z-21.567
N16860 Y29.984 Z-22.44
N16865 Y23.651 Z-22.867
N16870 Y21.628 Z-23.258
N16875 Y18.585 Z-24.118
N16880 Y15.794 Z-25.279
N16885 Y13.551 Z-26.609
N16890 Y11.57 Z-28.214
N16895 Y9.973 Z-29.945
N16900 Y8.597 Z-31.948
N16905 Y7.573 Z-34.061
N16910 Y6.865 Z-36.338
N16915 Y6.538 Z-38.538
N16920 Y-9.951
N16925 G2 Y-10.371 Z-38.441 J0. K0.952
N16930 G3 Y-10.79 Z-38.343 J-0.419 K-0.855
N16935 G17 G2 X56.994 I-1.5 J0.
N16940 G1 Y-10.688
N16945 G19 G2 Y-10.269 Z-38.441 J0. K-0.952
N16950 G3 Y-9.85 Z-38.538 J0.419 K0.855
N16955 G1 Y5.221
N16960 Y5.637 Z-36.331
N16965 Y6.478 Z-33.894
N16970 Y7.683 Z-31.557
N16975 Y9.082 Z-29.599
N16980 Y10.811 Z-27.765
N16985 Y12.872 Z-26.137
N16990 Y15.204 Z-24.793
N16995 Y17.923 Z-23.699
N17000 Y20.403 Z-23.025
N17005 Y23.083 Z-22.471
N17010 Y24.448 Z-22.329
N17015 Y28.738 Z-22.051
N17020 Y47.358 Z-21.063
N17025 Y63.537 Z-20.337
N17030 Y85.969 Z-19.556
N17035 Y120.069 Z-18.712
N17040 Y146.418 Z-18.456
N17045 Y199.117 Z-18.341
N17050 Y331.639 Z-18.726
N17055 Y399.826 Z-18.792
N17060 Y452.525 Z-18.498
N17065 Y502.899 Z-17.84
N17070 Y523.824 Z-17.647
N17075 Y533.899 Z-17.797
N17080 Y538.536 Z-18.019
N17085 Y541.561 Z-18.264
N17090 Y545.696 Z-18.791
N17095 Y548.754 Z-19.412
N17100 Y551.546 Z-20.242
N17105 Y553.614 Z-21.091
N17110 Y555.848 Z-22.372
N17115 Y557.435 Z-23.662
N17120 Y558.643 Z-25.019
N17125 Y559.555 Z-26.535
N17130 Y559.993 Z-27.636
N17135 Y560.352 Z-29.305
N17140 Y560.404 Z-38.538
N17145 Y609.855
N17150 G3 Y610.274 Z-38.441 J0. K0.952
N17155 G2 Y610.693 Z-38.343 J0.419 K-0.855
N17160 G1 Y610.741
N17165 G17 G3 X53.994 I-1.5 J0.
N17170 G19 G3 Y610.322 Z-38.441 J0. K-0.952
N17175 G2 Y609.903 Z-38.538 J-0.419 K0.855
N17180 G1 Y563.645
N17185 Y563.598 Z-28.761
N17190 Y563.24 Z-27.022
N17195 Y562.504 Z-25.32
N17200 Y561.392 Z-23.714
N17205 Y559.94 Z-22.303
N17210 Y558.453 Z-21.239
N17215 Y556.151 Z-20.042
N17220 Y553.329 Z-19.048
N17225 Y550.206 Z-18.325
N17230 Y547.022 Z-17.848
N17235 Y541.724 Z-17.401
N17240 Y533.495 Z-17.169
N17245 Y517.995 Z-17.267
N17250 Y465.781 Z-18.128
N17255 Y421.607 Z-18.511
N17260 Y364.904 Z-18.613
N17265 Y191.307 Z-18.118
N17270 Y139.383 Z-18.244
N17275 Y118.459 Z-18.463
N17280 Y85.135 Z-19.239
N17285 Y61.139 Z-20.051
N17290 Y46.371 Z-20.709
N17295 Y29.772 Z-21.579
N17300 Y24.026 Z-21.946
N17305 Y21.993 Z-22.248
N17310 Y18.579 Z-22.982
N17315 Y15.876 Z-23.887
N17320 Y13.466 Z-25.059
N17325 Y11.327 Z-26.491
N17330 Y9.454 Z-28.168
N17335 Y7.9 Z-29.995
N17340 Y6.422 Z-32.312
N17345 Y5.359 Z-34.624
N17350 Y4.856 Z-36.49
N17355 Y4.619 Z-38.538
N17360 Y-9.905
N17365 G2 Y-10.324 Z-38.441 J0. K0.952
N17370 G3 Y-10.744 Z-38.343 J-0.419 K-0.855
N17375 G17 G2 X50.994 I-1.5 J0.
N17380 G1 Y-10.739
N17385 G19 G2 Y-10.32 Z-38.441 J0. K-0.952
N17390 G3 Y-9.9 Z-38.538 J0.419 K0.855
N17395 G1 Y4.481
N17400 Y4.634 Z-36.558
N17405 Y4.974 Z-34.719
N17410 Y5.522 Z-33.135
N17415 Y6.579 Z-31.113
N17420 Y8.077 Z-28.976
N17425 Y9.744 Z-27.19
N17430 Y11.744 Z-25.573
N17435 Y13.969 Z-24.243
N17440 Y16.532 Z-23.154
N17445 Y19.423 Z-22.344
N17450 Y23.039 Z-21.689
N17455 Y28.95 Z-21.253
N17460 Y43.332 Z-20.49
N17465 Y58.042 Z-19.826
N17470 Y82.035 Z-19.021
N17475 Y113.81 Z-18.3
N17480 Y133.959 Z-18.051
N17485 Y185.108 Z-17.921
N17490 Y371.879 Z-18.442
N17495 Y427.696 Z-18.289
N17500 Y470.32 Z-17.861
N17505 Y531.544 Z-16.705
N17510 Y541.619 Z-16.733
N17515 Y547.783 Z-17.014
N17520 Y551.553 Z-17.405
N17525 Y554.348 Z-17.883
N17530 Y557.439 Z-18.697
N17535 Y560.201 Z-19.835
N17540 Y561.795 Z-20.763
N17545 Y563.233 Z-21.872
N17550 Y564.239 Z-22.882
N17555 Y564.664 Z-23.395
N17560 Y565.531 Z-24.736
N17565 Y566.239 Z-26.42
N17570 Y566.589 Z-28.158
N17575 Y566.639 Z-38.538
N17580 Y609.903
N17585 G3 Y610.322 Z-38.441 J0. K0.952
N17590 G2 Y610.741 Z-38.343 J0.419 K-0.855
N17595 G17 G3 X47.995 I-1.5 J0.
N17600 G1 Y610.693
N17605 G19 G3 Y610.274 Z-38.441 J0. K-0.952
N17610 G2 Y609.855 Z-38.538 J-0.419 K0.855
N17615 G1 Y569.407
N17620 Y569.362 Z-27.654
N17625 Y569.071 Z-26.051
N17630 Y568.441 Z-24.387
N17635 Y567.448 Z-22.774
N17640 Y566.304 Z-21.488
N17645 Y564.632 Z-20.134
N17650 Y562.724 Z-19.043
N17655 Y560.474 Z-18.122
N17660 Y558.144 Z-17.459
N17665 Y555.17 Z-16.904
N17670 Y552.156 Z-16.56
N17675 Y548.706 Z-16.338
N17680 Y541.343 Z-16.211
N17685 Y527.006 Z-16.454
N17690 Y486.319 Z-17.406
N17695 Y447.57 Z-17.956
N17700 Y402.621 Z-18.24
N17705 Y337.006 Z-18.226
N17710 Y185.691 Z-17.748
N17715 Y132.411 Z-17.862
N17720 Y110.711 Z-18.133
N17725 Y78.937 Z-18.832
N17730 Y54.948 Z-19.633
N17735 Y37.2 Z-20.453
N17740 Y25.889 Z-21.104
N17745 Y23.154 Z-21.33
N17750 Y19.174 Z-22.011
N17755 Y16.142 Z-22.875
N17760 Y13.607 Z-23.98
N17765 Y11.307 Z-25.398
N17770 Y9.407 Z-26.986
N17775 Y7.63 Z-28.98
N17780 Y6.152 Z-31.258
N17785 Y5.318 Z-33.023
N17790 Y4.749 Z-35.066
N17795 Y4.414 Z-37.804
N17800 Y4.371 Z-38.538
N17805 Y-9.855
N17810 G2 Y-10.274 Z-38.441 J0. K0.952
N17815 G3 Y-10.694 Z-38.343 J-0.419 K-0.855
N17820 G1 Y-10.788
N17825 G17 G2 X44.995 I-1.5 J0.
N17830 G19 G2 Y-10.369 Z-38.441 J0. K-0.952
N17835 G3 Y-9.95 Z-38.538 J0.419 K0.855
N17840 G1 Y4.269
N17845 Y4.422 Z-36.664
N17850 Y4.814 Z-34.302
N17855 Y5.445 Z-32.292
N17860 Y6.616 Z-30.035
N17865 Y8.087 Z-27.984
N17870 Y9.911 Z-26.107
N17875 Y12.039 Z-24.495
N17880 Y14.322 Z-23.24
N17885 Y16.856 Z-22.262
N17890 Y19.054 Z-21.685
N17895 Y20.399 Z-21.431
N17900 Y23.612 Z-20.965
N17905 Y32.764 Z-20.381
N17910 Y50.773 Z-19.52
N17915 Y71.188 Z-18.803
N17920 Y100.637 Z-18.112
N17925 Y129.312 Z-17.709
N17930 Y181.236 Z-17.594
N17935 Y351.732 Z-18.121
N17940 Y413.644 Z-18.048
N17945 Y457.818 Z-17.681
N17950 Y496.568 Z-17.014
N17955 Y538.417 Z-15.87
N17960 Y548.491 Z-15.763
N17965 Y553.131 Z-15.894
N17970 Y556.167 Z-16.122
N17975 Y558.048 Z-16.343
N17980 Y560.65 Z-16.815
N17985 Y561.838 Z-17.108
N17990 Y564.529 Z-18.033
N17995 Y566.859 Z-19.259
N18000 Y568.608 Z-20.599
N18005 Y570.007 Z-22.143
N18010 Y570.786 Z-23.357
N18015 Y571.541 Z-25.161
N18020 Y571.916 Z-27.033
N18025 Y571.969 Z-38.538
N18030 Y609.952
N18035 G3 Y610.371 Z-38.441 J0. K0.952
N18040 G2 Y610.79 Z-38.343 J0.419 K-0.855
N18045 G17 G3 X41.995 I-1.5 J0.
N18050 G1 Y610.681
N18055 G19 G3 Y610.262 Z-38.441 J0. K-0.952
N18060 G2 Y609.843 Z-38.538 J-0.419 K0.855
N18065 G1 Y574.343
N18070 Y574.292 Z-26.499
N18075 Y573.921 Z-24.603
N18080 Y573.227 Z-22.892
N18085 Y572.793 Z-22.137
N18090 Y571.731 Z-20.733
N18095 Y570.18 Z-19.299
N18100 Y568.358 Z-18.11
N18105 Y566.334 Z-17.179
N18110 Y563.834 Z-16.395
N18115 Y560.588 Z-15.792
N18120 Y557.855 Z-15.515
N18125 Y552.48 Z-15.31
N18130 Y543.181 Z-15.437
N18135 Y502.106 Z-16.712
N18140 Y465.682 Z-17.426
N18145 Y423.058 Z-17.86
N18150 Y365.683 Z-18.008
N18155 Y175.037 Z-17.459
N18160 Y125.438 Z-17.585
N18165 Y91.339 Z-18.103
N18170 Y63.439 Z-18.814
N18175 Y48.805 Z-19.352
N18180 Y32.74 Z-20.115
N18185 Y24.427 Z-20.628
N18190 Y21.542 Z-20.961
N18195 Y18.342 Z-21.523
N18200 Y16.356 Z-22.087
N18205 Y14.432 Z-22.841
N18210 Y12.581 Z-23.803
N18215 Y10.403 Z-25.331
N18220 Y8.523 Z-27.129
N18225 Y6.994 Z-29.103
N18230 Y5.7 Z-31.408
N18235 Y5.044 Z-33.098
N18240 Y4.464 Z-35.755
N18245 Y4.179 Z-38.538
N18250 Y-9.852
N18255 G2 Y-10.271 Z-38.441 J0. K0.952
N18260 G3 Y-10.69 Z-38.343 J-0.419 K-0.855
N18265 G1 Y-10.693
N18270 G17 G2 X38.996 I-1.5 J0.
N18275 G19 G2 Y-10.274 Z-38.441 J0. K-0.952
N18280 G3 Y-9.855 Z-38.538 J0.419 K0.855
N18285 G1 Y4.105
N18290 Y4.283 Z-36.55
N18295 Y4.714 Z-34.114
N18300 Y5.377 Z-31.882
N18305 Y6.537 Z-29.537
N18310 Y8.026 Z-27.395
N18315 Y9.79 Z-25.538
N18320 Y11.723 Z-24.028
N18325 Y13.986 Z-22.736
N18330 Y16.391 Z-21.777
N18335 Y19.218 Z-21.056
N18340 Y23.621 Z-20.458
N18345 Y32.973 Z-19.868
N18350 Y49.219 Z-19.115
N18355 Y64.682 Z-18.574
N18360 Y93.356 Z-17.898
N18365 Y127.455 Z-17.443
N18370 Y178.604 Z-17.346
N18375 Y297.177 Z-17.726
N18380 Y381.104 Z-17.887
N18385 Y434.578 Z-17.649
N18390 Y476.427 Z-17.115
N18395 Y510.139 Z-16.336
N18400 Y544.557 Z-15.12
N18405 Y554.632 Z-14.868
N18410 Y560.122 Z-15.
N18415 Y563.996 Z-15.407
N18420 Y567.117 Z-16.095
N18425 Y569.318 Z-16.89
N18430 Y571.232 Z-17.888
N18435 Y572.947 Z-19.156
N18440 Y574.391 Z-20.687
N18445 Y575.422 Z-22.298
N18450 Y576.143 Z-24.121
N18455 Y576.494 Z-25.998
N18460 Y576.542 Z-38.538
N18465 Y609.855
N18470 G3 Y610.274 Z-38.441 J0. K0.952
N18475 G2 Y610.693 Z-38.343 J0.419 K-0.855
N18480 G1 Y610.79
N18485 G17 G3 X35.996 I-1.5 J0.
N18490 G19 G3 Y610.371 Z-38.441 J0. K-0.952
N18495 G2 Y609.952 Z-38.538 J-0.419 K0.855
N18500 G1 Y578.582
N18505 Y578.528 Z-25.414
N18510 Y578.141 Z-23.439
N18515 Y577.79 Z-22.455
N18520 Y576.957 Z-20.859
N18525 Y575.741 Z-19.296
N18530 Y574.232 Z-17.953
N18535 Y572.529 Z-16.865
N18540 Y570.416 Z-15.927
N18545 Y567.892 Z-15.2
N18550 Y565.095 Z-14.744
N18555 Y562.833 Z-14.551
N18560 Y559.746 Z-14.448
N18565 Y552.771 Z-14.56
N18570 Y518.326 Z-15.932
N18575 Y490.427 Z-16.706
N18580 Y452.453 Z-17.349
N18585 Y404.404 Z-17.721
N18590 Y340.576 Z-17.757
N18595 Y175.505 Z-17.243
N18600 Y125.131 Z-17.347
N18605 Y89.482 Z-17.825
N18610 Y62.357 Z-18.47
N18615 Y47.675 Z-18.985
N18620 Y32.62 Z-19.686
N18625 Y24.652 Z-20.175
N18630 Y20.915 Z-20.56
N18635 Y17.798 Z-21.121
N18640 Y16.556 Z-21.468
N18645 Y14.578 Z-22.197
N18650 Y12.306 Z-23.376
N18655 Y10.442 Z-24.698
N18660 Y8.593 Z-26.457
N18665 Y7.117 Z-28.353
N18670 Y5.821 Z-30.638
N18675 Y5.012 Z-32.715
N18680 Y4.542 Z-34.644
N18685 Y4.169 Z-36.986
N18690 Y4.032 Z-38.538
N18695 Y-9.946
N18700 G2 Y-10.365 Z-38.441 J0. K0.952
N18705 G3 Y-10.784 Z-38.343 J-0.419 K-0.855
N18710 G17 G2 X32.996 I-1.5 J0.
N18715 G1 Y-10.688
N18720 G19 G2 Y-10.269 Z-38.441 J0. K-0.952
N18725 G3 Y-9.85 Z-38.538 J0.419 K0.855
N18730 G1 Y3.97
N18735 Y4.147 Z-36.749
N18740 Y4.526 Z-34.479
N18745 Y4.882 Z-32.978
N18750 Y5.184 Z-31.981
N18755 Y6.236 Z-29.595
N18760 Y7.61 Z-27.423
N18765 Y9.239 Z-25.541
N18770 Y11.158 Z-23.907
N18775 Y13.347 Z-22.553
N18780 Y15.807 Z-21.493
N18785 Y17.867 Z-20.892
N18790 Y19.125 Z-20.628
N18795 Y23.276 Z-20.114
N18800 Y31.556 Z-19.573
N18805 Y44.614 Z-18.947
N18810 Y60.806 Z-18.365
N18815 Y87.156 Z-17.742
N18820 Y123.58 Z-17.263
N18825 Y173.179 Z-17.154
N18830 Y349.875 Z-17.683
N18835 Y405.044 Z-17.62
N18840 Y452.318 Z-17.244
N18845 Y489.517 Z-16.607
N18850 Y517.416 Z-15.827
N18855 Y544.597 Z-14.698
N18860 Y557.784 Z-14.103
N18865 Y563.402 Z-14.038
N18870 Y566.273 Z-14.176
N18875 Y567.78 Z-14.331
N18880 Y569.272 Z-14.561
N18885 Y571.457 Z-15.082
N18890 Y573.564 Z-15.862
N18895 Y575.473 Z-16.911
N18900 Y577.04 Z-18.137
N18905 Y578.329 Z-19.556
N18910 Y579.292 Z-21.073
N18915 Y580.034 Z-22.92
N18920 Y580.418 Z-24.909
N18925 Y580.47 Z-38.538
N18930 Y609.855
N18935 G3 Y610.274 Z-38.441 J0. K0.952
N18940 G2 Y610.693 Z-38.343 J0.419 K-0.855
N18945 G1 Y610.741
N18950 G17 G3 X29.997 I-1.5 J0.
N18955 G19 G3 Y610.322 Z-38.441 J0. K-0.952
N18960 G2 Y609.903 Z-38.538 J-0.419 K0.855
N18965 G1 Y582.219
N18970 Y582.197 Z-24.811
