%
(TUESDAY_1)
(T2  D=3. CR=0. - ZMIN=-15.6 - FLAT END MILL)
N10 G90 G94 G17 G91.1
N15 G21
N20 G53 G0 Z0.
(2D CONTOUR2)
N25 M9
N30 T2 M6
N35 S24000 M3
N40 G54
N45 G0 X95.95 Y121.15
N50 G43 Z20. H2
N55 G0 Z-5.
N60 G1 Z-8. F80.
N65 Z-10.7
N70 G19 G3 Y121.45 Z-11. J0.3 K0.
N75 G1 Y121.75 F150.
N80 G17 G2 X96.25 Y122.05 I0.3 J0.
N85 G1 X205.8 F350.
N90 Y37.95
N95 X54.2
N100 Y122.05
N105 X96.25
N110 G3 X96.475 Y122.2 I0. J0.244
N115 G2 X96.7 Y122.35 I0.225 J-0.094
N120 G1 X206.1
N125 Y37.65
N130 X53.9
N135 Y122.35
N140 X96.7
N145 G2 X97. Y122.05 I0. J-0.3 F150.
N150 G1 Y121.75
N155 G19 G2 Y121.45 Z-10.7 J0. K0.3
N160 G0 Z5.
N165 X95.95 Y121.15
N170 Z-5.
N175 G1 Z-9. F80.
N180 Z-11.7
N185 G3 Y121.45 Z-12. J0.3 K0.
N190 G1 Y121.75 F150.
N195 G17 G2 X96.25 Y122.05 I0.3 J0.
N200 G1 X205.8 F350.
N205 Y37.95
N210 X54.2
N215 Y122.05
N220 X96.25
N225 G3 X96.475 Y122.2 I0. J0.244
N230 G2 X96.7 Y122.35 I0.225 J-0.094
N235 G1 X206.1
N240 Y37.65
N245 X53.9
N250 Y122.35
N255 X96.7
N260 G2 X97. Y122.05 I0. J-0.3 F150.
N265 G1 Y121.75
N270 G19 G2 Y121.45 Z-11.7 J0. K0.3
N275 G0 Z5.
N280 X95.95 Y121.15
N285 Z-5.
N290 G1 Z-10. F80.
N295 Z-12.7
N300 G3 Y121.45 Z-13. J0.3 K0.
N305 G1 Y121.75 F150.
N310 G17 G2 X96.25 Y122.05 I0.3 J0.
N315 G1 X205.8 F350.
N320 Y37.95
N325 X54.2
N330 Y122.05
N335 X96.25
N340 G3 X96.475 Y122.2 I0. J0.244
N345 G2 X96.7 Y122.35 I0.225 J-0.094
N350 G1 X206.1
N355 Y37.65
N360 X53.9
N365 Y122.35
N370 X96.7
N375 G2 X97. Y122.05 I0. J-0.3 F150.
N380 G1 Y121.75
N385 G19 G2 Y121.45 Z-12.7 J0. K0.3
N390 G0 Z5.
N395 X95.95 Y121.15
N400 Z-5.
N405 G1 Z-11. F80.
N410 Z-13.7
N415 G3 Y121.45 Z-14. J0.3 K0.
N420 G1 Y121.75 F150.
N425 G17 G2 X96.25 Y122.05 I0.3 J0.
N430 G1 X205.8 F350.
N435 Y37.95
N440 X54.2
N445 Y122.05
N450 X96.25
N455 G3 X96.475 Y122.2 I0. J0.244
N460 G2 X96.7 Y122.35 I0.225 J-0.094
N465 G1 X206.1
N470 Y37.65
N475 X53.9
N480 Y122.35
N485 X96.7
N490 G2 X97. Y122.05 I0. J-0.3 F150.
N495 G1 Y121.75
N500 G19 G2 Y121.45 Z-13.7 J0. K0.3
N505 G0 Z5.
N510 X95.95 Y121.15
N515 Z-5.
N520 G1 Z-12. F80.
N525 Z-14.7
N530 Y121.154 Z-14.75
N535 Y121.45
N540 Y121.75 F150.
N545 G17 G2 X96.25 Y122.05 I0.3 J0.
N550 G1 X99.595 F350.
N555 Z-15. F80.
N560 X161.5 F350.
N565 Z-14.75
N570 X169.5
N575 Z-15. F80.
N580 X205.8 F350.
N585 Y37.95
N590 X169.434
N595 Z-14.75
N600 X161.434
N605 Z-15. F80.
N610 X97.014 F350.
N615 Z-14.75
N620 X89.014
N625 Z-15. F80.
N630 X54.2 F350.
N635 Y122.05
N640 X91.595
N645 Z-14.75
N650 X96.25
N655 G3 X96.475 Y122.2 I0. J0.244
N660 G2 X96.7 Y122.35 I0.225 J-0.094
N665 G1 X99.595
N670 Z-15. F80.
N675 X161.5 F350.
N680 Z-14.75
N685 X169.5
N690 Z-15. F80.
N695 X206.1 F350.
N700 Y37.65
N705 X169.434
N710 Z-14.75
N715 X161.434
N720 Z-15. F80.
N725 X97.014 F350.
N730 Z-14.75
N735 X89.014
N740 Z-15. F80.
N745 X53.9 F350.
N750 Y122.35
N755 X91.595
N760 Z-14.75
N765 X96.7
N770 G2 X97. Y122.05 I0. J-0.3 F150.
N775 G1 Y121.75
N780 Y121.454 F80.
N785 Y121.45 Z-14.7 F150.
N790 G0 Z5.
N795 X95.95 Y121.15
N800 Z-5.
N805 G1 Z-13. F80.
N810 Z-14.75
N815 Y121.45
N820 Y121.75 F150.
N825 G2 X96.25 Y122.05 I0.3 J0.
N830 G1 X99.595 F350.
N835 Z-15.6 F80.
N840 X161.5 F350.
N845 Z-14.75
N850 X169.5
N855 Z-15.6 F80.
N860 X205.8 F350.
N865 Y37.95
N870 X169.434
N875 Z-14.75
N880 X161.434
N885 Z-15.6 F80.
N890 X97.014 F350.
N895 Z-14.75
N900 X89.014
N905 Z-15.6 F80.
N910 X54.2 F350.
N915 Y122.05
N920 X91.595
N925 Z-14.75
N930 X96.25
N935 G3 X96.475 Y122.2 I0. J0.244
N940 G2 X96.7 Y122.35 I0.225 J-0.094
N945 G1 X99.595
N950 Z-15.6 F80.
N955 X161.5 F350.
N960 Z-14.75
N965 X169.5
N970 Z-15.6 F80.
N975 X206.1 F350.
N980 Y37.65
N985 X169.434
N990 Z-14.75
N995 X161.434
N1000 Z-15.6 F80.
N1005 X97.014 F350.
N1010 Z-14.75
N1015 X89.014
N1020 Z-15.6 F80.
N1025 X53.9 F350.
N1030 Y122.35
N1035 X91.595
N1040 Z-14.75
N1045 X96.7
N1050 G2 X97. Y122.05 I0. J-0.3 F150.
N1055 G1 Y121.45
N1060 G0 Z20.
N1065 G53 Z0.
N1070 M30
%
