%
(1001)
(T5  D=19.05 CR=9.525 - ZMIN=-97.608 - BALL END MILL)
N10 G90 G94 G17 G91.1
N15 G21
N20 G53 G0 Z0.
(PARALLEL1)
N25 M9
N30 T5 M6
N35 S24000 M3
N40 G54
N45 G0 X299.631 Y1150.04
N50 G43 Z15. H5
N55 G0 Z-23.095
N60 G19 G2 Y1148.135 Z-25. J-1.905 K0. F1000.
N65 G1 Y1098.079 F6000.
N70 G2 Y1096.174 Z-23.095 J0. K1.905 F1000.
N75 G0 Z5.
N80 X284.635 Y1431.586
N85 Z-23.095
N90 G2 Y1429.681 Z-25. J-1.905 K0. F1000.
N95 G1 Y745.523 F6000.
N100 G2 Y743.618 Z-23.095 J0. K1.905 F1000.
N105 G0 Z5.
N110 X269.639 Y604.039
N115 Z-23.095
N120 G3 Y605.944 Z-25. J1.905 K0. F1000.
N125 G1 Y1515.657 F6000.
N130 G3 Y1517.562 Z-23.095 J0. K1.905 F1000.
N135 G0 Z5.
N140 X254.642 Y1577.052
N145 Z-23.095
N150 G2 Y1575.147 Z-25. J-1.905 K0. F1000.
N155 G1 Y499.73 F6000.
N160 G2 Y497.825 Z-23.095 J0. K1.905 F1000.
N165 G0 Z5.
N170 X239.646 Y411.213
N175 Z-23.095
N180 G3 Y413.118 Z-25. J1.905 K0. F1000.
N185 G1 Y1624.36 F6000.
N190 G3 Y1626.265 Z-23.095 J0. K1.905 F1000.
N195 G0 Z5.
N200 X224.65 Y1669.074
N205 Z-23.095
N210 G2 Y1667.169 Z-25. J-1.905 K0. F1000.
N215 G1 Y342.264 F6000.
N220 G2 Y340.359 Z-23.095 J0. K1.905 F1000.
N225 G0 Z5.
N230 X209.654 Y281.768
N235 Z-23.095
N240 G3 Y283.673 Z-25. J1.905 K0. F1000.
N245 G1 Y1704.744 F6000.
N250 G3 Y1706.649 Z-23.095 J0. K1.905 F1000.
N255 G0 Z5.
N260 X194.657 Y1739.737
N265 Z-23.095
N270 G2 Y1737.832 Z-25. J-1.905 K0. F1000.
N275 G1 Y233.833 F6000.
N280 G2 Y231.928 Z-23.095 J0. K1.905 F1000.
N285 G0 Z5.
N290 X179.661 Y188.114
N295 Z-23.095
N300 G3 Y190.019 Z-25. J1.905 K0. F1000.
N305 G1 Y280.573 F6000.
N310 Y303.335 Z-22.509
N315 Y341.24 Z-21.426
N320 Y463.038 Z-24.591
N325 Y1766.993 Z-25.
N330 Y1792.809
N335 X179.521 Y1793.692
N340 X179.115 Y1794.488 Z-25.001
N345 X178.483 Y1795.121
N350 X177.687 Y1795.526
N355 X176.804 Y1795.666
N360 X167.522
N365 X166.639 Y1795.526
N370 X165.843 Y1795.121
N375 X165.211 Y1794.488
N380 X164.805 Y1793.692 Z-25.
N385 X164.665 Y1792.809
N390 Y524.096 Z-24.513
N395 Y290.618 Z-16.67
N400 Y251.894 Z-17.847
N405 Y230.381 Z-21.377
N410 Y220.141 Z-25.
N415 Y151.221
N420 G2 Y149.316 Z-23.095 J0. K1.905 F1000.
N425 G0 Z5.
N430 X149.669 Y115.69
N435 Z-23.095
N440 G3 Y117.595 Z-25. J1.905 K0. F1000.
N445 G1 Y171.516 F6000.
N450 Y177.848 Z-20.974
N455 Y188.277 Z-16.856
N460 Y206.938 Z-13.746
N465 Y239.161 Z-12.525
N470 Y350.394 Z-16.346
N475 Y579.467 Z-24.581
N480 Y1815.874 Z-25.
N485 G3 Y1816.294 Z-24.903 J0. K0.952
N490 G2 Y1816.713 Z-24.806 J0.419 K-0.855
N495 G1 Y1837.273
N500 G17 G3 X146.811 Y1840.131 I-2.857 J0.
N505 G1 X137.53
N510 G3 X134.672 Y1837.273 I0. J-2.858
N515 G19 G3 Y1836.854 Z-24.903 J0. K-0.952
N520 G2 Y1836.432 Z-25. J-0.419 K0.855
N525 G1 Y1769.861 Z-24.787
N530 Y1749.387 Z-23.778
N535 Y1701.659 Z-25.
N540 Y623.84 Z-24.502
N545 Y412.388 Z-17.473
N550 Y209.746 Z-9.165
N555 Y173.77 Z-9.478
N560 Y155.252 Z-11.646
N565 Y141.934 Z-15.551
N570 Y133.261 Z-21.506
N575 Y131.546 Z-25.
N580 Y88.872
N585 G2 Y88.453 Z-24.903 J0. K0.952
N590 G3 Y88.034 Z-24.806 J-0.419 K-0.855
N595 G1 Y66.096
N600 G17 G2 X131.815 Y63.239 I-2.857 J0.
N605 G1 X122.534
N610 G2 X119.676 Y66.096 I0. J2.858
N615 G19 G2 Y66.515 Z-24.903 J0. K-0.952
N620 G3 Y66.935 Z-25. J0.419 K0.855
N625 G1 Y95.214
N630 Y95.585 Z-24.09
N635 Y98.077 Z-17.904
N640 Y106.065 Z-12.133
N645 Y118.142 Z-8.401
N650 Y137.216 Z-6.075
N655 Y173.136 Z-6.022
N660 Y425.703 Z-16.833
N665 Y666.524 Z-24.492
N670 Y1685.606 Z-25.
N675 Y1773.808 Z-20.135
N680 Y1790.877 Z-21.338
N685 Y1801.135 Z-24.79
N690 Y1855.073 Z-25.
N695 G3 Y1855.496 Z-24.903 J0.004 K0.952
N700 G2 Y1855.916 Z-24.806 J0.419 K-0.855
N705 G1 Y1872.763
N710 G17 G3 X116.819 Y1875.62 I-2.857 J0.
N715 G1 X107.537
N720 G3 X104.68 Y1872.763 I0. J-2.858
N725 G19 G3 Y1872.344 Z-24.903 J0. K-0.952
N730 G2 Y1871.916 Z-25. J-0.419 K0.855
N735 G1 Y1821.176 Z-24.538
N740 Y1814.624 Z-19.943
N745 Y1801.844 Z-17.063
N750 Y1775.173 Z-17.757
N755 Y1675.321 Z-24.816
N760 Y706.165 Z-24.517
N765 Y444.787 Z-16.556
N770 Y138.206 Z-3.249
N775 Y99.723 Z-3.35
N780 Y94.185 Z-5.202
N785 Y89.193 Z-10.044
N790 Y86.749 Z-17.778
N795 Y86.263 Z-25.
N800 Y66.634
N805 G2 Y66.215 Z-24.903 J0. K0.952
N810 G3 Y65.796 Z-24.806 J-0.419 K-0.855
N815 G17 G2 X101.822 Y62.939 I-2.857 J0.
N820 G1 X92.541
N825 G2 X89.684 Y65.796 I0. J2.858
N830 G19 G2 Y66.215 Z-24.903 J0. K-0.952
N835 G3 Y66.634 Z-25. J0.419 K0.855
N840 G1 Y86.946
N845 Y87.269 Z-13.841
N850 Y89.963 Z-6.964
N855 Y95.713 Z-2.184
N860 Y101.19 Z-0.727
N865 Y239.221 Z-6.423
N870 Y468.294 Z-16.628
N875 Y738.483 Z-24.514
N880 Y1643.028 Z-25.
N885 Y1695.891 Z-22.622
N890 Y1781.06 Z-15.89
N895 Y1813.62 Z-13.803
N900 Y1825.678 Z-15.59
N905 Y1832.95 Z-19.135
N910 Y1837.493 Z-24.817
N915 Y1887.394 Z-25.
N920 G3 Y1889.306 Z-23.095 J0.007 K1.905 F1000.
N925 G0 Z5.
N930 X74.687 Y2156.67
N935 Z-23.095
N940 G2 Y2154.765 Z-25. J-1.905 K0. F1000.
N945 G1 Y1850.926 F6000.
N950 Y1847.925 Z-18.569
N955 Y1841.362 Z-13.664
N960 Y1831.68 Z-11.184
N965 Y1814.059 Z-11.566
N970 Y1723.549 Z-20.015
N975 Y1629.57 Z-25.
N980 Y769.077 Z-24.561
N985 Y481.267 Z-16.419
N990 Y269.815 Z-7.239
N995 Y105.353 Z0.223
N1000 Y98.18 Z-2.328
N1005 Y93.384 Z-7.165
N1010 Y91.362 Z-13.464
N1015 Y91.106 Z-25.
N1020 Y66.474
N1025 G2 Y66.055 Z-24.903 J0. K0.952
N1030 G3 Y65.636 Z-24.806 J-0.419 K-0.855
N1035 G1 Y58.019
N1040 G17 G2 X71.83 Y55.162 I-2.857 J0.
N1045 G1 X62.549
N1050 G2 X59.691 Y58.019 I0. J2.857
N1055 G19 G2 Y58.438 Z-24.903 J0. K-0.952
N1060 G3 Y58.858 Z-25. J0.419 K0.855
N1065 G1 Y97.502
N1070 Y97.852 Z-22.212
N1075 Y98.759 Z-9.761
N1080 Y102.498 Z-3.966
N1085 Y108.692 Z-0.241
N1090 Y114.565 Z0.76
N1095 Y228.948 Z-4.681
N1100 Y472.705 Z-15.586
N1105 Y789.883 Z-24.535
N1110 Y1591.639 Z-25.
N1115 Y1641.565 Z-23.999
N1120 Y1726.734 Z-19.186
N1125 Y1796.352 Z-12.576
N1130 Y1835.346 Z-8.422
N1135 Y1847.956 Z-9.163
N1140 Y1856.394 Z-13.177
N1145 Y1860.572 Z-18.168
N1150 Y1862.266 Z-25.
N1155 Y2155.
N1160 G3 Y2155.419 Z-24.903 J0. K0.952
N1165 G2 Y2155.838 Z-24.806 J0.419 K-0.855
N1170 G17 G3 X56.834 Y2158.696 I-2.857 J0.
N1175 G1 X47.552
N1180 G3 X44.695 Y2155.838 I0. J-2.857
N1185 G19 G3 Y2155.419 Z-24.903 J0. K-0.952
N1190 G2 Y2155. Z-25. J-0.419 K0.855
N1195 G1 Y1872.516
N1200 Y1871.228 Z-16.042
N1205 Y1867.19 Z-10.7
N1210 Y1859.848 Z-6.893
N1215 Y1848.43 Z-5.931
N1220 Y1804.326 Z-11.14
N1225 Y1738.392 Z-17.872
N1230 Y1653.224 Z-23.032
N1235 Y1585.677 Z-25.
N1240 Y804.479 Z-24.492
N1245 Y493.174 Z-15.867
N1250 Y293.469 Z-7.485
N1255 Y120.23 Z0.639
N1260 Y115.014 Z-0.926
N1265 Y110.326 Z-4.122
N1270 Y106.954 Z-9.173
N1275 Y106.051 Z-20.528
N1280 Y105.811 Z-25.
N1285 Y-55.
N1290 G2 Y-55.419 Z-24.903 J0. K0.952
N1295 G3 Y-55.838 Z-24.806 J-0.419 K-0.855
N1300 G17 G2 X41.837 Y-58.696 I-2.857 J0.
N1305 G1 X32.556
N1310 G2 X29.699 Y-55.838 I0. J2.858
N1315 G19 G2 Y-55.419 Z-24.903 J0. K-0.952
N1320 G3 Y-55. Z-25. J0.419 K0.855
N1325 G1 Y115.377
N1330 Y115.865 Z-11.855
N1335 Y118.62 Z-5.636
N1340 Y122.821 Z-1.981
N1345 Y131.168 Z0.628
N1350 Y290.491 Z-7.101
N1355 Y498.272 Z-15.781
N1360 Y815.451 Z-24.494
N1365 Y1584.901 Z-25.
N1370 Y1675.943 Z-21.668
N1375 Y1758.341 Z-15.867
N1380 Y1862.399 Z-3.542
N1385 Y1872.304 Z-5.167
N1390 Y1877.967 Z-8.934
N1395 Y1881.507 Z-14.36
N1400 Y1882.32 Z-25.
N1405 Y2155.
N1410 G3 Y2155.419 Z-24.903 J0. K0.952
N1415 G2 Y2155.838 Z-24.806 J0.419 K-0.855
N1420 G17 G3 X26.841 Y2158.696 I-2.858 J0.
N1425 G1 X17.56
N1430 G3 X14.702 Y2155.838 I0. J-2.857
N1435 G19 G3 Y2155.419 Z-24.903 J0. K-0.952
N1440 G2 Y2155. Z-25. J-0.419 K0.855
N1445 G1 Y1892.34
N1450 Y1891.786 Z-12.01
N1455 Y1888.576 Z-6.269
N1460 Y1882.287 Z-2.465
N1465 Y1871.948 Z-1.276
N1470 Y1781.723 Z-13.366
N1475 Y1715.753 Z-19.092
N1480 Y1612.964 Z-24.121
N1485 Y1554.227 Z-25.
N1490 Y822.955 Z-24.485
N1495 Y482.283 Z-15.004
N1500 Y281.109 Z-6.455
N1505 Y141.61 Z0.225
N1510 Y133.661 Z-2.316
N1515 Y129.065 Z-6.29
N1520 Y126.577 Z-11.653
N1525 Y125.966 Z-25.
N1530 Y-55.
N1535 G2 Y-55.419 Z-24.903 J0. K0.952
N1540 G3 Y-55.838 Z-24.806 J-0.419 K-0.855
N1545 G17 G2 X11.845 Y-58.696 I-2.858 J0.
N1550 G1 X2.564
N1555 G2 X-0.294 Y-55.838 I0. J2.858
N1560 G19 G2 Y-55.419 Z-24.903 J0. K-0.952
N1565 G3 Y-55. Z-25. J0.419 K0.855
N1570 G1 Y134.223
N1575 Y134.486 Z-12.872
N1580 Y137.148 Z-5.846
N1585 Y141.611 Z-1.788
N1590 Y147.805 Z0.152
N1595 Y241.784 Z-4.44
N1600 Y479.668 Z-14.856
N1605 Y832.088 Z-24.65
N1610 Y1586.855 Z-24.946
N1615 Y1710.202 Z-19.401
N1620 Y1786.559 Z-12.766
N1625 Y1879.413 Z0.338
N1630 Y1885.752 Z-1.119
N1635 Y1890.685 Z-5.027
N1640 Y1893.622 Z-11.174
N1645 Y1893.938 Z-25.
N1650 Y2155.
N1655 G3 Y2155.419 Z-24.903 J0. K0.952
N1660 G2 Y2155.838 Z-24.806 J0.419 K-0.855
N1665 G17 G3 X-3.151 Y2158.696 I-2.858 J0.
N1670 G1 X-12.433
N1675 G3 X-15.29 Y2155.838 I0. J-2.857
N1680 G19 G3 Y2155.419 Z-24.903 J0. K-0.952
N1685 G2 Y2155. Z-25. J-0.419 K0.855
N1690 G1 Y1892.027
N1695 Y1891.327 Z-11.609
N1700 Y1887.852 Z-6.041
N1705 Y1881.409 Z-2.423
N1710 Y1871.314 Z-1.396
N1715 Y1778.519 Z-13.727
N1720 Y1696.967 Z-20.28
N1725 Y1585.367 Z-25.
N1730 Y824.727 Z-24.531
N1735 Y475.244 Z-14.761
N1740 Y260.855 Z-5.461
N1745 Y144.087 Z0.382
N1750 Y136.894 Z-0.657
N1755 Y131.044 Z-3.822
N1760 Y127.042 Z-8.898
N1765 Y125.845 Z-14.943
N1770 Y125.488 Z-25.
N1775 Y-55.
N1780 G2 Y-55.419 Z-24.903 J0. K0.952
N1785 G3 Y-55.838 Z-24.806 J-0.419 K-0.855
N1790 G17 G2 X-18.148 Y-58.696 I-2.858 J0.
N1795 G1 X-27.429
N1800 G2 X-30.286 Y-55.838 I0. J2.858
N1805 G19 G2 Y-55.419 Z-24.903 J0. K-0.952
N1810 G3 Y-55. Z-25. J0.419 K0.855
N1815 G1 Y114.847
N1820 Y115.417 Z-12.408
N1825 Y117.889 Z-6.099
N1830 Y122.185 Z-2.114
N1835 Y129.384 Z0.472
N1840 Y278.611 Z-6.549
N1845 Y496.671 Z-15.721
N1850 Y818.989 Z-24.587
N1855 Y1588.44 Z-25.
N1860 Y1691.229 Z-20.803
N1865 Y1764.65 Z-15.286
N1870 Y1861.367 Z-3.644
N1875 Y1871.534 Z-5.121
N1880 Y1877.505 Z-8.926
N1885 Y1881.14 Z-14.503
N1890 Y1881.947 Z-25.
N1895 Y2155.
N1900 G3 Y2155.419 Z-24.903 J0. K0.952
N1905 G2 Y2155.838 Z-24.806 J0.419 K-0.855
N1910 G17 G3 X-33.144 Y2158.696 I-2.858 J0.
N1915 G1 X-42.425
N1920 G3 X-45.283 Y2155.838 I0. J-2.857
N1925 G19 G3 Y2155.419 Z-24.903 J0. K-0.952
N1930 G2 Y2155. Z-25. J-0.419 K0.855
N1935 G1 Y1872.144
N1940 Y1870.861 Z-16.265
N1945 Y1867.19 Z-11.142
N1950 Y1859.44 Z-6.99
N1955 Y1849.5 Z-5.99
N1960 Y1835.223 Z-7.228
N1965 Y1755.631 Z-16.417
N1970 Y1667.63 Z-22.35
N1975 Y1594.209 Z-25.
N1980 Y804.201 Z-24.501
N1985 Y498.77 Z-16.081
N1990 Y287.318 Z-7.191
N1995 Y119.901 Z0.649
N2000 Y114.671 Z-0.908
N2005 Y109.979 Z-4.091
N2010 Y106.502 Z-9.478
N2015 Y105.568 Z-25.
N2020 Y-55.
N2025 G2 Y-56.905 Z-23.095 J0. K1.905 F1000.
N2030 G0 Z5.
N2035 X-60.279 Y57.832
N2040 Z-23.095
N2045 G3 Y59.737 Z-25. J1.905 K0. F1000.
N2050 G1 Y97.454 F6000.
N2055 Y97.619 Z-17.314
N2060 Y98.619 Z-9.281
N2065 Y101.22 Z-4.983
N2070 Y105.775 Z-1.386
N2075 Y113.506 Z0.728
N2080 Y289.716 Z-7.74
N2085 Y493.826 Z-16.304
N2090 Y788.978 Z-24.532
N2095 Y1614.229 Z-25.
N2100 Y1711.144 Z-20.315
N2105 Y1785.714 Z-13.791
N2110 Y1835.04 Z-8.499
N2115 Y1847.536 Z-9.272
N2120 Y1855.386 Z-12.862
N2125 Y1860.039 Z-17.97
N2130 Y1861.891 Z-25.
N2135 Y2155.
N2140 G3 Y2155.419 Z-24.903 J0. K0.952
N2145 G2 Y2155.838 Z-24.806 J0.419 K-0.855
N2150 G17 G3 X-63.136 Y2158.696 I-2.857 J0.
N2155 G1 X-72.418
N2160 G3 X-75.275 Y2155.838 I0. J-2.857
N2165 G1 Y2155.447
N2170 G19 G3 Y2155.028 Z-24.903 J0. K-0.952
N2175 G2 Y2154.607 Z-25. J-0.419 K0.855
N2180 G1 Y1850.28 Z-24.696
N2185 Y1847.316 Z-18.507
N2190 Y1840.601 Z-13.605
N2195 Y1829.933 Z-11.198
N2200 Y1808.607 Z-12.103
N2205 Y1712.475 Z-20.81
N2210 Y1627.398 Z-25.
N2215 Y766.906 Z-24.526
N2220 Y479.096 Z-16.36
N2225 Y255.896 Z-6.571
N2230 Y106.118 Z0.283
N2235 Y100.598 Z-0.967
N2240 Y95.049 Z-4.722
N2245 Y91.99 Z-9.638
N2250 Y91.064 Z-17.359
N2255 Y90.863 Z-25.
N2260 Y66.591
N2265 G2 Y66.172 Z-24.903 J0. K0.952
N2270 G3 Y65.753 Z-24.806 J-0.419 K-0.855
N2275 G17 G2 X-78.133 Y62.895 I-2.858 J0.
N2280 G1 X-87.414
N2285 G2 X-90.271 Y65.753 I0. J2.858
N2290 G1 Y65.796
N2295 G19 G2 Y66.215 Z-24.903 J0. K-0.952
N2300 G3 Y66.634 Z-25. J0.419 K0.855
N2305 G1 Y86.939
N2310 Y87.403 Z-12.522
N2315 Y90.756 Z-5.902
N2320 Y95.525 Z-2.277
N2325 Y102.236 Z-0.748
N2330 Y227.051 Z-5.86
N2335 Y467.872 Z-16.641
N2340 Y738.061 Z-24.528
N2345 Y1639.669 Z-25.
N2350 Y1689.595 Z-23.034
N2355 Y1777.7 Z-16.242
N2360 Y1811.973 Z-13.88
N2365 Y1824.762 Z-15.552
N2370 Y1832.526 Z-19.346
N2375 Y1836.942 Z-24.802
N2380 Y1886.799 Z-25.
N2385 G3 Y1887.222 Z-24.903 J0.004 K0.952
N2390 G2 Y1887.641 Z-24.806 J0.419 K-0.855
N2395 G17 G3 X-93.129 Y1890.499 I-2.858 J0.
N2400 G1 X-102.41
N2405 G3 X-105.268 Y1887.641 I0. J-2.858
N2410 G1 Y1872.124
N2415 G19 G3 Y1871.705 Z-24.903 J0. K-0.952
N2420 G2 Y1871.281 Z-25. J-0.419 K0.855
N2425 G1 Y1820.759 Z-24.781
N2430 Y1813.848 Z-20.008
N2435 Y1801.16 Z-17.186
N2440 Y1776.9 Z-17.687
N2445 Y1674.147 Z-24.911
N2450 Y704.991 Z-24.525
N2455 Y443.613 Z-16.546
N2460 Y141.119 Z-3.408
N2465 Y101.281 Z-3.431
N2470 Y94.356 Z-5.331
N2475 Y90.06 Z-9.031
N2480 Y87.117 Z-15.696
N2485 Y86.554 Z-25.
N2490 Y66.634
N2495 G2 Y66.215 Z-24.903 J0. K0.952
N2500 G3 Y65.796 Z-24.806 J-0.419 K-0.855
N2505 G17 G2 X-108.125 Y62.939 I-2.858 J0.
N2510 G1 X-117.406
N2515 G2 X-120.264 Y65.796 I0. J2.858
N2520 G1 Y66.242
N2525 G19 G2 Y66.661 Z-24.903 J0. K-0.952
N2530 G3 Y67.088 Z-25. J0.419 K0.855
N2535 G1 Y96.768 Z-24.78
N2540 Y99.437 Z-17.984
N2545 Y106.584 Z-12.712
N2550 Y117.698 Z-8.946
N2555 Y135.479 Z-6.422
N2560 Y173.128 Z-6.098
N2565 Y425.696 Z-16.874
N2570 Y666.517 Z-24.529
N2575 Y1688.535 Z-25.
N2580 Y1772.322 Z-20.282
N2585 Y1790.061 Z-21.497
N2590 Y1800.452 Z-24.94
N2595 Y1854.395 Z-25.
N2600 G3 Y1854.815 Z-24.903 J0.001 K0.952
N2605 G2 Y1855.234 Z-24.806 J0.419 K-0.855
N2610 G17 G3 X-123.121 Y1858.092 I-2.857 J0.
N2615 G1 X-132.403
N2620 G3 X-135.26 Y1855.234 I0. J-2.858
N2625 G1 Y1836.5
N2630 G19 G3 Y1836.08 Z-24.903 J0. K-0.952
N2635 G2 Y1835.656 Z-25. J-0.419 K0.855
N2640 G1 Y1766.895 Z-24.636
N2645 Y1744.905 Z-24.002
N2650 Y1710.467 Z-25.
N2655 Y620.902 Z-24.497
N2660 Y374.207 Z-15.925
N2665 Y212.681 Z-9.319
N2670 Y177.439 Z-9.435
N2675 Y156.381 Z-11.81
N2680 Y142.712 Z-15.945
N2685 Y134.439 Z-21.971
N2690 Y132.386 Z-25.
N2695 Y89.893
N2700 G17 G2 X-138.118 Y87.035 I-2.857 J0.
N2705 G1 X-147.399
N2710 G2 X-150.256 Y89.893 I0. J2.857
N2715 G1 Y118.836
N2720 Y173.172
N2725 Y178.447 Z-21.743
N2730 Y190.674 Z-16.823
N2735 Y208.404 Z-13.861
N2740 Y242.37 Z-12.673
N2745 Y361.312 Z-16.877
N2750 Y575.701 Z-24.527
N2755 Y1815.046 Z-25.
N2760 G19 G3 Y1815.465 Z-24.903 J0. K0.952
N2765 G2 Y1815.884 Z-24.806 J0.419 K-0.855
N2770 G17 G3 X-153.114 Y1818.742 I-2.857 J0.
N2775 G1 X-162.395
N2780 G3 X-165.253 Y1815.884 I0. J-2.858
N2785 G1 Y1792.7
N2790 G19 G3 Y1792.281 Z-24.903 J0. K-0.952
N2795 G2 Y1791.861 Z-25. J-0.419 K0.855
N2800 G1 Y523.148 Z-24.553
N2805 Y292.607 Z-16.842
N2810 Y259.881 Z-17.736
N2815 Y241.514 Z-19.656
N2820 Y229.312 Z-22.567
N2825 Y222.524 Z-25.
N2830 Y152.671
N2835 G2 Y150.766 Z-23.095 J0. K1.905 F1000.
N2840 G0 Z5.
N2845 X-180.249 Y189.757
N2850 Z-23.095
N2855 G3 Y191.662 Z-25. J1.905 K0. F1000.
N2860 G1 Y282.672 F6000.
N2865 Y304.901 Z-22.679
N2870 Y342.78 Z-21.614
N2875 Y456.085 Z-24.499
N2880 Y1765.913 Z-25.
N2885 G17 G3 X-183.106 Y1768.771 I-2.857 J0.
N2890 G1 X-192.388
N2895 G3 X-195.245 Y1765.913 I0. J-2.858
N2900 G1 Y1736.611
N2905 Y235.667
N2910 G19 G2 Y233.762 Z-23.095 J0. K1.905 F1000.
N2915 G0 Z5.
N2920 X-210.241 Y283.849
N2925 Z-23.095
N2930 G3 Y285.754 Z-25. J1.905 K0. F1000.
N2935 G1 Y1703.372 F6000.
N2940 G3 Y1705.277 Z-23.095 J0. K1.905 F1000.
N2945 G0 Z5.
N2950 X-225.238 Y1667.472
N2955 Z-23.095
N2960 G2 Y1665.567 Z-25. J-1.905 K0. F1000.
N2965 G1 Y344.803 F6000.
N2970 G2 Y342.898 Z-23.095 J0. K1.905 F1000.
N2975 G0 Z5.
N2980 X-240.234 Y414.326
N2985 Z-23.095
N2990 G3 Y416.231 Z-25. J1.905 K0. F1000.
N2995 G1 Y1622.581 F6000.
N3000 G3 Y1624.486 Z-23.095 J0. K1.905 F1000.
N3005 G0 Z5.
N3010 X-255.23 Y1574.93
N3015 Z-23.095
N3020 G2 Y1573.025 Z-25. J-1.905 K0. F1000.
N3025 G1 Y503.468 F6000.
N3030 G2 Y501.563 Z-23.095 J0. K1.905 F1000.
N3035 G0 Z5.
N3040 X-270.226 Y608.635
N3045 Z-23.095
N3050 G3 Y610.54 Z-25. J1.905 K0. F1000.
N3055 G1 Y1512.898 F6000.
N3060 G3 Y1514.803 Z-23.095 J0. K1.905 F1000.
N3065 G0 Z5.
N3070 X-285.223 Y1426.925
N3075 Z-23.095
N3080 G2 Y1425.02 Z-25. J-1.905 K0. F1000.
N3085 G1 Y752.192 F6000.
N3090 G2 Y750.287 Z-23.095 J0. K1.905 F1000.
N3095 G0 Z15.
N3100 G17
(PARALLEL1 2)
N3105 G0 X297.16 Y1407.498
N3110 Z15.
N3115 Z-48.095
N3120 G19 G2 Y1405.593 Z-50. J-1.905 K0. F1000.
N3125 G1 Y781.659 F6000.
N3130 G2 Y779.754 Z-48.095 J0. K1.905 F1000.
N3135 G0 Z5.
N3140 X282.163 Y627.773
N3145 Z-48.095
N3150 G3 Y629.678 Z-50. J1.905 K0. F1000.
N3155 G1 Y1502.548 F6000.
N3160 G3 Y1504.453 Z-48.095 J0. K1.905 F1000.
N3165 G0 Z5.
N3170 X267.167 Y1567.425
N3175 Z-48.095
N3180 G2 Y1565.52 Z-50. J-1.905 K0. F1000.
N3185 G1 Y518.519 F6000.
N3190 G2 Y516.614 Z-48.095 J0. K1.905 F1000.
N3195 G0 Z5.
N3200 X252.17 Y426.354
N3205 Z-48.095
N3210 G3 Y428.259 Z-50. J1.905 K0. F1000.
N3215 G1 Y1616.548 F6000.
N3220 G3 Y1618.453 Z-48.095 J0. K1.905 F1000.
N3225 G0 Z5.
N3230 X237.174 Y1662.628
N3235 Z-48.095
N3240 G2 Y1660.721 Z-50. J-1.905 K0. F1000.
N3245 G1 Y1158.467 Z-49.441 F6000.
N3250 Y716.177 Z-44.041
N3255 Y618.404 Z-44.791
N3260 Y575.345 Z-47.244
N3265 Y550.778 Z-49.532
N3270 Y354.23 Z-50.
N3275 G2 Y353.808 Z-49.903 J-0.002 K0.952
N3280 G3 Y353.389 Z-49.806 J-0.419 K-0.855
N3285 G1 Y337.856
N3290 G17 G2 X234.317 Y334.998 I-2.857 J0.
N3295 G1 X225.035
N3300 G2 X222.178 Y337.856 I0. J2.858
N3305 G19 G2 Y338.275 Z-49.903 J0. K-0.953
N3310 G3 Y338.694 Z-50. J0.419 K0.855
N3315 G1 Y435.971
N3320 Y448.486 Z-46.105
N3325 Y470.208 Z-42.148
N3330 Y513.433 Z-38.859
N3335 Y591.877 Z-37.955
N3340 Y1059.297 Z-45.349
N3345 Y1433.994 Z-47.69
N3350 Y1518.224 Z-49.687
N3355 Y1699.526 Z-50.
N3360 G3 Y1701.434 Z-48.095 J0.003 K1.905 F1000.
N3365 G0 Z5.
N3370 X207.181 Y1735.608
N3375 Z-48.095
N3380 G2 Y1733.698 Z-50. J-1.905 K0. F1000.
N3385 G1 Y1618.942 Z-49.683 F6000.
N3390 Y1598.813 Z-46.951
N3395 Y1568.423 Z-44.849
N3400 Y1491.906 Z-44.102
N3405 Y1196.05 Z-44.105
N3410 Y943.927 Z-40.838
N3415 Y487.839 Z-32.302
N3420 Y426.993 Z-33.184
N3425 Y390.368 Z-36.704
N3430 Y373.777 Z-40.863
N3435 Y364.457 Z-45.021
N3440 Y361.281 Z-48.696
N3445 Y360.223 Z-50.
N3450 Y343.396
N3455 X211.538 Y335.139
N3460 X211.644 Y334.937 Z-49.981
N3465 X215.575 Y327.485 Z-49.075
N3470 X215.681 Y327.284 Z-49.053
N3475 X217.381 Y324.061 Z-48.915
N3480 X219.081 Y320.838 Z-49.222
N3485 X219.188 Y320.637 Z-49.257
N3490 X219.294 Y320.436 Z-49.294
N3495 X219.506 Y320.033 Z-49.376
N3500 X219.931 Y319.227 Z-49.568
N3505 X220.356 Y318.422 Z-49.798
N3510 X220.525 Y318.102 Z-49.902
N3515 X220.681 Y317.807 Z-50.
N3520 X222.178 Y314.969
N3525 Y293.28
N3530 G2 Y291.375 Z-48.095 J0. K1.905 F1000.
N3535 G0 Z5.
N3540 X192.185 Y301.105
N3545 Z-36.128
N3550 G1 Z-44.474 F1000.
N3555 G3 Y301.92 Z-44.645 J0.425 K0.
N3560 G1 Y302.847 Z-42.534 F6000.
N3565 Y305.363 Z-39.235
N3570 Y309.929 Z-36.321
N3575 Y326.142 Z-31.157
N3580 Y356.772 Z-27.67
N3585 Y403.506 Z-26.809
N3590 Y577.726 Z-30.84
N3595 Y1019.65 Z-40.033
N3600 Y1275.646 Z-42.225
N3605 Y1526.447 Z-40.769
N3610 Y1603.394 Z-40.473
N3615 Y1647.367 Z-42.266
N3620 Y1669.34 Z-45.815
N3625 Y1678.825 Z-49.71
N3630 Y1729.817 Z-50.
N3635 G3 Y1730.241 Z-49.903 J0.005 K0.952
N3640 G2 Y1730.66 Z-49.806 J0.419 K-0.855
N3645 G1 Y1730.662
N3650 G17 G3 X189.327 Y1733.52 I-2.857 J0.
N3655 G1 X180.046
N3660 G3 X177.188 Y1730.662 I0. J-2.858
N3665 G19 G3 Y1730.243 Z-49.903 J0. K-0.953
N3670 G2 Y1729.802 Z-50. J-0.419 K0.855
N3675 G1 Y1720.012 Z-49.775
N3680 Y1715.041 Z-44.988
N3685 Y1705.63 Z-40.62
N3690 Y1688.734 Z-37.576
N3695 Y1649.353 Z-36.466
N3700 Y1343.894 Z-40.207
N3705 Y1126.739 Z-39.644
N3710 Y746.43 Z-32.793
N3715 Y449.689 Z-24.788
N3720 Y333.543 Z-21.644
N3725 Y301.271 Z-22.418
N3730 Y274.633 Z-25.596
N3735 Y260.824 Z-30.212
N3740 Y254.307 Z-34.269
N3745 Y252.247 Z-37.539
N3750 G2 Y250.202 Z-36.948 J-0.937 K0.59 F1000.
N3755 G0 Z5.
N3760 X162.192 Y204.536
N3765 Z-27.275
N3770 G1 Z-29.81 F1000.
N3775 G3 Y207.688 Z-31.25 J1.905 K0.
N3780 G1 Y213.72 Z-26.031 F6000.
N3785 Y226.159 Z-21.26
N3790 Y248.825 Z-17.996
N3795 Y280.701 Z-17.011
N3800 Y396.848 Z-20.735
N3805 Y626.308 Z-28.169
N3810 Y1037.071 Z-36.931
N3815 Y1275.66 Z-38.77
N3820 Y1501.673 Z-36.607
N3825 Y1685.808 Z-32.296
N3830 Y1718.189 Z-32.722
N3835 Y1735.878 Z-35.972
N3840 Y1742.578 Z-39.306
N3845 Y1747.484 Z-43.717
N3850 Y1748.725 Z-46.111
N3855 G3 Y1749.695 Z-45.875 J0.456 K0.236 F1000.
N3860 G0 Z5.
N3865 X147.196 Y1774.232
N3870 Z-37.616
N3875 G1 Z-40.112 F1000.
N3880 G2 Y1772.185 Z-40.853 J-1.158 K0.
N3885 G1 Y1767.667 Z-35.426 F6000.
N3890 Y1759.445 Z-31.204
N3895 Y1744.015 Z-28.389
N3900 Y1716.775 Z-28.258
N3905 Y1597.796 Z-32.768
N3910 Y1362.67 Z-36.947
N3915 Y1143.747 Z-36.921
N3920 Y846.298 Z-31.82
N3925 Y520.521 Z-23.555
N3930 Y236.529 Z-12.948
N3935 Y205.472 Z-13.792
N3940 Y185.406 Z-16.589
N3945 Y175.81 Z-19.858
N3950 Y168.325 Z-24.638
N3955 Y167.272 Z-25.792
N3960 G2 Y164.894 Z-24.87 J-1.01 K0.922 F1000.
N3965 G0 Z5.
N3970 X132.199 Y126.802
N3975 Z-18.461
N3980 G1 Z-19.76 F1000.
N3985 G3 Y129.802 Z-21.318 J1.905 K0.
N3990 G1 Y137.725 Z-15.753 F6000.
N3995 Y150.284 Z-12.212
N4000 Y166.43 Z-9.97
N4005 Y203.257 Z-9.595
N4010 Y370.395 Z-16.48
N4015 Y574.359 Z-23.936
N4020 Y956.793 Z-32.905
N4025 Y1186.253 Z-36.101
N4030 Y1398.114 Z-35.299
N4035 Y1626.158 Z-30.292
N4040 Y1716.809 Z-25.926
N4045 Y1761.339 Z-24.195
N4050 Y1778.03 Z-26.262
N4055 Y1786.542 Z-29.844
N4060 Y1792.142 Z-36.042
N4065 G3 Y1794.073 Z-35.299 J0.822 K0.743 F1000.
N4070 G0 Z5.
N4075 X117.203 Y1811.568
N4080 Z-29.579
N4085 G1 Z-30.697 F1000.
N4090 G2 Y1809.437 Z-31.532 J-1.229 K0.
N4095 G1 Y1804.127 Z-25.795 F6000.
N4100 Y1795.129 Z-22.215
N4105 Y1779.745 Z-20.614
N4110 Y1722.38 Z-23.927
N4115 Y1617.564 Z-29.235
N4120 Y1390.937 Z-34.319
N4125 Y1203.258 Z-35.193
N4130 Y982.296 Z-32.416
N4135 Y588.531 Z-23.17
N4140 Y381.733 Z-15.8
N4145 Y167.854 Z-6.555
N4150 Y129.079 Z-6.799
N4155 Y110.122 Z-9.588
N4160 Y99.265 Z-14.183
N4165 Y94.77 Z-18.302
N4170 Y94.046 Z-19.819
N4175 G2 Y92.227 Z-19.407 J-0.863 K0.412 F1000.
N4180 G0 Z5.
N4185 X102.206 Y85.378
N4190 Z-18.072
N4195 G3 Y87.659 Z-19.94 J1.905 K0. F1000.
N4200 G1 Y87.694 Z-17.432 F6000.
N4205 Y89.635 Z-10.41
N4210 Y93.879 Z-5.826
N4215 Y99.549 Z-3.707
N4220 Y136.703 Z-3.94
N4225 Y350.583 Z-13.45
N4230 Y568.712 Z-21.628
N4235 Y917.152 Z-30.171
N4240 Y1160.776 Z-34.107
N4245 Y1344.592 Z-33.958
N4250 Y1551.39 Z-30.029
N4255 Y1673.202 Z-25.728
N4260 Y1793.909 Z-17.336
N4265 Y1810.022 Z-18.42
N4270 Y1817.694 Z-21.061
N4275 Y1820.736 Z-23.048
N4280 Y1824.566 Z-27.737
N4285 G3 Y1826.354 Z-27.099 J0.78 K0.637 F1000.
N4290 G0 Z5.
N4295 X87.21 Y1840.601
N4300 Z-23.237
N4305 G1 Z-23.941 F1000.
N4310 G2 Y1838.416 Z-24.725 J-1.233 K0.
N4315 G1 Y1834.039 Z-19.401 F6000.
N4320 Y1826.817 Z-15.843
N4325 Y1823.609 Z-15.078
N4330 Y1814.443 Z-14.341
N4335 Y1778.43 Z-16.952
N4340 Y1689.904 Z-23.863
N4345 Y1588.63 Z-28.065
N4350 Y1376.167 Z-32.863
N4355 Y1172.104 Z-33.534
N4360 Y945.476 Z-30.083
N4365 Y585.705 Z-21.313
N4370 Y359.078 Z-13.051
N4375 Y109.787 Z-1.671
N4380 Y98.996 Z-1.99
N4385 Y92.828 Z-5.526
N4390 Y89.724 Z-10.09
N4395 Y88.615 Z-18.13
N4400 Y88.592 Z-19.938
N4405 X83.381 Y89.51 Z-19.899
N4410 X79.612 Y90.622 Z-19.859
N4415 X75.889 Y91.88 Z-19.819
N4420 X72.214 Y93.291 Z-19.78
N4425 Y93.368 Z-14.711
N4430 Y95.08 Z-8.032
N4435 Y99.77 Z-3.078
N4440 Y106.959 Z-0.607
N4445 Y356.249 Z-12.252
N4450 Y582.876 Z-20.594
N4455 Y1027.633 Z-31.188
N4460 Y1241.081 Z-33.162
N4465 Y1418.674 Z-31.592
N4470 Y1625.472 Z-26.122
N4475 Y1718.956 Z-21.245
N4480 Y1792.325 Z-14.598
N4485 Y1826. Z-11.512
N4490 Y1838.705 Z-12.712
N4495 Y1846.5 Z-16.494
N4500 Y1850.933 Z-22.582
N4505 G3 Y1853.258 Z-21.825 J1.04 K0.757 F1000.
N4510 G0 Z5.
N4515 X57.217 Y1863.316
N4520 Z-16.794
N4525 G1 Z-20.996 F1000.
N4530 G2 Y1862.314 Z-21.199 J-0.521 K0.
N4535 G1 Y1860.446 Z-16.775 F6000.
N4540 Y1856.252 Z-12.66
N4545 Y1847.735 Z-9.397
N4550 Y1832.606 Z-9.344
N4555 Y1746.816 Z-18.497
N4560 Y1658.998 Z-24.163
N4565 Y1480.529 Z-29.827
N4570 Y1282.407 Z-32.62
N4575 Y1072.963 Z-31.502
N4580 Y642.371 Z-21.76
N4585 Y401.579 Z-13.763
N4590 Y114.243 Z-0.284
N4595 Y107.612 Z-2.396
N4600 Y103.286 Z-6.103
N4605 Y100.655 Z-12.198
N4610 Y100.249 Z-19.925
N4615 G2 Y97.969 Z-18.057 J-0.375 K1.868 F1000.
N4620 G0 Z5.
N4625 X42.221 Y106.491
N4630 Z-13.693
N4635 G1 Z-18.114 F1000.
N4640 G3 Y108.752 Z-19.985 J1.905 K0.
N4645 G1 Y108.964 Z-12.399 F6000.
N4650 Y111.128 Z-6.754
N4655 Y116.669 Z-2.058
N4660 Y123.239 Z-0.209
N4665 Y325.602 Z-10.003
N4670 Y540.898 Z-18.395
N4675 Y920.499 Z-28.111
N4680 Y1152.792 Z-32.07
N4685 Y1353.856 Z-31.695
N4690 Y1559.237 Z-27.255
N4695 Y1681.049 Z-22.605
N4700 Y1758.952 Z-17.043
N4705 Y1842.407 Z-7.257
N4710 Y1857.231 Z-6.749
N4715 Y1865.026 Z-9.08
N4720 Y1870.891 Z-14.399
N4725 Y1872.788 Z-19.86
N4730 G3 Y1873.688 Z-20.5 J0.9 K0.312
N4735 G1 Y1883.621
N4740 X42.081 Y1884.504 Z-20.49
N4745 X41.677 Y1885.301 Z-20.46
N4750 X41.046 Y1885.933 Z-20.413
N4755 X40.252 Y1886.339 Z-20.353
N4760 X39.371 Y1886.479 Z-20.287
N4765 X30.074 Z-19.592
N4770 X29.193 Y1886.339 Z-19.527
N4775 X28.399 Y1885.933 Z-19.467
N4780 X27.769 Y1885.301 Z-19.42
N4785 X27.364 Y1884.504 Z-19.39
N4790 X27.224 Y1883.621 Z-19.38
N4795 G2 Y1882.696 Z-18.651 J0. K0.952
N4800 G1 Y1881.18 Z-12.388
N4805 Y1876.738 Z-7.497
N4810 Y1870.231 Z-4.779
N4815 Y1858.671 Z-4.511
N4820 Y1769.819 Z-15.748
N4825 Y1686.516 Z-22.043
N4830 Y1554.523 Z-27.139
N4835 Y1376.054 Z-31.188
N4840 Y1184.885 Z-31.947
N4845 Y983.754 Z-29.269
N4850 Y572.991 Z-19.126
N4855 Y357.695 Z-11.239
N4860 Y133.901 Z-0.361
N4865 Y126.668 Z-2.152
N4870 Y122.159 Z-5.292
N4875 Y118.951 Z-10.623
N4880 Y118.427 Z-20.391
N4885 G2 Y116.226 Z-18.509 J-0.296 K1.882 F1000.
N4890 G0 Z5.
N4895 X12.228 Y127.146
N4900 Z-11.555
N4905 G1 Z-19.4 F1000.
N4910 G3 Y129.247 Z-21.295 J1.905 K0.
N4915 G1 Y129.333 Z-14.758 F6000.
N4920 Y130.89 Z-8.403
N4925 Y136.022 Z-3.339
N4930 Y143.936 Z-0.828
N4935 Y377.345 Z-11.904
N4940 Y586.975 Z-19.334
N4945 Y997.737 Z-29.415
N4950 Y1198.869 Z-31.872
N4955 Y1390.183 Z-30.823
N4960 Y1608.312 Z-25.27
N4965 Y1721.625 Z-19.67
N4970 Y1786.781 Z-13.786
N4975 Y1870.968 Z-2.164
N4980 Y1881.697 Z-2.414
N4985 Y1887.788 Z-5.453
N4990 Y1891.449 Z-10.928
N4995 Y1892.272 Z-20.
N5000 X8.5 Y1892.91
N5005 X4.744 Y1892.935
N5010 X0.988 Y1892.937
N5015 X-2.768 Y1892.951
N5020 Y1892.511 Z-10.913
N5025 Y1890.386 Z-6.37
N5030 Y1885.444 Z-2.165
N5035 Y1878.592 Z-0.769
N5040 Y1786.606 Z-13.768
N5045 Y1710.119 Z-20.411
N5050 Y1585.474 Z-25.992
N5055 Y1395.673 Z-30.704
N5060 Y1198.614 Z-31.881
N5065 Y988.983 Z-29.198
N5070 Y564.057 Z-18.612
N5075 Y331.764 Z-9.827
N5080 Y146.816 Z-0.973
N5085 Y140.647 Z-3.645
N5090 Y136.386 Z-9.292
N5095 Y135.379 Z-16.462
N5100 Y135.303 Z-21.953
N5105 G2 Y133.222 Z-20.057 J-0.176 K1.897 F1000.
N5110 G0 Z5.
N5115 X-17.765 Y122.994
N5120 Z-12.316
N5125 G1 Z-18.983 F1000.
N5130 G3 Y125.143 Z-20.872 J1.905 K0.
N5135 G1 Y125.604 Z-11.63 F6000.
N5140 Y128.178 Z-6.411
N5145 Y132.542 Z-2.854
N5150 Y138.965 Z-0.738
N5155 Y342.692 Z-10.425
N5160 Y580.65 Z-19.189
N5165 Y994.246 Z-29.382
N5170 Y1198.21 Z-31.909
N5175 Y1390.013 Z-30.863
N5180 Y1608.142 Z-25.324
N5185 Y1710.125 Z-20.499
N5190 Y1777.915 Z-14.818
N5195 Y1865.476 Z-3.133
N5200 Y1876.608 Z-3.203
N5205 Y1883.642 Z-6.045
N5210 Y1888.2 Z-11.694
N5215 Y1889.146 Z-20.
N5220 G3 Y1891.424 Z-18.132 J0.374 K1.868 F1000.
N5225 G0 Z5.
N5230 X-32.761 Y1880.108
N5235 Z-13.183
N5240 G1 Z-19.837 F1000.
N5245 G2 Y1879.09 Z-19.951 J-0.515 K0.
N5250 G1 Y1877.639 Z-13.597 F6000.
N5255 Y1872.638 Z-8.212
N5260 Y1865.197 Z-5.443
N5265 Y1852.512 Z-5.537
N5270 Y1763.288 Z-16.451
N5275 Y1686.801 Z-22.117
N5280 Y1562.156 Z-27.005
N5285 Y1369.522 Z-31.361
N5290 Y1202.28 Z-32.12
N5295 Y1023.81 Z-30.19
N5300 Y601.717 Z-20.06
N5305 Y363.758 Z-11.586
N5310 Y128.184 Z-0.406
N5315 Y122.726 Z-2.101
N5320 Y117.185 Z-6.797
N5325 Y115.021 Z-12.442
N5330 Y114.763 Z-20.315
N5335 G2 Y112.549 Z-18.435 J-0.308 K1.88 F1000.
N5340 G0 Z5.
N5345 X-47.758 Y103.225
N5350 Z-16.51
N5355 G1 Z-18.128 F1000.
N5360 G3 Y105.476 Z-20.002 J1.905 K0.
N5365 G1 Y105.639 Z-12.894 F6000.
N5370 Y107.61 Z-6.987
N5375 Y111.706 Z-2.843
N5380 Y119.202 Z-0.234
N5385 Y317.501 Z-9.719
N5390 Y521.465 Z-17.894
N5395 Y844.409 Z-26.487
N5400 Y1127.694 Z-31.935
N5405 Y1327.116 Z-32.092
N5410 Y1525.415 Z-28.386
N5415 Y1675.555 Z-23.029
N5420 Y1754.875 Z-17.557
N5425 Y1839.856 Z-7.898
N5430 Y1853.843 Z-7.726
N5435 Y1861.635 Z-10.304
N5440 Y1866.963 Z-15.06
N5445 Y1868.97 Z-20.401
N5450 G3 Y1870.965 Z-20.038 J0.964 K0.362 F1000.
N5455 G0 Z5.
N5460 X-62.754 Y1859.645
N5465 Z-18.294
N5470 G1 Z-21.283 F1000.
N5475 G2 Y1858.254 Z-21.632 J-0.74 K0.
N5480 G1 Y1855.515 Z-16.517 F6000.
N5485 Y1848.62 Z-11.833
N5490 Y1838.589 Z-9.861
N5495 Y1811.639 Z-11.942
N5500 Y1736.348 Z-19.551
N5505 Y1654.195 Z-24.563
N5510 Y1467.227 Z-30.299
N5515 Y1279.572 Z-32.772
N5520 Y1072.961 Z-31.663
N5525 Y619.706 Z-21.323
N5530 Y381.747 Z-13.072
N5535 Y112.627 Z-0.305
N5540 Y107.254 Z-1.301
N5545 Y102.339 Z-4.111
N5550 Y98.586 Z-9.095
N5555 Y97.536 Z-14.217
N5560 Y97.469 Z-19.35
N5565 X-66.439 Y95.754 Z-19.496
N5570 X-70.167 Y94.141 Z-19.642
N5575 X-73.926 Y92.603 Z-19.788
N5580 X-77.75 Y91.222 Z-19.934
N5585 Y91.951 Z-10.535
N5590 Y94.978 Z-5.484
N5595 Y98.736 Z-2.598
N5600 Y105.745 Z-0.811
N5605 Y370.418 Z-13.117
N5610 Y599.879 Z-21.326
N5615 Y1013.474 Z-31.097
N5620 Y1228.746 Z-33.338
N5625 Y1406.313 Z-32.031
N5630 Y1604.612 Z-27.084
N5635 Y1708.011 Z-22.233
N5640 Y1822.021 Z-12.492
N5645 Y1834.529 Z-13.872
N5650 Y1842.098 Z-17.616
N5655 Y1846.494 Z-23.376
N5660 G3 Y1848.708 Z-22.628 J0.98 K0.748 F1000.
N5665 G0 Z5.
N5670 X-92.747 Y1835.264
N5675 Z-23.52
N5680 G1 Z-25.162 F1000.
N5685 G2 Y1833.48 Z-25.803 J-1.007 K0.
N5690 G1 Y1829.068 Z-20.462 F6000.
N5695 Y1820.823 Z-16.764
N5700 Y1807.616 Z-15.358
N5705 Y1780.899 Z-17.129
N5710 Y1695.914 Z-23.799
N5715 Y1596.764 Z-28.164
N5720 Y1395.632 Z-32.839
N5725 Y1191.931 Z-33.875
N5730 Y973.802 Z-30.931
N5735 Y563.039 Z-20.933
N5740 Y344.91 Z-12.651
N5745 Y118.283 Z-2.466
N5750 Y98.029 Z-2.511
N5755 Y92.126 Z-5.795
N5760 Y88.377 Z-11.736
N5765 Y87.697 Z-19.94
N5770 X-96.498 Y87.662 Z-19.816
N5775 X-103.998 Y87.664 Z-19.568
N5780 X-107.743 Y87.953 Z-19.443
N5785 Y88.443 Z-16.426
N5790 Y91.501 Z-10.192
N5795 Y96.429 Z-6.504
N5800 Y110.157 Z-4.799
N5805 Y147.32 Z-4.851
N5810 Y376.072 Z-14.93
N5815 Y616.864 Z-23.386
N5820 Y1072.951 Z-33.49
N5825 Y1288.058 Z-34.63
N5830 Y1490.952 Z-31.9
N5835 Y1658.09 Z-26.901
N5840 Y1789.198 Z-18.494
N5845 Y1805.251 Z-19.841
N5850 Y1814.24 Z-23.551
N5855 Y1819.155 Z-28.986
N5860 G3 Y1821.611 Z-28.04 J1.046 K0.946 F1000.
N5865 G0 Z5.
N5870 X-122.74 Y1805.133
N5875 Z-30.374
N5880 G1 Z-32.514 F1000.
N5885 G2 Y1803.338 Z-33.211 J-1.032 K0.
N5890 G1 Y1798.258 Z-27.651 F6000.
N5895 Y1790.006 Z-23.892
N5900 Y1774.331 Z-21.902
N5905 Y1727.412 Z-24.157
N5910 Y1633.928 Z-29.108
N5915 Y1432.797 Z-34.101
N5920 Y1224.097 Z-35.564
N5925 Y1000.657 Z-33.113
N5930 Y581.396 Z-23.357
N5935 Y363.267 Z-15.38
N5940 Y179.132 Z-7.611
N5945 Y140.61 Z-8.022
N5950 Y121.091 Z-11.346
N5955 Y113.213 Z-14.597
N5960 Y107.426 Z-19.089
N5965 Y106.643 Z-20.156
N5970 G2 Y104.224 Z-19.364 J-1.08 K0.792 F1000.
N5975 G0 Z5.
N5980 X-137.736 Y140.302
N5985 Z-19.769
N5990 G1 Z-21.489 F1000.
N5995 G3 Y143.429 Z-22.726 J1.809 K0.
N6000 G1 Y144.285 Z-21.814 F6000.
N6005 Y152.941 Z-16.625
N6010 Y158.026 Z-14.874
N6015 Y177.93 Z-11.535
N6020 Y211.75 Z-10.735
N6025 Y347.727 Z-15.956
N6030 Y557.357 Z-23.863
N6035 Y956.788 Z-33.316
N6040 Y1186.248 Z-36.5
N6045 Y1380.859 Z-35.961
N6050 Y1615.985 Z-31.208
N6055 Y1717.967 Z-26.626
N6060 Y1754.888 Z-25.699
N6065 Y1770.675 Z-27.767
N6070 Y1779.528 Z-31.669
N6075 Y1785.159 Z-37.803
N6080 G3 Y1787.199 Z-37.008 J0.865 K0.795 F1000.
N6085 G0 Z5.
N6090 X-152.732 Y1765.737
N6095 Z-38.719
N6100 G1 Z-42.304 F1000.
N6105 G2 Y1764.037 Z-42.892 J-0.952 K0.
N6110 G1 Y1759.787 Z-37.49 F6000.
N6115 Y1751.802 Z-33.047
N6120 Y1735.01 Z-29.957
N6125 Y1709.39 Z-29.661
N6130 Y1585.156 Z-33.663
N6135 Y1374.109 Z-37.357
N6140 Y1152.239 Z-37.482
N6145 Y874.62 Z-32.916
N6150 Y543.177 Z-24.846
N6155 Y252.811 Z-14.36
N6160 Y220.955 Z-15.25
N6165 Y200.102 Z-18.24
N6170 Y190.518 Z-21.511
N6175 Y182.747 Z-26.575
N6180 Y181.846 Z-27.645
N6185 G2 Y179.485 Z-26.783 J-1.023 K0.862 F1000.
N6190 G0 Z5.
N6195 X-167.729 Y221.066
N6200 Z-28.668
N6205 G1 Z-32.54 F1000.
N6210 G3 Y223.655 Z-33.407 J1.44 K0.
N6215 G1 Y225.508 Z-30.952 F6000.
N6220 Y233.276 Z-26.209
N6225 Y242.28 Z-23.122
N6230 Y265.11 Z-19.648
N6235 Y302.376 Z-18.633
N6240 Y548.833 Z-26.631
N6245 Y885.941 Z-34.627
N6250 Y1160.727 Z-38.938
N6255 Y1387.339 Z-38.795
N6260 Y1633.797 Z-34.782
N6265 Y1696.333 Z-33.908
N6270 Y1714.139 Z-35.298
N6275 Y1727.198 Z-38.351
N6280 Y1735.572 Z-43.38
N6285 Y1738.952 Z-48.066
N6290 G3 Y1740.856 Z-47.45 J0.853 K0.615 F1000.
N6295 G0 Z5.
N6300 X-182.725 Y1731.517
N6305 Z-48.095
N6310 G2 Y1729.583 Z-50. J-1.905 K0. F1000.
N6315 G1 Y1706.658 Z-49.657 F6000.
N6320 Y1698.513 Z-44.453
N6325 Y1686.11 Z-40.812
N6330 Y1660.615 Z-38.473
N6335 Y1586.94 Z-38.239
N6340 Y1337.681 Z-40.912
N6345 Y1102.596 Z-40.011
N6350 Y660.673 Z-31.517
N6355 Y358.975 Z-23.525
N6360 Y316.983 Z-24.445
N6365 Y291.163 Z-27.946
N6370 Y279.873 Z-31.781
N6375 Y272.133 Z-36.278
N6380 Y269.875 Z-40.211
N6385 G2 Y268.597 Z-39.87 J-0.594 K0.341 F1000.
N6390 G0 Z5.
N6395 X-197.721 Y320.964
N6400 Z-38.276
N6405 G1 Z-47.024 F1000.
N6410 G3 Y322.087 Z-47.283 J0.591 K0.
N6415 G1 Y324.131 Z-43.074 F6000.
N6420 Y331.105 Z-38.332
N6425 Y347.986 Z-33.224
N6430 Y382.106 Z-29.683
N6435 Y428.368 Z-28.767
N6440 Y621.001 Z-32.816
N6445 Y986.438 Z-40.171
N6450 Y1247.059 Z-42.967
N6455 Y1546.231 Z-41.768
N6460 Y1600.535 Z-42.328
N6465 Y1631.671 Z-44.232
N6470 Y1646.444 Z-46.197
N6475 Y1659.304 Z-49.737
N6480 Y1753.168 Z-50.
N6485 X-197.861 Y1754.051 Z-50.003
N6490 X-198.267 Y1754.848 Z-50.007
N6495 X-198.899 Y1755.48 Z-50.012
N6500 X-199.696 Y1755.886 Z-50.018
N6505 X-200.579 Y1756.026 Z-50.023
N6510 X-209.86 Y1756.025 Z-50.073
N6515 X-210.743 Y1755.886 Z-50.077
N6520 X-211.54 Y1755.48 Z-50.08
N6525 X-212.172 Y1754.848 Z-50.082
N6530 X-212.578 Y1754.051
N6535 X-212.718 Y1753.168 Z-50.081
N6540 Y1721.591 Z-50.
N6545 Y1588.652 Z-49.66
N6550 Y1565.309 Z-47.278
N6555 Y1506.889 Z-45.575
N6560 Y1147.191 Z-44.569
N6565 Y887.278 Z-40.729
N6570 Y522.707 Z-34.343
N6575 Y466.204 Z-34.899
N6580 Y418.253 Z-38.601
N6585 Y399.708 Z-42.939
N6590 Y390.836 Z-46.209
N6595 Y386.225 Z-50.
N6600 Y343.35
N6605 G2 Y341.445 Z-48.095 J0. K1.905 F1000.
N6610 G0 Z5.
N6615 X-227.714 Y312.637
N6620 Z-48.095
N6625 G3 Y314.542 Z-50. J1.905 K0. F1000.
N6630 G1 Y471.736 F6000.
N6635 Y481.445 Z-47.638
N6640 Y504.335 Z-43.986
N6645 Y562.096 Z-40.656
N6650 Y635.016 Z-40.126
N6655 Y994.911 Z-45.379
N6660 Y1322.238 Z-48.454
N6665 Y1436.37 Z-49.584
N6670 Y1685.795 Z-50.
N6675 G3 Y1687.703 Z-48.095 J0.003 K1.905 F1000.
N6680 G0 Z5.
N6685 X-242.711 Y1646.932
N6690 Z-48.095
N6695 G2 Y1645.025 Z-50. J-1.905 K0. F1000.
N6700 G1 Y1029.262 Z-49.508 F6000.
N6705 Y763.418 Z-46.322
N6710 Y665.999 Z-47.079
N6715 Y595.993 Z-50.
N6720 Y379.812
N6725 G2 Y377.907 Z-48.095 J0. K1.905 F1000.
N6730 G0 Z5.
N6735 X-257.707 Y457.505
N6740 Z-48.095
N6745 G3 Y459.41 Z-50. J1.905 K0. F1000.
N6750 G1 Y1598.656 F6000.
N6755 G3 Y1600.561 Z-48.095 J0. K1.905 F1000.
N6760 G0 Z5.
N6765 X-272.703 Y1546.131
N6770 Z-48.095
N6775 G2 Y1544.226 Z-50. J-1.905 K0. F1000.
N6780 G1 Y556.715 F6000.
N6785 G2 Y554.81 Z-48.095 J0. K1.905 F1000.
N6790 G0 Z5.
N6795 X-287.7 Y676.62
N6800 Z-48.095
N6805 G3 Y678.525 Z-50. J1.905 K0. F1000.
N6810 G1 Y1473.048 F6000.
N6815 G3 Y1474.953 Z-48.095 J0. K1.905 F1000.
N6820 G0 Z5.
N6825 X-302.696 Y1345.557
N6830 Z-48.095
N6835 G2 Y1343.652 Z-50. J-1.905 K0. F1000.
N6840 G1 Y867.558 F6000.
N6845 G2 Y865.653 Z-48.095 J0. K1.905 F1000.
N6850 G0 Z5.
N6855 X192.185 Y1751.106
N6860 Z-48.095
N6865 G3 Y1753.01 Z-50. J1.905 K0. F1000.
N6870 G1 Y1763.899 F6000.
N6875 G3 Y1765.804 Z-48.095 J0. K1.905 F1000.
N6880 G0 Z15.
N6885 G17
(PARALLEL1 5)
N6890 G0 X304.183 Y1322.615
N6895 Z15.
N6900 Z-73.095
N6905 G19 G2 Y1320.709 Z-75. J-1.905 K0. F1000.
N6910 G1 Y897.756 F6000.
N6915 G2 Y895.851 Z-73.095 J0. K1.905 F1000.
N6920 G0 Z5.
N6925 X294.184 Y743.406
N6930 Z-73.095
N6935 G3 Y745.311 Z-75. J1.905 K0. F1000.
N6940 G1 Y1430.194 F6000.
N6945 G3 Y1432.099 Z-73.095 J0. K1.905 F1000.
N6950 G0 Z5.
N6955 X284.186 Y1494.208
N6960 Z-73.095
N6965 G2 Y1492.303 Z-75. J-1.905 K0. F1000.
N6970 G1 Y646.822 F6000.
N6975 G2 Y644.917 Z-73.095 J0. K1.905 F1000.
N6980 G0 Z5.
N6985 X274.187 Y565.58
N6990 Z-73.095
N6995 G3 Y567.485 Z-75. J1.905 K0. F1000.
N7000 G1 Y879.144 F6000.
N7005 Y913.945 Z-72.28
N7010 Y973.892 Z-70.545
N7015 Y1146.616 Z-71.959
N7020 Y1196.812 Z-74.565
N7025 Y1538.228 Z-75.
N7030 G3 Y1540.135 Z-73.095 J0.002 K1.905 F1000.
N7035 G0 Z5.
N7040 X264.189 Y1578.286
N7045 Z-73.095
N7050 G2 Y1576.379 Z-75. J-1.905 K0. F1000.
N7055 G1 Y1343.336 Z-74.72 F6000.
N7060 Y1330.625 Z-72.113
N7065 Y1294.793 Z-67.335
N7070 Y1241.41 Z-64.1
N7075 Y1142.751 Z-61.459
N7080 Y916.585 Z-59.689
N7085 Y826.664 Z-61.097
N7090 Y773.196 Z-64.91
N7095 Y744.63 Z-68.545
N7100 Y731.043 Z-72.369
N7105 Y727.572 Z-75.
N7110 Y582.557
N7115 G2 Y582.138 Z-74.903 J0. K0.952
N7120 G3 Y581.719 Z-74.806 J-0.419 K-0.855
N7125 G17 G2 X261.331 Y578.861 I-2.857 J0.
N7130 G1 X257.048
N7135 G2 X254.191 Y581.719 I0. J2.857
N7140 G1 Y585.481
N7145 G19 G2 Y585.9 Z-74.903 J0. K-0.952
N7150 G3 Y586.319 Z-75. J0.419 K0.855
N7155 G1 Y630.119
N7160 Y632.12 Z-74.468
N7165 Y639.596 Z-66.986
N7170 Y651.706 Z-63.237
N7175 Y679.272 Z-58.763
N7180 Y722.046 Z-55.399
N7185 Y813.984 Z-53.083
N7190 Y969.227 Z-53.669
N7195 Y1262.38 Z-57.726
N7200 Y1341.83 Z-61.132
N7205 Y1377.507 Z-63.761
N7210 Y1406.194 Z-68.368
N7215 Y1418.168 Z-71.069
N7220 Y1425.677 Z-75.
N7225 Y1564.718
N7230 G3 Y1565.137 Z-74.903 J0. K0.952
N7235 G2 Y1565.556 Z-74.806 J0.419 K-0.855
N7240 G17 G3 X251.333 Y1568.413 I-2.857 J0.
N7245 G1 X247.05
N7250 G3 X244.192 Y1565.556 I0. J-2.857
N7255 G1 Y1563.592
N7260 G19 G3 Y1563.173 Z-74.903 J0. K-0.952
N7265 G2 Y1562.751 Z-75. J-0.419 K0.855
N7270 G1 Y1488.13 Z-74.814
N7275 Y1480.796 Z-69.077
N7280 Y1466.984 Z-65.035
N7285 Y1446.406 Z-61.172
N7290 Y1404.343 Z-57.545
N7295 Y1333.969 Z-54.729
N7300 Y778.756 Z-48.047
N7305 Y678.433 Z-48.984
N7310 Y614.398 Z-52.348
N7315 Y589.247 Z-55.943
N7320 Y573.249 Z-59.536
N7325 Y565.682 Z-62.462
N7330 Y563.211 Z-64.786
N7335 Y559.517 Z-69.725
N7340 Y559.467 Z-72.84
N7345 G2 Y557.351 Z-70.946 J-0.212 K1.893 F1000.
N7350 G0 Z5.
N7355 X264.189 Y529.283
N7360 Z-73.095
N7365 G2 Y527.378 Z-75. J-1.905 K0. F1000.
N7370 G1 Y499.107 F6000.
N7375 G2 Y497.202 Z-73.095 J0. K1.905 F1000.
N7380 G0 Z5.
N7385 X234.194 Y495.394
N7390 Z-54.727
N7395 G1 Z-65.406 F1000.
N7400 G3 Y497.5 Z-67.3 J1.905 K0.
N7405 G1 Y497.53 Z-65.326 F6000.
N7410 Y501.467 Z-59.581
N7415 Y504.171 Z-57.323
N7420 Y515.38 Z-53.504
N7425 Y539.973 Z-48.634
N7430 Y561.44 Z-46.858
N7435 Y602.206 Z-44.56
N7440 Y703.133 Z-43.88
N7445 Y958.879 Z-47.245
N7450 Y1244.332 Z-50.491
N7455 Y1420.408 Z-52.649
N7460 Y1482.186 Z-55.999
N7465 Y1505.749 Z-58.894
N7470 Y1524.721 Z-63.595
N7475 Y1532.712 Z-66.828
N7480 Y1539.542 Z-74.626
N7485 Y1562.76 Z-75.
N7490 G3 Y1564.696 Z-73.095 J0.031 K1.905 F1000.
N7495 G0 Z5.
N7500 X224.195 Y1584.469
N7505 Z-63.879
N7510 G1 Z-71.693 F1000.
N7515 G2 Y1581.909 Z-72.369 J-1.369 K0.
N7520 G1 Y1579.653 Z-68.391 F6000.
N7525 Y1575.328 Z-63.616
N7530 Y1569.012 Z-60.598
N7535 Y1554.782 Z-56.43
N7540 Y1524.651 Z-52.558
N7545 Y1478.539 Z-50.19
N7550 Y1353.785 Z-48.834
N7555 Y1039.945 Z-46.438
N7560 Y612.138 Z-39.812
N7565 Y531.95 Z-40.629
N7570 Y486.063 Z-43.861
N7575 Y461.816 Z-48.272
N7580 Y449.104 Z-52.968
N7585 Y445.982 Z-56.032
N7590 Y443.191 Z-61.103
N7595 Y443.175 Z-62.111
N7600 G2 Y441.075 Z-60.216 J-0.195 K1.895 F1000.
N7605 G0 Z5.
N7610 X254.191 Y437.474
N7615 Z-73.095
N7620 G3 Y439.379 Z-75. J1.905 K0. F1000.
N7625 G1 Y445.765 F6000.
N7630 G3 Y447.67 Z-73.095 J0. K1.905 F1000.
N7635 G0 Z5.
N7640 X244.192 Y394.789
N7645 Z-64.725
N7650 G1 Z-73.095 F1000.
N7655 G2 Y392.884 Z-75. J-1.905 K0.
N7660 G1 Y387.008 F6000.
N7665 G2 Y385.103 Z-73.095 J0. K1.905 F1000.
N7670 G0 Z5.
N7675 X214.197 Y392.97
N7680 Z-46.212
N7685 G1 Z-56.464 F1000.
N7690 G3 Y394.632 Z-56.888 J0.885 K0.
N7695 G1 Y398.118 Z-50.501 F6000.
N7700 Y402.651 Z-47.244
N7705 Y413.281 Z-43.652
N7710 Y429.84 Z-40.096
N7715 Y467.336 Z-36.986
N7720 Y533.333 Z-35.98
N7725 Y1113.521 Z-45.531
N7730 Y1438.339 Z-46.798
N7735 Y1530.154 Z-47.672
N7740 Y1569.843 Z-49.75
N7745 Y1588.2 Z-52.035
N7750 Y1604.413 Z-56.386
N7755 Y1613.304 Z-60.735
N7760 Y1618.328 Z-68.226
N7765 G3 Y1620.26 Z-67.638 J0.877 K0.588 F1000.
N7770 G0 Z5.
N7775 X204.198 Y1652.015
N7780 Z-55.786
N7785 G1 Z-63.458 F1000.
N7790 G2 Y1650.282 Z-63.982 J-0.946 K0.
N7795 G1 Y1645.8 Z-57.257 F6000.
N7800 Y1639.816 Z-53.969
N7805 Y1627.723 Z-49.947
N7810 Y1599.342 Z-46.217
N7815 Y1560.639 Z-44.662
N7820 Y1450.504 Z-44.695
N7825 Y1178.921 Z-44.564
N7830 Y911.883 Z-40.817
N7835 Y470.451 Z-32.233
N7840 Y413.698 Z-33.179
N7845 Y381.718 Z-36.238
N7850 Y362.519 Z-41.141
N7855 Y354.628 Z-45.499
N7860 Y351.079 Z-51.828
N7865 G2 Y349.465 Z-51.406 J-0.752 K0.422 F1000.
N7870 G0 Z5.
N7875 X234.194 Y348.771
N7880 Z-59.321
N7885 G1 Z-73.095 F1000.
N7890 G2 Y346.866 Z-75. J-1.905 K0.
N7895 G1 Y341.246 F6000.
N7900 G2 Y339.341 Z-73.095 J0. K1.905 F1000.
N7905 G0 Z5.
N7910 X194.2 Y311.575
N7915 Z-37.64
N7920 G1 Z-46.875 F1000.
N7925 G3 Y312.47 Z-47.069 J0.468 K0.
N7930 G1 Y314.351 Z-42.936 F6000.
N7935 Y317.991 Z-39.523
N7940 Y327.244 Z-35.558
N7945 Y341.734 Z-32.001
N7950 Y367.766 Z-29.534
N7955 Y407.438 Z-28.571
N7960 Y542.762 Z-31.278
N7965 Y978.743 Z-40.557
N7970 Y1221.258 Z-43.35
N7975 Y1486.602 Z-42.573
N7980 Y1592.673 Z-41.925
N7985 Y1635.647 Z-43.618
N7990 Y1660.018 Z-47.005
N7995 Y1669.7 Z-50.714
N8000 Y1675.616 Z-54.13
N8005 Y1678.659 Z-59.599
N8010 G3 Y1679.902 Z-59.276 J0.58 K0.323 F1000.
N8015 G0 Z5.
N8020 X184.202 Y1704.813
N8025 Z-48.728
N8030 G1 Z-55.174 F1000.
N8035 G2 Y1703.367 Z-55.53 J-0.766 K0.
N8040 G1 Y1700.797 Z-50.625 F6000.
N8045 Y1692.896 Z-45.754
N8050 Y1681.97 Z-42.485
N8055 Y1652.51 Z-39.794
N8060 Y1571.016 Z-39.715
N8065 Y1320.327 Z-42.162
N8070 Y1069.949 Z-40.826
N8075 Y639.417 Z-32.213
N8080 Y364.204 Z-25.032
N8085 Y326.547 Z-25.919
N8090 Y300.194 Z-29.136
N8095 Y284.968 Z-34.249
N8100 Y279.805 Z-38.033
N8105 Y277.785 Z-42.235
N8110 G2 Y276.571 Z-41.959 J-0.575 K0.277 F1000.
N8115 G0 Z5.
N8120 X174.203 Y245.125
N8125 Z-30.189
N8130 G1 Z-37.705 F1000.
N8135 G3 Y245.853 Z-37.851 J0.378 K0.
N8140 G1 Y247.029 Z-35.035 F6000.
N8145 Y254.812 Z-29.657
N8150 Y268.574 Z-25.31
N8155 Y289.976 Z-22.648
N8160 Y324.299 Z-21.719
N8165 Y441.222 Z-25.066
N8170 Y735.509 Z-33.188
N8175 Y1122.443 Z-40.291
N8180 Y1347.745 Z-40.836
N8185 Y1568.461 Z-38.01
N8190 Y1678.891 Z-36.854
N8195 Y1699.431 Z-38.323
N8200 Y1713.623 Z-41.614
N8205 Y1722.508 Z-47.412
N8210 Y1724.712 Z-51.912
N8215 G3 Y1725.537 Z-51.721 J0.391 K0.191 F1000.
N8220 G0 Z5.
N8225 X164.205 Y1744.608
N8230 Z-42.148
N8235 G1 Z-47.816 F1000.
N8240 G2 Y1743.432 Z-48.076 J-0.617 K0.
N8245 G1 Y1741.838 Z-44.649 F6000.
N8250 Y1735.476 Z-39.583
N8255 Y1725.419 Z-36.064
N8260 Y1709.315 Z-34.082
N8265 Y1669.207 Z-34.179
N8270 Y1438.954 Z-38.825
N8275 Y1215.095 Z-39.889
N8280 Y1008.003 Z-37.611
N8285 Y585.646 Z-28.304
N8290 Y291.358 Z-18.617
N8295 Y259.026 Z-19.54
N8300 Y240.622 Z-21.6
N8305 Y230.584 Z-24.106
N8310 Y221.84 Z-28.043
N8315 Y216.956 Z-31.678
N8320 Y216.195 Z-33.324
N8325 G2 Y214.677 Z-32.989 J-0.722 K0.334 F1000.
N8330 G0 Z5.
N8335 X154.206 Y187.219
N8340 Z-23.891
N8345 G1 Z-29.408 F1000.
N8350 G3 Y188.112 Z-29.616 J0.471 K0.
N8355 G1 Y188.398 Z-29.033 F6000.
N8360 Y194.062 Z-24.457
N8365 Y204.784 Z-19.969
N8370 Y222.679 Z-16.958
N8375 Y253.214 Z-15.838
N8380 Y350.629 Z-18.867
N8385 Y572.026 Z-26.85
N8390 Y923.536 Z-35.046
N8395 Y1171.5 Z-38.757
N8400 Y1375.676 Z-38.495
N8405 Y1577.317 Z-35.024
N8410 Y1709.985 Z-31.013
N8415 Y1734.444 Z-31.713
N8420 Y1749.023 Z-34.758
N8425 Y1756.828 Z-39.642
N8430 Y1760.155 Z-44.691
N8435 G3 Y1761.678 Z-44.234 J0.693 K0.457 F1000.
N8440 G0 Z5.
N8445 X144.208 Y1776.522
N8450 Z-36.873
N8455 G1 Z-40.867 F1000.
N8460 G2 Y1775.089 Z-41.33 J-0.791 K0.
N8465 G1 Y1771.217 Z-35.962 F6000.
N8470 Y1763.164 Z-31.38
N8475 Y1747.999 Z-28.639
N8480 Y1718.491 Z-28.661
N8485 Y1608.133 Z-33.178
N8490 Y1390.143 Z-37.407
N8495 Y1175.659 Z-37.909
N8500 Y938.594 Z-34.438
N8505 Y565.284 Z-25.639
N8510 Y347.294 Z-17.61
N8515 Y225.355 Z-13.198
N8520 Y193.748 Z-14.358
N8525 Y175.952 Z-17.649
N8530 Y166.609 Z-21.899
N8535 Y161.812 Z-25.956
N8540 G2 Y158.677 Z-24.501 J-1.23 K1.455 F1000.
N8545 G0 Z5.
N8550 X134.21 Y133.998
N8555 Z-19.624
N8560 G1 Z-22.003 F1000.
N8565 G3 Y136.72 Z-23.008 J1.546 K0.
N8570 G1 Y137.284 Z-22.348 F6000.
N8575 Y144.628 Z-17.137
N8580 Y155.615 Z-13.751
N8585 Y172.85 Z-11.57
N8590 Y204.186 Z-10.982
N8595 Y343.156 Z-16.429
N8600 Y558.422 Z-24.62
N8605 Y937.181 Z-33.657
N8610 Y1174.246 Z-37.179
N8615 Y1388.856 Z-36.587
N8620 Y1620.471 Z-31.702
N8625 Y1743.091 Z-25.884
N8630 Y1766.595 Z-26.357
N8635 Y1778.682 Z-29.183
N8640 Y1785.462 Z-33.61
N8645 Y1788.478 Z-38.013
N8650 G3 Y1789.87 Z-37.582 J0.629 K0.431 F1000.
N8655 G0 Z5.
N8660 X124.211 Y1802.209
N8665 Z-31.833
N8670 G1 Z-34.305 F1000.
N8675 G2 Y1800.554 Z-34.874 J-0.925 K0.
N8680 G1 Y1796.298 Z-29.409 F6000.
N8685 Y1789.811 Z-25.948
N8690 Y1780.085 Z-23.822
N8695 Y1759.909 Z-23.418
N8700 Y1642.739 Z-29.92
N8705 Y1438.373 Z-35.104
N8710 Y1230.763 Z-36.683
N8715 Y1034.571 Z-34.83
N8720 Y628.563 Z-25.8
N8725 Y413.297 Z-18.656
N8730 Y184.407 Z-8.959
N8735 Y147.451 Z-9.198
N8740 Y129.259 Z-11.83
N8745 Y119.224 Z-15.551
N8750 Y112.527 Z-20.891
N8755 G2 Y112.019 Z-21.069 J-0.508 K0.637
N8760 G1 Y91.093
N8765 X124.071 Y90.21 Z-21.071
N8770 X123.666 Y89.413 Z-21.076
N8775 X123.033 Y88.781 Z-21.084
N8780 X122.237 Y88.375 Z-21.095
N8785 X121.354 Y88.235 Z-21.107
N8790 X117.07 Z-21.163
N8795 X116.187 Y88.375 Z-21.175
N8800 X115.391 Y88.781 Z-21.185
N8805 X114.758 Y89.413 Z-21.194
N8810 X114.353 Y90.21 Z-21.199
N8815 X114.213 Y91.093 Z-21.201
N8820 G3 Y91.879 Z-20.602 J0. K0.815
N8825 G1 Y92.33 Z-18.958
N8830 Y95.811 Z-13.69
N8835 Y105.161 Z-9.799
N8840 Y124.978 Z-7.036
N8845 Y163.325 Z-7.076
N8850 Y384.041 Z-16.712
N8855 Y615.656 Z-24.742
N8860 Y1051.638 Z-34.535
N8865 Y1270.555 Z-36.062
N8870 Y1461.544 Z-33.967
N8875 Y1652.286 Z-28.641
N8880 Y1746.294 Z-22.952
N8885 Y1785.805 Z-20.988
N8890 Y1798.971 Z-22.759
N8895 Y1806.869 Z-26.378
N8900 Y1811.589 Z-32.02
N8905 G3 Y1813.442 Z-31.347 J0.804 K0.673 F1000.
N8910 G0 Z5.
N8915 X104.214 Y1823.465
N8920 Z-26.742
N8925 G1 Z-28.886 F1000.
N8930 G2 Y1821.83 Z-29.462 J-0.919 K0.
N8935 G1 Y1817.467 Z-24.038 F6000.
N8940 Y1809.27 Z-20.293
N8945 Y1795.966 Z-18.804
N8950 Y1754.662 Z-21.343
N8955 Y1662.016 Z-27.423
N8960 Y1479.449 Z-32.947
N8965 Y1278.737 Z-35.457
N8970 Y1062.545 Z-34.132
N8975 Y604.764 Z-23.855
N8980 Y370.424 Z-15.455
N8985 Y141.538 Z-5.317
N8990 Y100.702 Z-5.229
N8995 Y94.736 Z-7.151
N9000 Y90.387 Z-11.853
N9005 Y88.694 Z-18.41
N9010 Y88.652 Z-20.429
N9015 X94.216 Y88.646 Z-20.938
N9020 Y88.696 Z-17.137
N9025 Y89.942 Z-10.406
N9030 Y93.277 Z-6.136
N9035 Y98.906 Z-3.465
N9040 Y122.454 Z-3.72
N9045 Y378.593 Z-15.248
N9050 Y580.234 Z-22.531
N9055 Y972.618 Z-31.971
N9060 Y1193.333 Z-34.944
N9065 Y1377.662 Z-34.176
N9070 Y1562.954 Z-30.208
N9075 Y1677.399 Z-25.963
N9080 Y1766.639 Z-19.52
N9085 Y1805.374 Z-16.732
N9090 Y1818.583 Z-17.959
N9095 Y1826.786 Z-21.631
N9100 Y1831.244 Z-27.299
N9105 G3 Y1833.066 Z-26.668 J0.802 K0.631 F1000.
N9110 G0 Z5.
N9115 X84.218 Y1841.403
N9120 Z-22.162
N9125 G1 Z-25.171 F1000.
N9130 G2 Y1840.062 Z-25.579 J-0.732 K0.
N9135 G1 Y1836.479 Z-20.226 F6000.
N9140 Y1829.925 Z-16.591
N9145 Y1819.649 Z-14.85
N9150 Y1795.125 Z-16.131
N9155 Y1710.842 Z-23.364
N9160 Y1612.746 Z-28.156
N9165 Y1413.83 Z-33.174
N9170 Y1212.413 Z-34.583
N9175 Y994.422 Z-31.994
N9180 Y599.314 Z-22.585
N9185 Y375.873 Z-14.659
N9190 Y103.954 Z-2.22
N9195 Y97.084 Z-3.923
N9200 Y92.222 Z-8.569
N9205 Y90.395 Z-14.952
N9210 Y90.314 Z-20.936
N9215 X79.177 Y91.802 Z-20.933
N9220 X74.219 Y93.548 Z-20.931
N9225 Y93.635 Z-14.294
N9230 Y95.286 Z-8.401
N9235 Y99.217 Z-4.197
N9240 Y106.107 Z-1.707
N9245 Y370.421 Z-13.967
N9250 Y569.337 Z-21.28
N9255 Y991.695 Z-31.534
N9260 Y1206.961 Z-34.172
N9265 Y1408.583 Z-32.847
N9270 Y1626.573 Z-27.168
N9275 Y1719.22 Z-22.324
N9280 Y1800.621 Z-14.868
N9285 Y1827.658 Z-12.881
N9290 Y1838.651 Z-14.688
N9295 Y1845.299 Z-18.838
N9300 Y1848.291 Z-23.919
N9305 G3 Y1850.14 Z-23.415 J0.856 K0.504 F1000.
N9310 G0 Z5.
N9315 X64.221 Y1857.353
N9320 Z-19.095
N9325 G1 Z-22.757 F1000.
N9330 G2 Y1856.199 Z-23.045 J-0.613 K0.
N9335 G1 Y1853.01 Z-17.039 F6000.
N9340 Y1846.005 Z-12.686
N9345 Y1835.089 Z-11.097
N9350 Y1807. Z-13.556
N9355 Y1733.133 Z-20.864
N9360 Y1647.299 Z-25.948
N9365 Y1451.108 Z-31.692
N9370 Y1271.83 Z-33.873
N9375 Y1062.55 Z-32.548
N9380 Y602.044 Z-21.864
N9385 Y384.053 Z-14.228
N9390 Y111.565 Z-1.344
N9395 Y104.322 Z-3.452
N9400 Y100.186 Z-7.159
N9405 Y97.949 Z-13.216
N9410 Y97.832 Z-20.925
N9415 X59.206 Y100.38 Z-20.929
N9420 X54.222 Y102.99 Z-20.933
N9425 Y103.302 Z-13.043
N9430 Y105.586 Z-6.925
N9435 Y109.728 Z-3.236
N9440 Y117.018 Z-1.144
N9445 Y427.655 Z-15.718
N9450 Y672.895 Z-23.488
N9455 Y1095.252 Z-32.719
N9460 Y1303.885 Z-33.428
N9465 Y1478.278 Z-30.791
N9470 Y1658.12 Z-25.107
N9475 Y1748.041 Z-19.316
N9480 Y1820.28 Z-11.508
N9485 Y1845.857 Z-9.456
N9490 Y1855.035 Z-11.592
N9495 Y1861.309 Z-16.565
N9500 Y1863.459 Z-21.877
N9505 G3 Y1865.06 Z-21.565 J0.77 K0.312 F1000.
N9510 G0 Z5.
N9515 X44.224 Y1872.734
N9520 Z-20.564
N9525 G1 Z-20.651 F1000.
N9530 G2 Y1870.292 Z-21.059 J-1.255 K0.
N9535 G1 Y1868.122 Z-14.736 F6000.
N9540 Y1862.756 Z-10.208
N9545 Y1855.44 Z-8.073
N9550 Y1840.23 Z-8.624
N9555 Y1759.373 Z-18.058
N9560 Y1683.076 Z-23.534
N9565 Y1563.181 Z-28.194
N9570 Y1380.614 Z-32.388
N9575 Y1201.251 Z-33.33
N9580 Y994.16 Z-30.773
N9585 Y571.802 Z-20.403
N9590 Y345.637 Z-11.988
N9595 Y121.493 Z-1.257
N9600 Y115.688 Z-3.069
N9605 Y111.457 Z-6.483
N9610 Y108.983 Z-11.674
N9615 Y108.681 Z-20.98
N9620 X39.206 Y111.812 Z-21.102
N9625 X34.226 Y115. Z-21.224
N9630 Y115.081 Z-15.091
N9635 Y116.488 Z-8.578
N9640 Y120.313 Z-4.228
N9645 Y126.969 Z-1.441
N9650 Y330.962 Z-11.115
N9655 Y540.778 Z-19.242
N9660 Y884.113 Z-28.157
N9665 Y1137.528 Z-32.808
N9670 Y1337.596 Z-32.75
N9675 Y1536.513 Z-28.787
N9680 Y1675.482 Z-23.761
N9685 Y1754.504 Z-18.292
N9690 Y1821.632 Z-10.657
N9695 Y1858.283 Z-6.266
N9700 Y1863.626 Z-6.617
N9705 Y1870.355 Z-8.953
N9710 Y1875.275 Z-13.838
N9715 Y1876.935 Z-20.477
N9720 X24.227 Y1883.515 Z-21.
N9725 Y1882.495 Z-13.14
N9730 Y1878.071 Z-7.861
N9735 Y1871.208 Z-5.171
N9740 Y1860.48 Z-5.115
N9745 Y1775.263 Z-16.172
N9750 Y1701.852 Z-22.097
N9755 Y1586.044 Z-27.144
N9760 Y1374.865 Z-32.161
N9765 Y1185.525 Z-32.894
N9770 Y986.608 Z-30.283
N9775 Y583.325 Z-20.369
N9780 Y351.71 Z-11.941
N9785 Y135.314 Z-1.488
N9790 Y129.399 Z-3.115
N9795 Y123.96 Z-7.57
N9800 Y121.941 Z-13.123
N9805 Y121.756 Z-21.633
N9810 X19.202 Y125.34 Z-21.953
N9815 X14.229 Y128.996 Z-22.274
N9820 Y129.128 Z-14.299
N9825 Y130.689 Z-8.572
N9830 Y135.065 Z-4.196
N9835 Y142.591 Z-1.751
N9840 Y327.884 Z-10.694
N9845 Y559.499 Z-19.524
N9850 Y992.755 Z-30.332
N9855 Y1202.572 Z-32.944
N9860 Y1391.673 Z-31.812
N9865 Y1612.388 Z-26.14
N9870 Y1718.659 Z-20.895
N9875 Y1786.441 Z-14.848
N9880 Y1868.64 Z-3.574
N9885 Y1878.8 Z-3.62
N9890 Y1885.939 Z-6.627
N9895 Y1889.648 Z-11.918
N9900 Y1890.327 Z-21.
N9905 X9.346 Y1891.854
N9910 X4.23 Y1891.956
N9915 Y1891.351 Z-10.557
N9920 Y1887.945 Z-5.168
N9925 Y1882.111 Z-2.102
N9930 Y1873.961 Z-2.435
N9935 Y1792.818 Z-14.056
N9940 Y1716.521 Z-20.993
N9945 Y1599.351 Z-26.543
N9950 Y1381.36 Z-31.926
N9955 Y1205.493 Z-32.741
N9960 Y1010.664 Z-30.61
N9965 Y558.333 Z-19.441
N9970 Y326.718 Z-10.594
N9975 Y146.875 Z-1.979
N9980 Y141.875 Z-3.992
N9985 Y137.915 Z-8.392
N9990 Y136.411 Z-14.284
N9995 Y136.294 Z-23.068
N10000 X-0.805 Y136.378 Z-23.026
N10005 X-5.768 Y135.525 Z-22.985
N10010 Y135.622 Z-15.382
N10015 Y136.739 Z-9.682
N10020 Y141.072 Z-4.588
N10025 Y147.181 Z-1.935
N10030 Y360.758 Z-12.152
N10035 Y605.998 Z-20.856
N10040 Y1012.006 Z-30.602
N10045 Y1213.648 Z-32.749
N10050 Y1376.417 Z-32.001
N10055 Y1588.958 Z-26.888
N10060 Y1706.128 Z-21.672
N10065 Y1785.15 Z-14.944
N10070 Y1872.598 Z-2.703
N10075 Y1882.11 Z-2.169
N10080 Y1887.945 Z-5.238
N10085 Y1891.351 Z-10.66
N10090 Y1891.954 Z-21.
N10095 X-11.012 Y1891.574
N10100 X-15.766 Y1889.328
N10105 Y1888.626 Z-12.096
N10110 Y1884.895 Z-6.988
N10115 Y1879.437 Z-4.251
N10120 Y1869.513 Z-3.591
N10125 Y1782.559 Z-15.298
N10130 Y1713.86 Z-21.235
N10135 Y1608.27 Z-26.298
N10140 Y1390.279 Z-31.844
N10145 Y1199.057 Z-32.876
N10150 Y999.92 Z-30.487
N10155 Y569.388 Z-19.836
N10160 Y359.572 Z-12.159
N10165 Y141.581 Z-1.682
N10170 Y133.9 Z-4.195
N10175 Y129.536 Z-8.604
N10180 Y128.014 Z-14.251
N10185 Y127.861 Z-22.153
N10190 X-20.746 Y124.235 Z-21.853
N10195 X-25.765 Y120.663 Z-21.553
N10200 Y120.784 Z-13.805
N10205 Y122.108 Z-8.718
N10210 Y126.224 Z-4.266
N10215 Y133.042 Z-1.607
N10220 Y348.308 Z-11.805
N10225 Y558.124 Z-19.649
N10230 Y958.683 Z-29.707
N10235 Y1168.499 Z-32.853
N10240 Y1361.627 Z-32.358
N10245 Y1563.268 Z-27.865
N10250 Y1694.063 Z-22.599
N10255 Y1770.36 Z-16.682
N10260 Y1860.911 Z-5.193
N10265 Y1871.543 Z-5.676
N10270 Y1877.599 Z-8.582
N10275 Y1881.819 Z-14.351
N10280 Y1882.525 Z-21.012
N10285 X-30.756 Y1879.224 Z-21.203
N10290 X-35.763 Y1875.949 Z-21.393
N10295 Y1874.934 Z-15.48
N10300 Y1870.964 Z-10.38
N10305 Y1863.98 Z-7.117
N10310 Y1853.091 Z-6.731
N10315 Y1765.505 Z-17.285
N10320 Y1689.953 Z-22.997
N10325 Y1558.477 Z-28.153
N10330 Y1356.836 Z-32.568
N10335 Y1185.899 Z-33.108
N10340 Y981.533 Z-30.361
N10345 Y583.699 Z-20.562
N10350 Y349.359 Z-12.006
N10355 Y126.053 Z-1.422
N10360 Y119.888 Z-3.832
N10365 Y115.888 Z-7.898
N10370 Y114.158 Z-14.189
N10375 Y114.006 Z-21.293
N10380 X-40.748 Y110.848 Z-21.187
N10385 X-45.762 Y107.737 Z-21.082
N10390 Y107.998 Z-11.745
N10395 Y110.473 Z-6.476
N10400 Y114.703 Z-3.062
N10405 Y120.672 Z-1.231
N10410 Y325.886 Z-11.083
N10415 Y557.502 Z-20.001
N10420 Y963.509 Z-30.134
N10425 Y1176.051 Z-33.253
N10430 Y1356.017 Z-32.737
N10435 Y1557.659 Z-28.395
N10440 Y1680.278 Z-23.736
N10445 Y1759.3 Z-18.098
N10450 Y1831.124 Z-9.782
N10455 Y1850.09 Z-8.051
N10460 Y1860.263 Z-9.754
N10465 Y1866.759 Z-14.577
N10470 Y1869.314 Z-21.361
N10475 G3 Y1871.364 Z-20.988 J0.991 K0.373 F1000.
N10480 G0 Z5.
N10485 X-55.76 Y1864.486
N10490 Z-20.239
N10495 G1 Z-21.385 F1000.
N10500 G2 Y1862.266 Z-21.852 J-1.159 K0.
N10505 G1 Y1859.835 Z-16.324 F6000.
N10510 Y1853.864 Z-11.877
N10515 Y1845.982 Z-9.829
N10520 Y1828.319 Z-10.699
N10525 Y1748.012 Z-19.358
N10530 Y1666.266 Z-24.771
N10535 Y1510.947 Z-29.994
N10540 Y1314.756 Z-33.392
N10545 Y1108.85 Z-32.928
N10550 Y749.165 Z-25.468
N10555 Y449.428 Z-16.58
N10560 Y166.04 Z-3.457
N10565 Y114.02 Z-1.406
N10570 Y108.695 Z-3.389
N10575 Y104.419 Z-7.444
N10580 Y102.502 Z-12.82
N10585 Y102.12 Z-20.93
N10590 X-60.743 Y99.596 Z-20.928
N10595 X-65.759 Y97.138 Z-20.926
N10600 Y97.28 Z-13.182
N10605 Y99.372 Z-7.254
N10610 Y104.512 Z-2.937
N10615 Y111.305 Z-1.359
N10620 Y381.328 Z-14.153
N10625 Y618.393 Z-22.398
N10630 Y1059.824 Z-32.551
N10635 Y1269.533 Z-33.908
N10640 Y1444.426 Z-31.88
N10645 Y1651.517 Z-25.803
N10650 Y1735.989 Z-20.695
N10655 Y1814.311 Z-12.856
N10660 Y1836.767 Z-11.46
N10665 Y1846.452 Z-13.554
N10670 Y1852.509 Z-18.04
N10675 Y1854.943 Z-23.159
N10680 G3 Y1855.971 Z-22.927 J0.488 K0.232 F1000.
N10685 G0 Z5.
N10690 X-75.757 Y1849.216
N10695 Z-22.488
N10700 G1 Z-23.536 F1000.
N10705 G2 Y1847.095 Z-24.134 J-1.145 K0.
N10710 G1 Y1843.949 Z-19.003 F6000.
N10715 Y1837.685 Z-15.149
N10720 Y1827.646 Z-13.223
N10725 Y1804.246 Z-14.612
N10730 Y1718.905 Z-22.411
N10735 Y1627.622 Z-27.196
N10740 Y1420.53 Z-32.712
N10745 Y1219.281 Z-34.245
N10750 Y1004.015 Z-31.836
N10755 Y584.383 Z-21.791
N10760 Y352.768 Z-13.243
N10765 Y106.597 Z-1.716
N10770 Y99.808 Z-3.502
N10775 Y94.952 Z-7.998
N10780 Y93.091 Z-13.707
N10785 Y92.979 Z-20.912
N10790 X-80.712 Y91.31 Z-20.924
N10795 X-85.755 Y89.927 Z-20.936
N10800 Y90.712 Z-11.07
N10805 Y94.463 Z-5.59
N10810 Y99.019 Z-3.017
N10815 Y106.109 Z-2.444
N10820 Y367.698 Z-14.344
N10825 Y596.589 Z-22.567
N10830 Y978.072 Z-31.718
N10835 Y1196.063 Z-34.595
N10840 Y1378.19 Z-33.767
N10845 Y1593.456 Z-28.859
N10850 Y1697.001 Z-24.343
N10855 Y1784.198 Z-17.301
N10860 Y1816.165 Z-15.027
N10865 Y1828.291 Z-16.766
N10870 Y1834.823 Z-20.251
N10875 Y1838.693 Z-25.485
N10880 G3 Y1841.075 Z-24.7 J1.061 K0.785 F1000.
N10885 G0 Z5.
N10890 X-95.754 Y1831.654
N10895 Z-25.198
N10900 G1 Z-26.999 F1000.
N10905 G2 Y1829.875 Z-27.612 J-0.995 K0.
N10910 G1 Y1825.605 Z-22.153 F6000.
N10915 Y1817.889 Z-18.497
N10920 Y1804.971 Z-17.058
N10925 Y1761.249 Z-20.117
N10930 Y1679.502 Z-25.948
N10935 Y1565.057 Z-30.275
N10940 Y1377.04 Z-34.259
N10945 Y1171.534 Z-34.895
N10950 Y942.643 Z-31.401
N10955 Y566.609 Z-22.212
N10960 Y364.968 Z-14.728
N10965 Y125.178 Z-3.953
N10970 Y98.424 Z-3.752
N10975 Y93.753 Z-5.939
N10980 Y89.678 Z-11.224
N10985 Y88.677 Z-18.931
N10990 Y88.647 Z-20.938
N10995 X-100.753 Z-20.826
N11000 X-105.752 Y88.66 Z-20.714
N11005 Y88.742 Z-18.849
N11010 Y90.954 Z-11.645
N11015 Y95.599 Z-7.187
N11020 Y103.061 Z-5.597
N11025 Y144.254 Z-5.538
N11030 Y427.642 Z-17.949
N11035 Y672.881 Z-25.745
N11040 Y1089.789 Z-34.601
N11045 Y1303.578 Z-35.442
N11050 Y1502.495 Z-32.498
N11055 Y1665.988 Z-27.374
N11060 Y1789.158 Z-19.118
N11065 Y1805.156 Z-20.088
N11070 Y1812.759 Z-22.522
N11075 Y1815.764 Z-24.341
N11080 Y1820.265 Z-29.901
N11085 G3 Y1821.996 Z-29.288 J0.757 K0.613 F1000.
N11090 G0 Z5.
N11095 X-115.751 Y1811.422
N11100 Z-29.27
N11105 G1 Z-32.025 F1000.
N11110 G2 Y1809.994 Z-32.517 J-0.799 K0.
N11115 G1 Y1805.789 Z-27.143 F6000.
N11120 Y1797.254 Z-23.029
N11125 Y1782.356 Z-21.312
N11130 Y1733.308 Z-24.021
N11135 Y1643.046 Z-29.155
N11140 Y1441.745 Z-34.451
N11145 Y1258.186 Z-36.17
N11150 Y1038.012 Z-34.399
N11155 Y610.205 Z-24.689
N11160 Y394.939 Z-17.276
N11165 Y166.049 Z-7.335
N11170 Y130.575 Z-7.31
N11175 Y110.42 Z-9.691
N11180 Y98.892 Z-14.056
N11185 Y95.101 Z-17.146
N11190 Y93.449 Z-20.773
N11195 G2 Y92.582 Z-21.33 J-0.867 K0.395
N11200 G1 X-115.89 Y91.699 Z-21.336
N11205 X-116.296 Y90.902 Z-21.354
N11210 X-116.927 Y90.27 Z-21.381
N11215 X-117.723 Y89.864 Z-21.415
N11220 X-118.605 Y89.724 Z-21.453
N11225 X-122.894 Z-21.637
N11230 X-123.776 Y89.864 Z-21.675
N11235 X-124.572 Y90.27 Z-21.71
N11240 X-125.204 Y90.902 Z-21.737
N11245 X-125.609 Y91.699 Z-21.754
N11250 X-125.749 Y92.582 Z-21.76
N11255 Y115.291
N11260 G3 Y116.059 Z-21.372 J0. K0.952
N11265 G1 Y116.807 Z-20.354
N11270 Y122.776 Z-15.877
N11275 Y132.173 Z-12.258
N11280 Y151.059 Z-9.571
N11285 Y185.12 Z-9.214
N11290 Y335.159 Z-15.336
N11295 Y558.43 Z-23.931
N11300 Y969.887 Z-33.698
N11305 Y1196.053 Z-36.688
N11310 Y1405.039 Z-35.742
N11315 Y1631.205 Z-30.487
N11320 Y1762.255 Z-23.657
N11325 Y1781.166 Z-24.64
N11330 Y1788.57 Z-26.652
N11335 Y1794.024 Z-29.558
N11340 Y1798.773 Z-35.324
N11345 G3 Y1800.602 Z-34.668 J0.797 K0.656 F1000.
N11350 G0 Z5.
N11355 X-135.747 Y1788.105
N11360 Z-34.87
N11365 G1 Z-37.901 F1000.
N11370 G2 Y1786.469 Z-38.402 J-0.895 K0.
N11375 G1 Y1783.618 Z-34.18 F6000.
N11380 Y1777.365 Z-29.848
N11385 Y1763.878 Z-26.656
N11390 Y1739.27 Z-26.298
N11395 Y1620.397 Z-31.875
N11400 Y1407.856 Z-36.479
N11405 Y1215.117 Z-37.48
N11410 Y988.952 Z-34.823
N11415 Y566.595 Z-24.96
N11420 Y359.503 Z-17.317
N11425 Y209.635 Z-11.371
N11430 Y176.936 Z-11.826
N11435 Y156.814 Z-14.676
N11440 Y146.812 Z-18.522
N11445 Y140.772 Z-23.073
N11450 Y140.548 Z-23.372
N11455 G2 Y138.066 Z-22.546 J-1.103 K0.826 F1000.
N11460 G0 Z5.
N11465 X-145.746 Y163.218
N11470 Z-22.717
N11475 G1 Z-25.521 F1000.
N11480 G3 Y165.795 Z-26.434 J1.451 K0.
N11485 G1 Y166.752 Z-25.252 F6000.
N11490 Y173.33 Z-20.807
N11495 Y183.648 Z-17.092
N11500 Y202.09 Z-14.631
N11505 Y228.705 Z-13.59
N11510 Y330.888 Z-17.079
N11515 Y547.517 Z-25.257
N11520 Y863.603 Z-33.059
N11525 Y1149.716 Z-37.847
N11530 Y1365.614 Z-37.794
N11535 Y1599.954 Z-33.543
N11540 Y1719.849 Z-28.904
N11545 Y1747.132 Z-29.198
N11550 Y1761.792 Z-32.065
N11555 Y1768.664 Z-36.073
N11560 Y1772.897 Z-41.733
N11565 G3 Y1774.65 Z-41.151 J0.779 K0.583 F1000.
N11570 G0 Z5.
N11575 X-155.744 Y1758.743
N11580 Z-39.598
N11585 G1 Z-45.026 F1000.
N11590 G2 Y1757.752 Z-45.314 J-0.537 K0.
N11595 G1 Y1754.398 Z-40.022 F6000.
N11600 Y1746.482 Z-35.235
N11605 Y1731.482 Z-32.055
N11610 Y1704.556 Z-31.472
N11615 Y1538.984 Z-36.107
N11620 Y1315.543 Z-39.056
N11625 Y1087.027 Z-38.091
N11630 Y672.844 Z-29.698
N11635 Y437.142 Z-22.512
N11640 Y262.749 Z-16.209
N11645 Y233.572 Z-16.96
N11650 Y212.842 Z-19.537
N11655 Y202.979 Z-22.632
N11660 Y196.159 Z-26.142
N11665 Y192.239 Z-30.176
N11670 G2 Y189.648 Z-29.124 J-1.082 K1.052 F1000.
N11675 G0 Z5.
N11680 X-165.743 Y219.981
N11685 Z-27.519
N11690 G1 Z-34.11 F1000.
N11695 G3 Y220.478 Z-34.191 J0.255 K0.
N11700 G1 Y220.682 Z-33.575 F6000.
N11705 Y224.564 Z-29.414
N11710 Y233.867 Z-24.858
N11715 Y240.873 Z-22.829
N11720 Y263.005 Z-19.935
N11725 Y294.592 Z-19.088
N11730 Y574.744 Z-28.185
N11735 Y969.852 Z-37.05
N11740 Y1206.917 Z-40.016
N11745 Y1420.336 Z-39.237
N11750 Y1673.751 Z-34.409
N11755 Y1710.363 Z-34.803
N11760 Y1728.255 Z-38.095
N11765 Y1737.745 Z-43.554
N11770 Y1740.736 Z-48.794
N11775 G3 Y1741.952 Z-48.471 J0.566 K0.323 F1000.
N11780 G0 Z5.
N11785 X-175.741 Y1722.917
N11790 Z-45.886
N11795 G1 Z-52.012 F1000.
N11800 G2 Y1721.577 Z-52.344 J-0.711 K0.
N11805 G1 Y1719.072 Z-47.592 F6000.
N11810 Y1713.541 Z-43.748
N11815 Y1704.747 Z-40.338
N11820 Y1680.963 Z-37.397
N11825 Y1615.557 Z-37.638
N11830 Y1350.466 Z-40.995
N11835 Y1111.533 Z-40.345
N11840 Y672.826 Z-31.947
N11845 Y381.263 Z-23.285
N11850 Y320.738 Z-22.281
N11855 Y293.289 Z-23.189
N11860 Y269.38 Z-26.777
N11865 Y256.403 Z-31.756
N11870 Y251.372 Z-36.384
N11875 Y250.606 Z-38.408
N11880 G2 Y249.685 Z-38.239 J-0.445 K0.169 F1000.
N11885 G0 Z5.
N11890 X-185.739 Y281.714
N11895 Z-34.582
N11900 G1 Z-42.644 F1000.
N11905 G3 Y282.97 Z-42.932 J0.661 K0.
N11910 G1 Y285.127 Z-38.475 F6000.
N11915 Y292.659 Z-34.005
N11920 Y305.976 Z-29.617
N11925 Y335.06 Z-26.366
N11930 Y372.376 Z-25.546
N11935 Y609.441 Z-31.69
N11940 Y1069.947 Z-41.021
N11945 Y1321.661 Z-42.347
N11950 Y1592.811 Z-39.831
N11955 Y1653.951 Z-40.555
N11960 Y1677.668 Z-43.08
N11965 Y1689.87 Z-46.582
N11970 Y1697.255 Z-51.203
N11975 Y1699.864 Z-56.361
N11980 G3 Y1700.681 Z-56.166 J0.385 K0.195 F1000.
N11985 G0 Z5.
N11990 X-195.738 Y1675.998
N11995 Z-52.669
N12000 G1 Z-59.863 F1000.
N12005 G2 Y1674.507 Z-60.258 J-0.798 K0.
N12010 G1 Y1671.212 Z-54.475 F6000.
N12015 Y1663.814 Z-50.344
N12020 Y1650.521 Z-46.51
N12025 Y1621.212 Z-43.337
N12030 Y1571.308 Z-42.202
N12035 Y1296.517 Z-43.777
N12040 Y1056.318 Z-42.082
N12045 Y623.061 Z-33.541
N12050 Y418.482 Z-29.098
N12055 Y371.707 Z-30.172
N12060 Y345.519 Z-32.962
N12065 Y331.489 Z-36.667
N12070 Y321.385 Z-41.812
N12075 Y318.172 Z-47.683
N12080 G2 Y316.437 Z-47.24 J-0.811 K0.444 F1000.
N12085 G0 Z5.
N12090 X-205.736 Y356.262
N12095 Z-42.542
N12100 G1 Z-52.436 F1000.
N12105 G3 Y357.407 Z-52.713 J0.606 K0.
N12110 G1 Y359.547 Z-48.552 F6000.
N12115 Y362.46 Z-45.115
N12120 Y372.335 Z-40.896
N12125 Y388.032 Z-36.937
N12130 Y422.659 Z-33.799
N12135 Y478.623 Z-32.796
N12140 Y944.578 Z-41.642
N12145 Y1195.268 Z-44.899
N12150 Y1474.309 Z-44.842
N12155 Y1571.592 Z-45.373
N12160 Y1601.239 Z-47.375
N12165 Y1619.434 Z-49.798
N12170 Y1634.255 Z-54.132
N12175 Y1641.433 Z-57.846
N12180 Y1645.565 Z-64.537
N12185 G3 Y1647.318 Z-64.04 J0.806 K0.498 F1000.
N12190 G0 Z5.
N12195 X-215.735 Y1614.983
N12200 Z-60.295
N12205 G1 Z-68.318 F1000.
N12210 G2 Y1613.075 Z-68.903 J-1.043 K0.
N12215 G1 Y1608.446 Z-62.059 F6000.
N12220 Y1603.09 Z-58.451
N12225 Y1588.466 Z-53.715
N12230 Y1567.96 Z-50.776
N12235 Y1532.442 Z-48.371
N12240 Y1445.726 Z-47.15
N12245 Y1132.592 Z-45.988
N12250 Y544.016 Z-36.55
N12255 Y478.069 Z-37.542
N12260 Y437.601 Z-40.719
N12265 Y424.629 Z-43.147
N12270 Y412.744 Z-46.928
N12275 Y406.923 Z-49.553
N12280 Y403.64 Z-53.677
N12285 Y401.8 Z-57.361
N12290 G2 Y399.602 Z-56.842 J-1.038 K0.518 F1000.
N12295 G0 Z5.
N12300 X-245.73 Y402.471
N12305 Z-65.558
N12310 G1 Z-73.095 F1000.
N12315 G2 Y400.566 Z-75. J-1.905 K0.
N12320 G1 Y394.605 F6000.
N12325 X-235.731 Y352.988
N12330 Y347.852
N12335 G2 Y345.947 Z-73.095 J0. K1.905 F1000.
N12340 G0 Z5.
N12345 X-255.728 Y446.116
N12350 Z-73.095
N12355 G3 Y448.021 Z-75. J1.905 K0. F1000.
N12360 G1 Y455.514 F6000.
N12365 G3 Y457.419 Z-73.095 J0. K1.905 F1000.
N12370 G0 Z5.
N12375 X-225.733 Y447.665
N12380 Z-51.887
N12385 G1 Z-60.444 F1000.
N12390 G3 Y451.165 Z-61.485 J1.905 K0.
N12395 G1 Y455.102 Z-55.45 F6000.
N12400 Y461.001 Z-51.762
N12405 Y481.547 Z-46.356
N12410 Y504.015 Z-43.611
N12415 Y547.402 Z-41.043
N12420 Y622.994 Z-40.416
N12425 Y1029.042 Z-46.548
N12430 Y1332.916 Z-49.083
N12435 Y1466.019 Z-50.509
N12440 Y1506.886 Z-52.211
N12445 Y1541.978 Z-55.784
N12450 Y1560.566 Z-60.281
N12455 Y1569.008 Z-63.754
N12460 Y1575.816 Z-72.856
N12465 G3 Y1579.246 Z-71.715 J1.526 K1.141 F1000.
N12470 G0 Z5.
N12475 X-235.731 Y1564.45
N12480 Z-73.095
N12485 G2 Y1562.53 Z-75. J-1.905 K0. F1000.
N12490 G1 Y1532.291 Z-74.764 F6000.
N12495 Y1524.644 Z-66.768
N12500 Y1515.56 Z-63.418
N12505 Y1494.264 Z-58.824
N12510 Y1452.751 Z-54.914
N12515 Y1387.064 Z-52.52
N12520 Y953.352 Z-47.499
N12525 Y697.212 Z-44.451
N12530 Y617.283 Z-45.096
N12535 Y562.892 Z-48.045
N12540 Y538.741 Z-51.097
N12545 Y517.739 Z-56.058
N12550 Y511.378 Z-59.51
N12555 Y506.561 Z-65.991
N12560 Y506.533 Z-68.099
N12565 G2 Y504.42 Z-66.205 J-0.208 K1.894 F1000.
N12570 G0 Z5.
N12575 X-245.73 Y567.7
N12580 Z-59.678
N12585 G1 Z-71.765 F1000.
N12590 G3 Y569.824 Z-73.657 J1.905 K0.
N12595 G1 Y570.072 Z-69.897 F6000.
N12600 Y577.16 Z-62.642
N12605 Y593.184 Z-57.814
N12610 Y624.885 Z-53.151
N12615 Y690.283 Z-49.832
N12620 Y778.944 Z-48.751
N12625 Y1223.641 Z-53.525
N12630 Y1347.535 Z-55.797
N12635 Y1419.787 Z-59.773
N12640 Y1438.476 Z-61.744
N12645 Y1465.193 Z-67.219
N12650 Y1475.256 Z-70.833
N12655 Y1478.741 Z-74.74
N12660 Y1562.453 Z-75.
N12665 G3 Y1564.364 Z-73.095 J0.006 K1.905 F1000.
N12670 G0 Z5.
N12675 X-255.728 Y1607.029
N12680 Z-73.095
N12685 G2 Y1605.121 Z-75. J-1.905 K0. F1000.
N12690 G1 Y1415.026 Z-74.682 F6000.
N12695 Y1405.656 Z-70.967
N12700 Y1380.943 Z-66.321
N12705 Y1354.418 Z-63.206
N12710 Y1304.635 Z-60.306
N12715 Y1214.455 Z-57.384
N12720 Y868.395 Z-53.762
N12725 Y768.138 Z-55.143
N12730 Y708.79 Z-57.909
N12735 Y680.564 Z-61.417
N12740 Y669.101 Z-63.014
N12745 Y655.146 Z-66.609
N12750 Y650.422 Z-69.444
N12755 Y644.43 Z-75.
N12760 Y585.76
N12765 G2 Y583.855 Z-73.095 J0. K1.905 F1000.
N12770 G0 Z5.
N12775 X-265.727 Y507.112
N12780 Z-73.095
N12785 G3 Y509.017 Z-75. J1.905 K0. F1000.
N12790 G1 Y745.194 F6000.
N12795 Y747.334 Z-73.437
N12800 Y758.777 Z-70.026
N12805 Y773.61 Z-67.829
N12810 Y808.472 Z-64.377
N12815 Y851.868 Z-61.959
N12820 Y930.89 Z-60.811
N12825 Y1178.678 Z-63.16
N12830 Y1253.953 Z-66.017
N12835 Y1297.505 Z-69.977
N12840 Y1307.65 Z-71.305
N12845 Y1328.006 Z-74.808
N12850 Y1570.847 Z-75.
N12855 G3 Y1572.754 Z-73.095 J0.002 K1.905 F1000.
N12860 G0 Z5.
N12865 X-275.725 Y1533.677
N12870 Z-73.095
N12875 G2 Y1531.77 Z-75. J-1.905 K0. F1000.
N12880 G1 Y1145.958 Z-74.619 F6000.
N12885 Y1083.286 Z-73.618
N12890 Y982.034 Z-73.006
N12895 Y922.006 Z-75.
N12900 Y578.841
N12905 G2 Y576.936 Z-73.095 J0. K1.905 F1000.
N12910 G0 Z5.
N12915 X-285.724 Y658.561
N12920 Z-73.095
N12925 G3 Y660.466 Z-75. J1.905 K0. F1000.
N12930 G1 Y1484.147 F6000.
N12935 G3 Y1486.052 Z-73.095 J0. K1.905 F1000.
N12940 G0 Z5.
N12945 X-295.722 Y1419.934
N12950 Z-73.095
N12955 G2 Y1418.029 Z-75. J-1.905 K0. F1000.
N12960 G1 Y763.46 F6000.
N12965 G2 Y761.555 Z-73.095 J0. K1.905 F1000.
N12970 G0 Z5.
N12975 X-305.72 Y932.995
N12980 Z-73.095
N12985 G3 Y934.9 Z-75. J1.905 K0. F1000.
N12990 G1 Y1291.689 F6000.
N12995 G3 Y1293.594 Z-73.095 J0. K1.905 F1000.
N13000 G0 Z5.
N13005 X-245.73 Y1625.566
N13010 Z-72.481
N13015 G1 Z-73.095 F1000.
N13020 G3 Y1627.471 Z-75. J1.905 K0.
N13025 G1 Y1636.242 F6000.
N13030 G3 Y1638.147 Z-73.095 J0. K1.905 F1000.
N13035 G0 Z5.
N13040 X244.192 Y1642.628
N13045 Z-73.095
N13050 G2 Y1640.723 Z-75. J-1.905 K0. F1000.
N13055 G1 Y1632.974 F6000.
N13060 X254.191 Y1610.104
N13065 Y1584.303
N13070 G2 Y1582.398 Z-73.095 J0. K1.905 F1000.
N13075 G0 Z5.
N13080 X144.208 Y89.658
N13085 Z-28.036
N13090 G1 Z-73.993 F1000.
N13095 G2 Y88.651 Z-75. J-1.007 K0.
N13100 G1 Y83.457 F6000.
N13105 G2 Y81.552 Z-73.095 J0. K1.905 F1000.
N13110 G0 Z15.
N13115 G17
(PARALLEL1 4)
N13120 G0 X114.5 Y93.488
N13125 Z15.
N13130 Z-21.083
N13135 G1 Z-22.957 F1000.
N13140 G18 G3 X112.009 Z-24.77 I-1.905 K0.
N13145 G1 X111.812 Z-22.727 F6000.
N13150 X111.293 Z-20.421
N13155 X110.547 Z-18.557
N13160 X109.5 Z-16.847
N13165 X108.208 Z-15.343
N13170 X106.443 Z-13.901
N13175 X104.486 Z-12.78
N13180 X102.29 Z-11.898
N13185 X99.446 Z-11.128
N13190 X94.339 Z-10.289
N13195 X92.851 Z-10.301
N13200 X90.119 Z-10.672
N13205 X88.184 Z-11.218
N13210 X86.628 Z-11.872
N13215 X85.731 Z-12.471
N13220 X85.205 Z-12.929
N13225 X84.679 Z-13.565
N13230 X84.264 Z-14.591
N13235 X83.761 Z-24.748
N13240 X82.626 Y93.811 Z-24.75
N13245 X81.499 Y94.155 Z-24.752
N13250 X80.376 Y94.514 Z-24.755
N13255 X79.254 Y94.875 Z-24.757
N13260 X78.139 Y95.257 Z-24.76
N13265 X77.03 Y95.657 Z-24.762
N13270 X75.922 Y96.059 Z-24.764
N13275 X74.823 Y96.488 Z-24.767
N13280 X75.138 Z-15.125
N13285 X75.238 Z-13.677
N13290 X75.533 Z-12.795
N13295 X76.226 Z-11.771
N13300 X77.287 Z-10.81
N13305 X79.052 Z-9.72
N13310 X80.925 Z-8.962
N13315 X83.498 Z-8.224
N13320 X86.789 Z-7.702
N13325 X90.375 Z-7.469
N13330 X94.073 Z-7.542
N13335 X98.696 Z-8.213
N13340 X102.097 Z-8.995
N13345 X104.871 Z-9.99
N13350 X106.961 Z-11.038
N13355 X109.013 Z-12.467
N13360 X110.702 Z-14.072
N13365 X111.865 Z-15.567
N13370 X112.983 Z-17.475
N13375 X113.867 Z-19.753
N13380 X114.419 Z-22.311
N13385 X114.635 Z-24.785
N13390 X115.337 Y97.979 Z-24.754
N13395 X116. Y99.488 Z-24.723
N13400 X115.813 Z-22.592
N13405 X115.247 Z-19.876
N13410 X114.534 Z-17.904
N13415 X113.426 Z-15.803
N13420 X112.178 Z-14.05
N13425 X110.476 Z-12.269
N13430 X108.497 Z-10.723
N13435 X106.33 Z-9.458
N13440 X103.715 Z-8.359
N13445 X100.586 Z-7.468
N13450 X96.089 Z-6.675
N13455 X91.682 Z-6.198
N13460 X87.168 Z-6.024
N13465 X83.391 Z-6.144
N13470 X80.078 Z-6.481
N13475 X76.802 Z-7.115
N13480 X74.251 Z-7.925
N13485 X72.398 Z-8.714
N13490 X70.912 Z-9.552
N13495 X69.553 Z-10.682
N13500 X69.086 Z-11.203
N13505 X68.62 Z-11.867
N13510 X68.17 Z-12.851
N13515 X67.983 Z-13.978
N13520 X67.684 Z-24.686
N13525 X66.108 Y100.213 Z-24.684
N13530 X64.543 Y100.963 Z-24.682
N13535 X62.985 Y101.724 Z-24.68
N13540 X61.427 Y102.488 Z-24.679
N13545 X61.728 Z-13.844
N13550 X61.868 Z-12.773
N13555 X62.158 Z-11.97
N13560 X62.447 Z-11.429
N13565 X62.908 Z-10.773
N13570 X63.894 Z-9.745
N13575 X64.986 Z-8.899
N13580 X66.45 Z-8.022
N13585 X68.615 Z-7.094
N13590 X71.177 Z-6.324
N13595 X73.795 Z-5.802
N13600 X77.779 Z-5.346
N13605 X81.67 Z-5.225
N13610 X86.722 Z-5.44
N13615 X91.875 Z-5.967
N13620 X97.737 Z-6.77
N13625 X100.649 Z-7.296
N13630 X102.084 Z-7.628
N13635 X105.231 Z-8.605
N13640 X107.728 Z-9.726
N13645 X109.901 Z-11.022
N13650 X111.715 Z-12.458
N13655 X113.435 Z-14.228
N13660 X114.868 Z-16.294
N13665 X115.511 Z-17.424
N13670 X116.259 Z-19.251
N13675 X116.738 Z-20.785
N13680 X117.072 Z-22.49
N13685 X117.305 Z-24.625
N13690 X117.956 Y103.989 Z-24.638
N13695 X118.61 Y105.488 Z-24.652
N13700 X118.419 Z-22.99
N13705 X117.947 Z-20.643
N13710 X116.924 Z-17.9
N13715 X116.102 Z-16.427
N13720 X114.762 Z-14.511
N13725 X113.139 Z-12.81
N13730 X111.267 Z-11.318
N13735 X109.405 Z-10.164
N13740 X107.455 Z-9.219
N13745 X104.69 Z-8.216
N13750 X103.279 Z-7.827
N13755 X101.846 Z-7.497
N13760 X98.934 Z-6.971
N13765 X94.69 Z-6.368
N13770 X88.809 Z-5.701
N13775 X81.438 Z-5.05
N13780 X77.73 Z-4.811
N13785 X73.575 Z-4.789
N13790 X69.766 Z-5.09
N13795 X67.133 Z-5.52
N13800 X63.904 Z-6.362
N13805 X61.706 Z-7.192
N13810 X59.621 Z-8.336
N13815 X57.994 Z-9.601
N13820 X57.038 Z-10.671
N13825 X56.595 Z-11.356
N13830 X56.097 Z-12.585
N13835 X55.953 Z-13.783
N13840 X55.713 Z-24.584
N13845 X54.367 Y106.227 Z-24.6
N13850 X53.022 Y106.968 Z-24.615
N13855 X51.683 Y107.718 Z-24.631
N13860 X50.354 Y108.488 Z-24.647
N13865 X50.609 Z-13.335
N13870 X50.858 Z-12.074
N13875 X51.231 Z-11.206
N13880 X51.511 Z-10.728
N13885 X52.552 Z-9.474
N13890 X53.614 Z-8.564
N13895 X55.344 Z-7.453
N13900 X57.48 Z-6.45
N13905 X60.354 Z-5.546
N13910 X63.786 Z-4.86
N13915 X67.704 Z-4.513
N13920 X71.481 Z-4.5
N13925 X77.316 Z-4.855
N13930 X85.443 Z-5.475
N13935 X91.336 Z-6.039
N13940 X97.212 Z-6.744
N13945 X101.599 Z-7.42
N13950 X103.05 Z-7.703
N13955 X104.483 Z-8.033
N13960 X105.895 Z-8.416
N13965 X108.664 Z-9.419
N13970 X110.296 Z-10.191
N13975 X112.477 Z-11.498
N13980 X113.622 Z-12.362
N13985 X114.289 Z-12.927
N13990 X115.987 Z-14.682
N13995 X117.338 Z-16.591
N14000 X118.239 Z-18.213
N14005 X119.22 Z-20.821
N14010 X119.655 Z-22.787
N14015 X119.894 Z-24.673
N14020 X120.537 Y109.987 Z-24.715
N14025 X121.179 Y111.488 Z-24.757
N14030 X120.73 Z-21.958
N14035 X120.023 Z-19.654
N14040 X119.025 Z-17.482
N14045 X117.491 Z-15.202
N14050 X115.765 Z-13.355
N14055 X113.916 Z-11.857
N14060 X113.252 Z-11.406
N14065 X112.027 Z-10.669
N14070 X110.048 Z-9.699
N14075 X108.009 Z-8.919
N14080 X105.176 Z-8.113
N14085 X102.288 Z-7.539
N14090 X97.902 Z-6.878
N14095 X91.987 Z-6.181
N14100 X84.651 Z-5.507
N14105 X77.252 Z-4.962
N14110 X66.72 Z-4.359
N14115 X63.499 Z-4.289
N14120 X59.937 Z-4.498
N14125 X56.646 Z-5.016
N14130 X53.5 Z-5.856
N14135 X51.544 Z-6.637
N14140 X49.753 Z-7.581
N14145 X48.068 Z-8.785
N14150 X47.055 Z-9.801
N14155 X46.198 Z-11.048
N14160 X45.699 Z-12.284
N14165 X45.519 Z-13.575
N14170 X45.277 Z-24.841
N14175 X44.065 Y112.238 Z-24.873
N14180 X41.643 Y113.738 Z-24.938
N14185 X40.431 Y114.488 Z-24.971
N14190 X40.695 Z-12.967
N14195 X40.977 Z-11.805
N14200 X41.35 Z-10.973
N14205 X42.186 Z-9.746
N14210 X43.174 Z-8.724
N14215 X44.266 Z-7.879
N14220 X46.014 Z-6.843
N14225 X47.862 Z-6.015
N14230 X50.414 Z-5.192
N14235 X53.025 Z-4.638
N14240 X56.345 Z-4.253
N14245 X59.999 Z-4.185
N14250 X71.746 Z-4.748
N14255 X81.452 Z-5.366
N14260 X88.833 Z-5.962
N14265 X94.724 Z-6.551
N14270 X99.131 Z-7.089
N14275 X103.518 Z-7.754
N14280 X106.406 Z-8.331
N14285 X109.237 Z-9.138
N14290 X111.275 Z-9.919
N14295 X113.254 Z-10.887
N14300 X114.495 Z-11.633
N14305 X115.082 Z-12.027
N14310 X116.781 Z-13.373
N14315 X117.807 Z-14.368
N14320 X118.729 Z-15.412
N14325 X119.917 Z-17.148
N14330 X120.758 Z-18.631
N14335 X121.882 Z-21.683
N14340 X122.464 Z-24.954
N14345 X123.098 Y115.987 Z-25.066
N14350 X123.73 Y117.488 Z-25.178
N14355 X123.163 Z-22.012
N14360 X122.374 Z-19.699
N14365 X121.494 Z-17.894
N14370 X119.917 Z-15.574
N14375 X118.024 Z-13.6
N14380 X116.26 Z-12.21
N14385 X114.103 Z-10.909
N14390 X111.778 Z-9.841
N14395 X109.442 Z-9.03
N14400 X107.572 Z-8.533
N14405 X104.685 Z-7.959
N14410 X100.298 Z-7.295
N14415 X95.155 Z-6.674
N14420 X88.676 Z-6.046
N14425 X81.595 Z-5.489
N14430 X72.776 Z-4.937
N14435 X61.049 Z-4.361
N14440 X53.526 Z-4.109
N14445 X50.39 Z-4.274
N14450 X47.095 Z-4.78
N14455 X44.506 Z-5.456
N14460 X42.003 Z-6.437
N14465 X40.22 Z-7.399
N14470 X38.547 Z-8.635
N14475 X37.557 Z-9.654
N14480 X36.705 Z-10.895
N14485 X36.227 Z-12.009
N14490 X35.982 Z-13.328
N14495 X35.744 Z-25.057
N14500 X34.607 Y118.226 Z-25.111
N14505 X33.478 Y118.976 Z-25.165
N14510 X31.228 Y120.488 Z-25.273
N14515 X31.452 Z-13.621
N14520 X31.595 Z-12.439
N14525 X31.949 Z-11.386
N14530 X32.341 Z-10.629
N14535 X33.206 Z-9.451
N14540 X34.204 Z-8.462
N14545 X35.864 Z-7.26
N14550 X37.664 Z-6.306
N14555 X39.533 Z-5.556
N14560 X42.108 Z-4.825
N14565 X44.734 Z-4.358
N14570 X47.539 Z-4.112
N14575 X50.763 Z-4.121
N14580 X65.034 Z-4.667
N14585 X76.824 Z-5.293
N14590 X85.28 Z-5.873
N14595 X93.979 Z-6.631
N14600 X99.862 Z-7.29
N14605 X104.258 Z-7.905
N14610 X107.17 Z-8.41
N14615 X109.325 Z-8.891
N14620 X111.448 Z-9.508
N14625 X112.818 Z-9.996
N14630 X114.711 Z-10.82
N14635 X116.72 Z-11.936
N14640 X117.658 Z-12.565
N14645 X119.55 Z-14.103
N14650 X121.244 Z-15.921
N14655 X122.633 Z-17.936
N14660 X123.799 Z-20.338
N14665 X124.519 Z-22.672
N14670 X124.986 Z-25.333
N14675 X125.614 Y121.987 Z-25.477
N14680 X126.242 Y123.488 Z-25.621
N14685 X125.959 Z-23.852
N14690 X125.705 Z-22.665
N14695 X124.977 Z-20.478
N14700 X123.924 Z-18.281
N14705 X122.83 Z-16.624
N14710 X121.946 Z-15.546
N14715 X120.437 Z-14.041
N14720 X118.759 Z-12.718
N14725 X116.898 Z-11.559
N14730 X114.953 Z-10.602
N14735 X112.891 Z-9.808
N14740 X110.787 Z-9.176
N14745 X107.175 Z-8.406
N14750 X103.527 Z-7.832
N14755 X99.124 Z-7.266
N14760 X93.236 Z-6.647
N14765 X84.383 Z-5.913
N14770 X74.677 Z-5.288
N14775 X61.303 Z-4.64
N14780 X44.24 Z-4.087
N14785 X41.339 Z-4.227
N14790 X38.699 Z-4.599
N14795 X36.099 Z-5.225
N14800 X33.578 Z-6.153
N14805 X31.776 Z-7.073
N14810 X30.075 Z-8.26
N14815 X29.056 Z-9.231
N14820 X28.158 Z-10.387
N14825 X27.798 Z-11.01
N14830 X27.438 Z-11.846
N14835 X27.136 Z-13.201
N14840 X27.018 Z-16.607
N14845 X26.888 Z-25.522
N14850 X22.617 Y126.487 Z-25.91
N14855 X22.847 Z-13.685
N14860 X23.038 Z-12.37
N14865 X23.37 Z-11.431
N14870 X23.702 Z-10.78
N14875 X24.564 Z-9.567
N14880 X25.557 Z-8.556
N14885 X27.218 Z-7.31
N14890 X28.993 Z-6.33
N14895 X30.862 Z-5.555
N14900 X32.945 Z-4.921
N14905 X36.062 Z-4.349
N14910 X38.721 Z-4.133
N14915 X47.728 Z-4.309
N14920 X66.612 Z-5.005
N14925 X79.433 Z-5.695
N14930 X88.324 Z-6.321
N14935 X95.697 Z-6.977
N14940 X101.58 Z-7.628
N14945 X105.979 Z-8.231
N14950 X109.257 Z-8.785
N14955 X111.777 Z-9.346
N14960 X113.187 Z-9.742
N14965 X115.097 Z-10.394
N14970 X117.265 Z-11.348
N14975 X119.469 Z-12.612
N14980 X121.191 Z-13.88
N14985 X122.895 Z-15.484
N14990 X124.411 Z-17.354
N14995 X125.718 Z-19.566
N15000 X126.902 Z-22.736
N15005 X127.489 Z-25.875
N15010 X127.499 Z-25.898
N15015 X127.517 Z-25.913
N15020 X127.541 Z-25.919
N15025 X128.782
N15030 X129.017 Y126.506 Z-25.921
N15035 X129.247 Y126.561 Z-25.926
N15040 X129.466 Y126.651 Z-25.935
N15045 X129.668 Y126.774 Z-25.947
N15050 X129.847 Y126.927 Z-25.962
N15055 X130.001 Y127.106 Z-25.98
N15060 X130.125 Y127.306 Z-26.
N15065 X130.215 Y127.524 Z-26.021
N15070 X130.27 Y127.753 Z-26.044
N15075 X130.289 Y127.987 Z-26.067
N15080 X130.27 Y128.222 Z-26.091
N15085 X130.215 Y128.451 Z-26.113
N15090 X130.125 Y128.668 Z-26.135
N15095 X130.001 Y128.869 Z-26.155
N15100 X129.847 Y129.048 Z-26.172
N15105 X129.668 Y129.201 Z-26.187
N15110 X129.466 Y129.324 Z-26.2
N15115 X129.247 Y129.414 Z-26.209
N15120 X129.017 Y129.469 Z-26.214
N15125 X128.782 Y129.487 Z-26.216
N15130 X128.758 Z-26.21
N15135 X128.739 Z-26.195
N15140 X128.729 Z-26.172
N15145 X128.17 Z-23.161
N15150 X127.297 Z-20.613
N15155 X126.38 Z-18.788
N15160 X126.037 Z-18.222
N15165 X125.008 Z-16.766
N15170 X123.363 Z-14.963
N15175 X122.29 Z-14.029
N15180 X121.148 Z-13.163
N15185 X119.291 Z-12.01
N15190 X117.344 Z-11.056
N15195 X114.588 Z-10.031
N15200 X113.183 Z-9.628
N15205 X111.751 Z-9.271
N15210 X110.301 Z-8.973
N15215 X107.39 Z-8.478
N15220 X101.525 Z-7.688
N15225 X94.315 Z-6.937
N15230 X86.938 Z-6.328
N15235 X77.996 Z-5.733
N15240 X61.384 Z-4.917
N15245 X47.798 Z-4.455
N15250 X34.668 Z-4.174
N15255 X31.622 Z-4.423
N15260 X28.999 Z-4.916
N15265 X26.435 Z-5.69
N15270 X24.572 Z-6.482
N15275 X22.52 Z-7.674
N15280 X21.161 Z-8.783
N15285 X20.2 Z-9.841
N15290 X19.383 Z-11.117
N15295 X18.932 Z-12.247
N15300 X18.722 Z-13.294
N15305 X18.472 Z-26.149
N15310 X17.462 Y130.229 Z-26.229
N15315 X16.457 Y130.976 Z-26.308
N15320 X14.458 Y132.487 Z-26.467
N15325 X14.723 Z-13.244
N15330 X15.07 Z-11.865
N15335 X15.688 Z-10.616
N15340 X16.556 Z-9.449
N15345 X17.918 Z-8.152
N15350 X19.806 Z-6.898
N15355 X21.625 Z-6.015
N15360 X23.522 Z-5.327
N15365 X25.463 Z-4.827
N15370 X28.098 Z-4.408
N15375 X30.957 Z-4.239
N15380 X43.799 Z-4.501
N15385 X62.643 Z-5.11
N15390 X74.503 Z-5.665
N15395 X83.194 Z-6.184
N15400 X91.771 Z-6.82
N15405 X98.957 Z-7.483
N15410 X105.022 Z-8.19
N15415 X109.411 Z-8.833
N15420 X112.32 Z-9.366
N15425 X113.755 Z-9.692
N15430 X116.576 Z-10.524
N15435 X118.61 Z-11.32
N15440 X120.584 Z-12.302
N15445 X122.698 Z-13.649
N15450 X124.869 Z-15.497
N15455 X126.514 Z-17.39
N15460 X127.959 Z-19.692
N15465 X128.786 Z-21.528
N15470 X129.003 Z-22.138
N15475 X129.567 Z-24.126
N15480 X129.964 Z-26.466
N15485 G2 X131.144 Z-25.541 I0.228 K0.925 F1000.
N15490 G1 X131.147 Y132.495 Z-25.382 F6000.
N15495 X131.156 Y132.516 Z-25.225
N15500 X131.171 Y132.552 Z-25.07
N15505 X131.191 Y132.602 Z-24.921
N15510 X131.217 Y132.665 Z-24.777
N15515 X131.248 Y132.74 Z-24.64
N15520 X131.284 Y132.828 Z-24.512
N15525 X131.325 Y132.927 Z-24.394
N15530 X131.369 Y133.036 Z-24.288
N15535 X131.418 Y133.154 Z-24.193
N15540 X131.47 Y133.28 Z-24.111
N15545 X131.525 Y133.413 Z-24.043
N15550 X131.581 Y133.552 Z-23.989
N15555 X131.64 Y133.695 Z-23.951
N15560 X131.7 Y133.84 Z-23.927
N15565 X131.76 Y133.987 Z-23.92
N15570 X131.821 Y134.134 Z-23.927
N15575 X131.881 Y134.28 Z-23.951
N15580 X131.939 Y134.423 Z-23.989
N15585 X131.996 Y134.561 Z-24.043
N15590 X132.051 Y134.694 Z-24.111
N15595 X132.103 Y134.821 Z-24.193
N15600 X132.151 Y134.939 Z-24.288
N15605 X132.196 Y135.048 Z-24.394
N15610 X132.237 Y135.147 Z-24.512
N15615 X132.273 Y135.235 Z-24.64
N15620 X132.304 Y135.31 Z-24.777
N15625 X132.33 Y135.373 Z-24.921
N15630 X132.35 Y135.423 Z-25.07
N15635 X132.365 Y135.459 Z-25.225
N15640 X132.374 Y135.48 Z-25.382
N15645 X132.377 Y135.487 Z-25.541
N15650 Z-25.861
N15655 G3 X131.189 Z-26.784 I-0.952 K0. F1000.
N15660 G1 X130.608 Z-23.671 F6000.
N15665 X129.95 Z-21.721
N15670 X129.442 Z-20.511
N15675 X128.803 Z-19.299
N15680 X127.444 Z-17.295
N15685 X126.279 Z-15.968
N15690 X124.704 Z-14.524
N15695 X122.657 Z-13.057
N15700 X119.923 Z-11.607
N15705 X117.37 Z-10.626
N15710 X114.903 Z-9.91
N15715 X113.468 Z-9.582
N15720 X110.558 Z-9.045
N15725 X106.169 Z-8.401
N15730 X100.291 Z-7.709
N15735 X92.921 Z-7.02
N15740 X84.053 Z-6.358
N15745 X73.526 Z-5.74
N15750 X55.514 Z-4.978
N15755 X34.363 Z-4.432
N15760 X26.054 Z-4.329
N15765 X23.295 Z-4.57
N15770 X20.674 Z-5.078
N15775 X18.12 Z-5.897
N15780 X16.276 Z-6.744
N15785 X14.543 Z-7.812
N15790 X13.466 Z-8.682
N15795 X12.493 Z-9.719
N15800 X11.666 Z-10.934
N15805 X11.076 Z-12.307
N15810 X10.823 Z-13.625
N15815 X10.691 Z-19.035
N15820 X10.562 Z-26.749
N15825 G3 X8.071 Z-24.936 I-0.585 K1.813 F1000.
N15830 G0 Z5.
N15835 X-81.334 Y93.488
N15840 Z-9.701
N15845 G1 Z-22.957 F1000.
N15850 G3 X-83.759 Z-24.789 I-1.905 K0.
N15855 G1 X-84.285 Z-14.479 F6000.
N15860 X-84.6 Z-13.693
N15865 X-85.353 Z-12.788
N15870 X-86.601 Z-11.888
N15875 X-88.4 Z-11.145
N15880 X-90.157 Z-10.665
N15885 X-92.704 Z-10.312
N15890 X-94.384 Z-10.294
N15895 X-99.708 Z-11.18
N15900 X-102.597 Z-11.995
N15905 X-104.606 Z-12.858
N15910 X-106.792 Z-14.147
N15915 X-108.283 Z-15.431
N15920 X-109.244 Z-16.509
N15925 X-110.267 Z-18.053
N15930 X-110.956 Z-19.517
N15935 X-111.663 Z-21.813
N15940 X-112.015 Z-24.512
N15945 X-112.033 Z-24.831
N15950 X-112.808 Y94.134 Z-24.821
N15955 X-113.503 Y94.849 Z-24.812
N15960 X-114.119 Y95.634 Z-24.802
N15965 X-114.656 Y96.488 Z-24.792
N15970 X-114.617 Z-24.019
N15975 X-114.211 Z-21.093
N15980 X-113.461 Z-18.588
N15985 X-112.574 Z-16.707
N15990 X-111.357 Z-14.863
N15995 X-109.864 Z-13.212
N16000 X-107.833 Z-11.589
N16005 X-105.697 Z-10.377
N16010 X-103.33 Z-9.389
N16015 X-100.228 Z-8.519
N16020 X-95.145 Z-7.654
N16025 X-92.459 Z-7.473
N16030 X-88.512 Z-7.549
N16035 X-85.575 Z-7.847
N16040 X-82.698 Z-8.428
N16045 X-79.845 Z-9.354
N16050 X-78.013 Z-10.31
N16055 X-76.886 Z-11.132
N16060 X-76.107 Z-11.908
N16065 X-75.541 Z-12.778
N16070 X-75.21 Z-13.83
N16075 X-74.823 Z-24.756
N16080 X-73.026 Y97.209 Z-24.769
N16085 X-71.23 Y97.933 Z-24.782
N16090 X-69.451 Y98.699 Z-24.795
N16095 X-67.682 Y99.488 Z-24.808
N16100 X-68.031 Z-13.431
N16105 X-68.315 Z-12.462
N16110 X-68.807 Z-11.577
N16115 X-69.622 Z-10.613
N16120 X-71.082 Z-9.437
N16125 X-73.152 Z-8.367
N16130 X-75.899 Z-7.373
N16135 X-78.029 Z-6.837
N16140 X-81.311 Z-6.322
N16145 X-85.383 Z-6.043
N16150 X-89.915 Z-6.098
N16155 X-94.837 Z-6.494
N16160 X-99.926 Z-7.334
N16165 X-103.161 Z-8.175
N16170 X-105.888 Z-9.238
N16175 X-108.188 Z-10.511
N16180 X-110.229 Z-12.055
N16185 X-111.935 Z-13.762
N16190 X-113.004 Z-15.158
N16195 X-114.226 Z-17.231
N16200 X-115.108 Z-19.427
N16205 X-115.638 Z-21.601
N16210 X-115.953 Z-23.865
N16215 X-116.002 Z-24.777
N16220 X-116.655 Y100.986 Z-24.679
N16225 X-117.301 Y102.488 Z-24.582
N16230 X-117.237 Z-23.567
N16235 X-116.782 Z-20.99
N16240 X-116.449 Z-19.781
N16245 X-115.504 Z-17.411
N16250 X-114.416 Z-15.607
N16255 X-113.255 Z-14.016
N16260 X-111.556 Z-12.318
N16265 X-109.659 Z-10.863
N16270 X-107.454 Z-9.583
N16275 X-104.588 Z-8.375
N16280 X-101.295 Z-7.431
N16285 X-96.873 Z-6.635
N16290 X-91.449 Z-5.918
N16295 X-85.795 Z-5.373
N16300 X-80.949 Z-5.229
N16305 X-77.208 Z-5.393
N16310 X-73.543 Z-5.842
N16315 X-70.664 Z-6.456
N16320 X-68.563 Z-7.114
N16325 X-66.647 Z-7.92
N16330 X-64.725 Z-9.083
N16335 X-63.651 Z-9.967
N16340 X-62.768 Z-10.955
N16345 X-62.15 Z-11.987
N16350 X-61.83 Z-12.93
N16355 X-61.744 Z-13.505
N16360 X-61.427 Z-24.679
N16365 X-59.991 Y103.222 Z-24.653
N16370 X-58.559 Y103.966 Z-24.628
N16375 X-57.13 Y104.716 Z-24.602
N16380 X-55.713 Y105.488 Z-24.576
N16385 X-55.993 Z-13.117
N16390 X-56.135 Z-12.447
N16395 X-56.472 Z-11.589
N16400 X-57.132 Z-10.546
N16405 X-58.038 Z-9.56
N16410 X-59.121 Z-8.678
N16415 X-60.965 Z-7.556
N16420 X-62.946 Z-6.689
N16425 X-65.755 Z-5.836
N16430 X-68.641 Z-5.245
N16435 X-72.314 Z-4.853
N16440 X-76.074 Z-4.769
N16445 X-80.456 Z-4.973
N16450 X-87.381 Z-5.564
N16455 X-92.97 Z-6.156
N16460 X-97.885 Z-6.81
N16465 X-101.168 Z-7.361
N16470 X-103.768 Z-7.954
N16475 X-106.322 Z-8.757
N16480 X-108.941 Z-9.919
N16485 X-110.833 Z-11.023
N16490 X-112.22 Z-12.019
N16495 X-113.99 Z-13.642
N16500 X-115.325 Z-15.248
N16505 X-116.65 Z-17.349
N16510 X-117.502 Z-19.366
N16515 X-118.124 Z-21.34
N16520 X-118.597 Z-24.381
N16525 X-118.606 Z-24.565
N16530 X-119.897 Y108.488 Z-24.744
N16535 X-119.878 Z-24.39
N16540 X-119.446 Z-21.71
N16545 X-118.747 Z-19.439
N16550 X-117.86 Z-17.45
N16555 X-116.319 Z-15.092
N16560 X-115.034 Z-13.639
N16565 X-113.109 Z-11.95
N16570 X-110.755 Z-10.429
N16575 X-108.714 Z-9.44
N16580 X-107.385 Z-8.907
N16585 X-104.914 Z-8.145
N16590 X-103.452 Z-7.784
N16595 X-99.688 Z-7.105
N16600 X-95.737 Z-6.55
N16605 X-88.979 Z-5.8
N16610 X-81.541 Z-5.159
N16615 X-71.92 Z-4.518
N16620 X-68.143 Z-4.495
N16625 X-64.45 Z-4.776
N16630 X-61.544 Z-5.267
N16635 X-58.704 Z-6.019
N16640 X-56.656 Z-6.8
N16645 X-54.746 Z-7.799
N16650 X-53.014 Z-9.048
N16655 X-52.049 Z-10.011
N16660 X-51.32 Z-11.045
N16665 X-50.855 Z-12.085
N16670 X-50.647 Z-12.967
N16675 X-50.359 Z-24.746
N16680 X-49.083 Y109.227 Z-24.738
N16685 X-47.808 Y109.969 Z-24.729
N16690 X-46.54 Y110.722 Z-24.72
N16695 X-45.279 Y111.488 Z-24.711
N16700 X-45.53 Z-13.289
N16705 X-45.618 Z-12.629
N16710 X-45.908 Z-11.663
N16715 X-46.462 Z-10.601
N16720 X-47.511 Z-9.3
N16725 X-48.832 Z-8.189
N16730 X-50.651 Z-7.075
N16735 X-52.642 Z-6.172
N16740 X-54.716 Z-5.486
N16745 X-57.586 Z-4.833
N16750 X-60.51 Z-4.444
N16755 X-64.251 Z-4.283
N16760 X-67.909 Z-4.42
N16765 X-78.145 Z-5.024
N16770 X-86.732 Z-5.681
N16775 X-93.335 Z-6.327
N16780 X-98.615 Z-6.976
N16785 X-102.56 Z-7.586
N16790 X-105.658 Z-8.233
N16795 X-108.383 Z-9.042
N16800 X-111.168 Z-10.218
N16805 X-113.362 Z-11.481
N16810 X-115.143 Z-12.809
N16815 X-116.398 Z-13.961
N16820 X-117.962 Z-15.822
N16825 X-118.925 Z-17.308
N16830 X-119.993 Z-19.573
N16835 X-120.679 Z-21.753
N16840 X-121.118 Z-24.146
N16845 X-121.179 Z-24.76
N16850 X-121.821 Y112.987 Z-24.844
N16855 X-122.461 Y114.488 Z-24.927
N16860 X-121.925 Z-21.849
N16865 X-121.11 Z-19.465
N16870 X-120.312 Z-17.777
N16875 X-118.774 Z-15.47
N16880 X-117.869 Z-14.433
N16885 X-116.107 Z-12.801
N16890 X-114.176 Z-11.426
N16895 X-113. Z-10.753
N16900 X-111.483 Z-10.004
N16905 X-109.297 Z-9.158
N16910 X-108.174 Z-8.799
N16915 X-105.431 Z-8.115
N16920 X-101.823 Z-7.478
N16925 X-96.223 Z-6.725
N16930 X-90.633 Z-6.134
N16935 X-83.554 Z-5.53
N16940 X-73.812 Z-4.869
N16945 X-59.981 Z-4.184
N16950 X-56.228 Z-4.26
N16955 X-53.295 Z-4.594
N16960 X-50.412 Z-5.192
N16965 X-48.32 Z-5.842
N16970 X-46.304 Z-6.698
N16975 X-44.441 Z-7.76
N16980 X-43.059 Z-8.829
N16985 X-41.913 Z-10.092
N16990 X-41.185 Z-11.302
N16995 X-40.807 Z-12.363
N17000 X-40.666 Z-13.265
N17005 X-40.409 Z-25.002
N17010 X-39.235 Y115.226 Z-25.044
N17015 X-38.068 Y115.977 Z-25.086
N17020 X-35.741 Y117.488 Z-25.17
N17025 X-36.008 Z-13.032
N17030 X-36.177 Z-12.178
N17035 X-36.578 Z-11.139
N17040 X-37.234 Z-10.067
N17045 X-38.109 Z-9.05
N17050 X-39.154 Z-8.131
N17055 X-40.965 Z-6.964
N17060 X-42.922 Z-6.035
N17065 X-45.345 Z-5.202
N17070 X-47.854 Z-4.632
N17075 X-51.145 Z-4.206
N17080 X-54.074 Z-4.108
N17085 X-62.358 Z-4.415
N17090 X-75.595 Z-5.095
N17095 X-84.528 Z-5.704
N17100 X-91.604 Z-6.312
N17105 X-97.044 Z-6.886
N17110 X-102.976 Z-7.679
N17115 X-106.255 Z-8.253
N17120 X-107.558 Z-8.53
N17125 X-108.847 Z-8.863
N17130 X-111.397 Z-9.687
N17135 X-113.864 Z-10.785
N17140 X-116.04 Z-12.064
N17145 X-118.092 Z-13.659
N17150 X-119.744 Z-15.366
N17155 X-121.172 Z-17.39
N17160 X-122.113 Z-19.088
N17165 X-123.116 Z-21.828
N17170 X-123.667 Z-24.653
N17175 X-123.73 Z-25.173
N17180 X-124.361 Y118.987 Z-25.278
N17185 X-124.991 Y120.488 Z-25.382
N17190 X-124.629 Z-23.12
N17195 X-123.925 Z-20.69
N17200 X-123.026 Z-18.647
N17205 X-121.721 Z-16.545
N17210 X-119.906 Z-14.438
N17215 X-117.82 Z-12.676
N17220 X-115.784 Z-11.381
N17225 X-113.707 Z-10.362
N17230 X-111.99 Z-9.686
N17235 X-109.205 Z-8.86
N17240 X-106.007 Z-8.194
N17245 X-102.064 Z-7.581
N17250 X-96.633 Z-6.911
N17255 X-89.866 Z-6.248
N17260 X-82.778 Z-5.687
N17265 X-73.656 Z-5.104
N17270 X-61.12 Z-4.499
N17275 X-50.561 Z-4.116
N17280 X-47.106 Z-4.132
N17285 X-44.17 Z-4.438
N17290 X-41.109 Z-5.069
N17295 X-38.507 Z-5.942
N17300 X-36.547 Z-6.866
N17305 X-35.035 Z-7.806
N17310 X-33.689 Z-8.939
N17315 X-32.798 Z-9.952
N17320 X-32.121 Z-11.025
N17325 X-31.692 Z-12.078
N17330 X-31.498 Z-12.971
N17335 X-31.225 Z-25.388
N17340 X-30.131 Y121.223 Z-25.445
N17345 X-29.044 Y121.971 Z-25.503
N17350 X-26.887 Y123.488 Z-25.618
N17355 X-27.072 Z-14.283
N17360 X-27.166 Z-12.953
N17365 X-27.355 Z-12.101
N17370 X-27.544 Z-11.564
N17375 X-27.966 Z-10.701
N17380 X-28.821 Z-9.497
N17385 X-30.285 Z-8.088
N17390 X-32.069 Z-6.905
N17395 X-34.019 Z-5.965
N17400 X-36.614 Z-5.075
N17405 X-38.945 Z-4.554
N17410 X-41.87 Z-4.181
N17415 X-45.108 Z-4.097
N17420 X-62.354 Z-4.683
N17425 X-74.069 Z-5.253
N17430 X-83.96 Z-5.881
N17435 X-92.371 Z-6.567
N17440 X-97.813 Z-7.116
N17445 X-104.709 Z-8.004
N17450 X-108.646 Z-8.684
N17455 X-111.379 Z-9.331
N17460 X-114.097 Z-10.251
N17465 X-115.022 Z-10.63
N17470 X-117.133 Z-11.683
N17475 X-119.125 Z-12.97
N17480 X-121.296 Z-14.841
N17485 X-123.007 Z-16.861
N17490 X-124.305 Z-18.971
N17495 X-125.046 Z-20.667
N17500 X-125.789 Z-23.002
N17505 X-126.242 Z-25.622
N17510 G3 X-127.435 Z-24.7 I-0.24 K0.922 F1000.
N17515 G1 X-127.438 Y123.495 Z-24.541 F6000.
N17520 X-127.447 Y123.516 Z-24.384
N17525 X-127.461 Y123.552 Z-24.23
N17530 X-127.482 Y123.602 Z-24.08
N17535 X-127.507 Y123.665 Z-23.937
N17540 X-127.538 Y123.74 Z-23.8
N17545 X-127.574 Y123.828 Z-23.673
N17550 X-127.614 Y123.927 Z-23.555
N17555 X-127.659 Y124.036 Z-23.448
N17560 X-127.707 Y124.154 Z-23.353
N17565 X-127.758 Y124.28 Z-23.272
N17570 X-127.813 Y124.413 Z-23.204
N17575 X-127.869 Y124.552 Z-23.15
N17580 X-127.927 Y124.695 Z-23.111
N17585 X-127.987 Y124.84 Z-23.088
N17590 X-128.047 Y124.988 Z-23.08
N17595 X-128.107 Y125.135 Z-23.088
N17600 X-128.166 Y125.28 Z-23.111
N17605 X-128.224 Y125.423 Z-23.15
N17610 X-128.281 Y125.562 Z-23.204
N17615 X-128.335 Y125.695 Z-23.272
N17620 X-128.386 Y125.821 Z-23.353
N17625 X-128.435 Y125.939 Z-23.448
N17630 X-128.479 Y126.048 Z-23.555
N17635 X-128.519 Y126.147 Z-23.673
N17640 X-128.555 Y126.235 Z-23.8
N17645 X-128.586 Y126.31 Z-23.937
N17650 X-128.612 Y126.373 Z-24.08
N17655 X-128.632 Y126.423 Z-24.23
N17660 X-128.647 Y126.459 Z-24.384
N17665 X-128.655 Y126.48 Z-24.541
N17670 X-128.658 Y126.487 Z-24.7
N17675 Z-24.973
N17680 G2 X-127.492 Z-25.901 I0.952 K0. F1000.
N17685 G1 X-126.918 Z-22.794 F6000.
N17690 X-125.982 Z-20.16
N17695 X-125.017 Z-18.294
N17700 X-123.55 Z-16.216
N17705 X-121.755 Z-14.357
N17710 X-120.013 Z-12.975
N17715 X-118.298 Z-11.889
N17720 X-116.184 Z-10.842
N17725 X-113.999 Z-10.004
N17730 X-112.077 Z-9.424
N17735 X-109.149 Z-8.763
N17740 X-104.73 Z-8.046
N17745 X-99.303 Z-7.359
N17750 X-92.388 Z-6.666
N17755 X-83.974 Z-5.998
N17760 X-74.673 Z-5.413
N17765 X-62.205 Z-4.812
N17770 X-42.617 Z-4.175
N17775 X-38.308 Z-4.151
N17780 X-35.371 Z-4.445
N17785 X-33.029 Z-4.901
N17790 X-30.413 Z-5.721
N17795 X-28.42 Z-6.617
N17800 X-26.597 Z-7.729
N17805 X-24.988 Z-9.1
N17810 X-24.124 Z-10.128
N17815 X-23.435 Z-11.29
N17820 X-23.09 Z-12.184
N17825 X-22.918 Z-12.935
N17830 X-22.853 Z-13.563
N17835 X-22.618 Z-25.878
N17840 X-21.571 Y127.223 Z-25.958
N17845 X-20.534 Y127.973 Z-26.038
N17850 X-18.471 Y129.487 Z-26.198
N17855 X-18.723 Z-13.291
N17860 X-18.959 Z-12.157
N17865 X-19.336 Z-11.212
N17870 X-19.98 Z-10.137
N17875 X-20.839 Z-9.105
N17880 X-22.294 Z-7.833
N17885 X-24.264 Z-6.637
N17890 X-26.264 Z-5.754
N17895 X-28.349 Z-5.083
N17900 X-31.227 Z-4.48
N17905 X-34.165 Z-4.193
N17910 X-40.422 Z-4.269
N17915 X-60.818 Z-4.893
N17920 X-72.651 Z-5.434
N17925 X-82.743 Z-6.032
N17930 X-91.327 Z-6.676
N17935 X-98.248 Z-7.324
N17940 X-103.831 Z-7.977
N17945 X-108.082 Z-8.593
N17950 X-111.504 Z-9.221
N17955 X-113.448 Z-9.697
N17960 X-115.996 Z-10.505
N17965 X-117.242 Z-11.014
N17970 X-119.059 Z-11.889
N17975 X-121.293 Z-13.262
N17980 X-122.959 Z-14.596
N17985 X-124.415 Z-16.063
N17990 X-125.901 Z-18.014
N17995 X-127.095 Z-20.164
N18000 X-127.913 Z-22.284
N18005 X-128.468 Z-24.514
N18010 X-128.729 Z-26.168
N18015 X-129.348 Y130.987 Z-26.312
N18020 X-129.963 Y132.487 Z-26.455
N18025 X-129.58 Z-24.177
N18030 X-128.904 Z-21.858
N18035 X-127.99 Z-19.755
N18040 X-126.662 Z-17.595
N18045 X-125.105 Z-15.739
N18050 X-123.608 Z-14.36
N18055 X-121.388 Z-12.767
N18060 X-118.696 Z-11.356
N18065 X-116.512 Z-10.502
N18070 X-115.402 Z-10.143
N18075 X-112.653 Z-9.434
N18080 X-108.724 Z-8.72
N18085 X-103.452 Z-7.993
N18090 X-96.691 Z-7.259
N18095 X-89.766 Z-6.656
N18100 X-80.11 Z-5.985
N18105 X-67.039 Z-5.292
N18110 X-53.534 Z-4.772
N18115 X-32.383 Z-4.253
N18120 X-29.395 Z-4.296
N18125 X-26.467 Z-4.636
N18130 X-23.958 Z-5.197
N18135 X-21.545 Z-6.049
N18140 X-19.61 Z-7.01
N18145 X-18.127 Z-7.991
N18150 X-16.821 Z-9.159
N18155 X-15.966 Z-10.195
N18160 X-15.423 Z-11.081
N18165 X-15.045 Z-11.933
N18170 X-14.715 Z-13.311
N18175 X-14.458 Z-26.493
N18180 X-13.477 Y133.229 Z-26.555
N18185 X-12.5 Y133.974 Z-26.618
N18190 X-10.562 Y135.487 Z-26.742
N18195 X-10.825 Z-13.597
N18200 X-10.938 Z-12.841
N18205 X-11.247 Z-11.818
N18210 X-11.788 Z-10.723
N18215 X-12.548 Z-9.652
N18220 X-13.9 Z-8.304
N18225 X-15.182 Z-7.38
N18230 X-17.068 Z-6.349
N18235 X-19.102 Z-5.538
N18240 X-21.213 Z-4.949
N18245 X-24.118 Z-4.468
N18250 X-27.101 Z-4.314
N18255 X-49.271 Z-4.783
N18260 X-63.617 Z-5.28
N18265 X-76.197 Z-5.882
N18270 X-89.07 Z-6.713
N18275 X-97.656 Z-7.444
N18280 X-103.724 Z-8.095
N18285 X-109.654 Z-8.902
N18290 X-113.08 Z-9.504
N18295 X-116.002 Z-10.195
N18300 X-117.593 Z-10.698
N18305 X-119.934 Z-11.612
N18310 X-122.619 Z-13.032
N18315 X-123.606 Z-13.696
N18320 X-124.705 Z-14.524
N18325 X-126.46 Z-16.16
N18330 X-127.984 Z-18.022
N18335 X-129.306 Z-20.227
N18340 X-130.26 Z-22.572
N18345 X-130.849 Z-24.719
N18350 X-131.187 Z-26.775
N18355 X-131.199 Z-26.803
N18360 X-131.222 Z-26.822
N18365 X-131.252 Z-26.829
N18370 X-132.474
N18375 X-132.71 Y135.506 Z-26.831
N18380 X-132.94 Y135.561 Z-26.837
N18385 X-133.159 Y135.651 Z-26.847
N18390 X-133.361 Y135.774 Z-26.86
N18395 X-133.541 Y135.927 Z-26.876
N18400 X-133.694 Y136.106 Z-26.895
N18405 X-133.818 Y136.306 Z-26.916
N18410 X-133.909 Y136.524 Z-26.939
N18415 X-133.964 Y136.753 Z-26.963
N18420 X-133.982 Y136.987 Z-26.988
N18425 X-133.964 Y137.222 Z-27.013
N18430 X-133.909 Y137.451 Z-27.037
N18435 X-133.818 Y137.668 Z-27.06
N18440 X-133.694 Y137.869 Z-27.081
N18445 X-133.541 Y138.048 Z-27.1
N18450 X-133.361 Y138.201 Z-27.116
N18455 X-133.159 Y138.324 Z-27.129
N18460 X-132.94 Y138.414 Z-27.139
N18465 X-132.71 Y138.469 Z-27.145
N18470 X-132.474 Y138.487 Z-27.147
N18475 X-132.444 Z-27.139
N18480 X-132.421 Z-27.119
N18485 X-132.41 Z-27.09
N18490 X-132.403 Z-27.041
N18495 X-131.872 Z-24.13
N18500 X-130.778 Z-21.04
N18505 X-129.74 Z-19.106
N18510 X-128.192 Z-17.001
N18515 X-126.623 Z-15.392
N18520 X-125.723 Z-14.633
N18525 X-123.909 Z-13.345
N18530 X-122.157 Z-12.356
N18535 X-120.159 Z-11.448
N18540 X-117.151 Z-10.419
N18545 X-114.561 Z-9.79
N18550 X-111.941 Z-9.301
N18555 X-107.845 Z-8.686
N18560 X-102.262 Z-8.009
N18565 X-96.518 Z-7.439
N18570 X-88.112 Z-6.756
N18575 X-78.073 Z-6.116
N18580 X-65.534 Z-5.498
N18585 X-48.589 Z-4.907
N18590 X-26.306 Z-4.449
N18595 X-21.418 Z-4.452
N18600 X-18.491 Z-4.796
N18605 X-16.034 Z-5.365
N18610 X-13.597 Z-6.271
N18615 X-11.697 Z-7.28
N18620 X-9.972 Z-8.546
N18625 X-8.989 Z-9.516
N18630 X-8.179 Z-10.571
N18635 X-7.58 Z-11.667
N18640 X-7.203 Z-12.768
N18645 X-7.026 Z-14.048
N18650 X-6.79 Z-27.108
N18655 X-5.092 Y139.248 Z-27.111
N18660 X-3.395 Y139.3 Z-27.114
N18665 X-1.698 Y139.352 Z-27.117
N18670 X0. Y139.405 Z-27.12
N18675 X1.697 Y139.352 Z-27.123
N18680 X3.394 Y139.3 Z-27.127
N18685 X5.092 Y139.248 Z-27.13
N18690 X6.789 Y138.487 Z-27.133
N18695 X7.012 Z-14.346
N18700 X7.061 Z-13.558
N18705 X7.309 Z-12.386
N18710 X7.648 Z-11.519
N18715 X8.416 Z-10.226
N18720 X9.341 Z-9.139
N18725 X10.916 Z-7.801
N18730 X12.665 Z-6.727
N18735 X14.504 Z-5.891
N18740 X16.418 Z-5.258
N18745 X19.032 Z-4.706
N18750 X21.791 Z-4.433
N18755 X34.633 Z-4.583
N18760 X56.539 Z-5.154
N18765 X74.668 Z-5.93
N18770 X85.189 Z-6.554
N18775 X94.056 Z-7.222
N18780 X101.424 Z-7.917
N18785 X107.303 Z-8.613
N18790 X111.692 Z-9.26
N18795 X114.6 Z-9.798
N18800 X116.035 Z-10.125
N18805 X118.858 Z-10.961
N18810 X120.894 Z-11.756
N18815 X122.87 Z-12.731
N18820 X124.696 Z-13.867
N18825 X126.128 Z-14.97
N18830 X127.857 Z-16.631
N18835 X129.43 Z-18.628
N18840 X130.682 Z-20.827
N18845 X131.616 Z-23.281
N18850 X131.866 Z-24.104
N18855 X132.408 Z-27.078
N18860 G2 X133.647 Z-26.169 I0.286 K0.909 F1000.
N18865 G1 X133.649 Y138.495 Z-26.012 F6000.
N18870 X133.658 Y138.516 Z-25.855
N18875 X133.672 Y138.552 Z-25.702
N18880 X133.691 Y138.602 Z-25.554
N18885 X133.715 Y138.664 Z-25.411
N18890 X133.745 Y138.74 Z-25.276
N18895 X133.779 Y138.828 Z-25.149
N18900 X133.817 Y138.927 Z-25.032
N18905 X133.859 Y139.036 Z-24.926
N18910 X133.905 Y139.154 Z-24.832
N18915 X133.954 Y139.28 Z-24.751
N18920 X134.006 Y139.413 Z-24.683
N18925 X134.059 Y139.552 Z-24.63
N18930 X134.115 Y139.695 Z-24.591
N18935 X134.171 Y139.84 Z-24.568
N18940 X134.228 Y139.987 Z-24.561
N18945 X134.285 Y140.134 Z-24.568
N18950 X134.342 Y140.28 Z-24.591
N18955 X134.397 Y140.423 Z-24.63
N18960 X134.451 Y140.561 Z-24.683
N18965 X134.502 Y140.694 Z-24.751
N18970 X134.551 Y140.821 Z-24.832
N18975 X134.597 Y140.939 Z-24.926
N18980 X134.639 Y141.048 Z-25.032
N18985 X134.678 Y141.147 Z-25.149
N18990 X134.712 Y141.234 Z-25.276
N18995 X134.741 Y141.31 Z-25.411
N19000 X134.765 Y141.373 Z-25.554
N19005 X134.785 Y141.423 Z-25.702
N19010 X134.798 Y141.458 Z-25.855
N19015 X134.807 Y141.48 Z-26.012
N19020 X134.81 Y141.487 Z-26.169
N19025 Z-26.534
N19030 G3 X133.628 Z-27.459 I-0.952 K0. F1000.
N19035 G1 X133.156 Z-24.761 F6000.
N19040 X132.394 Z-22.307
N19045 X131.257 Z-19.907
N19050 X129.814 Z-17.784
N19055 X128.128 Z-15.94
N19060 X126.121 Z-14.283
N19065 X124.072 Z-12.986
N19070 X123.104 Z-12.474
N19075 X120.77 Z-11.453
N19080 X119.03 Z-10.861
N19085 X117.622 Z-10.464
N19090 X115.466 Z-9.961
N19095 X111.832 Z-9.314
N19100 X107.438 Z-8.693
N19105 X101.557 Z-8.02
N19110 X94.187 Z-7.341
N19115 X85.309 Z-6.684
N19120 X74.777 Z-6.072
N19125 X57.429 Z-5.328
N19130 X35.523 Z-4.745
N19135 X18.15 Z-4.527
N19140 X15.399 Z-4.783
