%
(1001)
(T5  D=19.05 CR=9.525 - ZMIN=-90. - BALL END MILL)
N10 G90 G94 G17 G91.1
N15 G21
N20 G53 G0 Z0.
(PARALLEL1)
N25 M9
N30 T5 M6
N35 S24000 M3
N40 G54
N45 G0 X298.847 Y955.376
N50 G43 Z10. H5
N55 G0 Z-23.095
N60 G19 G2 Y953.471 Z-25. J-1.905 K0. F1000.
N65 G1 Y887.161 F4000.
N70 G2 Y885.256 Z-23.095 J0. K1.905 F1000.
N75 G0 Z5.
N80 X283.851 Y602.837
N85 Z-23.095
N90 G3 Y604.742 Z-25. J1.905 K0. F1000.
N95 G1 Y1329.982 F4000.
N100 G3 Y1331.887 Z-23.095 J0. K1.905 F1000.
N105 G0 Z5.
N110 X268.855 Y1431.686
N115 Z-23.095
N120 G2 Y1429.781 Z-25. J-1.905 K0. F1000.
N125 G1 Y489.95 F4000.
N130 G2 Y488.045 Z-23.095 J0. K1.905 F1000.
N135 G0 Z5.
N140 X253.858 Y398.485
N145 Z-23.095
N150 G3 Y400.39 Z-25. J1.905 K0. F1000.
N155 G1 Y1504.423 F4000.
N160 G3 Y1506.328 Z-23.095 J0. K1.905 F1000.
N165 G0 Z5.
N170 X238.862 Y1568.304
N175 Z-23.095
N180 G2 Y1566.399 Z-25. J-1.905 K0. F1000.
N185 G1 Y326.606 F4000.
N190 G2 Y324.701 Z-23.095 J0. K1.905 F1000.
N195 G0 Z5.
N200 X223.866 Y263.482
N205 Z-23.095
N210 G3 Y265.387 Z-25. J1.905 K0. F1000.
N215 G1 Y1616.783 F4000.
N220 G3 Y1618.688 Z-23.095 J0. K1.905 F1000.
N225 G0 Z5.
N230 X208.87 Y1658.805
N235 Z-23.095
N240 G2 Y1656.9 Z-25. J-1.905 K0. F1000.
N245 G1 Y213.396 F4000.
N250 G2 Y211.491 Z-23.095 J0. K1.905 F1000.
N255 G0 Z5.
N260 X193.873 Y166.013
N265 Z-23.095
N270 G3 Y167.918 Z-25. J1.905 K0. F1000.
N275 G1 Y1689.286 F4000.
N280 Y1716.452
N285 G17 G3 X191.016 Y1719.309 I-2.857 J0.
N290 G1 X181.735
N295 G3 X178.877 Y1716.452 I0. J-2.858
N300 G1 Y334.287 Z-24.757
N305 Y278.311 Z-24.154
N310 Y248.17 Z-24.933
N315 Y127.453 Z-25.
N320 G19 G2 Y125.547 Z-23.095 J-0.001 K1.905 F1000.
N325 G0 Z5.
N330 X163.881 Y89.562
N335 Z-23.095
N340 G3 Y91.467 Z-25. J1.905 K0. F1000.
N345 G1 Y167.783 F4000.
N350 Y171.756 Z-24.146
N355 Y191.045 Z-21.688
N360 Y212.574 Z-20.738
N365 Y248.086 Z-20.623
N370 Y422.471 Z-24.767
N375 Y1740.049 Z-25.
N380 G3 Y1740.469 Z-24.903 J0. K0.952
N385 G2 Y1740.888 Z-24.806 J0.419 K-0.855
N390 G1 Y1761.975
N395 G17 G3 X161.023 Y1764.833 I-2.857 J0.
N400 G1 X151.742
N405 G3 X148.885 Y1761.975 I0. J-2.858
N410 G19 G3 Y1761.556 Z-24.903 J0. K-0.952
N415 G2 Y1761.134 Z-25. J-0.419 K0.855
N420 G1 Y1706.431 Z-24.821
N425 Y1696.756 Z-23.668
N430 Y1678.995 Z-23.326
N435 Y1625.172 Z-25.
N440 Y490.591 Z-24.777
N445 Y314.053 Z-20.314
N450 Y195.643 Z-17.261
N455 Y160.121 Z-17.445
N460 Y140.111 Z-18.938
N465 Y127.021 Z-21.222
N470 Y117.877 Z-23.995
N475 Y115.455 Z-25.
N480 Y59.983
N485 Y33.139
N490 G17 G2 X146.027 Y30.281 I-2.857 J0.
N495 G1 X136.746
N500 G2 X133.888 Y33.139 I0. J2.858
N505 G1 Y73.195
N510 Y75.659 Z-23.212
N515 Y82.707 Z-19.701
N520 Y91.521 Z-17.232
N525 Y103.15 Z-15.406
N530 Y120.26 Z-14.258
N535 Y156.657 Z-14.307
N540 Y359.03 Z-20.303
N545 Y554.945 Z-24.76
N550 Y1588.877 Z-25.
N555 Y1683.067 Z-20.587
N560 Y1711.055 Z-19.735
N565 Y1721.725 Z-20.292
N570 Y1729.85 Z-21.618
N575 Y1738.45 Z-24.823
N580 Y1780.328 Z-25.
N585 G19 G3 Y1780.752 Z-24.903 J0.004 K0.952
N590 G2 Y1781.171 Z-24.806 J0.419 K-0.855
N595 G1 Y1798.861
N600 G17 G3 X131.031 Y1801.719 I-2.857 J0.
N605 G1 X121.75
N610 G3 X118.892 Y1798.861 I0. J-2.858
N615 G19 G3 Y1798.442 Z-24.903 J0. K-0.952
N620 G2 Y1798.02 Z-25. J-0.419 K0.855
N625 G1 Y1760.17 Z-24.89
N630 Y1756.128 Z-21.545
N635 Y1750.651 Z-19.04
N640 Y1743.601 Z-17.335
N645 Y1731.94 Z-16.446
N650 Y1708.258 Z-17.278
N655 Y1620.014 Z-22.329
N660 Y1542.51 Z-25.
N665 Y616.761 Z-24.757
N670 Y403.623 Z-20.395
N675 Y207.709 Z-14.324
N680 Y108.675 Z-11.432
N685 Y78.804 Z-11.533
N690 Y64.124 Z-12.84
N695 Y52.434 Z-15.25
N700 Y45.574 Z-17.956
N705 Y42.356 Z-20.585
N710 Y40.139 Z-24.224
N715 Y39.822 Z-25.
N720 Y23.96
N725 G2 Y23.541 Z-24.903 J0. K0.952
N730 G3 Y23.122 Z-24.806 J-0.419 K-0.855
N735 G17 G2 X116.035 Y20.264 I-2.857 J0.
N740 G1 X106.753
N745 G2 X103.896 Y23.122 I0. J2.858
N750 G19 G2 Y23.541 Z-24.903 J0. K-0.952
N755 G3 Y23.96 Z-25. J0.419 K0.855
N760 G1 Y35.133
N765 Y35.238 Z-24.163
N770 Y36.104 Z-19.534
N775 Y38.54 Z-14.963
N780 Y42.005 Z-11.669
N785 Y45.57 Z-9.83
N790 Y49.657 Z-8.964
N795 Y81.95 Z-9.207
N800 Y247.724 Z-14.76
N805 Y422.109 Z-19.938
N810 Y671.846 Z-24.763
N815 Y1502.868 Z-25.
N820 Y1565.302 Z-23.319
N825 Y1642.806 Z-20.041
N830 Y1736.797 Z-13.797
N835 Y1752.394 Z-13.476
N840 Y1763.525 Z-14.945
N845 Y1770.112 Z-17.619
N850 Y1774.554 Z-20.859
N855 Y1777.393 Z-24.919
N860 Y1814.406 Z-25.
N865 G3 Y1814.827 Z-24.903 J0.002 K0.952
N870 G2 Y1815.247 Z-24.806 J0.419 K-0.855
N875 G1 Y1830.438
N880 G17 G3 X101.038 Y1833.295 I-2.858 J0.
N885 G1 X91.757
N890 G3 X88.9 Y1830.438 I0. J-2.858
N895 G19 G3 Y1830.019 Z-24.903 J0. K-0.952
N900 G2 Y1829.599 Z-25. J-0.419 K0.855
N905 G1 Y1791.734
N910 Y1790.013 Z-20.802
N915 Y1786.557 Z-16.655
N920 Y1781.116 Z-13.297
N925 Y1773.703 Z-11.239
N930 Y1767.434 Z-10.66
N935 Y1752.364 Z-11.098
N940 Y1674.425 Z-17.22
N945 Y1599.074 Z-21.128
N950 Y1478.511 Z-25.
N955 Y718.536 Z-24.754
N960 Y427.893 Z-19.316
N965 Y257.814 Z-14.358
N970 Y53.629 Z-7.266
N975 Y49.323 Z-7.553
N980 Y44.247 Z-9.437
N985 Y40.75 Z-12.113
N990 Y37.766 Z-16.363
N995 Y36.372 Z-21.008
N1000 Y36.189 Z-25.
N1005 Y23.96
N1010 G2 Y23.541 Z-24.903 J0. K0.952
N1015 G3 Y23.122 Z-24.806 J-0.419 K-0.855
N1020 G17 G2 X86.042 Y20.264 I-2.857 J0.
N1025 G1 X76.761
N1030 G2 X73.903 Y23.122 I0. J2.858
N1035 G19 G2 Y23.541 Z-24.903 J0. K-0.952
N1040 G3 Y23.96 Z-25. J0.419 K0.855
N1045 G1 Y40.654
N1050 Y40.765 Z-23.089
N1055 Y41.317 Z-18.331
N1060 Y42.779 Z-14.827
N1065 Y45.41 Z-11.438
N1070 Y49.699 Z-8.431
N1075 Y53.374 Z-7.079
N1080 Y57.68 Z-6.522
N1085 Y275.69 Z-14.384
N1090 Y443.617 Z-19.035
N1095 Y757.941 Z-24.777
N1100 Y1442.565 Z-25.
N1105 Y1477.011 Z-24.536
N1110 Y1619.103 Z-19.507
N1115 Y1687.996 Z-15.561
N1120 Y1745.441 Z-10.585
N1125 Y1772.109 Z-8.205
N1130 Y1783.39 Z-8.185
N1135 Y1790.99 Z-9.695
N1140 Y1796.372 Z-12.175
N1145 Y1800.428 Z-15.961
N1150 Y1802.847 Z-20.268
N1155 Y1803.773 Z-25.
N1160 Y1843.486
N1165 G3 Y1843.905 Z-24.903 J0. K0.952
N1170 G2 Y1844.324 Z-24.806 J0.419 K-0.855
N1175 G1 Y1856.282
N1180 G17 G3 X71.046 Y1859.14 I-2.857 J0.
N1185 G1 X61.765
N1190 G3 X58.907 Y1856.282 I0. J-2.857
N1195 G19 G3 Y1855.863 Z-24.903 J0. K-0.952
N1200 G2 Y1855.444 Z-25. J-0.419 K0.855
N1205 G1 Y1814.488
N1210 Y1813.866 Z-18.621
N1215 Y1811.683 Z-13.833
N1220 Y1807.644 Z-9.848
N1225 Y1802.274 Z-7.194
N1230 Y1795.447 Z-5.758
N1235 Y1785.54 Z-5.779
N1240 Y1759.273 Z-8.427
N1245 Y1701.263 Z-14.021
N1250 Y1634.876 Z-18.173
N1255 Y1527.231 Z-22.381
N1260 Y1434.656 Z-25.
N1265 Y786.632 Z-24.749
N1270 Y442.167 Z-18.492
N1275 Y272.088 Z-13.807
N1280 Y65.035 Z-6.174
N1285 Y60.729 Z-6.678
N1290 Y55.22 Z-8.897
N1295 Y51.977 Z-11.42
N1300 Y50.448 Z-13.174
N1305 Y48.927 Z-15.659
N1310 Y47.722 Z-19.314
N1315 Y47.414 Z-25.
N1320 Y-42.623
N1325 G2 Y-43.042 Z-24.903 J0. K0.952
N1330 G3 Y-43.462 Z-24.806 J-0.419 K-0.855
N1335 G1 Y-46.363
N1340 G17 G2 X56.05 Y-49.221 I-2.857 J0.
N1345 G1 X46.768
N1350 G2 X43.911 Y-46.363 I0. J2.858
N1355 G19 G2 Y-45.944 Z-24.903 J0. K-0.952
N1360 G3 Y-45.525 Z-25. J0.419 K0.855
N1365 G1 Y55.681
N1370 Y55.719 Z-21.59
N1375 Y56.682 Z-16.631
N1380 Y59.104 Z-12.568
N1385 Y60.79 Z-10.825
N1390 Y63.231 Z-9.013
N1395 Y67.778 Z-7.031
N1400 Y72.708 Z-6.179
N1405 Y272.928 Z-13.492
N1410 Y438.701 Z-18.032
N1415 Y809.001 Z-24.769
N1420 Y1426.347 Z-25.
N1425 Y1573.282 Z-20.353
N1430 Y1661.551 Z-16.325
N1435 Y1720.365 Z-12.005
N1440 Y1778.38 Z-5.614
N1445 Y1798.368 Z-3.461
N1450 Y1807.488 Z-3.573
N1455 Y1813.434 Z-5.075
N1460 Y1818.21 Z-7.69
N1465 Y1821.755 Z-11.466
N1470 Y1823.908 Z-16.443
N1475 Y1824.328 Z-25.
N1480 Y1919.712
N1485 G3 Y1920.131 Z-24.903 J0. K0.952
N1490 G2 Y1920.551 Z-24.806 J0.419 K-0.855
N1495 G1 Y1921.363
N1500 G17 G3 X41.053 Y1924.221 I-2.858 J0.
N1505 G1 X31.772
N1510 G3 X28.915 Y1921.363 I0. J-2.857
N1515 G19 G3 Y1920.944 Z-24.903 J0. K-0.952
N1520 G2 Y1920.525 Z-25. J-0.419 K0.855
N1525 G1 Y1833.873
N1530 Y1833.601 Z-14.221
N1535 Y1832.256 Z-10.32
N1540 Y1829.567 Z-6.61
N1545 Y1824.753 Z-3.293
N1550 Y1818.919 Z-1.472
N1555 Y1811.585 Z-1.16
N1560 Y1798.606 Z-2.529
N1565 Y1738.437 Z-9.982
N1570 Y1685.371 Z-14.537
N1575 Y1612.241 Z-18.499
N1580 Y1457.231 Z-23.906
N1585 Y1405.562 Z-25.
N1590 Y824.277 Z-24.77
N1595 Y432.449 Z-17.636
N1600 Y266.675 Z-13.04
N1605 Y81.525 Z-6.358
N1610 Y75.731 Z-7.76
N1615 Y72.051 Z-9.71
N1620 Y68.919 Z-12.442
N1625 Y66.395 Z-16.325
N1630 Y65.292 Z-20.571
N1635 Y64.963 Z-25.
N1640 Y-45.525
N1645 G2 Y-45.944 Z-24.903 J0. K0.952
N1650 G3 Y-46.363 Z-24.806 J-0.419 K-0.855
N1655 G17 G2 X26.057 Y-49.221 I-2.858 J0.
N1660 G1 X16.776
N1665 G2 X13.919 Y-46.363 I0. J2.858
N1670 G19 G2 Y-45.944 Z-24.903 J0. K-0.952
N1675 G3 Y-45.525 Z-25. J0.419 K0.855
N1680 G1 Y75.431
N1685 Y75.518 Z-20.721
N1690 Y76.758 Z-16.288
N1695 Y78.344 Z-13.723
N1700 Y80.83 Z-11.155
N1705 Y85.034 Z-8.573
N1710 Y90.639 Z-6.892
N1715 Y94.945 Z-6.564
N1720 Y294.724 Z-13.801
N1725 Y445.427 Z-17.745
N1730 Y832.95 Z-24.747
N1735 Y1403.47 Z-25.
N1740 Y1521.88 Z-21.681
N1745 Y1642.442 Z-16.912
N1750 Y1702.724 Z-13.105
N1755 Y1753.269 Z-8.206
N1760 Y1815.978 Z0.321
N1765 Y1824.109 Z1.166
N1770 Y1831.449 Z0.493
N1775 Y1836.103 Z-1.315
N1780 Y1840.07 Z-4.72
N1785 Y1842.037 Z-7.907
N1790 Y1843.218 Z-11.945
N1795 Y1843.393 Z-25.
N1800 Y1920.525
N1805 G3 Y1920.944 Z-24.903 J0. K0.952
N1810 G2 Y1921.363 Z-24.806 J0.419 K-0.855
N1815 G17 G3 X11.061 Y1924.221 I-2.858 J0.
N1820 G1 X1.78
N1825 G3 X-1.078 Y1921.363 I0. J-2.857
N1830 G19 G3 Y1920.944 Z-24.903 J0. K-0.952
N1835 G2 Y1920.525 Z-25. J-0.419 K0.855
N1840 G1 Y1844.442
N1845 Y1844.366 Z-11.628
N1850 Y1843.02 Z-6.67
N1855 Y1841.578 Z-4.174
N1860 Y1838.678 Z-1.085
N1865 Y1835.437 Z0.932
N1870 Y1831.645 Z2.127
N1875 Y1826.403 Z2.165
N1880 Y1775.33 Z-5.382
N1885 Y1726.613 Z-10.986
N1890 Y1670.637 Z-15.3
N1895 Y1582.368 Z-19.479
N1900 Y1414.442 Z-24.848
N1905 Y837.463 Z-24.781
N1910 Y424.105 Z-17.226
N1915 Y256.179 Z-12.502
N1920 Y96.864 Z-6.755
N1925 Y92.219 Z-7.977
N1930 Y88.748 Z-10.076
N1935 Y85.79 Z-13.209
N1940 Y83.65 Z-17.499
N1945 Y82.921 Z-22.149
N1950 Y82.84 Z-25.
N1955 Y-45.525
N1960 G2 Y-45.944 Z-24.903 J0. K0.952
N1965 G3 Y-46.363 Z-24.806 J-0.419 K-0.855
N1970 G17 G2 X-3.935 Y-49.221 I-2.857 J0.
N1975 G1 X-13.216
N1980 G2 X-16.074 Y-46.363 I0. J2.858
N1985 G19 G2 Y-45.944 Z-24.903 J0. K-0.952
N1990 G3 Y-45.525 Z-25. J0.419 K0.855
N1995 G1 Y73.765
N2000 Y73.908 Z-21.787
N2005 Y74.771 Z-17.25
N2010 Y76.609 Z-13.922
N2015 Y79.933 Z-10.595
N2020 Y85.233 Z-7.782
N2025 Y91.339 Z-6.566
N2030 Y295.865 Z-13.853
N2035 Y446.568 Z-17.785
N2040 Y831.938 Z-24.744
N2045 Y1406.764 Z-25.
N2050 Y1548.855 Z-20.774
N2055 Y1645.736 Z-16.766
N2060 Y1701.646 Z-13.208
N2065 Y1751.404 Z-8.432
N2070 Y1818.803 Z0.56
N2075 Y1825.73 Z0.778
N2080 Y1832.237 Z-0.595
N2085 Y1837.392 Z-3.54
N2090 Y1840.598 Z-7.424
N2095 Y1842.213 Z-12.275
N2100 Y1842.369 Z-25.
N2105 Y1920.525
N2110 G3 Y1920.944 Z-24.903 J0. K0.952
N2115 G2 Y1921.363 Z-24.806 J0.419 K-0.855
N2120 G17 G3 X-18.931 Y1924.221 I-2.858 J0.
N2125 G1 X-28.213
N2130 G3 X-31.07 Y1921.363 I0. J-2.857
N2135 G19 G3 Y1920.944 Z-24.903 J0. K-0.952
N2140 G2 Y1920.525 Z-25. J-0.419 K0.855
N2145 G1 Y1832.492
N2150 Y1832.256 Z-14.818
N2155 Y1830.641 Z-10.279
N2160 Y1828.121 Z-6.931
N2165 Y1823.504 Z-3.728
N2170 Y1817.712 Z-1.839
N2175 Y1810.294 Z-1.46
N2180 Y1799.006 Z-2.564
N2185 Y1738.876 Z-9.964
N2190 Y1685.578 Z-14.557
N2195 Y1610.227 Z-18.619
N2200 Y1472.441 Z-23.483
N2205 Y1407.854 Z-25.
N2210 Y822.264 Z-24.776
N2215 Y432.588 Z-17.669
N2220 Y264.661 Z-12.989
N2225 Y81.664 Z-6.246
N2230 Y76.119 Z-7.124
N2235 Y72.486 Z-8.594
N2240 Y69.132 Z-10.853
N2245 Y65.922 Z-14.557
N2250 Y64.156 Z-18.854
N2255 Y63.581 Z-25.
N2260 Y-45.525
N2265 G2 Y-45.944 Z-24.903 J0. K0.952
N2270 G3 Y-46.363 Z-24.806 J-0.419 K-0.855
N2275 G17 G2 X-33.928 Y-49.221 I-2.858 J0.
N2280 G1 X-43.209
N2285 G2 X-46.066 Y-46.363 I0. J2.858
N2290 G19 G2 Y-45.944 Z-24.903 J0. K-0.952
N2295 G3 Y-45.525 Z-25. J0.419 K0.855
N2300 G1 Y54.422
N2305 Y54.702 Z-19.157
N2310 Y55.928 Z-15.522
N2315 Y57.468 Z-13.06
N2320 Y59.011 Z-11.327
N2325 Y62.267 Z-8.839
N2330 Y65.468 Z-7.322
N2335 Y70.798 Z-6.197
N2340 Y264.898 Z-13.252
N2345 Y430.671 Z-17.913
N2350 Y807.43 Z-24.768
N2355 Y1429.619 Z-24.985
N2360 Y1597.546 Z-19.475
N2365 Y1670.745 Z-15.823
N2370 Y1721.95 Z-11.909
N2375 Y1789.928 Z-4.381
N2380 Y1800.431 Z-3.628
N2385 Y1808.756 Z-4.373
N2390 Y1814.475 Z-6.541
N2395 Y1818.18 Z-9.274
N2400 Y1820.977 Z-12.833
N2405 Y1822.457 Z-16.733
N2410 Y1822.952 Z-25.
N2415 Y1918.934
N2420 G3 Y1920.839 Z-23.095 J0. K1.905 F1000.
N2425 G0 Z5.
N2430 X-61.063 Y1855.818
N2435 Z-23.095
N2440 G2 Y1853.913 Z-25. J-1.905 K0. F1000.
N2445 G1 Y1813.031 F4000.
N2450 Y1812.301 Z-18.731
N2455 Y1810.157 Z-14.238
N2460 Y1806.994 Z-10.861
N2465 Y1801.957 Z-8.038
N2470 Y1794.998 Z-6.213
N2475 Y1785.362 Z-6.023
N2480 Y1769.101 Z-7.462
N2485 Y1706.476 Z-13.672
N2490 Y1642.193 Z-17.887
N2495 Y1543.16 Z-21.924
N2500 Y1437.667 Z-25.
N2505 Y783.184 Z-24.766
N2510 Y449.484 Z-18.729
N2515 Y290.169 Z-14.453
N2520 Y62.354 Z-6.28
N2525 Y57.67 Z-7.263
N2530 Y54.086 Z-8.932
N2535 Y50.843 Z-11.455
N2540 Y48.547 Z-14.338
N2545 Y47.039 Z-17.712
N2550 Y46.453 Z-20.994
N2555 Y46.258 Z-25.
N2560 Y-40.755
N2565 G2 Y-42.66 Z-23.095 J0. K1.905 F1000.
N2570 G0 Z5.
N2575 X-76.059 Y22.055
N2580 Z-23.095
N2585 G3 Y23.96 Z-25. J1.905 K0. F1000.
N2590 G1 Y39.694 F4000.
N2595 Y39.999 Z-21.471
N2600 Y41.194 Z-16.479
N2605 Y43.541 Z-12.665
N2610 Y47.676 Z-9.107
N2615 Y52.406 Z-7.148
N2620 Y56.712 Z-6.591
N2625 Y287.75 Z-14.854
N2630 Y449.218 Z-19.249
N2635 Y752.778 Z-24.769
N2640 Y1448.166 Z-25.
N2645 Y1482.612 Z-24.444
N2650 Y1620.398 Z-19.555
N2655 Y1691.271 Z-15.419
N2660 Y1768.933 Z-8.63
N2665 Y1781.043 Z-8.505
N2670 Y1789.209 Z-10.016
N2675 Y1794.591 Z-12.518
N2680 Y1798.498 Z-16.008
N2685 Y1801.189 Z-20.466
N2690 Y1802.127 Z-25.
N2695 Y1841.556
N2700 G3 Y1841.975 Z-24.903 J0. K0.952
N2705 G2 Y1842.394 Z-24.806 J0.419 K-0.855
N2710 G17 G3 X-78.916 Y1845.252 I-2.857 J0.
N2715 G1 X-88.198
N2720 G3 X-91.055 Y1842.394 I0. J-2.858
N2725 G1 Y1828.32
N2730 G19 G3 Y1827.9 Z-24.903 J0. K-0.952
N2735 G2 Y1827.478 Z-25. J-0.419 K0.855
N2740 G1 Y1789.79 Z-24.865
N2745 Y1787.898 Z-20.747
N2750 Y1784.453 Z-16.824
N2755 Y1779.364 Z-13.773
N2760 Y1771.482 Z-11.603
N2765 Y1765.223 Z-11.056
N2770 Y1749.749 Z-11.498
N2775 Y1666.038 Z-17.876
N2780 Y1588.534 Z-21.667
N2785 Y1480.888 Z-25.
N2790 Y712.301 Z-24.754
N2795 Y443.188 Z-19.771
N2800 Y286.026 Z-15.41
N2805 Y57.818 Z-7.529
N2810 Y49.206 Z-7.634
N2815 Y45.412 Z-8.762
N2820 Y41.731 Z-10.99
N2825 Y38.411 Z-14.617
N2830 Y36.552 Z-18.492
N2835 Y35.812 Z-23.141
N2840 Y35.722 Z-25.
N2845 Y23.96
N2850 G2 Y23.541 Z-24.903 J0. K0.952
N2855 G3 Y23.122 Z-24.806 J-0.419 K-0.855
N2860 G17 G2 X-93.913 Y20.264 I-2.857 J0.
N2865 G1 X-103.194
N2870 G2 X-106.051 Y23.122 I0. J2.858
N2875 G19 G2 Y23.541 Z-24.903 J0. K-0.952
N2880 G3 Y23.96 Z-25. J0.419 K0.855
N2885 G1 Y35.233
N2890 Y35.297 Z-24.257
N2895 Y36.543 Z-19.026
N2900 Y38.942 Z-15.04
N2905 Y42.542 Z-11.805
N2910 Y47.124 Z-9.807
N2915 Y51.648 Z-9.313
N2920 Y86.768 Z-9.523
N2925 Y268.688 Z-15.596
N2930 Y423.697 Z-20.097
N2935 Y662.67 Z-24.749
N2940 Y1506.608 Z-25.
N2945 Y1556.125 Z-23.775
N2950 Y1637.936 Z-20.45
N2955 Y1736.467 Z-14.082
N2960 Y1751.538 Z-13.956
N2965 Y1759.914 Z-15.063
N2970 Y1767.265 Z-17.595
N2975 Y1772.226 Z-21.101
N2980 Y1775.121 Z-25.
N2985 Y1812.104
N2990 G3 Y1812.523 Z-24.903 J0. K0.952
N2995 G2 Y1812.942 Z-24.806 J0.419 K-0.855
N3000 G17 G3 X-108.909 Y1815.8 I-2.858 J0.
N3005 G1 X-118.19
N3010 G3 X-121.048 Y1812.942 I0. J-2.858
N3015 G1 Y1796.368
N3020 G19 G3 Y1795.949 Z-24.903 J0. K-0.952
N3025 G2 Y1795.529 Z-25. J-0.419 K0.855
N3030 G1 Y1757.344 Z-24.977
N3035 Y1753.075 Z-21.612
N3040 Y1745.449 Z-18.651
N3045 Y1736.13 Z-17.225
N3050 Y1719.714 Z-17.017
N3055 Y1612.338 Z-22.861
N3060 Y1547.751 Z-25.
N3065 Y609.084 Z-24.78
N3070 Y406.711 Z-20.62
N3075 Y230.173 Z-15.239
N3080 Y116.069 Z-11.837
N3085 Y92.454 Z-11.712
N3090 Y75.231 Z-12.492
N3095 Y61.473 Z-14.568
N3100 Y51.881 Z-17.579
N3105 Y45.095 Z-21.461
N3110 Y42.362 Z-25.
N3115 Y24.111
N3120 G2 Y23.692 Z-24.903 J0. K0.952
N3125 G3 Y23.272 Z-24.806 J-0.419 K-0.855
N3130 G17 G2 X-123.905 Y20.415 I-2.857 J0.
N3135 G1 X-133.186
N3140 G2 X-136.044 Y23.272 I0. J2.858
N3145 G1 Y35.864
N3150 G19 G2 Y36.284 Z-24.903 J0. K-0.952
N3155 G3 Y36.703 Z-25. J0.419 K0.855
N3160 G1 Y78.831
N3165 Y86.238 Z-20.859
N3170 Y95.583 Z-17.943
N3175 Y108.92 Z-15.817
N3180 Y126.008 Z-14.677
N3185 Y164.761 Z-14.766
N3190 Y364.981 Z-20.639
N3195 Y545.825 Z-24.773
N3200 Y1594.29 Z-25.
N3205 Y1689.017 Z-20.63
N3210 Y1710.546 Z-20.285
N3215 Y1721.147 Z-21.082
N3220 Y1728.302 Z-22.503
N3225 Y1734.818 Z-24.896
N3230 Y1777.669 Z-25.
N3235 G3 Y1778.09 Z-24.903 J0.002 K0.952
N3240 G2 Y1778.51 Z-24.806 J0.419 K-0.855
N3245 G17 G3 X-138.901 Y1781.367 I-2.857 J0.
N3250 G1 X-148.183
N3255 G3 X-151.04 Y1778.51 I0. J-2.857
N3260 G1 Y1759.127
N3265 G19 G3 Y1758.708 Z-24.903 J0. K-0.953
N3270 G2 Y1758.286 Z-25. J-0.419 K0.855
N3275 G1 Y1699.451 Z-24.819
N3280 Y1682.68 Z-23.813
N3285 Y1646.764 Z-24.727
N3290 Y1569.26 Z-25.
N3295 Y479.89 Z-24.754
N3300 Y202.165 Z-17.709
N3305 Y166.642 Z-17.926
N3310 Y146.66 Z-19.369
N3315 Y132.605 Z-21.755
N3320 Y123.882 Z-24.412
N3325 Y122.455 Z-25.
N3330 Y64.224
N3335 G2 Y62.319 Z-23.095 J0. K1.905 F1000.
N3340 G0 Z5.
N3345 X-166.036 Y94.469
N3350 Z-23.095
N3355 G3 Y96.374 Z-25. J1.905 K0. F1000.
N3360 G1 Y176.016 F4000.
N3365 Y181.628 Z-24.094
N3370 Y195.543 Z-22.393
N3375 Y219.087 Z-21.258
N3380 Y253.533 Z-21.086
N3385 Y412.848 Z-24.796
N3390 Y1736.885 Z-25.
N3395 G3 Y1737.304 Z-24.903 J0. K0.952
N3400 G2 Y1737.723 Z-24.806 J0.419 K-0.855
N3405 G17 G3 X-168.894 Y1740.581 I-2.857 J0.
N3410 G1 X-178.175
N3415 G3 X-181.033 Y1737.723 I0. J-2.858
N3420 G1 Y1713.672
N3425 G19 G3 Y1713.253 Z-24.903 J0. K-0.952
N3430 G2 Y1712.834 Z-25. J-0.419 K0.855
N3435 G1 Y313.445 Z-24.812
N3440 Y268.956 Z-24.961
N3445 Y132.975 Z-25.
N3450 G2 Y131.069 Z-23.095 J-0.001 K1.905 F1000.
N3455 G0 Z5.
N3460 X-196.029 Y172.227
N3465 Z-23.095
N3470 G3 Y174.132 Z-25. J1.905 K0. F1000.
N3475 G1 Y1684.943 F4000.
N3480 G3 Y1686.848 Z-23.095 J0. K1.905 F1000.
N3485 G0 Z5.
N3490 X-211.025 Y1653.521
N3495 Z-23.095
N3500 G2 Y1651.616 Z-25. J-1.905 K0. F1000.
N3505 G1 Y220.464 F4000.
N3510 G2 Y218.559 Z-23.095 J0. K1.905 F1000.
N3515 G0 Z5.
N3520 X-226.021 Y271.664
N3525 Z-23.095
N3530 G3 Y273.569 Z-25. J1.905 K0. F1000.
N3535 G1 Y1610.289 F4000.
N3540 G3 Y1612.194 Z-23.095 J0. K1.905 F1000.
N3545 G0 Z5.
N3550 X-241.018 Y1560.109
N3555 Z-23.095
N3560 G2 Y1558.203 Z-25. J-1.905 K0. F1000.
N3565 G1 Y336.382 F4000.
N3570 G2 Y334.477 Z-23.095 J0. K1.905 F1000.
N3575 G0 Z5.
N3580 X-256.014 Y410.286
N3585 Z-23.095
N3590 G3 Y412.191 Z-25. J1.905 K0. F1000.
N3595 G1 Y1494.533 F4000.
N3600 G3 Y1496.438 Z-23.095 J0. K1.905 F1000.
N3605 G0 Z5.
N3610 X-271.01 Y1419.516
N3615 Z-23.095
N3620 G2 Y1417.611 Z-25. J-1.905 K0. F1000.
N3625 G1 Y504.434 F4000.
N3630 G2 Y502.529 Z-23.095 J0. K1.905 F1000.
N3635 G0 Z5.
N3640 X-286.006 Y623.307
N3645 Z-23.095
N3650 G3 Y625.212 Z-25. J1.905 K0. F1000.
N3655 G1 Y1310.876 F4000.
N3660 G3 Y1312.781 Z-23.095 J0. K1.905 F1000.
N3665 G0 Z10.
N3670 G17
(PARALLEL1 2)
N3675 G0 X297.847 Y955.374
N3680 Z10.
N3685 Z-48.095
N3690 G19 G2 Y953.469 Z-50. J-1.905 K0. F1000.
N3695 G1 Y887.163 F4000.
N3700 G2 Y885.258 Z-48.095 J0. K1.905 F1000.
N3705 G0 Z5.
N3710 X282.851 Y602.891
N3715 Z-48.095
N3720 G3 Y604.796 Z-50. J1.905 K0. F1000.
N3725 G1 Y1329.923 F4000.
N3730 G3 Y1331.828 Z-48.095 J0. K1.905 F1000.
N3735 G0 Z5.
N3740 X267.855 Y1431.596
N3745 Z-48.095
N3750 G2 Y1429.691 Z-50. J-1.905 K0. F1000.
N3755 G1 Y490.025 F4000.
N3760 G2 Y488.12 Z-48.095 J0. K1.905 F1000.
N3765 G0 Z5.
N3770 X252.858 Y398.576
N3775 Z-48.095
N3780 G3 Y400.481 Z-50. J1.905 K0. F1000.
N3785 G1 Y595.534 F4000.
N3790 Y649.906 Z-49.718
N3795 Y721.737 Z-48.386
N3800 Y825.601 Z-48.253
N3805 Y1017.151 Z-49.795
N3810 Y1504.313 Z-50.
N3815 G3 Y1506.219 Z-48.095 J0.001 K1.905 F1000.
N3820 G0 Z5.
N3825 X237.862 Y1568.175
N3830 Z-48.095
N3835 G2 Y1566.267 Z-50. J-1.905 K0. F1000.
N3840 G1 Y1423.18 Z-49.814 F4000.
N3845 Y1371.703 Z-47.943
N3850 Y1263.436 Z-46.948
N3855 Y990.051 Z-45.62
N3860 Y700.644 Z-42.839
N3865 Y598.623 Z-42.904
N3870 Y536.161 Z-44.139
N3875 Y495.743 Z-46.405
N3880 Y470.978 Z-49.006
N3885 Y464.495 Z-50.
N3890 Y326.718
N3895 G2 Y324.813 Z-48.095 J0. K1.905 F1000.
N3900 G0 Z5.
N3905 X222.866 Y263.659
N3910 Z-48.095
N3915 G3 Y265.564 Z-50. J1.905 K0. F1000.
N3920 G1 Y364.286 F4000.
N3925 Y368.427 Z-48.494
N3930 Y376.824 Z-46.229
N3935 Y388.031 Z-43.967
N3940 Y408.821 Z-41.327
N3945 Y431.499 Z-39.73
N3950 Y471.058 Z-38.283
N3955 Y546.013 Z-37.862
N3960 Y947.005 Z-42.159
N3965 Y1081.104 Z-43.328
N3970 Y1335.767 Z-43.588
N3975 Y1443.062 Z-43.843
N3980 Y1487.826 Z-45.108
N3985 Y1516.366 Z-47.37
N3990 Y1533.339 Z-49.972
N3995 Y1616.622 Z-50.
N4000 G3 Y1618.527 Z-48.095 J0.001 K1.905 F1000.
N4005 G0 Z5.
N4010 X207.87 Y1658.602
N4015 Z-48.095
N4020 G2 Y1656.693 Z-50. J-1.905 K0. F1000.
N4025 G1 Y1598.622 Z-49.891 F4000.
N4030 Y1595.07 Z-48.417
N4035 Y1585.363 Z-45.567
N4040 Y1568.019 Z-42.697
N4045 Y1543.079 Z-40.723
N4050 Y1511.848 Z-39.863
N4055 Y1393.17 Z-40.34
N4060 Y1176.676 Z-41.205
N4065 Y990.122 Z-40.257
N4070 Y436.292 Z-33.26
N4075 Y382.159 Z-33.765
N4080 Y349.891 Z-35.3
N4085 Y327.54 Z-37.578
N4090 Y310.855 Z-40.757
N4095 Y302.057 Z-43.431
N4100 Y295.353 Z-46.734
N4105 Y292.234 Z-49.017
N4110 Y291.334 Z-50.
N4115 Y257.667
N4120 G2 Y255.762 Z-48.095 J0. K1.905 F1000.
N4125 G0 Z5.
N4130 Y233.091
N4135 Z-47.975
N4140 G1 Z-48.095 F1000.
N4145 G2 Y231.186 Z-50. J-1.905 K0.
N4150 G1 Y213.607 F4000.
N4155 G2 Y211.702 Z-48.095 J0. K1.905 F1000.
N4160 G0 Z5.
N4165 X192.873 Y235.857
N4170 Z-39.18
N4175 G1 Z-46.84 F1000.
N4180 G3 Y236.243 Z-46.912 J0.2 K0.
N4185 G1 Y236.841 Z-45.381 F4000.
N4190 Y239.329 Z-42.602
N4195 Y245.435 Z-38.972
N4200 Y254.037 Z-35.886
N4205 Y268.734 Z-32.79
N4210 Y286.097 Z-30.801
N4215 Y311.082 Z-29.418
N4220 Y356.887 Z-28.956
N4225 Y531.781 Z-31.765
N4230 Y952.358 Z-37.753
N4235 Y1110.595 Z-39.05
N4240 Y1295.298 Z-38.734
N4245 Y1536.818 Z-35.986
N4250 Y1585.746 Z-36.364
N4255 Y1611.613 Z-37.962
N4260 Y1625.725 Z-40.114
N4265 Y1633.491 Z-42.269
N4270 Y1636.09 Z-43.258
N4275 Y1641.995 Z-46.31
N4280 Y1645.839 Z-49.863
N4285 Y1689.051 Z-50.
N4290 G3 Y1690.962 Z-48.095 J0.006 K1.905 F1000.
N4295 G0 Z5.
N4300 X177.877 Y1679.541
N4305 Z-41.403
N4310 G1 Z-48.162 F1000.
N4315 G2 Y1678.972 Z-48.282 J-0.297 K0.
N4320 G1 Y1677.361 Z-44.618 F4000.
N4325 Y1672.728 Z-40.394
N4330 Y1667.681 Z-37.682
N4335 Y1660.021 Z-35.273
N4340 Y1651.546 Z-33.661
N4345 Y1638.138 Z-32.414
N4350 Y1609.728 Z-32.011
N4355 Y1326.567 Z-36.562
N4360 Y1150.664 Z-37.405
N4365 Y979.124 Z-36.346
N4370 Y546.054 Z-29.985
N4375 Y292.042 Z-24.944
N4380 Y252.813 Z-25.369
N4385 Y230.128 Z-26.903
N4390 Y215.062 Z-29.015
N4395 Y202.594 Z-32.183
N4400 Y192.642 Z-37.17
N4405 Y189.567 Z-40.111
N4410 Y189.269 Z-40.683
N4415 G2 Y188.581 Z-40.514 J-0.323 K0.168 F1000.
N4420 G0 Z5.
N4425 Y1710.559
N4430 Z-46.61
N4435 G1 Z-48.095 F1000.
N4440 G3 Y1712.464 Z-50. J1.905 K0.
N4445 G1 Y1716.172 F4000.
N4450 G3 Y1718.077 Z-48.095 J0. K1.905 F1000.
N4455 G0 Z5.
N4460 X162.881 Y1705.562
N4465 Z-36.905
N4470 G1 Z-42.661 F1000.
N4475 G2 Y1705.108 Z-42.77 J-0.24 K0.
N4480 G1 Y1703.701 Z-40.019 F4000.
N4485 Y1698.391 Z-35.097
N4490 Y1693.246 Z-32.461
N4495 Y1685.109 Z-30.05
N4500 Y1676.577 Z-28.784
N4505 Y1666.189 Z-28.105
N4510 Y1641.204 Z-28.054
N4515 Y1470.475 Z-32.447
N4520 Y1312.238 Z-35.046
N4525 Y1158.999 Z-35.873
N4530 Y991.625 Z-34.964
N4535 Y554.391 Z-28.415
N4540 Y337.857 Z-23.538
N4545 Y239.999 Z-21.374
N4550 Y208.768 Z-21.582
N4555 Y188.001 Z-22.569
N4560 Y172.852 Z-24.462
N4565 Y160.116 Z-27.521
N4570 Y150.121 Z-32.445
N4575 Y146.931 Z-35.377
N4580 G2 Y145.031 Z-34.543 J-0.767 K0.834 F1000.
N4585 G0 Z5.
N4590 X147.885 Y106.726
N4595 Z-26.561
N4600 G1 Z-29.357 F1000.
N4605 G3 Y108.455 Z-30.164 J1.053 K0.
N4610 G1 Y110.423 Z-28.514 F4000.
N4615 Y115.217 Z-25.621
N4620 Y118.647 Z-24.081
N4625 Y127.531 Z-21.594
N4630 Y140.235 Z-19.514
N4635 Y159.851 Z-18.185
N4640 Y196.288 Z-18.122
N4645 Y346.196 Z-22.144
N4650 Y537.746 Z-26.625
N4655 Y931.257 Z-32.806
N4660 Y1079.084 Z-34.361
N4665 Y1240.33 Z-34.314
N4670 Y1396.485 Z-32.348
N4675 Y1558.886 Z-28.477
N4680 Y1675.482 Z-24.179
N4685 Y1695.262 Z-24.3
N4690 Y1704.56 Z-25.16
N4695 Y1711.609 Z-26.547
N4700 Y1719.68 Z-29.793
N4705 Y1724.052 Z-33.361
N4710 Y1727.097 Z-37.588
N4715 G3 Y1727.866 Z-37.34 J0.344 K0.248 F1000.
N4720 G0 Z5.
N4725 X132.889 Y1746.777
N4730 Z-28.626
N4735 G1 Z-32.504 F1000.
N4740 G2 Y1745.927 Z-32.793 J-0.474 K0.
N4745 G1 Y1742.737 Z-28.634 F4000.
N4750 Y1738.253 Z-25.272
N4755 Y1734.63 Z-23.764
N4760 Y1728.856 Z-22.
N4765 Y1722.861 Z-21.115
N4770 Y1712.541 Z-20.538
N4775 Y1685.474 Z-21.342
N4780 Y1589.699 Z-25.883
N4785 Y1421.052 Z-30.546
N4790 Y1264.897 Z-32.959
N4795 Y1108.543 Z-33.393
N4800 Y971.127 Z-32.258
N4805 Y533.893 Z-25.282
N4810 Y346.507 Z-20.864
N4815 Y154.957 Z-15.15
N4820 Y118.781 Z-15.068
N4825 Y101.097 Z-16.273
N4830 Y90.18 Z-18.057
N4835 Y81.31 Z-20.657
N4840 Y74.228 Z-24.57
N4845 G2 Y71.537 Z-22.983 J-0.877 K1.588 F1000.
N4850 G0 Z5.
N4855 X117.892 Y41.131
N4860 Z-17.906
N4865 G3 Y44.129 Z-19.466 J1.905 K0. F1000.
N4870 G1 Y46.043 Z-18.126 F4000.
N4875 Y52.203 Z-15.833
N4880 Y64.343 Z-13.429
N4885 Y78.51 Z-12.297
N4890 Y113.017 Z-12.386
N4895 Y356.619 Z-20.076
N4900 Y554.415 Z-24.592
N4905 Y1022.88 Z-31.904
N4910 Y1184.88 Z-32.449
N4915 Y1336.87 Z-31.018
N4920 Y1482.615 Z-27.844
N4925 Y1615.867 Z-23.44
N4930 Y1713.724 Z-17.872
N4935 Y1734.545 Z-17.285
N4940 Y1746.273 Z-18.451
N4945 Y1754.248 Z-21.042
N4950 Y1759.068 Z-24.464
N4955 Y1762.232 Z-28.449
N4960 G3 Y1762.937 Z-28.203 J0.31 K0.246 F1000.
N4965 G0 Z5.
N4970 X102.896 Y1777.394
N4975 Z-20.939
N4980 G1 Z-24.112 F1000.
N4985 G2 Y1776.579 Z-24.38 J-0.452 K0.
N4990 G1 Y1774.363 Z-21.368 F4000.
N4995 Y1770.304 Z-18.356
N5000 Y1764.441 Z-15.866
N5005 Y1753.94 Z-14.321
N5010 Y1739.917 Z-14.5
N5015 Y1650.822 Z-20.534
N5020 Y1571.703 Z-24.036
N5025 Y1409.302 Z-28.732
N5030 Y1265.64 Z-31.075
N5035 Y1112.814 Z-31.628
N5040 Y956.659 Z-30.246
N5045 Y496.523 Z-22.536
N5050 Y319.547 Z-18.073
N5055 Y80.109 Z-10.076
N5060 Y49.847 Z-9.787
N5065 Y46.309 Z-10.466
N5070 Y42.826 Z-12.151
N5075 Y39.562 Z-15.111
N5080 Y37.249 Z-19.084
N5085 Y37.027 Z-19.69
N5090 G2 Y36.74 Z-19.891 J-0.287 K0.105
N5095 G17 G2 X100.039 Y33.883 I-2.857 J0.
N5100 G1 X90.757
N5105 G2 X87.9 Y36.74 I0. J2.858
N5110 G1 Y37.538 Z-19.906
N5115 G19 G3 Y37.83 Z-19.69 J0. K0.306
N5120 G1 Y37.876 Z-19.565
N5125 Y38.379 Z-17.936
N5130 Y40.673 Z-13.929
N5135 Y43.645 Z-11.109
N5140 Y47.195 Z-9.197
N5145 Y52.55 Z-8.177
N5150 Y229.624 Z-14.316
N5155 Y383.697 Z-19.171
N5160 Y583.575 Z-23.418
N5165 Y1024.973 Z-30.42
N5170 Y1177.752 Z-30.963
N5175 Y1323.896 Z-29.615
N5180 Y1463.395 Z-26.551
N5185 Y1611.221 Z-21.563
N5190 Y1677.827 Z-17.948
N5195 Y1747.231 Z-12.397
N5200 Y1765.851 Z-11.441
N5205 Y1774.76 Z-12.174
N5210 Y1781.607 Z-14.189
N5215 Y1786.404 Z-17.217
N5220 Y1789.965 Z-21.658
N5225 G3 Y1791.058 Z-21.273 J0.479 K0.384 F1000.
N5230 G0 Z5.
N5235 X72.904 Y1803.125
N5240 Z-16.312
N5245 G1 Z-20.165 F1000.
N5250 G2 Y1802.352 Z-20.37 J-0.414 K0.
N5255 G1 Y1799.946 Z-16.169 F4000.
N5260 Y1796.13 Z-12.722
N5265 Y1789.921 Z-10.082
N5270 Y1782.493 Z-8.923
N5275 Y1770.521 Z-9.214
N5280 Y1692.173 Z-16.219
N5285 Y1622.542 Z-20.311
N5290 Y1491.372 Z-25.04
N5295 Y1362.023 Z-28.325
N5300 Y1220.703 Z-30.18
N5305 Y1070.782 Z-30.228
N5310 Y908.381 Z-28.212
N5315 Y481.557 Z-20.812
N5320 Y310.828 Z-16.475
N5325 Y56.816 Z-7.555
N5330 Y52.104 Z-8.643
N5335 Y48.685 Z-10.436
N5340 Y45.66 Z-13.134
N5345 Y43.306 Z-16.897
N5350 Y42.534 Z-19.331
N5355 G2 Y41.637 Z-19.192 J-0.438 K0.139 F1000.
N5360 G0 Z5.
N5365 X57.907 Y47.184
N5370 Z-17.807
N5375 G3 Y49.321 Z-19.698 J1.905 K0. F1000.
N5380 G1 Y50.034 Z-17.082 F4000.
N5385 Y51.535 Z-14.235
N5390 Y54.348 Z-11.152
N5395 Y57.832 Z-8.921
N5400 Y61.396 Z-7.661
N5405 Y65.56 Z-7.158
N5410 Y314.996 Z-16.139
N5415 Y489.889 Z-20.476
N5420 Y981.257 Z-28.918
N5425 Y1133.646 Z-30.005
N5430 Y1263.406 Z-29.362
N5435 Y1402.904 Z-26.959
N5440 Y1546.567 Z-22.694
N5445 Y1646.506 Z-18.543
N5450 Y1708.858 Z-14.375
N5455 Y1782.73 Z-6.923
N5460 Y1792.867 Z-6.419
N5465 Y1799.208 Z-7.058
N5470 Y1803.006 Z-8.189
N5475 Y1807.987 Z-10.85
N5480 Y1811.654 Z-14.761
N5485 Y1813.585 Z-19.603
N5490 G3 Y1813.965 Z-19.861 J0.381 K0.152
N5495 G1 Y1824.117
N5500 X57.81 Y1824.857 Z-19.859
N5505 X57.525 Y1825.546 Z-19.853
N5510 X57.071 Y1826.138 Z-19.844
N5515 X56.479 Y1826.592 Z-19.833
N5520 X55.79 Y1826.877 Z-19.819
N5525 X55.05 Y1826.975 Z-19.804
N5530 X45.768 Z-19.618
N5535 X45.029 Y1826.877 Z-19.603
N5540 X44.34 Y1826.592 Z-19.589
N5545 X43.748 Y1826.138 Z-19.577
N5550 X43.294 Y1825.546 Z-19.568
N5555 X43.009 Y1824.857 Z-19.563
N5560 X42.911 Y1824.117 Z-19.561
N5565 G2 Y1823.713 Z-19.216 J0. K0.41
N5570 G1 Y1823.139 Z-15.64
N5575 Y1821.577 Z-12.222
N5580 Y1818.878 Z-9.012
N5585 Y1814.199 Z-6.104
N5590 Y1808.316 Z-4.472
N5595 Y1799.686 Z-4.283
N5600 Y1782.853 Z-6.053
N5605 Y1723.248 Z-12.726
N5610 Y1673.701 Z-16.562
N5615 Y1602.911 Z-20.18
N5620 Y1448.838 Z-25.377
N5625 Y1303.093 Z-28.518
N5630 Y1159.431 Z-29.661
N5635 Y1008.326 Z-28.885
N5640 Y512.794 Z-20.539
N5645 Y342.065 Z-16.597
N5650 Y179.664 Z-11.126
N5655 Y73.478 Z-7.182
N5660 Y68.63 Z-8.041
N5665 Y65.128 Z-9.519
N5670 Y61.148 Z-12.553
N5675 Y58.859 Z-15.829
N5680 Y57.549 Z-20.121
N5685 Y57.465 Z-21.182
N5690 G2 Y55.385 Z-19.285 J-0.175 K1.897 F1000.
N5695 G0 Z5.
N5700 X27.915 Y66.172
N5705 Z-15.454
N5710 G1 Z-22.724 F1000.
N5715 G3 Y66.95 Z-22.76 J0.389 K0.
N5720 G1 Y67.21 Z-19.977 F4000.
N5725 Y68.575 Z-15.837
N5730 Y70.122 Z-13.521
N5735 Y73.096 Z-10.745
N5740 Y76.65 Z-8.771
N5745 Y81.993 Z-7.397
N5750 Y274.53 Z-14.29
N5755 Y439.013 Z-18.763
N5760 Y861.672 Z-26.389
N5765 Y1050.748 Z-29.081
N5770 Y1200.75 Z-29.307
N5775 Y1348.577 Z-27.523
N5780 Y1496.404 Z-23.697
N5785 Y1629.656 Z-18.69
N5790 Y1696.205 Z-14.75
N5795 Y1741.314 Z-10.665
N5800 Y1809.298 Z-2.231
N5805 Y1816.864 Z-2.009
N5810 Y1823.308 Z-3.381
N5815 Y1828.276 Z-6.238
N5820 Y1831.087 Z-9.354
N5825 Y1832.908 Z-13.566
N5830 Y1833.327 Z-19.456
N5835 G3 Y1835.618 Z-17.591 J0.386 K1.866 F1000.
N5840 G0 Z5.
N5845 X12.919 Y1844.968
N5850 Z-17.632
N5855 G2 Y1842.689 Z-19.5 J-1.905 K0. F1000.
N5860 G1 Y1842.538 Z-12.135 F4000.
N5865 Y1841.535 Z-8.484
N5870 Y1838.964 Z-4.491
N5875 Y1835.643 Z-1.827
N5880 Y1831.112 Z-0.178
N5885 Y1823.468 Z0.244
N5890 Y1751.392 Z-9.416
N5895 Y1699.901 Z-14.32
N5900 Y1639.539 Z-18.053
N5905 Y1527.107 Z-22.499
N5910 Y1373.034 Z-26.859
N5915 Y1227.29 Z-28.981
N5920 Y1077.435 Z-29.128
N5925 Y915.034 Z-27.143
N5930 Y436.159 Z-18.531
N5935 Y269.593 Z-13.984
N5940 Y94.168 Z-7.622
N5945 Y89.684 Z-8.325
N5950 Y84.334 Z-10.583
N5955 Y80.402 Z-13.92
N5960 Y78.628 Z-16.679
N5965 Y77.503 Z-20.503
N5970 Y77.384 Z-25.133
N5975 X9.565 Y79.92 Z-25.406
N5980 X6.229 Y82.498 Z-25.68
N5985 X2.379 Y83.888 Z-25.954
N5990 X-2.077 Y83.878 Z-26.227
N5995 Y84.292 Z-18.952
N6000 Y86.04 Z-14.645
N6005 Y88.773 Z-11.361
N6010 Y92.219 Z-9.073
N6015 Y96.782 Z-7.764
N6020 Y296.661 Z-14.825
N6025 Y473.636 Z-19.292
N6030 Y977.496 Z-28.101
N6035 Y1127.405 Z-29.266
N6040 Y1274.697 Z-28.475
N6045 Y1418.36 Z-25.751
N6050 Y1587.007 Z-20.302
N6055 Y1672.372 Z-16.194
N6060 Y1728.588 Z-11.8
N6065 Y1772.532 Z-6.763
N6070 Y1827.852 Z1.306
N6075 Y1832.933 Z0.777
N6080 Y1836.426 Z-0.749
N6085 Y1839.284 Z-3.009
N6090 Y1842.022 Z-6.921
N6095 Y1843.324 Z-11.337
N6100 Y1843.447 Z-19.5
N6105 X-5.968 Y1843.44
N6110 X-9.842 Y1843.35
N6115 X-13.56 Y1842.459
N6120 X-17.074 Y1840.523
N6125 Y1840.196 Z-11.559
N6130 Y1838.374 Z-7.37
N6135 Y1834.865 Z-3.787
N6140 Y1829.587 Z-1.239
N6145 Y1822.709 Z-0.318
N6150 Y1810.378 Z-1.562
N6155 Y1752.062 Z-9.373
N6160 Y1701.667 Z-14.218
N6165 Y1637.291 Z-18.202
N6170 Y1522.777 Z-22.677
N6175 Y1381.197 Z-26.708
N6180 Y1237.534 Z-28.916
N6185 Y1090.97 Z-29.214
N6190 Y967.087 Z-27.984
N6195 Y475.72 Z-19.402
N6200 Y300.826 Z-15.017
N6205 Y90.148 Z-7.581
N6210 Y84.727 Z-8.779
N6215 Y80.458 Z-11.018
N6220 Y77.47 Z-13.761
N6225 Y75.899 Z-16.075
N6230 Y74.523 Z-20.286
N6235 Y74.397 Z-24.63
N6240 G2 Y72.46 Z-22.725 J-0.032 K1.905 F1000.
N6245 G0 Z5.
N6250 X-32.07 Y62.284
N6255 Z-18.895
N6260 G1 Z-20.79 F1000.
N6265 G3 Y64.252 Z-22.694 J1.905 K0.
N6270 G1 Y64.511 Z-19.947 F4000.
N6275 Y65.876 Z-15.807
N6280 Y67.423 Z-13.491
N6285 Y68.959 Z-11.878
N6290 Y72.17 Z-9.597
N6295 Y77.541 Z-7.642
N6300 Y81.705 Z-7.23
N6305 Y143.863 Z-9.613
N6310 Y320.838 Z-15.788
N6315 Y487.403 Z-19.843
N6320 Y1005.838 Z-28.695
N6325 Y1162.273 Z-29.508
N6330 Y1308.992 Z-28.264
N6335 Y1454.737 Z-25.039
N6340 Y1612.974 Z-19.511
N6345 Y1683.744 Z-15.705
N6350 Y1737.037 Z-11.18
N6355 Y1799.035 Z-3.61
N6360 Y1811.268 Z-2.55
N6365 Y1818.656 Z-3.412
N6370 Y1823.893 Z-5.734
N6375 Y1827.713 Z-9.12
N6380 Y1830.046 Z-13.641
N6385 Y1830.674 Z-19.45
N6390 G3 Y1832.958 Z-17.583 J0.38 K1.867 F1000.
N6395 G0 Z5.
N6400 X-47.066 Y1821.585
N6405 Z-12.808
N6410 G1 Z-19.299 F1000.
N6415 G2 Y1820.93 Z-19.369 J-0.331 K0.
N6420 G1 Y1819.978 Z-15.013 F4000.
N6425 Y1817.896 Z-11.54
N6430 Y1814.019 Z-8.11
N6435 Y1807.707 Z-5.52
N6440 Y1799.629 Z-4.783
N6445 Y1790.478 Z-5.391
N6450 Y1721.644 Z-12.964
N6455 Y1670.35 Z-16.876
N6460 Y1587.067 Z-20.906
N6465 Y1422.584 Z-26.184
N6470 Y1287.249 Z-28.817
N6475 Y1153.997 Z-29.754
N6480 Y1002.151 Z-28.895
N6485 Y502.455 Z-20.441
N6490 Y321.315 Z-16.082
N6495 Y96.452 Z-8.035
N6500 Y71.467 Z-7.126
N6505 Y66.239 Z-7.944
N6510 Y61.288 Z-10.347
N6515 Y58.028 Z-13.39
N6520 Y56.942 Z-14.95
N6525 Y55.741 Z-17.518
N6530 Y55.08 Z-20.697
N6535 G2 Y54.625 Z-20.65 J-0.225 K0.047 F1000.
N6540 G0 Z5.
N6545 X-62.062 Y46.757
N6550 Z-14.545
N6555 G1 Z-19.422 F1000.
N6560 G3 Y47.285 Z-19.509 J0.271 K0.
N6565 G1 Y48.572 Z-15.695 F4000.
N6570 Y51.217 Z-12.075
N6575 Y55.647 Z-8.988
N6580 Y59.211 Z-7.728
N6585 Y63.375 Z-7.225
N6590 Y314.995 Z-16.263
N6595 Y475.314 Z-20.299
N6600 Y929.204 Z-28.245
N6605 Y1089.523 Z-30.016
N6610 Y1241.414 Z-29.717
N6615 Y1387.158 Z-27.461
N6620 Y1539.149 Z-23.095
N6625 Y1643.253 Z-18.876
N6630 Y1707.376 Z-14.637
N6635 Y1763.915 Z-9.066
N6640 Y1783.608 Z-7.229
N6645 Y1793.557 Z-7.338
N6650 Y1800.316 Z-8.978
N6655 Y1805.466 Z-11.828
N6660 Y1808.384 Z-15.03
N6665 Y1810.607 Z-19.848
N6670 G3 Y1811.437 Z-19.666 J0.395 K0.182 F1000.
N6675 G0 Z5.
N6680 X-77.059 Y1800.153
N6685 Z-17.414
N6690 G1 Z-20.189 F1000.
N6695 G2 Y1799.043 Z-20.53 J-0.607 K0.
N6700 G1 Y1795.954 Z-15.964 F4000.
N6705 Y1791.636 Z-12.745
N6710 Y1786.122 Z-10.69
N6715 Y1778.092 Z-9.589
N6720 Y1763.518 Z-10.151
N6725 Y1684.877 Z-16.929
N6730 Y1612.005 Z-20.975
N6735 Y1457.932 Z-26.2
N6740 Y1316.351 Z-29.296
N6745 Y1166.443 Z-30.572
N6750 Y1008.319 Z-29.813
N6755 Y527.362 Z-21.89
N6760 Y349.345 Z-17.769
N6765 Y163. Z-11.422
N6770 Y56.263 Z-7.623
N6775 Y50.734 Z-8.61
N6780 Y47.661 Z-10.122
N6785 Y44.563 Z-12.685
N6790 Y42.253 Z-15.949
N6795 Y41.013 Z-19.313
N6800 G2 Y39.945 Z-19.122 J-0.517 K0.191 F1000.
N6805 G0 Z5.
N6810 X-92.055 Y36.119
N6815 Z-16.457
N6820 G1 Z-19.513 F1000.
N6825 G3 Y37.119 Z-19.653 J0.51 K0.
N6830 G1 Y37.315 Z-18.968 F4000.
N6835 Y39.239 Z-15.008
N6840 Y41.263 Z-12.632
N6845 Y45.416 Z-9.848
N6850 Y49.958 Z-8.589
N6855 Y56.551 Z-8.586
N6860 Y335.808 Z-18.012
N6865 Y514.866 Z-22.325
N6870 Y985.413 Z-30.169
N6875 Y1137.803 Z-31.169
N6880 Y1281.503 Z-30.38
N6885 Y1425.166 Z-27.756
N6890 Y1587.567 Z-22.759
N6895 Y1664.603 Z-19.027
N6900 Y1748.054 Z-12.727
N6905 Y1764.711 Z-12.269
N6910 Y1773.299 Z-13.471
N6915 Y1778.878 Z-15.42
N6920 Y1783.884 Z-18.908
N6925 Y1786.344 Z-22.346
N6930 G3 Y1787.038 Z-22.123 J0.311 K0.223 F1000.
N6935 G0 Z5.
N6940 X-107.051 Y1773.729
N6945 Z-22.032
N6950 G1 Z-25.097 F1000.
N6955 G2 Y1772.747 Z-25.445 J-0.553 K0.
N6960 G1 Y1769.758 Z-21.767 F4000.
N6965 Y1765.24 Z-18.561
N6970 Y1757.978 Z-16.182
N6975 Y1750.393 Z-15.188
N6980 Y1735.038 Z-15.294
N6985 Y1636.141 Z-21.613
N6990 Y1540.365 Z-25.34
N6995 Y1377.964 Z-29.644
N7000 Y1234.302 Z-31.574
N7005 Y1095.758 Z-31.773
N7010 Y943.767 Z-30.257
N7015 Y502.369 Z-22.887
N7020 Y327.476 Z-18.542
N7025 Y88.038 Z-10.657
N7030 Y54.204 Z-10.476
N7035 Y48.479 Z-10.876
N7040 Y44.864 Z-11.992
N7045 Y40.706 Z-14.901
N7050 Y37.813 Z-19.03
N7055 Y37.566 Z-19.589
N7060 G2 Y36.256 Z-19.312 J-0.626 K0.277 F1000.
N7065 G0 Z5.
N7070 X-122.047 Y49.679
N7075 Z-18.259
N7080 G1 Z-18.667 F1000.
N7085 G3 Y52.446 Z-20.366 J1.905 K0.
N7090 G1 Y55.198 Z-18.97 F4000.
N7095 Y62.159 Z-16.466
N7100 Y74.329 Z-14.174
N7105 Y90.113 Z-12.995
N7110 Y123.426 Z-13.116
N7115 Y356.617 Z-20.358
N7120 Y531.511 Z-24.437
N7125 Y989.565 Z-31.783
N7130 Y1149.772 Z-32.741
N7135 Y1293.434 Z-31.893
N7140 Y1439.179 Z-29.287
N7145 Y1601.58 Z-24.406
N7150 Y1720.258 Z-18.193
N7155 Y1734.792 Z-18.479
N7160 Y1743.781 Z-19.902
N7165 Y1748.573 Z-21.655
N7170 Y1751.992 Z-23.32
N7175 Y1754.688 Z-25.548
N7180 Y1758.005 Z-29.571
N7185 G3 Y1759.009 Z-29.21 J0.438 K0.361 F1000.
N7190 G0 Z5.
N7195 X-137.043 Y1742.034
N7200 Z-30.276
N7205 G1 Z-33.69 F1000.
N7210 G2 Y1740.967 Z-34.068 J-0.601 K0.
N7215 G1 Y1736.828 Z-28.957 F4000.
N7220 Y1730.903 Z-25.271
N7225 Y1722.761 Z-22.885
N7230 Y1710.57 Z-21.634
N7235 Y1694.375 Z-21.614
N7240 Y1581.944 Z-26.563
N7245 Y1402.886 Z-31.276
N7250 Y1261.306 Z-33.284
N7255 Y1106.459 Z-33.68
N7260 Y952.386 Z-32.3
N7265 Y533.891 Z-25.621
N7270 Y350.669 Z-21.32
N7275 Y167.447 Z-15.973
N7280 Y129.449 Z-15.901
N7285 Y111.503 Z-17.156
N7290 Y100.181 Z-19.031
N7295 Y91.338 Z-21.607
N7300 Y83.366 Z-26.107
N7305 G2 Y80.525 Z-24.448 J-0.936 K1.659 F1000.
N7310 G0 Z5.
N7315 X-152.04 Y117.157
N7320 Z-27.455
N7325 G1 Z-30.983 F1000.
N7330 G3 Y118.693 Z-31.644 J0.91 K0.
N7335 G1 Y120.044 Z-30.367 F4000.
N7340 Y129.405 Z-25.185
N7345 Y138.254 Z-22.629
N7350 Y150.975 Z-20.586
N7355 Y170.454 Z-19.18
N7360 Y206.174 Z-18.955
N7365 Y333.701 Z-22.206
N7370 Y529.415 Z-26.854
N7375 Y925.008 Z-33.077
N7380 Y1087.409 Z-34.767
N7385 Y1231.467 Z-34.708
N7390 Y1379.294 Z-33.057
N7395 Y1560.434 Z-28.923
N7400 Y1645.798 Z-25.93
N7405 Y1680.348 Z-25.1
N7410 Y1696.693 Z-26.036
N7415 Y1707.312 Z-28.219
N7420 Y1714.452 Z-31.41
N7425 Y1719.841 Z-36.33
N7430 Y1721.375 Z-39.037
N7435 G3 Y1721.807 Z-38.923 J0.201 K0.114 F1000.
N7440 G0 Z5.
N7445 X-167.036 Y1698.872
N7450 Z-38.134
N7455 G1 Z-44.093 F1000.
N7460 G2 Y1698.299 Z-44.238 J-0.305 K0.
N7465 G1 Y1696.27 Z-40.488 F4000.
N7470 Y1693.471 Z-37.845
N7475 Y1687.565 Z-34.202
N7480 Y1682.883 Z-32.546
N7485 Y1678.99 Z-31.538
N7490 Y1670.955 Z-30.163
N7495 Y1655.475 Z-29.188
N7500 Y1628.799 Z-29.209
N7505 Y1434.646 Z-33.671
N7510 Y1265.999 Z-35.903
N7515 Y1108.222 Z-36.202
N7520 Y945.82 Z-34.771
N7525 Y531.489 Z-28.435
N7530 Y312.872 Z-23.441
N7535 Y240.52 Z-22.246
N7540 Y207.728 Z-23.09
N7545 Y190.983 Z-24.656
N7550 Y177.863 Z-27.013
N7555 Y169.017 Z-29.716
N7560 Y160.475 Z-34.48
N7565 Y158.172 Z-36.872
N7570 G2 Y156.784 Z-36.313 J-0.581 K0.56 F1000.
N7575 G0 Z5.
N7580 X-182.032 Y200.567
N7585 Z-36.264
N7590 G1 Z-41.822 F1000.
N7595 G3 Y201.829 Z-42.233 J0.698 K0.
N7600 G1 Y203.634 Z-39.751 F4000.
N7605 Y207.947 Z-36.657
N7610 Y214.758 Z-33.711
N7615 Y223.821 Z-31.117
N7620 Y233.461 Z-29.333
N7625 Y243.594 Z-28.039
N7630 Y269.135 Z-26.427
N7635 Y308.695 Z-26.034
N7640 Y539.804 Z-30.382
N7645 Y983.284 Z-36.852
N7650 Y1161.07 Z-37.856
N7655 Y1326.562 Z-37.067
N7660 Y1530.605 Z-33.928
N7665 Y1610.813 Z-33.231
N7670 Y1634.25 Z-34.051
N7675 Y1644.848 Z-35.303
N7680 Y1653.995 Z-37.27
N7685 Y1660.362 Z-39.567
N7690 Y1663.838 Z-41.321
N7695 Y1666.886 Z-43.623
N7700 Y1669.344 Z-46.186
N7705 Y1670.806 Z-49.491
N7710 Y1671.049 Z-50.
N7715 G3 Y1672.965 Z-48.095 J0.011 K1.905 F1000.
N7720 G0 Z5.
N7725 X-197.028 Y1682.59
N7730 Z-48.095
N7735 G2 Y1680.679 Z-50. J-1.905 K0. F1000.
N7740 G1 Y1634.233 Z-49.84 F4000.
N7745 Y1628.759 Z-46.145
N7750 Y1620.555 Z-42.977
N7755 Y1612.675 Z-41.164
N7760 Y1598.515 Z-39.107
N7765 Y1573.53 Z-37.531
N7770 Y1527.724 Z-36.963
N7775 Y1261.22 Z-39.501
N7780 Y1075.196 Z-39.429
N7785 Y904.466 Z-37.646
N7790 Y517.202 Z-32.162
N7795 Y371.457 Z-30.092
N7800 Y327.734 Z-30.664
N7805 Y300.925 Z-32.143
N7810 Y287.663 Z-33.56
N7815 Y274.156 Z-35.909
N7820 Y265.242 Z-38.253
N7825 Y257.553 Z-41.485
N7830 Y252.764 Z-44.623
N7835 Y250.326 Z-48.605
N7840 Y250.272 Z-48.715
N7845 G2 Y249.604 Z-48.561 J-0.316 K0.154 F1000.
N7850 G0 Z5.
N7855 X-212.025 Y225.351
N7860 Z-48.095
N7865 G3 Y227.256 Z-50. J1.905 K0. F1000.
N7870 G1 Y309.499 F4000.
N7875 Y310.704 Z-49.168
N7880 Y316.301 Z-46.08
N7885 Y325.922 Z-42.771
N7890 Y336.69 Z-40.392
N7895 Y355.831 Z-37.782
N7900 Y369.897 Z-36.57
N7905 Y403.188 Z-35.049
N7910 Y463.568 Z-34.503
N7915 Y977.838 Z-40.743
N7920 Y1163.142 Z-41.822
N7925 Y1483.647 Z-40.871
N7930 Y1525.8 Z-41.713
N7935 Y1554.318 Z-43.934
N7940 Y1572.372 Z-46.937
N7945 Y1582.35 Z-49.988
N7950 Y1646.464 Z-50.
N7955 G3 Y1648.37 Z-48.095 J0. K1.905 F1000.
N7960 G0 Z5.
N7965 X-227.021 Y1605.704
N7970 Z-48.095
N7975 G2 Y1603.795 Z-50. J-1.905 K0. F1000.
N7980 G1 Y1508.02 Z-49.82 F4000.
N7985 Y1494.949 Z-48.155
N7990 Y1463.789 Z-46.06
N7995 Y1417.919 Z-44.884
N8000 Y1311.165 Z-44.504
N8005 Y1054.049 Z-43.939
N8010 Y581.42 Z-39.187
N8015 Y499.179 Z-39.565
N8020 Y454.414 Z-41.095
N8025 Y425.936 Z-43.279
N8030 Y407.032 Z-45.725
N8035 Y397.121 Z-47.658
N8040 Y388.58 Z-50.
N8045 Y281.434
N8050 G2 Y279.529 Z-48.095 J0. K1.905 F1000.
N8055 G0 Z5.
N8060 X-242.017 Y343.851
N8065 Z-48.095
N8070 G3 Y345.756 Z-50. J1.905 K0. F1000.
N8075 G1 Y500.308 F4000.
N8080 Y516.704 Z-48.372
N8085 Y555.97 Z-45.994
N8090 Y612.186 Z-44.534
N8095 Y724.617 Z-44.193
N8100 Y959.891 Z-46.249
N8105 Y1141.03 Z-47.472
N8110 Y1315.924 Z-48.604
N8115 Y1374.222 Z-49.875
N8120 Y1550.25 Z-50.
N8125 G3 Y1552.156 Z-48.095 J0.001 K1.905 F1000.
N8130 G0 Z5.
N8135 X-257.013 Y1486.951
N8140 Z-48.095
N8145 G2 Y1485.046 Z-50. J-1.905 K0. F1000.
N8150 G1 Y423.571 F4000.
N8155 G2 Y421.666 Z-48.095 J0. K1.905 F1000.
N8160 G0 Z5.
N8165 X-272.009 Y516.559
N8170 Z-48.095
N8175 G3 Y518.464 Z-50. J1.905 K0. F1000.
N8180 G1 Y1405.787 F4000.
N8185 G3 Y1407.692 Z-48.095 J0. K1.905 F1000.
N8190 G0 Z5.
N8195 X-287.006 Y1292.847
N8200 Z-48.095
N8205 G2 Y1290.942 Z-50. J-1.905 K0. F1000.
N8210 G1 Y645.832 F4000.
N8215 G2 Y643.927 Z-48.095 J0. K1.905 F1000.
N8220 G0 Z5.
N8225 X-182.032 Y1700.374
N8230 Z-47.282
N8235 G1 Z-48.095 F1000.
N8240 G3 Y1702.279 Z-50. J1.905 K0.
N8245 G1 Y1709.045 F4000.
N8250 G3 Y1710.95 Z-48.095 J0. K1.905 F1000.
N8255 G0 Z10.
N8260 G17
(PARALLEL1 3)
N8265 G0 X296.847 Y955.372
N8270 Z10.
N8275 Z-73.095
N8280 G19 G2 Y953.467 Z-75. J-1.905 K0. F1000.
N8285 G1 Y887.165 F4000.
N8290 G2 Y885.26 Z-73.095 J0. K1.905 F1000.
N8295 G0 Z5.
N8300 X281.851 Y602.946
N8305 Z-73.095
N8310 G3 Y604.851 Z-75. J1.905 K0. F1000.
N8315 G1 Y850.289 F4000.
N8320 Y876.036 Z-73.084
N8325 Y896.064 Z-71.916
N8330 Y940.256 Z-70.795
N8335 Y1027.734 Z-71.424
N8340 Y1081.063 Z-71.525
N8345 Y1117.22 Z-72.626
N8350 Y1149.077 Z-74.984
N8355 Y1329.863 Z-75.
N8360 G3 Y1331.768 Z-73.095 J0. K1.905 F1000.
N8365 G0 Z5.
N8370 X266.855 Y1431.508
N8375 Z-73.095
N8380 G2 Y1429.601 Z-75. J-1.905 K0. F1000.
N8385 G1 Y1335.749 Z-74.878 F4000.
N8390 Y1326.086 Z-71.246
N8395 Y1311.209 Z-67.902
N8400 Y1292.103 Z-65.166
N8405 Y1270.567 Z-63.008
N8410 Y1216.44 Z-59.759
N8415 Y1134.082 Z-57.659
N8420 Y1037.663 Z-56.875
N8425 Y945.792 Z-56.18
N8430 Y854.079 Z-56.242
N8435 Y778.752 Z-57.386
N8440 Y727.529 Z-59.431
N8445 Y697.693 Z-61.521
N8450 Y678.511 Z-63.52
N8455 Y662.593 Z-65.717
N8460 Y649.305 Z-68.559
N8465 Y641.7 Z-70.811
N8470 Y638.455 Z-72.975
N8475 Y635.699 Z-75.
N8480 Y490.099
N8485 G2 Y488.194 Z-73.095 J0. K1.905 F1000.
N8490 G0 Z5.
N8495 X251.858 Y497.293
N8500 Z-73.095
N8505 G3 Y499.198 Z-75. J1.905 K0. F1000.
N8510 G1 Y516.824 F4000.
N8515 Y517.254 Z-72.25
N8520 Y522.538 Z-66.306
N8525 Y524.168 Z-64.97
N8530 Y534.598 Z-61.135
N8535 Y546.647 Z-58.378
N8540 Y566.828 Z-55.343
N8545 Y597.425 Z-52.609
N8550 Y641.596 Z-50.502
N8555 Y707.884 Z-49.168
N8560 Y798.785 Z-48.883
N8565 Y957.475 Z-49.922
N8570 Y1204.549 Z-51.734
N8575 Y1290.925 Z-53.199
N8580 Y1339.134 Z-55.042
N8585 Y1369.265 Z-57.172
N8590 Y1388.837 Z-59.282
N8595 Y1400.5 Z-61.079
N8600 Y1411.641 Z-63.358
N8605 Y1422.447 Z-66.587
N8610 Y1429.232 Z-70.027
N8615 Y1432.893 Z-72.692
N8620 Y1434.225 Z-75.
N8625 Y1504.203
N8630 G3 Y1506.108 Z-73.095 J0. K1.905 F1000.
N8635 G0 Z5.
N8640 X236.862 Y1507.549
N8645 Z-63.144
N8650 G1 Z-72.247 F1000.
N8655 G2 Y1505.478 Z-74.144 J-1.905 K0.
N8660 G1 Y1504.791 Z-71.013 F4000.
N8665 Y1503.226 Z-67.481
N8670 Y1501.907 Z-66.192
N8675 Y1496.641 Z-62.564
N8680 Y1486.378 Z-58.622
N8685 Y1473.526 Z-55.577
N8690 Y1461.869 Z-53.809
N8695 Y1443.995 Z-51.84
N8700 Y1407.775 Z-49.675
N8705 Y1353.602 Z-48.375
N8710 Y1138.668 Z-47.306
N8715 Y981.124 Z-46.333
N8720 Y695.884 Z-43.57
N8725 Y595.448 Z-43.605
N8730 Y533.177 Z-44.816
N8735 Y492.853 Z-47.089
N8740 Y469.359 Z-49.613
N8745 Y454.136 Z-52.233
N8750 Y445.124 Z-54.349
N8755 Y436.76 Z-57.481
N8760 Y432.017 Z-60.063
N8765 Y430.475 Z-61.833
N8770 Y427.508 Z-66.334
N8775 Y427.237 Z-68.702
N8780 G2 Y425.125 Z-66.808 J-0.206 K1.894 F1000.
N8785 G0 Z5.
N8790 X251.858 Y406.968
N8795 Z-71.706
N8800 G1 Z-73.095 F1000.
N8805 G2 Y405.063 Z-75. J-1.905 K0.
N8810 G1 Y400.571 F4000.
N8815 G2 Y398.666 Z-73.095 J0. K1.905 F1000.
N8820 G0 Z5.
N8825 X236.862 Y1558.329
N8830 Z-72.061
N8835 G1 Z-73.095 F1000.
N8840 G3 Y1560.234 Z-75. J1.905 K0.
N8845 G1 Y1566.135 F4000.
N8850 G3 Y1568.04 Z-73.095 J0. K1.905 F1000.
N8855 G0 Z5.
N8860 X221.866 Y1562.637
N8865 Z-57.182
N8870 G1 Z-67.391 F1000.
N8875 G2 Y1562.108 Z-67.48 J-0.272 K0.
N8880 G1 Y1560.419 Z-62.595 F4000.
N8885 Y1556.655 Z-59.128
N8890 Y1551.818 Z-56.065
N8895 Y1546.5 Z-53.841
N8900 Y1537.081 Z-51.187
N8905 Y1523.458 Z-48.809
N8910 Y1503.376 Z-46.679
N8915 Y1469.981 Z-45.081
N8920 Y1403.693 Z-44.35
N8925 Y1106.326 Z-44.275
N8930 Y945.627 Z-42.984
N8935 Y539.863 Z-38.591
N8940 Y465.54 Z-39.06
N8945 Y427.375 Z-40.507
N8950 Y405.523 Z-42.14
N8955 Y386.385 Z-44.618
N8960 Y375.117 Z-46.961
N8965 Y364.304 Z-50.266
N8970 Y357.01 Z-54.181
N8975 Y355.119 Z-56.706
N8980 Y352.798 Z-61.035
N8985 Y352.747 Z-61.289
N8990 G2 Y350.588 Z-59.401 J-0.254 K1.888 F1000.
N8995 G0 Z5.
N9000 X206.87 Y288.689
N9005 Z-45.063
N9010 G1 Z-54.232 F1000.
N9015 G3 Y289.554 Z-54.422 J0.453 K0.
N9020 G1 Y291.164 Z-50.926 F4000.
N9025 Y293.11 Z-48.433
N9030 Y299.41 Z-44.785
N9035 Y309.552 Z-41.453
N9040 Y325.195 Z-38.34
N9045 Y348.242 Z-35.972
N9050 Y378.875 Z-34.512
N9055 Y432.107 Z-34.006
N9060 Y974.464 Z-40.939
N9065 Y1165.811 Z-42.073
N9070 Y1378.362 Z-41.301
N9075 Y1512.947 Z-40.611
N9080 Y1543.078 Z-41.384
N9085 Y1564.872 Z-42.971
N9090 Y1578.176 Z-44.741
N9095 Y1588.734 Z-46.818
N9100 Y1597.088 Z-49.543
N9105 Y1603.206 Z-52.919
N9110 Y1607.472 Z-56.976
N9115 Y1609.01 Z-61.44
N9120 G3 Y1609.602 Z-61.341 J0.288 K0.099 F1000.
N9125 G0 Z5.
N9130 X191.874 Y1648.341
N9135 Z-46.667
N9140 G1 Z-55.161 F1000.
N9145 G2 Y1647.805 Z-55.266 J-0.278 K0.
N9150 G1 Y1645.639 Z-49.974 F4000.
N9155 Y1641.03 Z-46.019
N9160 Y1634.03 Z-42.863
N9165 Y1626.536 Z-40.754
N9170 Y1612.927 Z-38.677
N9175 Y1595.321 Z-37.412
N9180 Y1551.129 Z-36.744
N9185 Y1271.915 Z-39.75
N9190 Y1089.966 Z-39.865
N9195 Y919.223 Z-38.187
N9200 Y511.451 Z-32.259
N9205 Y350.753 Z-29.7
N9210 Y308.569 Z-30.171
N9215 Y284.464 Z-31.509
N9220 Y267.677 Z-33.424
N9225 Y253.598 Z-36.373
N9230 Y243.571 Z-40.149
N9235 Y237.836 Z-44.166
N9240 Y236.027 Z-47.915
N9245 G2 Y235.53 Z-47.801 J-0.235 K0.114 F1000.
N9250 G0 Z5.
N9255 X176.877 Y188.314
N9260 Z-35.295
N9265 G1 Z-41.462 F1000.
N9270 G3 Y189.055 Z-41.646 J0.393 K0.
N9275 G1 Y190.113 Z-39.643 F4000.
N9280 Y194.274 Z-36.5
N9285 Y202.372 Z-32.626
N9290 Y209.228 Z-30.725
N9295 Y217.928 Z-28.975
N9300 Y232.938 Z-27.2
N9305 Y250.995 Z-26.121
N9310 Y289.161 Z-25.729
N9315 Y544.27 Z-30.843
N9320 Y978.156 Z-37.231
N9325 Y1151.251 Z-38.308
N9330 Y1328.788 Z-37.43
N9335 Y1608.002 Z-32.832
N9340 Y1638.384 Z-33.098
N9345 Y1650.143 Z-34.082
N9350 Y1658.839 Z-35.473
N9355 Y1666.094 Z-37.536
N9360 Y1672.345 Z-40.556
N9365 Y1676.283 Z-43.837
N9370 Y1678.181 Z-46.514
N9375 Y1678.975 Z-49.247
N9380 G3 Y1679.444 Z-49.18 J0.23 K0.067 F1000.
N9385 G0 Z5.
N9390 X161.881 Y1705.516
N9395 Z-37.313
N9400 G1 Z-43.722 F1000.
N9405 G2 Y1705.14 Z-43.809 J-0.198 K0.
N9410 G1 Y1703.258 Z-39.947 F4000.
N9415 Y1698.489 Z-35.628
N9420 Y1693.582 Z-33.08
N9425 Y1685.202 Z-30.641
N9430 Y1672.421 Z-29.103
N9435 Y1650.325 Z-28.694
N9440 Y1501.679 Z-32.6
N9445 Y1351.024 Z-35.475
N9450 Y1188.317 Z-36.753
N9455 Y1018.34 Z-36.15
N9460 Y576.419 Z-29.726
N9465 Y355.459 Z-24.902
N9470 Y240.961 Z-22.198
N9475 Y208.821 Z-22.316
N9480 Y186.725 Z-23.306
N9485 Y169.13 Z-25.653
N9490 Y158.392 Z-28.544
N9495 Y150.221 Z-32.696
N9500 Y147.124 Z-35.454
N9505 Y146.573 Z-36.355
N9510 G2 Y145.725 Z-36.117 J-0.39 K0.238 F1000.
N9515 G0 Z5.
N9520 X146.885 Y106.605
N9525 Z-26.989
N9530 G1 Z-30.576 F1000.
N9535 G3 Y107.904 Z-31.11 J0.76 K0.
N9540 G1 Y109.085 Z-29.916 F4000.
N9545 Y116.56 Z-25.31
N9550 Y125.49 Z-22.544
N9555 Y137.738 Z-20.419
N9560 Y158.526 Z-18.975
N9565 Y195.688 Z-18.964
N9570 Y354.377 Z-23.293
N9575 Y525.12 Z-27.303
N9580 Y933.896 Z-33.768
N9585 Y1091.582 Z-35.347
N9590 Y1252.749 Z-35.142
N9595 Y1391.351 Z-33.361
N9600 Y1564.102 Z-29.224
N9605 Y1658.512 Z-25.619
N9610 Y1689.647 Z-24.86
N9615 Y1704.579 Z-25.822
N9620 Y1714.101 Z-27.866
N9625 Y1720.904 Z-31.05
N9630 Y1724.853 Z-34.807
N9635 Y1727.144 Z-38.628
N9640 G3 Y1727.687 Z-38.477 J0.251 K0.15 F1000.
N9645 G0 Z5.
N9650 X131.889 Y1746.65
N9655 Z-29.099
N9660 G1 Z-33.638 F1000.
N9665 G2 Y1746.018 Z-33.827 J-0.344 K0.
N9670 G1 Y1743.456 Z-29.934 F4000.
N9675 Y1739.803 Z-26.759
N9680 Y1734.797 Z-24.416
N9685 Y1731.116 Z-23.184
N9690 Y1727.337 Z-22.389
N9695 Y1723.434 Z-21.871
N9700 Y1713.465 Z-21.337
N9705 Y1685.343 Z-22.222
N9710 Y1590.933 Z-26.743
N9715 Y1424.208 Z-31.394
N9720 Y1275.562 Z-33.792
N9725 Y1118.119 Z-34.354
N9730 Y961.438 Z-33.054
N9735 Y527.552 Z-26.094
N9740 Y354.801 Z-22.027
N9745 Y151.92 Z-15.969
N9750 Y116.767 Z-15.881
N9755 Y99.979 Z-17.025
N9760 Y89.452 Z-18.735
N9765 Y80.93 Z-21.223
N9770 Y74.565 Z-24.696
N9775 Y73.583 Z-25.445
N9780 G2 Y71.616 Z-24.471 J-0.743 K0.974 F1000.
N9785 G0 Z5.
N9790 X116.892 Y40.872
N9795 Z-19.
N9800 G1 Z-19.204 F1000.
N9805 G3 Y43.655 Z-20.486 J1.686 K0.
N9810 G1 Y45.444 Z-18.955 F4000.
N9815 Y51.42 Z-16.557
N9820 Y62.376 Z-14.343
N9825 Y77.054 Z-13.122
N9830 Y112.426 Z-13.269
N9835 Y335.395 Z-20.385
N9840 Y506.138 Z-24.608
N9845 Y927.971 Z-31.606
N9850 Y1090.678 Z-33.325
N9855 Y1246.839 Z-33.042
N9860 Y1385.441 Z-31.108
N9865 Y1542.122 Z-27.001
N9870 Y1626.489 Z-23.865
N9875 Y1712.864 Z-18.798
N9880 Y1734.96 Z-18.086
N9885 Y1746.803 Z-19.229
N9890 Y1754.482 Z-21.739
N9895 Y1759.26 Z-25.219
N9900 Y1762.325 Z-29.44
N9905 G3 Y1763.002 Z-29.22 J0.303 K0.22 F1000.
N9910 G0 Z5.
N9915 X101.896 Y1777.428
N9920 Z-21.715
N9925 G1 Z-25.151 F1000.
N9930 G2 Y1776.662 Z-25.394 J-0.421 K0.
N9935 G1 Y1774.22 Z-21.934 F4000.
N9940 Y1770.419 Z-19.054
N9945 Y1764.802 Z-16.637
N9950 Y1755.133 Z-15.159
N9955 Y1741.074 Z-15.317
N9960 Y1644.756 Z-21.793
N9965 Y1556.623 Z-25.482
N9970 Y1389.899 Z-30.121
N9975 Y1253.305 Z-32.143
N9980 Y1102.736 Z-32.55
N9985 Y946.055 Z-31.049
N9990 Y492.082 Z-23.387
N9995 Y315.314 Z-18.885
N10000 Y78.283 Z-10.945
N10005 Y50.161 Z-10.604
N10010 Y46.457 Z-11.303
N10015 Y42.696 Z-13.298
N10020 Y39.873 Z-16.174
N10025 Y37.742 Z-20.587
N10030 G2 Y37.251 Z-20.895 J-0.491 K0.237
N10035 G1 X101.799 Y36.511 Z-20.894
N10040 X101.513 Y35.822 Z-20.891
N10045 X101.059 Y35.23 Z-20.885
N10050 X100.468 Y34.776 Z-20.878
N10055 X99.779 Y34.491 Z-20.869
N10060 X99.039 Y34.393 Z-20.86
N10065 X89.757 Z-20.745
N10070 X89.018 Y34.491 Z-20.735
N10075 X88.329 Y34.776 Z-20.727
N10080 X87.737 Y35.23 Z-20.72
N10085 X87.283 Y35.822 Z-20.714
N10090 X86.997 Y36.511 Z-20.71
N10095 X86.9 Y37.251 Z-20.709
N10100 Y38.471
N10105 G3 Y38.997 Z-20.308 J0. K0.545
N10110 G1 Y39.478 Z-18.549
N10115 Y41.665 Z-14.563
N10120 Y44.536 Z-11.819
N10125 Y47.901 Z-10.023
N10130 Y52.467 Z-9.127
N10135 Y337.415 Z-18.838
N10140 Y506.149 Z-22.899
N10145 Y994.27 Z-31.038
N10150 Y1148.264 Z-31.966
N10155 Y1296.801 Z-30.974
N10160 Y1439.421 Z-28.151
N10165 Y1604.137 Z-22.821
N10170 Y1672.434 Z-19.25
N10175 Y1755.964 Z-12.652
N10180 Y1770.527 Z-12.399
N10185 Y1777.732 Z-13.52
N10190 Y1783.001 Z-15.559
N10195 Y1786.935 Z-18.466
N10200 Y1789.93 Z-22.642
N10205 G3 Y1790.949 Z-22.315 J0.457 K0.328 F1000.
N10210 G0 Z5.
N10215 X71.904 Y1802.932
N10220 Z-16.939
N10225 G1 Z-21.175 F1000.
N10230 G2 Y1802.183 Z-21.359 J-0.397 K0.
N10235 G1 Y1799.848 Z-16.88 F4000.
N10240 Y1796.435 Z-13.636
N10245 Y1791.474 Z-11.291
N10250 Y1784.898 Z-9.896
N10255 Y1773.892 Z-9.889
N10260 Y1745.091 Z-12.534
N10265 Y1690.333 Z-17.321
N10270 Y1620.097 Z-21.378
N10275 Y1483.503 Z-26.244
N10280 Y1352.936 Z-29.472
N10285 Y1218.351 Z-31.157
N10290 Y1076.631 Z-31.235
N10295 Y918.444 Z-29.334
N10300 Y480.038 Z-21.745
N10305 Y323.357 Z-17.83
N10310 Y58.205 Z-8.467
N10315 Y52.852 Z-9.577
N10320 Y49.563 Z-11.355
N10325 Y46.432 Z-14.376
N10330 Y44.292 Z-18.54
N10335 Y43.884 Z-20.362
N10340 X68.121 Y45.55 Z-20.477
N10345 X64.34 Y47.221 Z-20.591
N10350 X60.576 Y48.928 Z-20.705
N10355 X56.908 Y50.842 Z-20.82
N10360 Y50.988 Z-19.683
N10365 Y52.671 Z-15.279
N10370 Y55.318 Z-12.143
N10375 Y58.672 Z-9.89
N10380 Y64.035 Z-8.278
N10385 Y293.23 Z-16.437
N10390 Y465.981 Z-20.967
N10395 Y958.12 Z-29.545
N10400 Y1110.783 Z-30.943
N10405 Y1258.98 Z-30.392
N10410 Y1393.565 Z-28.164
N10415 Y1552.254 Z-23.473
N10420 Y1650.682 Z-19.3
N10425 Y1710.884 Z-15.178
N10430 Y1770.796 Z-9.064
N10435 Y1788.427 Z-7.404
N10440 Y1797.884 Z-7.605
N10445 Y1804.09 Z-9.326
N10450 Y1808.336 Z-11.903
N10455 Y1811.496 Z-15.552
N10460 Y1813.238 Z-20.644
N10465 G3 Y1813.566 Z-20.879 J0.328 K0.112
N10470 G1 Y1823.551
N10475 X56.81 Y1824.291 Z-20.875
N10480 X56.525 Y1824.98 Z-20.863
N10485 X56.071 Y1825.572 Z-20.844
N10490 X55.48 Y1826.026 Z-20.82
N10495 X54.792 Y1826.311 Z-20.791
N10500 X54.053 Y1826.409 Z-20.76
N10505 X44.766 Z-20.376
N10510 X44.028 Y1826.311 Z-20.345
N10515 X43.339 Y1826.026 Z-20.317
N10520 X42.748 Y1825.572 Z-20.292
N10525 X42.294 Y1824.98 Z-20.273
N10530 X42.009 Y1824.291 Z-20.262
N10535 X41.911 Y1823.551 Z-20.258
N10540 G2 Y1823.207 Z-19.948 J0. K0.347
N10545 G1 Y1822.845 Z-16.605
N10550 Y1821.434 Z-13.089
N10555 Y1818.392 Z-9.367
N10560 Y1813.644 Z-6.618
N10565 Y1808.142 Z-5.25
N10570 Y1800.159 Z-5.167
N10575 Y1781.437 Z-7.187
N10580 Y1724.095 Z-13.632
N10585 Y1666.257 Z-18.01
N10590 Y1591.934 Z-21.599
N10595 Y1423.201 Z-27.053
N10600 Y1292.633 Z-29.649
N10605 Y1145.996 Z-30.675
N10610 Y989.342 Z-29.65
N10615 Y475.107 Z-20.764
N10620 Y300.348 Z-16.336
N10625 Y73.361 Z-8.252
N10630 Y67.836 Z-9.675
N10635 Y64.414 Z-11.677
N10640 Y61.607 Z-14.509
N10645 Y60.061 Z-17.233
N10650 Y59.195 Z-21.583
N10655 Y59.18 Z-22.768
N10660 G2 Y57.268 Z-20.863 J-0.007 K1.905 F1000.
N10665 G0 Z5.
N10670 X26.915 Y66.844
N10675 Z-18.933
N10680 G1 Z-22.692 F1000.
N10685 G3 Y68.782 Z-24.597 J1.905 K0.
N10690 G1 Y68.974 Z-20.693 F4000.
N10695 Y70.268 Z-16.342
N10700 Y71.791 Z-14.053
N10705 Y74.687 Z-11.397
N10710 Y79.422 Z-9.1
N10715 Y83.695 Z-8.337
N10720 Y270.981 Z-15.167
N10725 Y435.697 Z-19.677
N10730 Y847.487 Z-27.134
N10735 Y1046.351 Z-30.03
N10740 Y1174.276 Z-30.39
N10745 Y1320.913 Z-28.995
N10750 Y1467.551 Z-25.579
N10755 Y1612.179 Z-20.478
N10760 Y1686.502 Z-16.442
N10765 Y1739.969 Z-11.802
N10770 Y1809.721 Z-3.131
N10775 Y1817.84 Z-2.918
N10780 Y1823.808 Z-4.313
N10785 Y1828.468 Z-7.177
N10790 Y1830.802 Z-9.927
N10795 Y1832.516 Z-14.254
N10800 Y1832.778 Z-20.453
N10805 G0 Z5.
N10810 X11.919 Y1844.227
N10815 Z-18.632
N10820 G2 Y1841.948 Z-20.5 J-1.905 K0. F1000.
N10825 G1 Y1841.586 Z-11.043 F4000.
N10830 Y1839.896 Z-6.904
N10835 Y1837.931 Z-4.438
N10840 Y1835.122 Z-2.347
N10845 Y1831.673 Z-1.049
N10850 Y1824.377 Z-0.606
N10855 Y1809.444 Z-2.592
N10860 Y1753.113 Z-10.222
N10865 Y1701.359 Z-15.203
N10870 Y1635.183 Z-19.262
N10875 Y1510.642 Z-24.045
N10880 Y1378.065 Z-27.744
N10885 Y1233.437 Z-29.923
N10890 Y1085.588 Z-30.163
N10895 Y928.907 Z-28.374
N10900 Y458.864 Z-20.019
N10905 Y306.2 Z-16.149
N10910 Y99.301 Z-8.721
N10915 Y92.475 Z-8.944
N10920 Y87.258 Z-10.646
N10925 Y84.091 Z-12.68
N10930 Y82.552 Z-14.14
N10935 Y80.986 Z-16.253
N10940 Y79.679 Z-19.462
N10945 Y79.348 Z-26.478
N10950 X8.606 Y81.914 Z-26.71
N10955 X5.292 Y84.476 Z-26.943
N10960 X1.19 Y84.896 Z-27.176
N10965 X-3.077 Y84.869 Z-27.408
N10970 Y84.898 Z-24.842
N10975 Y85.28 Z-19.104
N10980 Y86.803 Z-15.313
N10985 Y89.44 Z-12.103
N10990 Y92.632 Z-9.981
N10995 Y96.994 Z-8.745
N11000 Y117.67 Z-9.401
N11005 Y310.508 Z-16.253
N11010 Y495.311 Z-20.73
N11015 Y999.503 Z-29.392
N11020 Y1150.112 Z-30.273
N11025 Y1296.749 Z-29.185
N11030 Y1441.378 Z-26.136
N11035 Y1590.024 Z-21.188
N11040 Y1674.39 Z-17.067
N11045 Y1722.174 Z-13.411
N11050 Y1771.926 Z-7.851
N11055 Y1827.515 Z0.254
N11060 Y1832.206 Z-0.087
N11065 Y1835.624 Z-1.462
N11070 Y1838.424 Z-3.588
N11075 Y1841.16 Z-7.463
N11080 Y1842.395 Z-12.089
N11085 Y1842.441 Z-20.5
N11090 X-7.07 Y1842.439 Z-20.498
N11095 X-10.993 Y1842.166 Z-20.497
N11100 X-14.655 Y1840.866 Z-20.495
N11105 X-18.073 Y1838.615 Z-20.493
N11110 Y1838.291 Z-12.028
N11115 Y1836.533 Z-8.044
N11120 Y1833.337 Z-4.779
N11125 Y1829.767 Z-2.844
N11130 Y1824.247 Z-1.605
N11135 Y1816.212 Z-1.868
N11140 Y1751.071 Z-10.497
N11145 Y1700.632 Z-15.31
N11150 Y1634.446 Z-19.355
N11155 Y1497.852 Z-24.507
N11160 Y1355.232 Z-28.261
N11165 Y1210.603 Z-30.126
N11170 Y1061.483 Z-30.057
N11175 Y878.688 Z-27.556
N11180 Y450.829 Z-19.899
N11185 Y278.078 Z-15.303
N11190 Y91.729 Z-8.465
N11195 Y86.828 Z-8.979
N11200 Y81.89 Z-10.904
N11205 Y78.822 Z-13.185
N11210 Y76.272 Z-16.535
N11215 Y75.154 Z-19.638
N11220 Y74.9 Z-25.73
N11225 G2 Y72.954 Z-23.826 J-0.04 K1.905 F1000.
N11230 G0 Z5.
N11235 X-33.07 Y62.74
N11240 Z-19.425
N11245 G1 Z-21.882 F1000.
N11250 G3 Y64.719 Z-23.786 J1.905 K0.
N11255 G1 Y64.905 Z-21.458 F4000.
N11260 Y65.818 Z-17.265
N11265 Y67.35 Z-14.573
N11270 Y70.158 Z-11.741
N11275 Y73.58 Z-9.739
N11280 Y79.084 Z-8.318
N11285 Y304.282 Z-16.3
N11290 Y483.059 Z-20.774
N11295 Y1001.312 Z-29.653
N11300 Y1155.71 Z-30.518
N11305 Y1298.923 Z-29.412
N11310 Y1437.525 Z-26.524
N11315 Y1602.241 Z-20.997
N11320 Y1672.547 Z-17.453
N11325 Y1728.2 Z-13.083
N11330 Y1779.776 Z-7.139
N11335 Y1805.885 Z-3.94
N11340 Y1813.669 Z-3.866
N11345 Y1819.465 Z-5.193
N11350 Y1824.212 Z-7.982
N11355 Y1826.462 Z-10.455
N11360 Y1828.498 Z-15.047
N11365 Y1828.853 Z-20.457
N11370 G3 Y1831.126 Z-18.588 J0.368 K1.869 F1000.
N11375 G0 Z5.
N11380 X-48.066 Y1819.637
N11385 Z-13.089
N11390 G1 Z-20.416 F1000.
N11395 G2 Y1819.184 Z-20.458 J-0.228 K0.
N11400 G1 Y1818.374 Z-16.115 F4000.
N11405 Y1816.229 Z-12.336
N11410 Y1813.735 Z-9.902
N11415 Y1808.357 Z-7.166
N11420 Y1802.198 Z-6.018
N11425 Y1791.153 Z-6.401
N11430 Y1718.635 Z-14.27
N11435 Y1658.867 Z-18.587
N11440 Y1574.5 Z-22.425
N11445 Y1407.776 Z-27.589
N11450 Y1263.147 Z-30.119
N11455 Y1116.425 Z-30.734
N11460 Y977.413 Z-29.607
N11465 Y465.187 Z-20.712
N11470 Y294.445 Z-16.272
N11475 Y69.196 Z-8.228
N11480 Y63.85 Z-9.735
N11485 Y60.463 Z-11.869
N11490 Y57.738 Z-14.861
N11495 Y56.191 Z-18.036
N11500 Y55.612 Z-22.052
N11505 X-51.741 Y53.52 Z-21.634
N11510 X-55.487 Y51.564 Z-21.217
N11515 X-59.239 Y49.621 Z-20.799
N11520 X-63.062 Y47.814 Z-20.382
N11525 Y49.003 Z-16.366
N11530 Y50.53 Z-13.927
N11535 Y52.884 Z-11.579
N11540 Y56.998 Z-9.311
N11545 Y62.224 Z-8.257
N11550 Y305.281 Z-16.99
N11555 Y457.944 Z-20.97
N11560 Y893.839 Z-28.677
N11565 Y1062.572 Z-30.893
N11570 Y1211.658 Z-30.965
N11575 Y1360.304 Z-29.062
N11580 Y1514.976 Z-24.935
N11585 Y1627.465 Z-20.697
N11590 Y1693.684 Z-16.745
N11595 Y1753.048 Z-11.31
N11600 Y1781.317 Z-8.492
N11605 Y1792.32 Z-8.485
N11610 Y1799.08 Z-10.091
N11615 Y1803.955 Z-12.837
N11620 Y1807.144 Z-16.643
N11625 Y1808.845 Z-20.85
N11630 G3 Y1809.75 Z-20.674 J0.436 K0.176 F1000.
N11635 G0 Z5.
N11640 X-78.058 Y1798.016
N11645 Z-17.787
N11650 G1 Z-21.573 F1000.
N11655 G2 Y1797.303 Z-21.772 J-0.384 K0.
N11660 G1 Y1794.645 Z-17.359 F4000.
N11665 Y1790.925 Z-14.332
N11670 Y1786.005 Z-12.173
N11675 Y1778.843 Z-10.874
N11680 Y1766.791 Z-10.998
N11685 Y1682.563 Z-18.142
N11690 Y1612.257 Z-22.017
N11695 Y1457.585 Z-27.255
N11700 Y1316.974 Z-30.322
N11705 Y1184.397 Z-31.538
N11710 Y1037.369 Z-31.135
N11715 Y790.295 Z-27.461
N11720 Y450.82 Z-21.369
N11725 Y276.06 Z-16.551
N11730 Y54.62 Z-8.714
N11735 Y49.996 Z-9.882
N11740 Y46.745 Z-11.784
N11745 Y43.944 Z-14.643
N11750 Y41.907 Z-18.711
N11755 Y41.529 Z-20.378
N11760 X-81.749 Y40.365 Z-20.414
N11765 X-85.47 Y39.324 Z-20.45
N11770 X-89.235 Y38.457 Z-20.487
N11775 X-93.054 Y37.812 Z-20.523
N11780 Y38.785 Z-17.614
N11785 Y41.465 Z-13.76
N11790 Y44.25 Z-11.569
N11795 Y48.888 Z-9.818
N11800 Y62.217 Z-9.812
N11805 Y323.352 Z-18.686
N11810 Y500.12 Z-23.087
N11815 Y994.268 Z-31.305
N11820 Y1148.262 Z-32.227
N11825 Y1294.297 Z-31.268
N11830 Y1438.926 Z-28.463
N11835 Y1601.633 Z-23.277
N11840 Y1669.93 Z-19.763
N11845 Y1738.136 Z-14.575
N11850 Y1757.135 Z-13.407
N11855 Y1766.628 Z-13.691
N11860 Y1772.816 Z-14.918
N11865 Y1777.641 Z-16.719
N11870 Y1782.033 Z-19.928
N11875 Y1784.542 Z-23.63
N11880 G3 Y1785.475 Z-23.344 J0.422 K0.286 F1000.
N11885 G0 Z5.
N11890 X-108.051 Y1771.854
N11895 Z-23.28
N11900 G1 Z-26.677 F1000.
N11905 G2 Y1770.985 Z-26.97 J-0.484 K0.
N11910 G1 Y1768.196 Z-23.293 F4000.
N11915 Y1764.589 Z-20.343
N11920 Y1757.563 Z-17.614
N11925 Y1747.299 Z-16.328
N11930 Y1729.723 Z-16.727
N11935 Y1637.374 Z-22.635
N11940 Y1542.964 Z-26.329
N11945 Y1378.248 Z-30.699
N11950 Y1233.619 Z-32.636
N11955 Y1084.656 Z-32.794
N11960 Y919.94 Z-30.945
N11965 Y500.116 Z-23.899
N11970 Y327.365 Z-19.593
N11975 Y90.335 Z-11.819
N11980 Y57.191 Z-11.63
N11985 Y47.088 Z-12.557
N11990 Y44.522 Z-13.622
N11995 Y41.108 Z-16.316
N12000 Y38.497 Z-20.485
N12005 G2 Y36.671 Z-19.96 J-0.838 K0.525 F1000.
N12010 G0 Z5.
N12015 X-123.047 Y53.146
N12020 Z-19.559
N12025 G1 Z-20.628 F1000.
N12030 G3 Y55.563 Z-22.018 J1.608 K0.
N12035 G1 Y57.376 Z-20.962 F4000.
N12040 Y65.978 Z-17.537
N12045 Y76.621 Z-15.511
N12050 Y92.336 Z-14.223
N12055 Y126.484 Z-14.301
N12060 Y315.305 Z-20.175
N12065 Y488.056 Z-24.641
N12070 Y821.505 Z-30.304
N12075 Y1050.501 Z-33.444
N12080 Y1209.683 Z-33.648
N12085 Y1364.355 Z-31.939
N12090 Y1521.036 Z-28.122
N12095 Y1617.455 Z-24.822
N12100 Y1715.883 Z-19.525
N12105 Y1731.953 Z-19.637
N12110 Y1741.059 Z-20.873
N12115 Y1748.788 Z-23.78
N12120 Y1752.643 Z-26.68
N12125 Y1755.913 Z-31.219
N12130 G3 Y1756.559 Z-31.011 J0.29 K0.209 F1000.
N12135 G0 Z5.
N12140 X-138.043 Y1739.347
N12145 Z-31.145
N12150 G1 Z-35.531 F1000.
N12155 G2 Y1738.595 Z-35.757 J-0.41 K0.
N12160 G1 Y1735.722 Z-31.411 F4000.
N12165 Y1730.334 Z-27.337
N12170 Y1723.256 Z-24.793
N12175 Y1715.57 Z-23.388
N12180 Y1700.552 Z-22.749
N12185 Y1661.487 Z-24.236
N12190 Y1575.111 Z-27.901
N12195 Y1408.386 Z-32.249
N12200 Y1267.775 Z-34.307
N12205 Y1112.089 Z-34.772
N12210 Y959.425 Z-33.472
N12215 Y513.487 Z-26.311
N12220 Y342.745 Z-22.164
N12225 Y169.994 Z-17.177
N12230 Y132.833 Z-17.138
N12235 Y114.062 Z-18.5
N12240 Y102.705 Z-20.554
N12245 Y95.075 Z-22.972
N12250 Y87.446 Z-27.58
N12255 Y87.24 Z-27.766
N12260 G2 Y85.685 Z-27.073 J-0.623 K0.692 F1000.
N12265 G0 Z5.
N12270 X-153.039 Y122.133
N12275 Z-28.605
N12280 G1 Z-32.926 F1000.
N12285 G3 Y123.24 Z-33.319 J0.623 K0.
N12290 G1 Y124.121 Z-32.235 F4000.
N12295 Y129.335 Z-28.711
N12300 Y135.89 Z-25.656
N12305 Y146.221 Z-23.085
N12310 Y158.621 Z-21.409
N12315 Y178.697 Z-20.337
N12320 Y211.841 Z-20.216
N12325 Y419.745 Z-25.583
N12330 Y646.731 Z-30.014
N12335 Y1040.443 Z-35.574
N12340 Y1210.792 Z-35.919
N12345 Y1373.5 Z-34.258
N12350 Y1548.259 Z-30.366
N12355 Y1652.713 Z-26.881
N12360 Y1679.367 Z-26.423
N12365 Y1694.367 Z-27.334
N12370 Y1704.858 Z-29.483
N12375 Y1711.516 Z-32.472
N12380 Y1716.888 Z-37.451
N12385 Y1718.505 Z-40.68
N12390 G3 Y1719.005 Z-40.561 J0.236 K0.118 F1000.
N12395 G0 Z5.
N12400 X-168.036 Y1695.397
N12405 Z-38.999
N12410 G1 Z-45.86 F1000.
N12415 G2 Y1694.872 Z-45.965 J-0.273 K0.
N12420 G1 Y1693.277 Z-42.16 F4000.
N12425 Y1690.301 Z-39.295
N12430 Y1685.66 Z-36.039
N12435 Y1676.846 Z-32.985
N12440 Y1665.627 Z-31.218
N12445 Y1648.481 Z-30.352
N12450 Y1610.206 Z-30.913
N12455 Y1397.28 Z-35.452
N12460 Y1234.573 Z-37.199
N12465 Y1082.618 Z-37.174
N12470 Y931.963 Z-35.656
N12475 Y532.226 Z-29.568
N12480 Y257.029 Z-23.569
N12485 Y220.872 Z-23.917
N12490 Y202.892 Z-25.064
N12495 Y187.234 Z-27.248
N12500 Y178.185 Z-29.425
N12505 Y171.491 Z-32.089
N12510 Y166.052 Z-35.434
N12515 Y163.543 Z-38.452
N12520 G2 Y162.118 Z-37.937 J-0.62 K0.515 F1000.
N12525 G0 Z5.
N12530 X-183.032 Y206.943
N12535 Z-36.955
N12540 G1 Z-43.823 F1000.
N12545 G3 Y207.748 Z-44.04 J0.432 K0.
N12550 G1 Y209.517 Z-40.995 F4000.
N12555 Y214.079 Z-37.687
N12560 Y222.973 Z-34.027
N12565 Y236.162 Z-30.985
N12570 Y251.245 Z-29.101
N12575 Y273.086 Z-27.755
N12580 Y313.26 Z-27.322
N12585 Y536.229 Z-31.46
N12590 Y966.098 Z-37.74
N12595 Y1137.733 Z-38.961
N12600 Y1314.905 Z-38.313
N12605 Y1555.952 Z-34.811
N12610 Y1612.525 Z-34.579
N12615 Y1633.443 Z-35.657
N12620 Y1641.367 Z-36.627
N12625 Y1651.848 Z-39.005
N12630 Y1658.952 Z-42.017
N12635 Y1662.742 Z-44.675
N12640 Y1665.418 Z-47.524
N12645 Y1666.92 Z-51.726
N12650 G3 Y1667.395 Z-51.644 J0.23 K0.082 F1000.
N12655 G0 Z5.
N12660 X-198.028 Y1633.224
N12665 Z-48.691
N12670 G1 Z-57.822 F1000.
N12675 G2 Y1632.849 Z-57.887 J-0.193 K0.
N12680 G1 Y1631.322 Z-53.668 F4000.
N12685 Y1629.132 Z-50.898
N12690 Y1624.156 Z-47.493
N12695 Y1615.1 Z-44.047
N12700 Y1609.416 Z-42.724
N12705 Y1595.715 Z-40.6
N12710 Y1574.561 Z-39.067
N12715 Y1534.386 Z-38.239
N12720 Y1255.173 Z-40.684
N12725 Y1064.86 Z-40.507
N12730 Y845.908 Z-38.009
N12735 Y500.407 Z-33.057
N12740 Y373.857 Z-31.401
N12745 Y331.673 Z-32.052
N12750 Y303.875 Z-33.77
N12755 Y288.804 Z-35.606
N12760 Y276.264 Z-38.151
N12765 Y266.182 Z-41.629
N12770 Y260.328 Z-45.172
N12775 Y258.523 Z-47.276
N12780 Y256.857 Z-50.628
N12785 G2 Y256.271 Z-50.49 J-0.276 K0.137 F1000.
N12790 G0 Z5.
N12795 X-213.024 Y313.732
N12800 Z-47.144
N12805 G1 Z-57.115 F1000.
N12810 G3 Y314.32 Z-57.252 J0.31 K0.
N12815 G1 Y316.219 Z-53.412 F4000.
N12820 Y318.282 Z-50.708
N12825 Y323.563 Z-47.549
N12830 Y334.732 Z-43.814
N12835 Y347.072 Z-41.214
N12840 Y360.504 Z-39.423
N12845 Y379.881 Z-37.732
N12850 Y412.02 Z-36.348
N12855 Y472.282 Z-35.854
N12860 Y970.448 Z-41.821
N12865 Y1123.111 Z-42.901
N12870 Y1344.673 Z-42.629
N12875 Y1482.432 Z-42.218
N12880 Y1521.602 Z-43.094
N12885 Y1550.445 Z-45.399
N12890 Y1565.931 Z-48.01
N12895 Y1575.322 Z-50.689
N12900 Y1581.549 Z-53.144
N12905 Y1586.711 Z-56.776
N12910 Y1589.419 Z-59.736
N12915 Y1590.799 Z-63.912
N12920 G3 Y1591.3 Z-63.832 J0.244 K0.081 F1000.
N12925 G0 Z5.
N12930 X-228.02 Y1541.172
N12935 Z-59.345
N12940 G1 Z-69.702 F1000.
N12945 G2 Y1540.178 Z-69.872 J-0.512 K0.
N12950 G1 Y1538.338 Z-64.648 F4000.
N12955 Y1534.917 Z-61.503
N12960 Y1529.222 Z-57.99
N12965 Y1518.685 Z-54.456
N12970 Y1508.647 Z-52.242
N12975 Y1486.531 Z-49.299
N12980 Y1454.392 Z-47.245
N12985 Y1408.191 Z-46.158
N12990 Y1262.469 Z-45.739
N12995 Y1003.888 Z-44.785
N13000 Y612.186 Z-40.672
N13005 Y529.828 Z-40.697
N13010 Y478.605 Z-41.757
N13015 Y440.522 Z-44.038
N13020 Y416.203 Z-46.993
N13025 Y399.979 Z-50.598
N13030 Y391.989 Z-53.397
N13035 Y386.806 Z-56.231
N13040 Y383.994 Z-59.802
N13045 Y381.87 Z-63.862
N13050 Y381.86 Z-64.371
N13055 G2 Y379.754 Z-62.477 J-0.201 K1.894 F1000.
N13060 G0 Z5.
N13065 X-243.017 Y459.693
N13070 Z-58.924
N13075 G1 Z-69.866 F1000.
N13080 G3 Y461.813 Z-71.759 J1.905 K0.
N13085 G1 Y461.849 Z-69.515 F4000.
N13090 Y466.069 Z-63.146
N13095 Y469.67 Z-60.865
N13100 Y479.013 Z-57.277
N13105 Y493.236 Z-54.047
N13110 Y508.029 Z-51.772
N13115 Y531.112 Z-49.455
N13120 Y567.181 Z-47.381
N13125 Y627.443 Z-45.885
N13130 Y747.966 Z-45.651
N13135 Y999.058 Z-47.944
N13140 Y1171.948 Z-48.875
N13145 Y1316.577 Z-50.006
N13150 Y1378.848 Z-51.646
N13155 Y1418.803 Z-54.263
N13160 Y1443.404 Z-57.411
N13165 Y1457.79 Z-60.575
N13170 Y1465.769 Z-63.227
N13175 Y1469.58 Z-64.895
N13180 Y1476.065 Z-69.381
N13185 Y1478.56 Z-74.83
N13190 Y1542.126 Z-75.
N13195 G3 Y1544.036 Z-73.095 J0.005 K1.905 F1000.
N13200 G0 Z5.
N13205 X-258.013 Y1477.269
N13210 Z-73.095
N13215 G2 Y1475.36 Z-75. J-1.905 K0. F1000.
N13220 G1 Y1398.499 Z-74.858 F4000.
N13225 Y1394.16 Z-71.885
N13230 Y1386.793 Z-68.528
N13235 Y1375.725 Z-65.417
N13240 Y1358.73 Z-62.353
N13245 Y1339.024 Z-60.075
N13250 Y1303.216 Z-57.321
N13255 Y1248.98 Z-55.174
N13260 Y1158.588 Z-53.559
N13265 Y832.972 Z-51.379
N13270 Y725.505 Z-52.27
N13275 Y663.235 Z-54.294
N13280 Y633.246 Z-56.199
N13285 Y607.984 Z-58.581
N13290 Y589.661 Z-61.381
N13295 Y577.172 Z-64.169
N13300 Y568.008 Z-67.4
N13305 Y564.866 Z-69.981
N13310 Y559.754 Z-75.
N13315 Y481.44
N13320 Y476.481
N13325 Y435.212
N13330 G2 Y433.307 Z-73.095 J0. K1.905 F1000.
N13335 G0 Z5.
N13340 X-273.009 Y531.013
N13345 Z-73.095
N13350 G3 Y532.918 Z-75. J1.905 K0. F1000.
N13355 G1 Y700.351 F4000.
N13360 Y703.023 Z-73.768
N13365 Y709.883 Z-71.873
N13370 Y724.977 Z-68.988
N13375 Y740.417 Z-67.025
N13380 Y759.845 Z-65.217
N13385 Y789.637 Z-63.213
N13390 Y843.873 Z-61.314
N13395 Y918.196 Z-60.416
N13400 Y1029.408 Z-61.115
N13405 Y1113.775 Z-61.676
N13410 Y1184.08 Z-63.956
N13415 Y1216.22 Z-65.735
N13420 Y1249.498 Z-69.093
N13425 Y1266.598 Z-71.719
N13430 Y1279.719 Z-75.
N13435 Y1393.464
N13440 G3 Y1395.369 Z-73.095 J0. K1.905 F1000.
N13445 G0 Z5.
N13450 X-288.005 Y1269.747
N13455 Z-73.095
N13460 G2 Y1267.842 Z-75. J-1.905 K0. F1000.
N13465 G1 Y668.622 F4000.
N13470 G2 Y666.717 Z-73.095 J0. K1.905 F1000.
N13475 G0 Z10.
N13480 G17
(PARALLEL1 4)
N13485 G0 X115.412 Y43.739
N13490 Z10.
N13495 Z-22.452
N13500 G1 Z-23.781 F1000.
N13505 G18 G3 X113.554 Z-24.471 I-1.057 K0.
N13510 G1 X110.982 Z-21.487 F4000.
N13515 X106.144 Z-18.841
N13520 X97.364 Z-17.139
N13525 X91.57 Z-17.44
N13530 X86.453 Z-19.141
N13535 X84.273 Z-20.922
N13540 X83.687 Z-23.592
N13545 X83.666 Z-24.296
N13550 G3 X83.218 Z-24.29 I-0.224 K0.006 F1000.
N13555 G0 Z5.
N13560 X-82.803
N13565 Z-16.549
N13570 G1 Z-24.15 F1000.
N13575 G3 X-83.669 Z-24.224 I-0.436 K0.
N13580 G1 X-84.23 Z-20.991 F4000.
N13585 X-85.704 Z-19.587
N13590 X-89.672 Z-17.85
N13595 X-96.699 Z-17.061
N13600 X-104.523 Z-18.376
N13605 X-109.489 Z-20.409
N13610 X-112.58 Z-23.177
N13615 X-113.54 Z-24.464
N13620 G3 X-114.118 Z-24.754 I-0.578 K0.431
N13625 G1 X-116.655
N13630 X-117.118 Y43.812
N13635 X-117.537 Y44.025 Z-24.756
N13640 X-117.868 Y44.357 Z-24.76
N13645 X-118.081 Y44.775 Z-24.764
N13650 X-118.155 Y45.239 Z-24.768
N13655 X-118.081 Y45.702 Z-24.772
N13660 X-117.868 Y46.12 Z-24.776
N13665 X-117.537 Y46.452 Z-24.78
N13670 X-117.118 Y46.665 Z-24.782
N13675 X-116.655 Y46.739
N13680 G2 X-116.057 Z-24.464 I0. K0.721
N13685 G1 X-116.016 Z-24.41
N13690 X-114.092 Z-21.55
N13695 X-110.663 Z-18.556
N13700 X-105.036 Z-16.235
N13705 X-95.629 Z-14.798
N13710 X-86.618 Z-15.223
N13715 X-79.767 Z-17.054
N13720 X-76.157 Z-19.629
N13725 X-75.249 Z-21.265
N13730 X-75.062 Z-24.062
N13735 G2 X-74.048 Z-24.029 I0.506 K0.034 F1000.
N13740 G0 Z5.
N13745 X73.904
N13750 Z-16.42
N13755 G1 Z-23.937 F1000.
N13760 G2 X75.065 Z-23.954 I0.581 K0.
N13765 G1 X75.122 Z-22.003 F4000.
N13770 X76.051 Z-19.758
N13775 X79.275 Z-17.298
N13780 X85.432 Z-15.408
N13785 X94.116 Z-14.76
N13790 X103.229 Z-15.805
N13795 X108.427 Z-17.408
N13800 X112.972 Z-20.306
N13805 X116.027 Z-24.43
N13810 G2 X116.773 Z-24.806 I0.746 K0.553
N13815 G1 X118.255
N13820 X118.724 Y46.812 Z-24.817
N13825 X119.147 Y47.025 Z-24.85
N13830 X119.482 Y47.357 Z-24.9
N13835 X119.698 Y47.775 Z-24.964
N13840 X119.772 Y48.239 Z-25.035
N13845 X119.698 Y48.702 Z-25.106
N13850 X119.482 Y49.12 Z-25.17
N13855 X119.147 Y49.452 Z-25.221
N13860 X118.724 Y49.665 Z-25.254
N13865 X118.255 Y49.738 Z-25.265
N13870 G3 X117.498 Z-24.874 I0. K0.929
N13875 G1 X114.137 Z-20.143
N13880 X110.006 Z-17.26
N13885 X103.839 Z-15.07
N13890 X91.572 Z-13.663
N13895 X81.469 Z-14.022
N13900 X75.455 Z-15.328
N13905 X71.1 Z-17.568
N13910 X68.714 Z-20.299
N13915 X68.036 Z-24.951
N13920 G3 X65.75 Z-23.084 I-0.381 K1.867 F1000.
N13925 G0 Z5.
N13930 X-67.63
N13935 Z-15.937
N13940 G1 Z-24.834 F1000.
N13945 G3 X-68.036 Z-24.864 I-0.204 K0.
N13950 G1 X-68.711 Z-20.306 F4000.
N13955 X-70.063 Z-18.443
N13960 X-73.857 Z-15.983
N13965 X-79.994 Z-14.247
N13970 X-88.343 Z-13.61
N13975 X-99.978 Z-14.411
N13980 X-107.875 Z-16.252
N13985 X-113.15 Z-19.29
N13990 X-116.643 Z-23.319
N13995 X-117.513 Z-24.909
N14000 G3 X-118.011 Z-25.205 I-0.498 K0.272
N14005 G1 X-119.463
N14010 X-119.933 Y49.812 Z-25.218
N14015 X-120.358 Y50.025 Z-25.256
N14020 X-120.695 Y50.357 Z-25.315
N14025 X-120.912 Y50.775 Z-25.389
N14030 X-120.986 Y51.238 Z-25.472
N14035 X-120.912 Y51.702 Z-25.554
N14040 X-120.695 Y52.12 Z-25.629
N14045 X-120.358 Y52.452 Z-25.688
N14050 X-119.933 Y52.665 Z-25.726
N14055 X-119.463 Y52.738 Z-25.739
N14060 G2 X-118.978 Z-25.467 I0. K0.568
N14065 G1 X-116.762 Z-21.841
N14070 X-112.825 Z-18.302
N14075 X-107.243 Z-15.817
N14080 X-99.042 Z-14.263
N14085 X-82.391 Z-12.98
N14090 X-74.096 Z-13.681
N14095 X-67.871 Z-15.466
N14100 X-63.791 Z-17.854
N14105 X-62.094 Z-20.281
N14110 X-61.761 Z-25.555
N14115 G2 X-59.475 Z-23.689 I0.381 K1.867 F1000.
N14120 G0 Z5.
N14125 X59.47
N14130 Z-17.315
N14135 G1 Z-23.688 F1000.
N14140 G2 X61.755 Z-25.555 I1.905 K0.
N14145 G1 X61.844 Z-21.401 F4000.
N14150 X62.764 Z-18.976
N14155 X64.697 Z-17.155
N14160 X68.824 Z-15.095
N14165 X76.116 Z-13.35
N14170 X84.535 Z-13.024
N14175 X102.123 Z-14.66
N14180 X107.632 Z-15.936
N14185 X112.038 Z-17.856
N14190 X116.306 Z-21.257
N14195 X118.958 Z-25.424
N14200 G2 X119.473 Z-25.707 I0.515 K0.328
N14205 G1 X121.028
N14210 X121.505 Y52.812 Z-25.725
N14215 X121.935 Y53.025 Z-25.777
N14220 X122.277 Y53.357 Z-25.857
N14225 X122.496 Y53.775 Z-25.959
N14230 X122.572 Y54.238 Z-26.071
N14235 X122.496 Y54.702 Z-26.183
N14240 X122.277 Y55.12 Z-26.285
N14245 X121.935 Y55.452 Z-26.365
N14250 X121.505 Y55.665 Z-26.417
N14255 X121.028 Y55.738 Z-26.435
N14260 G3 X120.511 Z-26.148 I0. K0.61
N14265 G1 X117.911 Z-21.999
N14270 X114.086 Z-18.501
N14275 X109.189 Z-16.205
N14280 X104.509 Z-15.05
N14285 X93.688 Z-13.731
N14290 X74.877 Z-12.673
N14295 X66.812 Z-13.585
N14300 X62.472 Z-14.909
N14305 X58.338 Z-17.442
N14310 X56.335 Z-20.354
N14315 X56.013 Z-26.157
N14320 G3 X53.727 Z-24.291 I-0.381 K1.867 F1000.
N14325 G0 Z5.
N14330 X-53.738
N14335 Z-17.253
N14340 G1 Z-24.293 F1000.
N14345 G3 X-56.024 Z-26.16 I-1.905 K0.
N14350 G1 X-56.297 Z-20.478 F4000.
N14355 X-57.204 Z-18.682
N14360 X-60.483 Z-15.902
N14365 X-65.585 Z-13.857
N14370 X-72.903 Z-12.774
N14375 X-83.005 Z-12.945
N14380 X-98.03 Z-14.155
N14385 X-106.4 Z-15.407
N14390 X-112.338 Z-17.536
N14395 X-116.359 Z-20.333
N14400 X-119.73 Z-24.475
N14405 X-120.474 Z-26.06
N14410 G3 X-120.986 Z-26.384 I-0.511 K0.24
N14415 G1 X-122.393
N14420 X-122.863 Y55.812 Z-26.396
N14425 X-123.286 Y56.025 Z-26.431
N14430 X-123.623 Y56.357 Z-26.485
N14435 X-123.839 Y56.775 Z-26.554
N14440 X-123.913 Y57.238 Z-26.63
N14445 X-123.839 Y57.702 Z-26.705
N14450 X-123.623 Y58.12 Z-26.774
N14455 X-123.286 Y58.452 Z-26.828
N14460 X-122.863 Y58.665 Z-26.863
N14465 X-122.393 Y58.738 Z-26.875
N14470 G2 X-121.915 Z-26.612 I0. K0.565
N14475 G1 X-118.528 Z-21.243
N14480 X-113.682 Z-17.791
N14485 X-107.622 Z-15.589
N14490 X-98.486 Z-14.251
N14495 X-78.282 Z-12.753
N14500 X-66.057 Z-12.575
N14505 X-58.65 Z-14.101
N14510 X-54.453 Z-16.005
N14515 X-51.486 Z-18.886
N14520 X-50.774 Z-20.617
N14525 X-50.594 Z-26.611
N14530 G2 X-48.202 Z-24.77 I0.487 K1.842 F1000.
N14535 G0 Z5.
N14540 X48.227
N14545 Z-17.495
N14550 G1 Z-24.798 F1000.
N14555 G2 X50.593 Z-26.646 I1.905 K0.
N14560 G1 X50.699 Z-21.044 F4000.
N14565 X51.96 Z-18.204
N14570 X53.901 Z-16.362
N14575 X58.909 Z-14.016
N14580 X65.653 Z-12.617
N14585 X75.27 Z-12.612
N14590 X100.526 Z-14.483
N14595 X107.135 Z-15.496
N14600 X110.288 Z-16.353
N14605 X113.57 Z-17.728
N14610 X118.438 Z-21.146
N14615 X121.958 Z-26.723
N14620 G2 X122.521 Z-27.033 I0.563 K0.355
N14625 G1 X123.959
N14630 X124.431 Y58.812 Z-27.047
N14635 X124.856 Y59.025 Z-27.087
N14640 X125.194 Y59.357 Z-27.15
N14645 X125.411 Y59.775 Z-27.229
N14650 X125.486 Y60.238 Z-27.317
N14655 X125.411 Y60.702 Z-27.405
N14660 X125.194 Y61.12 Z-27.484
N14665 X124.856 Y61.452 Z-27.547
N14670 X124.431 Y61.665 Z-27.587
N14675 X123.959 Y61.738 Z-27.601
N14680 G3 X123.377 Z-27.258 I0. K0.665
N14685 G1 X121.004 Z-22.977
N14690 X117.01 Z-19.176
N14695 X111.78 Z-16.621
N14700 X106.255 Z-15.283
N14705 X91.228 Z-13.663
N14710 X62.604 Z-12.319
N14715 X55.126 Z-13.386
N14720 X49.856 Z-15.58
N14725 X46.859 Z-18.099
N14730 X45.559 Z-20.858
N14735 X45.409 Z-27.352
N14740 G3 X43.124 Z-25.485 I-0.38 K1.867 F1000.
N14745 G0 Z5.
N14750 X-43.124
N14755 Z-17.41
N14760 G1 Z-25.487 F1000.
N14765 G3 X-45.409 Z-27.354 I-1.905 K0.
N14770 G1 X-45.706 Z-20.227 F4000.
N14775 X-47.122 Z-17.787
N14780 X-50.439 Z-15.246
N14785 X-55.663 Z-13.247
N14790 X-63.038 Z-12.301
N14795 X-91.273 Z-13.667
N14800 X-105.003 Z-15.075
N14805 X-110.898 Z-16.349
N14810 X-115.737 Z-18.421
N14815 X-119.24 Z-21.023
N14820 X-122.603 Z-25.397
N14825 X-123.392 Z-27.306
N14830 G3 X-123.789 Z-27.571 I-0.396 K0.164
N14835 G1 X-125.172
N14840 X-125.643 Y61.812 Z-27.583
N14845 X-126.067 Y62.025 Z-27.62
N14850 X-126.404 Y62.357 Z-27.677
N14855 X-126.62 Y62.775 Z-27.749
N14860 X-126.694 Y63.238 Z-27.829
N14865 X-126.62 Y63.702 Z-27.909
N14870 X-126.404 Y64.12 Z-27.98
N14875 X-126.067 Y64.452 Z-28.038
N14880 X-125.643 Y64.665 Z-28.074
N14885 X-125.172 Y64.738 Z-28.087
N14890 G2 X-124.785 Z-27.842 I0. K0.429
N14895 G1 X-123.221 Z-24.551
N14900 X-118.931 Z-19.806
N14905 X-114.756 Z-17.448
N14910 X-109.022 Z-15.765
N14915 X-102.953 Z-14.831
N14920 X-89.568 Z-13.62
N14925 X-57.577 Z-12.201
N14930 X-51.067 Z-13.074
N14935 X-45.508 Z-15.094
N14940 X-42.35 Z-17.612
N14945 X-40.817 Z-20.572
N14950 X-40.515 Z-27.914
N14955 G0 Z5.
N14960 X40.515
N14965 Z-15.321
N14970 G1 Z-27.912 F1000.
N14975 X40.85 Z-20.424 F4000.
N14980 X42.372 Z-17.586
N14985 X44.794 Z-15.512
N14990 X49.82 Z-13.4
N14995 X56.83 Z-12.234
N15000 X83.769 Z-13.247
N15005 X105.587 Z-15.175
N15010 X113.569 Z-17.004
N15015 X116.506 Z-18.325
N15020 X119.1 Z-19.937
N15025 X122.693 Z-23.723
N15030 X124.78 Z-27.826
N15035 G2 X125.213 Z-28.091 I0.433 K0.22
N15040 G1 X126.621
N15045 X127.094 Y64.812 Z-28.107
N15050 X127.522 Y65.025 Z-28.152
N15055 X127.861 Y65.357 Z-28.222
N15060 X128.079 Y65.775 Z-28.31
N15065 X128.154 Y66.238 Z-28.408
N15070 X128.079 Y66.702 Z-28.506
N15075 X127.861 Y67.12 Z-28.595
N15080 X127.522 Y67.452 Z-28.665
N15085 X127.094 Y67.665 Z-28.71
N15090 X126.621 Y67.738 Z-28.725
N15095 G3 X126.192 Z-28.468 I0. K0.485
N15100 G1 X123.321 Z-23.063
N15105 X119.856 Z-19.856
N15110 X114.598 Z-17.137
N15115 X106.711 Z-15.35
N15120 X91.602 Z-13.851
N15125 X54.128 Z-12.136
N15130 X46.816 Z-12.848
N15135 X41.685 Z-14.674
N15140 X37.761 Z-17.612
N15145 X36.179 Z-20.707
N15150 X35.757 Z-28.472
N15155 G0 Z5.
N15160 X-35.757
N15165 Z-15.472
N15170 G1 Z-28.474 F1000.
N15175 X-36.132 Z-20.995 F4000.
N15180 X-36.974 Z-18.687
N15185 X-39.124 Z-16.307
N15190 X-43.166 Z-13.997
N15195 X-47.772 Z-12.663
N15200 X-55.167 Z-12.154
N15205 X-91.17 Z-13.822
N15210 X-104.361 Z-15.035
N15215 X-110.347 Z-15.98
N15220 X-115.378 Z-17.403
N15225 X-121.308 Z-20.914
N15230 X-124.087 Z-24.278
N15235 X-126.145 Z-28.3
N15240 G3 X-126.479 Z-28.504 I-0.333 K0.171
N15245 G1 X-127.878
N15250 X-128.355 Y67.812 Z-28.521
N15255 X-128.785 Y68.025 Z-28.572
N15260 X-129.126 Y68.357 Z-28.651
N15265 X-129.345 Y68.775 Z-28.751
N15270 X-129.42 Y69.238 Z-28.861
N15275 X-129.345 Y69.702 Z-28.972
N15280 X-129.126 Y70.12 Z-29.071
N15285 X-128.785 Y70.452 Z-29.15
N15290 X-128.355 Y70.665 Z-29.201
N15295 X-127.878 Y70.738 Z-29.219
N15300 G2 X-127.521 Z-28.958 I0. K0.374
N15305 G1 X-127.1 Z-27.631
N15310 X-123.493 Z-21.988
N15315 X-120.339 Z-19.657
N15320 X-116.296 Z-17.493
N15325 X-111.973 Z-16.254
N15330 X-106.005 Z-15.286
N15335 X-91.046 Z-13.887
N15340 X-54.004 Z-12.235
N15345 X-44.792 Z-12.403
N15350 X-38.565 Z-14.024
N15355 X-34.519 Z-16.33
N15360 X-32.383 Z-18.675
N15365 X-31.495 Z-21.166
N15370 X-31.153 Z-29.034
N15375 G2 X-28.868 Z-27.167 I0.38 K1.867 F1000.
N15380 G0 Z5.
N15385 X28.867
N15390 Z-18.115
N15395 G1 Z-27.165 F1000.
N15400 G2 X31.152 Z-29.032 I1.905 K0.
N15405 G1 X31.189 Z-23.778 F4000.
N15410 X32.052 Z-19.276
N15415 X33.864 Z-16.896
N15420 X36.796 Z-14.848
N15425 X41.04 Z-13.179
N15430 X47.552 Z-12.146
N15435 X79.543 Z-13.197
N15440 X104.775 Z-15.122
N15445 X111.357 Z-16.134
N15450 X114.508 Z-16.925
N15455 X117.471 Z-17.989
N15460 X122.784 Z-21.332
N15465 X125.217 Z-24.246
N15470 X127.53 Z-28.992
N15475 G2 X127.967 Z-29.266 I0.437 K0.213
N15480 G1 X129.302
N15485 X129.773 Y70.812 Z-29.279
N15490 X130.198 Y71.025 Z-29.317
N15495 X130.535 Y71.356 Z-29.377
N15500 X130.751 Y71.775 Z-29.452
N15505 X130.826 Y72.238 Z-29.535
N15510 X130.751 Y72.702 Z-29.618
N15515 X130.535 Y73.12 Z-29.694
N15520 X130.198 Y73.452 Z-29.753
N15525 X129.773 Y73.665 Z-29.791
N15530 X129.302 Y73.738 Z-29.805
N15535 G3 X128.857 Z-29.516 I0. K0.486
N15540 G1 X126.877 Z-25.067
N15545 X123.797 Z-21.377
N15550 X118.837 Z-18.269
N15555 X115.481 Z-17.056
N15560 X109.091 Z-15.724
N15565 X87.226 Z-13.721
N15570 X46.816 Z-12.171
N15575 X39.412 Z-12.551
N15580 X33.454 Z-14.265
N15585 X30.74 Z-15.745
N15590 X28.288 Z-17.965
N15595 X26.958 Z-20.694
N15600 X26.666 Z-29.589
N15605 G3 X24.383 Z-27.722 I-0.379 K1.867 F1000.
N15610 G0 Z5.
N15615 X-24.374
N15620 Z-17.948
N15625 G1 Z-27.724 F1000.
N15630 G3 X-26.657 Z-29.591 I-1.905 K0.
N15635 G1 X-26.9 Z-21.033 F4000.
N15640 X-27.741 Z-18.747
N15645 X-30.02 Z-16.269
N15650 X-34.097 Z-13.997
N15655 X-40.339 Z-12.414
N15660 X-47.702 Z-12.189
N15665 X-88.112 Z-13.78
N15670 X-104.754 Z-15.168
N15675 X-113.766 Z-16.579
N15680 X-119.477 Z-18.607
N15685 X-123.849 Z-21.422
N15690 X-126.505 Z-24.479
N15695 X-128.787 Z-29.193
N15700 X-128.841 Z-29.435
N15705 G3 X-129.536 Z-29.359 I-0.343 K0.076 F1000.
N15710 G1 X-129.533 Y73.731 Z-29.168 F4000.
N15715 X-129.526 Y73.711 Z-28.978
N15720 X-129.514 Y73.677 Z-28.791
N15725 X-129.496 Y73.629 Z-28.607
N15730 X-129.474 Y73.569 Z-28.427
N15735 X-129.448 Y73.496 Z-28.253
N15740 X-129.417 Y73.41 Z-28.085
N15745 X-129.382 Y73.313 Z-27.925
N15750 X-129.345 Y73.213 Z-27.76
N15755 X-129.314 Y73.126 Z-27.587
N15760 X-129.287 Y73.052 Z-27.407
N15765 X-129.265 Y72.991 Z-27.222
N15770 X-129.248 Y72.944 Z-27.032
N15775 X-129.236 Y72.911 Z-26.839
N15780 X-129.229 Y72.893 Z-26.643
N15785 X-129.227 Y72.889 Z-26.447
N15790 X-129.231 Y72.899 Z-26.251
N15795 X-129.24 Y72.924 Z-26.057
N15800 X-129.254 Y72.963 Z-25.865
N15805 X-129.274 Y73.016 Z-25.677
N15810 X-129.298 Y73.083 Z-25.494
N15815 X-129.327 Y73.163 Z-25.317
N15820 X-129.361 Y73.256 Z-25.147
N15825 X-129.399 Y73.361 Z-24.986
N15830 X-129.441 Y73.478 Z-24.834
N15835 X-129.488 Y73.606 Z-24.692
N15840 X-129.538 Y73.743 Z-24.562
N15845 X-129.591 Y73.89 Z-24.443
N15850 X-129.647 Y74.045 Z-24.337
N15855 X-129.706 Y74.208 Z-24.244
N15860 X-129.768 Y74.377 Z-24.165
N15865 X-129.831 Y74.551 Z-24.1
N15870 X-129.896 Y74.729 Z-24.05
N15875 X-129.962 Y74.911 Z-24.015
N15880 X-130.028 Y75.095 Z-23.995
N15885 X-130.095 Y75.279 Z-23.991
N15890 X-130.162 Y75.463 Z-24.002
N15895 X-130.229 Y75.646 Z-24.029
N15900 X-130.294 Y75.826 Z-24.07
N15905 X-130.358 Y76.003 Z-24.127
N15910 X-130.421 Y76.175 Z-24.198
N15915 X-130.481 Y76.341 Z-24.283
N15920 X-130.539 Y76.501 Z-24.382
N15925 X-130.594 Y76.652 Z-24.494
N15930 X-130.646 Y76.795 Z-24.618
N15935 X-130.694 Y76.929 Z-24.754
N15940 X-130.739 Y77.051 Z-24.901
N15945 X-130.779 Y77.163 Z-25.057
N15950 X-130.814 Y77.26 Z-25.217
N15955 X-130.845 Y77.346 Z-25.385
N15960 X-130.872 Y77.419 Z-25.559
N15965 X-130.894 Y77.479 Z-25.739
N15970 X-130.911 Y77.527 Z-25.923
N15975 X-130.924 Y77.561 Z-26.11
N15980 X-130.931 Y77.581 Z-26.3
N15985 X-130.933 Y77.588 Z-26.491
N15990 X-130.931 Y77.581 Z-26.681
N15995 X-130.924 Y77.561 Z-26.871
N16000 X-130.911 Y77.527 Z-27.058
N16005 X-130.894 Y77.479 Z-27.242
N16010 X-130.872 Y77.419 Z-27.422
N16015 X-130.845 Y77.346 Z-27.596
N16020 X-130.814 Y77.26 Z-27.764
N16025 X-130.779 Y77.163 Z-27.925
N16030 X-130.744 Y77.066 Z-28.085
N16035 X-130.713 Y76.98 Z-28.253
N16040 X-130.686 Y76.907 Z-28.427
N16045 X-130.664 Y76.847 Z-28.607
N16050 X-130.647 Y76.799 Z-28.791
N16055 X-130.635 Y76.765 Z-28.978
N16060 X-130.627 Y76.745 Z-29.168
N16065 X-130.625 Y76.738 Z-29.359
N16070 Z-30.008
N16075 G2 X-130.18 Z-30.064 I0.226 K0. F1000.
N16080 G1 X-129.768 Z-28.464 F4000.
N16085 X-127.308 Z-24.01
N16090 X-123.303 Z-20.307
N16095 X-118.617 Z-17.893
N16100 X-112.854 Z-16.364
N16105 X-103.616 Z-15.102
N16110 X-83.493 Z-13.601
N16115 X-41.07 Z-12.188
N16120 X-34.453 Z-12.643
N16125 X-28.314 Z-14.537
N16130 X-24.383 Z-17.226
N16135 X-22.594 Z-20.354
N16140 X-22.302 Z-30.097
N16145 G2 X-20.019 Z-28.23 I0.379 K1.867 F1000.
N16150 G0 Z5.
N16155 X20.019
N16160 Z-18.149
N16165 G1 Z-28.228 F1000.
N16170 G2 X22.302 Z-30.095 I1.905 K0.
N16175 G1 X22.533 Z-20.611 F4000.
N16180 X24.123 Z-17.521
N16185 X27.551 Z-14.92
N16190 X31.793 Z-13.249
N16195 X38.875 Z-12.19
N16200 X80.969 Z-13.483
N16205 X106.225 Z-15.387
N16210 X114.339 Z-16.663
N16215 X120.27 Z-18.584
N16220 X125.527 Z-22.047
N16225 X128.288 Z-25.482
N16230 X130.156 Z-29.923
N16235 G2 X130.618 Z-30.23 I0.463 K0.195
N16240 G1 X131.936
N16245 X132.408 Y76.812 Z-30.244
N16250 X132.833 Y77.025 Z-30.283
N16255 X133.171 Y77.356 Z-30.345
N16260 X133.387 Y77.775 Z-30.422
N16265 X133.462 Y78.238 Z-30.508
N16270 X133.387 Y78.702 Z-30.594
N16275 X133.171 Y79.12 Z-30.671
N16280 X132.833 Y79.452 Z-30.732
N16285 X132.408 Y79.665 Z-30.772
N16290 X131.936 Y79.738 Z-30.785
N16295 G3 X131.467 Z-30.461 I0. K0.502
N16300 G1 X129.804 Z-26.071
N16305 X126.803 Z-22.321
N16310 X122.804 Z-19.491
N16315 X117.583 Z-17.365
N16320 X111.195 Z-16.083
N16325 X97.798 Z-14.636
N16330 X62.439 Z-12.815
N16335 X33.815 Z-12.24
N16340 X26.814 Z-13.388
N16345 X22.966 Z-15.113
N16350 X20.073 Z-17.471
N16355 X18.397 Z-20.586
N16360 X18.141 Z-30.601
N16365 G3 X15.857 Z-28.734 I-0.379 K1.867 F1000.
N16370 G0 Z5.
N16375 X-15.858
N16380 Z-18.229
N16385 G1 Z-28.735 F1000.
N16390 G3 X-18.141 Z-30.602 I-1.905 K0.
N16395 G1 X-18.425 Z-20.474 F4000.
N16400 X-19.776 Z-17.828
N16405 X-22.821 Z-15.201
N16410 X-27.165 Z-13.285
N16415 X-33.511 Z-12.256
N16420 X-75.508 Z-13.304
N16425 X-102.448 Z-15.048
N16430 X-111.837 Z-16.173
N16435 X-117.691 Z-17.399
N16440 X-123.281 Z-19.747
N16445 X-127.413 Z-22.879
N16450 X-130.549 Z-27.506
N16455 X-131.467 Z-30.462
N16460 G3 X-132.318 Z-30.333 I-0.416 K0.129 F1000.
N16465 G1 X-132.315 Y79.732 Z-30.151 F4000.
N16470 X-132.307 Y79.714 Z-29.97
N16475 X-132.292 Y79.685 Z-29.792
N16480 X-132.271 Y79.644 Z-29.616
N16485 X-132.245 Y79.592 Z-29.444
N16490 X-132.214 Y79.529 Z-29.276
N16495 X-132.176 Y79.455 Z-29.114
N16500 X-132.134 Y79.37 Z-28.959
N16505 X-132.089 Y79.28 Z-28.791
N16510 X-132.05 Y79.201 Z-28.615
N16515 X-132.016 Y79.135 Z-28.433
N16520 X-131.99 Y79.082 Z-28.246
N16525 X-131.97 Y79.043 Z-28.055
N16530 X-131.957 Y79.016 Z-27.861
N16535 X-131.951 Y79.004 Z-27.665
N16540 Y79.005 Z-27.469
N16545 X-131.959 Y79.02 Z-27.273
N16550 X-131.973 Y79.049 Z-27.08
N16555 X-131.994 Y79.091 Z-26.889
N16560 X-132.022 Y79.147 Z-26.703
N16565 X-132.056 Y79.215 Z-26.522
N16570 X-132.097 Y79.296 Z-26.348
N16575 X-132.143 Y79.389 Z-26.181
N16580 X-132.196 Y79.493 Z-26.023
N16585 X-132.253 Y79.608 Z-25.875
N16590 X-132.316 Y79.733 Z-25.737
N16595 X-132.383 Y79.867 Z-25.611
N16600 X-132.454 Y80.01 Z-25.497
N16605 X-132.53 Y80.16 Z-25.395
N16610 X-132.608 Y80.317 Z-25.307
N16615 X-132.69 Y80.48 Z-25.234
N16620 X-132.774 Y80.647 Z-25.174
N16625 X-132.859 Y80.818 Z-25.13
N16630 X-132.946 Y80.992 Z-25.101
N16635 X-133.034 Y81.167 Z-25.087
N16640 X-133.122 Y81.342 Z-25.088
N16645 X-133.209 Y81.517 Z-25.105
N16650 X-133.296 Y81.69 Z-25.137
N16655 X-133.381 Y81.861 Z-25.184
N16660 X-133.465 Y82.027 Z-25.246
N16665 X-133.546 Y82.189 Z-25.323
N16670 X-133.624 Y82.344 Z-25.413
N16675 X-133.698 Y82.493 Z-25.517
N16680 X-133.769 Y82.635 Z-25.633
N16685 X-133.836 Y82.767 Z-25.762
N16690 X-133.897 Y82.891 Z-25.902
N16695 X-133.954 Y83.004 Z-26.052
N16700 X-134.005 Y83.106 Z-26.212
N16705 X-134.05 Y83.195 Z-26.378
N16710 X-134.089 Y83.273 Z-26.551
N16715 X-134.122 Y83.339 Z-26.73
N16720 X-134.148 Y83.391 Z-26.915
N16725 X-134.168 Y83.431 Z-27.104
N16730 X-134.182 Y83.458 Z-27.295
N16735 X-134.188 Y83.472 Z-27.488
N16740 Z-27.682
N16745 X-134.182 Y83.458 Z-27.876
N16750 X-134.168 Y83.431 Z-28.067
N16755 X-134.148 Y83.391 Z-28.256
N16760 X-134.122 Y83.339 Z-28.44
N16765 X-134.089 Y83.273 Z-28.62
N16770 X-134.05 Y83.195 Z-28.793
N16775 X-134.005 Y83.106 Z-28.959
N16780 X-133.963 Y83.021 Z-29.114
N16785 X-133.926 Y82.947 Z-29.276
N16790 X-133.894 Y82.884 Z-29.444
N16795 X-133.868 Y82.832 Z-29.616
N16800 X-133.847 Y82.791 Z-29.792
N16805 X-133.833 Y82.762 Z-29.97
N16810 X-133.824 Y82.744 Z-30.151
N16815 X-133.821 Y82.738 Z-30.333
N16820 Z-30.684
N16825 G2 X-132.731 Z-30.821 I0.554 K0. F1000.
N16830 G1 X-132.234 Z-28.878 F4000.
N16835 X-129.586 Z-24.202
N16840 X-125.215 Z-20.357
N16845 X-119.74 Z-17.894
N16850 X-114.646 Z-16.652
N16855 X-104.482 Z-15.308
N16860 X-75.941 Z-13.428
N16865 X-29.338 Z-12.268
N16870 X-22.934 Z-13.371
N16875 X-18.681 Z-15.265
N16880 X-15.569 Z-17.965
N16885 X-14.306 Z-20.503
N16890 X-14.023 Z-31.107
N16895 G2 X-11.739 Z-29.24 I0.379 K1.867 F1000.
N16900 G0 Z5.
N16905 X11.739
N16910 Z-18.502
N16915 G1 Z-29.24 F1000.
N16920 G2 X14.022 Z-31.107 I1.905 K0.
N16925 G1 X14.136 Z-21.629 F4000.
N16930 X15.093 Z-18.646
N16935 X18.284 Z-15.518
N16940 X22.59 Z-13.481
N16945 X28.336 Z-12.329
N16950 X69.154 Z-13.151
N16955 X101.145 Z-15.
N16960 X112.859 Z-16.353
N16965 X119.223 Z-17.72
N16970 X124.384 Z-19.901
N16975 X128.148 Z-22.663
N16980 X131.251 Z-26.748
N16985 X132.769 Z-31.089
N16990 X134.026 Y85.738 Z-31.398
N16995 X132.521 Z-27.146
N17000 X129.334 Z-22.87
N17005 X125.83 Z-20.258
N17010 X119.85 Z-17.752
N17015 X113.479 Z-16.469
N17020 X100.081 Z-14.98
N17025 X64.723 Z-13.102
N17030 X24.42 Z-12.385
N17035 X18.234 Z-13.623
N17040 X14.15 Z-15.675
N17045 X11.731 Z-17.963
N17050 X10.324 Z-21.123
N17055 X10.147 Z-31.432
N17060 G3 X9.749 Z-31.429 I-0.199 K0.003 F1000.
N17065 G0 Z5.
N17070 X-7.86
N17075 Z-18.602
N17080 G1 Z-29.746 F1000.
N17085 G3 X-10.143 Z-31.613 I-1.905 K0.
N17090 G1 X-10.365 Z-20.888 F4000.
N17095 X-11.418 Z-18.404
N17100 X-14.339 Z-15.543
N17105 X-18.469 Z-13.544
N17110 X-24.85 Z-12.355
N17115 X-71.673 Z-13.358
N17120 X-103.582 Z-15.301
N17125 X-113.418 Z-16.451
N17130 X-120.703 Z-18.037
N17135 X-125.596 Z-20.132
N17140 X-129.876 Z-23.38
N17145 X-133.258 Z-28.629
N17150 X-134.015 Z-31.324
N17155 G3 X-135.168 Z-31.165 I-0.565 K0.159 F1000.
N17160 G1 X-135.165 Y85.732 Z-30.979 F4000.
N17165 X-135.157 Y85.713 Z-30.794
N17170 X-135.143 Y85.681 Z-30.611
N17175 X-135.124 Y85.637 Z-30.431
N17180 X-135.099 Y85.581 Z-30.256
N17185 X-135.069 Y85.513 Z-30.085
N17190 X-135.034 Y85.434 Z-29.92
N17195 X-134.995 Y85.343 Z-29.762
N17200 X-134.954 Y85.25 Z-29.598
N17205 X-134.918 Y85.168 Z-29.426
N17210 X-134.887 Y85.098 Z-29.248
N17215 X-134.862 Y85.042 Z-29.065
N17220 X-134.843 Y84.998 Z-28.878
N17225 X-134.83 Y84.968 Z-28.687
N17230 X-134.823 Y84.952 Z-28.495
N17235 X-134.822 Y84.949 Z-28.301
N17240 X-134.827 Y84.96 Z-28.108
N17245 X-134.837 Y84.985 Z-27.917
N17250 X-134.854 Y85.023 Z-27.728
N17255 X-134.877 Y85.074 Z-27.543
N17260 X-134.905 Y85.138 Z-27.362
N17265 X-134.938 Y85.215 Z-27.188
N17270 X-134.977 Y85.304 Z-27.021
N17275 X-135.022 Y85.405 Z-26.861
N17280 X-135.07 Y85.516 Z-26.711
N17285 X-135.124 Y85.638 Z-26.571
N17290 X-135.182 Y85.769 Z-26.441
N17295 X-135.243 Y85.909 Z-26.323
N17300 X-135.308 Y86.058 Z-26.217
N17305 X-135.376 Y86.213 Z-26.124
N17310 X-135.447 Y86.374 Z-26.044
N17315 X-135.52 Y86.541 Z-25.978
N17320 X-135.595 Y86.711 Z-25.926
N17325 X-135.671 Y86.885 Z-25.889
N17330 X-135.748 Y87.061 Z-25.866
N17335 X-135.826 Y87.238 Z-25.859
N17340 X-135.903 Y87.415 Z-25.866
N17345 X-135.981 Y87.591 Z-25.889
N17350 X-136.057 Y87.765 Z-25.926
N17355 X-136.132 Y87.935 Z-25.978
N17360 X-136.205 Y88.102 Z-26.044
N17365 X-136.276 Y88.263 Z-26.124
N17370 X-136.344 Y88.418 Z-26.217
N17375 X-136.409 Y88.566 Z-26.323
N17380 X-136.47 Y88.707 Z-26.441
N17385 X-136.528 Y88.838 Z-26.571
N17390 X-136.581 Y88.96 Z-26.711
N17395 X-136.63 Y89.071 Z-26.861
N17400 X-136.674 Y89.172 Z-27.021
N17405 X-136.713 Y89.261 Z-27.188
N17410 X-136.747 Y89.338 Z-27.362
N17415 X-136.775 Y89.402 Z-27.543
N17420 X-136.798 Y89.453 Z-27.728
N17425 X-136.814 Y89.491 Z-27.917
N17430 X-136.825 Y89.516 Z-28.108
N17435 X-136.83 Y89.527 Z-28.301
N17440 X-136.829 Y89.524 Z-28.495
N17445 X-136.821 Y89.507 Z-28.687
N17450 X-136.808 Y89.477 Z-28.878
N17455 X-136.789 Y89.434 Z-29.065
N17460 X-136.764 Y89.377 Z-29.248
N17465 X-136.734 Y89.308 Z-29.426
N17470 X-136.698 Y89.226 Z-29.598
N17475 X-136.657 Y89.133 Z-29.762
N17480 X-136.617 Y89.042 Z-29.92
N17485 X-136.583 Y88.963 Z-30.085
N17490 X-136.553 Y88.895 Z-30.256
N17495 X-136.528 Y88.839 Z-30.431
N17500 X-136.509 Y88.795 Z-30.611
N17505 X-136.495 Y88.763 Z-30.794
N17510 X-136.487 Y88.744 Z-30.979
N17515 X-136.484 Y88.738 Z-31.165
N17520 Z-31.174
N17525 G2 X-135.339 Z-32.107 I0.952 K0. F1000.
N17530 G1 X-134.944 Z-30.107 F4000.
N17535 X-132.728 Z-25.773
N17540 X-129.575 Z-22.266
N17545 X-124.279 Z-19.088
N17550 X-118.571 Z-17.37
N17555 X-109.548 Z-15.984
N17560 X-97.822 Z-14.896
N17565 X-60.779 Z-13.092
N17570 X-19.632 Z-12.516
N17575 X-14.869 Z-13.518
N17580 X-10.689 Z-15.485
N17585 X-7.743 Z-18.208
N17590 X-6.48 Z-21.031
N17595 X-6.27 Z-31.54
N17600 X-3.137 Y88.863 Z-31.684
N17605 X-0.004 Y88.918 Z-31.828
N17610 X3.129 Y88.863 Z-31.973
N17615 X6.262 Y88.738 Z-32.117
N17620 X6.432 Z-21.325
N17625 X7.678 Z-18.298
N17630 X10.063 Z-15.92
N17635 X14.258 Z-13.729
N17640 X19.151 Z-12.568
N17645 X40.38 Z-12.613
N17650 X85.841 Z-14.116
N17655 X111.098 Z-16.159
N17660 X119.206 Z-17.507
N17665 X125.329 Z-19.59
N17670 X129.364 Z-22.097
N17675 X130.709 Z-23.248
N17680 X133.887 Z-27.707
N17685 X135.324 Z-32.001
N17690 X136.592 Y91.738 Z-32.413
N17695 X135.298 Z-28.347
N17700 X131.883 Z-23.446
N17705 X128.273 Z-20.731
N17710 X122.314 Z-18.22
N17715 X115.958 Z-16.884
N17720 X104.244 Z-15.509
N17725 X72.252 Z-13.598
N17730 X18.373 Z-12.463
N17735 X13.305 Z-12.993
N17740 X7.818 Z-14.976
N17745 X6.696 Z-15.439
N17750 X-7.273 Z-15.3
N17755 X-11.358 Z-13.496
N17760 X-16.107 Z-12.57
N17765 X-61.839 Z-13.235
N17770 X-98.881 Z-15.064
N17775 X-113.418 Z-16.499
N17780 X-120.804 Z-17.808
N17785 X-123.7 Z-18.683
N17790 X-128.489 Z-20.851
N17795 X-132.891 Z-24.526
N17800 X-136.044 Z-29.962
N17805 X-136.593 Z-32.417
N17810 X-137.855 Y94.738 Z-32.936
N17815 X-136.84 Z-29.132
N17820 X-133.826 Z-24.458
N17825 X-129.8 Z-21.142
N17830 X-123.638 Z-18.485
N17835 X-117.795 Z-17.176
N17840 X-103.424 Z-15.511
N17845 X-69.749 Z-13.621
N17850 X-14.849 Z-12.557
N17855 X-8.593 Z-13.293
N17860 X7.024 Z-13.426
N17865 X12.465 Z-12.643
N17870 X46.14 Z-12.953
N17875 X89.917 Z-14.553
N17880 X113.49 Z-16.556
N17885 X121.962 Z-18.015
N17890 X128.425 Z-20.415
N17895 X132.8 Z-23.416
N17900 X136.586 Z-28.532
N17905 X137.852 Z-32.911
N17910 G2 X138.834 Z-32.772 I0.481 K0.139 F1000.
N17915 G1 Z-32.675 F4000.
N17920 X138.831 Y94.732 Z-32.491
N17925 X138.823 Y94.714 Z-32.309
N17930 X138.808 Y94.683 Z-32.129
N17935 X138.788 Y94.641 Z-31.951
N17940 X138.763 Y94.588 Z-31.778
N17945 X138.731 Y94.523 Z-31.609
N17950 X138.695 Y94.447 Z-31.446
N17955 X138.654 Y94.36 Z-31.29
N17960 X138.609 Y94.266 Z-31.119
N17965 X138.57 Y94.185 Z-30.941
N17970 X138.538 Y94.117 Z-30.756
N17975 X138.512 Y94.062 Z-30.565
N17980 X138.492 Y94.022 Z-30.371
N17985 X138.479 Y93.995 Z-30.173
N17990 X138.474 Y93.983 Z-29.974
N17995 X138.475 Y93.985 Z-29.774
N18000 X138.483 Y94.002 Z-29.575
N18005 X138.497 Y94.033 Z-29.378
N18010 X138.519 Y94.078 Z-29.185
N18015 X138.547 Y94.136 Z-28.996
N18020 X138.581 Y94.208 Z-28.813
N18025 X138.622 Y94.294 Z-28.637
N18030 X138.669 Y94.391 Z-28.469
N18035 X138.721 Y94.5 Z-28.31
N18040 X138.778 Y94.621 Z-28.161
N18045 X138.841 Y94.752 Z-28.024
N18050 X138.908 Y94.892 Z-27.898
N18055 X138.979 Y95.041 Z-27.786
N18060 X139.054 Y95.197 Z-27.687
N18065 X139.132 Y95.36 Z-27.602
N18070 X139.212 Y95.529 Z-27.531
N18075 X139.295 Y95.702 Z-27.476
N18080 X139.38 Y95.879 Z-27.436
N18085 X139.465 Y96.058 Z-27.412
N18090 X139.551 Y96.238 Z-27.405
N18095 X139.637 Y96.418 Z-27.412
N18100 X139.723 Y96.597 Z-27.436
N18105 X139.807 Y96.773 Z-27.476
N18110 X139.89 Y96.947 Z-27.531
N18115 X139.97 Y97.115 Z-27.602
N18120 X140.048 Y97.279 Z-27.687
N18125 X140.123 Y97.435 Z-27.786
N18130 X140.194 Y97.584 Z-27.898
N18135 X140.261 Y97.724 Z-28.024
N18140 X140.324 Y97.855 Z-28.161
N18145 X140.381 Y97.975 Z-28.31
N18150 X140.434 Y98.085 Z-28.469
N18155 X140.48 Y98.182 Z-28.637
N18160 X140.521 Y98.267 Z-28.813
N18165 X140.555 Y98.339 Z-28.996
N18170 X140.583 Y98.398 Z-29.185
N18175 X140.605 Y98.443 Z-29.378
N18180 X140.62 Y98.474 Z-29.575
N18185 X140.627 Y98.49 Z-29.774
N18190 X140.629 Y98.493 Z-29.974
N18195 X140.623 Y98.48 Z-30.173
N18200 X140.61 Y98.454 Z-30.371
N18205 X140.591 Y98.413 Z-30.565
N18210 X140.565 Y98.359 Z-30.756
N18215 X140.532 Y98.291 Z-30.941
N18220 X140.493 Y98.209 Z-31.119
N18225 X140.448 Y98.116 Z-31.29
N18230 X140.407 Y98.029 Z-31.446
N18235 X140.371 Y97.953 Z-31.609
N18240 X140.34 Y97.888 Z-31.778
N18245 X140.314 Y97.834 Z-31.951
N18250 X140.294 Y97.792 Z-32.129
N18255 X140.279 Y97.762 Z-32.309
N18260 X140.271 Y97.744 Z-32.491
N18265 X140.268 Y97.738 Z-32.675
N18270 G3 X139.118 Z-33.607 I-0.952 K0. F1000.
N18275 G1 X138.455 Z-30.462 F4000.
N18280 X135.605 Z-25.446
N18285 X131.775 Z-21.898
N18290 X126.828 Z-19.379
N18295 X118.166 Z-17.254
N18300 X98.902 Z-15.25
N18305 X61.859 Z-13.461
N18310 X7.497 Z-12.701
N18315 X-42.373 Z-13.001
N18320 X-87.834 Z-14.536
N18325 X-112.774 Z-16.515
N18330 X-124.408 Z-18.557
N18335 X-130.89 Z-21.324
N18340 X-135.24 Z-24.964
N18345 X-138.405 Z-30.332
N18350 X-139.115 Z-33.587
N18355 X-140.347 Y100.738 Z-34.083
N18360 X-139.718 Z-30.918
N18365 X-137.367 Z-26.607
N18370 X-134.897 Z-23.693
N18375 X-130.485 Z-20.743
N18380 X-125.863 Z-18.895
N18385 X-118.62 Z-17.349
N18390 X-104.535 Z-15.769
N18395 X-68.756 Z-13.814
N18400 X-14.876 Z-12.803
N18405 X48.334 Z-13.225
N18410 X93.795 Z-14.987
N18415 X116.896 Z-17.091
N18420 X123.799 Z-18.341
N18425 X126.928 Z-19.249
N18430 X131.238 Z-21.124
N18435 X136.036 Z-24.768
N18440 X139.179 Z-29.683
N18445 X140.326 Z-33.932
N18450 X141.552 Y103.738 Z-34.378
N18455 X140.902 Z-31.157
N18460 X137.174 Z-24.975
N18465 X132.343 Z-21.333
N18470 X128.027 Z-19.453
N18475 X124.898 Z-18.549
N18480 X117.995 Z-17.286
N18485 X94.898 Z-15.157
N18490 X51.121 Z-13.411
N18495 X-13.066 Z-12.905
N18500 X-68.629 Z-13.92
N18505 X-103.988 Z-15.809
N18510 X-119.199 Z-17.464
N18515 X-124.348 Z-18.429
N18520 X-130.042 Z-20.177
N18525 X-134.973 Z-23.058
N18530 X-138.217 Z-26.315
N18535 X-141.109 Z-31.8
N18540 X-141.563 Z-34.461
N18545 X-142.771 Y106.738 Z-34.796
N18550 X-142.313 Z-32.095
N18555 X-139.737 Z-27.12
N18560 X-137.1 Z-24.077
N18565 X-132.088 Z-20.832
N18570 X-126.229 Z-18.807
N18575 X-120.382 Z-17.672
N18580 X-105.91 Z-16.053
N18585 X-68.867 Z-14.037
N18590 X-14.987 Z-13.037
N18595 X49.219 Z-13.474
N18600 X94.68 Z-15.236
N18605 X113.102 Z-16.746
N18610 X123.403 Z-18.173
N18615 X129.342 Z-19.736
N18620 X133.646 Z-21.648
N18625 X138.43 Z-25.312
N18630 X142.126 Z-31.507
N18635 X142.774 Z-34.824
N18640 X143.983 Y109.738 Z-35.278
N18645 X143.001 Z-30.992
N18650 X139.292 Z-25.23
N18655 X135.052 Z-22.016
N18660 X129.976 Z-19.785
N18665 X123.641 Z-18.221
N18670 X111.14 Z-16.618
N18675 X79.991 Z-14.579
N18680 X27.795 Z-13.253
N18685 X-36.135 Z-13.369
N18690 X-83.28 Z-14.728
N18695 X-111.804 Z-16.678
N18700 X-124.597 Z-18.394
N18705 X-131.61 Z-20.354
N18710 X-137.115 Z-23.381
N18715 X-140.636 Z-26.903
N18720 X-143.52 Z-32.424
N18725 X-143.97 Z-35.179
N18730 G3 X-144.268 Z-35.432 I-0.298 K0.049
N18735 G1 X-145.467
N18740 X-145.938 Y109.811 Z-35.445
N18745 X-146.363 Y110.024 Z-35.484
N18750 X-146.7 Y110.356 Z-35.544
N18755 X-146.917 Y110.774 Z-35.62
N18760 X-146.991 Y111.238 Z-35.704
N18765 X-146.917 Y111.701 Z-35.787
