%
(MM_DRILL_002)
(MACHINE)
(  MODEL LASER SNAKE V2)
(  DESCRIPTION 3-AXIS ROUTER)
(T1  D=2. CR=0. TAPER=118DEG - ZMIN=-17.601 - DRILL)
N10 G90 G94 G17 G91.1
N15 G21
N20 G53 G0 Z0.
(DRILL1)
N25 T1 M6
N30 S10000 M3
N35 G54
N40 G0 X92.5 Y-92.5
N45 G43 Z15. H1
N50 G0 Z5.
N55 G98 G81 X92.5 Y-92.5 Z-17.601 R5. F150.
N60 X7.5
N65 Y-7.5
N70 X92.5
N75 G80
N80 G0 Z15.
N85 G53 G0 Z0.
N90 G53 G0 X0. Y0.
N95 M30
%
