%
(MM_PROFILE_002)
(MACHINE)
(  MODEL LASER SNAKE V2)
(  DESCRIPTION 3-AXIS ROUTER)
(T2  D=3.175 CR=0. - ZMIN=-16.2 - FLAT END MILL)
N10 G90 G94 G17 G91.1
N15 G21
(WHEN USING FUSION 360 FOR PERSONAL USE, THE FEEDRATE OF)
(RAPID MOVES IS REDUCED TO MATCH THE FEEDRATE OF CUTTING)
(MOVES, WHICH CAN INCREASE MACHINING TIME. UNRESTRICTED RAPID)
(MOVES ARE AVAILABLE WITH A FUSION 360 SUBSCRIPTION.)
N20 G53 G0 Z0.
(2D POCKET7)
N25 T2 M6
N30 S18000 M3
N35 G54
N40 G0 X60.162 Y2.591
N45 G43 Z15. H2
N50 G1 Z5. F750.
N55 Z-2.5 F100.
N60 G19 G2 Y1.591 Z-3.5 J-1. K0. F250.
N65 G1 Y1.483
N70 Y-73.843 F750.
N75 G17 G2 X59.843 Y-74.162 I-0.319 J0.
N80 G1 X58.526
N85 X58.514 F250.
N90 G18 G3 X57.514 Z-2.5 I0. K1.
N95 G1 Z5. F750.
N100 X61.967 Y2.594
N105 Z-2.5 F100.
N110 G19 G2 Y1.594 Z-3.5 J-1. K0. F250.
N115 G1 Y1.486
N120 Y-75.648 F750.
N125 G17 G2 X61.648 Y-75.967 I-0.319 J0.
N130 G1 X58.13
N135 X58.118 F250.
N140 G18 G3 X57.118 Z-2.5 I0. K1.
N145 G1 Z5. F750.
N150 X63.772 Y2.579
N155 Z-2.5 F100.
N160 G19 G2 Y1.579 Z-3.5 J-1. K0. F250.
N165 G1 Y1.472
N170 Y-77.453 F750.
N175 G17 G2 X63.453 Y-77.772 I-0.319 J0.
N180 G1 X54.442
N185 X54.43 F250.
N190 G18 G3 X53.43 Z-2.5 I0. K1.
N195 G1 Z5. F750.
N200 X65.577 Y2.582
N205 Z-2.5 F100.
N210 G19 G2 Y1.582 Z-3.5 J-1. K0. F250.
N215 G1 Y1.474
N220 Y-79.258 F750.
N225 G17 G2 X65.258 Y-79.577 I-0.319 J0.
N230 G1 X46.242
N235 G2 X45.923 Y-79.258 I0. J0.319
N240 G1 Y-77.889
N245 Y-77.877 F250.
N250 G19 G3 Y-76.877 Z-2.5 J0. K1.
N255 G1 Z5. F750.
N260 X67.382 Y2.585
N265 Z-2.5 F100.
N270 G2 Y1.585 Z-3.5 J-1. K0. F250.
N275 G1 Y1.477
N280 Y-81.063 F750.
N285 G17 G2 X67.063 Y-81.382 I-0.319 J0.
N290 G1 X44.437
N295 G2 X44.118 Y-81.063 I0. J0.319
N300 G1 Y-77.233
N305 Y-77.221 F250.
N310 G19 G3 Y-76.221 Z-2.5 J0. K1.
N315 G1 Z5. F750.
N320 X69.188 Y2.588
N325 Z-2.5 F100.
N330 G2 Y1.588 Z-3.5 J-1. K0. F250.
N335 G1 Y1.48
N340 Y-82.868 F750.
N345 G17 G2 X68.868 Y-83.188 I-0.319 J0.
N350 G1 X42.632
N355 G2 X42.313 Y-82.868 I0. J0.319
N360 G1 Y-76.283
N365 Y-76.271 F250.
N370 G19 G3 Y-75.271 Z-2.5 J0. K1.
N375 G1 Z5. F750.
N380 X70.993 Y2.591
N385 Z-2.5 F100.
N390 G2 Y1.591 Z-3.5 J-1. K0. F250.
N395 G1 Y1.483
N400 Y-84.673 F750.
N405 G17 G2 X70.673 Y-84.993 I-0.319 J0.
N410 G1 X40.827
N415 G2 X40.507 Y-84.673 I0. J0.319
N420 G1 Y1.348
N425 G2 X40.707 Y1.548 I0.2 J0.
N430 G1 X72.597 Y1.686
N435 X72.598
N440 G2 X72.798 Y1.486 I0. J-0.2
N445 G1 Y-86.478
N450 G2 X72.478 Y-86.798 I-0.319 J0.
N455 G1 X39.022
N460 G2 X38.702 Y-86.478 I0. J0.319
N465 G1 Y1.484
N470 G2 X38.903 Y1.684 I0.2 J0.
N475 G1 X74.403 Y1.671
N480 G2 X74.603 Y1.471 I0. J-0.2
N485 G1 Y-88.283
N490 G2 X74.283 Y-88.603 I-0.319 J0.
N495 G1 X37.217
N500 G2 X36.897 Y-88.283 I0. J0.319
N505 G1 Y1.481
N510 G2 X37.097 Y1.681 I0.2 J0.
N515 G1 X76.212 Y1.686
N520 X76.213
N525 G2 X76.412 Y1.486 I0. J-0.2
N530 G1 Y-90.412
N535 X35.088
N540 Y0.
N545 Y1.473
N550 X35.091 Y1.551 F250.
N555 X35.1 Y1.629
N560 X35.102 Y1.642
N565 X35.121 Y1.761 Z-3.493
N570 X35.139 Y1.878 Z-3.471
N575 X35.157 Y1.992 Z-3.435
N580 X35.174 Y2.101 Z-3.385
N585 X35.191 Y2.203 Z-3.323
N590 X35.205 Y2.297 Z-3.249
N595 X35.219 Y2.381 Z-3.163
N600 X35.23 Y2.454 Z-3.068
N605 X35.24 Y2.516 Z-2.965
N610 X35.248 Y2.565 Z-2.855
N615 X35.254 Y2.601 Z-2.739
N620 X35.257 Y2.622 Z-2.621
N625 X35.258 Y2.629 Z-2.5
N630 Z15. F750.
(WHEN USING FUSION 360 FOR PERSONAL USE, THE FEEDRATE OF)
(RAPID MOVES IS REDUCED TO MATCH THE FEEDRATE OF CUTTING)
(MOVES, WHICH CAN INCREASE MACHINING TIME. UNRESTRICTED RAPID)
(MOVES ARE AVAILABLE WITH A FUSION 360 SUBSCRIPTION.)
(2D CONTOUR3)
N635 G0 X60.708 Y4.79
N640 G1 Z15. F750.
N645 Z5.
N650 Z-2.24 F100.
N655 Y4.783 Z-2.361 F250.
N660 X60.71 Y4.761 Z-2.479
N665 X60.712 Y4.725 Z-2.595
N670 X60.715 Y4.676 Z-2.705
N675 X60.719 Y4.613 Z-2.808
N680 X60.723 Y4.539 Z-2.903
N685 X60.728 Y4.454 Z-2.989
N690 X60.734 Y4.359 Z-3.063
N695 X60.741 Y4.256 Z-3.125
N700 X60.747 Y4.146 Z-3.175
N705 X60.754 Y4.031 Z-3.211
N710 X60.762 Y3.912 Z-3.233
N715 X60.769 Y3.792 Z-3.24
N720 X60.83 Y2.794
N725 G2 X59.894 Y1.734 I-0.998 J-0.061
N730 G3 X58.263 Y0. I0.106 J-1.734 F500.
N735 G1 Y-75.625
N740 G2 X41.737 I-8.263 J11.625
N745 G1 Y0.
N750 G3 X40. Y1.737 I-1.737 J0.
N755 G1 X5.
N760 G3 X-1.737 Y-5. I0. J-6.737
N765 G1 Y-95.
N770 G3 X5. Y-101.738 I6.737 J0.
N775 G1 X95.
N780 G3 X101.738 Y-95. I0. J6.738
N785 G1 Y-5.
N790 G3 X95. Y1.737 I-6.738 J0.
N795 G1 X60.
N800 X59.894 Y1.734
N805 G2 X58.834 Y2.671 I-0.061 J0.998 F250.
N810 G1 X58.773 Y3.669
N815 X58.765 Y3.79 Z-3.233
N820 X58.758 Y3.908 Z-3.211
N825 X58.751 Y4.023 Z-3.175
N830 X58.744 Y4.133 Z-3.125
N835 X58.738 Y4.236 Z-3.063
N840 X58.732 Y4.331 Z-2.989
N845 X58.727 Y4.416 Z-2.903
N850 X58.722 Y4.491 Z-2.808
N855 X58.719 Y4.553 Z-2.705
N860 X58.716 Y4.602 Z-2.595
N865 X58.713 Y4.638 Z-2.479
N870 X58.712 Y4.66 Z-2.361
N875 Y4.667 Z-2.24
N880 Z5. F750.
N885 X60.708 Y4.79
N890 Z1.76 F100.
N895 Z-5.48
N900 Y4.783 Z-5.601 F250.
N905 X60.71 Y4.761 Z-5.719
N910 X60.712 Y4.725 Z-5.835
N915 X60.715 Y4.676 Z-5.945
N920 X60.719 Y4.613 Z-6.048
N925 X60.723 Y4.539 Z-6.143
N930 X60.728 Y4.454 Z-6.229
N935 X60.734 Y4.359 Z-6.303
N940 X60.741 Y4.256 Z-6.365
N945 X60.747 Y4.146 Z-6.415
N950 X60.754 Y4.031 Z-6.451
N955 X60.762 Y3.912 Z-6.473
N960 X60.769 Y3.792 Z-6.48
N965 X60.83 Y2.794
N970 G2 X59.894 Y1.734 I-0.998 J-0.061
N975 G3 X58.263 Y0. I0.106 J-1.734 F500.
N980 G1 Y-75.625
N985 G2 X41.737 I-8.263 J11.625
N990 G1 Y0.
N995 G3 X40. Y1.737 I-1.737 J0.
N1000 G1 X5.
N1005 G3 X-1.737 Y-5. I0. J-6.737
N1010 G1 Y-95.
N1015 G3 X5. Y-101.738 I6.737 J0.
N1020 G1 X95.
N1025 G3 X101.738 Y-95. I0. J6.738
N1030 G1 Y-5.
N1035 G3 X95. Y1.737 I-6.738 J0.
N1040 G1 X60.
N1045 X59.894 Y1.734
N1050 G2 X58.834 Y2.671 I-0.061 J0.998 F250.
N1055 G1 X58.773 Y3.669
N1060 X58.765 Y3.79 Z-6.473
N1065 X58.758 Y3.908 Z-6.451
N1070 X58.751 Y4.023 Z-6.415
N1075 X58.744 Y4.133 Z-6.365
N1080 X58.738 Y4.236 Z-6.303
N1085 X58.732 Y4.331 Z-6.229
N1090 X58.727 Y4.416 Z-6.143
N1095 X58.722 Y4.491 Z-6.048
N1100 X58.719 Y4.553 Z-5.945
N1105 X58.716 Y4.602 Z-5.835
N1110 X58.713 Y4.638 Z-5.719
N1115 X58.712 Y4.66 Z-5.601
N1120 Y4.667 Z-5.48
N1125 Z5. F750.
N1130 X60.708 Y4.79
N1135 Z-1.48 F100.
N1140 Z-8.72
N1145 Y4.783 Z-8.841 F250.
N1150 X60.71 Y4.761 Z-8.959
N1155 X60.712 Y4.725 Z-9.075
N1160 X60.715 Y4.676 Z-9.185
N1165 X60.719 Y4.613 Z-9.288
N1170 X60.723 Y4.539 Z-9.383
N1175 X60.728 Y4.454 Z-9.469
N1180 X60.734 Y4.359 Z-9.543
N1185 X60.741 Y4.256 Z-9.605
N1190 X60.747 Y4.146 Z-9.655
N1195 X60.754 Y4.031 Z-9.691
N1200 X60.762 Y3.912 Z-9.713
N1205 X60.769 Y3.792 Z-9.72
N1210 X60.83 Y2.794
N1215 G2 X59.894 Y1.734 I-0.998 J-0.061
N1220 G3 X58.263 Y0. I0.106 J-1.734 F500.
N1225 G1 Y-75.625
N1230 G2 X41.737 I-8.263 J11.625
N1235 G1 Y0.
N1240 G3 X40. Y1.737 I-1.737 J0.
N1245 G1 X5.
N1250 G3 X-1.737 Y-5. I0. J-6.737
N1255 G1 Y-95.
N1260 G3 X5. Y-101.738 I6.737 J0.
N1265 G1 X95.
N1270 G3 X101.738 Y-95. I0. J6.738
N1275 G1 Y-5.
N1280 G3 X95. Y1.737 I-6.738 J0.
N1285 G1 X60.
N1290 X59.894 Y1.734
N1295 G2 X58.834 Y2.671 I-0.061 J0.998 F250.
N1300 G1 X58.773 Y3.669
N1305 X58.765 Y3.79 Z-9.713
N1310 X58.758 Y3.908 Z-9.691
N1315 X58.751 Y4.023 Z-9.655
N1320 X58.744 Y4.133 Z-9.605
N1325 X58.738 Y4.236 Z-9.543
N1330 X58.732 Y4.331 Z-9.469
N1335 X58.727 Y4.416 Z-9.383
N1340 X58.722 Y4.491 Z-9.288
N1345 X58.719 Y4.553 Z-9.185
N1350 X58.716 Y4.602 Z-9.075
N1355 X58.713 Y4.638 Z-8.959
N1360 X58.712 Y4.66 Z-8.841
N1365 Y4.667 Z-8.72
N1370 Z5. F750.
N1375 X60.708 Y4.79
N1380 Z-4.72 F100.
N1385 Z-11.96
N1390 Y4.783 Z-12.081 F250.
N1395 X60.71 Y4.761 Z-12.199
N1400 X60.712 Y4.725 Z-12.315
N1405 X60.715 Y4.676 Z-12.425
N1410 X60.719 Y4.613 Z-12.528
N1415 X60.723 Y4.539 Z-12.623
N1420 X60.728 Y4.454 Z-12.709
N1425 X60.734 Y4.359 Z-12.783
N1430 X60.741 Y4.256 Z-12.845
N1435 X60.747 Y4.146 Z-12.895
N1440 X60.754 Y4.031 Z-12.931
N1445 X60.762 Y3.912 Z-12.953
N1450 X60.769 Y3.792 Z-12.96
N1455 X60.83 Y2.794
N1460 G2 X59.894 Y1.734 I-0.998 J-0.061
N1465 G3 X58.263 Y0. I0.106 J-1.734 F500.
N1470 G1 Y-75.625
N1475 G2 X41.737 I-8.263 J11.625
N1480 G1 Y0.
N1485 G3 X40. Y1.737 I-1.737 J0.
N1490 G1 X5.
N1495 G3 X-1.737 Y-5. I0. J-6.737
N1500 G1 Y-95.
N1505 G3 X5. Y-101.738 I6.737 J0.
N1510 G1 X95.
N1515 G3 X101.738 Y-95. I0. J6.738
N1520 G1 Y-5.
N1525 G3 X95. Y1.737 I-6.738 J0.
N1530 G1 X60.
N1535 X59.894 Y1.734
N1540 G2 X58.834 Y2.671 I-0.061 J0.998 F250.
N1545 G1 X58.773 Y3.669
N1550 X58.765 Y3.79 Z-12.953
N1555 X58.758 Y3.908 Z-12.931
N1560 X58.751 Y4.023 Z-12.895
N1565 X58.744 Y4.133 Z-12.845
N1570 X58.738 Y4.236 Z-12.783
N1575 X58.732 Y4.331 Z-12.709
N1580 X58.727 Y4.416 Z-12.623
N1585 X58.722 Y4.491 Z-12.528
N1590 X58.719 Y4.553 Z-12.425
N1595 X58.716 Y4.602 Z-12.315
N1600 X58.713 Y4.638 Z-12.199
N1605 X58.712 Y4.66 Z-12.081
N1610 Y4.667 Z-11.96
N1615 Z5. F750.
N1620 X60.708 Y4.79
N1625 Z-7.96 F100.
N1630 Z-15.2
N1635 Y4.783 Z-15.321 F250.
N1640 X60.71 Y4.761 Z-15.439
N1645 X60.712 Y4.725 Z-15.555
N1650 X60.715 Y4.676 Z-15.665
N1655 X60.719 Y4.613 Z-15.768
N1660 X60.723 Y4.539 Z-15.863
N1665 X60.728 Y4.454 Z-15.949
N1670 X60.734 Y4.359 Z-16.023
N1675 X60.741 Y4.256 Z-16.085
N1680 X60.747 Y4.146 Z-16.135
N1685 X60.754 Y4.031 Z-16.171
N1690 X60.762 Y3.912 Z-16.193
N1695 X60.769 Y3.792 Z-16.2
N1700 X60.83 Y2.794
N1705 G2 X59.894 Y1.734 I-0.998 J-0.061
N1710 G3 X58.263 Y0. I0.106 J-1.734 F500.
N1715 G1 Y-75.625
N1720 G2 X41.737 I-8.263 J11.625
N1725 G1 Y0.
N1730 G3 X40. Y1.737 I-1.737 J0.
N1735 G1 X5.
N1740 G3 X-1.737 Y-5. I0. J-6.737
N1745 G1 Y-95.
N1750 G3 X5. Y-101.738 I6.737 J0.
N1755 G1 X95.
N1760 G3 X101.738 Y-95. I0. J6.738
N1765 G1 Y-5.
N1770 G3 X95. Y1.737 I-6.738 J0.
N1775 G1 X60.
N1780 X59.894 Y1.734
N1785 G2 X58.834 Y2.671 I-0.061 J0.998 F250.
N1790 G1 X58.773 Y3.669
N1795 X58.765 Y3.79 Z-16.193
N1800 X58.758 Y3.908 Z-16.171
N1805 X58.751 Y4.023 Z-16.135
N1810 X58.744 Y4.133 Z-16.085
N1815 X58.738 Y4.236 Z-16.023
N1820 X58.732 Y4.331 Z-15.949
N1825 X58.727 Y4.416 Z-15.863
N1830 X58.722 Y4.491 Z-15.768
N1835 X58.719 Y4.553 Z-15.665
N1840 X58.716 Y4.602 Z-15.555
N1845 X58.713 Y4.638 Z-15.439
N1850 X58.712 Y4.66 Z-15.321
N1855 Y4.667 Z-15.2
N1860 Z15. F750.
N1865 G53 G0 Z0.
N1870 G53 G0 X0. Y0.
N1875 M30
%
