%
(MM_PROFILE_001)
(MACHINE)
(  MODEL LASER SNAKE V2)
(  DESCRIPTION 3-AXIS ROUTER)
(T2  D=3.175 CR=0. - ZMIN=-16.2 - FLAT END MILL)
N10 G90 G94 G17 G91.1
N15 G21
(WHEN USING FUSION 360 FOR PERSONAL USE, THE FEEDRATE OF)
(RAPID MOVES IS REDUCED TO MATCH THE FEEDRATE OF CUTTING)
(MOVES, WHICH CAN INCREASE MACHINING TIME. UNRESTRICTED RAPID)
(MOVES ARE AVAILABLE WITH A FUSION 360 SUBSCRIPTION.)
N20 G53 G0 Z0.
(2D POCKET3)
N25 T2 M6
N30 S18000 M3
N35 G54
N40 G0 X48.75 Y-106.494
N45 G43 Z15. H2
N50 G1 Z5. F1000.
N55 Z-3. F100.
N60 Y-106.487 Z-3.121 F250.
N65 Y-106.465 Z-3.239
N70 Y-106.429 Z-3.355
N75 Y-106.38 Z-3.465
N80 Y-106.317 Z-3.568
N85 Y-106.243 Z-3.663
N90 Y-106.157 Z-3.749
N95 Y-106.062 Z-3.823
N100 Y-105.959 Z-3.885
N105 Y-105.849 Z-3.935
N110 Y-105.734 Z-3.971
N115 Y-105.615 Z-3.993
N120 Y-105.494 Z-4.
N125 X48.751 Y-101.478
N130 X48.772 Y-36. F1000.
N135 G2 X51.228 I1.228 J0.
N140 G1 X51.249 Y-101.486
N145 G2 X51.049 Y-101.686 I-0.2 J0.
N150 G1 X51.048
N155 X47.146 Y-101.681
N160 G2 X46.947 Y-101.481 I0. J0.2
N165 G1 X46.967 Y-36.
N170 G2 X53.033 I3.033 J0.
N175 G1 X53.053 Y-101.486
N180 G2 X52.853 Y-101.686 I-0.2 J0.
N185 G1 X45.342 Y-101.684
N190 G2 X45.142 Y-101.484 I0. J0.2
N195 G1 X45.162 Y-36.
N200 G2 X54.838 I4.838 J0.
N205 G1 X54.858 Y-101.486
N210 G2 X54.658 Y-101.686 I-0.2 J0.
N215 G1 X43.537 Y-101.687
N220 G2 X43.337 Y-101.487 I0. J0.2
N225 G1 X43.357 Y-36.
N230 G2 X56.643 I6.643 J0.
N235 G1 X56.663 Y-101.486
N240 G2 X56.463 Y-101.686 I-0.2 J0.
N245 G1 X41.732 Y-101.672
N250 G2 X41.532 Y-101.472 I0. J0.2
N255 G1 X41.553 Y-36.
N260 G2 X58.447 I8.447 J0.
N265 G1 X58.468 Y-101.486
N270 G2 X58.268 Y-101.686 I-0.2 J0.
N275 G1 X39.927 Y-101.675
N280 G2 X39.728 Y-101.475 I0. J0.2
N285 G1 X39.748 Y-36.
N290 G2 X60.252 I10.252 J0.
N295 G1 X60.272 Y-101.486
N300 G2 X60.072 Y-101.686 I-0.2 J0.
N305 G1 X38.123 Y-101.678
N310 G2 X37.923 Y-101.478 I0. J0.2
N315 G1 X37.943 Y-36.
N320 G2 X62.057 I12.057 J0.
N325 G1 X62.077 Y-101.486
N330 G2 X61.877 Y-101.686 I-0.2 J0.
N335 G1 X36.287 Y-101.676
N340 G2 X36.088 Y-101.476 I0. J0.2
N345 G1 Y-36.
N350 G2 X63.912 I13.912 J0.
N355 G1 Y-100.
N360 Y-101.473
N365 G2 X63.736 Y-101.672 I-0.2 J0.
N370 G1 X48.974 Y-103.421
N375 G2 X48.751 Y-103.223 I-0.024 J0.199
N380 G1 Y-103.107 Z-4.007 F250.
N385 Y-102.992 Z-4.027
N390 Y-102.881 Z-4.06
N395 Y-102.774 Z-4.106
N400 Y-102.673 Z-4.165
N405 Y-102.58 Z-4.234
N410 Y-102.495 Z-4.314
N415 Y-102.421 Z-4.403
N420 Y-102.357 Z-4.5
N425 Y-102.293 Z-4.597
N430 Y-102.218 Z-4.686
N435 Y-102.133 Z-4.766
N440 Y-102.04 Z-4.835
N445 Y-101.939 Z-4.894
N450 Y-101.833 Z-4.94
N455 Y-101.721 Z-4.973
N460 Y-101.607 Z-4.993
N465 Y-101.491 Z-5.
N470 Y-101.478
N475 X48.772 Y-36. F1000.
N480 G2 X51.228 I1.228 J0.
N485 G1 X51.249 Y-101.486
N490 G2 X51.049 Y-101.686 I-0.2 J0.
N495 G1 X51.048
N500 X47.146 Y-101.681
N505 G2 X46.947 Y-101.481 I0. J0.2
N510 G1 X46.967 Y-36.
N515 G2 X53.033 I3.033 J0.
N520 G1 X53.053 Y-101.486
N525 G2 X52.853 Y-101.686 I-0.2 J0.
N530 G1 X45.342 Y-101.684
N535 G2 X45.142 Y-101.484 I0. J0.2
N540 G1 X45.162 Y-36.
N545 G2 X54.838 I4.838 J0.
N550 G1 X54.858 Y-101.486
N555 G2 X54.658 Y-101.686 I-0.2 J0.
N560 G1 X43.537 Y-101.687
N565 G2 X43.337 Y-101.487 I0. J0.2
N570 G1 X43.357 Y-36.
N575 G2 X56.643 I6.643 J0.
N580 G1 X56.663 Y-101.486
N585 G2 X56.463 Y-101.686 I-0.2 J0.
N590 G1 X41.732 Y-101.672
N595 G2 X41.532 Y-101.472 I0. J0.2
N600 G1 X41.553 Y-36.
N605 G2 X58.447 I8.447 J0.
N610 G1 X58.468 Y-101.486
N615 G2 X58.268 Y-101.686 I-0.2 J0.
N620 G1 X39.927 Y-101.675
N625 G2 X39.728 Y-101.475 I0. J0.2
N630 G1 X39.748 Y-36.
N635 G2 X60.252 I10.252 J0.
N640 G1 X60.272 Y-101.486
N645 G2 X60.072 Y-101.686 I-0.2 J0.
N650 G1 X38.123 Y-101.678
N655 G2 X37.923 Y-101.478 I0. J0.2
N660 G1 X37.943 Y-36.
N665 G2 X62.057 I12.057 J0.
N670 G1 X62.077 Y-101.486
N675 G2 X61.877 Y-101.686 I-0.2 J0.
N680 G1 X36.287 Y-101.676
N685 G2 X36.088 Y-101.476 I0. J0.2
N690 G1 Y-36.
N695 G2 X63.912 I13.912 J0.
N700 G1 Y-100.
N705 Y-101.473
N710 X63.909 Y-101.551 F250.
N715 X63.9 Y-101.629
N720 X63.652 Y-103.197
N725 X63.633 Y-103.316 Z-4.993
N730 X63.614 Y-103.434 Z-4.971
N735 X63.596 Y-103.548 Z-4.935
N740 X63.579 Y-103.656 Z-4.885
N745 X63.563 Y-103.758 Z-4.823
N750 X63.548 Y-103.852 Z-4.749
N755 X63.535 Y-103.937 Z-4.663
N760 X63.523 Y-104.01 Z-4.568
N765 X63.513 Y-104.072 Z-4.465
N770 X63.506 Y-104.121 Z-4.355
N775 X63.5 Y-104.156 Z-4.239
N780 X63.497 Y-104.178 Z-4.121
N785 X63.495 Y-104.185 Z-4.
N790 Z15. F1000.
(WHEN USING FUSION 360 FOR PERSONAL USE, THE FEEDRATE OF)
(RAPID MOVES IS REDUCED TO MATCH THE FEEDRATE OF CUTTING)
(MOVES, WHICH CAN INCREASE MACHINING TIME. UNRESTRICTED RAPID)
(MOVES ARE AVAILABLE WITH A FUSION 360 SUBSCRIPTION.)
(2D CONTOUR1)
N795 G0 X38.588 Y-101.
N800 G1 Z15. F500.
N805 Z5.
N810 Z4. F100.
N815 Z-1.5
N820 G18 G3 X37.588 Z-2.5 I-1. K0. F250.
N825 G1 X36.588
N830 G17 G2 X35.588 Y-100. I0. J1.
N835 G1 Y-36. F500.
N840 G2 X64.412 I14.412 J0.
N845 G1 Y-100.
N850 G2 X63.412 Y-101. I-1. J0. F250.
N855 G1 X62.412
N860 G18 G3 X61.412 Z-1.5 I0. K1.
N865 G1 Z5. F500.
N870 X38.588
N875 Z1.5 F100.
N880 Z-4.
N885 G3 X37.588 Z-5. I-1. K0. F250.
N890 G1 X36.588
N895 G17 G2 X35.588 Y-100. I0. J1.
N900 G1 Y-36. F500.
N905 G2 X64.412 I14.412 J0.
N910 G1 Y-100.
N915 G2 X63.412 Y-101. I-1. J0. F250.
N920 G1 X62.412
N925 G18 G3 X61.412 Z-4. I0. K1.
N930 G1 Z15. F500.
N935 G17
(WHEN USING FUSION 360 FOR PERSONAL USE, THE FEEDRATE OF)
(RAPID MOVES IS REDUCED TO MATCH THE FEEDRATE OF CUTTING)
(MOVES, WHICH CAN INCREASE MACHINING TIME. UNRESTRICTED RAPID)
(MOVES ARE AVAILABLE WITH A FUSION 360 SUBSCRIPTION.)
(2D ADAPTIVE1)
N940 G0 X63.258 Y-106.459
N945 G1 Z15. F500.
N950 Z5.
N955 Z-2.865
N960 Z-3.182 F250.
N965 X63.262 Y-106.466 Z-3.253
N970 X63.274 Y-106.486 Z-3.32
N975 X63.294 Y-106.519 Z-3.38
N980 X63.319 Y-106.562 Z-3.431
N985 X63.35 Y-106.614 Z-3.469
N990 X63.384 Y-106.672 Z-3.492
N995 X63.42 Y-106.732 Z-3.5
N1000 G2 X63.912 Y-108.408 I-3.024 J-1.798
N1005 G1 Y-108.569 F500.
N1010 X63.911 Y-108.607
N1015 X63.814 Y-108.721
N1020 X63.703 Y-108.822
N1025 X63.582 Y-108.911
N1030 X63.426 Y-109.007
N1035 X63.226 Y-109.11
N1040 X62.966 Y-109.218
N1045 X62.616 Y-109.332
N1050 X62.12 Y-109.449
N1055 X61.391 Y-109.562
N1060 X61.215 Y-109.616
N1065 X60.891 Y-109.793
N1070 X60.627 Y-110.05
N1075 X60.206 Y-110.656
N1080 X59.966 Y-111.354
N1085 X59.834 Y-112.08
N1090 X59.763 Y-112.814
N1095 X59.725 Y-113.551
N1100 X59.705 Y-114.288
N1105 X59.694 Y-115.026
N1110 X59.689 Y-115.764
N1115 X59.686 Y-116.502
N1120 X59.683 Y-117.977
N1125 Y-125.356
N1130 X59.682 Y-156.344
N1135 Y-183.611
N1140 X59.655 Y-183.811
N1145 X59.574 Y-183.996
N1150 X59.447 Y-184.153
N1155 X58.949 Y-184.616
N1160 G2 X58.437 Y-184.304 I-0.202 J0.245 F250.
N1165 G1 X58.452 Y-184.235 Z-3.492
N1170 X58.466 Y-184.169 Z-3.469
N1175 X58.479 Y-184.11 Z-3.431
N1180 X58.49 Y-184.061 Z-3.38
N1185 X58.498 Y-184.024 Z-3.32
N1190 X58.503 Y-184.001 Z-3.253
N1195 X58.504 Y-183.994 Z-3.182
N1200 Z5. F500.
N1205 X63.529 Y-107.543
N1210 Z-2.865
N1215 Z-3.182 F250.
N1220 X63.533 Y-107.549 Z-3.253
N1225 X63.545 Y-107.57 Z-3.32
N1230 X63.564 Y-107.602 Z-3.38
N1235 X63.59 Y-107.645 Z-3.431
N1240 X63.621 Y-107.697 Z-3.469
N1245 X63.655 Y-107.755 Z-3.492
N1250 X63.691 Y-107.816 Z-3.5
N1255 G2 X63.912 Y-108.569 I-1.36 J-0.809
N1260 G1 Y-108.985 F500.
N1265 X63.905 Y-109.135
N1270 X63.845 Y-109.273
N1275 X63.768 Y-109.401
N1280 X63.679 Y-109.522
N1285 X63.574 Y-109.641
N1290 X63.437 Y-109.773
N1295 X63.286 Y-109.897
N1300 X63.091 Y-110.033
N1305 X62.453 Y-110.403
N1310 X61.912 Y-110.905
N1315 X61.538 Y-111.541
N1320 X61.3 Y-112.239
N1325 X61.155 Y-112.963
N1330 X61.069 Y-113.696
N1335 X61.019 Y-114.432
N1340 X60.99 Y-115.169
N1345 X60.974 Y-115.907
N1350 X60.964 Y-116.644
N1355 X60.959 Y-117.382
N1360 X60.956 Y-118.12
N1365 X60.954 Y-119.596
N1370 X60.953 Y-124.76
N1375 X60.952 Y-157.962
N1380 Y-182.249
N1385 X60.934 Y-182.414
N1390 X60.879 Y-182.57
N1395 X60.792 Y-182.71
N1400 X60.286 Y-183.347
N1405 X60.119 Y-183.522
N1410 X59.952 Y-183.683
N1415 X59.447 Y-184.153
N1420 G2 X58.926 Y-183.854 I-0.208 J0.24 F250.
N1425 G1 X58.94 Y-183.785 Z-3.492
N1430 X58.952 Y-183.719 Z-3.469
N1435 X58.963 Y-183.659 Z-3.431
N1440 X58.973 Y-183.61 Z-3.38
N1445 X58.98 Y-183.573 Z-3.32
N1450 X58.984 Y-183.55 Z-3.253
N1455 X58.986 Y-183.542 Z-3.182
N1460 Z5. F500.
N1465 X63.529 Y-107.959
N1470 Z-2.865
N1475 Z-3.182 F250.
N1480 X63.533 Y-107.966 Z-3.253
N1485 X63.545 Y-107.986 Z-3.32
N1490 X63.564 Y-108.019 Z-3.38
N1495 X63.59 Y-108.062 Z-3.431
N1500 X63.621 Y-108.114 Z-3.469
N1505 X63.655 Y-108.171 Z-3.492
N1510 X63.691 Y-108.232 Z-3.5
N1515 G2 X63.912 Y-108.985 I-1.36 J-0.809
N1520 G1 Y-109.655 F500.
N1525 X63.905 Y-109.805
N1530 X63.875 Y-109.952
N1535 X63.827 Y-110.094
N1540 X63.734 Y-110.301
N1545 X63.379 Y-110.948
N1550 X63.021 Y-111.593
N1555 X62.746 Y-112.278
N1560 X62.554 Y-112.99
N1565 X62.428 Y-113.717
N1570 X62.348 Y-114.451
N1575 X62.298 Y-115.187
N1580 X62.268 Y-115.924
N1585 X62.249 Y-116.661
N1590 X62.238 Y-117.399
N1595 X62.232 Y-118.137
N1600 X62.228 Y-118.875
N1605 X62.224 Y-120.35
N1610 X62.223 Y-123.302
N1615 X62.222 Y-159.455
N1620 Y-180.367
N1625 X62.211 Y-180.495
N1630 X62.178 Y-180.62
N1635 X62.124 Y-180.736
N1640 X61.623 Y-181.606
N1645 X61.586 Y-181.666
N1650 X61.221 Y-182.169
N1655 X61.089 Y-182.336
N1660 X60.792 Y-182.71
N1665 G2 X60.233 Y-182.492 I-0.241 J0.206 F250.
N1670 G1 X60.236 Y-182.421 Z-3.492
N1675 X60.238 Y-182.354 Z-3.469
N1680 X60.24 Y-182.294 Z-3.431
N1685 X60.242 Y-182.244 Z-3.38
N1690 X60.244 Y-182.206 Z-3.32
N1695 X60.245 Y-182.183 Z-3.253
N1700 Y-182.175 Z-3.182
N1705 Z5. F500.
N1710 X63.529 Y-108.629
N1715 Z-2.865
N1720 Z-3.182 F250.
N1725 X63.533 Y-108.636 Z-3.253
N1730 X63.545 Y-108.656 Z-3.32
N1735 X63.564 Y-108.688 Z-3.38
N1740 X63.59 Y-108.732 Z-3.431
N1745 X63.621 Y-108.783 Z-3.469
N1750 X63.655 Y-108.841 Z-3.492
N1755 X63.691 Y-108.902 Z-3.5
N1760 G2 X63.912 Y-109.655 I-1.36 J-0.809
N1765 G1 Y-111.33 F500.
N1770 X63.876 Y-112.067
N1775 X63.809 Y-112.802
N1780 X63.728 Y-113.535
N1785 X63.657 Y-114.269
N1790 X63.603 Y-115.005
N1795 X63.565 Y-115.742
N1800 X63.539 Y-116.479
N1805 X63.522 Y-117.217
N1810 X63.511 Y-117.955
N1815 X63.504 Y-118.693
N1820 X63.499 Y-119.43
N1825 X63.497 Y-120.168
N1830 X63.494 Y-121.644
N1835 X63.493 Y-126.071
N1840 Y-161.486
N1845 Y-177.125
N1850 X63.49 Y-177.18
N1855 X63.484 Y-177.235
N1860 X63.474 Y-177.289
N1865 X63.392 Y-177.647
N1870 X63.259 Y-178.15
N1875 X63.203 Y-178.317
N1880 X62.613 Y-179.824
N1885 X62.538 Y-179.992
N1890 X62.358 Y-180.327
N1895 X62.263 Y-180.494
N1900 X62.124 Y-180.736
N1905 G2 X61.539 Y-180.604 I-0.269 J0.168 F250.
N1910 G1 X61.531 Y-180.533 Z-3.492
N1915 X61.523 Y-180.467 Z-3.469
N1920 X61.517 Y-180.407 Z-3.431
N1925 X61.511 Y-180.357 Z-3.38
N1930 X61.507 Y-180.319 Z-3.32
N1935 X61.505 Y-180.296 Z-3.253
N1940 X61.504 Y-180.288 Z-3.182
N1945 Z5. F500.
N1950 X63.529 Y-110.304
N1955 Z-2.865
N1960 Z-3.182 F250.
N1965 X63.533 Y-110.31 Z-3.253
N1970 X63.545 Y-110.331 Z-3.32
N1975 X63.564 Y-110.363 Z-3.38
N1980 X63.59 Y-110.406 Z-3.431
N1985 X63.621 Y-110.458 Z-3.469
N1990 X63.655 Y-110.516 Z-3.492
N1995 X63.691 Y-110.576 Z-3.5
N2000 G2 X63.912 Y-111.33 I-1.36 J-0.809
N2005 G1 Y-173.628 F500.
N2010 X63.907 Y-173.795
N2015 X63.893 Y-174.13
N2020 X63.884 Y-174.298
N2025 X63.772 Y-175.805
N2030 X63.754 Y-175.973
N2035 X63.658 Y-176.475
N2040 X63.621 Y-176.642
N2045 X63.474 Y-177.289
N2050 G2 X62.876 Y-177.334 I-0.307 J0.081 F250.
N2055 G1 X62.848 Y-177.269 Z-3.492
N2060 X62.821 Y-177.208 Z-3.469
N2065 X62.797 Y-177.153 Z-3.431
N2070 X62.777 Y-177.106 Z-3.38
N2075 X62.762 Y-177.072 Z-3.32
N2080 X62.753 Y-177.05 Z-3.253
N2085 X62.749 Y-177.043 Z-3.182
N2090 Z15. F500.
N2095 X43.549 Y-185.831
N2100 Z5.
N2105 Z-2.865
N2110 Z-3.182 F250.
N2115 X43.541 Y-185.83 Z-3.253
N2120 X43.518 Y-185.826 Z-3.32
N2125 X43.48 Y-185.821 Z-3.38
N2130 X43.43 Y-185.814 Z-3.431
N2135 X43.371 Y-185.805 Z-3.469
N2140 X43.304 Y-185.795 Z-3.492
N2145 X43.235 Y-185.785 Z-3.5
N2150 G2 X41.622 Y-185.114 I0.504 J3.482
N2155 G1 X41.553 Y-185.058 F500.
N2160 X41.314 Y-184.848
N2165 X41.207 Y-184.744
N2170 X41.115 Y-184.625
N2175 X41.02 Y-184.481
N2180 X40.919 Y-184.294
N2185 X40.813 Y-184.053
N2190 X40.701 Y-183.732
N2195 X40.584 Y-183.286
N2200 X40.464 Y-182.607
N2205 X40.394 Y-181.872
N2210 X40.357 Y-181.135
N2215 X40.338 Y-180.398
N2220 X40.328 Y-179.66
N2225 X40.323 Y-178.922
N2230 X40.321 Y-178.184
N2235 X40.318 Y-176.709
N2240 Y-168.593
N2245 Y-134.653
N2250 Y-111.412
N2255 X40.268 Y-111.235
N2260 X40.098 Y-110.907
N2265 X39.843 Y-110.64
N2270 X39.241 Y-110.214
N2275 X38.545 Y-109.97
N2280 X37.819 Y-109.836
N2285 X37.085 Y-109.764
N2290 X36.79 Y-109.749
N2295 X36.57 Y-109.703
N2300 X36.374 Y-109.594
N2305 X36.22 Y-109.432
N2310 X36.121 Y-109.23
N2315 X36.088 Y-109.009
N2320 G2 X36.661 Y-108.832 I0.317 J-0.011 F250.
N2325 G1 X36.703 Y-108.889 Z-3.492
N2330 X36.742 Y-108.943 Z-3.469
N2335 X36.778 Y-108.992 Z-3.431
N2340 X36.808 Y-109.032 Z-3.38
N2345 X36.83 Y-109.063 Z-3.32
N2350 X36.844 Y-109.082 Z-3.253
N2355 X36.849 Y-109.088 Z-3.182
N2360 Z5. F500.
N2365 X42.339 Y-185.238
N2370 Z-2.865
N2375 Z-3.182 F250.
N2380 X42.331 Y-185.237 Z-3.253
N2385 X42.308 Y-185.232 Z-3.32
N2390 X42.271 Y-185.225 Z-3.38
N2395 X42.221 Y-185.216 Z-3.431
N2400 X42.162 Y-185.205 Z-3.469
N2405 X42.096 Y-185.193 Z-3.492
N2410 X42.027 Y-185.18 Z-3.5
N2415 G2 X41.314 Y-184.848 I0.291 J1.556
N2420 G1 X41.051 Y-184.616 F500.
N2425 X40.221 Y-183.843
N2430 X40.116 Y-183.736
N2435 X40.011 Y-183.608
N2440 X39.895 Y-183.443
N2445 X39.77 Y-183.228
N2450 X39.65 Y-182.978
N2455 X39.52 Y-182.642
N2460 X39.391 Y-182.209
N2465 X39.259 Y-181.584
N2470 X39.165 Y-180.852
N2475 X39.113 Y-180.116
N2480 X39.084 Y-179.379
N2485 X39.068 Y-178.641
N2490 X39.059 Y-177.904
N2495 X39.054 Y-177.166
N2500 X39.051 Y-176.428
N2505 X39.049 Y-174.952
N2510 X39.048 Y-169.05
N2515 Y-133.635
N2520 Y-112.976
N2525 X38.945 Y-112.622
N2530 X38.753 Y-112.307
N2535 X38.246 Y-111.771
N2540 X37.591 Y-111.43
N2545 X36.907 Y-111.179
N2550 X36.612 Y-111.043
N2555 X36.465 Y-110.961
N2560 X36.309 Y-110.843
N2565 X36.189 Y-110.689
N2570 X36.113 Y-110.509
N2575 X36.088 Y-110.315
N2580 Y-110.066
N2585 G2 X36.661 Y-109.889 I0.317 J-0.011 F250.
N2590 G1 X36.703 Y-109.946 Z-3.492
N2595 X36.742 Y-110. Z-3.469
N2600 X36.778 Y-110.049 Z-3.431
N2605 X36.808 Y-110.089 Z-3.38
N2610 X36.83 Y-110.12 Z-3.32
N2615 X36.844 Y-110.138 Z-3.253
N2620 X36.849 Y-110.145 Z-3.182
N2625 Z5. F500.
N2630 X41.234 Y-184.262
N2635 Z-2.865
N2640 Z-3.182 F250.
N2645 X41.226 Y-184.261 Z-3.253
N2650 X41.203 Y-184.256 Z-3.32
N2655 X41.166 Y-184.248 Z-3.38
N2660 X41.117 Y-184.237 Z-3.431
N2665 X41.058 Y-184.224 Z-3.469
N2670 X40.992 Y-184.21 Z-3.492
N2675 X40.923 Y-184.195 Z-3.5
N2680 G2 X40.221 Y-183.843 I0.335 J1.547
N2685 G1 X40.041 Y-183.676 F500.
N2690 X39.881 Y-183.522
N2695 X39.714 Y-183.347
N2700 X38.878 Y-182.295
N2705 X38.779 Y-182.169
N2710 X38.581 Y-181.865
N2715 X38.459 Y-181.64
N2720 X38.334 Y-181.358
N2725 X38.205 Y-180.99
N2730 X38.074 Y-180.49
N2735 X37.944 Y-179.764
N2740 X37.872 Y-179.03
N2745 X37.831 Y-178.293
N2750 X37.808 Y-177.555
N2755 X37.795 Y-176.818
N2760 X37.787 Y-176.08
N2765 X37.783 Y-175.342
N2770 X37.781 Y-174.604
N2775 X37.778 Y-172.391
N2780 Y-131.811
N2785 Y-114.472
N2790 X37.709 Y-114.11
N2795 X37.557 Y-113.774
N2800 X37.132 Y-113.171
N2805 X36.578 Y-112.684
N2810 X36.361 Y-112.508
N2815 X36.214 Y-112.346
N2820 X36.12 Y-112.149
N2825 X36.088 Y-111.933
N2830 Y-110.315
N2835 G2 X36.661 Y-110.138 I0.317 J-0.011 F250.
N2840 G1 X36.703 Y-110.195 Z-3.492
N2845 X36.742 Y-110.249 Z-3.469
N2850 X36.778 Y-110.298 Z-3.431
N2855 X36.808 Y-110.339 Z-3.38
N2860 X36.83 Y-110.369 Z-3.32
N2865 X36.844 Y-110.388 Z-3.253
N2870 X36.849 Y-110.394 Z-3.182
N2875 Z5. F500.
N2880 X39.714 Y-182.74
N2885 Z-2.865
N2890 Z-3.182 F250.
N2895 X39.707 Y-182.738 Z-3.253
N2900 X39.685 Y-182.729 Z-3.32
N2905 X39.65 Y-182.715 Z-3.38
N2910 X39.603 Y-182.697 Z-3.431
N2915 X39.547 Y-182.675 Z-3.469
N2920 X39.484 Y-182.651 Z-3.492
N2925 X39.418 Y-182.626 Z-3.5
N2930 G2 X38.779 Y-182.169 I0.572 J1.476
N2935 G1 X38.414 Y-181.666 F500.
N2940 X38.377 Y-181.606
N2945 X37.709 Y-180.445
N2950 X37.642 Y-180.327
N2955 X37.462 Y-179.992
N2960 X37.387 Y-179.824
N2965 X37.06 Y-178.987
N2970 X36.893 Y-178.49
N2975 X36.769 Y-177.988
N2980 X36.649 Y-177.259
N2985 X36.585 Y-176.524
N2990 X36.55 Y-175.787
N2995 X36.531 Y-175.05
N3000 X36.52 Y-174.312
N3005 X36.515 Y-173.574
N3010 X36.511 Y-172.837
N3015 X36.509 Y-171.361
N3020 X36.508 Y-166.934
N3025 X36.507 Y-128.568
N3030 Y-116.025
N3035 X36.473 Y-115.288
N3040 X36.207 Y-114.6
N3045 X36.141 Y-114.475
N3050 X36.101 Y-114.339
N3055 X36.088 Y-114.199
N3060 Y-111.933
N3065 G2 X36.661 Y-111.756 I0.317 J-0.011 F250.
N3070 G1 X36.703 Y-111.813 Z-3.492
N3075 X36.742 Y-111.867 Z-3.469
N3080 X36.778 Y-111.916 Z-3.431
N3085 X36.808 Y-111.956 Z-3.38
N3090 X36.83 Y-111.987 Z-3.32
N3095 X36.844 Y-112.005 Z-3.253
N3100 X36.849 Y-112.012 Z-3.182
N3105 Z5. F500.
N3110 X37.791 Y-179.803
N3115 Z-2.865
N3120 Z-3.182 F250.
N3125 X37.785 Y-179.798 Z-3.253
N3130 X37.766 Y-179.784 Z-3.32
N3135 X37.736 Y-179.76 Z-3.38
N3140 X37.697 Y-179.729 Z-3.431
N3145 X37.649 Y-179.693 Z-3.469
N3150 X37.596 Y-179.651 Z-3.492
N3155 X37.54 Y-179.608 Z-3.5
N3160 G2 X37.06 Y-178.987 I0.972 J1.249
N3165 G1 X36.797 Y-178.317 F500.
N3170 X36.741 Y-178.15
N3175 X36.608 Y-177.647
N3180 X36.371 Y-176.611
N3185 X36.342 Y-176.475
N3190 X36.246 Y-175.973
N3195 X36.228 Y-175.805
N3200 X36.116 Y-174.298
N3205 X36.107 Y-174.13
N3210 X36.093 Y-173.795
N3215 X36.088 Y-173.628
N3220 Y-114.199
N3225 G2 X36.661 Y-114.022 I0.317 J-0.011 F250.
N3230 G1 X36.703 Y-114.079 Z-3.492
N3235 X36.742 Y-114.133 Z-3.469
N3240 X36.778 Y-114.182 Z-3.431
N3245 X36.808 Y-114.223 Z-3.38
N3250 X36.83 Y-114.253 Z-3.32
N3255 X36.844 Y-114.272 Z-3.253
N3260 X36.849 Y-114.278 Z-3.182
N3265 Z15. F500.
(WHEN USING FUSION 360 FOR PERSONAL USE, THE FEEDRATE OF)
(RAPID MOVES IS REDUCED TO MATCH THE FEEDRATE OF CUTTING)
(MOVES, WHICH CAN INCREASE MACHINING TIME. UNRESTRICTED RAPID)
(MOVES ARE AVAILABLE WITH A FUSION 360 SUBSCRIPTION.)
(2D CONTOUR2)
N3270 G0 X41.835 Y-184.706
N3275 G1 Z15. F500.
N3280 Z5.
N3285 Z1. F100.
N3290 Z-3.183
N3295 X41.83 Y-184.712 Z-3.253 F250.
N3300 X41.816 Y-184.73 Z-3.32
N3305 X41.792 Y-184.76 Z-3.38
N3310 X41.761 Y-184.799 Z-3.431
N3315 X41.723 Y-184.846 Z-3.469
N3320 X41.681 Y-184.898 Z-3.492
N3325 X41.637 Y-184.954 Z-3.5
N3330 X41.438 Y-185.201
N3335 G2 X40.992 Y-185.251 I-0.248 J0.198
N3340 X35.588 Y-174. I9.008 J11.251 F500.
N3345 G1 Y-110.
N3350 G2 X35.905 Y-109.683 I0.317 J0. F250.
N3355 G1 X36.222
N3360 G18 G2 X36.54 Z-3.183 I0. K0.318
N3365 G1 Z5. F500.
N3370 X63.46
N3375 Z1. F100.
N3380 Z-3.183
N3385 G2 X63.778 Z-3.5 I0.318 K0. F250.
N3390 G1 X64.095
N3395 G17 G2 X64.412 Y-110. I0. J-0.317
N3400 G1 Y-174. F500.
N3405 G2 X59.008 Y-185.251 I-14.412 J0.
N3410 X58.562 Y-185.201 I-0.198 J0.248 F250.
N3415 G1 X58.363 Y-184.954
N3420 X58.319 Y-184.898 Z-3.492
N3425 X58.277 Y-184.846 Z-3.469
N3430 X58.239 Y-184.799 Z-3.431
N3435 X58.208 Y-184.76 Z-3.38
N3440 X58.184 Y-184.73 Z-3.32
N3445 X58.17 Y-184.712 Z-3.253
N3450 X58.165 Y-184.706 Z-3.183
N3455 Z15. F500.
(WHEN USING FUSION 360 FOR PERSONAL USE, THE FEEDRATE OF)
(RAPID MOVES IS REDUCED TO MATCH THE FEEDRATE OF CUTTING)
(MOVES, WHICH CAN INCREASE MACHINING TIME. UNRESTRICTED RAPID)
(MOVES ARE AVAILABLE WITH A FUSION 360 SUBSCRIPTION.)
(2D CONTOUR3)
N3460 G0 X49. Y-104.738
N3465 G1 Z15. F750.
N3470 Z5.
N3475 Z-2.24 F100.
N3480 G19 G3 Y-103.738 Z-3.24 J1. K0. F250.
N3485 G1 Y-102.738
N3490 G17 G2 X50. Y-101.738 I1. J0.
N3495 G1 X95. F500.
N3500 G3 X101.738 Y-95. I0. J6.738
N3505 G1 Y-5.
N3510 G3 X95. Y1.737 I-6.738 J0.
N3515 G1 X5.
N3520 G3 X-1.737 Y-5. I0. J-6.737
N3525 G1 Y-95.
N3530 G3 X5. Y-101.738 I6.737 J0.
N3535 G1 X50.
N3540 G2 X51. Y-102.738 I0. J-1. F250.
N3545 G1 Y-103.738
N3550 G19 G2 Y-104.738 Z-2.24 J0. K1.
N3555 G1 Z5. F750.
N3560 X49.
N3565 Z1.76 F100.
N3570 Z-5.48
N3575 G3 Y-103.738 Z-6.48 J1. K0. F250.
N3580 G1 Y-102.738
N3585 G17 G2 X50. Y-101.738 I1. J0.
N3590 G1 X95. F500.
N3595 G3 X101.738 Y-95. I0. J6.738
N3600 G1 Y-5.
N3605 G3 X95. Y1.737 I-6.738 J0.
N3610 G1 X5.
N3615 G3 X-1.737 Y-5. I0. J-6.737
N3620 G1 Y-95.
N3625 G3 X5. Y-101.738 I6.737 J0.
N3630 G1 X50.
N3635 G2 X51. Y-102.738 I0. J-1. F250.
N3640 G1 Y-103.738
N3645 G19 G2 Y-104.738 Z-5.48 J0. K1.
N3650 G1 Z5. F750.
N3655 X49.
N3660 Z-1.48 F100.
N3665 Z-8.72
N3670 G3 Y-103.738 Z-9.72 J1. K0. F250.
N3675 G1 Y-102.738
N3680 G17 G2 X50. Y-101.738 I1. J0.
N3685 G1 X95. F500.
N3690 G3 X101.738 Y-95. I0. J6.738
N3695 G1 Y-5.
N3700 G3 X95. Y1.737 I-6.738 J0.
N3705 G1 X5.
N3710 G3 X-1.737 Y-5. I0. J-6.737
N3715 G1 Y-95.
N3720 G3 X5. Y-101.738 I6.737 J0.
N3725 G1 X50.
N3730 G2 X51. Y-102.738 I0. J-1. F250.
N3735 G1 Y-103.738
N3740 G19 G2 Y-104.738 Z-8.72 J0. K1.
N3745 G1 Z5. F750.
N3750 X49.
N3755 Z-4.72 F100.
N3760 Z-11.96
N3765 G3 Y-103.738 Z-12.96 J1. K0. F250.
N3770 G1 Y-102.738
N3775 G17 G2 X50. Y-101.738 I1. J0.
N3780 G1 X95. F500.
N3785 G3 X101.738 Y-95. I0. J6.738
N3790 G1 Y-5.
N3795 G3 X95. Y1.737 I-6.738 J0.
N3800 G1 X5.
N3805 G3 X-1.737 Y-5. I0. J-6.737
N3810 G1 Y-95.
N3815 G3 X5. Y-101.738 I6.737 J0.
N3820 G1 X50.
N3825 G2 X51. Y-102.738 I0. J-1. F250.
N3830 G1 Y-103.738
N3835 G19 G2 Y-104.738 Z-11.96 J0. K1.
N3840 G1 Z5. F750.
N3845 X49.
N3850 Z-7.96 F100.
N3855 Z-15.2
N3860 G3 Y-103.738 Z-16.2 J1. K0. F250.
N3865 G1 Y-102.738
N3870 G17 G2 X50. Y-101.738 I1. J0.
N3875 G1 X95. F500.
N3880 G3 X101.738 Y-95. I0. J6.738
N3885 G1 Y-5.
N3890 G3 X95. Y1.737 I-6.738 J0.
N3895 G1 X5.
N3900 G3 X-1.737 Y-5. I0. J-6.737
N3905 G1 Y-95.
N3910 G3 X5. Y-101.738 I6.737 J0.
N3915 G1 X50.
N3920 G2 X51. Y-102.738 I0. J-1. F250.
N3925 G1 Y-103.738
N3930 G19 G2 Y-104.738 Z-15.2 J0. K1.
N3935 G1 Z5. F750.
N3940 X55.263 Y-109.
N3945 Z-2.24 F100.
N3950 G18 G2 X56.263 Z-3.24 I1. K0. F250.
N3955 G1 X57.263
N3960 G17 G2 X58.263 Y-110. I0. J-1.
N3965 G1 Y-185.625 F500.
N3970 G2 X41.737 I-8.263 J11.625
N3975 G1 Y-110.
N3980 G3 X40. Y-108.262 I-1.737 J0.
N3985 G1 X5.
N3990 G3 X-1.737 Y-115. I0. J-6.738
N3995 G1 Y-205.
N4000 G3 X5. Y-211.738 I6.737 J0.
N4005 G1 X95.
N4010 G3 X101.738 Y-205. I0. J6.738
N4015 G1 Y-115.
N4020 G3 X95. Y-108.262 I-6.738 J0.
N4025 G1 X60.
N4030 G3 X58.263 Y-110. I0. J-1.738
N4035 G2 X57.263 Y-111. I-1. J0. F250.
N4040 G1 X56.263
N4045 G18 G3 X55.263 Z-2.24 I0. K1.
N4050 G1 Z5. F750.
N4055 Y-109.
N4060 Z1.76 F100.
N4065 Z-5.48
N4070 G2 X56.263 Z-6.48 I1. K0. F250.
N4075 G1 X57.263
N4080 G17 G2 X58.263 Y-110. I0. J-1.
N4085 G1 Y-185.625 F500.
N4090 G2 X41.737 I-8.263 J11.625
N4095 G1 Y-110.
N4100 G3 X40. Y-108.262 I-1.737 J0.
N4105 G1 X5.
N4110 G3 X-1.737 Y-115. I0. J-6.738
N4115 G1 Y-205.
N4120 G3 X5. Y-211.738 I6.737 J0.
N4125 G1 X95.
N4130 G3 X101.738 Y-205. I0. J6.738
N4135 G1 Y-115.
N4140 G3 X95. Y-108.262 I-6.738 J0.
N4145 G1 X60.
N4150 G3 X58.263 Y-110. I0. J-1.738
N4155 G2 X57.263 Y-111. I-1. J0. F250.
N4160 G1 X56.263
N4165 G18 G3 X55.263 Z-5.48 I0. K1.
N4170 G1 Z5. F750.
N4175 Y-109.
N4180 Z-1.48 F100.
N4185 Z-8.72
N4190 G2 X56.263 Z-9.72 I1. K0. F250.
N4195 G1 X57.263
N4200 G17 G2 X58.263 Y-110. I0. J-1.
N4205 G1 Y-185.625 F500.
N4210 G2 X41.737 I-8.263 J11.625
N4215 G1 Y-110.
N4220 G3 X40. Y-108.262 I-1.737 J0.
N4225 G1 X5.
N4230 G3 X-1.737 Y-115. I0. J-6.738
N4235 G1 Y-205.
N4240 G3 X5. Y-211.738 I6.737 J0.
N4245 G1 X95.
N4250 G3 X101.738 Y-205. I0. J6.738
N4255 G1 Y-115.
N4260 G3 X95. Y-108.262 I-6.738 J0.
N4265 G1 X60.
N4270 G3 X58.263 Y-110. I0. J-1.738
N4275 G2 X57.263 Y-111. I-1. J0. F250.
N4280 G1 X56.263
N4285 G18 G3 X55.263 Z-8.72 I0. K1.
N4290 G1 Z5. F750.
N4295 Y-109.
N4300 Z-4.72 F100.
N4305 Z-11.96
N4310 G2 X56.263 Z-12.96 I1. K0. F250.
N4315 G1 X57.263
N4320 G17 G2 X58.263 Y-110. I0. J-1.
N4325 G1 Y-185.625 F500.
N4330 G2 X41.737 I-8.263 J11.625
N4335 G1 Y-110.
N4340 G3 X40. Y-108.262 I-1.737 J0.
N4345 G1 X5.
N4350 G3 X-1.737 Y-115. I0. J-6.738
N4355 G1 Y-205.
N4360 G3 X5. Y-211.738 I6.737 J0.
N4365 G1 X95.
N4370 G3 X101.738 Y-205. I0. J6.738
N4375 G1 Y-115.
N4380 G3 X95. Y-108.262 I-6.738 J0.
N4385 G1 X60.
N4390 G3 X58.263 Y-110. I0. J-1.738
N4395 G2 X57.263 Y-111. I-1. J0. F250.
N4400 G1 X56.263
N4405 G18 G3 X55.263 Z-11.96 I0. K1.
N4410 G1 Z5. F750.
N4415 Y-109.
N4420 Z-7.96 F100.
N4425 Z-15.2
N4430 G2 X56.263 Z-16.2 I1. K0. F250.
N4435 G1 X57.263
N4440 G17 G2 X58.263 Y-110. I0. J-1.
N4445 G1 Y-185.625 F500.
N4450 G2 X41.737 I-8.263 J11.625
N4455 G1 Y-110.
N4460 G3 X40. Y-108.262 I-1.737 J0.
N4465 G1 X5.
N4470 G3 X-1.737 Y-115. I0. J-6.738
N4475 G1 Y-205.
N4480 G3 X5. Y-211.738 I6.737 J0.
N4485 G1 X95.
N4490 G3 X101.738 Y-205. I0. J6.738
N4495 G1 Y-115.
N4500 G3 X95. Y-108.262 I-6.738 J0.
N4505 G1 X60.
N4510 G3 X58.263 Y-110. I0. J-1.738
N4515 G2 X57.263 Y-111. I-1. J0. F250.
N4520 G1 X56.263
N4525 G18 G3 X55.263 Z-15.2 I0. K1.
N4530 G1 Z15. F750.
N4535 G17
N4540 G53 G0 Z0.
N4545 G53 G0 X0. Y0.
N4550 M30
%
