(Exported by FreeCAD)
(Post Processor: linuxcnc_post)
(Output Time:2019-12-03 17:47:26.623778)
(begin preamble)
G17 G54 G40 G49 G80 G90
G21
(begin operation: T1: 6mm end mill)
(machine: not set, mm/min)
(T1: 6mm end mill)
M6 T1
M3 S24000
(finish operation: T1: 6mm end mill)
(begin operation: TagDressup)
(machine: not set, mm/min)
G0 Z30.000
G0 X393.249 Y1725.533 Z30.000
G1 X393.249 Y1725.533 Z0.000 F3960.000
G1 X492.972 Y400.237 Z0.000 F3960.000
G2 X492.890 Y399.284 Z0.000 I-2.992 J-0.225 F3960.000
G1 X392.824 Y-0.721 Z0.000 F3960.000
G2 X389.914 Y-2.993 Z0.000 I-2.910 J0.728 F3960.000
G1 X100.086 Y-2.993 Z0.000 F3960.000
G2 X97.176 Y-0.721 Z0.000 I0.000 J3.000 F3960.000
G1 X-2.910 Y399.272 Z0.000 F3960.000
G2 X-2.992 Y400.225 Z0.000 I2.910 J0.728 F3960.000
G1 X97.022 Y1730.262 Z0.000 F3960.000
G2 X100.014 Y1733.037 Z0.000 I2.992 J-0.225 F3960.000
G1 X389.902 Y1733.037 Z0.000 F3960.000
G2 X392.893 Y1730.262 Z0.000 I0.000 J-3.000 F3960.000
G1 X393.249 Y1725.533 Z0.000 F3960.000
G1 X393.249 Y1725.533 Z-2.000 F3960.000
G1 X492.972 Y400.237 Z-2.000 F3960.000
G2 X492.890 Y399.284 Z-2.000 I-2.992 J-0.225 F3960.000
G1 X392.824 Y-0.721 Z-2.000 F3960.000
G2 X389.914 Y-2.993 Z-2.000 I-2.910 J0.728 F3960.000
G1 X100.086 Y-2.993 Z-2.000 F3960.000
G2 X97.176 Y-0.721 Z-2.000 I0.000 J3.000 F3960.000
G1 X-2.910 Y399.272 Z-2.000 F3960.000
G2 X-2.992 Y400.225 Z-2.000 I2.910 J0.728 F3960.000
G1 X97.022 Y1730.262 Z-2.000 F3960.000
G2 X100.014 Y1733.037 Z-2.000 I2.992 J-0.225 F3960.000
G1 X389.902 Y1733.037 Z-2.000 F3960.000
G2 X392.893 Y1730.262 Z-2.000 I0.000 J-3.000 F3960.000
G1 X393.249 Y1725.533 Z-2.000 F3960.000
G1 X393.249 Y1725.533 Z-4.000 F3960.000
G1 X492.972 Y400.237 Z-4.000 F3960.000
G2 X492.890 Y399.284 Z-4.000 I-2.992 J-0.225 F3960.000
G1 X392.824 Y-0.721 Z-4.000 F3960.000
G2 X389.914 Y-2.993 Z-4.000 I-2.910 J0.728 F3960.000
G1 X100.086 Y-2.993 Z-4.000 F3960.000
G2 X97.176 Y-0.721 Z-4.000 I0.000 J3.000 F3960.000
G1 X-2.910 Y399.272 Z-4.000 F3960.000
G2 X-2.992 Y400.225 Z-4.000 I2.910 J0.728 F3960.000
G1 X97.022 Y1730.262 Z-4.000 F3960.000
G2 X100.014 Y1733.037 Z-4.000 I2.992 J-0.225 F3960.000
G1 X389.902 Y1733.037 Z-4.000 F3960.000
G2 X392.893 Y1730.262 Z-4.000 I0.000 J-3.000 F3960.000
G1 X393.249 Y1725.533 Z-4.000 F3960.000
G1 X393.249 Y1725.533 Z-6.000 F3960.000
G1 X442.287 Y1073.824 Z-6.000 F3960.000
G1 X442.362 Y1072.827 Z-5.000 F3960.000
G1 X443.858 Y1052.943 Z-5.000 F3960.000
G1 X443.934 Y1051.946 Z-6.000 F3960.000
G1 X492.972 Y400.237 Z-6.000 F3960.000
G2 X492.890 Y399.284 Z-6.000 I-2.992 J-0.225 F3960.000
G1 X445.519 Y209.924 Z-6.000 F3960.000
G1 X445.277 Y208.953 Z-5.000 F3960.000
G1 X440.438 Y189.609 Z-5.000 F3960.000
G1 X440.195 Y188.639 Z-6.000 F3960.000
G1 X392.824 Y-0.721 Z-6.000 F3960.000
G2 X389.914 Y-2.993 Z-6.000 I-2.910 J0.728 F3960.000
G1 X100.086 Y-2.993 Z-6.000 F3960.000
G2 X97.176 Y-0.721 Z-6.000 I0.000 J3.000 F3960.000
G1 X-2.910 Y399.272 Z-6.000 F3960.000
G2 X-2.992 Y400.225 Z-6.000 I2.910 J0.728 F3960.000
G1 X21.189 Y721.795 Z-6.000 F3960.000
G1 X21.264 Y722.792 Z-5.000 F3960.000
G1 X22.759 Y742.676 Z-5.000 F3960.000
G1 X22.834 Y743.673 Z-6.000 F3960.000
G1 X71.196 Y1386.814 Z-6.000 F3960.000
G1 X71.271 Y1387.811 Z-5.000 F3960.000
G1 X72.766 Y1407.695 Z-5.000 F3960.000
G1 X72.841 Y1408.692 Z-6.000 F3960.000
G1 X97.022 Y1730.262 Z-6.000 F3960.000
G2 X100.014 Y1733.037 Z-6.000 I2.992 J-0.225 F3960.000
G1 X389.902 Y1733.037 Z-6.000 F3960.000
G2 X392.893 Y1730.262 Z-6.000 I0.000 J-3.000 F3960.000
G1 X393.249 Y1725.533 Z-6.000 F3960.000
G1 X393.249 Y1725.533 Z-8.000 F3960.000
G1 X442.137 Y1075.818 Z-8.000 F3960.000
G1 X442.362 Y1072.827 Z-5.000 F3960.000
G1 X443.858 Y1052.943 Z-5.000 F3960.000
G1 X444.084 Y1049.952 Z-8.000 F3960.000
G1 X492.972 Y400.237 Z-8.000 F3960.000
G2 X492.890 Y399.284 Z-8.000 I-2.992 J-0.225 F3960.000
G1 X446.005 Y211.864 Z-8.000 F3960.000
G1 X445.277 Y208.953 Z-5.000 F3960.000
G1 X440.438 Y189.609 Z-5.000 F3960.000
G1 X439.710 Y186.699 Z-8.000 F3960.000
G1 X392.824 Y-0.721 Z-8.000 F3960.000
G2 X389.914 Y-2.993 Z-8.000 I-2.910 J0.728 F3960.000
G1 X100.086 Y-2.993 Z-8.000 F3960.000
G2 X97.176 Y-0.721 Z-8.000 I0.000 J3.000 F3960.000
G1 X-2.910 Y399.272 Z-8.000 F3960.000
G2 X-2.992 Y400.225 Z-8.000 I2.910 J0.728 F3960.000
G1 X21.039 Y719.801 Z-8.000 F3960.000
G1 X21.264 Y722.792 Z-5.000 F3960.000
G1 X22.759 Y742.676 Z-5.000 F3960.000
G1 X22.984 Y745.668 Z-8.000 F3960.000
G1 X71.046 Y1384.819 Z-8.000 F3960.000
G1 X71.271 Y1387.811 Z-5.000 F3960.000
G1 X72.766 Y1407.695 Z-5.000 F3960.000
G1 X72.991 Y1410.686 Z-8.000 F3960.000
G1 X97.022 Y1730.262 Z-8.000 F3960.000
G2 X100.014 Y1733.037 Z-8.000 I2.992 J-0.225 F3960.000
G1 X389.902 Y1733.037 Z-8.000 F3960.000
G2 X392.893 Y1730.262 Z-8.000 I0.000 J-3.000 F3960.000
G1 X393.249 Y1725.533 Z-8.000 F3960.000
G0 X393.249 Y1725.533 Z30.000
(finish operation: TagDressup)
(begin postamble)
M05
G17 G54 G90 G80 G40
M2
