(Exported by FreeCAD)
(Post Processor: linuxcnc_post)
(Output Time:2019-12-03 17:47:07.624409)
(begin preamble)
G17 G54 G40 G49 G80 G90
G21
(begin operation: T1: 6mm end mill001)
(machine: not set, mm/min)
(T1: 6mm end mill001)
M6 T1
M3 S24000
(finish operation: T1: 6mm end mill001)
(begin operation: TagDressup001)
(machine: not set, mm/min)
G0 Z30.000
G0 X414.594 Y1748.392 Z30.000
G1 X414.594 Y1748.392 Z-1.000 F3960.000
G1 X516.186 Y398.259 Z-1.000 F3960.000
G2 X516.104 Y397.305 Z-1.000 I-2.992 J-0.225 F3960.000
G1 X410.779 Y-23.721 Z-1.000 F3960.000
G2 X407.869 Y-25.993 Z-1.000 I-2.910 J0.728 F3960.000
G1 X82.132 Y-25.993 Z-1.000 F3960.000
G2 X79.222 Y-23.721 Z-1.000 I-0.000 J3.000 F3960.000
G1 X-26.127 Y397.295 Z-1.000 F3960.000
G2 X-26.209 Y398.248 Z-1.000 I2.910 J0.728 F3960.000
G1 X75.687 Y1753.262 Z-1.000 F3960.000
G2 X78.678 Y1756.037 Z-1.000 I2.992 J-0.225 F3960.000
G1 X411.236 Y1756.037 Z-1.000 F3960.000
G2 X414.228 Y1753.262 Z-1.000 I0.000 J-3.000 F3960.000
G1 X414.594 Y1748.392 Z-1.000 F3960.000
G1 X414.594 Y1748.392 Z-3.000 F3960.000
G1 X516.186 Y398.259 Z-3.000 F3960.000
G2 X516.104 Y397.305 Z-3.000 I-2.992 J-0.225 F3960.000
G1 X410.779 Y-23.721 Z-3.000 F3960.000
G2 X407.869 Y-25.993 Z-3.000 I-2.910 J0.728 F3960.000
G1 X82.132 Y-25.993 Z-3.000 F3960.000
G2 X79.222 Y-23.721 Z-3.000 I-0.000 J3.000 F3960.000
G1 X-26.127 Y397.295 Z-3.000 F3960.000
G2 X-26.209 Y398.248 Z-3.000 I2.910 J0.728 F3960.000
G1 X75.687 Y1753.262 Z-3.000 F3960.000
G2 X78.678 Y1756.037 Z-3.000 I2.992 J-0.225 F3960.000
G1 X411.236 Y1756.037 Z-3.000 F3960.000
G2 X414.228 Y1753.262 Z-3.000 I0.000 J-3.000 F3960.000
G1 X414.594 Y1748.392 Z-3.000 F3960.000
G1 X414.594 Y1748.392 Z-5.000 F3960.000
G1 X516.186 Y398.259 Z-5.000 F3960.000
G2 X516.104 Y397.305 Z-5.000 I-2.992 J-0.225 F3960.000
G1 X410.779 Y-23.721 Z-5.000 F3960.000
G2 X407.869 Y-25.993 Z-5.000 I-2.910 J0.728 F3960.000
G1 X82.132 Y-25.993 Z-5.000 F3960.000
G2 X79.222 Y-23.721 Z-5.000 I-0.000 J3.000 F3960.000
G1 X-26.127 Y397.295 Z-5.000 F3960.000
G2 X-26.209 Y398.248 Z-5.000 I2.910 J0.728 F3960.000
G1 X75.687 Y1753.262 Z-5.000 F3960.000
G2 X78.678 Y1756.037 Z-5.000 I2.992 J-0.225 F3960.000
G1 X411.236 Y1756.037 Z-5.000 F3960.000
G2 X414.228 Y1753.262 Z-5.000 I0.000 J-3.000 F3960.000
G1 X414.594 Y1748.392 Z-5.000 F3960.000
G1 X414.594 Y1748.392 Z-7.000 F3960.000
G1 X438.683 Y1428.249 Z-7.000 F3960.000
G1 X438.834 Y1426.255 Z-5.000 F3960.000
G1 X440.330 Y1406.371 Z-5.000 F3960.000
G1 X440.480 Y1404.376 Z-7.000 F3960.000
G1 X487.791 Y775.623 Z-7.000 F3960.000
G1 X487.941 Y773.628 Z-5.000 F3960.000
G1 X489.437 Y753.744 Z-5.000 F3960.000
G1 X489.587 Y751.750 Z-7.000 F3960.000
G1 X516.186 Y398.259 Z-7.000 F3960.000
G2 X516.104 Y397.305 Z-7.000 I-2.992 J-0.225 F3960.000
G1 X466.347 Y198.404 Z-7.000 F3960.000
G1 X465.861 Y196.464 Z-5.000 F3960.000
G1 X461.022 Y177.120 Z-5.000 F3960.000
G1 X460.537 Y175.180 Z-7.000 F3960.000
G1 X410.779 Y-23.721 Z-7.000 F3960.000
G2 X407.869 Y-25.993 Z-7.000 I-2.910 J0.728 F3960.000
G1 X82.132 Y-25.993 Z-7.000 F3960.000
G2 X79.222 Y-23.721 Z-7.000 I-0.000 J3.000 F3960.000
G1 X22.014 Y204.905 Z-7.000 F3960.000
G1 X21.528 Y206.845 Z-5.000 F3960.000
G1 X16.688 Y226.189 Z-5.000 F3960.000
G1 X16.202 Y228.129 Z-7.000 F3960.000
G1 X-26.127 Y397.295 Z-7.000 F3960.000
G2 X-26.209 Y398.248 Z-7.000 I2.910 J0.728 F3960.000
G1 X-10.135 Y611.997 Z-7.000 F3960.000
G1 X-9.985 Y613.991 Z-5.000 F3960.000
G1 X-8.490 Y633.875 Z-5.000 F3960.000
G1 X-8.340 Y635.869 Z-7.000 F3960.000
G1 X49.315 Y1402.572 Z-7.000 F3960.000
G1 X49.465 Y1404.567 Z-5.000 F3960.000
G1 X50.961 Y1424.451 Z-5.000 F3960.000
G1 X51.111 Y1426.445 Z-7.000 F3960.000
G1 X75.687 Y1753.262 Z-7.000 F3960.000
G2 X78.678 Y1756.037 Z-7.000 I2.992 J-0.225 F3960.000
G1 X237.068 Y1756.037 Z-7.000 F3960.000
G1 X239.068 Y1756.037 Z-5.000 F3960.000
G1 X259.008 Y1756.037 Z-5.000 F3960.000
G1 X261.008 Y1756.037 Z-7.000 F3960.000
G1 X411.236 Y1756.037 Z-7.000 F3960.000
G2 X414.228 Y1753.262 Z-7.000 I0.000 J-3.000 F3960.000
G1 X414.594 Y1748.392 Z-7.000 F3960.000
G1 X414.594 Y1748.392 Z-8.000 F3960.000
G1 X438.608 Y1429.246 Z-8.000 F3960.000
G1 X438.834 Y1426.255 Z-5.000 F3960.000
G1 X440.330 Y1406.371 Z-5.000 F3960.000
G1 X440.555 Y1403.379 Z-8.000 F3960.000
G1 X487.716 Y776.620 Z-8.000 F3960.000
G1 X487.941 Y773.628 Z-5.000 F3960.000
G1 X489.437 Y753.744 Z-5.000 F3960.000
G1 X489.662 Y750.753 Z-8.000 F3960.000
G1 X516.186 Y398.259 Z-8.000 F3960.000
G2 X516.104 Y397.305 Z-8.000 I-2.992 J-0.225 F3960.000
G1 X466.589 Y199.374 Z-8.000 F3960.000
G1 X465.861 Y196.464 Z-5.000 F3960.000
G1 X461.022 Y177.120 Z-5.000 F3960.000
G1 X460.294 Y174.210 Z-8.000 F3960.000
G1 X410.779 Y-23.721 Z-8.000 F3960.000
G2 X407.869 Y-25.993 Z-8.000 I-2.910 J0.728 F3960.000
G1 X82.132 Y-25.993 Z-8.000 F3960.000
G2 X79.222 Y-23.721 Z-8.000 I-0.000 J3.000 F3960.000
G1 X22.256 Y203.935 Z-8.000 F3960.000
G1 X21.528 Y206.845 Z-5.000 F3960.000
G1 X16.688 Y226.189 Z-5.000 F3960.000
G1 X15.960 Y229.099 Z-8.000 F3960.000
G1 X-26.127 Y397.295 Z-8.000 F3960.000
G2 X-26.209 Y398.248 Z-8.000 I2.910 J0.728 F3960.000
G1 X-10.210 Y610.999 Z-8.000 F3960.000
G1 X-9.985 Y613.991 Z-5.000 F3960.000
G1 X-8.490 Y633.875 Z-5.000 F3960.000
G1 X-8.265 Y636.866 Z-8.000 F3960.000
G1 X49.240 Y1401.575 Z-8.000 F3960.000
G1 X49.465 Y1404.567 Z-5.000 F3960.000
G1 X50.961 Y1424.451 Z-5.000 F3960.000
G1 X51.185 Y1427.442 Z-8.000 F3960.000
G1 X75.687 Y1753.262 Z-8.000 F3960.000
G2 X78.678 Y1756.037 Z-8.000 I2.992 J-0.225 F3960.000
G1 X236.068 Y1756.037 Z-8.000 F3960.000
G1 X239.068 Y1756.037 Z-5.000 F3960.000
G1 X259.008 Y1756.037 Z-5.000 F3960.000
G1 X262.008 Y1756.037 Z-8.000 F3960.000
G1 X411.236 Y1756.037 Z-8.000 F3960.000
G2 X414.228 Y1753.262 Z-8.000 I0.000 J-3.000 F3960.000
G1 X414.594 Y1748.392 Z-8.000 F3960.000
G0 X414.594 Y1748.392 Z30.000
(finish operation: TagDressup001)
(begin postamble)
M05
G17 G54 G90 G80 G40
M2
