(Exported by FreeCAD)
(Post Processor: linuxcnc_post)
(Output Time:2021-08-22 21:59:14.788154)
(begin preamble)
G17 G54 G40 G49 G80 G90
G21
(begin operation: Fixture)
(machine: not set, mm/min)
G54 
(finish operation: Fixture)
(begin operation: 3mm endmill)
(machine: not set, mm/min)
(3mm endmill) 
M5
M6 T1 
G43 H1 
M3 S12000 
(finish operation: 3mm endmill)
(begin operation: RampEntryDressup002)
(machine: not set, mm/min)
G0 X0.000 Y0.000 Z10.000 
G0 X54.544 Y16.083 Z10.000 
G0 X54.544 Y16.083 Z7.000 
G1 X54.241 Y16.276 Z6.875 F3600.000 
G1 X53.923 Y16.410 Z6.716 F3600.000 
G1 X53.600 Y16.481 Z6.527 F3600.000 
G1 X53.284 Y16.486 Z6.315 F3600.000 
G1 X52.985 Y16.425 Z6.088 F3600.000 
G1 X52.714 Y16.300 Z5.852 F3600.000 
G1 X52.479 Y16.115 Z5.617 F3600.000 
G1 X52.289 Y15.876 Z5.390 F3600.000 
G1 X52.150 Y15.592 Z5.178 F3600.000 
G1 X52.066 Y15.273 Z4.989 F3600.000 
G1 X52.041 Y14.928 Z4.830 F3600.000 
G1 X52.076 Y14.570 Z4.705 F3600.000 
G1 X52.223 Y14.260 Z4.531 F3600.000 
G1 X52.426 Y13.995 Z4.338 F3600.000 
G1 X52.676 Y13.786 Z4.134 F3600.000 
G1 X52.964 Y13.639 Z3.926 F3600.000 
G1 X53.281 Y13.559 Z3.722 F3600.000 
G1 X53.614 Y13.551 Z3.529 F3600.000 
G1 X53.952 Y13.614 Z3.355 F3600.000 
G1 X54.225 Y13.735 Z3.189 F3600.000 
G1 X54.465 Y13.904 Z3.015 F3600.000 
G1 X54.667 Y14.117 Z2.839 F3600.000 
G1 X54.823 Y14.366 Z2.666 F3600.000 
G1 X54.930 Y14.645 Z2.500 F3600.000 
G1 X54.823 Y14.366 Z2.334 F3600.000 
G1 X54.667 Y14.117 Z2.161 F3600.000 
G1 X54.465 Y13.904 Z1.985 F3600.000 
G1 X54.225 Y13.735 Z1.811 F3600.000 
G1 X53.952 Y13.614 Z1.645 F3600.000 
G1 X53.614 Y13.551 Z1.471 F3600.000 
G1 X53.281 Y13.559 Z1.278 F3600.000 
G1 X52.964 Y13.639 Z1.074 F3600.000 
G1 X52.676 Y13.786 Z0.866 F3600.000 
G1 X52.426 Y13.995 Z0.662 F3600.000 
G1 X52.223 Y14.260 Z0.469 F3600.000 
G1 X52.076 Y14.570 Z0.295 F3600.000 
G1 X52.041 Y14.928 Z0.170 F3600.000 
G1 X52.066 Y15.273 Z0.011 F3600.000 
G1 X52.150 Y15.592 Z-0.178 F3600.000 
G1 X52.289 Y15.876 Z-0.390 F3600.000 
G1 X52.479 Y16.115 Z-0.617 F3600.000 
G1 X52.714 Y16.300 Z-0.852 F3600.000 
G1 X52.985 Y16.425 Z-1.088 F3600.000 
G1 X53.284 Y16.486 Z-1.315 F3600.000 
G1 X53.600 Y16.481 Z-1.527 F3600.000 
G1 X53.923 Y16.410 Z-1.716 F3600.000 
G1 X54.241 Y16.276 Z-1.875 F3600.000 
G1 X54.544 Y16.083 Z-2.000 F3600.000 
G3 X52.076 Y14.570 Z-2.000 I-1.053 J-1.053 F3600.000 
G3 X53.952 Y13.614 Z-2.000 I1.416 J0.460 F3600.000 
G3 X54.908 Y15.490 Z-2.000 I-0.460 J1.416 F3600.000 
G3 X54.544 Y16.083 Z-2.000 I-1.416 J-0.460 F3600.000 
G1 X54.277 Y16.287 Z-2.164 F3600.000 
G1 X53.984 Y16.429 Z-2.348 F3600.000 
G1 X53.675 Y16.506 Z-2.545 F3600.000 
G1 X53.362 Y16.513 Z-2.750 F3600.000 
G1 X53.055 Y16.452 Z-2.955 F3600.000 
G1 X52.764 Y16.323 Z-3.152 F3600.000 
G1 X52.501 Y16.131 Z-3.336 F3600.000 
G1 X52.272 Y15.884 Z-3.500 F3600.000 
G1 X52.501 Y16.131 Z-3.664 F3600.000 
G1 X52.764 Y16.323 Z-3.848 F3600.000 
G1 X53.055 Y16.452 Z-4.045 F3600.000 
G1 X53.362 Y16.513 Z-4.250 F3600.000 
G1 X53.675 Y16.506 Z-4.455 F3600.000 
G1 X53.984 Y16.429 Z-4.652 F3600.000 
G1 X54.277 Y16.287 Z-4.836 F3600.000 
G1 X54.544 Y16.083 Z-5.000 F3600.000 
G3 X52.076 Y14.570 Z-5.000 I-1.053 J-1.053 F3600.000 
G3 X53.952 Y13.614 Z-5.000 I1.416 J0.460 F3600.000 
G3 X54.908 Y15.490 Z-5.000 I-0.460 J1.416 F3600.000 
G3 X54.544 Y16.083 Z-5.000 I-1.416 J-0.460 F3600.000 
G1 X54.277 Y16.287 Z-5.164 F3600.000 
G1 X53.984 Y16.429 Z-5.348 F3600.000 
G1 X53.675 Y16.506 Z-5.545 F3600.000 
G1 X53.362 Y16.513 Z-5.750 F3600.000 
G1 X53.055 Y16.452 Z-5.955 F3600.000 
G1 X52.764 Y16.323 Z-6.152 F3600.000 
G1 X52.501 Y16.131 Z-6.336 F3600.000 
G1 X52.272 Y15.884 Z-6.500 F3600.000 
G1 X52.501 Y16.131 Z-6.664 F3600.000 
G1 X52.764 Y16.323 Z-6.848 F3600.000 
G1 X53.055 Y16.452 Z-7.045 F3600.000 
G1 X53.362 Y16.513 Z-7.250 F3600.000 
G1 X53.675 Y16.506 Z-7.455 F3600.000 
G1 X53.984 Y16.429 Z-7.652 F3600.000 
G1 X54.277 Y16.287 Z-7.836 F3600.000 
G1 X54.544 Y16.083 Z-8.000 F3600.000 
G3 X52.076 Y14.570 Z-8.000 I-1.053 J-1.053 F3600.000 
G3 X53.952 Y13.614 Z-8.000 I1.416 J0.460 F3600.000 
G3 X54.908 Y15.490 Z-8.000 I-0.460 J1.416 F3600.000 
G3 X54.544 Y16.083 Z-8.000 I-1.416 J-0.460 F3600.000 
G1 X54.269 Y16.299 Z-8.192 F3600.000 
G1 X53.958 Y16.444 Z-8.396 F3600.000 
G1 X53.624 Y16.513 Z-8.604 F3600.000 
G1 X53.281 Y16.503 Z-8.808 F3600.000 
G1 X52.942 Y16.414 Z-9.000 F3600.000 
G1 X53.281 Y16.503 Z-9.192 F3600.000 
G1 X53.624 Y16.513 Z-9.396 F3600.000 
G1 X53.958 Y16.444 Z-9.604 F3600.000 
G1 X54.269 Y16.299 Z-9.808 F3600.000 
G1 X54.544 Y16.083 Z-10.000 F3600.000 
G3 X52.076 Y14.570 Z-10.000 I-1.053 J-1.053 F3600.000 
G3 X53.952 Y13.614 Z-10.000 I1.416 J0.460 F3600.000 
G3 X54.908 Y15.490 Z-10.000 I-0.460 J1.416 F3600.000 
G3 X54.544 Y16.083 Z-10.000 I-1.416 J-0.460 F3600.000 
G0 X54.544 Y16.083 Z10.000 
G0 X53.637 Y433.537 Z10.000 
G0 X53.637 Y433.537 Z7.000 
G1 X53.959 Y433.583 Z6.848 F3600.000 
G1 X54.257 Y433.683 Z6.676 F3600.000 
G1 X54.522 Y433.836 Z6.488 F3600.000 
G1 X54.745 Y434.036 Z6.291 F3600.000 
G1 X54.920 Y434.277 Z6.091 F3600.000 
G1 X55.041 Y434.552 Z5.894 F3600.000 
G1 X55.104 Y434.851 Z5.706 F3600.000 
G1 X55.107 Y435.166 Z5.534 F3600.000 
G1 X55.050 Y435.486 Z5.382 F3600.000 
G1 X54.839 Y435.789 Z5.285 F3600.000 
G1 X54.594 Y436.048 Z5.147 F3600.000 
G1 X54.324 Y436.254 Z4.971 F3600.000 
G1 X54.038 Y436.400 Z4.765 F3600.000 
G1 X53.744 Y436.482 Z4.535 F3600.000 
G1 X53.453 Y436.496 Z4.287 F3600.000 
G1 X53.174 Y436.442 Z4.032 F3600.000 
G1 X52.917 Y436.321 Z3.776 F3600.000 
G1 X52.689 Y436.139 Z3.529 F3600.000 
G1 X52.499 Y435.901 Z3.298 F3600.000 
G1 X52.353 Y435.614 Z3.092 F3600.000 
G1 X52.256 Y435.289 Z2.917 F3600.000 
G1 X52.210 Y434.935 Z2.779 F3600.000 
G1 X52.218 Y434.566 Z2.682 F3600.000 
G1 X52.346 Y434.279 Z2.500 F3600.000 
G1 X52.218 Y434.566 Z2.318 F3600.000 
G1 X52.210 Y434.935 Z2.221 F3600.000 
G1 X52.256 Y435.289 Z2.083 F3600.000 
G1 X52.353 Y435.614 Z1.908 F3600.000 
G1 X52.499 Y435.901 Z1.702 F3600.000 
G1 X52.689 Y436.139 Z1.471 F3600.000 
G1 X52.917 Y436.321 Z1.224 F3600.000 
G1 X53.174 Y436.442 Z0.968 F3600.000 
G1 X53.453 Y436.496 Z0.713 F3600.000 
G1 X53.744 Y436.482 Z0.465 F3600.000 
G1 X54.038 Y436.400 Z0.235 F3600.000 
G1 X54.324 Y436.254 Z0.029 F3600.000 
G1 X54.594 Y436.048 Z-0.147 F3600.000 
G1 X54.839 Y435.789 Z-0.285 F3600.000 
G1 X55.050 Y435.486 Z-0.382 F3600.000 
G1 X55.107 Y435.166 Z-0.534 F3600.000 
G1 X55.104 Y434.851 Z-0.706 F3600.000 
G1 X55.041 Y434.552 Z-0.894 F3600.000 
G1 X54.920 Y434.277 Z-1.091 F3600.000 
G1 X54.745 Y434.036 Z-1.291 F3600.000 
G1 X54.522 Y433.836 Z-1.488 F3600.000 
G1 X54.257 Y433.683 Z-1.676 F3600.000 
G1 X53.959 Y433.583 Z-1.848 F3600.000 
G1 X53.637 Y433.537 Z-2.000 F3600.000 
G3 X55.050 Y435.486 Z-2.000 I-0.003 J1.489 F3600.000 
G3 X52.218 Y434.566 Z-2.000 I-1.416 J-0.460 F3600.000 
G3 X53.637 Y433.537 Z-2.000 I1.416 J0.460 F3600.000 
G1 X53.971 Y433.583 Z-2.164 F3600.000 
G1 X54.278 Y433.690 Z-2.348 F3600.000 
G1 X54.550 Y433.855 Z-2.545 F3600.000 
G1 X54.776 Y434.071 Z-2.750 F3600.000 
G1 X54.949 Y434.332 Z-2.955 F3600.000 
G1 X55.063 Y434.629 Z-3.152 F3600.000 
G1 X55.114 Y434.951 Z-3.336 F3600.000 
G1 X55.099 Y435.287 Z-3.500 F3600.000 
G1 X55.114 Y434.951 Z-3.664 F3600.000 
G1 X55.063 Y434.629 Z-3.848 F3600.000 
G1 X54.949 Y434.332 Z-4.045 F3600.000 
G1 X54.776 Y434.071 Z-4.250 F3600.000 
G1 X54.550 Y433.855 Z-4.455 F3600.000 
G1 X54.278 Y433.690 Z-4.652 F3600.000 
G1 X53.971 Y433.583 Z-4.836 F3600.000 
G1 X53.637 Y433.537 Z-5.000 F3600.000 
G3 X55.050 Y435.486 Z-5.000 I-0.003 J1.489 F3600.000 
G3 X52.218 Y434.566 Z-5.000 I-1.416 J-0.460 F3600.000 
G3 X53.637 Y433.537 Z-5.000 I1.416 J0.460 F3600.000 
G1 X53.971 Y433.583 Z-5.164 F3600.000 
G1 X54.278 Y433.690 Z-5.348 F3600.000 
G1 X54.550 Y433.855 Z-5.545 F3600.000 
G1 X54.776 Y434.071 Z-5.750 F3600.000 
G1 X54.949 Y434.332 Z-5.955 F3600.000 
G1 X55.063 Y434.629 Z-6.152 F3600.000 
G1 X55.114 Y434.951 Z-6.336 F3600.000 
G1 X55.099 Y435.287 Z-6.500 F3600.000 
G1 X55.114 Y434.951 Z-6.664 F3600.000 
G1 X55.063 Y434.629 Z-6.848 F3600.000 
G1 X54.949 Y434.332 Z-7.045 F3600.000 
G1 X54.776 Y434.071 Z-7.250 F3600.000 
G1 X54.550 Y433.855 Z-7.455 F3600.000 
G1 X54.278 Y433.690 Z-7.652 F3600.000 
G1 X53.971 Y433.583 Z-7.836 F3600.000 
G1 X53.637 Y433.537 Z-8.000 F3600.000 
G3 X55.050 Y435.486 Z-8.000 I-0.003 J1.489 F3600.000 
G3 X52.218 Y434.566 Z-8.000 I-1.416 J-0.460 F3600.000 
G3 X53.637 Y433.537 Z-8.000 I1.416 J0.460 F3600.000 
G1 X53.985 Y433.580 Z-8.192 F3600.000 
G1 X54.307 Y433.698 Z-8.396 F3600.000 
G1 X54.591 Y433.886 Z-8.604 F3600.000 
G1 X54.826 Y434.136 Z-8.808 F3600.000 
G1 X55.002 Y434.439 Z-9.000 F3600.000 
G1 X54.826 Y434.136 Z-9.192 F3600.000 
G1 X54.591 Y433.886 Z-9.396 F3600.000 
G1 X54.307 Y433.698 Z-9.604 F3600.000 
G1 X53.985 Y433.580 Z-9.808 F3600.000 
G1 X53.637 Y433.537 Z-10.000 F3600.000 
G3 X55.050 Y435.486 Z-10.000 I-0.003 J1.489 F3600.000 
G3 X52.218 Y434.566 Z-10.000 I-1.416 J-0.460 F3600.000 
G3 X53.637 Y433.537 Z-10.000 I1.416 J0.460 F3600.000 
G0 X53.637 Y433.537 Z10.000 
(finish operation: RampEntryDressup002)
(begin postamble)
M05
G17 G54 G90 G80 G40
M2
