(Exported by FreeCAD)
(Post Processor: linuxcnc_post)
(Output Time:2021-08-22 21:45:47.065772)
(begin preamble)
G17 G54 G40 G49 G80 G90
G21
(begin operation: Fixture)
(machine: not set, mm/min)
G54 
(finish operation: Fixture)
(begin operation: 6mm Endmill)
(machine: not set, mm/min)
(6mm Endmill) 
M5
M6 T1 
G43 H1 
M3 S12000 
(finish operation: 6mm Endmill)
(begin operation: RampEntryDressup)
(machine: not set, mm/min)
G0 X0.000 Y0.000 Z10.000 
G0 X62.912 Y65.169 Z10.000 
G0 X62.912 Y65.169 Z7.000 
G1 X61.137 Y66.943 Z5.551 F3600.000 
G1 X57.401 Y63.207 Z2.500 F3600.000 
G1 X61.137 Y66.943 Z-0.551 F3600.000 
G1 X62.912 Y65.169 Z-2.000 F3600.000 
G1 X61.137 Y66.943 Z-2.000 F3600.000 
G1 X18.707 Y24.513 Z-2.000 F3600.000 
G1 X22.257 Y20.964 Z-2.000 F3600.000 
G1 X64.687 Y63.394 Z-2.000 F3600.000 
G1 X62.912 Y65.169 Z-2.000 F3600.000 
G1 X61.137 Y66.943 Z-3.449 F3600.000 
G1 X61.075 Y66.881 Z-3.500 F3600.000 
G1 X61.137 Y66.943 Z-3.551 F3600.000 
G1 X62.912 Y65.169 Z-5.000 F3600.000 
G1 X61.137 Y66.943 Z-5.000 F3600.000 
G1 X18.707 Y24.513 Z-5.000 F3600.000 
G1 X22.257 Y20.964 Z-5.000 F3600.000 
G1 X64.687 Y63.394 Z-5.000 F3600.000 
G1 X62.912 Y65.169 Z-5.000 F3600.000 
G1 X61.137 Y66.943 Z-6.449 F3600.000 
G1 X61.075 Y66.881 Z-6.500 F3600.000 
G1 X61.137 Y66.943 Z-6.551 F3600.000 
G1 X62.912 Y65.169 Z-8.000 F3600.000 
G1 X61.137 Y66.943 Z-8.000 F3600.000 
G1 X18.707 Y24.513 Z-8.000 F3600.000 
G1 X22.257 Y20.964 Z-8.000 F3600.000 
G1 X64.687 Y63.394 Z-8.000 F3600.000 
G1 X62.912 Y65.169 Z-8.000 F3600.000 
G1 X61.137 Y66.943 Z-9.449 F3600.000 
G1 X61.075 Y66.881 Z-9.500 F3600.000 
G1 X61.137 Y66.943 Z-9.551 F3600.000 
G1 X62.912 Y65.169 Z-11.000 F3600.000 
G1 X61.137 Y66.943 Z-11.000 F3600.000 
G1 X18.707 Y24.513 Z-11.000 F3600.000 
G1 X22.257 Y20.964 Z-11.000 F3600.000 
G1 X64.687 Y63.394 Z-11.000 F3600.000 
G1 X62.912 Y65.169 Z-11.000 F3600.000 
G1 X61.137 Y66.943 Z-12.449 F3600.000 
G1 X61.075 Y66.881 Z-12.500 F3600.000 
G1 X61.137 Y66.943 Z-12.551 F3600.000 
G1 X62.912 Y65.169 Z-14.000 F3600.000 
G1 X61.137 Y66.943 Z-14.000 F3600.000 
G1 X18.707 Y24.513 Z-14.000 F3600.000 
G1 X22.257 Y20.964 Z-14.000 F3600.000 
G1 X64.687 Y63.394 Z-14.000 F3600.000 
G1 X62.912 Y65.169 Z-14.000 F3600.000 
G1 X61.137 Y66.943 Z-15.449 F3600.000 
G1 X61.075 Y66.881 Z-15.500 F3600.000 
G1 X61.137 Y66.943 Z-15.551 F3600.000 
G1 X62.912 Y65.169 Z-17.000 F3600.000 
G1 X61.137 Y66.943 Z-17.000 F3600.000 
G1 X18.707 Y24.513 Z-17.000 F3600.000 
G1 X22.257 Y20.964 Z-17.000 F3600.000 
G1 X64.687 Y63.394 Z-17.000 F3600.000 
G1 X62.912 Y65.169 Z-17.000 F3600.000 
G1 X61.137 Y66.943 Z-18.449 F3600.000 
G1 X61.075 Y66.881 Z-18.500 F3600.000 
G1 X61.137 Y66.943 Z-18.551 F3600.000 
G1 X62.912 Y65.169 Z-20.000 F3600.000 
G1 X61.137 Y66.943 Z-20.000 F3600.000 
G1 X18.707 Y24.513 Z-20.000 F3600.000 
G1 X22.257 Y20.964 Z-20.000 F3600.000 
G1 X64.687 Y63.394 Z-20.000 F3600.000 
G1 X62.912 Y65.169 Z-20.000 F3600.000 
G1 X61.137 Y66.943 Z-21.449 F3600.000 
G1 X61.075 Y66.881 Z-21.500 F3600.000 
G1 X61.137 Y66.943 Z-21.551 F3600.000 
G1 X62.912 Y65.169 Z-23.000 F3600.000 
G1 X61.137 Y66.943 Z-23.000 F3600.000 
G1 X18.707 Y24.513 Z-23.000 F3600.000 
G1 X22.257 Y20.964 Z-23.000 F3600.000 
G1 X64.687 Y63.394 Z-23.000 F3600.000 
G1 X62.912 Y65.169 Z-23.000 F3600.000 
G1 X61.137 Y66.943 Z-24.449 F3600.000 
G1 X61.075 Y66.881 Z-24.500 F3600.000 
G1 X61.137 Y66.943 Z-24.551 F3600.000 
G1 X62.912 Y65.169 Z-26.000 F3600.000 
G1 X61.137 Y66.943 Z-26.000 F3600.000 
G1 X18.707 Y24.513 Z-26.000 F3600.000 
G1 X22.257 Y20.964 Z-26.000 F3600.000 
G1 X64.687 Y63.394 Z-26.000 F3600.000 
G1 X62.912 Y65.169 Z-26.000 F3600.000 
G0 X62.912 Y65.169 Z10.000 
G0 X44.677 Y83.404 Z10.000 
G0 X44.677 Y83.404 Z7.000 
G1 X50.188 Y88.915 Z2.500 F3600.000 
G1 X44.677 Y83.404 Z-2.000 F3600.000 
G1 X64.717 Y103.444 Z-2.000 F3600.000 
G1 X61.168 Y106.993 Z-2.000 F3600.000 
G1 X18.738 Y64.563 Z-2.000 F3600.000 
G1 X22.287 Y61.014 Z-2.000 F3600.000 
G1 X44.677 Y83.404 Z-2.000 F3600.000 
G1 X46.514 Y85.241 Z-3.500 F3600.000 
G1 X44.677 Y83.404 Z-5.000 F3600.000 
G1 X64.717 Y103.444 Z-5.000 F3600.000 
G1 X61.168 Y106.993 Z-5.000 F3600.000 
G1 X18.738 Y64.563 Z-5.000 F3600.000 
G1 X22.287 Y61.014 Z-5.000 F3600.000 
G1 X44.677 Y83.404 Z-5.000 F3600.000 
G1 X46.514 Y85.241 Z-6.500 F3600.000 
G1 X44.677 Y83.404 Z-8.000 F3600.000 
G1 X64.717 Y103.444 Z-8.000 F3600.000 
G1 X61.168 Y106.993 Z-8.000 F3600.000 
G1 X18.738 Y64.563 Z-8.000 F3600.000 
G1 X22.287 Y61.014 Z-8.000 F3600.000 
G1 X44.677 Y83.404 Z-8.000 F3600.000 
G1 X46.514 Y85.241 Z-9.500 F3600.000 
G1 X44.677 Y83.404 Z-11.000 F3600.000 
G1 X64.717 Y103.444 Z-11.000 F3600.000 
G1 X61.168 Y106.993 Z-11.000 F3600.000 
G1 X18.738 Y64.563 Z-11.000 F3600.000 
G1 X22.287 Y61.014 Z-11.000 F3600.000 
G1 X44.677 Y83.404 Z-11.000 F3600.000 
G1 X46.514 Y85.241 Z-12.500 F3600.000 
G1 X44.677 Y83.404 Z-14.000 F3600.000 
G1 X64.717 Y103.444 Z-14.000 F3600.000 
G1 X61.168 Y106.993 Z-14.000 F3600.000 
G1 X18.738 Y64.563 Z-14.000 F3600.000 
G1 X22.287 Y61.014 Z-14.000 F3600.000 
G1 X44.677 Y83.404 Z-14.000 F3600.000 
G1 X46.514 Y85.241 Z-15.500 F3600.000 
G1 X44.677 Y83.404 Z-17.000 F3600.000 
G1 X64.717 Y103.444 Z-17.000 F3600.000 
G1 X61.168 Y106.993 Z-17.000 F3600.000 
G1 X18.738 Y64.563 Z-17.000 F3600.000 
G1 X22.287 Y61.014 Z-17.000 F3600.000 
G1 X44.677 Y83.404 Z-17.000 F3600.000 
G1 X46.514 Y85.241 Z-18.500 F3600.000 
G1 X44.677 Y83.404 Z-20.000 F3600.000 
G1 X64.717 Y103.444 Z-20.000 F3600.000 
G1 X61.168 Y106.993 Z-20.000 F3600.000 
G1 X18.738 Y64.563 Z-20.000 F3600.000 
G1 X22.287 Y61.014 Z-20.000 F3600.000 
G1 X44.677 Y83.404 Z-20.000 F3600.000 
G1 X46.514 Y85.241 Z-21.500 F3600.000 
G1 X44.677 Y83.404 Z-23.000 F3600.000 
G1 X64.717 Y103.444 Z-23.000 F3600.000 
G1 X61.168 Y106.993 Z-23.000 F3600.000 
G1 X18.738 Y64.563 Z-23.000 F3600.000 
G1 X22.287 Y61.014 Z-23.000 F3600.000 
G1 X44.677 Y83.404 Z-23.000 F3600.000 
G1 X46.514 Y85.241 Z-24.500 F3600.000 
G1 X44.677 Y83.404 Z-26.000 F3600.000 
G1 X64.717 Y103.444 Z-26.000 F3600.000 
G1 X61.168 Y106.993 Z-26.000 F3600.000 
G1 X18.738 Y64.563 Z-26.000 F3600.000 
G1 X22.287 Y61.014 Z-26.000 F3600.000 
G1 X44.677 Y83.404 Z-26.000 F3600.000 
G0 X44.677 Y83.404 Z10.000 
G0 X24.661 Y103.420 Z10.000 
G0 X24.661 Y103.420 Z7.000 
G1 X30.172 Y108.931 Z2.500 F3600.000 
G1 X24.661 Y103.420 Z-2.000 F3600.000 
G1 X64.735 Y143.493 Z-2.000 F3600.000 
G1 X61.185 Y147.043 Z-2.000 F3600.000 
G1 X18.755 Y104.613 Z-2.000 F3600.000 
G1 X22.305 Y101.063 Z-2.000 F3600.000 
G1 X24.661 Y103.420 Z-2.000 F3600.000 
G1 X26.498 Y105.257 Z-3.500 F3600.000 
G1 X24.661 Y103.420 Z-5.000 F3600.000 
G1 X64.735 Y143.493 Z-5.000 F3600.000 
G1 X61.185 Y147.043 Z-5.000 F3600.000 
G1 X18.755 Y104.613 Z-5.000 F3600.000 
G1 X22.305 Y101.063 Z-5.000 F3600.000 
G1 X24.661 Y103.420 Z-5.000 F3600.000 
G1 X26.498 Y105.257 Z-6.500 F3600.000 
G1 X24.661 Y103.420 Z-8.000 F3600.000 
G1 X64.735 Y143.493 Z-8.000 F3600.000 
G1 X61.185 Y147.043 Z-8.000 F3600.000 
G1 X18.755 Y104.613 Z-8.000 F3600.000 
G1 X22.305 Y101.063 Z-8.000 F3600.000 
G1 X24.661 Y103.420 Z-8.000 F3600.000 
G1 X26.498 Y105.257 Z-9.500 F3600.000 
G1 X24.661 Y103.420 Z-11.000 F3600.000 
G1 X64.735 Y143.493 Z-11.000 F3600.000 
G1 X61.185 Y147.043 Z-11.000 F3600.000 
G1 X18.755 Y104.613 Z-11.000 F3600.000 
G1 X22.305 Y101.063 Z-11.000 F3600.000 
G1 X24.661 Y103.420 Z-11.000 F3600.000 
G1 X26.498 Y105.257 Z-12.500 F3600.000 
G1 X24.661 Y103.420 Z-14.000 F3600.000 
G1 X64.735 Y143.493 Z-14.000 F3600.000 
G1 X61.185 Y147.043 Z-14.000 F3600.000 
G1 X18.755 Y104.613 Z-14.000 F3600.000 
G1 X22.305 Y101.063 Z-14.000 F3600.000 
G1 X24.661 Y103.420 Z-14.000 F3600.000 
G1 X26.498 Y105.257 Z-15.500 F3600.000 
G1 X24.661 Y103.420 Z-17.000 F3600.000 
G1 X64.735 Y143.493 Z-17.000 F3600.000 
G1 X61.185 Y147.043 Z-17.000 F3600.000 
G1 X18.755 Y104.613 Z-17.000 F3600.000 
G1 X22.305 Y101.063 Z-17.000 F3600.000 
G1 X24.661 Y103.420 Z-17.000 F3600.000 
G1 X26.498 Y105.257 Z-18.500 F3600.000 
G1 X24.661 Y103.420 Z-20.000 F3600.000 
G1 X64.735 Y143.493 Z-20.000 F3600.000 
G1 X61.185 Y147.043 Z-20.000 F3600.000 
G1 X18.755 Y104.613 Z-20.000 F3600.000 
G1 X22.305 Y101.063 Z-20.000 F3600.000 
G1 X24.661 Y103.420 Z-20.000 F3600.000 
G1 X26.498 Y105.257 Z-21.500 F3600.000 
G1 X24.661 Y103.420 Z-23.000 F3600.000 
G1 X64.735 Y143.493 Z-23.000 F3600.000 
G1 X61.185 Y147.043 Z-23.000 F3600.000 
G1 X18.755 Y104.613 Z-23.000 F3600.000 
G1 X22.305 Y101.063 Z-23.000 F3600.000 
G1 X24.661 Y103.420 Z-23.000 F3600.000 
G1 X26.498 Y105.257 Z-24.500 F3600.000 
G1 X24.661 Y103.420 Z-26.000 F3600.000 
G1 X64.735 Y143.493 Z-26.000 F3600.000 
G1 X61.185 Y147.043 Z-26.000 F3600.000 
G1 X18.755 Y104.613 Z-26.000 F3600.000 
G1 X22.305 Y101.063 Z-26.000 F3600.000 
G1 X24.661 Y103.420 Z-26.000 F3600.000 
G0 X24.661 Y103.420 Z10.000 
G0 X22.286 Y141.100 Z10.000 
G0 X22.286 Y141.100 Z7.000 
G1 X27.797 Y146.611 Z2.500 F3600.000 
G1 X22.286 Y141.100 Z-2.000 F3600.000 
G1 X64.716 Y183.530 Z-2.000 F3600.000 
G1 X61.167 Y187.079 Z-2.000 F3600.000 
G1 X18.737 Y144.649 Z-2.000 F3600.000 
G1 X22.286 Y141.100 Z-2.000 F3600.000 
G1 X24.123 Y142.937 Z-3.500 F3600.000 
G1 X22.286 Y141.100 Z-5.000 F3600.000 
G1 X64.716 Y183.530 Z-5.000 F3600.000 
G1 X61.167 Y187.079 Z-5.000 F3600.000 
G1 X18.737 Y144.649 Z-5.000 F3600.000 
G1 X22.286 Y141.100 Z-5.000 F3600.000 
G1 X24.123 Y142.937 Z-6.500 F3600.000 
G1 X22.286 Y141.100 Z-8.000 F3600.000 
G1 X64.716 Y183.530 Z-8.000 F3600.000 
G1 X61.167 Y187.079 Z-8.000 F3600.000 
G1 X18.737 Y144.649 Z-8.000 F3600.000 
G1 X22.286 Y141.100 Z-8.000 F3600.000 
G1 X24.123 Y142.937 Z-9.500 F3600.000 
G1 X22.286 Y141.100 Z-11.000 F3600.000 
G1 X64.716 Y183.530 Z-11.000 F3600.000 
G1 X61.167 Y187.079 Z-11.000 F3600.000 
G1 X18.737 Y144.649 Z-11.000 F3600.000 
G1 X22.286 Y141.100 Z-11.000 F3600.000 
G1 X24.123 Y142.937 Z-12.500 F3600.000 
G1 X22.286 Y141.100 Z-14.000 F3600.000 
G1 X64.716 Y183.530 Z-14.000 F3600.000 
G1 X61.167 Y187.079 Z-14.000 F3600.000 
G1 X18.737 Y144.649 Z-14.000 F3600.000 
G1 X22.286 Y141.100 Z-14.000 F3600.000 
G1 X24.123 Y142.937 Z-15.500 F3600.000 
G1 X22.286 Y141.100 Z-17.000 F3600.000 
G1 X64.716 Y183.530 Z-17.000 F3600.000 
G1 X61.167 Y187.079 Z-17.000 F3600.000 
G1 X18.737 Y144.649 Z-17.000 F3600.000 
G1 X22.286 Y141.100 Z-17.000 F3600.000 
G1 X24.123 Y142.937 Z-18.500 F3600.000 
G1 X22.286 Y141.100 Z-20.000 F3600.000 
G1 X64.716 Y183.530 Z-20.000 F3600.000 
G1 X61.167 Y187.079 Z-20.000 F3600.000 
G1 X18.737 Y144.649 Z-20.000 F3600.000 
G1 X22.286 Y141.100 Z-20.000 F3600.000 
G1 X24.123 Y142.937 Z-21.500 F3600.000 
G1 X22.286 Y141.100 Z-23.000 F3600.000 
G1 X64.716 Y183.530 Z-23.000 F3600.000 
G1 X61.167 Y187.079 Z-23.000 F3600.000 
G1 X18.737 Y144.649 Z-23.000 F3600.000 
G1 X22.286 Y141.100 Z-23.000 F3600.000 
G1 X24.123 Y142.937 Z-24.500 F3600.000 
G1 X22.286 Y141.100 Z-26.000 F3600.000 
G1 X64.716 Y183.530 Z-26.000 F3600.000 
G1 X61.167 Y187.079 Z-26.000 F3600.000 
G1 X18.737 Y144.649 Z-26.000 F3600.000 
G1 X22.286 Y141.100 Z-26.000 F3600.000 
G0 X22.286 Y141.100 Z10.000 
G0 X22.307 Y181.132 Z10.000 
G0 X22.307 Y181.132 Z7.000 
G1 X27.819 Y186.643 Z2.500 F3600.000 
G1 X22.307 Y181.132 Z-2.000 F3600.000 
G1 X64.737 Y223.562 Z-2.000 F3600.000 
G1 X61.188 Y227.111 Z-2.000 F3600.000 
G1 X18.758 Y184.681 Z-2.000 F3600.000 
G1 X22.307 Y181.132 Z-2.000 F3600.000 
G1 X24.144 Y182.969 Z-3.500 F3600.000 
G1 X22.307 Y181.132 Z-5.000 F3600.000 
G1 X64.737 Y223.562 Z-5.000 F3600.000 
G1 X61.188 Y227.111 Z-5.000 F3600.000 
G1 X18.758 Y184.681 Z-5.000 F3600.000 
G1 X22.307 Y181.132 Z-5.000 F3600.000 
G1 X24.144 Y182.969 Z-6.500 F3600.000 
G1 X22.307 Y181.132 Z-8.000 F3600.000 
G1 X64.737 Y223.562 Z-8.000 F3600.000 
G1 X61.188 Y227.111 Z-8.000 F3600.000 
G1 X18.758 Y184.681 Z-8.000 F3600.000 
G1 X22.307 Y181.132 Z-8.000 F3600.000 
G1 X24.144 Y182.969 Z-9.500 F3600.000 
G1 X22.307 Y181.132 Z-11.000 F3600.000 
G1 X64.737 Y223.562 Z-11.000 F3600.000 
G1 X61.188 Y227.111 Z-11.000 F3600.000 
G1 X18.758 Y184.681 Z-11.000 F3600.000 
G1 X22.307 Y181.132 Z-11.000 F3600.000 
G1 X24.144 Y182.969 Z-12.500 F3600.000 
G1 X22.307 Y181.132 Z-14.000 F3600.000 
G1 X64.737 Y223.562 Z-14.000 F3600.000 
G1 X61.188 Y227.111 Z-14.000 F3600.000 
G1 X18.758 Y184.681 Z-14.000 F3600.000 
G1 X22.307 Y181.132 Z-14.000 F3600.000 
G1 X24.144 Y182.969 Z-15.500 F3600.000 
G1 X22.307 Y181.132 Z-17.000 F3600.000 
G1 X64.737 Y223.562 Z-17.000 F3600.000 
G1 X61.188 Y227.111 Z-17.000 F3600.000 
G1 X18.758 Y184.681 Z-17.000 F3600.000 
G1 X22.307 Y181.132 Z-17.000 F3600.000 
G1 X24.144 Y182.969 Z-18.500 F3600.000 
G1 X22.307 Y181.132 Z-20.000 F3600.000 
G1 X64.737 Y223.562 Z-20.000 F3600.000 
G1 X61.188 Y227.111 Z-20.000 F3600.000 
G1 X18.758 Y184.681 Z-20.000 F3600.000 
G1 X22.307 Y181.132 Z-20.000 F3600.000 
G1 X24.144 Y182.969 Z-21.500 F3600.000 
G1 X22.307 Y181.132 Z-23.000 F3600.000 
G1 X64.737 Y223.562 Z-23.000 F3600.000 
G1 X61.188 Y227.111 Z-23.000 F3600.000 
G1 X18.758 Y184.681 Z-23.000 F3600.000 
G1 X22.307 Y181.132 Z-23.000 F3600.000 
G1 X24.144 Y182.969 Z-24.500 F3600.000 
G1 X22.307 Y181.132 Z-26.000 F3600.000 
G1 X64.737 Y223.562 Z-26.000 F3600.000 
G1 X61.188 Y227.111 Z-26.000 F3600.000 
G1 X18.758 Y184.681 Z-26.000 F3600.000 
G1 X22.307 Y181.132 Z-26.000 F3600.000 
G0 X22.307 Y181.132 Z10.000 
G0 X22.323 Y221.102 Z10.000 
G0 X22.323 Y221.102 Z7.000 
G1 X27.835 Y226.613 Z2.500 F3600.000 
G1 X22.323 Y221.102 Z-2.000 F3600.000 
G1 X64.753 Y263.532 Z-2.000 F3600.000 
G1 X61.204 Y267.081 Z-2.000 F3600.000 
G1 X18.774 Y224.651 Z-2.000 F3600.000 
G1 X22.323 Y221.102 Z-2.000 F3600.000 
G1 X24.160 Y222.939 Z-3.500 F3600.000 
G1 X22.323 Y221.102 Z-5.000 F3600.000 
G1 X64.753 Y263.532 Z-5.000 F3600.000 
G1 X61.204 Y267.081 Z-5.000 F3600.000 
G1 X18.774 Y224.651 Z-5.000 F3600.000 
G1 X22.323 Y221.102 Z-5.000 F3600.000 
G1 X24.160 Y222.939 Z-6.500 F3600.000 
G1 X22.323 Y221.102 Z-8.000 F3600.000 
G1 X64.753 Y263.532 Z-8.000 F3600.000 
G1 X61.204 Y267.081 Z-8.000 F3600.000 
G1 X18.774 Y224.651 Z-8.000 F3600.000 
G1 X22.323 Y221.102 Z-8.000 F3600.000 
G1 X24.160 Y222.939 Z-9.500 F3600.000 
G1 X22.323 Y221.102 Z-11.000 F3600.000 
G1 X64.753 Y263.532 Z-11.000 F3600.000 
G1 X61.204 Y267.081 Z-11.000 F3600.000 
G1 X18.774 Y224.651 Z-11.000 F3600.000 
G1 X22.323 Y221.102 Z-11.000 F3600.000 
G1 X24.160 Y222.939 Z-12.500 F3600.000 
G1 X22.323 Y221.102 Z-14.000 F3600.000 
G1 X64.753 Y263.532 Z-14.000 F3600.000 
G1 X61.204 Y267.081 Z-14.000 F3600.000 
G1 X18.774 Y224.651 Z-14.000 F3600.000 
G1 X22.323 Y221.102 Z-14.000 F3600.000 
G1 X24.160 Y222.939 Z-15.500 F3600.000 
G1 X22.323 Y221.102 Z-17.000 F3600.000 
G1 X64.753 Y263.532 Z-17.000 F3600.000 
G1 X61.204 Y267.081 Z-17.000 F3600.000 
G1 X18.774 Y224.651 Z-17.000 F3600.000 
G1 X22.323 Y221.102 Z-17.000 F3600.000 
G1 X24.160 Y222.939 Z-18.500 F3600.000 
G1 X22.323 Y221.102 Z-20.000 F3600.000 
G1 X64.753 Y263.532 Z-20.000 F3600.000 
G1 X61.204 Y267.081 Z-20.000 F3600.000 
G1 X18.774 Y224.651 Z-20.000 F3600.000 
G1 X22.323 Y221.102 Z-20.000 F3600.000 
G1 X24.160 Y222.939 Z-21.500 F3600.000 
G1 X22.323 Y221.102 Z-23.000 F3600.000 
G1 X64.753 Y263.532 Z-23.000 F3600.000 
G1 X61.204 Y267.081 Z-23.000 F3600.000 
G1 X18.774 Y224.651 Z-23.000 F3600.000 
G1 X22.323 Y221.102 Z-23.000 F3600.000 
G1 X24.160 Y222.939 Z-24.500 F3600.000 
G1 X22.323 Y221.102 Z-26.000 F3600.000 
G1 X64.753 Y263.532 Z-26.000 F3600.000 
G1 X61.204 Y267.081 Z-26.000 F3600.000 
G1 X18.774 Y224.651 Z-26.000 F3600.000 
G1 X22.323 Y221.102 Z-26.000 F3600.000 
G0 X22.323 Y221.102 Z10.000 
G0 X22.338 Y261.088 Z10.000 
G0 X22.338 Y261.088 Z7.000 
G1 X27.849 Y266.599 Z2.500 F3600.000 
G1 X22.338 Y261.088 Z-2.000 F3600.000 
G1 X64.768 Y303.518 Z-2.000 F3600.000 
G1 X61.218 Y307.067 Z-2.000 F3600.000 
G1 X18.788 Y264.637 Z-2.000 F3600.000 
G1 X22.338 Y261.088 Z-2.000 F3600.000 
G1 X24.175 Y262.925 Z-3.500 F3600.000 
G1 X22.338 Y261.088 Z-5.000 F3600.000 
G1 X64.768 Y303.518 Z-5.000 F3600.000 
G1 X61.218 Y307.067 Z-5.000 F3600.000 
G1 X18.788 Y264.637 Z-5.000 F3600.000 
G1 X22.338 Y261.088 Z-5.000 F3600.000 
G1 X24.175 Y262.925 Z-6.500 F3600.000 
G1 X22.338 Y261.088 Z-8.000 F3600.000 
G1 X64.768 Y303.518 Z-8.000 F3600.000 
G1 X61.218 Y307.067 Z-8.000 F3600.000 
G1 X18.788 Y264.637 Z-8.000 F3600.000 
G1 X22.338 Y261.088 Z-8.000 F3600.000 
G1 X24.175 Y262.925 Z-9.500 F3600.000 
G1 X22.338 Y261.088 Z-11.000 F3600.000 
G1 X64.768 Y303.518 Z-11.000 F3600.000 
G1 X61.218 Y307.067 Z-11.000 F3600.000 
G1 X18.788 Y264.637 Z-11.000 F3600.000 
G1 X22.338 Y261.088 Z-11.000 F3600.000 
G1 X24.175 Y262.925 Z-12.500 F3600.000 
G1 X22.338 Y261.088 Z-14.000 F3600.000 
G1 X64.768 Y303.518 Z-14.000 F3600.000 
G1 X61.218 Y307.067 Z-14.000 F3600.000 
G1 X18.788 Y264.637 Z-14.000 F3600.000 
G1 X22.338 Y261.088 Z-14.000 F3600.000 
G1 X24.175 Y262.925 Z-15.500 F3600.000 
G1 X22.338 Y261.088 Z-17.000 F3600.000 
G1 X64.768 Y303.518 Z-17.000 F3600.000 
G1 X61.218 Y307.067 Z-17.000 F3600.000 
G1 X18.788 Y264.637 Z-17.000 F3600.000 
G1 X22.338 Y261.088 Z-17.000 F3600.000 
G1 X24.175 Y262.925 Z-18.500 F3600.000 
G1 X22.338 Y261.088 Z-20.000 F3600.000 
G1 X64.768 Y303.518 Z-20.000 F3600.000 
G1 X61.218 Y307.067 Z-20.000 F3600.000 
G1 X18.788 Y264.637 Z-20.000 F3600.000 
G1 X22.338 Y261.088 Z-20.000 F3600.000 
G1 X24.175 Y262.925 Z-21.500 F3600.000 
G1 X22.338 Y261.088 Z-23.000 F3600.000 
G1 X64.768 Y303.518 Z-23.000 F3600.000 
G1 X61.218 Y307.067 Z-23.000 F3600.000 
G1 X18.788 Y264.637 Z-23.000 F3600.000 
G1 X22.338 Y261.088 Z-23.000 F3600.000 
G1 X24.175 Y262.925 Z-24.500 F3600.000 
G1 X22.338 Y261.088 Z-26.000 F3600.000 
G1 X64.768 Y303.518 Z-26.000 F3600.000 
G1 X61.218 Y307.067 Z-26.000 F3600.000 
G1 X18.788 Y264.637 Z-26.000 F3600.000 
G1 X22.338 Y261.088 Z-26.000 F3600.000 
G0 X22.338 Y261.088 Z10.000 
G0 X22.367 Y301.075 Z10.000 
G0 X22.367 Y301.075 Z7.000 
G1 X27.879 Y306.587 Z2.500 F3600.000 
G1 X22.367 Y301.075 Z-2.000 F3600.000 
G1 X64.797 Y343.505 Z-2.000 F3600.000 
G1 X61.248 Y347.055 Z-2.000 F3600.000 
G1 X18.818 Y304.625 Z-2.000 F3600.000 
G1 X22.367 Y301.075 Z-2.000 F3600.000 
G1 X24.205 Y302.912 Z-3.500 F3600.000 
G1 X22.367 Y301.075 Z-5.000 F3600.000 
G1 X64.797 Y343.505 Z-5.000 F3600.000 
G1 X61.248 Y347.055 Z-5.000 F3600.000 
G1 X18.818 Y304.625 Z-5.000 F3600.000 
G1 X22.367 Y301.075 Z-5.000 F3600.000 
G1 X24.205 Y302.912 Z-6.500 F3600.000 
G1 X22.367 Y301.075 Z-8.000 F3600.000 
G1 X64.797 Y343.505 Z-8.000 F3600.000 
G1 X61.248 Y347.055 Z-8.000 F3600.000 
G1 X18.818 Y304.625 Z-8.000 F3600.000 
G1 X22.367 Y301.075 Z-8.000 F3600.000 
G1 X24.205 Y302.912 Z-9.500 F3600.000 
G1 X22.367 Y301.075 Z-11.000 F3600.000 
G1 X64.797 Y343.505 Z-11.000 F3600.000 
G1 X61.248 Y347.055 Z-11.000 F3600.000 
G1 X18.818 Y304.625 Z-11.000 F3600.000 
G1 X22.367 Y301.075 Z-11.000 F3600.000 
G1 X24.205 Y302.912 Z-12.500 F3600.000 
G1 X22.367 Y301.075 Z-14.000 F3600.000 
G1 X64.797 Y343.505 Z-14.000 F3600.000 
G1 X61.248 Y347.055 Z-14.000 F3600.000 
G1 X18.818 Y304.625 Z-14.000 F3600.000 
G1 X22.367 Y301.075 Z-14.000 F3600.000 
G1 X24.205 Y302.912 Z-15.500 F3600.000 
G1 X22.367 Y301.075 Z-17.000 F3600.000 
G1 X64.797 Y343.505 Z-17.000 F3600.000 
G1 X61.248 Y347.055 Z-17.000 F3600.000 
G1 X18.818 Y304.625 Z-17.000 F3600.000 
G1 X22.367 Y301.075 Z-17.000 F3600.000 
G1 X24.205 Y302.912 Z-18.500 F3600.000 
G1 X22.367 Y301.075 Z-20.000 F3600.000 
G1 X64.797 Y343.505 Z-20.000 F3600.000 
G1 X61.248 Y347.055 Z-20.000 F3600.000 
G1 X18.818 Y304.625 Z-20.000 F3600.000 
G1 X22.367 Y301.075 Z-20.000 F3600.000 
G1 X24.205 Y302.912 Z-21.500 F3600.000 
G1 X22.367 Y301.075 Z-23.000 F3600.000 
G1 X64.797 Y343.505 Z-23.000 F3600.000 
G1 X61.248 Y347.055 Z-23.000 F3600.000 
G1 X18.818 Y304.625 Z-23.000 F3600.000 
G1 X22.367 Y301.075 Z-23.000 F3600.000 
G1 X24.205 Y302.912 Z-24.500 F3600.000 
G1 X22.367 Y301.075 Z-26.000 F3600.000 
G1 X64.797 Y343.505 Z-26.000 F3600.000 
G1 X61.248 Y347.055 Z-26.000 F3600.000 
G1 X18.818 Y304.625 Z-26.000 F3600.000 
G1 X22.367 Y301.075 Z-26.000 F3600.000 
G0 X22.367 Y301.075 Z10.000 
G0 X22.400 Y341.113 Z10.000 
G0 X22.400 Y341.113 Z7.000 
G1 X27.912 Y346.625 Z2.500 F3600.000 
G1 X22.400 Y341.113 Z-2.000 F3600.000 
G1 X64.830 Y383.543 Z-2.000 F3600.000 
G1 X61.281 Y387.093 Z-2.000 F3600.000 
G1 X18.851 Y344.663 Z-2.000 F3600.000 
G1 X22.400 Y341.113 Z-2.000 F3600.000 
G1 X24.237 Y342.950 Z-3.500 F3600.000 
G1 X22.400 Y341.113 Z-5.000 F3600.000 
G1 X64.830 Y383.543 Z-5.000 F3600.000 
G1 X61.281 Y387.093 Z-5.000 F3600.000 
G1 X18.851 Y344.663 Z-5.000 F3600.000 
G1 X22.400 Y341.113 Z-5.000 F3600.000 
G1 X24.237 Y342.950 Z-6.500 F3600.000 
G1 X22.400 Y341.113 Z-8.000 F3600.000 
G1 X64.830 Y383.543 Z-8.000 F3600.000 
G1 X61.281 Y387.093 Z-8.000 F3600.000 
G1 X18.851 Y344.663 Z-8.000 F3600.000 
G1 X22.400 Y341.113 Z-8.000 F3600.000 
G1 X24.237 Y342.950 Z-9.500 F3600.000 
G1 X22.400 Y341.113 Z-11.000 F3600.000 
G1 X64.830 Y383.543 Z-11.000 F3600.000 
G1 X61.281 Y387.093 Z-11.000 F3600.000 
G1 X18.851 Y344.663 Z-11.000 F3600.000 
G1 X22.400 Y341.113 Z-11.000 F3600.000 
G1 X24.237 Y342.950 Z-12.500 F3600.000 
G1 X22.400 Y341.113 Z-14.000 F3600.000 
G1 X64.830 Y383.543 Z-14.000 F3600.000 
G1 X61.281 Y387.093 Z-14.000 F3600.000 
G1 X18.851 Y344.663 Z-14.000 F3600.000 
G1 X22.400 Y341.113 Z-14.000 F3600.000 
G1 X24.237 Y342.950 Z-15.500 F3600.000 
G1 X22.400 Y341.113 Z-17.000 F3600.000 
G1 X64.830 Y383.543 Z-17.000 F3600.000 
G1 X61.281 Y387.093 Z-17.000 F3600.000 
G1 X18.851 Y344.663 Z-17.000 F3600.000 
G1 X22.400 Y341.113 Z-17.000 F3600.000 
G1 X24.237 Y342.950 Z-18.500 F3600.000 
G1 X22.400 Y341.113 Z-20.000 F3600.000 
G1 X64.830 Y383.543 Z-20.000 F3600.000 
G1 X61.281 Y387.093 Z-20.000 F3600.000 
G1 X18.851 Y344.663 Z-20.000 F3600.000 
G1 X22.400 Y341.113 Z-20.000 F3600.000 
G1 X24.237 Y342.950 Z-21.500 F3600.000 
G1 X22.400 Y341.113 Z-23.000 F3600.000 
G1 X64.830 Y383.543 Z-23.000 F3600.000 
G1 X61.281 Y387.093 Z-23.000 F3600.000 
G1 X18.851 Y344.663 Z-23.000 F3600.000 
G1 X22.400 Y341.113 Z-23.000 F3600.000 
G1 X24.237 Y342.950 Z-24.500 F3600.000 
G1 X22.400 Y341.113 Z-26.000 F3600.000 
G1 X64.830 Y383.543 Z-26.000 F3600.000 
G1 X61.281 Y387.093 Z-26.000 F3600.000 
G1 X18.851 Y344.663 Z-26.000 F3600.000 
G1 X22.400 Y341.113 Z-26.000 F3600.000 
G0 X22.400 Y341.113 Z10.000 
G0 X22.434 Y381.069 Z10.000 
G0 X22.434 Y381.069 Z7.000 
G1 X27.945 Y386.580 Z2.500 F3600.000 
G1 X22.434 Y381.069 Z-2.000 F3600.000 
G1 X64.864 Y423.499 Z-2.000 F3600.000 
G1 X61.314 Y427.048 Z-2.000 F3600.000 
G1 X18.884 Y384.618 Z-2.000 F3600.000 
G1 X22.434 Y381.069 Z-2.000 F3600.000 
G1 X24.271 Y382.906 Z-3.500 F3600.000 
G1 X22.434 Y381.069 Z-5.000 F3600.000 
G1 X64.864 Y423.499 Z-5.000 F3600.000 
G1 X61.314 Y427.048 Z-5.000 F3600.000 
G1 X18.884 Y384.618 Z-5.000 F3600.000 
G1 X22.434 Y381.069 Z-5.000 F3600.000 
G1 X24.271 Y382.906 Z-6.500 F3600.000 
G1 X22.434 Y381.069 Z-8.000 F3600.000 
G1 X64.864 Y423.499 Z-8.000 F3600.000 
G1 X61.314 Y427.048 Z-8.000 F3600.000 
G1 X18.884 Y384.618 Z-8.000 F3600.000 
G1 X22.434 Y381.069 Z-8.000 F3600.000 
G1 X24.271 Y382.906 Z-9.500 F3600.000 
G1 X22.434 Y381.069 Z-11.000 F3600.000 
G1 X64.864 Y423.499 Z-11.000 F3600.000 
G1 X61.314 Y427.048 Z-11.000 F3600.000 
G1 X18.884 Y384.618 Z-11.000 F3600.000 
G1 X22.434 Y381.069 Z-11.000 F3600.000 
G1 X24.271 Y382.906 Z-12.500 F3600.000 
G1 X22.434 Y381.069 Z-14.000 F3600.000 
G1 X64.864 Y423.499 Z-14.000 F3600.000 
G1 X61.314 Y427.048 Z-14.000 F3600.000 
G1 X18.884 Y384.618 Z-14.000 F3600.000 
G1 X22.434 Y381.069 Z-14.000 F3600.000 
G1 X24.271 Y382.906 Z-15.500 F3600.000 
G1 X22.434 Y381.069 Z-17.000 F3600.000 
G1 X64.864 Y423.499 Z-17.000 F3600.000 
G1 X61.314 Y427.048 Z-17.000 F3600.000 
G1 X18.884 Y384.618 Z-17.000 F3600.000 
G1 X22.434 Y381.069 Z-17.000 F3600.000 
G1 X24.271 Y382.906 Z-18.500 F3600.000 
G1 X22.434 Y381.069 Z-20.000 F3600.000 
G1 X64.864 Y423.499 Z-20.000 F3600.000 
G1 X61.314 Y427.048 Z-20.000 F3600.000 
G1 X18.884 Y384.618 Z-20.000 F3600.000 
G1 X22.434 Y381.069 Z-20.000 F3600.000 
G1 X24.271 Y382.906 Z-21.500 F3600.000 
G1 X22.434 Y381.069 Z-23.000 F3600.000 
G1 X64.864 Y423.499 Z-23.000 F3600.000 
G1 X61.314 Y427.048 Z-23.000 F3600.000 
G1 X18.884 Y384.618 Z-23.000 F3600.000 
G1 X22.434 Y381.069 Z-23.000 F3600.000 
G1 X24.271 Y382.906 Z-24.500 F3600.000 
G1 X22.434 Y381.069 Z-26.000 F3600.000 
G1 X64.864 Y423.499 Z-26.000 F3600.000 
G1 X61.314 Y427.048 Z-26.000 F3600.000 
G1 X18.884 Y384.618 Z-26.000 F3600.000 
G1 X22.434 Y381.069 Z-26.000 F3600.000 
G0 X22.434 Y381.069 Z10.000 
(finish operation: RampEntryDressup)
(begin postamble)
M05
G17 G54 G90 G80 G40
M2
