(Exported by FreeCAD)
(Post Processor: linuxcnc_post)
(Output Time:2021-08-22 21:51:51.952598)
(begin preamble)
G17 G54 G40 G49 G80 G90
G21
(begin operation: Fixture)
(machine: not set, mm/min)
G54 
(finish operation: Fixture)
(begin operation: 6mm Endmill002)
(machine: not set, mm/min)
(6mm Endmill002) 
M5
M6 T1 
G43 H1 
M3 S12000 
(finish operation: 6mm Endmill002)
(begin operation: RampEntryDressup001)
(machine: not set, mm/min)
G0 X0.000 Y0.000 Z10.000 
G0 X106.198 Y449.212 Z10.000 
G0 X106.198 Y449.212 Z7.000 
G1 X106.862 Y448.492 Z6.446 F3600.000 
G1 X107.468 Y447.729 Z5.884 F3600.000 
G1 X108.014 Y446.925 Z5.318 F3600.000 
G1 X108.498 Y446.084 Z4.750 F3600.000 
G1 X108.917 Y445.208 Z4.182 F3600.000 
G1 X109.271 Y444.303 Z3.616 F3600.000 
G1 X109.557 Y443.371 Z3.054 F3600.000 
G1 X109.774 Y442.417 Z2.500 F3600.000 
G1 X109.557 Y443.371 Z1.946 F3600.000 
G1 X109.271 Y444.303 Z1.384 F3600.000 
G1 X108.917 Y445.208 Z0.818 F3600.000 
G1 X108.498 Y446.084 Z0.250 F3600.000 
G1 X108.014 Y446.925 Z-0.318 F3600.000 
G1 X107.468 Y447.729 Z-0.884 F3600.000 
G1 X106.862 Y448.492 Z-1.446 F3600.000 
G1 X106.198 Y449.212 Z-2.000 F3600.000 
G2 X109.997 Y440.130 Z-2.000 I-9.239 J-9.200 F3600.000 
G1 X110.000 Y10.206 Z-2.000 F3600.000 
G2 X97.819 Y-3.000 Z-2.000 I-12.977 J-0.251 F3600.000 
G1 X8.937 Y-3.000 Z-2.000 F3600.000 
G2 X-2.997 Y9.868 Z-2.000 I1.099 J12.987 F3600.000 
G1 X-3.000 Y440.016 Z-2.000 F3600.000 
G2 X9.084 Y453.000 Z-2.000 I13.015 J0.002 F3600.000 
G1 X98.102 Y453.000 Z-2.000 F3600.000 
G2 X106.198 Y449.212 Z-2.000 I-1.142 J-12.988 F3600.000 
G1 X106.789 Y448.578 Z-2.500 F3600.000 
G1 X107.336 Y447.907 Z-3.000 F3600.000 
G1 X107.837 Y447.201 Z-3.500 F3600.000 
G1 X107.336 Y447.907 Z-4.000 F3600.000 
G1 X106.789 Y448.578 Z-4.500 F3600.000 
G1 X106.198 Y449.212 Z-5.000 F3600.000 
G2 X109.997 Y440.130 Z-5.000 I-9.239 J-9.200 F3600.000 
G1 X110.000 Y10.206 Z-5.000 F3600.000 
G2 X97.819 Y-3.000 Z-5.000 I-12.977 J-0.251 F3600.000 
G1 X8.937 Y-3.000 Z-5.000 F3600.000 
G2 X-2.997 Y9.868 Z-5.000 I1.099 J12.987 F3600.000 
G1 X-3.000 Y440.016 Z-5.000 F3600.000 
G2 X9.084 Y453.000 Z-5.000 I13.015 J0.002 F3600.000 
G1 X98.102 Y453.000 Z-5.000 F3600.000 
G2 X106.198 Y449.212 Z-5.000 I-1.142 J-12.988 F3600.000 
G1 X106.789 Y448.578 Z-5.500 F3600.000 
G1 X107.336 Y447.907 Z-6.000 F3600.000 
G1 X107.837 Y447.201 Z-6.500 F3600.000 
G1 X107.336 Y447.907 Z-7.000 F3600.000 
G1 X106.789 Y448.578 Z-7.500 F3600.000 
G1 X106.198 Y449.212 Z-8.000 F3600.000 
G2 X109.997 Y440.130 Z-8.000 I-9.239 J-9.200 F3600.000 
G1 X110.000 Y10.206 Z-8.000 F3600.000 
G2 X97.819 Y-3.000 Z-8.000 I-12.977 J-0.251 F3600.000 
G1 X8.937 Y-3.000 Z-8.000 F3600.000 
G2 X-2.997 Y9.868 Z-8.000 I1.099 J12.987 F3600.000 
G1 X-3.000 Y440.016 Z-8.000 F3600.000 
G2 X9.084 Y453.000 Z-8.000 I13.015 J0.002 F3600.000 
G1 X98.102 Y453.000 Z-8.000 F3600.000 
G2 X106.198 Y449.212 Z-8.000 I-1.142 J-12.988 F3600.000 
G1 X106.789 Y448.578 Z-8.500 F3600.000 
G1 X107.336 Y447.907 Z-9.000 F3600.000 
G1 X107.837 Y447.201 Z-9.500 F3600.000 
G1 X107.336 Y447.907 Z-10.000 F3600.000 
G1 X106.789 Y448.578 Z-10.500 F3600.000 
G1 X106.198 Y449.212 Z-11.000 F3600.000 
G2 X109.997 Y440.130 Z-11.000 I-9.239 J-9.200 F3600.000 
G1 X110.000 Y10.206 Z-11.000 F3600.000 
G2 X97.819 Y-3.000 Z-11.000 I-12.977 J-0.251 F3600.000 
G1 X8.937 Y-3.000 Z-11.000 F3600.000 
G2 X-2.997 Y9.868 Z-11.000 I1.099 J12.987 F3600.000 
G1 X-3.000 Y440.016 Z-11.000 F3600.000 
G2 X9.084 Y453.000 Z-11.000 I13.015 J0.002 F3600.000 
G1 X98.102 Y453.000 Z-11.000 F3600.000 
G2 X106.198 Y449.212 Z-11.000 I-1.142 J-12.988 F3600.000 
G1 X106.789 Y448.578 Z-11.500 F3600.000 
G1 X107.336 Y447.907 Z-12.000 F3600.000 
G1 X107.837 Y447.201 Z-12.500 F3600.000 
G1 X107.336 Y447.907 Z-13.000 F3600.000 
G1 X106.789 Y448.578 Z-13.500 F3600.000 
G1 X106.198 Y449.212 Z-14.000 F3600.000 
G2 X109.997 Y440.130 Z-14.000 I-9.239 J-9.200 F3600.000 
G1 X110.000 Y10.206 Z-14.000 F3600.000 
G2 X97.819 Y-3.000 Z-14.000 I-12.977 J-0.251 F3600.000 
G1 X8.937 Y-3.000 Z-14.000 F3600.000 
G2 X-2.997 Y9.868 Z-14.000 I1.099 J12.987 F3600.000 
G1 X-3.000 Y440.016 Z-14.000 F3600.000 
G2 X9.084 Y453.000 Z-14.000 I13.015 J0.002 F3600.000 
G1 X98.102 Y453.000 Z-14.000 F3600.000 
G2 X106.198 Y449.212 Z-14.000 I-1.142 J-12.988 F3600.000 
G1 X106.789 Y448.578 Z-14.500 F3600.000 
G1 X107.336 Y447.907 Z-15.000 F3600.000 
G1 X107.837 Y447.201 Z-15.500 F3600.000 
G1 X107.336 Y447.907 Z-16.000 F3600.000 
G1 X106.789 Y448.578 Z-16.500 F3600.000 
G1 X106.198 Y449.212 Z-17.000 F3600.000 
G2 X109.997 Y440.130 Z-17.000 I-9.239 J-9.200 F3600.000 
G1 X110.000 Y10.206 Z-17.000 F3600.000 
G2 X97.819 Y-3.000 Z-17.000 I-12.977 J-0.251 F3600.000 
G1 X8.937 Y-3.000 Z-17.000 F3600.000 
G2 X-2.997 Y9.868 Z-17.000 I1.099 J12.987 F3600.000 
G1 X-3.000 Y440.016 Z-17.000 F3600.000 
G2 X9.084 Y453.000 Z-17.000 I13.015 J0.002 F3600.000 
G1 X98.102 Y453.000 Z-17.000 F3600.000 
G2 X106.198 Y449.212 Z-17.000 I-1.142 J-12.988 F3600.000 
G1 X106.789 Y448.578 Z-17.500 F3600.000 
G1 X107.336 Y447.907 Z-18.000 F3600.000 
G1 X107.837 Y447.201 Z-18.500 F3600.000 
G1 X107.336 Y447.907 Z-19.000 F3600.000 
G1 X106.789 Y448.578 Z-19.500 F3600.000 
G1 X106.198 Y449.212 Z-20.000 F3600.000 
G2 X109.997 Y440.130 Z-20.000 I-9.239 J-9.200 F3600.000 
G1 X110.000 Y10.206 Z-20.000 F3600.000 
G2 X97.819 Y-3.000 Z-20.000 I-12.977 J-0.251 F3600.000 
G1 X8.937 Y-3.000 Z-20.000 F3600.000 
G2 X-2.997 Y9.868 Z-20.000 I1.099 J12.987 F3600.000 
G1 X-3.000 Y440.016 Z-20.000 F3600.000 
G2 X9.084 Y453.000 Z-20.000 I13.015 J0.002 F3600.000 
G1 X98.102 Y453.000 Z-20.000 F3600.000 
G2 X106.198 Y449.212 Z-20.000 I-1.142 J-12.988 F3600.000 
G1 X106.789 Y448.578 Z-20.500 F3600.000 
G1 X107.336 Y447.907 Z-21.000 F3600.000 
G1 X107.837 Y447.201 Z-21.500 F3600.000 
G1 X107.336 Y447.907 Z-22.000 F3600.000 
G1 X106.789 Y448.578 Z-22.500 F3600.000 
G1 X106.198 Y449.212 Z-23.000 F3600.000 
G2 X109.997 Y440.130 Z-23.000 I-9.239 J-9.200 F3600.000 
G1 X110.000 Y10.206 Z-23.000 F3600.000 
G2 X97.819 Y-3.000 Z-23.000 I-12.977 J-0.251 F3600.000 
G1 X8.937 Y-3.000 Z-23.000 F3600.000 
G2 X-2.997 Y9.868 Z-23.000 I1.099 J12.987 F3600.000 
G1 X-3.000 Y440.016 Z-23.000 F3600.000 
G2 X9.084 Y453.000 Z-23.000 I13.015 J0.002 F3600.000 
G1 X98.102 Y453.000 Z-23.000 F3600.000 
G2 X106.198 Y449.212 Z-23.000 I-1.142 J-12.988 F3600.000 
G1 X106.789 Y448.578 Z-23.500 F3600.000 
G1 X107.336 Y447.907 Z-24.000 F3600.000 
G1 X107.837 Y447.201 Z-24.500 F3600.000 
G1 X107.336 Y447.907 Z-25.000 F3600.000 
G1 X106.789 Y448.578 Z-25.500 F3600.000 
G1 X106.198 Y449.212 Z-26.000 F3600.000 
G2 X109.997 Y440.130 Z-26.000 I-9.239 J-9.200 F3600.000 
G1 X110.000 Y10.206 Z-26.000 F3600.000 
G2 X97.819 Y-3.000 Z-26.000 I-12.977 J-0.251 F3600.000 
G1 X8.937 Y-3.000 Z-26.000 F3600.000 
G2 X-2.997 Y9.868 Z-26.000 I1.099 J12.987 F3600.000 
G1 X-3.000 Y440.016 Z-26.000 F3600.000 
G2 X9.084 Y453.000 Z-26.000 I13.015 J0.002 F3600.000 
G1 X98.102 Y453.000 Z-26.000 F3600.000 
G2 X106.198 Y449.212 Z-26.000 I-1.142 J-12.988 F3600.000 
G1 X106.789 Y448.579 Z-26.500 F3600.000 
G1 X106.198 Y449.212 Z-27.000 F3600.000 
G2 X109.997 Y440.130 Z-27.000 I-9.239 J-9.200 F3600.000 
G1 X110.000 Y10.206 Z-27.000 F3600.000 
G2 X97.819 Y-3.000 Z-27.000 I-12.977 J-0.251 F3600.000 
G1 X8.937 Y-3.000 Z-27.000 F3600.000 
G2 X-2.997 Y9.868 Z-27.000 I1.099 J12.987 F3600.000 
G1 X-3.000 Y440.016 Z-27.000 F3600.000 
G2 X9.084 Y453.000 Z-27.000 I13.015 J0.002 F3600.000 
G1 X98.102 Y453.000 Z-27.000 F3600.000 
G2 X106.198 Y449.212 Z-27.000 I-1.142 J-12.988 F3600.000 
G0 X106.198 Y449.212 Z10.000 
(finish operation: RampEntryDressup001)
(begin postamble)
M05
G17 G54 G90 G80 G40
M2
