%
(1001)
(T1  D=6. CR=0. - ZMIN=-20. - FLAT END MILL)
N10 G90 G94 G17 G91.1
N15 G21
N20 G53 G0 Z0.
(2D POCKET1)
N25 M9
N30 T1 M6
N35 S22000 M3
N40 G54
N45 G0 X277.045 Y612.229
N50 G43 Z15. H1
N55 G0 Z5.
N60 G1 Z1.6 F500.
N65 X277.038 Y612.202 Z1.418 F333.33
N70 X277.017 Y612.123 Z1.254
N75 X276.979 Y612.001 Z1.122
N80 X276.924 Y611.85 Z1.034
N85 X276.852 Y611.684 Z1.
N90 G2 X271.699 Y614.122 Z0.687 I-2.576 J1.219
N95 X276.852 Y611.684 Z0.375 I2.576 J-1.219
N100 X271.699 Y614.122 Z0.062 I-2.576 J1.219
N105 X276.852 Y611.684 Z-0.251 I2.576 J-1.219
N110 X271.699 Y614.122 Z-0.563 I-2.576 J1.219
N115 X276.852 Y611.684 Z-0.876 I2.576 J-1.219
N120 X271.699 Y614.122 Z-1.189 I-2.576 J1.219
N125 X276.852 Y611.684 Z-1.501 I2.576 J-1.219
N130 X271.699 Y614.122 Z-1.814 I-2.576 J1.219
N135 X276.852 Y611.684 Z-2.127 I2.576 J-1.219
N140 X271.699 Y614.122 Z-2.439 I-2.576 J1.219
N145 X276.852 Y611.684 Z-2.752 I2.576 J-1.219
N150 X271.699 Y614.122 Z-3.065 I-2.576 J1.219
N155 X277.126 Y612.903 Z-3.333 I2.576 J-1.219
N160 X272.571 I-2.277 J0.
N165 G1 Y912.903 F1200.
N170 G2 X274.781 I1.105 J0.
N175 G1 Y612.903
N180 G2 X272.571 I-1.105 J0.
N185 G3 X271.374 Y614.699 I-1.946 J0.
N190 G2 X270.176 Y616.495 I0.748 J1.796
N195 G1 Y912.903
N200 G2 X277.176 I3.5 J0.
N205 G1 Y612.903
N210 G2 X270.176 I-3.5 J0.
N215 G1 Y616.495
N220 G2 X270.604 Y616.728 I0.277 J0.
N225 G1 X271.69 Y616.023
N230 X272.765 Y615.279
N235 G2 X272.62 Y615.069 I-0.073 J-0.105
N240 X272.644 Y615.292 I0.073 J0.105
N245 G1 X272.895 Y615.396
N250 G2 X275.657 Y610.41 Z-3.646 I1.381 J-2.493 F333.33
N255 X272.895 Y615.396 Z-3.959 I-1.381 J2.493
N260 X275.657 Y610.41 Z-4.271 I1.381 J-2.493
N265 X272.895 Y615.396 Z-4.584 I-1.381 J2.493
N270 X275.657 Y610.41 Z-4.897 I1.381 J-2.493
N275 X272.895 Y615.396 Z-5.209 I-1.381 J2.493
N280 X275.657 Y610.41 Z-5.522 I1.381 J-2.493
N285 X272.895 Y615.396 Z-5.835 I-1.381 J2.493
N290 X275.657 Y610.41 Z-6.147 I1.381 J-2.493
N295 X272.895 Y615.396 Z-6.46 I-1.381 J2.493
N300 X277.126 Y612.903 Z-6.667 I1.381 J-2.493
N305 X272.571 I-2.277 J0.
N310 G1 Y912.903 F1200.
N315 G2 X274.781 I1.105 J0.
N320 G1 Y612.903
N325 G2 X272.571 I-1.105 J0.
N330 G3 X271.374 Y614.699 I-1.946 J0.
N335 G2 X270.176 Y616.495 I0.748 J1.796
N340 G1 Y912.903
N345 G2 X277.176 I3.5 J0.
N350 G1 Y612.903
N355 G2 X270.176 I-3.5 J0.
N360 G1 Y616.495
N365 G2 X270.604 Y616.728 I0.277 J0.
N370 G1 X271.69 Y616.023
N375 X272.765 Y615.279
N380 G2 X272.62 Y615.069 I-0.073 J-0.105
N385 X272.644 Y615.292 I0.073 J0.105
N390 G1 X272.895 Y615.396
N395 G2 X275.657 Y610.41 Z-6.979 I1.381 J-2.493 F333.33
N400 X272.895 Y615.396 Z-7.292 I-1.381 J2.493
N405 X275.657 Y610.41 Z-7.605 I1.381 J-2.493
N410 X272.895 Y615.396 Z-7.917 I-1.381 J2.493
N415 X275.657 Y610.41 Z-8.23 I1.381 J-2.493
N420 X272.895 Y615.396 Z-8.543 I-1.381 J2.493
N425 X275.657 Y610.41 Z-8.855 I1.381 J-2.493
N430 X272.895 Y615.396 Z-9.168 I-1.381 J2.493
N435 X275.657 Y610.41 Z-9.481 I1.381 J-2.493
N440 X272.895 Y615.396 Z-9.793 I-1.381 J2.493
N445 X277.126 Y612.903 Z-10. I1.381 J-2.493
N450 X272.571 I-2.277 J0.
N455 G1 Y912.903 F1200.
N460 G2 X274.781 I1.105 J0.
N465 G1 Y612.903
N470 G2 X272.571 I-1.105 J0.
N475 G3 X271.374 Y614.699 I-1.946 J0.
N480 G2 X270.176 Y616.495 I0.748 J1.796
N485 G1 Y912.903
N490 G2 X277.176 I3.5 J0.
N495 G1 Y612.903
N500 G2 X270.176 I-3.5 J0.
N505 G1 Y616.495
N510 G2 X270.604 Y616.728 I0.277 J0.
N515 G1 X271.69 Y616.023
N520 X272.765 Y615.279
N525 G2 X272.62 Y615.069 I-0.073 J-0.105
N530 X272.644 Y615.292 I0.073 J0.105
N535 G1 X272.895 Y615.396
N540 G2 X275.657 Y610.41 Z-10.313 I1.381 J-2.493 F333.33
N545 X272.895 Y615.396 Z-10.625 I-1.381 J2.493
N550 X275.657 Y610.41 Z-10.938 I1.381 J-2.493
N555 X272.895 Y615.396 Z-11.251 I-1.381 J2.493
N560 X275.657 Y610.41 Z-11.563 I1.381 J-2.493
N565 X272.895 Y615.396 Z-11.876 I-1.381 J2.493
N570 X275.657 Y610.41 Z-12.189 I1.381 J-2.493
N575 X272.895 Y615.396 Z-12.501 I-1.381 J2.493
N580 X275.657 Y610.41 Z-12.814 I1.381 J-2.493
N585 X272.895 Y615.396 Z-13.127 I-1.381 J2.493
N590 X277.126 Y612.903 Z-13.333 I1.381 J-2.493
N595 X272.571 I-2.277 J0.
N600 G1 Y912.903 F1200.
N605 G2 X274.781 I1.105 J0.
N610 G1 Y612.903
N615 G2 X272.571 I-1.105 J0.
N620 G3 X271.374 Y614.699 I-1.946 J0.
N625 G2 X270.176 Y616.495 I0.748 J1.796
N630 G1 Y912.903
N635 G2 X277.176 I3.5 J0.
N640 G1 Y612.903
N645 G2 X270.176 I-3.5 J0.
N650 G1 Y616.495
N655 G2 X270.604 Y616.728 I0.277 J0.
N660 G1 X271.69 Y616.023
N665 X272.765 Y615.279
N670 G2 X272.62 Y615.069 I-0.073 J-0.105
N675 X272.644 Y615.292 I0.073 J0.105
N680 G1 X272.895 Y615.396
N685 G2 X275.657 Y610.41 Z-13.646 I1.381 J-2.493 F333.33
N690 X272.895 Y615.396 Z-13.959 I-1.381 J2.493
N695 X275.657 Y610.41 Z-14.271 I1.381 J-2.493
N700 X272.895 Y615.396 Z-14.584 I-1.381 J2.493
N705 X275.657 Y610.41 Z-14.897 I1.381 J-2.493
N710 X272.895 Y615.396 Z-15.209 I-1.381 J2.493
N715 X275.657 Y610.41 Z-15.522 I1.381 J-2.493
N720 X272.895 Y615.396 Z-15.835 I-1.381 J2.493
N725 X275.657 Y610.41 Z-16.147 I1.381 J-2.493
N730 X272.895 Y615.396 Z-16.46 I-1.381 J2.493
N735 X277.126 Y612.903 Z-16.667 I1.381 J-2.493
N740 X272.571 I-2.277 J0.
N745 G1 Y912.903 F1200.
N750 G2 X274.781 I1.105 J0.
N755 G1 Y612.903
N760 G2 X272.571 I-1.105 J0.
N765 G3 X271.374 Y614.699 I-1.946 J0.
N770 G2 X270.176 Y616.495 I0.748 J1.796
N775 G1 Y912.903
N780 G2 X277.176 I3.5 J0.
N785 G1 Y612.903
N790 G2 X270.176 I-3.5 J0.
N795 G1 Y616.495
N800 G2 X270.604 Y616.728 I0.277 J0.
N805 G1 X271.69 Y616.023
N810 X272.765 Y615.279
N815 G2 X272.62 Y615.069 I-0.073 J-0.105
N820 X272.644 Y615.292 I0.073 J0.105
N825 G1 X272.895 Y615.396
N830 G2 X275.657 Y610.41 Z-16.979 I1.381 J-2.493 F333.33
N835 X272.895 Y615.396 Z-17.292 I-1.381 J2.493
N840 X275.657 Y610.41 Z-17.605 I1.381 J-2.493
N845 X272.895 Y615.396 Z-17.917 I-1.381 J2.493
N850 X275.657 Y610.41 Z-18.23 I1.381 J-2.493
N855 X272.895 Y615.396 Z-18.543 I-1.381 J2.493
N860 X275.657 Y610.41 Z-18.855 I1.381 J-2.493
N865 X272.895 Y615.396 Z-19.168 I-1.381 J2.493
N870 X275.657 Y610.41 Z-19.481 I1.381 J-2.493
N875 X272.895 Y615.396 Z-19.793 I-1.381 J2.493
N880 X277.126 Y612.903 Z-20. I1.381 J-2.493
N885 X272.571 I-2.277 J0.
N890 G1 Y912.903 F1200.
N895 G2 X274.781 I1.105 J0.
N900 G1 Y612.903
N905 G2 X272.571 I-1.105 J0.
N910 G3 X271.374 Y614.699 I-1.946 J0.
N915 G2 X270.176 Y616.495 I0.748 J1.796
N920 G1 Y912.903
N925 G2 X277.176 I3.5 J0.
N930 G1 Y612.903
N935 G2 X270.176 I-3.5 J0.
N940 G1 Y616.495
N945 X270.183 Y616.588 Z-19.985 F500.
N950 X270.204 Y616.678 Z-19.971
N955 X270.235 Y616.756 Z-19.928
N960 X270.277 Y616.828 Z-19.885
N965 X270.316 Y616.881 Z-19.819
N970 X270.362 Y616.93 Z-19.753
N975 X270.428 Y616.984 Z-19.585
N980 X270.452 Y617. Z-19.4
N985 G0 Z15.
(2D CONTOUR1)
N990 G0 X386.243 Y1245.795
N995 Z15.
N1000 Z5.
N1005 G1 Z4.5 F100.33
N1010 Z-2.733
N1015 X386.244 Y1245.787 Z-2.827
N1020 X386.247 Y1245.766 Z-2.919
N1025 X386.252 Y1245.73 Z-3.006
N1030 X386.26 Y1245.681 Z-3.086
N1035 X386.269 Y1245.621 Z-3.158
N1040 X386.28 Y1245.55 Z-3.219
N1045 X386.292 Y1245.471 Z-3.268
N1050 X386.305 Y1245.385 Z-3.304
N1055 X386.318 Y1245.294 Z-3.326
N1060 X386.333 Y1245.201 Z-3.333
N1065 X386.422 Y1244.608 F500.
N1070 G2 X385.919 Y1243.925 I-0.593 J-0.09
N1075 G3 X347.047 Y1189.823 I6.971 J-46.025 F1200.
N1080 G1 X367.444 Y1074.143
N1085 G2 X317.316 Y1035.105 I-35.403 J-6.242
N1090 G3 X230.037 I-43.639 J-97.202
N1095 G2 X179.91 Y1074.143 I-14.725 J32.795
N1100 G1 X200.306 Y1189.823
N1105 G3 X154.463 Y1244.45 I-45.843 J8.077
N1110 G1 X23.676
N1115 G3 X17.151 Y1237.329 I0. J-6.55
N1120 G1 X44.16 Y928.616
N1125 G3 X48.853 Y905.337 I106.147 J9.286
N1130 G1 X156.295 Y570.619
N1135 G3 X210.14 Y531.353 I53.844 J17.283
N1140 G1 X337.213
N1145 G3 X391.058 Y570.619 I0. J56.551
N1150 G1 X498.5 Y905.337
N1155 G3 X503.192 Y928.616 I-101.452 J32.563
N1160 G1 X530.201 Y1237.329
N1165 G3 X523.676 Y1244.45 I-6.525 J0.571
N1170 G1 X392.89
N1175 G3 X385.919 Y1243.925 I0. J-46.55
N1180 X383.925 Y1242.074 I0.362 J-2.39
N1185 G2 X382.027 Y1240.125 I-2.55 J0.584
N1190 G3 X349.952 Y1190.335 I10.863 J-42.225
N1195 G1 X370.349 Y1074.655
N1200 G2 X316.108 Y1032.414 I-38.308 J-6.755
N1205 G3 X231.246 I-42.431 J-94.511
N1210 G2 X177.004 Y1074.655 I-15.933 J35.486
N1215 G1 X197.4 Y1190.335
N1220 G3 X154.463 Y1241.5 I-42.938 J7.566
N1225 G1 X23.676
N1230 G3 X20.09 Y1237.586 I0. J-3.6
N1235 G1 X47.099 Y928.873
N1240 G3 X51.662 Y906.239 I103.206 J9.029
N1245 G1 X159.104 Y571.521
N1250 G3 X210.14 Y534.303 I51.035 J16.383
N1255 G1 X337.213
N1260 G3 X388.249 Y571.521 I0. J53.6
N1265 G1 X495.691 Y906.239
N1270 G3 X500.253 Y928.873 I-98.643 J31.661
N1275 G1 X527.262 Y1237.586
N1280 G3 X523.676 Y1241.5 I-3.586 J0.314
N1285 G1 X392.89
N1290 G3 X382.027 Y1240.125 I0. J-43.6
N1295 X381.665 Y1239.72 I0.122 J-0.473
N1300 G2 X381.307 Y1239.311 I-0.491 J0.069
N1305 G3 X350.543 Y1190.439 I11.583 J-41.41
N1310 G1 X370.94 Y1074.759
N1315 G2 X315.862 Y1031.867 I-38.899 J-6.859
N1320 G3 X231.491 I-42.185 J-93.964
N1325 G2 X176.413 Y1074.759 I-16.179 J36.034
N1330 G1 X196.809 Y1190.439
N1335 G3 X154.463 Y1240.9 I-42.347 J7.462
N1340 G1 X23.676
N1345 G3 X20.688 Y1237.639 I0. J-3.
N1350 G1 X47.697 Y928.926
N1355 G3 X52.234 Y906.422 I102.608 J8.977
N1360 G1 X159.676 Y571.704
N1365 G3 X210.14 Y534.903 I50.464 J16.199
N1370 G1 X337.213
N1375 G3 X387.677 Y571.704 I0. J53.
N1380 G1 X495.119 Y906.422
N1385 G3 X499.656 Y928.926 I-98.072 J31.478
N1390 G1 X526.665 Y1237.639
N1395 G3 X523.676 Y1240.9 I-2.989 J0.261
N1400 G1 X392.89
N1405 G3 X381.307 Y1239.311 I0. J-43.
N1410 G2 X380.568 Y1239.727 I-0.162 J0.578 F500.
N1415 G1 X380.406 Y1240.305
N1420 X380.381 Y1240.395 Z-3.326
N1425 X380.356 Y1240.483 Z-3.304
N1430 X380.333 Y1240.567 Z-3.268
N1435 X380.311 Y1240.644 Z-3.219
N1440 X380.292 Y1240.713 Z-3.158
N1445 X380.275 Y1240.772 Z-3.086
N1450 X380.262 Y1240.819 Z-3.006
N1455 X380.252 Y1240.854 Z-2.919
N1460 X380.246 Y1240.875 Z-2.827
N1465 X380.244 Y1240.882 Z-2.733
N1470 G0 Z5.
N1475 X386.243 Y1245.795
N1480 G1 Z1.167 F100.33
N1485 Z-6.067
N1490 X386.244 Y1245.787 Z-6.161
N1495 X386.247 Y1245.766 Z-6.252
N1500 X386.252 Y1245.73 Z-6.339
N1505 X386.26 Y1245.681 Z-6.419
N1510 X386.269 Y1245.621 Z-6.491
N1515 X386.28 Y1245.55 Z-6.552
N1520 X386.292 Y1245.471 Z-6.601
N1525 X386.305 Y1245.385 Z-6.637
N1530 X386.318 Y1245.294 Z-6.659
N1535 X386.333 Y1245.201 Z-6.667
N1540 X386.422 Y1244.608 F500.
N1545 G2 X385.919 Y1243.925 I-0.593 J-0.09
N1550 G3 X347.047 Y1189.823 I6.971 J-46.025 F1200.
N1555 G1 X367.444 Y1074.143
N1560 G2 X317.316 Y1035.105 I-35.403 J-6.242
N1565 G3 X230.037 I-43.639 J-97.202
N1570 G2 X179.91 Y1074.143 I-14.725 J32.795
N1575 G1 X200.306 Y1189.823
N1580 G3 X154.463 Y1244.45 I-45.843 J8.077
N1585 G1 X23.676
N1590 G3 X17.151 Y1237.329 I0. J-6.55
N1595 G1 X44.16 Y928.616
N1600 G3 X48.853 Y905.337 I106.147 J9.286
N1605 G1 X156.295 Y570.619
N1610 G3 X210.14 Y531.353 I53.844 J17.283
N1615 G1 X337.213
N1620 G3 X391.058 Y570.619 I0. J56.551
N1625 G1 X498.5 Y905.337
N1630 G3 X503.192 Y928.616 I-101.452 J32.563
N1635 G1 X530.201 Y1237.329
N1640 G3 X523.676 Y1244.45 I-6.525 J0.571
N1645 G1 X392.89
N1650 G3 X385.919 Y1243.925 I0. J-46.55
N1655 X383.925 Y1242.074 I0.362 J-2.39
N1660 G2 X382.027 Y1240.125 I-2.55 J0.584
N1665 G3 X349.952 Y1190.335 I10.863 J-42.225
N1670 G1 X370.349 Y1074.655
N1675 G2 X316.108 Y1032.414 I-38.308 J-6.755
N1680 G3 X231.246 I-42.431 J-94.511
N1685 G2 X177.004 Y1074.655 I-15.933 J35.486
N1690 G1 X197.4 Y1190.335
N1695 G3 X154.463 Y1241.5 I-42.938 J7.566
N1700 G1 X23.676
N1705 G3 X20.09 Y1237.586 I0. J-3.6
N1710 G1 X47.099 Y928.873
N1715 G3 X51.662 Y906.239 I103.206 J9.029
N1720 G1 X159.104 Y571.521
N1725 G3 X210.14 Y534.303 I51.035 J16.383
N1730 G1 X337.213
N1735 G3 X388.249 Y571.521 I0. J53.6
N1740 G1 X495.691 Y906.239
N1745 G3 X500.253 Y928.873 I-98.643 J31.661
N1750 G1 X527.262 Y1237.586
N1755 G3 X523.676 Y1241.5 I-3.586 J0.314
N1760 G1 X392.89
N1765 G3 X382.027 Y1240.125 I0. J-43.6
N1770 X381.665 Y1239.72 I0.122 J-0.473
N1775 G2 X381.307 Y1239.311 I-0.491 J0.069
N1780 G3 X350.543 Y1190.439 I11.583 J-41.41
N1785 G1 X370.94 Y1074.759
N1790 G2 X315.862 Y1031.867 I-38.899 J-6.859
N1795 G3 X231.491 I-42.185 J-93.964
N1800 G2 X176.413 Y1074.759 I-16.179 J36.034
N1805 G1 X196.809 Y1190.439
N1810 G3 X154.463 Y1240.9 I-42.347 J7.462
N1815 G1 X23.676
N1820 G3 X20.688 Y1237.639 I0. J-3.
N1825 G1 X47.697 Y928.926
N1830 G3 X52.234 Y906.422 I102.608 J8.977
N1835 G1 X159.676 Y571.704
N1840 G3 X210.14 Y534.903 I50.464 J16.199
N1845 G1 X337.213
N1850 G3 X387.677 Y571.704 I0. J53.
N1855 G1 X495.119 Y906.422
N1860 G3 X499.656 Y928.926 I-98.072 J31.478
N1865 G1 X526.665 Y1237.639
N1870 G3 X523.676 Y1240.9 I-2.989 J0.261
N1875 G1 X392.89
N1880 G3 X381.307 Y1239.311 I0. J-43.
N1885 G2 X380.568 Y1239.727 I-0.162 J0.578 F500.
N1890 G1 X380.406 Y1240.305
N1895 X380.381 Y1240.395 Z-6.659
N1900 X380.356 Y1240.483 Z-6.637
N1905 X380.333 Y1240.567 Z-6.601
N1910 X380.311 Y1240.644 Z-6.552
N1915 X380.292 Y1240.713 Z-6.491
N1920 X380.275 Y1240.772 Z-6.419
N1925 X380.262 Y1240.819 Z-6.339
N1930 X380.252 Y1240.854 Z-6.252
N1935 X380.246 Y1240.875 Z-6.161
N1940 X380.244 Y1240.882 Z-6.067
N1945 G0 Z5.
N1950 X386.243 Y1245.795
N1955 G1 Z-2.167 F100.33
N1960 Z-9.4
N1965 X386.244 Y1245.787 Z-9.494
N1970 X386.247 Y1245.766 Z-9.585
N1975 X386.252 Y1245.73 Z-9.672
N1980 X386.26 Y1245.681 Z-9.753
N1985 X386.269 Y1245.621 Z-9.824
N1990 X386.28 Y1245.55 Z-9.885
N1995 X386.292 Y1245.471 Z-9.935
N2000 X386.305 Y1245.385 Z-9.971
N2005 X386.318 Y1245.294 Z-9.993
N2010 X386.333 Y1245.201 Z-10.
N2015 X386.422 Y1244.608 F500.
N2020 G2 X385.919 Y1243.925 I-0.593 J-0.09
N2025 G3 X347.047 Y1189.823 I6.971 J-46.025 F1200.
N2030 G1 X367.444 Y1074.143
N2035 G2 X317.316 Y1035.105 I-35.403 J-6.242
N2040 G3 X230.037 I-43.639 J-97.202
N2045 G2 X179.91 Y1074.143 I-14.725 J32.795
N2050 G1 X200.306 Y1189.823
N2055 G3 X154.463 Y1244.45 I-45.843 J8.077
N2060 G1 X23.676
N2065 G3 X17.151 Y1237.329 I0. J-6.55
N2070 G1 X44.16 Y928.616
N2075 G3 X48.853 Y905.337 I106.147 J9.286
N2080 G1 X156.295 Y570.619
N2085 G3 X210.14 Y531.353 I53.844 J17.283
N2090 G1 X337.213
N2095 G3 X391.058 Y570.619 I0. J56.551
N2100 G1 X498.5 Y905.337
N2105 G3 X503.192 Y928.616 I-101.452 J32.563
N2110 G1 X530.201 Y1237.329
N2115 G3 X523.676 Y1244.45 I-6.525 J0.571
N2120 G1 X392.89
N2125 G3 X385.919 Y1243.925 I0. J-46.55
N2130 X383.925 Y1242.074 I0.362 J-2.39
N2135 G2 X382.027 Y1240.125 I-2.55 J0.584
N2140 G3 X349.952 Y1190.335 I10.863 J-42.225
N2145 G1 X370.349 Y1074.655
N2150 G2 X316.108 Y1032.414 I-38.308 J-6.755
N2155 G3 X231.246 I-42.431 J-94.511
N2160 G2 X177.004 Y1074.655 I-15.933 J35.486
N2165 G1 X197.4 Y1190.335
N2170 G3 X154.463 Y1241.5 I-42.938 J7.566
N2175 G1 X23.676
N2180 G3 X20.09 Y1237.586 I0. J-3.6
N2185 G1 X47.099 Y928.873
N2190 G3 X51.662 Y906.239 I103.206 J9.029
N2195 G1 X159.104 Y571.521
N2200 G3 X210.14 Y534.303 I51.035 J16.383
N2205 G1 X337.213
N2210 G3 X388.249 Y571.521 I0. J53.6
N2215 G1 X495.691 Y906.239
N2220 G3 X500.253 Y928.873 I-98.643 J31.661
N2225 G1 X527.262 Y1237.586
N2230 G3 X523.676 Y1241.5 I-3.586 J0.314
N2235 G1 X392.89
N2240 G3 X382.027 Y1240.125 I0. J-43.6
N2245 X381.665 Y1239.72 I0.122 J-0.473
N2250 G2 X381.307 Y1239.311 I-0.491 J0.069
N2255 G3 X350.543 Y1190.439 I11.583 J-41.41
N2260 G1 X370.94 Y1074.759
N2265 G2 X315.862 Y1031.867 I-38.899 J-6.859
N2270 G3 X231.491 I-42.185 J-93.964
N2275 G2 X176.413 Y1074.759 I-16.179 J36.034
N2280 G1 X196.809 Y1190.439
N2285 G3 X154.463 Y1240.9 I-42.347 J7.462
N2290 G1 X23.676
N2295 G3 X20.688 Y1237.639 I0. J-3.
N2300 G1 X47.697 Y928.926
N2305 G3 X52.234 Y906.422 I102.608 J8.977
N2310 G1 X159.676 Y571.704
N2315 G3 X210.14 Y534.903 I50.464 J16.199
N2320 G1 X337.213
N2325 G3 X387.677 Y571.704 I0. J53.
N2330 G1 X495.119 Y906.422
N2335 G3 X499.656 Y928.926 I-98.072 J31.478
N2340 G1 X526.665 Y1237.639
N2345 G3 X523.676 Y1240.9 I-2.989 J0.261
N2350 G1 X392.89
N2355 G3 X381.307 Y1239.311 I0. J-43.
N2360 G2 X380.568 Y1239.727 I-0.162 J0.578 F500.
N2365 G1 X380.406 Y1240.305
N2370 X380.381 Y1240.395 Z-9.993
N2375 X380.356 Y1240.483 Z-9.971
N2380 X380.333 Y1240.567 Z-9.935
N2385 X380.311 Y1240.644 Z-9.885
N2390 X380.292 Y1240.713 Z-9.824
N2395 X380.275 Y1240.772 Z-9.753
N2400 X380.262 Y1240.819 Z-9.672
N2405 X380.252 Y1240.854 Z-9.585
N2410 X380.246 Y1240.875 Z-9.494
N2415 X380.244 Y1240.882 Z-9.4
N2420 G0 Z5.
N2425 X386.243 Y1245.795
N2430 G1 Z-5.5 F100.33
N2435 Z-12.733
N2440 X386.244 Y1245.787 Z-12.827
N2445 X386.247 Y1245.766 Z-12.919
N2450 X386.252 Y1245.73 Z-13.006
N2455 X386.26 Y1245.681 Z-13.086
N2460 X386.269 Y1245.621 Z-13.158
N2465 X386.28 Y1245.55 Z-13.219
N2470 X386.292 Y1245.471 Z-13.268
N2475 X386.305 Y1245.385 Z-13.304
N2480 X386.318 Y1245.294 Z-13.326
N2485 X386.333 Y1245.201 Z-13.333
N2490 X386.422 Y1244.608 F500.
N2495 G2 X385.919 Y1243.925 I-0.593 J-0.09
N2500 G3 X347.047 Y1189.823 I6.971 J-46.025 F1200.
N2505 G1 X367.444 Y1074.143
N2510 G2 X317.316 Y1035.105 I-35.403 J-6.242
N2515 G3 X230.037 I-43.639 J-97.202
N2520 G2 X179.91 Y1074.143 I-14.725 J32.795
N2525 G1 X200.306 Y1189.823
N2530 G3 X154.463 Y1244.45 I-45.843 J8.077
N2535 G1 X23.676
N2540 G3 X17.151 Y1237.329 I0. J-6.55
N2545 G1 X44.16 Y928.616
N2550 G3 X48.853 Y905.337 I106.147 J9.286
N2555 G1 X156.295 Y570.619
N2560 G3 X210.14 Y531.353 I53.844 J17.283
N2565 G1 X337.213
N2570 G3 X391.058 Y570.619 I0. J56.551
N2575 G1 X498.5 Y905.337
N2580 G3 X503.192 Y928.616 I-101.452 J32.563
N2585 G1 X530.201 Y1237.329
N2590 G3 X523.676 Y1244.45 I-6.525 J0.571
N2595 G1 X392.89
N2600 G3 X385.919 Y1243.925 I0. J-46.55
N2605 X383.925 Y1242.074 I0.362 J-2.39
N2610 G2 X382.027 Y1240.125 I-2.55 J0.584
N2615 G3 X349.952 Y1190.335 I10.863 J-42.225
N2620 G1 X370.349 Y1074.655
N2625 G2 X316.108 Y1032.414 I-38.308 J-6.755
N2630 G3 X231.246 I-42.431 J-94.511
N2635 G2 X177.004 Y1074.655 I-15.933 J35.486
N2640 G1 X197.4 Y1190.335
N2645 G3 X154.463 Y1241.5 I-42.938 J7.566
N2650 G1 X23.676
N2655 G3 X20.09 Y1237.586 I0. J-3.6
N2660 G1 X47.099 Y928.873
N2665 G3 X51.662 Y906.239 I103.206 J9.029
N2670 G1 X159.104 Y571.521
N2675 G3 X210.14 Y534.303 I51.035 J16.383
N2680 G1 X337.213
N2685 G3 X388.249 Y571.521 I0. J53.6
N2690 G1 X495.691 Y906.239
N2695 G3 X500.253 Y928.873 I-98.643 J31.661
N2700 G1 X527.262 Y1237.586
N2705 G3 X523.676 Y1241.5 I-3.586 J0.314
N2710 G1 X392.89
N2715 G3 X382.027 Y1240.125 I0. J-43.6
N2720 X381.665 Y1239.72 I0.122 J-0.473
N2725 G2 X381.307 Y1239.311 I-0.491 J0.069
N2730 G3 X350.543 Y1190.439 I11.583 J-41.41
N2735 G1 X370.94 Y1074.759
N2740 G2 X315.862 Y1031.867 I-38.899 J-6.859
N2745 G3 X231.491 I-42.185 J-93.964
N2750 G2 X176.413 Y1074.759 I-16.179 J36.034
N2755 G1 X196.809 Y1190.439
N2760 G3 X154.463 Y1240.9 I-42.347 J7.462
N2765 G1 X23.676
N2770 G3 X20.688 Y1237.639 I0. J-3.
N2775 G1 X47.697 Y928.926
N2780 G3 X52.234 Y906.422 I102.608 J8.977
N2785 G1 X159.676 Y571.704
N2790 G3 X210.14 Y534.903 I50.464 J16.199
N2795 G1 X337.213
N2800 G3 X387.677 Y571.704 I0. J53.
N2805 G1 X495.119 Y906.422
N2810 G3 X499.656 Y928.926 I-98.072 J31.478
N2815 G1 X526.665 Y1237.639
N2820 G3 X523.676 Y1240.9 I-2.989 J0.261
N2825 G1 X392.89
N2830 G3 X381.307 Y1239.311 I0. J-43.
N2835 G2 X380.568 Y1239.727 I-0.162 J0.578 F500.
N2840 G1 X380.406 Y1240.305
N2845 X380.381 Y1240.395 Z-13.326
N2850 X380.356 Y1240.483 Z-13.304
N2855 X380.333 Y1240.567 Z-13.268
N2860 X380.311 Y1240.644 Z-13.219
N2865 X380.292 Y1240.713 Z-13.158
N2870 X380.275 Y1240.772 Z-13.086
N2875 X380.262 Y1240.819 Z-13.006
N2880 X380.252 Y1240.854 Z-12.919
N2885 X380.246 Y1240.875 Z-12.827
N2890 X380.244 Y1240.882 Z-12.733
N2895 G0 Z5.
N2900 X386.243 Y1245.795
N2905 G1 Z-8.833 F100.33
N2910 Z-16.067
N2915 X386.244 Y1245.787 Z-16.161
N2920 X386.247 Y1245.766 Z-16.252
N2925 X386.252 Y1245.73 Z-16.339
N2930 X386.26 Y1245.681 Z-16.419
N2935 X386.269 Y1245.621 Z-16.491
N2940 X386.28 Y1245.55 Z-16.552
N2945 X386.292 Y1245.471 Z-16.601
N2950 X386.305 Y1245.385 Z-16.637
N2955 X386.318 Y1245.294 Z-16.659
N2960 X386.333 Y1245.201 Z-16.667
N2965 X386.422 Y1244.608 F500.
N2970 G2 X385.919 Y1243.925 I-0.593 J-0.09
N2975 G3 X347.047 Y1189.823 I6.971 J-46.025 F1200.
N2980 G1 X367.444 Y1074.143
N2985 G2 X317.316 Y1035.105 I-35.403 J-6.242
N2990 G3 X230.037 I-43.639 J-97.202
N2995 G2 X179.91 Y1074.143 I-14.725 J32.795
N3000 G1 X200.306 Y1189.823
N3005 G3 X154.463 Y1244.45 I-45.843 J8.077
N3010 G1 X23.676
N3015 G3 X17.151 Y1237.329 I0. J-6.55
N3020 G1 X44.16 Y928.616
N3025 G3 X48.853 Y905.337 I106.147 J9.286
N3030 G1 X156.295 Y570.619
N3035 G3 X210.14 Y531.353 I53.844 J17.283
N3040 G1 X337.213
N3045 G3 X391.058 Y570.619 I0. J56.551
N3050 G1 X498.5 Y905.337
N3055 G3 X503.192 Y928.616 I-101.452 J32.563
N3060 G1 X530.201 Y1237.329
N3065 G3 X523.676 Y1244.45 I-6.525 J0.571
N3070 G1 X392.89
N3075 G3 X385.919 Y1243.925 I0. J-46.55
N3080 X383.925 Y1242.074 I0.362 J-2.39
N3085 G2 X382.027 Y1240.125 I-2.55 J0.584
N3090 G3 X349.952 Y1190.335 I10.863 J-42.225
N3095 G1 X370.349 Y1074.655
N3100 G2 X316.108 Y1032.414 I-38.308 J-6.755
N3105 G3 X231.246 I-42.431 J-94.511
N3110 G2 X177.004 Y1074.655 I-15.933 J35.486
N3115 G1 X197.4 Y1190.335
N3120 G3 X154.463 Y1241.5 I-42.938 J7.566
N3125 G1 X23.676
N3130 G3 X20.09 Y1237.586 I0. J-3.6
N3135 G1 X47.099 Y928.873
N3140 G3 X51.662 Y906.239 I103.206 J9.029
N3145 G1 X159.104 Y571.521
N3150 G3 X210.14 Y534.303 I51.035 J16.383
N3155 G1 X337.213
N3160 G3 X388.249 Y571.521 I0. J53.6
N3165 G1 X495.691 Y906.239
N3170 G3 X500.253 Y928.873 I-98.643 J31.661
N3175 G1 X527.262 Y1237.586
N3180 G3 X523.676 Y1241.5 I-3.586 J0.314
N3185 G1 X392.89
N3190 G3 X382.027 Y1240.125 I0. J-43.6
N3195 X381.665 Y1239.72 I0.122 J-0.473
N3200 G2 X381.307 Y1239.311 I-0.491 J0.069
N3205 G3 X350.543 Y1190.439 I11.583 J-41.41
N3210 G1 X370.94 Y1074.759
N3215 G2 X315.862 Y1031.867 I-38.899 J-6.859
N3220 G3 X231.491 I-42.185 J-93.964
N3225 G2 X176.413 Y1074.759 I-16.179 J36.034
N3230 G1 X196.809 Y1190.439
N3235 G3 X154.463 Y1240.9 I-42.347 J7.462
N3240 G1 X23.676
N3245 G3 X20.688 Y1237.639 I0. J-3.
N3250 G1 X47.697 Y928.926
N3255 G3 X52.234 Y906.422 I102.608 J8.977
N3260 G1 X159.676 Y571.704
N3265 G3 X210.14 Y534.903 I50.464 J16.199
N3270 G1 X337.213
N3275 G3 X387.677 Y571.704 I0. J53.
N3280 G1 X495.119 Y906.422
N3285 G3 X499.656 Y928.926 I-98.072 J31.478
N3290 G1 X526.665 Y1237.639
N3295 G3 X523.676 Y1240.9 I-2.989 J0.261
N3300 G1 X392.89
N3305 G3 X381.307 Y1239.311 I0. J-43.
N3310 G2 X380.568 Y1239.727 I-0.162 J0.578 F500.
N3315 G1 X380.406 Y1240.305
N3320 X380.381 Y1240.395 Z-16.659
N3325 X380.356 Y1240.483 Z-16.637
N3330 X380.333 Y1240.567 Z-16.601
N3335 X380.311 Y1240.644 Z-16.552
N3340 X380.292 Y1240.713 Z-16.491
N3345 X380.275 Y1240.772 Z-16.419
N3350 X380.262 Y1240.819 Z-16.339
N3355 X380.252 Y1240.854 Z-16.252
N3360 X380.246 Y1240.875 Z-16.161
N3365 X380.244 Y1240.882 Z-16.067
N3370 G0 Z5.
N3375 X386.243 Y1245.795
N3380 G1 Z-12.167 F100.33
N3385 Z-19.4
N3390 X386.244 Y1245.787 Z-19.494
N3395 X386.247 Y1245.766 Z-19.585
N3400 X386.252 Y1245.73 Z-19.672
N3405 X386.26 Y1245.681 Z-19.753
N3410 X386.269 Y1245.621 Z-19.824
N3415 X386.28 Y1245.55 Z-19.885
N3420 X386.292 Y1245.471 Z-19.935
N3425 X386.305 Y1245.385 Z-19.971
N3430 X386.318 Y1245.294 Z-19.993
N3435 X386.333 Y1245.201 Z-20.
N3440 X386.422 Y1244.608 F500.
N3445 G2 X385.919 Y1243.925 I-0.593 J-0.09
N3450 G3 X347.047 Y1189.823 I6.971 J-46.025 F1200.
N3455 G1 X367.444 Y1074.143
N3460 G2 X317.316 Y1035.105 I-35.403 J-6.242
N3465 G3 X230.037 I-43.639 J-97.202
N3470 G2 X179.91 Y1074.143 I-14.725 J32.795
N3475 G1 X200.306 Y1189.823
N3480 G3 X154.463 Y1244.45 I-45.843 J8.077
N3485 G1 X23.676
N3490 G3 X17.151 Y1237.329 I0. J-6.55
N3495 G1 X29.575 Y1095.333
N3500 Z-18.
N3505 X34.455 Y1039.546
N3510 Z-20. F100.33
N3515 X44.16 Y928.616 F1200.
N3520 G3 X48.853 Y905.337 I106.147 J9.286
N3525 G1 X94.185 Y764.115
N3530 Z-18.
N3535 X111.3 Y710.795
N3540 Z-20. F100.33
N3545 X156.295 Y570.619 F1200.
N3550 G3 X210.14 Y531.353 I53.844 J17.283
N3555 G1 X248.288
N3560 Z-18.
N3565 X304.288
N3570 Z-20. F100.33
N3575 X337.213 F1200.
N3580 G3 X391.058 Y570.619 I0. J56.551
N3585 G1 X437.467 Y715.199
N3590 Z-18.
N3595 X454.582 Y768.519
N3600 Z-20. F100.33
N3605 X498.5 Y905.337 F1200.
N3610 G3 X503.192 Y928.616 I-101.452 J32.563
N3615 G1 X512.515 Y1035.176
N3620 Z-18.
N3625 X517.396 Y1090.963
N3630 Z-20. F100.33
N3635 X530.201 Y1237.329 F1200.
N3640 G3 X523.676 Y1244.45 I-6.525 J0.571
N3645 G1 X392.89
N3650 G3 X385.919 Y1243.925 I0. J-46.55
N3655 X383.925 Y1242.074 I0.362 J-2.39
N3660 G2 X382.027 Y1240.125 I-2.55 J0.584
N3665 G3 X349.952 Y1190.335 I10.863 J-42.225
N3670 G1 X370.349 Y1074.655
N3675 G2 X316.108 Y1032.414 I-38.308 J-6.755
N3680 G3 X231.246 I-42.431 J-94.511
N3685 G2 X177.004 Y1074.655 I-15.933 J35.486
N3690 G1 X197.4 Y1190.335
N3695 G3 X154.463 Y1241.5 I-42.938 J7.566
N3700 G1 X23.676
N3705 G3 X20.09 Y1237.586 I0. J-3.6
N3710 G1 X32.513 Y1095.59
N3715 Z-18.
N3720 X37.394 Y1039.803
N3725 Z-20. F100.33
N3730 X47.099 Y928.873 F1200.
N3735 G3 X51.662 Y906.239 I103.206 J9.029
N3740 G1 X96.993 Y765.017
N3745 Z-18.
N3750 X114.109 Y711.696
N3755 Z-20. F100.33
N3760 X159.104 Y571.521 F1200.
N3765 G3 X210.14 Y534.303 I51.035 J16.383
N3770 G1 X248.288
N3775 Z-18.
N3780 X304.288
N3785 Z-20. F100.33
N3790 X337.213 F1200.
N3795 G3 X388.249 Y571.521 I0. J53.6
N3800 G1 X434.658 Y716.101
N3805 Z-18.
N3810 X451.773 Y769.421
N3815 Z-20. F100.33
N3820 X495.691 Y906.239 F1200.
N3825 G3 X500.253 Y928.873 I-98.643 J31.661
N3830 G1 X509.576 Y1035.433
N3835 Z-18.
N3840 X514.457 Y1091.22
N3845 Z-20. F100.33
N3850 X527.262 Y1237.586 F1200.
N3855 G3 X523.676 Y1241.5 I-3.586 J0.314
N3860 G1 X392.89
N3865 G3 X382.027 Y1240.125 I0. J-43.6
N3870 X381.665 Y1239.72 I0.122 J-0.473
N3875 G2 X381.307 Y1239.311 I-0.491 J0.069
N3880 G3 X350.543 Y1190.439 I11.583 J-41.41
N3885 G1 X370.94 Y1074.759
N3890 G2 X315.862 Y1031.867 I-38.899 J-6.859
N3895 G3 X231.491 I-42.185 J-93.964
N3900 G2 X176.413 Y1074.759 I-16.179 J36.034
N3905 G1 X196.809 Y1190.439
N3910 G3 X154.463 Y1240.9 I-42.347 J7.462
N3915 G1 X23.676
N3920 G3 X20.688 Y1237.639 I0. J-3.
N3925 G1 X33.111 Y1095.642
N3930 Z-18.
N3935 X37.992 Y1039.855
N3940 Z-20. F100.33
N3945 X47.697 Y928.926 F1200.
N3950 G3 X52.234 Y906.422 I102.608 J8.977
N3955 G1 X97.565 Y765.2
N3960 Z-18.
N3965 X114.68 Y711.88
N3970 Z-20. F100.33
N3975 X159.676 Y571.704 F1200.
N3980 G3 X210.14 Y534.903 I50.464 J16.199
N3985 G1 X248.288
N3990 Z-18.
N3995 X304.288
N4000 Z-20. F100.33
N4005 X337.213 F1200.
N4010 G3 X387.677 Y571.704 I0. J53.
N4015 G1 X434.087 Y716.284
N4020 Z-18.
N4025 X451.202 Y769.604
N4030 Z-20. F100.33
N4035 X495.119 Y906.422 F1200.
N4040 G3 X499.656 Y928.926 I-98.072 J31.478
N4045 G1 X508.978 Y1035.485
N4050 Z-18.
N4055 X513.859 Y1091.272
N4060 Z-20. F100.33
N4065 X526.665 Y1237.639 F1200.
N4070 G3 X523.676 Y1240.9 I-2.989 J0.261
N4075 G1 X392.89
N4080 G3 X381.307 Y1239.311 I0. J-43.
N4085 G2 X380.568 Y1239.727 I-0.162 J0.578 F500.
N4090 G1 X380.406 Y1240.305
N4095 X380.381 Y1240.395 Z-19.993
N4100 X380.356 Y1240.483 Z-19.971
N4105 X380.333 Y1240.567 Z-19.935
N4110 X380.311 Y1240.644 Z-19.885
N4115 X380.292 Y1240.713 Z-19.824
N4120 X380.275 Y1240.772 Z-19.753
N4125 X380.262 Y1240.819 Z-19.672
N4130 X380.252 Y1240.854 Z-19.585
N4135 X380.246 Y1240.875 Z-19.494
N4140 X380.244 Y1240.882 Z-19.4
N4145 G0 Z15.
(2D POCKET2)
N4150 G0 X345.746 Y900.729
N4155 Z15.
N4160 Z5.
N4165 G1 Z1.6 F500.
N4170 X345.727 Y900.709 Z1.418 F333.33
N4175 X345.669 Y900.651 Z1.254
N4180 X345.576 Y900.564 Z1.122
N4185 X345.453 Y900.46 Z1.034
N4190 X345.308 Y900.352 Z1.
N4195 G2 X342.044 Y905.025 Z0.687 I-1.632 J2.336
N4200 X345.308 Y900.352 Z0.375 I1.632 J-2.336
N4205 X342.044 Y905.025 Z0.062 I-1.632 J2.336
N4210 X345.308 Y900.352 Z-0.251 I1.632 J-2.336
N4215 X342.044 Y905.025 Z-0.563 I-1.632 J2.336
N4220 X345.308 Y900.352 Z-0.876 I1.632 J-2.336
N4225 X342.044 Y905.025 Z-1.189 I-1.632 J2.336
N4230 X345.308 Y900.352 Z-1.501 I1.632 J-2.336
N4235 X342.044 Y905.025 Z-1.814 I-1.632 J2.336
N4240 X345.308 Y900.352 Z-2.127 I1.632 J-2.336
N4245 X342.044 Y905.025 Z-2.439 I-1.632 J2.336
N4250 X343.676 Y905.538 Z-2.5 I1.632 J-2.336
N4255 G1 X345.992 F1200.
N4260 G2 X346.311 Y905.219 I0. J-0.319
N4265 G1 Y620.587
N4270 G2 X345.992 Y620.268 I-0.319 J0.
N4275 G1 X341.36
N4280 G2 X341.041 Y620.587 I0. J0.319
N4285 G1 Y905.219
N4290 G2 X341.36 Y905.538 I0.319 J0.
N4295 G1 X343.676
N4300 G3 X347.176 Y907.735 I0. J3.887
N4305 G2 X351.205 Y906.813 I1.909 J-0.922
N4310 G1 Y615.694
N4315 G2 X350.885 Y615.374 I-0.319 J0.
N4320 G1 X336.467
N4325 G2 X336.147 Y615.694 I0. J0.319
N4330 G1 Y910.112
N4335 G2 X336.467 Y910.432 I0.319 J0.
N4340 G1 X350.885
N4345 G2 X351.205 Y910.112 I0. J-0.319
N4350 G1 Y906.813
N4355 G3 X353.651 Y903.143 I3.976 J0.
N4360 G2 X356.098 Y899.473 I-1.529 J-3.67
N4365 G1 Y610.8
N4370 G2 X355.779 Y610.481 I-0.319 J0.
N4375 G1 X331.573
N4380 G2 X331.254 Y610.8 I0. J0.319
N4385 G1 Y915.005
N4390 G2 X331.573 Y915.325 I0.319 J0.
N4395 G1 X355.779
N4400 G2 X356.098 Y915.005 I0. J-0.319
N4405 G1 Y899.473
N4410 G3 X358.544 Y895.803 I3.976 J0.
N4415 G2 X360.991 Y892.133 I-1.529 J-3.67
N4420 G1 Y605.907
N4425 G2 X360.672 Y605.588 I-0.319 J0.
N4430 G1 X326.68
N4435 G2 X326.361 Y605.907 I0. J0.319
N4440 G1 Y919.899
N4445 G2 X326.68 Y920.218 I0.319 J0.
N4450 G1 X360.672
N4455 G2 X360.991 Y919.899 I0. J-0.319
N4460 G1 Y892.133
N4465 G3 X363.438 Y888.463 I3.976 J0.
N4470 G2 X365.884 Y884.793 I-1.529 J-3.67
N4475 G1 Y601.014
N4480 G2 X365.565 Y600.695 I-0.319 J0.
N4485 G1 X321.787
N4490 G2 X321.468 Y601.014 I0. J0.319
N4495 G1 Y924.792
N4500 G2 X321.787 Y925.111 I0.319 J0.
N4505 G1 X365.565
N4510 G2 X365.884 Y924.792 I0. J-0.319
N4515 G1 Y884.793
N4520 G3 X368.331 Y881.123 I3.976 J0.
N4525 G2 X370.778 Y877.453 I-1.529 J-3.67
N4530 G1 Y596.121
N4535 G2 X370.458 Y595.801 I-0.319 J0.
N4540 G1 X316.894
N4545 G2 X316.574 Y596.121 I0. J0.319
N4550 G1 Y929.685
N4555 G2 X316.894 Y930.005 I0.319 J0.
N4560 G1 X370.458
N4565 G2 X370.778 Y929.685 I0. J-0.319
N4570 G1 Y877.453
N4575 G3 X373.227 Y873.78 I3.98 J0.
N4580 G2 X375.676 Y870.106 I-1.531 J-3.674
N4585 G1 Y590.903
N4590 X311.676
N4595 Y934.903
N4600 X375.676
N4605 Y870.106
N4610 G2 X375.231 Y869.844 I-0.3 J0.
N4615 G1 X368.848 Y873.382
N4620 X368.799 Y873.416
N4625 X368.758 Y873.459
N4630 X343.927 Y904.911
N4635 X343.616 Y905.354
N4640 X343.599 Y905.392
N4645 X343.596 Y905.435
N4650 X343.609 Y905.476
N4655 X343.635 Y905.509
N4660 X343.672 Y905.531
N4665 X343.714 Y905.538
N4670 G2 X343.638 Y899.839 Z-2.813 I-0.038 J-2.85 F333.33
N4675 X343.714 Y905.538 Z-3.125 I0.038 J2.85
N4680 X343.638 Y899.839 Z-3.438 I-0.038 J-2.85
N4685 X343.714 Y905.538 Z-3.751 I0.038 J2.85
N4690 X343.638 Y899.839 Z-4.063 I-0.038 J-2.85
N4695 X343.714 Y905.538 Z-4.376 I0.038 J2.85
N4700 X343.638 Y899.839 Z-4.689 I-0.038 J-2.85
N4705 X343.676 Y905.538 Z-5. I0.038 J2.85
N4710 G1 X345.992 F1200.
N4715 G2 X346.311 Y905.219 I0. J-0.319
N4720 G1 Y620.587
N4725 G2 X345.992 Y620.268 I-0.319 J0.
N4730 G1 X341.36
N4735 G2 X341.041 Y620.587 I0. J0.319
N4740 G1 Y905.219
N4745 G2 X341.36 Y905.538 I0.319 J0.
N4750 G1 X343.676
N4755 G3 X347.176 Y907.735 I0. J3.887
N4760 G2 X351.205 Y906.813 I1.909 J-0.922
N4765 G1 Y615.694
N4770 G2 X350.885 Y615.374 I-0.319 J0.
N4775 G1 X336.467
N4780 G2 X336.147 Y615.694 I0. J0.319
N4785 G1 Y910.112
N4790 G2 X336.467 Y910.432 I0.319 J0.
N4795 G1 X350.885
N4800 G2 X351.205 Y910.112 I0. J-0.319
N4805 G1 Y906.813
N4810 G3 X353.651 Y903.143 I3.976 J0.
N4815 G2 X356.098 Y899.473 I-1.529 J-3.67
N4820 G1 Y610.8
N4825 G2 X355.779 Y610.481 I-0.319 J0.
N4830 G1 X331.573
N4835 G2 X331.254 Y610.8 I0. J0.319
N4840 G1 Y915.005
N4845 G2 X331.573 Y915.325 I0.319 J0.
N4850 G1 X355.779
N4855 G2 X356.098 Y915.005 I0. J-0.319
N4860 G1 Y899.473
N4865 G3 X358.544 Y895.803 I3.976 J0.
N4870 G2 X360.991 Y892.133 I-1.529 J-3.67
N4875 G1 Y605.907
N4880 G2 X360.672 Y605.588 I-0.319 J0.
N4885 G1 X326.68
N4890 G2 X326.361 Y605.907 I0. J0.319
N4895 G1 Y919.899
N4900 G2 X326.68 Y920.218 I0.319 J0.
N4905 G1 X360.672
N4910 G2 X360.991 Y919.899 I0. J-0.319
N4915 G1 Y892.133
N4920 G3 X363.438 Y888.463 I3.976 J0.
N4925 G2 X365.884 Y884.793 I-1.529 J-3.67
N4930 G1 Y601.014
N4935 G2 X365.565 Y600.695 I-0.319 J0.
N4940 G1 X321.787
N4945 G2 X321.468 Y601.014 I0. J0.319
N4950 G1 Y924.792
N4955 G2 X321.787 Y925.111 I0.319 J0.
N4960 G1 X365.565
N4965 G2 X365.884 Y924.792 I0. J-0.319
N4970 G1 Y884.793
N4975 G3 X368.331 Y881.123 I3.976 J0.
N4980 G2 X370.778 Y877.453 I-1.529 J-3.67
N4985 G1 Y596.121
N4990 G2 X370.458 Y595.801 I-0.319 J0.
N4995 G1 X316.894
N5000 G2 X316.574 Y596.121 I0. J0.319
N5005 G1 Y929.685
N5010 G2 X316.894 Y930.005 I0.319 J0.
N5015 G1 X370.458
N5020 G2 X370.778 Y929.685 I0. J-0.319
N5025 G1 Y877.453
N5030 G3 X373.227 Y873.78 I3.98 J0.
N5035 G2 X375.676 Y870.106 I-1.531 J-3.674
N5040 G1 Y590.903
N5045 X311.676
N5050 Y934.903
N5055 X375.676
N5060 Y870.106
N5065 G2 X375.231 Y869.844 I-0.3 J0.
N5070 G1 X368.848 Y873.382
N5075 X368.799 Y873.416
N5080 X368.758 Y873.459
N5085 X343.927 Y904.911
N5090 X343.616 Y905.354
N5095 X343.599 Y905.392
N5100 X343.596 Y905.435
N5105 X343.609 Y905.476
N5110 X343.635 Y905.509
N5115 X343.672 Y905.531
N5120 X343.714 Y905.538
N5125 G2 X343.638 Y899.839 Z-5.313 I-0.038 J-2.85 F333.33
N5130 X343.714 Y905.538 Z-5.625 I0.038 J2.85
N5135 X343.638 Y899.839 Z-5.938 I-0.038 J-2.85
N5140 X343.714 Y905.538 Z-6.251 I0.038 J2.85
N5145 X343.638 Y899.839 Z-6.563 I-0.038 J-2.85
N5150 X343.714 Y905.538 Z-6.876 I0.038 J2.85
N5155 X343.638 Y899.839 Z-7.189 I-0.038 J-2.85
N5160 X343.676 Y905.538 Z-7.5 I0.038 J2.85
N5165 G1 X345.992 F1200.
N5170 G2 X346.311 Y905.219 I0. J-0.319
N5175 G1 Y620.587
N5180 G2 X345.992 Y620.268 I-0.319 J0.
N5185 G1 X341.36
N5190 G2 X341.041 Y620.587 I0. J0.319
N5195 G1 Y905.219
N5200 G2 X341.36 Y905.538 I0.319 J0.
N5205 G1 X343.676
N5210 G3 X347.176 Y907.735 I0. J3.887
N5215 G2 X351.205 Y906.813 I1.909 J-0.922
N5220 G1 Y615.694
N5225 G2 X350.885 Y615.374 I-0.319 J0.
N5230 G1 X336.467
N5235 G2 X336.147 Y615.694 I0. J0.319
N5240 G1 Y910.112
N5245 G2 X336.467 Y910.432 I0.319 J0.
N5250 G1 X350.885
N5255 G2 X351.205 Y910.112 I0. J-0.319
N5260 G1 Y906.813
N5265 G3 X353.651 Y903.143 I3.976 J0.
N5270 G2 X356.098 Y899.473 I-1.529 J-3.67
N5275 G1 Y610.8
N5280 G2 X355.779 Y610.481 I-0.319 J0.
N5285 G1 X331.573
N5290 G2 X331.254 Y610.8 I0. J0.319
N5295 G1 Y915.005
N5300 G2 X331.573 Y915.325 I0.319 J0.
N5305 G1 X355.779
N5310 G2 X356.098 Y915.005 I0. J-0.319
N5315 G1 Y899.473
N5320 G3 X358.544 Y895.803 I3.976 J0.
N5325 G2 X360.991 Y892.133 I-1.529 J-3.67
N5330 G1 Y605.907
N5335 G2 X360.672 Y605.588 I-0.319 J0.
N5340 G1 X326.68
N5345 G2 X326.361 Y605.907 I0. J0.319
N5350 G1 Y919.899
N5355 G2 X326.68 Y920.218 I0.319 J0.
N5360 G1 X360.672
N5365 G2 X360.991 Y919.899 I0. J-0.319
N5370 G1 Y892.133
N5375 G3 X363.438 Y888.463 I3.976 J0.
N5380 G2 X365.884 Y884.793 I-1.529 J-3.67
N5385 G1 Y601.014
N5390 G2 X365.565 Y600.695 I-0.319 J0.
N5395 G1 X321.787
N5400 G2 X321.468 Y601.014 I0. J0.319
N5405 G1 Y924.792
N5410 G2 X321.787 Y925.111 I0.319 J0.
N5415 G1 X365.565
N5420 G2 X365.884 Y924.792 I0. J-0.319
N5425 G1 Y884.793
N5430 G3 X368.331 Y881.123 I3.976 J0.
N5435 G2 X370.778 Y877.453 I-1.529 J-3.67
N5440 G1 Y596.121
N5445 G2 X370.458 Y595.801 I-0.319 J0.
N5450 G1 X316.894
N5455 G2 X316.574 Y596.121 I0. J0.319
N5460 G1 Y929.685
N5465 G2 X316.894 Y930.005 I0.319 J0.
N5470 G1 X370.458
N5475 G2 X370.778 Y929.685 I0. J-0.319
N5480 G1 Y877.453
N5485 G3 X373.227 Y873.78 I3.98 J0.
N5490 G2 X375.676 Y870.106 I-1.531 J-3.674
N5495 G1 Y590.903
N5500 X311.676
N5505 Y934.903
N5510 X375.676
N5515 Y870.106
N5520 X375.669 Y870.014 Z-7.485 F500.
N5525 X375.648 Y869.924 Z-7.471
N5530 X375.617 Y869.846 Z-7.428
N5535 X375.575 Y869.773 Z-7.385
N5540 X375.536 Y869.72 Z-7.319
N5545 X375.49 Y869.672 Z-7.253
N5550 X375.424 Y869.618 Z-7.085
N5555 X375.4 Y869.601 Z-6.9
N5560 G0 Z5.
N5565 X201.502 Y620.833
N5570 G1 Z1.6 F500.
N5575 X201.482 Y620.852 Z1.418 F333.33
N5580 X201.424 Y620.91 Z1.254
N5585 X201.337 Y621.003 Z1.122
N5590 X201.233 Y621.126 Z1.034
N5595 X201.125 Y621.271 Z1.
N5600 G2 X205.798 Y624.535 Z0.687 I2.336 J1.632
N5605 X201.125 Y621.271 Z0.375 I-2.336 J-1.632
N5610 X205.798 Y624.535 Z0.062 I2.336 J1.632
N5615 X201.125 Y621.271 Z-0.251 I-2.336 J-1.632
N5620 X205.798 Y624.535 Z-0.563 I2.336 J1.632
N5625 X201.125 Y621.271 Z-0.876 I-2.336 J-1.632
N5630 X205.798 Y624.535 Z-1.189 I2.336 J1.632
N5635 X201.125 Y621.271 Z-1.501 I-2.336 J-1.632
N5640 X205.798 Y624.535 Z-1.814 I2.336 J1.632
N5645 X201.125 Y621.271 Z-2.127 I-2.336 J-1.632
N5650 X205.798 Y624.535 Z-2.439 I2.336 J1.632
N5655 X206.311 Y622.903 Z-2.5 I-2.336 J-1.632
N5660 G1 Y620.587 F1200.
N5665 G2 X205.992 Y620.268 I-0.319 J0.
N5670 G1 X201.36
N5675 G2 X201.041 Y620.587 I0. J0.319
N5680 G1 Y905.219
N5685 G2 X201.36 Y905.538 I0.319 J0.
N5690 G1 X205.992
N5695 G2 X206.311 Y905.219 I0. J-0.319
N5700 G1 Y622.903
N5705 G3 X208.508 Y619.403 I3.887 J0.
N5710 G2 X207.586 Y615.374 I-0.922 J-1.909
N5715 G1 X196.467
N5720 G2 X196.147 Y615.694 I0. J0.319
N5725 G1 Y910.112
N5730 G2 X196.467 Y910.432 I0.319 J0.
N5735 G1 X210.885
N5740 G2 X211.205 Y910.112 I0. J-0.319
N5745 G1 Y615.694
N5750 G2 X210.885 Y615.374 I-0.319 J0.
N5755 G1 X207.586
N5760 G3 X203.916 Y612.928 I0. J-3.976
N5765 G2 X200.246 Y610.481 I-3.67 J1.529
N5770 G1 X191.574
N5775 G2 X191.254 Y610.8 I0. J0.319
N5780 G1 Y915.005
N5785 G2 X191.574 Y915.325 I0.319 J0.
N5790 G1 X215.779
N5795 G2 X216.098 Y915.005 I0. J-0.319
N5800 G1 Y610.8
N5805 G2 X215.779 Y610.481 I-0.319 J0.
N5810 G1 X200.246
N5815 G3 X196.576 Y608.034 I0. J-3.976
N5820 G2 X192.906 Y605.588 I-3.67 J1.529
N5825 G1 X186.68
N5830 G2 X186.361 Y605.907 I0. J0.319
N5835 G1 Y919.899
N5840 G2 X186.68 Y920.218 I0.319 J0.
N5845 G1 X220.672
N5850 G2 X220.991 Y919.899 I0. J-0.319
N5855 G1 Y605.907
N5860 G2 X220.672 Y605.588 I-0.319 J0.
N5865 G1 X192.906
N5870 G3 X189.236 Y603.141 I0. J-3.976
N5875 G2 X185.566 Y600.695 I-3.67 J1.529
N5880 G1 X181.787
N5885 G2 X181.468 Y601.014 I0. J0.319
N5890 G1 Y924.792
N5895 G2 X181.787 Y925.111 I0.319 J0.
N5900 G1 X225.565
N5905 G2 X225.884 Y924.792 I0. J-0.319
N5910 G1 Y601.014
N5915 G2 X225.565 Y600.695 I-0.319 J0.
N5920 G1 X185.566
N5925 G3 X181.896 Y598.248 I0. J-3.976
N5930 G2 X178.226 Y595.801 I-3.67 J1.529
N5935 G1 X176.894
N5940 G2 X176.574 Y596.121 I0. J0.319
N5945 G1 Y929.685
N5950 G2 X176.894 Y930.005 I0.319 J0.
N5955 G1 X230.458
N5960 G2 X230.778 Y929.685 I0. J-0.319
N5965 G1 Y596.121
N5970 G2 X230.458 Y595.801 I-0.319 J0.
N5975 G1 X178.226
N5980 G3 X175.04 Y594.231 I0. J-4.018
N5985 G2 X171.676 Y595.374 I-1.488 J1.143
N5990 G1 Y934.903
N5995 X235.676
N6000 Y590.903
N6005 X171.676
N6010 Y595.374
N6015 G2 X171.841 Y595.57 I0.199 J0.
N6020 G1 X172.643 Y595.709
N6025 X172.692 Y595.724
N6030 X172.735 Y595.751
N6035 X205.687 Y622.648
N6040 X206.126 Y622.962
N6045 X206.164 Y622.98
N6050 X206.207 Y622.983
N6055 X206.248 Y622.971
N6060 X206.282 Y622.944
N6065 X206.304 Y622.907
N6070 X206.311 Y622.865
N6075 G2 X200.612 Y622.941 Z-2.813 I-2.85 J0.038 F333.33
N6080 X206.311 Y622.865 Z-3.125 I2.85 J-0.038
N6085 X200.612 Y622.941 Z-3.438 I-2.85 J0.038
N6090 X206.311 Y622.865 Z-3.751 I2.85 J-0.038
N6095 X200.612 Y622.941 Z-4.063 I-2.85 J0.038
N6100 X206.311 Y622.865 Z-4.376 I2.85 J-0.038
N6105 X200.612 Y622.941 Z-4.689 I-2.85 J0.038
N6110 X206.311 Y622.903 Z-5. I2.85 J-0.038
N6115 G1 Y620.587 F1200.
N6120 G2 X205.992 Y620.268 I-0.319 J0.
N6125 G1 X201.36
N6130 G2 X201.041 Y620.587 I0. J0.319
N6135 G1 Y905.219
N6140 G2 X201.36 Y905.538 I0.319 J0.
N6145 G1 X205.992
N6150 G2 X206.311 Y905.219 I0. J-0.319
N6155 G1 Y622.903
N6160 G3 X208.508 Y619.403 I3.887 J0.
N6165 G2 X207.586 Y615.374 I-0.922 J-1.909
N6170 G1 X196.467
N6175 G2 X196.147 Y615.694 I0. J0.319
N6180 G1 Y910.112
N6185 G2 X196.467 Y910.432 I0.319 J0.
N6190 G1 X210.885
N6195 G2 X211.205 Y910.112 I0. J-0.319
N6200 G1 Y615.694
N6205 G2 X210.885 Y615.374 I-0.319 J0.
N6210 G1 X207.586
N6215 G3 X203.916 Y612.928 I0. J-3.976
N6220 G2 X200.246 Y610.481 I-3.67 J1.529
N6225 G1 X191.574
N6230 G2 X191.254 Y610.8 I0. J0.319
N6235 G1 Y915.005
N6240 G2 X191.574 Y915.325 I0.319 J0.
N6245 G1 X215.779
N6250 G2 X216.098 Y915.005 I0. J-0.319
N6255 G1 Y610.8
N6260 G2 X215.779 Y610.481 I-0.319 J0.
N6265 G1 X200.246
N6270 G3 X196.576 Y608.034 I0. J-3.976
N6275 G2 X192.906 Y605.588 I-3.67 J1.529
N6280 G1 X186.68
N6285 G2 X186.361 Y605.907 I0. J0.319
N6290 G1 Y919.899
N6295 G2 X186.68 Y920.218 I0.319 J0.
N6300 G1 X220.672
N6305 G2 X220.991 Y919.899 I0. J-0.319
N6310 G1 Y605.907
N6315 G2 X220.672 Y605.588 I-0.319 J0.
N6320 G1 X192.906
N6325 G3 X189.236 Y603.141 I0. J-3.976
N6330 G2 X185.566 Y600.695 I-3.67 J1.529
N6335 G1 X181.787
N6340 G2 X181.468 Y601.014 I0. J0.319
N6345 G1 Y924.792
N6350 G2 X181.787 Y925.111 I0.319 J0.
N6355 G1 X225.565
N6360 G2 X225.884 Y924.792 I0. J-0.319
N6365 G1 Y601.014
N6370 G2 X225.565 Y600.695 I-0.319 J0.
N6375 G1 X185.566
N6380 G3 X181.896 Y598.248 I0. J-3.976
N6385 G2 X178.226 Y595.801 I-3.67 J1.529
N6390 G1 X176.894
N6395 G2 X176.574 Y596.121 I0. J0.319
N6400 G1 Y929.685
N6405 G2 X176.894 Y930.005 I0.319 J0.
N6410 G1 X230.458
N6415 G2 X230.778 Y929.685 I0. J-0.319
N6420 G1 Y596.121
N6425 G2 X230.458 Y595.801 I-0.319 J0.
N6430 G1 X178.226
N6435 G3 X175.04 Y594.231 I0. J-4.018
N6440 G2 X171.676 Y595.374 I-1.488 J1.143
N6445 G1 Y934.903
N6450 X235.676
N6455 Y590.903
N6460 X171.676
N6465 Y595.374
N6470 G2 X171.841 Y595.57 I0.199 J0.
N6475 G1 X172.643 Y595.709
N6480 X172.692 Y595.724
N6485 X172.735 Y595.751
N6490 X205.687 Y622.648
N6495 X206.126 Y622.962
N6500 X206.164 Y622.98
N6505 X206.207 Y622.983
N6510 X206.248 Y622.971
N6515 X206.282 Y622.944
N6520 X206.304 Y622.907
N6525 X206.311 Y622.865
N6530 G2 X200.612 Y622.941 Z-5.313 I-2.85 J0.038 F333.33
N6535 X206.311 Y622.865 Z-5.625 I2.85 J-0.038
N6540 X200.612 Y622.941 Z-5.938 I-2.85 J0.038
N6545 X206.311 Y622.865 Z-6.251 I2.85 J-0.038
N6550 X200.612 Y622.941 Z-6.563 I-2.85 J0.038
N6555 X206.311 Y622.865 Z-6.876 I2.85 J-0.038
N6560 X200.612 Y622.941 Z-7.189 I-2.85 J0.038
N6565 X206.311 Y622.903 Z-7.5 I2.85 J-0.038
N6570 G1 Y620.587 F1200.
N6575 G2 X205.992 Y620.268 I-0.319 J0.
N6580 G1 X201.36
N6585 G2 X201.041 Y620.587 I0. J0.319
N6590 G1 Y905.219
N6595 G2 X201.36 Y905.538 I0.319 J0.
N6600 G1 X205.992
N6605 G2 X206.311 Y905.219 I0. J-0.319
N6610 G1 Y622.903
N6615 G3 X208.508 Y619.403 I3.887 J0.
N6620 G2 X207.586 Y615.374 I-0.922 J-1.909
N6625 G1 X196.467
N6630 G2 X196.147 Y615.694 I0. J0.319
N6635 G1 Y910.112
N6640 G2 X196.467 Y910.432 I0.319 J0.
N6645 G1 X210.885
N6650 G2 X211.205 Y910.112 I0. J-0.319
N6655 G1 Y615.694
N6660 G2 X210.885 Y615.374 I-0.319 J0.
N6665 G1 X207.586
N6670 G3 X203.916 Y612.928 I0. J-3.976
N6675 G2 X200.246 Y610.481 I-3.67 J1.529
N6680 G1 X191.574
N6685 G2 X191.254 Y610.8 I0. J0.319
N6690 G1 Y915.005
N6695 G2 X191.574 Y915.325 I0.319 J0.
N6700 G1 X215.779
N6705 G2 X216.098 Y915.005 I0. J-0.319
N6710 G1 Y610.8
N6715 G2 X215.779 Y610.481 I-0.319 J0.
N6720 G1 X200.246
N6725 G3 X196.576 Y608.034 I0. J-3.976
N6730 G2 X192.906 Y605.588 I-3.67 J1.529
N6735 G1 X186.68
N6740 G2 X186.361 Y605.907 I0. J0.319
N6745 G1 Y919.899
N6750 G2 X186.68 Y920.218 I0.319 J0.
N6755 G1 X220.672
N6760 G2 X220.991 Y919.899 I0. J-0.319
N6765 G1 Y605.907
N6770 G2 X220.672 Y605.588 I-0.319 J0.
N6775 G1 X192.906
N6780 G3 X189.236 Y603.141 I0. J-3.976
N6785 G2 X185.566 Y600.695 I-3.67 J1.529
N6790 G1 X181.787
N6795 G2 X181.468 Y601.014 I0. J0.319
N6800 G1 Y924.792
N6805 G2 X181.787 Y925.111 I0.319 J0.
N6810 G1 X225.565
N6815 G2 X225.884 Y924.792 I0. J-0.319
N6820 G1 Y601.014
N6825 G2 X225.565 Y600.695 I-0.319 J0.
N6830 G1 X185.566
N6835 G3 X181.896 Y598.248 I0. J-3.976
N6840 G2 X178.226 Y595.801 I-3.67 J1.529
N6845 G1 X176.894
N6850 G2 X176.574 Y596.121 I0. J0.319
N6855 G1 Y929.685
N6860 G2 X176.894 Y930.005 I0.319 J0.
N6865 G1 X230.458
N6870 G2 X230.778 Y929.685 I0. J-0.319
N6875 G1 Y596.121
N6880 G2 X230.458 Y595.801 I-0.319 J0.
N6885 G1 X178.226
N6890 G3 X175.04 Y594.231 I0. J-4.018
N6895 G2 X171.676 Y595.374 I-1.488 J1.143
N6900 G1 Y934.903
N6905 X235.676
N6910 Y590.903
N6915 X171.676
N6920 Y595.374
N6925 X171.683 Y595.466 Z-7.485 F500.
N6930 X171.704 Y595.556 Z-7.471
N6935 X171.735 Y595.634 Z-7.428
N6940 X171.777 Y595.706 Z-7.385
N6945 X171.816 Y595.759 Z-7.319
N6950 X171.862 Y595.808 Z-7.253
N6955 X171.928 Y595.862 Z-7.085
N6960 X171.952 Y595.879 Z-6.9
N6965 G0 Z15.
(2D POCKET3)
N6970 G0 X226.184 Y879.376
N6975 Z15.
N6980 Z5.
N6985 G1 Z1.6 F500.
N6990 X226.197 Y879.351 Z1.418 F333.33
N6995 X226.234 Y879.278 Z1.254
N7000 X226.288 Y879.163 Z1.122
N7005 X226.348 Y879.013 Z1.034
N7010 X226.406 Y878.842 Z1.
N7015 G2 X220.946 Y877.203 Z0.687 I-2.73 J-0.82
N7020 X226.406 Y878.842 Z0.375 I2.73 J0.82
N7025 X220.946 Y877.203 Z0.062 I-2.73 J-0.82
N7030 X226.406 Y878.842 Z-0.251 I2.73 J0.82
N7035 X220.946 Y877.203 Z-0.563 I-2.73 J-0.82
N7040 X226.406 Y878.842 Z-0.876 I2.73 J0.82
N7045 X220.946 Y877.203 Z-1.189 I-2.73 J-0.82
N7050 X226.406 Y878.842 Z-1.501 I2.73 J0.82
N7055 X220.946 Y877.203 Z-1.814 I-2.73 J-0.82
N7060 X226.406 Y878.842 Z-2.127 I2.73 J0.82
N7065 X220.946 Y877.203 Z-2.439 I-2.73 J-0.82
N7070 X226.406 Y878.842 Z-2.752 I2.73 J0.82
N7075 X220.946 Y877.203 Z-3.065 I-2.73 J-0.82
N7080 X223.676 Y880.872 Z-3.25 I2.73 J0.82
N7085 Y876.963 I0. J-1.955
N7090 G1 X183.676 F1200.
N7095 G2 Y878.843 I0. J0.94
N7100 G1 X223.676
N7105 G2 Y876.963 I0. J-0.94
N7110 G3 X222.131 Y875.933 I0. J-1.674
N7115 G2 X220.586 Y874.903 I-1.545 J0.644
N7120 G1 X183.676
N7125 G2 Y880.903 I0. J3.
N7130 G1 X223.676
N7135 G2 Y874.903 I0. J-3.
N7140 G1 X220.586
N7145 X220.544 Y874.91
N7150 X220.507 Y874.929
N7155 X220.477 Y874.959
N7160 X220.459 Y874.997
N7165 X220.453 Y875.038
N7170 X220.46 Y875.08
N7175 X220.67 Y875.695
N7180 X221.261 Y878.454
N7185 X221.263 Y878.493
N7190 X221.254 Y878.531
N7195 X221.233 Y878.564
N7200 X221.005 Y878.825
N7205 X220.983 Y878.863
N7210 X220.974 Y878.906
N7215 X220.981 Y878.95
N7220 G2 X226.371 Y877.095 Z-3.563 I2.695 J-0.927 F333.33
N7225 X220.981 Y878.95 Z-3.875 I-2.695 J0.927
N7230 X226.371 Y877.095 Z-4.188 I2.695 J-0.927
N7235 X220.981 Y878.95 Z-4.501 I-2.695 J0.927
N7240 X226.371 Y877.095 Z-4.813 I2.695 J-0.927
N7245 X220.981 Y878.95 Z-5.126 I-2.695 J0.927
N7250 X226.371 Y877.095 Z-5.439 I2.695 J-0.927
N7255 X220.981 Y878.95 Z-5.751 I-2.695 J0.927
N7260 X226.371 Y877.095 Z-6.064 I2.695 J-0.927
N7265 X220.981 Y878.95 Z-6.377 I-2.695 J0.927
N7270 X223.676 Y880.872 Z-6.5 I2.695 J-0.927
N7275 Y876.963 I0. J-1.955
N7280 G1 X183.676 F1200.
N7285 G2 Y878.843 I0. J0.94
N7290 G1 X223.676
N7295 G2 Y876.963 I0. J-0.94
N7300 G3 X222.131 Y875.933 I0. J-1.674
N7305 G2 X220.586 Y874.903 I-1.545 J0.644
N7310 G1 X183.676
N7315 G2 Y880.903 I0. J3.
N7320 G1 X223.676
N7325 G2 Y874.903 I0. J-3.
N7330 G1 X220.586
N7335 X220.544 Y874.91
N7340 X220.507 Y874.929
N7345 X220.477 Y874.959
N7350 X220.459 Y874.997
N7355 X220.453 Y875.038
N7360 X220.46 Y875.08
N7365 X220.67 Y875.695
N7370 X221.261 Y878.454
N7375 X221.263 Y878.493
N7380 X221.254 Y878.531
N7385 X221.233 Y878.564
N7390 X221.005 Y878.825
N7395 X220.983 Y878.863
N7400 X220.974 Y878.906
N7405 X220.981 Y878.95
N7410 G2 X226.371 Y877.095 Z-6.813 I2.695 J-0.927 F333.33
N7415 X220.981 Y878.95 Z-7.125 I-2.695 J0.927
N7420 X226.371 Y877.095 Z-7.438 I2.695 J-0.927
N7425 X220.981 Y878.95 Z-7.751 I-2.695 J0.927
N7430 X226.371 Y877.095 Z-8.063 I2.695 J-0.927
N7435 X220.981 Y878.95 Z-8.376 I-2.695 J0.927
N7440 X226.371 Y877.095 Z-8.689 I2.695 J-0.927
N7445 X220.981 Y878.95 Z-9.001 I-2.695 J0.927
N7450 X226.371 Y877.095 Z-9.314 I2.695 J-0.927
N7455 X220.981 Y878.95 Z-9.627 I-2.695 J0.927
N7460 X223.676 Y880.872 Z-9.75 I2.695 J-0.927
N7465 Y876.963 I0. J-1.955
N7470 G1 X183.676 F1200.
N7475 G2 Y878.843 I0. J0.94
N7480 G1 X223.676
N7485 G2 Y876.963 I0. J-0.94
N7490 G3 X222.131 Y875.933 I0. J-1.674
N7495 G2 X220.586 Y874.903 I-1.545 J0.644
N7500 G1 X183.676
N7505 G2 Y880.903 I0. J3.
N7510 G1 X223.676
N7515 G2 Y874.903 I0. J-3.
N7520 G1 X220.586
N7525 X220.544 Y874.91
N7530 X220.507 Y874.929
N7535 X220.477 Y874.959
N7540 X220.459 Y874.997
N7545 X220.453 Y875.038
N7550 X220.46 Y875.08
N7555 X220.67 Y875.695
N7560 X221.261 Y878.454
N7565 X221.263 Y878.493
N7570 X221.254 Y878.531
N7575 X221.233 Y878.564
N7580 X221.005 Y878.825
N7585 X220.983 Y878.863
N7590 X220.974 Y878.906
N7595 X220.981 Y878.95
N7600 G2 X226.371 Y877.095 Z-10.063 I2.695 J-0.927 F333.33
N7605 X220.981 Y878.95 Z-10.375 I-2.695 J0.927
N7610 X226.371 Y877.095 Z-10.688 I2.695 J-0.927
N7615 X220.981 Y878.95 Z-11.001 I-2.695 J0.927
N7620 X226.371 Y877.095 Z-11.313 I2.695 J-0.927
N7625 X220.981 Y878.95 Z-11.626 I-2.695 J0.927
N7630 X226.371 Y877.095 Z-11.939 I2.695 J-0.927
N7635 X220.981 Y878.95 Z-12.251 I-2.695 J0.927
N7640 X226.371 Y877.095 Z-12.564 I2.695 J-0.927
N7645 X220.981 Y878.95 Z-12.877 I-2.695 J0.927
N7650 X223.676 Y880.872 Z-13. I2.695 J-0.927
N7655 Y876.963 I0. J-1.955
N7660 G1 X183.676 F1200.
N7665 G2 Y878.843 I0. J0.94
N7670 G1 X223.676
N7675 G2 Y876.963 I0. J-0.94
N7680 G3 X222.131 Y875.933 I0. J-1.674
N7685 G2 X220.586 Y874.903 I-1.545 J0.644
N7690 G1 X183.676
N7695 G2 Y880.903 I0. J3.
N7700 G1 X223.676
N7705 G2 Y874.903 I0. J-3.
N7710 G1 X220.586
N7715 X220.544 Y874.91
N7720 X220.507 Y874.929
N7725 X220.477 Y874.959
N7730 X220.459 Y874.997
N7735 X220.453 Y875.038
N7740 X220.46 Y875.08
N7745 X220.67 Y875.695
N7750 X221.261 Y878.454
N7755 X221.263 Y878.493
N7760 X221.254 Y878.531
N7765 X221.233 Y878.564
N7770 X221.005 Y878.825
N7775 X220.983 Y878.863
N7780 X220.974 Y878.906
N7785 X220.981 Y878.95
N7790 G2 X226.371 Y877.095 Z-13.313 I2.695 J-0.927 F333.33
N7795 X220.981 Y878.95 Z-13.625 I-2.695 J0.927
N7800 X226.371 Y877.095 Z-13.938 I2.695 J-0.927
N7805 X220.981 Y878.95 Z-14.251 I-2.695 J0.927
N7810 X226.371 Y877.095 Z-14.563 I2.695 J-0.927
N7815 X220.981 Y878.95 Z-14.876 I-2.695 J0.927
N7820 X226.371 Y877.095 Z-15.189 I2.695 J-0.927
N7825 X220.981 Y878.95 Z-15.501 I-2.695 J0.927
N7830 X226.371 Y877.095 Z-15.814 I2.695 J-0.927
N7835 X220.981 Y878.95 Z-16.127 I-2.695 J0.927
N7840 X223.676 Y880.872 Z-16.25 I2.695 J-0.927
N7845 Y876.963 I0. J-1.955
N7850 G1 X183.676 F1200.
N7855 G2 Y878.843 I0. J0.94
N7860 G1 X223.676
N7865 G2 Y876.963 I0. J-0.94
N7870 G3 X222.131 Y875.933 I0. J-1.674
N7875 G2 X220.586 Y874.903 I-1.545 J0.644
N7880 G1 X183.676
N7885 G2 Y880.903 I0. J3.
N7890 G1 X223.676
N7895 G2 Y874.903 I0. J-3.
N7900 G1 X220.586
N7905 X220.544 Y874.91
N7910 X220.507 Y874.929
N7915 X220.477 Y874.959
N7920 X220.459 Y874.997
N7925 X220.453 Y875.038
N7930 X220.46 Y875.08
N7935 X220.67 Y875.695
N7940 X221.261 Y878.454
N7945 X221.263 Y878.493
N7950 X221.254 Y878.531
N7955 X221.233 Y878.564
N7960 X221.005 Y878.825
N7965 X220.983 Y878.863
N7970 X220.974 Y878.906
N7975 X220.981 Y878.95
N7980 G2 X226.371 Y877.095 Z-16.563 I2.695 J-0.927 F333.33
N7985 X220.981 Y878.95 Z-16.875 I-2.695 J0.927
N7990 X226.371 Y877.095 Z-17.188 I2.695 J-0.927
N7995 X220.981 Y878.95 Z-17.501 I-2.695 J0.927
N8000 X226.371 Y877.095 Z-17.813 I2.695 J-0.927
N8005 X220.981 Y878.95 Z-18.126 I-2.695 J0.927
N8010 X226.371 Y877.095 Z-18.439 I2.695 J-0.927
N8015 X220.981 Y878.95 Z-18.751 I-2.695 J0.927
N8020 X226.371 Y877.095 Z-19.064 I2.695 J-0.927
N8025 X220.981 Y878.95 Z-19.377 I-2.695 J0.927
N8030 X223.676 Y880.872 Z-19.5 I2.695 J-0.927
N8035 Y876.963 I0. J-1.955
N8040 G1 X183.676 F1200.
N8045 G2 Y878.843 I0. J0.94
N8050 G1 X223.676
N8055 G2 Y876.963 I0. J-0.94
N8060 G3 X222.131 Y875.933 I0. J-1.674
N8065 G2 X220.586 Y874.903 I-1.545 J0.644
N8070 G1 X183.676
N8075 G2 Y880.903 I0. J3.
N8080 G1 X223.676
N8085 G2 Y874.903 I0. J-3.
N8090 G1 X220.586
N8095 X220.494 Y874.91 Z-19.485 F500.
N8100 X220.404 Y874.931 Z-19.471
N8105 X220.326 Y874.962 Z-19.428
N8110 X220.253 Y875.004 Z-19.385
N8115 X220.2 Y875.043 Z-19.319
N8120 X220.152 Y875.089 Z-19.253
N8125 X220.098 Y875.154 Z-19.085
N8130 X220.081 Y875.179 Z-18.9
N8135 G0 Z5.
N8140 X321.168 Y876.43
N8145 G1 Z1.6 F500.
N8150 X321.155 Y876.455 Z1.418 F333.33
N8155 X321.118 Y876.528 Z1.254
N8160 X321.064 Y876.643 Z1.122
N8165 X321.004 Y876.793 Z1.034
N8170 X320.946 Y876.964 Z1.
N8175 G2 X326.406 Y878.603 Z0.687 I2.73 J0.82
N8180 X320.946 Y876.964 Z0.375 I-2.73 J-0.82
N8185 X326.406 Y878.603 Z0.062 I2.73 J0.82
N8190 X320.946 Y876.964 Z-0.251 I-2.73 J-0.82
N8195 X326.406 Y878.603 Z-0.563 I2.73 J0.82
N8200 X320.946 Y876.964 Z-0.876 I-2.73 J-0.82
N8205 X326.406 Y878.603 Z-1.189 I2.73 J0.82
N8210 X320.946 Y876.964 Z-1.501 I-2.73 J-0.82
N8215 X326.406 Y878.603 Z-1.814 I2.73 J0.82
N8220 X320.946 Y876.964 Z-2.127 I-2.73 J-0.82
N8225 X326.406 Y878.603 Z-2.439 I2.73 J0.82
N8230 X320.946 Y876.964 Z-2.752 I-2.73 J-0.82
N8235 X326.406 Y878.603 Z-3.065 I2.73 J0.82
N8240 X323.676 Y874.934 Z-3.25 I-2.73 J-0.82
N8245 Y878.843 I0. J1.955
N8250 G1 X363.676 F1200.
N8255 G2 Y876.963 I0. J-0.94
N8260 G1 X323.676
N8265 G2 Y878.843 I0. J0.94
N8270 G3 X325.221 Y879.873 I0. J1.674
N8275 G2 X326.766 Y880.903 I1.545 J-0.644
N8280 G1 X363.676
N8285 G2 Y874.903 I0. J-3.
N8290 G1 X323.676
N8295 G2 Y880.903 I0. J3.
N8300 G1 X326.766
N8305 X326.808 Y880.896
N8310 X326.845 Y880.877
N8315 X326.875 Y880.847
N8320 X326.893 Y880.809
N8325 X326.899 Y880.768
N8330 X326.892 Y880.726
N8335 X326.682 Y880.111
N8340 X326.091 Y877.352
N8345 X326.089 Y877.313
N8350 X326.098 Y877.275
N8355 X326.119 Y877.242
N8360 X326.347 Y876.981
N8365 X326.369 Y876.943
N8370 X326.378 Y876.9
N8375 X326.371 Y876.856
N8380 G2 X320.981 Y878.711 Z-3.563 I-2.695 J0.927 F333.33
N8385 X326.371 Y876.856 Z-3.875 I2.695 J-0.927
N8390 X320.981 Y878.711 Z-4.188 I-2.695 J0.927
N8395 X326.371 Y876.856 Z-4.501 I2.695 J-0.927
N8400 X320.981 Y878.711 Z-4.813 I-2.695 J0.927
N8405 X326.371 Y876.856 Z-5.126 I2.695 J-0.927
N8410 X320.981 Y878.711 Z-5.439 I-2.695 J0.927
N8415 X326.371 Y876.856 Z-5.751 I2.695 J-0.927
N8420 X320.981 Y878.711 Z-6.064 I-2.695 J0.927
N8425 X326.371 Y876.856 Z-6.377 I2.695 J-0.927
N8430 X323.676 Y874.934 Z-6.5 I-2.695 J0.927
N8435 Y878.843 I0. J1.955
N8440 G1 X363.676 F1200.
N8445 G2 Y876.963 I0. J-0.94
N8450 G1 X323.676
N8455 G2 Y878.843 I0. J0.94
N8460 G3 X325.221 Y879.873 I0. J1.674
N8465 G2 X326.766 Y880.903 I1.545 J-0.644
N8470 G1 X363.676
N8475 G2 Y874.903 I0. J-3.
N8480 G1 X323.676
N8485 G2 Y880.903 I0. J3.
N8490 G1 X326.766
N8495 X326.808 Y880.896
N8500 X326.845 Y880.877
N8505 X326.875 Y880.847
N8510 X326.893 Y880.809
N8515 X326.899 Y880.768
N8520 X326.892 Y880.726
N8525 X326.682 Y880.111
N8530 X326.091 Y877.352
N8535 X326.089 Y877.313
N8540 X326.098 Y877.275
N8545 X326.119 Y877.242
N8550 X326.347 Y876.981
N8555 X326.369 Y876.943
N8560 X326.378 Y876.9
N8565 X326.371 Y876.856
N8570 G2 X320.981 Y878.711 Z-6.813 I-2.695 J0.927 F333.33
N8575 X326.371 Y876.856 Z-7.125 I2.695 J-0.927
N8580 X320.981 Y878.711 Z-7.438 I-2.695 J0.927
N8585 X326.371 Y876.856 Z-7.751 I2.695 J-0.927
N8590 X320.981 Y878.711 Z-8.063 I-2.695 J0.927
N8595 X326.371 Y876.856 Z-8.376 I2.695 J-0.927
N8600 X320.981 Y878.711 Z-8.689 I-2.695 J0.927
N8605 X326.371 Y876.856 Z-9.001 I2.695 J-0.927
N8610 X320.981 Y878.711 Z-9.314 I-2.695 J0.927
N8615 X326.371 Y876.856 Z-9.627 I2.695 J-0.927
N8620 X323.676 Y874.934 Z-9.75 I-2.695 J0.927
N8625 Y878.843 I0. J1.955
N8630 G1 X363.676 F1200.
N8635 G2 Y876.963 I0. J-0.94
N8640 G1 X323.676
N8645 G2 Y878.843 I0. J0.94
N8650 G3 X325.221 Y879.873 I0. J1.674
N8655 G2 X326.766 Y880.903 I1.545 J-0.644
N8660 G1 X363.676
N8665 G2 Y874.903 I0. J-3.
N8670 G1 X323.676
N8675 G2 Y880.903 I0. J3.
N8680 G1 X326.766
N8685 X326.808 Y880.896
N8690 X326.845 Y880.877
N8695 X326.875 Y880.847
N8700 X326.893 Y880.809
N8705 X326.899 Y880.768
N8710 X326.892 Y880.726
N8715 X326.682 Y880.111
N8720 X326.091 Y877.352
N8725 X326.089 Y877.313
N8730 X326.098 Y877.275
N8735 X326.119 Y877.242
N8740 X326.347 Y876.981
N8745 X326.369 Y876.943
N8750 X326.378 Y876.9
N8755 X326.371 Y876.856
N8760 G2 X320.981 Y878.711 Z-10.063 I-2.695 J0.927 F333.33
N8765 X326.371 Y876.856 Z-10.375 I2.695 J-0.927
N8770 X320.981 Y878.711 Z-10.688 I-2.695 J0.927
N8775 X326.371 Y876.856 Z-11.001 I2.695 J-0.927
N8780 X320.981 Y878.711 Z-11.313 I-2.695 J0.927
N8785 X326.371 Y876.856 Z-11.626 I2.695 J-0.927
N8790 X320.981 Y878.711 Z-11.939 I-2.695 J0.927
N8795 X326.371 Y876.856 Z-12.251 I2.695 J-0.927
N8800 X320.981 Y878.711 Z-12.564 I-2.695 J0.927
N8805 X326.371 Y876.856 Z-12.877 I2.695 J-0.927
N8810 X323.676 Y874.934 Z-13. I-2.695 J0.927
N8815 Y878.843 I0. J1.955
N8820 G1 X363.676 F1200.
N8825 G2 Y876.963 I0. J-0.94
N8830 G1 X323.676
N8835 G2 Y878.843 I0. J0.94
N8840 G3 X325.221 Y879.873 I0. J1.674
N8845 G2 X326.766 Y880.903 I1.545 J-0.644
N8850 G1 X363.676
N8855 G2 Y874.903 I0. J-3.
N8860 G1 X323.676
N8865 G2 Y880.903 I0. J3.
N8870 G1 X326.766
N8875 X326.808 Y880.896
N8880 X326.845 Y880.877
N8885 X326.875 Y880.847
N8890 X326.893 Y880.809
N8895 X326.899 Y880.768
N8900 X326.892 Y880.726
N8905 X326.682 Y880.111
N8910 X326.091 Y877.352
N8915 X326.089 Y877.313
N8920 X326.098 Y877.275
N8925 X326.119 Y877.242
N8930 X326.347 Y876.981
N8935 X326.369 Y876.943
N8940 X326.378 Y876.9
N8945 X326.371 Y876.856
N8950 G2 X320.981 Y878.711 Z-13.313 I-2.695 J0.927 F333.33
N8955 X326.371 Y876.856 Z-13.625 I2.695 J-0.927
N8960 X320.981 Y878.711 Z-13.938 I-2.695 J0.927
N8965 X326.371 Y876.856 Z-14.251 I2.695 J-0.927
N8970 X320.981 Y878.711 Z-14.563 I-2.695 J0.927
N8975 X326.371 Y876.856 Z-14.876 I2.695 J-0.927
N8980 X320.981 Y878.711 Z-15.189 I-2.695 J0.927
N8985 X326.371 Y876.856 Z-15.501 I2.695 J-0.927
N8990 X320.981 Y878.711 Z-15.814 I-2.695 J0.927
N8995 X326.371 Y876.856 Z-16.127 I2.695 J-0.927
N9000 X323.676 Y874.934 Z-16.25 I-2.695 J0.927
N9005 Y878.843 I0. J1.955
N9010 G1 X363.676 F1200.
N9015 G2 Y876.963 I0. J-0.94
N9020 G1 X323.676
N9025 G2 Y878.843 I0. J0.94
N9030 G3 X325.221 Y879.873 I0. J1.674
N9035 G2 X326.766 Y880.903 I1.545 J-0.644
N9040 G1 X363.676
N9045 G2 Y874.903 I0. J-3.
N9050 G1 X323.676
N9055 G2 Y880.903 I0. J3.
N9060 G1 X326.766
N9065 X326.808 Y880.896
N9070 X326.845 Y880.877
N9075 X326.875 Y880.847
N9080 X326.893 Y880.809
N9085 X326.899 Y880.768
N9090 X326.892 Y880.726
N9095 X326.682 Y880.111
N9100 X326.091 Y877.352
N9105 X326.089 Y877.313
N9110 X326.098 Y877.275
N9115 X326.119 Y877.242
N9120 X326.347 Y876.981
N9125 X326.369 Y876.943
N9130 X326.378 Y876.9
N9135 X326.371 Y876.856
N9140 G2 X320.981 Y878.711 Z-16.563 I-2.695 J0.927 F333.33
N9145 X326.371 Y876.856 Z-16.875 I2.695 J-0.927
N9150 X320.981 Y878.711 Z-17.188 I-2.695 J0.927
N9155 X326.371 Y876.856 Z-17.501 I2.695 J-0.927
N9160 X320.981 Y878.711 Z-17.813 I-2.695 J0.927
N9165 X326.371 Y876.856 Z-18.126 I2.695 J-0.927
N9170 X320.981 Y878.711 Z-18.439 I-2.695 J0.927
N9175 X326.371 Y876.856 Z-18.751 I2.695 J-0.927
N9180 X320.981 Y878.711 Z-19.064 I-2.695 J0.927
N9185 X326.371 Y876.856 Z-19.377 I2.695 J-0.927
N9190 X323.676 Y874.934 Z-19.5 I-2.695 J0.927
N9195 Y878.843 I0. J1.955
N9200 G1 X363.676 F1200.
N9205 G2 Y876.963 I0. J-0.94
N9210 G1 X323.676
N9215 G2 Y878.843 I0. J0.94
N9220 G3 X325.221 Y879.873 I0. J1.674
N9225 G2 X326.766 Y880.903 I1.545 J-0.644
N9230 G1 X363.676
N9235 G2 Y874.903 I0. J-3.
N9240 G1 X323.676
N9245 G2 Y880.903 I0. J3.
N9250 G1 X326.766
N9255 X326.858 Y880.896 Z-19.485 F500.
N9260 X326.948 Y880.875 Z-19.471
N9265 X327.026 Y880.844 Z-19.428
N9270 X327.099 Y880.802 Z-19.385
N9275 X327.152 Y880.763 Z-19.319
N9280 X327.2 Y880.717 Z-19.253
N9285 X327.254 Y880.651 Z-19.085
N9290 X327.271 Y880.627 Z-18.9
N9295 G0 Z5.
N9300 X321.168 Y646.43
N9305 G1 Z1.6 F500.
N9310 X321.155 Y646.455 Z1.418 F333.33
N9315 X321.118 Y646.528 Z1.254
N9320 X321.064 Y646.643 Z1.122
N9325 X321.004 Y646.793 Z1.034
N9330 X320.946 Y646.964 Z1.
N9335 G2 X326.406 Y648.603 Z0.687 I2.73 J0.82
N9340 X320.946 Y646.964 Z0.375 I-2.73 J-0.82
N9345 X326.406 Y648.603 Z0.062 I2.73 J0.82
N9350 X320.946 Y646.964 Z-0.251 I-2.73 J-0.82
N9355 X326.406 Y648.603 Z-0.563 I2.73 J0.82
N9360 X320.946 Y646.964 Z-0.876 I-2.73 J-0.82
N9365 X326.406 Y648.603 Z-1.189 I2.73 J0.82
N9370 X320.946 Y646.964 Z-1.501 I-2.73 J-0.82
N9375 X326.406 Y648.603 Z-1.814 I2.73 J0.82
N9380 X320.946 Y646.964 Z-2.127 I-2.73 J-0.82
N9385 X326.406 Y648.603 Z-2.439 I2.73 J0.82
N9390 X320.946 Y646.964 Z-2.752 I-2.73 J-0.82
N9395 X326.406 Y648.603 Z-3.065 I2.73 J0.82
N9400 X323.676 Y644.934 Z-3.25 I-2.73 J-0.82
N9405 Y648.843 I0. J1.955
N9410 G1 X363.676 F1200.
N9415 G2 Y646.963 I0. J-0.94
N9420 G1 X323.676
N9425 G2 Y648.843 I0. J0.94
N9430 G3 X325.221 Y649.873 I0. J1.674
N9435 G2 X326.766 Y650.903 I1.545 J-0.644
N9440 G1 X363.676
N9445 G2 Y644.903 I0. J-3.
N9450 G1 X323.676
N9455 G2 Y650.903 I0. J3.
N9460 G1 X326.766
N9465 G2 X326.857 Y650.317 I0. J-0.3
N9470 G1 X321.356 Y648.566
N9475 G2 X320.981 Y648.95 I-0.091 J0.286
N9480 X326.371 Y647.095 Z-3.563 I2.695 J-0.927 F333.33
N9485 X320.981 Y648.95 Z-3.875 I-2.695 J0.927
N9490 X326.371 Y647.095 Z-4.188 I2.695 J-0.927
N9495 X320.981 Y648.95 Z-4.501 I-2.695 J0.927
N9500 X326.371 Y647.095 Z-4.813 I2.695 J-0.927
N9505 X320.981 Y648.95 Z-5.126 I-2.695 J0.927
N9510 X326.371 Y647.095 Z-5.439 I2.695 J-0.927
N9515 X320.981 Y648.95 Z-5.751 I-2.695 J0.927
N9520 X326.371 Y647.095 Z-6.064 I2.695 J-0.927
N9525 X320.981 Y648.95 Z-6.377 I-2.695 J0.927
N9530 X323.676 Y650.872 Z-6.5 I2.695 J-0.927
N9535 Y646.963 I0. J-1.955
N9540 Y648.843 I0. J0.94 F1200.
N9545 G1 X363.676
N9550 G2 Y646.963 I0. J-0.94
N9555 G1 X323.676
N9560 G3 X322.47 Y646.322 I0. J-1.456
N9565 G2 X321.104 Y646.359 I-0.671 J0.453
N9570 X323.676 Y650.903 I2.572 J1.544
N9575 G1 X363.676
N9580 G2 Y644.903 I0. J-3.
N9585 G1 X323.676
N9590 G2 X321.104 Y646.359 I0. J3.
N9595 X321.313 Y646.809 I0.257 J0.154
N9600 G1 X323.676 Y647.19
N9605 X326.079 Y647.254
N9610 G2 X326.371 Y646.856 I0.008 J-0.3
N9615 X320.981 Y648.711 Z-6.813 I-2.695 J0.927 F333.33
N9620 X326.371 Y646.856 Z-7.125 I2.695 J-0.927
N9625 X320.981 Y648.711 Z-7.438 I-2.695 J0.927
N9630 X326.371 Y646.856 Z-7.751 I2.695 J-0.927
N9635 X320.981 Y648.711 Z-8.063 I-2.695 J0.927
N9640 X326.371 Y646.856 Z-8.376 I2.695 J-0.927
N9645 X320.981 Y648.711 Z-8.689 I-2.695 J0.927
N9650 X326.371 Y646.856 Z-9.001 I2.695 J-0.927
N9655 X320.981 Y648.711 Z-9.314 I-2.695 J0.927
N9660 X326.371 Y646.856 Z-9.627 I2.695 J-0.927
N9665 X323.676 Y644.934 Z-9.75 I-2.695 J0.927
N9670 Y648.843 I0. J1.955
N9675 G1 X363.676 F1200.
N9680 G2 Y646.963 I0. J-0.94
N9685 G1 X323.676
N9690 G2 Y648.843 I0. J0.94
N9695 G3 X325.221 Y649.873 I0. J1.674
N9700 G2 X326.766 Y650.903 I1.545 J-0.644
N9705 G1 X363.676
N9710 G2 Y644.903 I0. J-3.
N9715 G1 X323.676
N9720 G2 Y650.903 I0. J3.
N9725 G1 X326.766
N9730 G2 X326.857 Y650.317 I0. J-0.3
N9735 G1 X321.356 Y648.566
N9740 G2 X320.981 Y648.95 I-0.091 J0.286
N9745 X326.371 Y647.095 Z-10.063 I2.695 J-0.927 F333.33
N9750 X320.981 Y648.95 Z-10.375 I-2.695 J0.927
N9755 X326.371 Y647.095 Z-10.688 I2.695 J-0.927
N9760 X320.981 Y648.95 Z-11.001 I-2.695 J0.927
N9765 X326.371 Y647.095 Z-11.313 I2.695 J-0.927
N9770 X320.981 Y648.95 Z-11.626 I-2.695 J0.927
N9775 X326.371 Y647.095 Z-11.939 I2.695 J-0.927
N9780 X320.981 Y648.95 Z-12.251 I-2.695 J0.927
N9785 X326.371 Y647.095 Z-12.564 I2.695 J-0.927
N9790 X320.981 Y648.95 Z-12.877 I-2.695 J0.927
N9795 X323.676 Y650.872 Z-13. I2.695 J-0.927
N9800 Y646.963 I0. J-1.955
N9805 Y648.843 I0. J0.94 F1200.
N9810 G1 X363.676
N9815 G2 Y646.963 I0. J-0.94
N9820 G1 X323.676
N9825 G3 X322.47 Y646.322 I0. J-1.456
N9830 G2 X321.104 Y646.359 I-0.671 J0.453
N9835 X323.676 Y650.903 I2.572 J1.544
N9840 G1 X363.676
N9845 G2 Y644.903 I0. J-3.
N9850 G1 X323.676
N9855 G2 X321.104 Y646.359 I0. J3.
N9860 X321.313 Y646.809 I0.257 J0.154
N9865 G1 X323.676 Y647.19
N9870 X326.079 Y647.254
N9875 G2 X326.371 Y646.856 I0.008 J-0.3
N9880 X320.981 Y648.711 Z-13.313 I-2.695 J0.927 F333.33
N9885 X326.371 Y646.856 Z-13.625 I2.695 J-0.927
N9890 X320.981 Y648.711 Z-13.938 I-2.695 J0.927
N9895 X326.371 Y646.856 Z-14.251 I2.695 J-0.927
N9900 X320.981 Y648.711 Z-14.563 I-2.695 J0.927
N9905 X326.371 Y646.856 Z-14.876 I2.695 J-0.927
N9910 X320.981 Y648.711 Z-15.189 I-2.695 J0.927
N9915 X326.371 Y646.856 Z-15.501 I2.695 J-0.927
N9920 X320.981 Y648.711 Z-15.814 I-2.695 J0.927
N9925 X326.371 Y646.856 Z-16.127 I2.695 J-0.927
N9930 X323.676 Y644.934 Z-16.25 I-2.695 J0.927
N9935 Y648.843 I0. J1.955
N9940 G1 X363.676 F1200.
N9945 G2 Y646.963 I0. J-0.94
N9950 G1 X323.676
N9955 G2 Y648.843 I0. J0.94
N9960 G3 X325.221 Y649.873 I0. J1.674
N9965 G2 X326.766 Y650.903 I1.545 J-0.644
N9970 G1 X363.676
N9975 G2 Y644.903 I0. J-3.
N9980 G1 X323.676
N9985 G2 Y650.903 I0. J3.
N9990 G1 X326.766
N9995 G2 X326.857 Y650.317 I0. J-0.3
N10000 G1 X321.356 Y648.566
N10005 G2 X320.981 Y648.95 I-0.091 J0.286
N10010 X326.371 Y647.095 Z-16.563 I2.695 J-0.927 F333.33
N10015 X320.981 Y648.95 Z-16.875 I-2.695 J0.927
N10020 X326.371 Y647.095 Z-17.188 I2.695 J-0.927
N10025 X320.981 Y648.95 Z-17.501 I-2.695 J0.927
N10030 X326.371 Y647.095 Z-17.813 I2.695 J-0.927
N10035 X320.981 Y648.95 Z-18.126 I-2.695 J0.927
N10040 X326.371 Y647.095 Z-18.439 I2.695 J-0.927
N10045 X320.981 Y648.95 Z-18.751 I-2.695 J0.927
N10050 X326.371 Y647.095 Z-19.064 I2.695 J-0.927
N10055 X320.981 Y648.95 Z-19.377 I-2.695 J0.927
N10060 X323.676 Y650.872 Z-19.5 I2.695 J-0.927
N10065 Y646.963 I0. J-1.955
N10070 Y648.843 I0. J0.94 F1200.
N10075 G1 X363.676
N10080 G2 Y646.963 I0. J-0.94
N10085 G1 X323.676
N10090 G3 X322.47 Y646.322 I0. J-1.456
N10095 G2 X321.104 Y646.359 I-0.671 J0.453
N10100 X323.676 Y650.903 I2.572 J1.544
N10105 G1 X363.676
N10110 G2 Y644.903 I0. J-3.
N10115 G1 X323.676
N10120 G2 X321.104 Y646.359 I0. J3.
N10125 G1 X321.063 Y646.441 Z-19.485 F500.
N10130 X321.035 Y646.53 Z-19.471
N10135 X321.021 Y646.612 Z-19.428
N10140 X321.019 Y646.696 Z-19.385
N10145 X321.026 Y646.762 Z-19.319
N10150 X321.04 Y646.826 Z-19.253
N10155 X321.068 Y646.907 Z-19.085
N10160 X321.081 Y646.933 Z-18.9
N10165 G0 Z5.
N10170 X226.184 Y649.376
N10175 G1 Z1.6 F500.
N10180 X226.197 Y649.351 Z1.418 F333.33
N10185 X226.234 Y649.278 Z1.254
N10190 X226.288 Y649.163 Z1.122
N10195 X226.348 Y649.013 Z1.034
N10200 X226.406 Y648.842 Z1.
N10205 G2 X220.946 Y647.203 Z0.687 I-2.73 J-0.82
N10210 X226.406 Y648.842 Z0.375 I2.73 J0.82
N10215 X220.946 Y647.203 Z0.062 I-2.73 J-0.82
N10220 X226.406 Y648.842 Z-0.251 I2.73 J0.82
N10225 X220.946 Y647.203 Z-0.563 I-2.73 J-0.82
N10230 X226.406 Y648.842 Z-0.876 I2.73 J0.82
N10235 X220.946 Y647.203 Z-1.189 I-2.73 J-0.82
N10240 X226.406 Y648.842 Z-1.501 I2.73 J0.82
N10245 X220.946 Y647.203 Z-1.814 I-2.73 J-0.82
N10250 X226.406 Y648.842 Z-2.127 I2.73 J0.82
N10255 X220.946 Y647.203 Z-2.439 I-2.73 J-0.82
N10260 X226.406 Y648.842 Z-2.752 I2.73 J0.82
N10265 X220.946 Y647.203 Z-3.065 I-2.73 J-0.82
N10270 X223.676 Y650.872 Z-3.25 I2.73 J0.82
N10275 Y646.963 I0. J-1.955
N10280 G1 X183.676 F1200.
N10285 G2 Y648.843 I0. J0.94
N10290 G1 X223.676
N10295 G2 Y646.963 I0. J-0.94
N10300 G3 X222.131 Y645.933 I0. J-1.674
N10305 G2 X220.586 Y644.903 I-1.545 J0.644
N10310 G1 X183.676
N10315 G2 Y650.903 I0. J3.
N10320 G1 X223.676
N10325 G2 Y644.903 I0. J-3.
N10330 G1 X220.586
N10335 X220.544 Y644.91
N10340 X220.507 Y644.929
N10345 X220.477 Y644.959
N10350 X220.459 Y644.997
N10355 X220.453 Y645.038
N10360 X220.46 Y645.08
N10365 X220.67 Y645.695
N10370 X221.261 Y648.454
N10375 X221.263 Y648.493
N10380 X221.254 Y648.531
N10385 X221.233 Y648.564
N10390 X221.005 Y648.825
N10395 X220.983 Y648.863
N10400 X220.974 Y648.906
N10405 X220.981 Y648.95
N10410 G2 X226.371 Y647.095 Z-3.563 I2.695 J-0.927 F333.33
N10415 X220.981 Y648.95 Z-3.875 I-2.695 J0.927
N10420 X226.371 Y647.095 Z-4.188 I2.695 J-0.927
N10425 X220.981 Y648.95 Z-4.501 I-2.695 J0.927
N10430 X226.371 Y647.095 Z-4.813 I2.695 J-0.927
N10435 X220.981 Y648.95 Z-5.126 I-2.695 J0.927
N10440 X226.371 Y647.095 Z-5.439 I2.695 J-0.927
N10445 X220.981 Y648.95 Z-5.751 I-2.695 J0.927
N10450 X226.371 Y647.095 Z-6.064 I2.695 J-0.927
N10455 X220.981 Y648.95 Z-6.377 I-2.695 J0.927
N10460 X223.676 Y650.872 Z-6.5 I2.695 J-0.927
N10465 Y646.963 I0. J-1.955
N10470 G1 X183.676 F1200.
N10475 G2 Y648.843 I0. J0.94
N10480 G1 X223.676
N10485 G2 Y646.963 I0. J-0.94
N10490 G3 X222.131 Y645.933 I0. J-1.674
N10495 G2 X220.586 Y644.903 I-1.545 J0.644
N10500 G1 X183.676
N10505 G2 Y650.903 I0. J3.
N10510 G1 X223.676
N10515 G2 Y644.903 I0. J-3.
N10520 G1 X220.586
N10525 X220.544 Y644.91
N10530 X220.507 Y644.929
N10535 X220.477 Y644.959
N10540 X220.459 Y644.997
N10545 X220.453 Y645.038
N10550 X220.46 Y645.08
N10555 X220.67 Y645.695
N10560 X221.261 Y648.454
N10565 X221.263 Y648.493
N10570 X221.254 Y648.531
N10575 X221.233 Y648.564
N10580 X221.005 Y648.825
N10585 X220.983 Y648.863
N10590 X220.974 Y648.906
N10595 X220.981 Y648.95
N10600 G2 X226.371 Y647.095 Z-6.813 I2.695 J-0.927 F333.33
N10605 X220.981 Y648.95 Z-7.125 I-2.695 J0.927
N10610 X226.371 Y647.095 Z-7.438 I2.695 J-0.927
N10615 X220.981 Y648.95 Z-7.751 I-2.695 J0.927
N10620 X226.371 Y647.095 Z-8.063 I2.695 J-0.927
N10625 X220.981 Y648.95 Z-8.376 I-2.695 J0.927
N10630 X226.371 Y647.095 Z-8.689 I2.695 J-0.927
N10635 X220.981 Y648.95 Z-9.001 I-2.695 J0.927
N10640 X226.371 Y647.095 Z-9.314 I2.695 J-0.927
N10645 X220.981 Y648.95 Z-9.627 I-2.695 J0.927
N10650 X223.676 Y650.872 Z-9.75 I2.695 J-0.927
N10655 Y646.963 I0. J-1.955
N10660 G1 X183.676 F1200.
N10665 G2 Y648.843 I0. J0.94
N10670 G1 X223.676
N10675 G2 Y646.963 I0. J-0.94
N10680 G3 X222.131 Y645.933 I0. J-1.674
N10685 G2 X220.586 Y644.903 I-1.545 J0.644
N10690 G1 X183.676
N10695 G2 Y650.903 I0. J3.
N10700 G1 X223.676
N10705 G2 Y644.903 I0. J-3.
N10710 G1 X220.586
N10715 X220.544 Y644.91
N10720 X220.507 Y644.929
N10725 X220.477 Y644.959
N10730 X220.459 Y644.997
N10735 X220.453 Y645.038
N10740 X220.46 Y645.08
N10745 X220.67 Y645.695
N10750 X221.261 Y648.454
N10755 X221.263 Y648.493
N10760 X221.254 Y648.531
N10765 X221.233 Y648.564
N10770 X221.005 Y648.825
N10775 X220.983 Y648.863
N10780 X220.974 Y648.906
N10785 X220.981 Y648.95
N10790 G2 X226.371 Y647.095 Z-10.063 I2.695 J-0.927 F333.33
N10795 X220.981 Y648.95 Z-10.375 I-2.695 J0.927
N10800 X226.371 Y647.095 Z-10.688 I2.695 J-0.927
N10805 X220.981 Y648.95 Z-11.001 I-2.695 J0.927
N10810 X226.371 Y647.095 Z-11.313 I2.695 J-0.927
N10815 X220.981 Y648.95 Z-11.626 I-2.695 J0.927
N10820 X226.371 Y647.095 Z-11.939 I2.695 J-0.927
N10825 X220.981 Y648.95 Z-12.251 I-2.695 J0.927
N10830 X226.371 Y647.095 Z-12.564 I2.695 J-0.927
N10835 X220.981 Y648.95 Z-12.877 I-2.695 J0.927
N10840 X223.676 Y650.872 Z-13. I2.695 J-0.927
N10845 Y646.963 I0. J-1.955
N10850 G1 X183.676 F1200.
N10855 G2 Y648.843 I0. J0.94
N10860 G1 X223.676
N10865 G2 Y646.963 I0. J-0.94
N10870 G3 X222.131 Y645.933 I0. J-1.674
N10875 G2 X220.586 Y644.903 I-1.545 J0.644
N10880 G1 X183.676
N10885 G2 Y650.903 I0. J3.
N10890 G1 X223.676
N10895 G2 Y644.903 I0. J-3.
N10900 G1 X220.586
N10905 X220.544 Y644.91
N10910 X220.507 Y644.929
N10915 X220.477 Y644.959
N10920 X220.459 Y644.997
N10925 X220.453 Y645.038
N10930 X220.46 Y645.08
N10935 X220.67 Y645.695
N10940 X221.261 Y648.454
N10945 X221.263 Y648.493
N10950 X221.254 Y648.531
N10955 X221.233 Y648.564
N10960 X221.005 Y648.825
N10965 X220.983 Y648.863
N10970 X220.974 Y648.906
N10975 X220.981 Y648.95
N10980 G2 X226.371 Y647.095 Z-13.313 I2.695 J-0.927 F333.33
N10985 X220.981 Y648.95 Z-13.625 I-2.695 J0.927
N10990 X226.371 Y647.095 Z-13.938 I2.695 J-0.927
N10995 X220.981 Y648.95 Z-14.251 I-2.695 J0.927
N11000 X226.371 Y647.095 Z-14.563 I2.695 J-0.927
N11005 X220.981 Y648.95 Z-14.876 I-2.695 J0.927
N11010 X226.371 Y647.095 Z-15.189 I2.695 J-0.927
N11015 X220.981 Y648.95 Z-15.501 I-2.695 J0.927
N11020 X226.371 Y647.095 Z-15.814 I2.695 J-0.927
N11025 X220.981 Y648.95 Z-16.127 I-2.695 J0.927
N11030 X223.676 Y650.872 Z-16.25 I2.695 J-0.927
N11035 Y646.963 I0. J-1.955
N11040 G1 X183.676 F1200.
N11045 G2 Y648.843 I0. J0.94
N11050 G1 X223.676
N11055 G2 Y646.963 I0. J-0.94
N11060 G3 X222.131 Y645.933 I0. J-1.674
N11065 G2 X220.586 Y644.903 I-1.545 J0.644
N11070 G1 X183.676
N11075 G2 Y650.903 I0. J3.
N11080 G1 X223.676
N11085 G2 Y644.903 I0. J-3.
N11090 G1 X220.586
N11095 X220.544 Y644.91
N11100 X220.507 Y644.929
N11105 X220.477 Y644.959
N11110 X220.459 Y644.997
N11115 X220.453 Y645.038
N11120 X220.46 Y645.08
N11125 X220.67 Y645.695
N11130 X221.261 Y648.454
N11135 X221.263 Y648.493
N11140 X221.254 Y648.531
N11145 X221.233 Y648.564
N11150 X221.005 Y648.825
N11155 X220.983 Y648.863
N11160 X220.974 Y648.906
N11165 X220.981 Y648.95
N11170 G2 X226.371 Y647.095 Z-16.563 I2.695 J-0.927 F333.33
N11175 X220.981 Y648.95 Z-16.875 I-2.695 J0.927
N11180 X226.371 Y647.095 Z-17.188 I2.695 J-0.927
N11185 X220.981 Y648.95 Z-17.501 I-2.695 J0.927
N11190 X226.371 Y647.095 Z-17.813 I2.695 J-0.927
N11195 X220.981 Y648.95 Z-18.126 I-2.695 J0.927
N11200 X226.371 Y647.095 Z-18.439 I2.695 J-0.927
N11205 X220.981 Y648.95 Z-18.751 I-2.695 J0.927
N11210 X226.371 Y647.095 Z-19.064 I2.695 J-0.927
N11215 X220.981 Y648.95 Z-19.377 I-2.695 J0.927
N11220 X223.676 Y650.872 Z-19.5 I2.695 J-0.927
N11225 Y646.963 I0. J-1.955
N11230 G1 X183.676 F1200.
N11235 G2 Y648.843 I0. J0.94
N11240 G1 X223.676
N11245 G2 Y646.963 I0. J-0.94
N11250 G3 X222.131 Y645.933 I0. J-1.674
N11255 G2 X220.586 Y644.903 I-1.545 J0.644
N11260 G1 X183.676
N11265 G2 Y650.903 I0. J3.
N11270 G1 X223.676
N11275 G2 Y644.903 I0. J-3.
N11280 G1 X220.586
N11285 X220.494 Y644.91 Z-19.485 F500.
N11290 X220.404 Y644.931 Z-19.471
N11295 X220.326 Y644.962 Z-19.428
N11300 X220.253 Y645.004 Z-19.385
N11305 X220.2 Y645.043 Z-19.319
N11310 X220.152 Y645.089 Z-19.253
N11315 X220.098 Y645.154 Z-19.085
N11320 X220.081 Y645.179 Z-18.9
N11325 G0 Z15.
N11330 G53 Z0.
N11335 M30
%
