%
(1001)
(T1  D=6. CR=0. - ZMIN=-20. - FLAT END MILL)
N10 G90 G94 G17 G91.1
N15 G21
N20 G53 G0 Z0.
(2D POCKET1)
N25 M9
N30 T1 M6
N35 S22000 M3
N40 G54
N45 G0 X274.659 Y615.727
N50 G43 Z15. H1
N55 G0 Z5.
N60 G1 Z1.6 F500.
N65 X274.687 Y615.723 Z1.418 F333.33
N70 X274.767 Y615.71 Z1.254
N75 X274.892 Y615.686 Z1.122
N80 X275.049 Y615.646 Z1.034
N85 X275.221 Y615.592 Z1.
N90 G2 X273.331 Y610.214 Z0.687 I-0.945 J-2.689
N95 X275.221 Y615.592 Z0.375 I0.945 J2.689
N100 X273.331 Y610.214 Z0.062 I-0.945 J-2.689
N105 X275.221 Y615.592 Z-0.251 I0.945 J2.689
N110 X273.331 Y610.214 Z-0.563 I-0.945 J-2.689
N115 X275.221 Y615.592 Z-0.876 I0.945 J2.689
N120 X273.331 Y610.214 Z-1.189 I-0.945 J-2.689
N125 X275.221 Y615.592 Z-1.501 I0.945 J2.689
N130 X273.331 Y610.214 Z-1.814 I-0.945 J-2.689
N135 X275.221 Y615.592 Z-2.127 I0.945 J2.689
N140 X273.331 Y610.214 Z-2.439 I-0.945 J-2.689
N145 X275.221 Y615.592 Z-2.752 I0.945 J2.689
N150 X273.331 Y610.214 Z-3.065 I-0.945 J-2.689
N155 X275.221 Y615.592 Z-3.377 I0.945 J2.689
N160 X277.126 Y612.903 Z-3.5 I-0.945 J-2.689
N165 X272.571 I-2.277 J0.
N170 G1 Y912.903 F1200.
N175 G2 X274.781 I1.105 J0.
N180 G1 Y612.903
N185 G2 X272.571 I-1.105 J0.
N190 G3 X271.374 Y614.699 I-1.946 J0.
N195 G2 X270.176 Y616.495 I0.748 J1.796
N200 G1 Y912.903
N205 G2 X277.176 I3.5 J0.
N210 G1 Y612.903
N215 G2 X270.176 I-3.5 J0.
N220 G1 Y616.495
N225 G2 X270.76 Y616.592 I0.3 J0.
N230 G1 X272.47 Y611.539
N235 G2 X271.94 Y611.271 I-0.284 J-0.096
N240 X276.612 Y614.535 Z-3.813 I2.336 J1.632 F333.33
N245 X271.94 Y611.271 Z-4.125 I-2.336 J-1.632
N250 X276.612 Y614.535 Z-4.438 I2.336 J1.632
N255 X271.94 Y611.271 Z-4.751 I-2.336 J-1.632
N260 X276.612 Y614.535 Z-5.063 I2.336 J1.632
N265 X271.94 Y611.271 Z-5.376 I-2.336 J-1.632
N270 X276.612 Y614.535 Z-5.689 I2.336 J1.632
N275 X271.94 Y611.271 Z-6.001 I-2.336 J-1.632
N280 X276.612 Y614.535 Z-6.314 I2.336 J1.632
N285 X271.94 Y611.271 Z-6.627 I-2.336 J-1.632
N290 X276.612 Y614.535 Z-6.939 I2.336 J1.632
N295 X277.126 Y612.903 Z-7. I-2.336 J-1.632
N300 X272.571 I-2.277 J0.
N305 G1 Y912.903 F1200.
N310 G2 X274.781 I1.105 J0.
N315 G1 Y612.903
N320 G2 X272.571 I-1.105 J0.
N325 G3 X271.374 Y614.699 I-1.946 J0.
N330 G2 X270.176 Y616.495 I0.748 J1.796
N335 G1 Y912.903
N340 G2 X277.176 I3.5 J0.
N345 G1 Y612.903
N350 G2 X270.176 I-3.5 J0.
N355 G1 Y616.495
N360 G2 X270.76 Y616.592 I0.3 J0.
N365 G1 X272.47 Y611.539
N370 G2 X271.94 Y611.271 I-0.284 J-0.096
N375 X276.612 Y614.535 Z-7.313 I2.336 J1.632 F333.33
N380 X271.94 Y611.271 Z-7.625 I-2.336 J-1.632
N385 X276.612 Y614.535 Z-7.938 I2.336 J1.632
N390 X271.94 Y611.271 Z-8.251 I-2.336 J-1.632
N395 X276.612 Y614.535 Z-8.563 I2.336 J1.632
N400 X271.94 Y611.271 Z-8.876 I-2.336 J-1.632
N405 X276.612 Y614.535 Z-9.189 I2.336 J1.632
N410 X271.94 Y611.271 Z-9.501 I-2.336 J-1.632
N415 X276.612 Y614.535 Z-9.814 I2.336 J1.632
N420 X271.94 Y611.271 Z-10.127 I-2.336 J-1.632
N425 X276.612 Y614.535 Z-10.439 I2.336 J1.632
N430 X277.126 Y612.903 Z-10.5 I-2.336 J-1.632
N435 X272.571 I-2.277 J0.
N440 G1 Y912.903 F1200.
N445 G2 X274.781 I1.105 J0.
N450 G1 Y612.903
N455 G2 X272.571 I-1.105 J0.
N460 G3 X271.374 Y614.699 I-1.946 J0.
N465 G2 X270.176 Y616.495 I0.748 J1.796
N470 G1 Y912.903
N475 G2 X277.176 I3.5 J0.
N480 G1 Y612.903
N485 G2 X270.176 I-3.5 J0.
N490 G1 Y616.495
N495 G2 X270.76 Y616.592 I0.3 J0.
N500 G1 X272.47 Y611.539
N505 G2 X271.94 Y611.271 I-0.284 J-0.096
N510 X276.612 Y614.535 Z-10.813 I2.336 J1.632 F333.33
N515 X271.94 Y611.271 Z-11.125 I-2.336 J-1.632
N520 X276.612 Y614.535 Z-11.438 I2.336 J1.632
N525 X271.94 Y611.271 Z-11.751 I-2.336 J-1.632
N530 X276.612 Y614.535 Z-12.063 I2.336 J1.632
N535 X271.94 Y611.271 Z-12.376 I-2.336 J-1.632
N540 X276.612 Y614.535 Z-12.689 I2.336 J1.632
N545 X271.94 Y611.271 Z-13.001 I-2.336 J-1.632
N550 X276.612 Y614.535 Z-13.314 I2.336 J1.632
N555 X271.94 Y611.271 Z-13.627 I-2.336 J-1.632
N560 X276.612 Y614.535 Z-13.939 I2.336 J1.632
N565 X277.126 Y612.903 Z-14. I-2.336 J-1.632
N570 X272.571 I-2.277 J0.
N575 G1 Y912.903 F1200.
N580 G2 X274.781 I1.105 J0.
N585 G1 Y612.903
N590 G2 X272.571 I-1.105 J0.
N595 G3 X271.374 Y614.699 I-1.946 J0.
N600 G2 X270.176 Y616.495 I0.748 J1.796
N605 G1 Y912.903
N610 G2 X277.176 I3.5 J0.
N615 G1 Y612.903
N620 G2 X270.176 I-3.5 J0.
N625 G1 Y616.495
N630 G2 X270.76 Y616.592 I0.3 J0.
N635 G1 X272.47 Y611.539
N640 G2 X271.94 Y611.271 I-0.284 J-0.096
N645 X276.612 Y614.535 Z-14.313 I2.336 J1.632 F333.33
N650 X271.94 Y611.271 Z-14.625 I-2.336 J-1.632
N655 X276.612 Y614.535 Z-14.938 I2.336 J1.632
N660 X271.94 Y611.271 Z-15.251 I-2.336 J-1.632
N665 X276.612 Y614.535 Z-15.563 I2.336 J1.632
N670 X271.94 Y611.271 Z-15.876 I-2.336 J-1.632
N675 X276.612 Y614.535 Z-16.189 I2.336 J1.632
N680 X271.94 Y611.271 Z-16.501 I-2.336 J-1.632
N685 X276.612 Y614.535 Z-16.814 I2.336 J1.632
N690 X271.94 Y611.271 Z-17.127 I-2.336 J-1.632
N695 X276.612 Y614.535 Z-17.439 I2.336 J1.632
N700 X277.126 Y612.903 Z-17.5 I-2.336 J-1.632
N705 X272.571 I-2.277 J0.
N710 G1 Y912.903 F1200.
N715 G2 X274.781 I1.105 J0.
N720 G1 Y612.903
N725 G2 X272.571 I-1.105 J0.
N730 G3 X271.374 Y614.699 I-1.946 J0.
N735 G2 X270.176 Y616.495 I0.748 J1.796
N740 G1 Y912.903
N745 G2 X277.176 I3.5 J0.
N750 G1 Y612.903
N755 G2 X270.176 I-3.5 J0.
N760 G1 Y616.495
N765 G2 X270.411 Y616.63 I0.156 J0.
N770 G1 X271.045 Y616.257
N775 X276.418 Y613.065
N780 X276.443 Y613.053
N785 X276.47 Y613.047
N790 X277.011 Y612.993
N795 X277.048 Y612.984
N800 X277.08 Y612.964
N805 X277.105 Y612.937
N810 X277.121 Y612.902
N815 X277.126 Y612.865
N820 G2 X271.426 Y612.941 Z-17.813 I-2.85 J0.038 F333.33
N825 X277.126 Y612.865 Z-18.125 I2.85 J-0.038
N830 X271.426 Y612.941 Z-18.438 I-2.85 J0.038
N835 X277.126 Y612.865 Z-18.751 I2.85 J-0.038
N840 X271.426 Y612.941 Z-19.063 I-2.85 J0.038
N845 X277.126 Y612.865 Z-19.376 I2.85 J-0.038
N850 X271.426 Y612.941 Z-19.689 I-2.85 J0.038
N855 X277.126 Y612.903 Z-20. I2.85 J-0.038
N860 X272.571 I-2.277 J0.
N865 G1 Y912.903 F1200.
N870 G2 X274.781 I1.105 J0.
N875 G1 Y612.903
N880 G2 X272.571 I-1.105 J0.
N885 G3 X271.374 Y614.699 I-1.946 J0.
N890 G2 X270.176 Y616.495 I0.748 J1.796
N895 G1 Y912.903
N900 G2 X277.176 I3.5 J0.
N905 G1 Y612.903
N910 G2 X270.176 I-3.5 J0.
N915 G1 Y616.495
N920 X270.183 Y616.588 Z-19.985 F500.
N925 X270.204 Y616.678 Z-19.971
N930 X270.235 Y616.756 Z-19.928
N935 X270.277 Y616.828 Z-19.885
N940 X270.316 Y616.881 Z-19.819
N945 X270.362 Y616.93 Z-19.753
N950 X270.428 Y616.984 Z-19.585
N955 X270.452 Y617. Z-19.4
N960 G0 Z15.
(2D CONTOUR1)
N965 G0 X386.243 Y1245.795
N970 Z15.
N975 Z5.
N980 G1 Z4.5 F100.33
N985 Z-2.733
N990 X386.244 Y1245.787 Z-2.827
N995 X386.247 Y1245.766 Z-2.919
N1000 X386.252 Y1245.73 Z-3.006
N1005 X386.26 Y1245.681 Z-3.086
N1010 X386.269 Y1245.621 Z-3.158
N1015 X386.28 Y1245.55 Z-3.219
N1020 X386.292 Y1245.471 Z-3.268
N1025 X386.305 Y1245.385 Z-3.304
N1030 X386.318 Y1245.294 Z-3.326
N1035 X386.333 Y1245.201 Z-3.333
N1040 X386.422 Y1244.608 F500.
N1045 G2 X385.919 Y1243.925 I-0.593 J-0.09
N1050 G3 X347.047 Y1189.823 I6.971 J-46.025 F1200.
N1055 G1 X367.444 Y1074.143
N1060 G2 X317.316 Y1035.105 I-35.403 J-6.242
N1065 G3 X230.037 I-43.639 J-97.202
N1070 G2 X179.91 Y1074.143 I-14.725 J32.795
N1075 G1 X200.306 Y1189.823
N1080 G3 X154.463 Y1244.45 I-45.843 J8.077
N1085 G1 X23.676
N1090 G3 X17.151 Y1237.329 I0. J-6.55
N1095 G1 X44.16 Y928.616
N1100 G3 X48.853 Y905.337 I106.147 J9.286
N1105 G1 X156.295 Y570.619
N1110 G3 X210.14 Y531.353 I53.844 J17.283
N1115 G1 X337.213
N1120 G3 X391.058 Y570.619 I0. J56.551
N1125 G1 X498.5 Y905.337
N1130 G3 X503.192 Y928.616 I-101.452 J32.563
N1135 G1 X530.201 Y1237.329
N1140 G3 X523.676 Y1244.45 I-6.525 J0.571
N1145 G1 X392.89
N1150 G3 X385.919 Y1243.925 I0. J-46.55
N1155 X383.925 Y1242.074 I0.362 J-2.39
N1160 G2 X382.027 Y1240.125 I-2.55 J0.584
N1165 G3 X349.952 Y1190.335 I10.863 J-42.225
N1170 G1 X370.349 Y1074.655
N1175 G2 X316.108 Y1032.414 I-38.308 J-6.755
N1180 G3 X231.246 I-42.431 J-94.511
N1185 G2 X177.004 Y1074.655 I-15.933 J35.486
N1190 G1 X197.4 Y1190.335
N1195 G3 X154.463 Y1241.5 I-42.938 J7.566
N1200 G1 X23.676
N1205 G3 X20.09 Y1237.586 I0. J-3.6
N1210 G1 X47.099 Y928.873
N1215 G3 X51.662 Y906.239 I103.206 J9.029
N1220 G1 X159.104 Y571.521
N1225 G3 X210.14 Y534.303 I51.035 J16.383
N1230 G1 X337.213
N1235 G3 X388.249 Y571.521 I0. J53.6
N1240 G1 X495.691 Y906.239
N1245 G3 X500.253 Y928.873 I-98.643 J31.661
N1250 G1 X527.262 Y1237.586
N1255 G3 X523.676 Y1241.5 I-3.586 J0.314
N1260 G1 X392.89
N1265 G3 X382.027 Y1240.125 I0. J-43.6
N1270 X381.665 Y1239.72 I0.122 J-0.473
N1275 G2 X381.307 Y1239.311 I-0.491 J0.069
N1280 G3 X350.543 Y1190.439 I11.583 J-41.41
N1285 G1 X370.94 Y1074.759
N1290 G2 X315.862 Y1031.867 I-38.899 J-6.859
N1295 G3 X231.491 I-42.185 J-93.964
N1300 G2 X176.413 Y1074.759 I-16.179 J36.034
N1305 G1 X196.809 Y1190.439
N1310 G3 X154.463 Y1240.9 I-42.347 J7.462
N1315 G1 X23.676
N1320 G3 X20.688 Y1237.639 I0. J-3.
N1325 G1 X47.697 Y928.926
N1330 G3 X52.234 Y906.422 I102.608 J8.977
N1335 G1 X159.676 Y571.704
N1340 G3 X210.14 Y534.903 I50.464 J16.199
N1345 G1 X337.213
N1350 G3 X387.677 Y571.704 I0. J53.
N1355 G1 X495.119 Y906.422
N1360 G3 X499.656 Y928.926 I-98.072 J31.478
N1365 G1 X526.665 Y1237.639
N1370 G3 X523.676 Y1240.9 I-2.989 J0.261
N1375 G1 X392.89
N1380 G3 X381.307 Y1239.311 I0. J-43.
N1385 G2 X380.568 Y1239.727 I-0.162 J0.578 F500.
N1390 G1 X380.406 Y1240.305
N1395 X380.381 Y1240.395 Z-3.326
N1400 X380.356 Y1240.483 Z-3.304
N1405 X380.333 Y1240.567 Z-3.268
N1410 X380.311 Y1240.644 Z-3.219
N1415 X380.292 Y1240.713 Z-3.158
N1420 X380.275 Y1240.772 Z-3.086
N1425 X380.262 Y1240.819 Z-3.006
N1430 X380.252 Y1240.854 Z-2.919
N1435 X380.246 Y1240.875 Z-2.827
N1440 X380.244 Y1240.882 Z-2.733
N1445 G0 Z5.
N1450 X386.243 Y1245.795
N1455 G1 Z1.167 F100.33
N1460 Z-6.067
N1465 X386.244 Y1245.787 Z-6.161
N1470 X386.247 Y1245.766 Z-6.252
N1475 X386.252 Y1245.73 Z-6.339
N1480 X386.26 Y1245.681 Z-6.419
N1485 X386.269 Y1245.621 Z-6.491
N1490 X386.28 Y1245.55 Z-6.552
N1495 X386.292 Y1245.471 Z-6.601
N1500 X386.305 Y1245.385 Z-6.637
N1505 X386.318 Y1245.294 Z-6.659
N1510 X386.333 Y1245.201 Z-6.667
N1515 X386.422 Y1244.608 F500.
N1520 G2 X385.919 Y1243.925 I-0.593 J-0.09
N1525 G3 X347.047 Y1189.823 I6.971 J-46.025 F1200.
N1530 G1 X367.444 Y1074.143
N1535 G2 X317.316 Y1035.105 I-35.403 J-6.242
N1540 G3 X230.037 I-43.639 J-97.202
N1545 G2 X179.91 Y1074.143 I-14.725 J32.795
N1550 G1 X200.306 Y1189.823
N1555 G3 X154.463 Y1244.45 I-45.843 J8.077
N1560 G1 X23.676
N1565 G3 X17.151 Y1237.329 I0. J-6.55
N1570 G1 X44.16 Y928.616
N1575 G3 X48.853 Y905.337 I106.147 J9.286
N1580 G1 X156.295 Y570.619
N1585 G3 X210.14 Y531.353 I53.844 J17.283
N1590 G1 X337.213
N1595 G3 X391.058 Y570.619 I0. J56.551
N1600 G1 X498.5 Y905.337
N1605 G3 X503.192 Y928.616 I-101.452 J32.563
N1610 G1 X530.201 Y1237.329
N1615 G3 X523.676 Y1244.45 I-6.525 J0.571
N1620 G1 X392.89
N1625 G3 X385.919 Y1243.925 I0. J-46.55
N1630 X383.925 Y1242.074 I0.362 J-2.39
N1635 G2 X382.027 Y1240.125 I-2.55 J0.584
N1640 G3 X349.952 Y1190.335 I10.863 J-42.225
N1645 G1 X370.349 Y1074.655
N1650 G2 X316.108 Y1032.414 I-38.308 J-6.755
N1655 G3 X231.246 I-42.431 J-94.511
N1660 G2 X177.004 Y1074.655 I-15.933 J35.486
N1665 G1 X197.4 Y1190.335
N1670 G3 X154.463 Y1241.5 I-42.938 J7.566
N1675 G1 X23.676
N1680 G3 X20.09 Y1237.586 I0. J-3.6
N1685 G1 X47.099 Y928.873
N1690 G3 X51.662 Y906.239 I103.206 J9.029
N1695 G1 X159.104 Y571.521
N1700 G3 X210.14 Y534.303 I51.035 J16.383
N1705 G1 X337.213
N1710 G3 X388.249 Y571.521 I0. J53.6
N1715 G1 X495.691 Y906.239
N1720 G3 X500.253 Y928.873 I-98.643 J31.661
N1725 G1 X527.262 Y1237.586
N1730 G3 X523.676 Y1241.5 I-3.586 J0.314
N1735 G1 X392.89
N1740 G3 X382.027 Y1240.125 I0. J-43.6
N1745 X381.665 Y1239.72 I0.122 J-0.473
N1750 G2 X381.307 Y1239.311 I-0.491 J0.069
N1755 G3 X350.543 Y1190.439 I11.583 J-41.41
N1760 G1 X370.94 Y1074.759
N1765 G2 X315.862 Y1031.867 I-38.899 J-6.859
N1770 G3 X231.491 I-42.185 J-93.964
N1775 G2 X176.413 Y1074.759 I-16.179 J36.034
N1780 G1 X196.809 Y1190.439
N1785 G3 X154.463 Y1240.9 I-42.347 J7.462
N1790 G1 X23.676
N1795 G3 X20.688 Y1237.639 I0. J-3.
N1800 G1 X47.697 Y928.926
N1805 G3 X52.234 Y906.422 I102.608 J8.977
N1810 G1 X159.676 Y571.704
N1815 G3 X210.14 Y534.903 I50.464 J16.199
N1820 G1 X337.213
N1825 G3 X387.677 Y571.704 I0. J53.
N1830 G1 X495.119 Y906.422
N1835 G3 X499.656 Y928.926 I-98.072 J31.478
N1840 G1 X526.665 Y1237.639
N1845 G3 X523.676 Y1240.9 I-2.989 J0.261
N1850 G1 X392.89
N1855 G3 X381.307 Y1239.311 I0. J-43.
N1860 G2 X380.568 Y1239.727 I-0.162 J0.578 F500.
N1865 G1 X380.406 Y1240.305
N1870 X380.381 Y1240.395 Z-6.659
N1875 X380.356 Y1240.483 Z-6.637
N1880 X380.333 Y1240.567 Z-6.601
N1885 X380.311 Y1240.644 Z-6.552
N1890 X380.292 Y1240.713 Z-6.491
N1895 X380.275 Y1240.772 Z-6.419
N1900 X380.262 Y1240.819 Z-6.339
N1905 X380.252 Y1240.854 Z-6.252
N1910 X380.246 Y1240.875 Z-6.161
N1915 X380.244 Y1240.882 Z-6.067
N1920 G0 Z5.
N1925 X386.243 Y1245.795
N1930 G1 Z-2.167 F100.33
N1935 Z-9.4
N1940 X386.244 Y1245.787 Z-9.494
N1945 X386.247 Y1245.766 Z-9.585
N1950 X386.252 Y1245.73 Z-9.672
N1955 X386.26 Y1245.681 Z-9.753
N1960 X386.269 Y1245.621 Z-9.824
N1965 X386.28 Y1245.55 Z-9.885
N1970 X386.292 Y1245.471 Z-9.935
N1975 X386.305 Y1245.385 Z-9.971
N1980 X386.318 Y1245.294 Z-9.993
N1985 X386.333 Y1245.201 Z-10.
N1990 X386.422 Y1244.608 F500.
N1995 G2 X385.919 Y1243.925 I-0.593 J-0.09
N2000 G3 X347.047 Y1189.823 I6.971 J-46.025 F1200.
N2005 G1 X367.444 Y1074.143
N2010 G2 X317.316 Y1035.105 I-35.403 J-6.242
N2015 G3 X230.037 I-43.639 J-97.202
N2020 G2 X179.91 Y1074.143 I-14.725 J32.795
N2025 G1 X200.306 Y1189.823
N2030 G3 X154.463 Y1244.45 I-45.843 J8.077
N2035 G1 X23.676
N2040 G3 X17.151 Y1237.329 I0. J-6.55
N2045 G1 X44.16 Y928.616
N2050 G3 X48.853 Y905.337 I106.147 J9.286
N2055 G1 X156.295 Y570.619
N2060 G3 X210.14 Y531.353 I53.844 J17.283
N2065 G1 X337.213
N2070 G3 X391.058 Y570.619 I0. J56.551
N2075 G1 X498.5 Y905.337
N2080 G3 X503.192 Y928.616 I-101.452 J32.563
N2085 G1 X530.201 Y1237.329
N2090 G3 X523.676 Y1244.45 I-6.525 J0.571
N2095 G1 X392.89
N2100 G3 X385.919 Y1243.925 I0. J-46.55
N2105 X383.925 Y1242.074 I0.362 J-2.39
N2110 G2 X382.027 Y1240.125 I-2.55 J0.584
N2115 G3 X349.952 Y1190.335 I10.863 J-42.225
N2120 G1 X370.349 Y1074.655
N2125 G2 X316.108 Y1032.414 I-38.308 J-6.755
N2130 G3 X231.246 I-42.431 J-94.511
N2135 G2 X177.004 Y1074.655 I-15.933 J35.486
N2140 G1 X197.4 Y1190.335
N2145 G3 X154.463 Y1241.5 I-42.938 J7.566
N2150 G1 X23.676
N2155 G3 X20.09 Y1237.586 I0. J-3.6
N2160 G1 X47.099 Y928.873
N2165 G3 X51.662 Y906.239 I103.206 J9.029
N2170 G1 X159.104 Y571.521
N2175 G3 X210.14 Y534.303 I51.035 J16.383
N2180 G1 X337.213
N2185 G3 X388.249 Y571.521 I0. J53.6
N2190 G1 X495.691 Y906.239
N2195 G3 X500.253 Y928.873 I-98.643 J31.661
N2200 G1 X527.262 Y1237.586
N2205 G3 X523.676 Y1241.5 I-3.586 J0.314
N2210 G1 X392.89
N2215 G3 X382.027 Y1240.125 I0. J-43.6
N2220 X381.665 Y1239.72 I0.122 J-0.473
N2225 G2 X381.307 Y1239.311 I-0.491 J0.069
N2230 G3 X350.543 Y1190.439 I11.583 J-41.41
N2235 G1 X370.94 Y1074.759
N2240 G2 X315.862 Y1031.867 I-38.899 J-6.859
N2245 G3 X231.491 I-42.185 J-93.964
N2250 G2 X176.413 Y1074.759 I-16.179 J36.034
N2255 G1 X196.809 Y1190.439
N2260 G3 X154.463 Y1240.9 I-42.347 J7.462
N2265 G1 X23.676
N2270 G3 X20.688 Y1237.639 I0. J-3.
N2275 G1 X47.697 Y928.926
N2280 G3 X52.234 Y906.422 I102.608 J8.977
N2285 G1 X159.676 Y571.704
N2290 G3 X210.14 Y534.903 I50.464 J16.199
N2295 G1 X337.213
N2300 G3 X387.677 Y571.704 I0. J53.
N2305 G1 X495.119 Y906.422
N2310 G3 X499.656 Y928.926 I-98.072 J31.478
N2315 G1 X526.665 Y1237.639
N2320 G3 X523.676 Y1240.9 I-2.989 J0.261
N2325 G1 X392.89
N2330 G3 X381.307 Y1239.311 I0. J-43.
N2335 G2 X380.568 Y1239.727 I-0.162 J0.578 F500.
N2340 G1 X380.406 Y1240.305
N2345 X380.381 Y1240.395 Z-9.993
N2350 X380.356 Y1240.483 Z-9.971
N2355 X380.333 Y1240.567 Z-9.935
N2360 X380.311 Y1240.644 Z-9.885
N2365 X380.292 Y1240.713 Z-9.824
N2370 X380.275 Y1240.772 Z-9.753
N2375 X380.262 Y1240.819 Z-9.672
N2380 X380.252 Y1240.854 Z-9.585
N2385 X380.246 Y1240.875 Z-9.494
N2390 X380.244 Y1240.882 Z-9.4
N2395 G0 Z5.
N2400 X386.243 Y1245.795
N2405 G1 Z-5.5 F100.33
N2410 Z-12.733
N2415 X386.244 Y1245.787 Z-12.827
N2420 X386.247 Y1245.766 Z-12.919
N2425 X386.252 Y1245.73 Z-13.006
N2430 X386.26 Y1245.681 Z-13.086
N2435 X386.269 Y1245.621 Z-13.158
N2440 X386.28 Y1245.55 Z-13.219
N2445 X386.292 Y1245.471 Z-13.268
N2450 X386.305 Y1245.385 Z-13.304
N2455 X386.318 Y1245.294 Z-13.326
N2460 X386.333 Y1245.201 Z-13.333
N2465 X386.422 Y1244.608 F500.
N2470 G2 X385.919 Y1243.925 I-0.593 J-0.09
N2475 G3 X347.047 Y1189.823 I6.971 J-46.025 F1200.
N2480 G1 X367.444 Y1074.143
N2485 G2 X317.316 Y1035.105 I-35.403 J-6.242
N2490 G3 X230.037 I-43.639 J-97.202
N2495 G2 X179.91 Y1074.143 I-14.725 J32.795
N2500 G1 X200.306 Y1189.823
N2505 G3 X154.463 Y1244.45 I-45.843 J8.077
N2510 G1 X23.676
N2515 G3 X17.151 Y1237.329 I0. J-6.55
N2520 G1 X44.16 Y928.616
N2525 G3 X48.853 Y905.337 I106.147 J9.286
N2530 G1 X156.295 Y570.619
N2535 G3 X210.14 Y531.353 I53.844 J17.283
N2540 G1 X337.213
N2545 G3 X391.058 Y570.619 I0. J56.551
N2550 G1 X498.5 Y905.337
N2555 G3 X503.192 Y928.616 I-101.452 J32.563
N2560 G1 X530.201 Y1237.329
N2565 G3 X523.676 Y1244.45 I-6.525 J0.571
N2570 G1 X392.89
N2575 G3 X385.919 Y1243.925 I0. J-46.55
N2580 X383.925 Y1242.074 I0.362 J-2.39
N2585 G2 X382.027 Y1240.125 I-2.55 J0.584
N2590 G3 X349.952 Y1190.335 I10.863 J-42.225
N2595 G1 X370.349 Y1074.655
N2600 G2 X316.108 Y1032.414 I-38.308 J-6.755
N2605 G3 X231.246 I-42.431 J-94.511
N2610 G2 X177.004 Y1074.655 I-15.933 J35.486
N2615 G1 X197.4 Y1190.335
N2620 G3 X154.463 Y1241.5 I-42.938 J7.566
N2625 G1 X23.676
N2630 G3 X20.09 Y1237.586 I0. J-3.6
N2635 G1 X47.099 Y928.873
N2640 G3 X51.662 Y906.239 I103.206 J9.029
N2645 G1 X159.104 Y571.521
N2650 G3 X210.14 Y534.303 I51.035 J16.383
N2655 G1 X337.213
N2660 G3 X388.249 Y571.521 I0. J53.6
N2665 G1 X495.691 Y906.239
N2670 G3 X500.253 Y928.873 I-98.643 J31.661
N2675 G1 X527.262 Y1237.586
N2680 G3 X523.676 Y1241.5 I-3.586 J0.314
N2685 G1 X392.89
N2690 G3 X382.027 Y1240.125 I0. J-43.6
N2695 X381.665 Y1239.72 I0.122 J-0.473
N2700 G2 X381.307 Y1239.311 I-0.491 J0.069
N2705 G3 X350.543 Y1190.439 I11.583 J-41.41
N2710 G1 X370.94 Y1074.759
N2715 G2 X315.862 Y1031.867 I-38.899 J-6.859
N2720 G3 X231.491 I-42.185 J-93.964
N2725 G2 X176.413 Y1074.759 I-16.179 J36.034
N2730 G1 X196.809 Y1190.439
N2735 G3 X154.463 Y1240.9 I-42.347 J7.462
N2740 G1 X23.676
N2745 G3 X20.688 Y1237.639 I0. J-3.
N2750 G1 X47.697 Y928.926
N2755 G3 X52.234 Y906.422 I102.608 J8.977
N2760 G1 X159.676 Y571.704
N2765 G3 X210.14 Y534.903 I50.464 J16.199
N2770 G1 X337.213
N2775 G3 X387.677 Y571.704 I0. J53.
N2780 G1 X495.119 Y906.422
N2785 G3 X499.656 Y928.926 I-98.072 J31.478
N2790 G1 X526.665 Y1237.639
N2795 G3 X523.676 Y1240.9 I-2.989 J0.261
N2800 G1 X392.89
N2805 G3 X381.307 Y1239.311 I0. J-43.
N2810 G2 X380.568 Y1239.727 I-0.162 J0.578 F500.
N2815 G1 X380.406 Y1240.305
N2820 X380.381 Y1240.395 Z-13.326
N2825 X380.356 Y1240.483 Z-13.304
N2830 X380.333 Y1240.567 Z-13.268
N2835 X380.311 Y1240.644 Z-13.219
N2840 X380.292 Y1240.713 Z-13.158
N2845 X380.275 Y1240.772 Z-13.086
N2850 X380.262 Y1240.819 Z-13.006
N2855 X380.252 Y1240.854 Z-12.919
N2860 X380.246 Y1240.875 Z-12.827
N2865 X380.244 Y1240.882 Z-12.733
N2870 G0 Z5.
N2875 X386.243 Y1245.795
N2880 G1 Z-8.833 F100.33
N2885 Z-16.067
N2890 X386.244 Y1245.787 Z-16.161
N2895 X386.247 Y1245.766 Z-16.252
N2900 X386.252 Y1245.73 Z-16.339
N2905 X386.26 Y1245.681 Z-16.419
N2910 X386.269 Y1245.621 Z-16.491
N2915 X386.28 Y1245.55 Z-16.552
N2920 X386.292 Y1245.471 Z-16.601
N2925 X386.305 Y1245.385 Z-16.637
N2930 X386.318 Y1245.294 Z-16.659
N2935 X386.333 Y1245.201 Z-16.667
N2940 X386.422 Y1244.608 F500.
N2945 G2 X385.919 Y1243.925 I-0.593 J-0.09
N2950 G3 X347.047 Y1189.823 I6.971 J-46.025 F1200.
N2955 G1 X367.444 Y1074.143
N2960 G2 X317.316 Y1035.105 I-35.403 J-6.242
N2965 G3 X230.037 I-43.639 J-97.202
N2970 G2 X179.91 Y1074.143 I-14.725 J32.795
N2975 G1 X200.306 Y1189.823
N2980 G3 X154.463 Y1244.45 I-45.843 J8.077
N2985 G1 X23.676
N2990 G3 X17.151 Y1237.329 I0. J-6.55
N2995 G1 X44.16 Y928.616
N3000 G3 X48.853 Y905.337 I106.147 J9.286
N3005 G1 X156.295 Y570.619
N3010 G3 X210.14 Y531.353 I53.844 J17.283
N3015 G1 X337.213
N3020 G3 X391.058 Y570.619 I0. J56.551
N3025 G1 X498.5 Y905.337
N3030 G3 X503.192 Y928.616 I-101.452 J32.563
N3035 G1 X530.201 Y1237.329
N3040 G3 X523.676 Y1244.45 I-6.525 J0.571
N3045 G1 X392.89
N3050 G3 X385.919 Y1243.925 I0. J-46.55
N3055 X383.925 Y1242.074 I0.362 J-2.39
N3060 G2 X382.027 Y1240.125 I-2.55 J0.584
N3065 G3 X349.952 Y1190.335 I10.863 J-42.225
N3070 G1 X370.349 Y1074.655
N3075 G2 X316.108 Y1032.414 I-38.308 J-6.755
N3080 G3 X231.246 I-42.431 J-94.511
N3085 G2 X177.004 Y1074.655 I-15.933 J35.486
N3090 G1 X197.4 Y1190.335
N3095 G3 X154.463 Y1241.5 I-42.938 J7.566
N3100 G1 X23.676
N3105 G3 X20.09 Y1237.586 I0. J-3.6
N3110 G1 X47.099 Y928.873
N3115 G3 X51.662 Y906.239 I103.206 J9.029
N3120 G1 X159.104 Y571.521
N3125 G3 X210.14 Y534.303 I51.035 J16.383
N3130 G1 X337.213
N3135 G3 X388.249 Y571.521 I0. J53.6
N3140 G1 X495.691 Y906.239
N3145 G3 X500.253 Y928.873 I-98.643 J31.661
N3150 G1 X527.262 Y1237.586
N3155 G3 X523.676 Y1241.5 I-3.586 J0.314
N3160 G1 X392.89
N3165 G3 X382.027 Y1240.125 I0. J-43.6
N3170 X381.665 Y1239.72 I0.122 J-0.473
N3175 G2 X381.307 Y1239.311 I-0.491 J0.069
N3180 G3 X350.543 Y1190.439 I11.583 J-41.41
N3185 G1 X370.94 Y1074.759
N3190 G2 X315.862 Y1031.867 I-38.899 J-6.859
N3195 G3 X231.491 I-42.185 J-93.964
N3200 G2 X176.413 Y1074.759 I-16.179 J36.034
N3205 G1 X196.809 Y1190.439
N3210 G3 X154.463 Y1240.9 I-42.347 J7.462
N3215 G1 X23.676
N3220 G3 X20.688 Y1237.639 I0. J-3.
N3225 G1 X47.697 Y928.926
N3230 G3 X52.234 Y906.422 I102.608 J8.977
N3235 G1 X159.676 Y571.704
N3240 G3 X210.14 Y534.903 I50.464 J16.199
N3245 G1 X337.213
N3250 G3 X387.677 Y571.704 I0. J53.
N3255 G1 X495.119 Y906.422
N3260 G3 X499.656 Y928.926 I-98.072 J31.478
N3265 G1 X526.665 Y1237.639
N3270 G3 X523.676 Y1240.9 I-2.989 J0.261
N3275 G1 X392.89
N3280 G3 X381.307 Y1239.311 I0. J-43.
N3285 G2 X380.568 Y1239.727 I-0.162 J0.578 F500.
N3290 G1 X380.406 Y1240.305
N3295 X380.381 Y1240.395 Z-16.659
N3300 X380.356 Y1240.483 Z-16.637
N3305 X380.333 Y1240.567 Z-16.601
N3310 X380.311 Y1240.644 Z-16.552
N3315 X380.292 Y1240.713 Z-16.491
N3320 X380.275 Y1240.772 Z-16.419
N3325 X380.262 Y1240.819 Z-16.339
N3330 X380.252 Y1240.854 Z-16.252
N3335 X380.246 Y1240.875 Z-16.161
N3340 X380.244 Y1240.882 Z-16.067
N3345 G0 Z5.
N3350 X386.243 Y1245.795
N3355 G1 Z-12.167 F100.33
N3360 Z-19.4
N3365 X386.244 Y1245.787 Z-19.494
N3370 X386.247 Y1245.766 Z-19.585
N3375 X386.252 Y1245.73 Z-19.672
N3380 X386.26 Y1245.681 Z-19.753
N3385 X386.269 Y1245.621 Z-19.824
N3390 X386.28 Y1245.55 Z-19.885
N3395 X386.292 Y1245.471 Z-19.935
N3400 X386.305 Y1245.385 Z-19.971
N3405 X386.318 Y1245.294 Z-19.993
N3410 X386.333 Y1245.201 Z-20.
N3415 X386.422 Y1244.608 F500.
N3420 G2 X385.919 Y1243.925 I-0.593 J-0.09
N3425 G3 X347.047 Y1189.823 I6.971 J-46.025 F1200.
N3430 G1 X367.444 Y1074.143
N3435 G2 X317.316 Y1035.105 I-35.403 J-6.242
N3440 G3 X230.037 I-43.639 J-97.202
N3445 G2 X179.91 Y1074.143 I-14.725 J32.795
N3450 G1 X200.306 Y1189.823
N3455 G3 X154.463 Y1244.45 I-45.843 J8.077
N3460 G1 X23.676
N3465 G3 X17.151 Y1237.329 I0. J-6.55
N3470 G1 X29.575 Y1095.333
N3475 Z-18.
N3480 X34.455 Y1039.546
N3485 Z-20. F100.33
N3490 X44.16 Y928.616 F1200.
N3495 G3 X48.853 Y905.337 I106.147 J9.286
N3500 G1 X94.185 Y764.115
N3505 Z-18.
N3510 X111.3 Y710.795
N3515 Z-20. F100.33
N3520 X156.295 Y570.619 F1200.
N3525 G3 X210.14 Y531.353 I53.844 J17.283
N3530 G1 X248.288
N3535 Z-18.
N3540 X304.288
N3545 Z-20. F100.33
N3550 X337.213 F1200.
N3555 G3 X391.058 Y570.619 I0. J56.551
N3560 G1 X437.467 Y715.199
N3565 Z-18.
N3570 X454.582 Y768.519
N3575 Z-20. F100.33
N3580 X498.5 Y905.337 F1200.
N3585 G3 X503.192 Y928.616 I-101.452 J32.563
N3590 G1 X512.515 Y1035.176
N3595 Z-18.
N3600 X517.396 Y1090.963
N3605 Z-20. F100.33
N3610 X530.201 Y1237.329 F1200.
N3615 G3 X523.676 Y1244.45 I-6.525 J0.571
N3620 G1 X392.89
N3625 G3 X385.919 Y1243.925 I0. J-46.55
N3630 X383.925 Y1242.074 I0.362 J-2.39
N3635 G2 X382.027 Y1240.125 I-2.55 J0.584
N3640 G3 X349.952 Y1190.335 I10.863 J-42.225
N3645 G1 X370.349 Y1074.655
N3650 G2 X316.108 Y1032.414 I-38.308 J-6.755
N3655 G3 X231.246 I-42.431 J-94.511
N3660 G2 X177.004 Y1074.655 I-15.933 J35.486
N3665 G1 X197.4 Y1190.335
N3670 G3 X154.463 Y1241.5 I-42.938 J7.566
N3675 G1 X23.676
N3680 G3 X20.09 Y1237.586 I0. J-3.6
N3685 G1 X32.513 Y1095.59
N3690 Z-18.
N3695 X37.394 Y1039.803
N3700 Z-20. F100.33
N3705 X47.099 Y928.873 F1200.
N3710 G3 X51.662 Y906.239 I103.206 J9.029
N3715 G1 X96.993 Y765.017
N3720 Z-18.
N3725 X114.109 Y711.696
N3730 Z-20. F100.33
N3735 X159.104 Y571.521 F1200.
N3740 G3 X210.14 Y534.303 I51.035 J16.383
N3745 G1 X248.288
N3750 Z-18.
N3755 X304.288
N3760 Z-20. F100.33
N3765 X337.213 F1200.
N3770 G3 X388.249 Y571.521 I0. J53.6
N3775 G1 X434.658 Y716.101
N3780 Z-18.
N3785 X451.773 Y769.421
N3790 Z-20. F100.33
N3795 X495.691 Y906.239 F1200.
N3800 G3 X500.253 Y928.873 I-98.643 J31.661
N3805 G1 X509.576 Y1035.433
N3810 Z-18.
N3815 X514.457 Y1091.22
N3820 Z-20. F100.33
N3825 X527.262 Y1237.586 F1200.
N3830 G3 X523.676 Y1241.5 I-3.586 J0.314
N3835 G1 X392.89
N3840 G3 X382.027 Y1240.125 I0. J-43.6
N3845 X381.665 Y1239.72 I0.122 J-0.473
N3850 G2 X381.307 Y1239.311 I-0.491 J0.069
N3855 G3 X350.543 Y1190.439 I11.583 J-41.41
N3860 G1 X370.94 Y1074.759
N3865 G2 X315.862 Y1031.867 I-38.899 J-6.859
N3870 G3 X231.491 I-42.185 J-93.964
N3875 G2 X176.413 Y1074.759 I-16.179 J36.034
N3880 G1 X196.809 Y1190.439
N3885 G3 X154.463 Y1240.9 I-42.347 J7.462
N3890 G1 X23.676
N3895 G3 X20.688 Y1237.639 I0. J-3.
N3900 G1 X33.111 Y1095.642
N3905 Z-18.
N3910 X37.992 Y1039.855
N3915 Z-20. F100.33
N3920 X47.697 Y928.926 F1200.
N3925 G3 X52.234 Y906.422 I102.608 J8.977
N3930 G1 X97.565 Y765.2
N3935 Z-18.
N3940 X114.68 Y711.88
N3945 Z-20. F100.33
N3950 X159.676 Y571.704 F1200.
N3955 G3 X210.14 Y534.903 I50.464 J16.199
N3960 G1 X248.288
N3965 Z-18.
N3970 X304.288
N3975 Z-20. F100.33
N3980 X337.213 F1200.
N3985 G3 X387.677 Y571.704 I0. J53.
N3990 G1 X434.087 Y716.284
N3995 Z-18.
N4000 X451.202 Y769.604
N4005 Z-20. F100.33
N4010 X495.119 Y906.422 F1200.
N4015 G3 X499.656 Y928.926 I-98.072 J31.478
N4020 G1 X508.978 Y1035.485
N4025 Z-18.
N4030 X513.859 Y1091.272
N4035 Z-20. F100.33
N4040 X526.665 Y1237.639 F1200.
N4045 G3 X523.676 Y1240.9 I-2.989 J0.261
N4050 G1 X392.89
N4055 G3 X381.307 Y1239.311 I0. J-43.
N4060 G2 X380.568 Y1239.727 I-0.162 J0.578 F500.
N4065 G1 X380.406 Y1240.305
N4070 X380.381 Y1240.395 Z-19.993
N4075 X380.356 Y1240.483 Z-19.971
N4080 X380.333 Y1240.567 Z-19.935
N4085 X380.311 Y1240.644 Z-19.885
N4090 X380.292 Y1240.713 Z-19.824
N4095 X380.275 Y1240.772 Z-19.753
N4100 X380.262 Y1240.819 Z-19.672
N4105 X380.252 Y1240.854 Z-19.585
N4110 X380.246 Y1240.875 Z-19.494
N4115 X380.244 Y1240.882 Z-19.4
N4120 G0 Z15.
(2D POCKET2)
N4125 G0 X345.746 Y900.729
N4130 Z15.
N4135 Z5.
N4140 G1 Z1.6 F500.
N4145 X345.727 Y900.709 Z1.418 F333.33
N4150 X345.669 Y900.651 Z1.254
N4155 X345.576 Y900.564 Z1.122
N4160 X345.453 Y900.46 Z1.034
N4165 X345.308 Y900.352 Z1.
N4170 G2 X342.044 Y905.025 Z0.687 I-1.632 J2.336
N4175 X345.308 Y900.352 Z0.375 I1.632 J-2.336
N4180 X342.044 Y905.025 Z0.062 I-1.632 J2.336
N4185 X345.308 Y900.352 Z-0.251 I1.632 J-2.336
N4190 X342.044 Y905.025 Z-0.563 I-1.632 J2.336
N4195 X345.308 Y900.352 Z-0.876 I1.632 J-2.336
N4200 X342.044 Y905.025 Z-1.189 I-1.632 J2.336
N4205 X345.308 Y900.352 Z-1.501 I1.632 J-2.336
N4210 X342.044 Y905.025 Z-1.814 I-1.632 J2.336
N4215 X345.308 Y900.352 Z-2.127 I1.632 J-2.336
N4220 X342.044 Y905.025 Z-2.439 I-1.632 J2.336
N4225 X343.676 Y905.538 Z-2.5 I1.632 J-2.336
N4230 G1 X345.992 F1200.
N4235 G2 X346.311 Y905.219 I0. J-0.319
N4240 G1 Y620.587
N4245 G2 X345.992 Y620.268 I-0.319 J0.
N4250 G1 X341.36
N4255 G2 X341.041 Y620.587 I0. J0.319
N4260 G1 Y905.219
N4265 G2 X341.36 Y905.538 I0.319 J0.
N4270 G1 X343.676
N4275 G3 X347.176 Y907.735 I0. J3.887
N4280 G2 X351.205 Y906.813 I1.909 J-0.922
N4285 G1 Y615.694
N4290 G2 X350.885 Y615.374 I-0.319 J0.
N4295 G1 X336.467
N4300 G2 X336.147 Y615.694 I0. J0.319
N4305 G1 Y910.112
N4310 G2 X336.467 Y910.432 I0.319 J0.
N4315 G1 X350.885
N4320 G2 X351.205 Y910.112 I0. J-0.319
N4325 G1 Y906.813
N4330 G3 X353.651 Y903.143 I3.976 J0.
N4335 G2 X356.098 Y899.473 I-1.529 J-3.67
N4340 G1 Y610.8
N4345 G2 X355.779 Y610.481 I-0.319 J0.
N4350 G1 X331.573
N4355 G2 X331.254 Y610.8 I0. J0.319
N4360 G1 Y915.005
N4365 G2 X331.573 Y915.325 I0.319 J0.
N4370 G1 X355.779
N4375 G2 X356.098 Y915.005 I0. J-0.319
N4380 G1 Y899.473
N4385 G3 X358.544 Y895.803 I3.976 J0.
N4390 G2 X360.991 Y892.133 I-1.529 J-3.67
N4395 G1 Y605.907
N4400 G2 X360.672 Y605.588 I-0.319 J0.
N4405 G1 X326.68
N4410 G2 X326.361 Y605.907 I0. J0.319
N4415 G1 Y919.899
N4420 G2 X326.68 Y920.218 I0.319 J0.
N4425 G1 X360.672
N4430 G2 X360.991 Y919.899 I0. J-0.319
N4435 G1 Y892.133
N4440 G3 X363.438 Y888.463 I3.976 J0.
N4445 G2 X365.884 Y884.793 I-1.529 J-3.67
N4450 G1 Y601.014
N4455 G2 X365.565 Y600.695 I-0.319 J0.
N4460 G1 X321.787
N4465 G2 X321.468 Y601.014 I0. J0.319
N4470 G1 Y924.792
N4475 G2 X321.787 Y925.111 I0.319 J0.
N4480 G1 X365.565
N4485 G2 X365.884 Y924.792 I0. J-0.319
N4490 G1 Y884.793
N4495 G3 X368.331 Y881.123 I3.976 J0.
N4500 G2 X370.778 Y877.453 I-1.529 J-3.67
N4505 G1 Y596.121
N4510 G2 X370.458 Y595.801 I-0.319 J0.
N4515 G1 X316.894
N4520 G2 X316.574 Y596.121 I0. J0.319
N4525 G1 Y929.685
N4530 G2 X316.894 Y930.005 I0.319 J0.
N4535 G1 X370.458
N4540 G2 X370.778 Y929.685 I0. J-0.319
N4545 G1 Y877.453
N4550 G3 X373.227 Y873.78 I3.98 J0.
N4555 G2 X375.676 Y870.106 I-1.531 J-3.674
N4560 G1 Y590.903
N4565 X311.676
N4570 Y934.903
N4575 X375.676
N4580 Y870.106
N4585 G2 X375.231 Y869.844 I-0.3 J0.
N4590 G1 X368.848 Y873.382
N4595 X368.799 Y873.416
N4600 X368.758 Y873.459
N4605 X343.927 Y904.911
N4610 X343.616 Y905.354
N4615 X343.599 Y905.392
N4620 X343.596 Y905.435
N4625 X343.609 Y905.476
N4630 X343.635 Y905.509
N4635 X343.672 Y905.531
N4640 X343.714 Y905.538
N4645 G2 X343.638 Y899.839 Z-2.813 I-0.038 J-2.85 F333.33
N4650 X343.714 Y905.538 Z-3.125 I0.038 J2.85
N4655 X343.638 Y899.839 Z-3.438 I-0.038 J-2.85
N4660 X343.714 Y905.538 Z-3.751 I0.038 J2.85
N4665 X343.638 Y899.839 Z-4.063 I-0.038 J-2.85
N4670 X343.714 Y905.538 Z-4.376 I0.038 J2.85
N4675 X343.638 Y899.839 Z-4.689 I-0.038 J-2.85
N4680 X343.676 Y905.538 Z-5. I0.038 J2.85
N4685 G1 X345.992 F1200.
N4690 G2 X346.311 Y905.219 I0. J-0.319
N4695 G1 Y620.587
N4700 G2 X345.992 Y620.268 I-0.319 J0.
N4705 G1 X341.36
N4710 G2 X341.041 Y620.587 I0. J0.319
N4715 G1 Y905.219
N4720 G2 X341.36 Y905.538 I0.319 J0.
N4725 G1 X343.676
N4730 G3 X347.176 Y907.735 I0. J3.887
N4735 G2 X351.205 Y906.813 I1.909 J-0.922
N4740 G1 Y615.694
N4745 G2 X350.885 Y615.374 I-0.319 J0.
N4750 G1 X336.467
N4755 G2 X336.147 Y615.694 I0. J0.319
N4760 G1 Y910.112
N4765 G2 X336.467 Y910.432 I0.319 J0.
N4770 G1 X350.885
N4775 G2 X351.205 Y910.112 I0. J-0.319
N4780 G1 Y906.813
N4785 G3 X353.651 Y903.143 I3.976 J0.
N4790 G2 X356.098 Y899.473 I-1.529 J-3.67
N4795 G1 Y610.8
N4800 G2 X355.779 Y610.481 I-0.319 J0.
N4805 G1 X331.573
N4810 G2 X331.254 Y610.8 I0. J0.319
N4815 G1 Y915.005
N4820 G2 X331.573 Y915.325 I0.319 J0.
N4825 G1 X355.779
N4830 G2 X356.098 Y915.005 I0. J-0.319
N4835 G1 Y899.473
N4840 G3 X358.544 Y895.803 I3.976 J0.
N4845 G2 X360.991 Y892.133 I-1.529 J-3.67
N4850 G1 Y605.907
N4855 G2 X360.672 Y605.588 I-0.319 J0.
N4860 G1 X326.68
N4865 G2 X326.361 Y605.907 I0. J0.319
N4870 G1 Y919.899
N4875 G2 X326.68 Y920.218 I0.319 J0.
N4880 G1 X360.672
N4885 G2 X360.991 Y919.899 I0. J-0.319
N4890 G1 Y892.133
N4895 G3 X363.438 Y888.463 I3.976 J0.
N4900 G2 X365.884 Y884.793 I-1.529 J-3.67
N4905 G1 Y601.014
N4910 G2 X365.565 Y600.695 I-0.319 J0.
N4915 G1 X321.787
N4920 G2 X321.468 Y601.014 I0. J0.319
N4925 G1 Y924.792
N4930 G2 X321.787 Y925.111 I0.319 J0.
N4935 G1 X365.565
N4940 G2 X365.884 Y924.792 I0. J-0.319
N4945 G1 Y884.793
N4950 G3 X368.331 Y881.123 I3.976 J0.
N4955 G2 X370.778 Y877.453 I-1.529 J-3.67
N4960 G1 Y596.121
N4965 G2 X370.458 Y595.801 I-0.319 J0.
N4970 G1 X316.894
N4975 G2 X316.574 Y596.121 I0. J0.319
N4980 G1 Y929.685
N4985 G2 X316.894 Y930.005 I0.319 J0.
N4990 G1 X370.458
N4995 G2 X370.778 Y929.685 I0. J-0.319
N5000 G1 Y877.453
N5005 G3 X373.227 Y873.78 I3.98 J0.
N5010 G2 X375.676 Y870.106 I-1.531 J-3.674
N5015 G1 Y590.903
N5020 X311.676
N5025 Y934.903
N5030 X375.676
N5035 Y870.106
N5040 G2 X375.231 Y869.844 I-0.3 J0.
N5045 G1 X368.848 Y873.382
N5050 X368.799 Y873.416
N5055 X368.758 Y873.459
N5060 X343.927 Y904.911
N5065 X343.616 Y905.354
N5070 X343.599 Y905.392
N5075 X343.596 Y905.435
N5080 X343.609 Y905.476
N5085 X343.635 Y905.509
N5090 X343.672 Y905.531
N5095 X343.714 Y905.538
N5100 G2 X343.638 Y899.839 Z-5.313 I-0.038 J-2.85 F333.33
N5105 X343.714 Y905.538 Z-5.625 I0.038 J2.85
N5110 X343.638 Y899.839 Z-5.938 I-0.038 J-2.85
N5115 X343.714 Y905.538 Z-6.251 I0.038 J2.85
N5120 X343.638 Y899.839 Z-6.563 I-0.038 J-2.85
N5125 X343.714 Y905.538 Z-6.876 I0.038 J2.85
N5130 X343.638 Y899.839 Z-7.189 I-0.038 J-2.85
N5135 X343.676 Y905.538 Z-7.5 I0.038 J2.85
N5140 G1 X345.992 F1200.
N5145 G2 X346.311 Y905.219 I0. J-0.319
N5150 G1 Y620.587
N5155 G2 X345.992 Y620.268 I-0.319 J0.
N5160 G1 X341.36
N5165 G2 X341.041 Y620.587 I0. J0.319
N5170 G1 Y905.219
N5175 G2 X341.36 Y905.538 I0.319 J0.
N5180 G1 X343.676
N5185 G3 X347.176 Y907.735 I0. J3.887
N5190 G2 X351.205 Y906.813 I1.909 J-0.922
N5195 G1 Y615.694
N5200 G2 X350.885 Y615.374 I-0.319 J0.
N5205 G1 X336.467
N5210 G2 X336.147 Y615.694 I0. J0.319
N5215 G1 Y910.112
N5220 G2 X336.467 Y910.432 I0.319 J0.
N5225 G1 X350.885
N5230 G2 X351.205 Y910.112 I0. J-0.319
N5235 G1 Y906.813
N5240 G3 X353.651 Y903.143 I3.976 J0.
N5245 G2 X356.098 Y899.473 I-1.529 J-3.67
N5250 G1 Y610.8
N5255 G2 X355.779 Y610.481 I-0.319 J0.
N5260 G1 X331.573
N5265 G2 X331.254 Y610.8 I0. J0.319
N5270 G1 Y915.005
N5275 G2 X331.573 Y915.325 I0.319 J0.
N5280 G1 X355.779
N5285 G2 X356.098 Y915.005 I0. J-0.319
N5290 G1 Y899.473
N5295 G3 X358.544 Y895.803 I3.976 J0.
N5300 G2 X360.991 Y892.133 I-1.529 J-3.67
N5305 G1 Y605.907
N5310 G2 X360.672 Y605.588 I-0.319 J0.
N5315 G1 X326.68
N5320 G2 X326.361 Y605.907 I0. J0.319
N5325 G1 Y919.899
N5330 G2 X326.68 Y920.218 I0.319 J0.
N5335 G1 X360.672
N5340 G2 X360.991 Y919.899 I0. J-0.319
N5345 G1 Y892.133
N5350 G3 X363.438 Y888.463 I3.976 J0.
N5355 G2 X365.884 Y884.793 I-1.529 J-3.67
N5360 G1 Y601.014
N5365 G2 X365.565 Y600.695 I-0.319 J0.
N5370 G1 X321.787
N5375 G2 X321.468 Y601.014 I0. J0.319
N5380 G1 Y924.792
N5385 G2 X321.787 Y925.111 I0.319 J0.
N5390 G1 X365.565
N5395 G2 X365.884 Y924.792 I0. J-0.319
N5400 G1 Y884.793
N5405 G3 X368.331 Y881.123 I3.976 J0.
N5410 G2 X370.778 Y877.453 I-1.529 J-3.67
N5415 G1 Y596.121
N5420 G2 X370.458 Y595.801 I-0.319 J0.
N5425 G1 X316.894
N5430 G2 X316.574 Y596.121 I0. J0.319
N5435 G1 Y929.685
N5440 G2 X316.894 Y930.005 I0.319 J0.
N5445 G1 X370.458
N5450 G2 X370.778 Y929.685 I0. J-0.319
N5455 G1 Y877.453
N5460 G3 X373.227 Y873.78 I3.98 J0.
N5465 G2 X375.676 Y870.106 I-1.531 J-3.674
N5470 G1 Y590.903
N5475 X311.676
N5480 Y934.903
N5485 X375.676
N5490 Y870.106
N5495 X375.669 Y870.014 Z-7.485 F500.
N5500 X375.648 Y869.924 Z-7.471
N5505 X375.617 Y869.846 Z-7.428
N5510 X375.575 Y869.773 Z-7.385
N5515 X375.536 Y869.72 Z-7.319
N5520 X375.49 Y869.672 Z-7.253
N5525 X375.424 Y869.618 Z-7.085
N5530 X375.4 Y869.601 Z-6.9
N5535 G0 Z5.
N5540 X201.502 Y620.833
N5545 G1 Z1.6 F500.
N5550 X201.482 Y620.852 Z1.418 F333.33
N5555 X201.424 Y620.91 Z1.254
N5560 X201.337 Y621.003 Z1.122
N5565 X201.233 Y621.126 Z1.034
N5570 X201.125 Y621.271 Z1.
N5575 G2 X205.798 Y624.535 Z0.687 I2.336 J1.632
N5580 X201.125 Y621.271 Z0.375 I-2.336 J-1.632
N5585 X205.798 Y624.535 Z0.062 I2.336 J1.632
N5590 X201.125 Y621.271 Z-0.251 I-2.336 J-1.632
N5595 X205.798 Y624.535 Z-0.563 I2.336 J1.632
N5600 X201.125 Y621.271 Z-0.876 I-2.336 J-1.632
N5605 X205.798 Y624.535 Z-1.189 I2.336 J1.632
N5610 X201.125 Y621.271 Z-1.501 I-2.336 J-1.632
N5615 X205.798 Y624.535 Z-1.814 I2.336 J1.632
N5620 X201.125 Y621.271 Z-2.127 I-2.336 J-1.632
N5625 X205.798 Y624.535 Z-2.439 I2.336 J1.632
N5630 X206.311 Y622.903 Z-2.5 I-2.336 J-1.632
N5635 G1 Y620.587 F1200.
N5640 G2 X205.992 Y620.268 I-0.319 J0.
N5645 G1 X201.36
N5650 G2 X201.041 Y620.587 I0. J0.319
N5655 G1 Y905.219
N5660 G2 X201.36 Y905.538 I0.319 J0.
N5665 G1 X205.992
N5670 G2 X206.311 Y905.219 I0. J-0.319
N5675 G1 Y622.903
N5680 G3 X208.508 Y619.403 I3.887 J0.
N5685 G2 X207.586 Y615.374 I-0.922 J-1.909
N5690 G1 X196.467
N5695 G2 X196.147 Y615.694 I0. J0.319
N5700 G1 Y910.112
N5705 G2 X196.467 Y910.432 I0.319 J0.
N5710 G1 X210.885
N5715 G2 X211.205 Y910.112 I0. J-0.319
N5720 G1 Y615.694
N5725 G2 X210.885 Y615.374 I-0.319 J0.
N5730 G1 X207.586
N5735 G3 X203.916 Y612.928 I0. J-3.976
N5740 G2 X200.246 Y610.481 I-3.67 J1.529
N5745 G1 X191.574
N5750 G2 X191.254 Y610.8 I0. J0.319
N5755 G1 Y915.005
N5760 G2 X191.574 Y915.325 I0.319 J0.
N5765 G1 X215.779
N5770 G2 X216.098 Y915.005 I0. J-0.319
N5775 G1 Y610.8
N5780 G2 X215.779 Y610.481 I-0.319 J0.
N5785 G1 X200.246
N5790 G3 X196.576 Y608.034 I0. J-3.976
N5795 G2 X192.906 Y605.588 I-3.67 J1.529
N5800 G1 X186.68
N5805 G2 X186.361 Y605.907 I0. J0.319
N5810 G1 Y919.899
N5815 G2 X186.68 Y920.218 I0.319 J0.
N5820 G1 X220.672
N5825 G2 X220.991 Y919.899 I0. J-0.319
N5830 G1 Y605.907
N5835 G2 X220.672 Y605.588 I-0.319 J0.
N5840 G1 X192.906
N5845 G3 X189.236 Y603.141 I0. J-3.976
N5850 G2 X185.566 Y600.695 I-3.67 J1.529
N5855 G1 X181.787
N5860 G2 X181.468 Y601.014 I0. J0.319
N5865 G1 Y924.792
N5870 G2 X181.787 Y925.111 I0.319 J0.
N5875 G1 X225.565
N5880 G2 X225.884 Y924.792 I0. J-0.319
N5885 G1 Y601.014
N5890 G2 X225.565 Y600.695 I-0.319 J0.
N5895 G1 X185.566
N5900 G3 X181.896 Y598.248 I0. J-3.976
N5905 G2 X178.226 Y595.801 I-3.67 J1.529
N5910 G1 X176.894
N5915 G2 X176.574 Y596.121 I0. J0.319
N5920 G1 Y929.685
N5925 G2 X176.894 Y930.005 I0.319 J0.
N5930 G1 X230.458
N5935 G2 X230.778 Y929.685 I0. J-0.319
N5940 G1 Y596.121
N5945 G2 X230.458 Y595.801 I-0.319 J0.
N5950 G1 X178.226
N5955 G3 X175.04 Y594.231 I0. J-4.018
N5960 G2 X171.676 Y595.374 I-1.488 J1.143
N5965 G1 Y934.903
N5970 X235.676
N5975 Y590.903
N5980 X171.676
N5985 Y595.374
N5990 G2 X171.841 Y595.57 I0.199 J0.
N5995 G1 X172.643 Y595.709
N6000 X172.692 Y595.724
N6005 X172.735 Y595.751
N6010 X205.687 Y622.648
N6015 X206.126 Y622.962
N6020 X206.164 Y622.98
N6025 X206.207 Y622.983
N6030 X206.248 Y622.971
N6035 X206.282 Y622.944
N6040 X206.304 Y622.907
N6045 X206.311 Y622.865
N6050 G2 X200.612 Y622.941 Z-2.813 I-2.85 J0.038 F333.33
N6055 X206.311 Y622.865 Z-3.125 I2.85 J-0.038
N6060 X200.612 Y622.941 Z-3.438 I-2.85 J0.038
N6065 X206.311 Y622.865 Z-3.751 I2.85 J-0.038
N6070 X200.612 Y622.941 Z-4.063 I-2.85 J0.038
N6075 X206.311 Y622.865 Z-4.376 I2.85 J-0.038
N6080 X200.612 Y622.941 Z-4.689 I-2.85 J0.038
N6085 X206.311 Y622.903 Z-5. I2.85 J-0.038
N6090 G1 Y620.587 F1200.
N6095 G2 X205.992 Y620.268 I-0.319 J0.
N6100 G1 X201.36
N6105 G2 X201.041 Y620.587 I0. J0.319
N6110 G1 Y905.219
N6115 G2 X201.36 Y905.538 I0.319 J0.
N6120 G1 X205.992
N6125 G2 X206.311 Y905.219 I0. J-0.319
N6130 G1 Y622.903
N6135 G3 X208.508 Y619.403 I3.887 J0.
N6140 G2 X207.586 Y615.374 I-0.922 J-1.909
N6145 G1 X196.467
N6150 G2 X196.147 Y615.694 I0. J0.319
N6155 G1 Y910.112
N6160 G2 X196.467 Y910.432 I0.319 J0.
N6165 G1 X210.885
N6170 G2 X211.205 Y910.112 I0. J-0.319
N6175 G1 Y615.694
N6180 G2 X210.885 Y615.374 I-0.319 J0.
N6185 G1 X207.586
N6190 G3 X203.916 Y612.928 I0. J-3.976
N6195 G2 X200.246 Y610.481 I-3.67 J1.529
N6200 G1 X191.574
N6205 G2 X191.254 Y610.8 I0. J0.319
N6210 G1 Y915.005
N6215 G2 X191.574 Y915.325 I0.319 J0.
N6220 G1 X215.779
N6225 G2 X216.098 Y915.005 I0. J-0.319
N6230 G1 Y610.8
N6235 G2 X215.779 Y610.481 I-0.319 J0.
N6240 G1 X200.246
N6245 G3 X196.576 Y608.034 I0. J-3.976
N6250 G2 X192.906 Y605.588 I-3.67 J1.529
N6255 G1 X186.68
N6260 G2 X186.361 Y605.907 I0. J0.319
N6265 G1 Y919.899
N6270 G2 X186.68 Y920.218 I0.319 J0.
N6275 G1 X220.672
N6280 G2 X220.991 Y919.899 I0. J-0.319
N6285 G1 Y605.907
N6290 G2 X220.672 Y605.588 I-0.319 J0.
N6295 G1 X192.906
N6300 G3 X189.236 Y603.141 I0. J-3.976
N6305 G2 X185.566 Y600.695 I-3.67 J1.529
N6310 G1 X181.787
N6315 G2 X181.468 Y601.014 I0. J0.319
N6320 G1 Y924.792
N6325 G2 X181.787 Y925.111 I0.319 J0.
N6330 G1 X225.565
N6335 G2 X225.884 Y924.792 I0. J-0.319
N6340 G1 Y601.014
N6345 G2 X225.565 Y600.695 I-0.319 J0.
N6350 G1 X185.566
N6355 G3 X181.896 Y598.248 I0. J-3.976
N6360 G2 X178.226 Y595.801 I-3.67 J1.529
N6365 G1 X176.894
N6370 G2 X176.574 Y596.121 I0. J0.319
N6375 G1 Y929.685
N6380 G2 X176.894 Y930.005 I0.319 J0.
N6385 G1 X230.458
N6390 G2 X230.778 Y929.685 I0. J-0.319
N6395 G1 Y596.121
N6400 G2 X230.458 Y595.801 I-0.319 J0.
N6405 G1 X178.226
N6410 G3 X175.04 Y594.231 I0. J-4.018
N6415 G2 X171.676 Y595.374 I-1.488 J1.143
N6420 G1 Y934.903
N6425 X235.676
N6430 Y590.903
N6435 X171.676
N6440 Y595.374
N6445 G2 X171.841 Y595.57 I0.199 J0.
N6450 G1 X172.643 Y595.709
N6455 X172.692 Y595.724
N6460 X172.735 Y595.751
N6465 X205.687 Y622.648
N6470 X206.126 Y622.962
N6475 X206.164 Y622.98
N6480 X206.207 Y622.983
N6485 X206.248 Y622.971
N6490 X206.282 Y622.944
N6495 X206.304 Y622.907
N6500 X206.311 Y622.865
N6505 G2 X200.612 Y622.941 Z-5.313 I-2.85 J0.038 F333.33
N6510 X206.311 Y622.865 Z-5.625 I2.85 J-0.038
N6515 X200.612 Y622.941 Z-5.938 I-2.85 J0.038
N6520 X206.311 Y622.865 Z-6.251 I2.85 J-0.038
N6525 X200.612 Y622.941 Z-6.563 I-2.85 J0.038
N6530 X206.311 Y622.865 Z-6.876 I2.85 J-0.038
N6535 X200.612 Y622.941 Z-7.189 I-2.85 J0.038
N6540 X206.311 Y622.903 Z-7.5 I2.85 J-0.038
N6545 G1 Y620.587 F1200.
N6550 G2 X205.992 Y620.268 I-0.319 J0.
N6555 G1 X201.36
N6560 G2 X201.041 Y620.587 I0. J0.319
N6565 G1 Y905.219
N6570 G2 X201.36 Y905.538 I0.319 J0.
N6575 G1 X205.992
N6580 G2 X206.311 Y905.219 I0. J-0.319
N6585 G1 Y622.903
N6590 G3 X208.508 Y619.403 I3.887 J0.
N6595 G2 X207.586 Y615.374 I-0.922 J-1.909
N6600 G1 X196.467
N6605 G2 X196.147 Y615.694 I0. J0.319
N6610 G1 Y910.112
N6615 G2 X196.467 Y910.432 I0.319 J0.
N6620 G1 X210.885
N6625 G2 X211.205 Y910.112 I0. J-0.319
N6630 G1 Y615.694
N6635 G2 X210.885 Y615.374 I-0.319 J0.
N6640 G1 X207.586
N6645 G3 X203.916 Y612.928 I0. J-3.976
N6650 G2 X200.246 Y610.481 I-3.67 J1.529
N6655 G1 X191.574
N6660 G2 X191.254 Y610.8 I0. J0.319
N6665 G1 Y915.005
N6670 G2 X191.574 Y915.325 I0.319 J0.
N6675 G1 X215.779
N6680 G2 X216.098 Y915.005 I0. J-0.319
N6685 G1 Y610.8
N6690 G2 X215.779 Y610.481 I-0.319 J0.
N6695 G1 X200.246
N6700 G3 X196.576 Y608.034 I0. J-3.976
N6705 G2 X192.906 Y605.588 I-3.67 J1.529
N6710 G1 X186.68
N6715 G2 X186.361 Y605.907 I0. J0.319
N6720 G1 Y919.899
N6725 G2 X186.68 Y920.218 I0.319 J0.
N6730 G1 X220.672
N6735 G2 X220.991 Y919.899 I0. J-0.319
N6740 G1 Y605.907
N6745 G2 X220.672 Y605.588 I-0.319 J0.
N6750 G1 X192.906
N6755 G3 X189.236 Y603.141 I0. J-3.976
N6760 G2 X185.566 Y600.695 I-3.67 J1.529
N6765 G1 X181.787
N6770 G2 X181.468 Y601.014 I0. J0.319
N6775 G1 Y924.792
N6780 G2 X181.787 Y925.111 I0.319 J0.
N6785 G1 X225.565
N6790 G2 X225.884 Y924.792 I0. J-0.319
N6795 G1 Y601.014
N6800 G2 X225.565 Y600.695 I-0.319 J0.
N6805 G1 X185.566
N6810 G3 X181.896 Y598.248 I0. J-3.976
N6815 G2 X178.226 Y595.801 I-3.67 J1.529
N6820 G1 X176.894
N6825 G2 X176.574 Y596.121 I0. J0.319
N6830 G1 Y929.685
N6835 G2 X176.894 Y930.005 I0.319 J0.
N6840 G1 X230.458
N6845 G2 X230.778 Y929.685 I0. J-0.319
N6850 G1 Y596.121
N6855 G2 X230.458 Y595.801 I-0.319 J0.
N6860 G1 X178.226
N6865 G3 X175.04 Y594.231 I0. J-4.018
N6870 G2 X171.676 Y595.374 I-1.488 J1.143
N6875 G1 Y934.903
N6880 X235.676
N6885 Y590.903
N6890 X171.676
N6895 Y595.374
N6900 X171.683 Y595.466 Z-7.485 F500.
N6905 X171.704 Y595.556 Z-7.471
N6910 X171.735 Y595.634 Z-7.428
N6915 X171.777 Y595.706 Z-7.385
N6920 X171.816 Y595.759 Z-7.319
N6925 X171.862 Y595.808 Z-7.253
N6930 X171.928 Y595.862 Z-7.085
N6935 X171.952 Y595.879 Z-6.9
N6940 G0 Z15.
(2D POCKET3)
N6945 G0 X225.147 Y645.342
N6950 Z15.
N6955 Z5.
N6960 G1 Z1.6 F500.
N6965 X225.123 Y645.328 Z1.418 F333.33
N6970 X225.052 Y645.288 Z1.254
N6975 X224.939 Y645.229 Z1.122
N6980 X224.792 Y645.161 Z1.034
N6985 X224.624 Y645.096 Z1.
N6990 G2 X222.728 Y650.471 Z0.687 I-0.948 J2.688
N6995 X224.624 Y645.096 Z0.375 I0.948 J-2.688
N7000 X222.728 Y650.471 Z0.062 I-0.948 J2.688
N7005 X224.624 Y645.096 Z-0.251 I0.948 J-2.688
N7010 X222.728 Y650.471 Z-0.563 I-0.948 J2.688
N7015 X224.624 Y645.096 Z-0.876 I0.948 J-2.688
N7020 X222.728 Y650.471 Z-1.189 I-0.948 J2.688
N7025 X224.624 Y645.096 Z-1.501 I0.948 J-2.688
N7030 X222.728 Y650.471 Z-1.814 I-0.948 J2.688
N7035 X224.624 Y645.096 Z-2.127 I0.948 J-2.688
N7040 X222.728 Y650.471 Z-2.439 I-0.948 J2.688
N7045 X224.624 Y645.096 Z-2.752 I0.948 J-2.688
N7050 X223.676 Y644.934 Z-2.786 I-0.948 J2.688
N7055 Y648.843 I0. J1.955
N7060 Y646.963 I0. J-0.94 F1200.
N7065 G1 X183.676
N7070 G2 Y648.843 I0. J0.94
N7075 G1 X223.676
N7080 G3 X224.882 Y649.484 I0. J1.456
N7085 G2 X226.248 Y649.447 I0.671 J-0.453
N7090 X223.676 Y644.903 I-2.572 J-1.544
N7095 G1 X183.676
N7100 G2 Y650.903 I0. J3.
N7105 G1 X223.676
N7110 G2 X226.248 Y649.447 I0. J-3.
N7115 X225.839 Y649.034 I-0.257 J-0.154
N7120 G1 X224.239 Y649.973
N7125 G2 X224.475 Y650.519 I0.152 J0.259
N7130 X222.877 Y645.048 Z-3.098 I-0.799 J-2.736 F333.33
N7135 X224.475 Y650.519 Z-3.411 I0.799 J2.736
N7140 X222.877 Y645.048 Z-3.724 I-0.799 J-2.736
N7145 X224.475 Y650.519 Z-4.036 I0.799 J2.736
N7150 X222.877 Y645.048 Z-4.349 I-0.799 J-2.736
N7155 X224.475 Y650.519 Z-4.662 I0.799 J2.736
N7160 X222.877 Y645.048 Z-4.974 I-0.799 J-2.736
N7165 X224.475 Y650.519 Z-5.287 I0.799 J2.736
N7170 X223.676 Y644.934 Z-5.571 I-0.799 J-2.736
N7175 Y648.843 I0. J1.955
N7180 Y646.963 I0. J-0.94 F1200.
N7185 G1 X183.676
N7190 G2 Y648.843 I0. J0.94
N7195 G1 X223.676
N7200 G3 X224.882 Y649.484 I0. J1.456
N7205 G2 X226.248 Y649.447 I0.671 J-0.453
N7210 X223.676 Y644.903 I-2.572 J-1.544
N7215 G1 X183.676
N7220 G2 Y650.903 I0. J3.
N7225 G1 X223.676
N7230 G2 X226.248 Y649.447 I0. J-3.
N7235 X225.839 Y649.034 I-0.257 J-0.154
N7240 G1 X224.239 Y649.973
N7245 G2 X224.475 Y650.519 I0.152 J0.259
N7250 X222.877 Y645.048 Z-5.884 I-0.799 J-2.736 F333.33
N7255 X224.475 Y650.519 Z-6.197 I0.799 J2.736
N7260 X222.877 Y645.048 Z-6.509 I-0.799 J-2.736
N7265 X224.475 Y650.519 Z-6.822 I0.799 J2.736
N7270 X222.877 Y645.048 Z-7.135 I-0.799 J-2.736
N7275 X224.475 Y650.519 Z-7.447 I0.799 J2.736
N7280 X222.877 Y645.048 Z-7.76 I-0.799 J-2.736
N7285 X224.475 Y650.519 Z-8.073 I0.799 J2.736
N7290 X223.676 Y644.934 Z-8.357 I-0.799 J-2.736
N7295 Y648.843 I0. J1.955
N7300 Y646.963 I0. J-0.94 F1200.
N7305 G1 X183.676
N7310 G2 Y648.843 I0. J0.94
N7315 G1 X223.676
N7320 G3 X224.882 Y649.484 I0. J1.456
N7325 G2 X226.248 Y649.447 I0.671 J-0.453
N7330 X223.676 Y644.903 I-2.572 J-1.544
N7335 G1 X183.676
N7340 G2 Y650.903 I0. J3.
N7345 G1 X223.676
N7350 G2 X226.248 Y649.447 I0. J-3.
N7355 X225.839 Y649.034 I-0.257 J-0.154
N7360 G1 X224.239 Y649.973
N7365 G2 X224.475 Y650.519 I0.152 J0.259
N7370 X222.877 Y645.048 Z-8.67 I-0.799 J-2.736 F333.33
N7375 X224.475 Y650.519 Z-8.982 I0.799 J2.736
N7380 X222.877 Y645.048 Z-9.295 I-0.799 J-2.736
N7385 X224.475 Y650.519 Z-9.608 I0.799 J2.736
N7390 X222.877 Y645.048 Z-9.92 I-0.799 J-2.736
N7395 X224.475 Y650.519 Z-10.233 I0.799 J2.736
N7400 X222.877 Y645.048 Z-10.546 I-0.799 J-2.736
N7405 X224.475 Y650.519 Z-10.858 I0.799 J2.736
N7410 X223.676 Y644.934 Z-11.143 I-0.799 J-2.736
N7415 Y648.843 I0. J1.955
N7420 Y646.963 I0. J-0.94 F1200.
N7425 G1 X183.676
N7430 G2 Y648.843 I0. J0.94
N7435 G1 X223.676
N7440 G3 X224.882 Y649.484 I0. J1.456
N7445 G2 X226.248 Y649.447 I0.671 J-0.453
N7450 X223.676 Y644.903 I-2.572 J-1.544
N7455 G1 X183.676
N7460 G2 Y650.903 I0. J3.
N7465 G1 X223.676
N7470 G2 X226.248 Y649.447 I0. J-3.
N7475 X225.839 Y649.034 I-0.257 J-0.154
N7480 G1 X224.239 Y649.973
N7485 G2 X224.475 Y650.519 I0.152 J0.259
N7490 X222.877 Y645.048 Z-11.456 I-0.799 J-2.736 F333.33
N7495 X224.475 Y650.519 Z-11.768 I0.799 J2.736
N7500 X222.877 Y645.048 Z-12.081 I-0.799 J-2.736
N7505 X224.475 Y650.519 Z-12.394 I0.799 J2.736
N7510 X222.877 Y645.048 Z-12.706 I-0.799 J-2.736
N7515 X224.475 Y650.519 Z-13.019 I0.799 J2.736
N7520 X222.877 Y645.048 Z-13.332 I-0.799 J-2.736
N7525 X224.475 Y650.519 Z-13.644 I0.799 J2.736
N7530 X223.676 Y644.934 Z-13.929 I-0.799 J-2.736
N7535 Y648.843 I0. J1.955
N7540 Y646.963 I0. J-0.94 F1200.
N7545 G1 X183.676
N7550 G2 Y648.843 I0. J0.94
N7555 G1 X223.676
N7560 G3 X224.882 Y649.484 I0. J1.456
N7565 G2 X226.248 Y649.447 I0.671 J-0.453
N7570 X223.676 Y644.903 I-2.572 J-1.544
N7575 G1 X183.676
N7580 G2 Y650.903 I0. J3.
N7585 G1 X223.676
N7590 G2 X226.248 Y649.447 I0. J-3.
N7595 X225.839 Y649.034 I-0.257 J-0.154
N7600 G1 X224.239 Y649.973
N7605 G2 X224.475 Y650.519 I0.152 J0.259
N7610 X222.877 Y645.048 Z-14.241 I-0.799 J-2.736 F333.33
N7615 X224.475 Y650.519 Z-14.554 I0.799 J2.736
N7620 X222.877 Y645.048 Z-14.867 I-0.799 J-2.736
N7625 X224.475 Y650.519 Z-15.179 I0.799 J2.736
N7630 X222.877 Y645.048 Z-15.492 I-0.799 J-2.736
N7635 X224.475 Y650.519 Z-15.805 I0.799 J2.736
N7640 X222.877 Y645.048 Z-16.117 I-0.799 J-2.736
N7645 X224.475 Y650.519 Z-16.43 I0.799 J2.736
N7650 X223.676 Y644.934 Z-16.714 I-0.799 J-2.736
N7655 Y648.843 I0. J1.955
N7660 Y646.963 I0. J-0.94 F1200.
N7665 G1 X183.676
N7670 G2 Y648.843 I0. J0.94
N7675 G1 X223.676
N7680 G3 X224.882 Y649.484 I0. J1.456
N7685 G2 X226.248 Y649.447 I0.671 J-0.453
N7690 X223.676 Y644.903 I-2.572 J-1.544
N7695 G1 X183.676
N7700 G2 Y650.903 I0. J3.
N7705 G1 X223.676
N7710 G2 X226.248 Y649.447 I0. J-3.
N7715 X225.839 Y649.034 I-0.257 J-0.154
N7720 G1 X224.239 Y649.973
N7725 G2 X224.475 Y650.519 I0.152 J0.259
N7730 X222.877 Y645.048 Z-17.027 I-0.799 J-2.736 F333.33
N7735 X224.475 Y650.519 Z-17.34 I0.799 J2.736
N7740 X222.877 Y645.048 Z-17.652 I-0.799 J-2.736
N7745 X224.475 Y650.519 Z-17.965 I0.799 J2.736
N7750 X222.877 Y645.048 Z-18.278 I-0.799 J-2.736
N7755 X224.475 Y650.519 Z-18.59 I0.799 J2.736
N7760 X222.877 Y645.048 Z-18.903 I-0.799 J-2.736
N7765 X224.475 Y650.519 Z-19.216 I0.799 J2.736
N7770 X223.676 Y644.934 Z-19.5 I-0.799 J-2.736
N7775 Y648.843 I0. J1.955
N7780 Y646.963 I0. J-0.94 F1200.
N7785 G1 X183.676
N7790 G2 Y648.843 I0. J0.94
N7795 G1 X223.676
N7800 G3 X224.882 Y649.484 I0. J1.456
N7805 G2 X226.248 Y649.447 I0.671 J-0.453
N7810 X223.676 Y644.903 I-2.572 J-1.544
N7815 G1 X183.676
N7820 G2 Y650.903 I0. J3.
N7825 G1 X223.676
N7830 G2 X226.248 Y649.447 I0. J-3.
N7835 G1 X226.289 Y649.365 Z-19.485 F500.
N7840 X226.317 Y649.276 Z-19.471
N7845 X226.331 Y649.194 Z-19.428
N7850 X226.333 Y649.11 Z-19.385
N7855 X226.326 Y649.044 Z-19.319
N7860 X226.312 Y648.98 Z-19.253
N7865 X226.284 Y648.899 Z-19.085
N7870 X226.271 Y648.873 Z-18.9
N7875 G0 Z5.
N7880 X325.147 Y645.342
N7885 G1 Z1.6 F500.
N7890 X325.123 Y645.328 Z1.418 F333.33
N7895 X325.052 Y645.288 Z1.254
N7900 X324.939 Y645.229 Z1.122
N7905 X324.792 Y645.161 Z1.034
N7910 X324.624 Y645.096 Z1.
N7915 G2 X322.728 Y650.471 Z0.687 I-0.948 J2.688
N7920 X324.624 Y645.096 Z0.375 I0.948 J-2.688
N7925 X322.728 Y650.471 Z0.062 I-0.948 J2.688
N7930 X324.624 Y645.096 Z-0.251 I0.948 J-2.688
N7935 X322.728 Y650.471 Z-0.563 I-0.948 J2.688
N7940 X324.624 Y645.096 Z-0.876 I0.948 J-2.688
N7945 X322.728 Y650.471 Z-1.189 I-0.948 J2.688
N7950 X324.624 Y645.096 Z-1.501 I0.948 J-2.688
N7955 X322.728 Y650.471 Z-1.814 I-0.948 J2.688
N7960 X324.624 Y645.096 Z-2.127 I0.948 J-2.688
N7965 X322.728 Y650.471 Z-2.439 I-0.948 J2.688
N7970 X324.624 Y645.096 Z-2.752 I0.948 J-2.688
N7975 X323.676 Y644.934 Z-2.786 I-0.948 J2.688
N7980 Y648.843 I0. J1.955
N7985 G1 X363.676 F1200.
N7990 G2 Y646.963 I0. J-0.94
N7995 G1 X323.676
N8000 G2 Y648.843 I0. J0.94
N8005 G3 X325.221 Y649.873 I0. J1.674
N8010 G2 X326.766 Y650.903 I1.545 J-0.644
N8015 G1 X363.676
N8020 G2 Y644.903 I0. J-3.
N8025 G1 X323.676
N8030 G2 Y650.903 I0. J3.
N8035 G1 X326.766
N8040 G2 X326.812 Y650.307 I0. J-0.3
N8045 G1 X324.437 Y649.935
N8050 G2 X324.344 Y650.528 I-0.046 J0.296
N8055 X324.475 Y650.519 I0.046 J-0.296
N8060 X322.877 Y645.048 Z-3.098 I-0.799 J-2.736 F333.33
N8065 X324.475 Y650.519 Z-3.411 I0.799 J2.736
N8070 X322.877 Y645.048 Z-3.724 I-0.799 J-2.736
N8075 X324.475 Y650.519 Z-4.036 I0.799 J2.736
N8080 X322.877 Y645.048 Z-4.349 I-0.799 J-2.736
N8085 X324.475 Y650.519 Z-4.662 I0.799 J2.736
N8090 X322.877 Y645.048 Z-4.974 I-0.799 J-2.736
N8095 X324.475 Y650.519 Z-5.287 I0.799 J2.736
N8100 X323.676 Y644.934 Z-5.571 I-0.799 J-2.736
N8105 Y648.843 I0. J1.955
N8110 G1 X363.676 F1200.
N8115 G2 Y646.963 I0. J-0.94
N8120 G1 X323.676
N8125 G2 Y648.843 I0. J0.94
N8130 G3 X325.221 Y649.873 I0. J1.674
N8135 G2 X326.766 Y650.903 I1.545 J-0.644
N8140 G1 X363.676
N8145 G2 Y644.903 I0. J-3.
N8150 G1 X323.676
N8155 G2 Y650.903 I0. J3.
N8160 G1 X326.766
N8165 G2 X326.812 Y650.307 I0. J-0.3
N8170 G1 X324.437 Y649.935
N8175 G2 X324.344 Y650.528 I-0.046 J0.296
N8180 X324.475 Y650.519 I0.046 J-0.296
N8185 X322.877 Y645.048 Z-5.884 I-0.799 J-2.736 F333.33
N8190 X324.475 Y650.519 Z-6.197 I0.799 J2.736
N8195 X322.877 Y645.048 Z-6.509 I-0.799 J-2.736
N8200 X324.475 Y650.519 Z-6.822 I0.799 J2.736
N8205 X322.877 Y645.048 Z-7.135 I-0.799 J-2.736
N8210 X324.475 Y650.519 Z-7.447 I0.799 J2.736
N8215 X322.877 Y645.048 Z-7.76 I-0.799 J-2.736
N8220 X324.475 Y650.519 Z-8.073 I0.799 J2.736
N8225 X323.676 Y644.934 Z-8.357 I-0.799 J-2.736
N8230 Y648.843 I0. J1.955
N8235 G1 X363.676 F1200.
N8240 G2 Y646.963 I0. J-0.94
N8245 G1 X323.676
N8250 G2 Y648.843 I0. J0.94
N8255 G3 X325.221 Y649.873 I0. J1.674
N8260 G2 X326.766 Y650.903 I1.545 J-0.644
N8265 G1 X363.676
N8270 G2 Y644.903 I0. J-3.
N8275 G1 X323.676
N8280 G2 Y650.903 I0. J3.
N8285 G1 X326.766
N8290 G2 X326.812 Y650.307 I0. J-0.3
N8295 G1 X324.437 Y649.935
N8300 G2 X324.344 Y650.528 I-0.046 J0.296
N8305 X324.475 Y650.519 I0.046 J-0.296
N8310 X322.877 Y645.048 Z-8.67 I-0.799 J-2.736 F333.33
N8315 X324.475 Y650.519 Z-8.982 I0.799 J2.736
N8320 X322.877 Y645.048 Z-9.295 I-0.799 J-2.736
N8325 X324.475 Y650.519 Z-9.608 I0.799 J2.736
N8330 X322.877 Y645.048 Z-9.92 I-0.799 J-2.736
N8335 X324.475 Y650.519 Z-10.233 I0.799 J2.736
N8340 X322.877 Y645.048 Z-10.546 I-0.799 J-2.736
N8345 X324.475 Y650.519 Z-10.858 I0.799 J2.736
N8350 X323.676 Y644.934 Z-11.143 I-0.799 J-2.736
N8355 Y648.843 I0. J1.955
N8360 G1 X363.676 F1200.
N8365 G2 Y646.963 I0. J-0.94
N8370 G1 X323.676
N8375 G2 Y648.843 I0. J0.94
N8380 G3 X325.221 Y649.873 I0. J1.674
N8385 G2 X326.766 Y650.903 I1.545 J-0.644
N8390 G1 X363.676
N8395 G2 Y644.903 I0. J-3.
N8400 G1 X323.676
N8405 G2 Y650.903 I0. J3.
N8410 G1 X326.766
N8415 G2 X326.812 Y650.307 I0. J-0.3
N8420 G1 X324.437 Y649.935
N8425 G2 X324.344 Y650.528 I-0.046 J0.296
N8430 X324.475 Y650.519 I0.046 J-0.296
N8435 X322.877 Y645.048 Z-11.456 I-0.799 J-2.736 F333.33
N8440 X324.475 Y650.519 Z-11.768 I0.799 J2.736
N8445 X322.877 Y645.048 Z-12.081 I-0.799 J-2.736
N8450 X324.475 Y650.519 Z-12.394 I0.799 J2.736
N8455 X322.877 Y645.048 Z-12.706 I-0.799 J-2.736
N8460 X324.475 Y650.519 Z-13.019 I0.799 J2.736
N8465 X322.877 Y645.048 Z-13.332 I-0.799 J-2.736
N8470 X324.475 Y650.519 Z-13.644 I0.799 J2.736
N8475 X323.676 Y644.934 Z-13.929 I-0.799 J-2.736
N8480 Y648.843 I0. J1.955
N8485 G1 X363.676 F1200.
N8490 G2 Y646.963 I0. J-0.94
N8495 G1 X323.676
N8500 G2 Y648.843 I0. J0.94
N8505 G3 X325.221 Y649.873 I0. J1.674
N8510 G2 X326.766 Y650.903 I1.545 J-0.644
N8515 G1 X363.676
N8520 G2 Y644.903 I0. J-3.
N8525 G1 X323.676
N8530 G2 Y650.903 I0. J3.
N8535 G1 X326.766
N8540 G2 X326.812 Y650.307 I0. J-0.3
N8545 G1 X324.437 Y649.935
N8550 G2 X324.344 Y650.528 I-0.046 J0.296
N8555 X324.475 Y650.519 I0.046 J-0.296
N8560 X322.877 Y645.048 Z-14.241 I-0.799 J-2.736 F333.33
N8565 X324.475 Y650.519 Z-14.554 I0.799 J2.736
N8570 X322.877 Y645.048 Z-14.867 I-0.799 J-2.736
N8575 X324.475 Y650.519 Z-15.179 I0.799 J2.736
N8580 X322.877 Y645.048 Z-15.492 I-0.799 J-2.736
N8585 X324.475 Y650.519 Z-15.805 I0.799 J2.736
N8590 X322.877 Y645.048 Z-16.117 I-0.799 J-2.736
N8595 X324.475 Y650.519 Z-16.43 I0.799 J2.736
N8600 X323.676 Y644.934 Z-16.714 I-0.799 J-2.736
N8605 Y648.843 I0. J1.955
N8610 G1 X363.676 F1200.
N8615 G2 Y646.963 I0. J-0.94
N8620 G1 X323.676
N8625 G2 Y648.843 I0. J0.94
N8630 G3 X325.221 Y649.873 I0. J1.674
N8635 G2 X326.766 Y650.903 I1.545 J-0.644
N8640 G1 X363.676
N8645 G2 Y644.903 I0. J-3.
N8650 G1 X323.676
N8655 G2 Y650.903 I0. J3.
N8660 G1 X326.766
N8665 G2 X326.812 Y650.307 I0. J-0.3
N8670 G1 X324.437 Y649.935
N8675 G2 X324.344 Y650.528 I-0.046 J0.296
N8680 X324.475 Y650.519 I0.046 J-0.296
N8685 X322.877 Y645.048 Z-17.027 I-0.799 J-2.736 F333.33
N8690 X324.475 Y650.519 Z-17.34 I0.799 J2.736
N8695 X322.877 Y645.048 Z-17.652 I-0.799 J-2.736
N8700 X324.475 Y650.519 Z-17.965 I0.799 J2.736
N8705 X322.877 Y645.048 Z-18.278 I-0.799 J-2.736
N8710 X324.475 Y650.519 Z-18.59 I0.799 J2.736
N8715 X322.877 Y645.048 Z-18.903 I-0.799 J-2.736
N8720 X324.475 Y650.519 Z-19.216 I0.799 J2.736
N8725 X323.676 Y644.934 Z-19.5 I-0.799 J-2.736
N8730 Y648.843 I0. J1.955
N8735 G1 X363.676 F1200.
N8740 G2 Y646.963 I0. J-0.94
N8745 G1 X323.676
N8750 G2 Y648.843 I0. J0.94
N8755 G3 X325.221 Y649.873 I0. J1.674
N8760 G2 X326.766 Y650.903 I1.545 J-0.644
N8765 G1 X363.676
N8770 G2 Y644.903 I0. J-3.
N8775 G1 X323.676
N8780 G2 Y650.903 I0. J3.
N8785 G1 X326.766
N8790 X326.858 Y650.896 Z-19.485 F500.
N8795 X326.948 Y650.875 Z-19.471
N8800 X327.026 Y650.844 Z-19.428
N8805 X327.099 Y650.802 Z-19.385
N8810 X327.152 Y650.763 Z-19.319
N8815 X327.2 Y650.717 Z-19.253
N8820 X327.254 Y650.651 Z-19.085
N8825 X327.271 Y650.627 Z-18.9
N8830 G0 Z5.
N8835 X323.145 Y876.432
N8840 G1 Z1.6 F500.
N8845 X323.13 Y876.456 Z1.418 F333.33
N8850 X323.09 Y876.527 Z1.254
N8855 X323.031 Y876.64 Z1.122
N8860 X322.964 Y876.787 Z1.034
N8865 X322.898 Y876.955 Z1.
N8870 G2 X328.274 Y878.851 Z0.687 I2.688 J0.948
N8875 X322.898 Y876.955 Z0.375 I-2.688 J-0.948
N8880 X328.274 Y878.851 Z0.062 I2.688 J0.948
N8885 X322.898 Y876.955 Z-0.251 I-2.688 J-0.948
N8890 X328.274 Y878.851 Z-0.563 I2.688 J0.948
N8895 X322.898 Y876.955 Z-0.876 I-2.688 J-0.948
N8900 X328.274 Y878.851 Z-1.189 I2.688 J0.948
N8905 X322.898 Y876.955 Z-1.501 I-2.688 J-0.948
N8910 X328.274 Y878.851 Z-1.814 I2.688 J0.948
N8915 X322.898 Y876.955 Z-2.127 I-2.688 J-0.948
N8920 X328.274 Y878.851 Z-2.439 I2.688 J0.948
N8925 X322.898 Y876.955 Z-2.752 I-2.688 J-0.948
N8930 X322.736 Y877.903 Z-2.786 I2.688 J0.948
N8935 X323.676 Y878.843 I0.94 J0. F1200.
N8940 G1 X363.676
N8945 G2 Y876.963 I0. J-0.94
N8950 G1 X323.676
N8955 G2 X322.736 Y877.903 I0. J0.94
N8960 G3 X322.095 Y879.109 I-1.456 J0.
N8965 G2 X322.132 Y880.475 I0.453 J0.671
N8970 X323.676 Y880.903 I1.544 J-2.572
N8975 G1 X363.676
N8980 G2 Y874.903 I0. J-3.
N8985 G1 X323.676
N8990 G2 X322.132 Y880.475 I0. J3.
N8995 G1 X322.168 Y880.49
N9000 X322.207 Y880.494
N9005 X322.245 Y880.486
N9010 X322.279 Y880.468
N9015 X322.307 Y880.44
N9020 X322.648 Y879.985
N9025 X322.668 Y879.964
N9030 X322.693 Y879.947
N9035 X327.619 Y877.386
N9040 X328.224 Y877.264
N9045 X328.263 Y877.25
N9050 X328.296 Y877.223
N9055 X328.318 Y877.187
N9060 X328.327 Y877.146
N9065 X328.322 Y877.104
N9070 G2 X322.85 Y878.702 Z-3.098 I-2.736 J0.799 F333.33
N9075 X328.322 Y877.104 Z-3.411 I2.736 J-0.799
N9080 X322.85 Y878.702 Z-3.724 I-2.736 J0.799
N9085 X328.322 Y877.104 Z-4.036 I2.736 J-0.799
N9090 X322.85 Y878.702 Z-4.349 I-2.736 J0.799
N9095 X328.322 Y877.104 Z-4.662 I2.736 J-0.799
N9100 X322.85 Y878.702 Z-4.974 I-2.736 J0.799
N9105 X328.322 Y877.104 Z-5.287 I2.736 J-0.799
N9110 X322.736 Y877.903 Z-5.571 I-2.736 J0.799
N9115 X323.676 Y878.843 I0.94 J0. F1200.
N9120 G1 X363.676
N9125 G2 Y876.963 I0. J-0.94
N9130 G1 X323.676
N9135 G2 X322.736 Y877.903 I0. J0.94
N9140 G3 X322.095 Y879.109 I-1.456 J0.
N9145 G2 X322.132 Y880.475 I0.453 J0.671
N9150 X323.676 Y880.903 I1.544 J-2.572
N9155 G1 X363.676
N9160 G2 Y874.903 I0. J-3.
N9165 G1 X323.676
N9170 G2 X322.132 Y880.475 I0. J3.
N9175 G1 X322.168 Y880.49
N9180 X322.207 Y880.494
N9185 X322.245 Y880.486
N9190 X322.279 Y880.468
N9195 X322.307 Y880.44
N9200 X322.648 Y879.985
N9205 X322.668 Y879.964
N9210 X322.693 Y879.947
N9215 X327.619 Y877.386
N9220 X328.224 Y877.264
N9225 X328.263 Y877.25
N9230 X328.296 Y877.223
N9235 X328.318 Y877.187
N9240 X328.327 Y877.146
N9245 X328.322 Y877.104
N9250 G2 X322.85 Y878.702 Z-5.884 I-2.736 J0.799 F333.33
N9255 X328.322 Y877.104 Z-6.197 I2.736 J-0.799
N9260 X322.85 Y878.702 Z-6.509 I-2.736 J0.799
N9265 X328.322 Y877.104 Z-6.822 I2.736 J-0.799
N9270 X322.85 Y878.702 Z-7.135 I-2.736 J0.799
N9275 X328.322 Y877.104 Z-7.447 I2.736 J-0.799
N9280 X322.85 Y878.702 Z-7.76 I-2.736 J0.799
N9285 X328.322 Y877.104 Z-8.073 I2.736 J-0.799
N9290 X322.736 Y877.903 Z-8.357 I-2.736 J0.799
N9295 X323.676 Y878.843 I0.94 J0. F1200.
N9300 G1 X363.676
N9305 G2 Y876.963 I0. J-0.94
N9310 G1 X323.676
N9315 G2 X322.736 Y877.903 I0. J0.94
N9320 G3 X322.095 Y879.109 I-1.456 J0.
N9325 G2 X322.132 Y880.475 I0.453 J0.671
N9330 X323.676 Y880.903 I1.544 J-2.572
N9335 G1 X363.676
N9340 G2 Y874.903 I0. J-3.
N9345 G1 X323.676
N9350 G2 X322.132 Y880.475 I0. J3.
N9355 G1 X322.168 Y880.49
N9360 X322.207 Y880.494
N9365 X322.245 Y880.486
N9370 X322.279 Y880.468
N9375 X322.307 Y880.44
N9380 X322.648 Y879.985
N9385 X322.668 Y879.964
N9390 X322.693 Y879.947
N9395 X327.619 Y877.386
N9400 X328.224 Y877.264
N9405 X328.263 Y877.25
N9410 X328.296 Y877.223
N9415 X328.318 Y877.187
N9420 X328.327 Y877.146
N9425 X328.322 Y877.104
N9430 G2 X322.85 Y878.702 Z-8.67 I-2.736 J0.799 F333.33
N9435 X328.322 Y877.104 Z-8.982 I2.736 J-0.799
N9440 X322.85 Y878.702 Z-9.295 I-2.736 J0.799
N9445 X328.322 Y877.104 Z-9.608 I2.736 J-0.799
N9450 X322.85 Y878.702 Z-9.92 I-2.736 J0.799
N9455 X328.322 Y877.104 Z-10.233 I2.736 J-0.799
N9460 X322.85 Y878.702 Z-10.546 I-2.736 J0.799
N9465 X328.322 Y877.104 Z-10.858 I2.736 J-0.799
N9470 X322.736 Y877.903 Z-11.143 I-2.736 J0.799
N9475 X323.676 Y878.843 I0.94 J0. F1200.
N9480 G1 X363.676
N9485 G2 Y876.963 I0. J-0.94
N9490 G1 X323.676
N9495 G2 X322.736 Y877.903 I0. J0.94
N9500 G3 X322.095 Y879.109 I-1.456 J0.
N9505 G2 X322.132 Y880.475 I0.453 J0.671
N9510 X323.676 Y880.903 I1.544 J-2.572
N9515 G1 X363.676
N9520 G2 Y874.903 I0. J-3.
N9525 G1 X323.676
N9530 G2 X322.132 Y880.475 I0. J3.
N9535 G1 X322.168 Y880.49
N9540 X322.207 Y880.494
N9545 X322.245 Y880.486
N9550 X322.279 Y880.468
N9555 X322.307 Y880.44
N9560 X322.648 Y879.985
N9565 X322.668 Y879.964
N9570 X322.693 Y879.947
N9575 X327.619 Y877.386
N9580 X328.224 Y877.264
N9585 X328.263 Y877.25
N9590 X328.296 Y877.223
N9595 X328.318 Y877.187
N9600 X328.327 Y877.146
N9605 X328.322 Y877.104
N9610 G2 X322.85 Y878.702 Z-11.456 I-2.736 J0.799 F333.33
N9615 X328.322 Y877.104 Z-11.768 I2.736 J-0.799
N9620 X322.85 Y878.702 Z-12.081 I-2.736 J0.799
N9625 X328.322 Y877.104 Z-12.394 I2.736 J-0.799
N9630 X322.85 Y878.702 Z-12.706 I-2.736 J0.799
N9635 X328.322 Y877.104 Z-13.019 I2.736 J-0.799
N9640 X322.85 Y878.702 Z-13.332 I-2.736 J0.799
N9645 X328.322 Y877.104 Z-13.644 I2.736 J-0.799
N9650 X322.736 Y877.903 Z-13.929 I-2.736 J0.799
N9655 X323.676 Y878.843 I0.94 J0. F1200.
N9660 G1 X363.676
N9665 G2 Y876.963 I0. J-0.94
N9670 G1 X323.676
N9675 G2 X322.736 Y877.903 I0. J0.94
N9680 G3 X322.095 Y879.109 I-1.456 J0.
N9685 G2 X322.132 Y880.475 I0.453 J0.671
N9690 X323.676 Y880.903 I1.544 J-2.572
N9695 G1 X363.676
N9700 G2 Y874.903 I0. J-3.
N9705 G1 X323.676
N9710 G2 X322.132 Y880.475 I0. J3.
N9715 G1 X322.168 Y880.49
N9720 X322.207 Y880.494
N9725 X322.245 Y880.486
N9730 X322.279 Y880.468
N9735 X322.307 Y880.44
N9740 X322.648 Y879.985
N9745 X322.668 Y879.964
N9750 X322.693 Y879.947
N9755 X327.619 Y877.386
N9760 X328.224 Y877.264
N9765 X328.263 Y877.25
N9770 X328.296 Y877.223
N9775 X328.318 Y877.187
N9780 X328.327 Y877.146
N9785 X328.322 Y877.104
N9790 G2 X322.85 Y878.702 Z-14.241 I-2.736 J0.799 F333.33
N9795 X328.322 Y877.104 Z-14.554 I2.736 J-0.799
N9800 X322.85 Y878.702 Z-14.867 I-2.736 J0.799
N9805 X328.322 Y877.104 Z-15.179 I2.736 J-0.799
N9810 X322.85 Y878.702 Z-15.492 I-2.736 J0.799
N9815 X328.322 Y877.104 Z-15.805 I2.736 J-0.799
N9820 X322.85 Y878.702 Z-16.117 I-2.736 J0.799
N9825 X328.322 Y877.104 Z-16.43 I2.736 J-0.799
N9830 X322.736 Y877.903 Z-16.714 I-2.736 J0.799
N9835 X323.676 Y878.843 I0.94 J0. F1200.
N9840 G1 X363.676
N9845 G2 Y876.963 I0. J-0.94
N9850 G1 X323.676
N9855 G2 X322.736 Y877.903 I0. J0.94
N9860 G3 X322.095 Y879.109 I-1.456 J0.
N9865 G2 X322.132 Y880.475 I0.453 J0.671
N9870 X323.676 Y880.903 I1.544 J-2.572
N9875 G1 X363.676
N9880 G2 Y874.903 I0. J-3.
N9885 G1 X323.676
N9890 G2 X322.132 Y880.475 I0. J3.
N9895 G1 X322.168 Y880.49
N9900 X322.207 Y880.494
N9905 X322.245 Y880.486
N9910 X322.279 Y880.468
N9915 X322.307 Y880.44
N9920 X322.648 Y879.985
N9925 X322.668 Y879.964
N9930 X322.693 Y879.947
N9935 X327.619 Y877.386
N9940 X328.224 Y877.264
N9945 X328.263 Y877.25
N9950 X328.296 Y877.223
N9955 X328.318 Y877.187
N9960 X328.327 Y877.146
N9965 X328.322 Y877.104
N9970 G2 X322.85 Y878.702 Z-17.027 I-2.736 J0.799 F333.33
N9975 X328.322 Y877.104 Z-17.34 I2.736 J-0.799
N9980 X322.85 Y878.702 Z-17.652 I-2.736 J0.799
N9985 X328.322 Y877.104 Z-17.965 I2.736 J-0.799
N9990 X322.85 Y878.702 Z-18.278 I-2.736 J0.799
N9995 X328.322 Y877.104 Z-18.59 I2.736 J-0.799
N10000 X322.85 Y878.702 Z-18.903 I-2.736 J0.799
N10005 X328.322 Y877.104 Z-19.216 I2.736 J-0.799
N10010 X322.736 Y877.903 Z-19.5 I-2.736 J0.799
N10015 X323.676 Y878.843 I0.94 J0. F1200.
N10020 G1 X363.676
N10025 G2 Y876.963 I0. J-0.94
N10030 G1 X323.676
N10035 G2 X322.736 Y877.903 I0. J0.94
N10040 G3 X322.095 Y879.109 I-1.456 J0.
N10045 G2 X322.132 Y880.475 I0.453 J0.671
N10050 X323.676 Y880.903 I1.544 J-2.572
N10055 G1 X363.676
N10060 G2 Y874.903 I0. J-3.
N10065 G1 X323.676
N10070 G2 X322.132 Y880.475 I0. J3.
N10075 G1 X322.214 Y880.516 Z-19.485 F500.
N10080 X322.303 Y880.544 Z-19.471
N10085 X322.385 Y880.558 Z-19.428
N10090 X322.469 Y880.56 Z-19.385
N10095 X322.535 Y880.553 Z-19.319
N10100 X322.599 Y880.539 Z-19.253
N10105 X322.68 Y880.511 Z-19.085
N10110 X322.706 Y880.498 Z-18.9
N10115 G0 Z5.
N10120 X225.147 Y875.342
N10125 G1 Z1.6 F500.
N10130 X225.123 Y875.328 Z1.418 F333.33
N10135 X225.052 Y875.288 Z1.254
N10140 X224.939 Y875.229 Z1.122
N10145 X224.792 Y875.161 Z1.034
N10150 X224.624 Y875.096 Z1.
N10155 G2 X222.728 Y880.471 Z0.687 I-0.948 J2.688
N10160 X224.624 Y875.096 Z0.375 I0.948 J-2.688
N10165 X222.728 Y880.471 Z0.062 I-0.948 J2.688
N10170 X224.624 Y875.096 Z-0.251 I0.948 J-2.688
N10175 X222.728 Y880.471 Z-0.563 I-0.948 J2.688
N10180 X224.624 Y875.096 Z-0.876 I0.948 J-2.688
N10185 X222.728 Y880.471 Z-1.189 I-0.948 J2.688
N10190 X224.624 Y875.096 Z-1.501 I0.948 J-2.688
N10195 X222.728 Y880.471 Z-1.814 I-0.948 J2.688
N10200 X224.624 Y875.096 Z-2.127 I0.948 J-2.688
N10205 X222.728 Y880.471 Z-2.439 I-0.948 J2.688
N10210 X224.624 Y875.096 Z-2.752 I0.948 J-2.688
N10215 X223.676 Y874.934 Z-2.786 I-0.948 J2.688
N10220 Y878.843 I0. J1.955
N10225 Y876.963 I0. J-0.94 F1200.
N10230 G1 X183.676
N10235 G2 Y878.843 I0. J0.94
N10240 G1 X223.676
N10245 G3 X224.882 Y879.484 I0. J1.456
N10250 G2 X226.248 Y879.447 I0.671 J-0.453
N10255 X223.676 Y874.903 I-2.572 J-1.544
N10260 G1 X183.676
N10265 G2 Y880.903 I0. J3.
N10270 G1 X223.676
N10275 G2 X226.248 Y879.447 I0. J-3.
N10280 X225.839 Y879.034 I-0.257 J-0.154
N10285 G1 X224.239 Y879.973
N10290 G2 X224.475 Y880.519 I0.152 J0.259
N10295 X222.877 Y875.048 Z-3.098 I-0.799 J-2.736 F333.33
N10300 X224.475 Y880.519 Z-3.411 I0.799 J2.736
N10305 X222.877 Y875.048 Z-3.724 I-0.799 J-2.736
N10310 X224.475 Y880.519 Z-4.036 I0.799 J2.736
N10315 X222.877 Y875.048 Z-4.349 I-0.799 J-2.736
N10320 X224.475 Y880.519 Z-4.662 I0.799 J2.736
N10325 X222.877 Y875.048 Z-4.974 I-0.799 J-2.736
N10330 X224.475 Y880.519 Z-5.287 I0.799 J2.736
N10335 X223.676 Y874.934 Z-5.571 I-0.799 J-2.736
N10340 Y878.843 I0. J1.955
N10345 Y876.963 I0. J-0.94 F1200.
N10350 G1 X183.676
N10355 G2 Y878.843 I0. J0.94
N10360 G1 X223.676
N10365 G3 X224.882 Y879.484 I0. J1.456
N10370 G2 X226.248 Y879.447 I0.671 J-0.453
N10375 X223.676 Y874.903 I-2.572 J-1.544
N10380 G1 X183.676
N10385 G2 Y880.903 I0. J3.
N10390 G1 X223.676
N10395 G2 X226.248 Y879.447 I0. J-3.
N10400 X225.839 Y879.034 I-0.257 J-0.154
N10405 G1 X224.239 Y879.973
N10410 G2 X224.475 Y880.519 I0.152 J0.259
N10415 X222.877 Y875.048 Z-5.884 I-0.799 J-2.736 F333.33
N10420 X224.475 Y880.519 Z-6.197 I0.799 J2.736
N10425 X222.877 Y875.048 Z-6.509 I-0.799 J-2.736
N10430 X224.475 Y880.519 Z-6.822 I0.799 J2.736
N10435 X222.877 Y875.048 Z-7.135 I-0.799 J-2.736
N10440 X224.475 Y880.519 Z-7.447 I0.799 J2.736
N10445 X222.877 Y875.048 Z-7.76 I-0.799 J-2.736
N10450 X224.475 Y880.519 Z-8.073 I0.799 J2.736
N10455 X223.676 Y874.934 Z-8.357 I-0.799 J-2.736
N10460 Y878.843 I0. J1.955
N10465 Y876.963 I0. J-0.94 F1200.
N10470 G1 X183.676
N10475 G2 Y878.843 I0. J0.94
N10480 G1 X223.676
N10485 G3 X224.882 Y879.484 I0. J1.456
N10490 G2 X226.248 Y879.447 I0.671 J-0.453
N10495 X223.676 Y874.903 I-2.572 J-1.544
N10500 G1 X183.676
N10505 G2 Y880.903 I0. J3.
N10510 G1 X223.676
N10515 G2 X226.248 Y879.447 I0. J-3.
N10520 X225.839 Y879.034 I-0.257 J-0.154
N10525 G1 X224.239 Y879.973
N10530 G2 X224.475 Y880.519 I0.152 J0.259
N10535 X222.877 Y875.048 Z-8.67 I-0.799 J-2.736 F333.33
N10540 X224.475 Y880.519 Z-8.982 I0.799 J2.736
N10545 X222.877 Y875.048 Z-9.295 I-0.799 J-2.736
N10550 X224.475 Y880.519 Z-9.608 I0.799 J2.736
N10555 X222.877 Y875.048 Z-9.92 I-0.799 J-2.736
N10560 X224.475 Y880.519 Z-10.233 I0.799 J2.736
N10565 X222.877 Y875.048 Z-10.546 I-0.799 J-2.736
N10570 X224.475 Y880.519 Z-10.858 I0.799 J2.736
N10575 X223.676 Y874.934 Z-11.143 I-0.799 J-2.736
N10580 Y878.843 I0. J1.955
N10585 Y876.963 I0. J-0.94 F1200.
N10590 G1 X183.676
N10595 G2 Y878.843 I0. J0.94
N10600 G1 X223.676
N10605 G3 X224.882 Y879.484 I0. J1.456
N10610 G2 X226.248 Y879.447 I0.671 J-0.453
N10615 X223.676 Y874.903 I-2.572 J-1.544
N10620 G1 X183.676
N10625 G2 Y880.903 I0. J3.
N10630 G1 X223.676
N10635 G2 X226.248 Y879.447 I0. J-3.
N10640 X225.839 Y879.034 I-0.257 J-0.154
N10645 G1 X224.239 Y879.973
N10650 G2 X224.475 Y880.519 I0.152 J0.259
N10655 X222.877 Y875.048 Z-11.456 I-0.799 J-2.736 F333.33
N10660 X224.475 Y880.519 Z-11.768 I0.799 J2.736
N10665 X222.877 Y875.048 Z-12.081 I-0.799 J-2.736
N10670 X224.475 Y880.519 Z-12.394 I0.799 J2.736
N10675 X222.877 Y875.048 Z-12.706 I-0.799 J-2.736
N10680 X224.475 Y880.519 Z-13.019 I0.799 J2.736
N10685 X222.877 Y875.048 Z-13.332 I-0.799 J-2.736
N10690 X224.475 Y880.519 Z-13.644 I0.799 J2.736
N10695 X223.676 Y874.934 Z-13.929 I-0.799 J-2.736
N10700 Y878.843 I0. J1.955
N10705 Y876.963 I0. J-0.94 F1200.
N10710 G1 X183.676
N10715 G2 Y878.843 I0. J0.94
N10720 G1 X223.676
N10725 G3 X224.882 Y879.484 I0. J1.456
N10730 G2 X226.248 Y879.447 I0.671 J-0.453
N10735 X223.676 Y874.903 I-2.572 J-1.544
N10740 G1 X183.676
N10745 G2 Y880.903 I0. J3.
N10750 G1 X223.676
N10755 G2 X226.248 Y879.447 I0. J-3.
N10760 X225.839 Y879.034 I-0.257 J-0.154
N10765 G1 X224.239 Y879.973
N10770 G2 X224.475 Y880.519 I0.152 J0.259
N10775 X222.877 Y875.048 Z-14.241 I-0.799 J-2.736 F333.33
N10780 X224.475 Y880.519 Z-14.554 I0.799 J2.736
N10785 X222.877 Y875.048 Z-14.867 I-0.799 J-2.736
N10790 X224.475 Y880.519 Z-15.179 I0.799 J2.736
N10795 X222.877 Y875.048 Z-15.492 I-0.799 J-2.736
N10800 X224.475 Y880.519 Z-15.805 I0.799 J2.736
N10805 X222.877 Y875.048 Z-16.117 I-0.799 J-2.736
N10810 X224.475 Y880.519 Z-16.43 I0.799 J2.736
N10815 X223.676 Y874.934 Z-16.714 I-0.799 J-2.736
N10820 Y878.843 I0. J1.955
N10825 Y876.963 I0. J-0.94 F1200.
N10830 G1 X183.676
N10835 G2 Y878.843 I0. J0.94
N10840 G1 X223.676
N10845 G3 X224.882 Y879.484 I0. J1.456
N10850 G2 X226.248 Y879.447 I0.671 J-0.453
N10855 X223.676 Y874.903 I-2.572 J-1.544
N10860 G1 X183.676
N10865 G2 Y880.903 I0. J3.
N10870 G1 X223.676
N10875 G2 X226.248 Y879.447 I0. J-3.
N10880 X225.839 Y879.034 I-0.257 J-0.154
N10885 G1 X224.239 Y879.973
N10890 G2 X224.475 Y880.519 I0.152 J0.259
N10895 X222.877 Y875.048 Z-17.027 I-0.799 J-2.736 F333.33
N10900 X224.475 Y880.519 Z-17.34 I0.799 J2.736
N10905 X222.877 Y875.048 Z-17.652 I-0.799 J-2.736
N10910 X224.475 Y880.519 Z-17.965 I0.799 J2.736
N10915 X222.877 Y875.048 Z-18.278 I-0.799 J-2.736
N10920 X224.475 Y880.519 Z-18.59 I0.799 J2.736
N10925 X222.877 Y875.048 Z-18.903 I-0.799 J-2.736
N10930 X224.475 Y880.519 Z-19.216 I0.799 J2.736
N10935 X223.676 Y874.934 Z-19.5 I-0.799 J-2.736
N10940 Y878.843 I0. J1.955
N10945 Y876.963 I0. J-0.94 F1200.
N10950 G1 X183.676
N10955 G2 Y878.843 I0. J0.94
N10960 G1 X223.676
N10965 G3 X224.882 Y879.484 I0. J1.456
N10970 G2 X226.248 Y879.447 I0.671 J-0.453
N10975 X223.676 Y874.903 I-2.572 J-1.544
N10980 G1 X183.676
N10985 G2 Y880.903 I0. J3.
N10990 G1 X223.676
N10995 G2 X226.248 Y879.447 I0. J-3.
N11000 G1 X226.289 Y879.365 Z-19.485 F500.
N11005 X226.317 Y879.276 Z-19.471
N11010 X226.331 Y879.194 Z-19.428
N11015 X226.333 Y879.11 Z-19.385
N11020 X226.326 Y879.044 Z-19.319
N11025 X226.312 Y878.98 Z-19.253
N11030 X226.284 Y878.899 Z-19.085
N11035 X226.271 Y878.873 Z-18.9
N11040 G0 Z15.
N11045 G53 Z0.
N11050 M30
%
