%
(1001)
(T1  D=6. CR=0. - ZMIN=-20. - FLAT END MILL)
N10 G90 G94 G17 G91.1
N15 G21
N20 G53 G0 Z0.
(2D POCKET1 3)
N25 M9
N30 T1 M6
N35 S22000 M3
N40 G54
N45 G0 X427.855 Y262.759
N50 G43 Z15. H1
N55 G0 Z5.
N60 G1 Z1.6 F500.
N65 X427.891 Y262.766 Z1.393 F333.33
N70 X427.996 Y262.781 Z1.211
N75 X428.158 Y262.797 Z1.077
N80 X428.356 Y262.804 Z1.007
N85 X428.431 Y262.803 Z1.
N90 G2 X428.281 Y257.105 Z0.687 I-0.075 J-2.849
N95 X428.431 Y262.803 Z0.375 I0.075 J2.849
N100 X428.281 Y257.105 Z0.062 I-0.075 J-2.849
N105 X428.431 Y262.803 Z-0.251 I0.075 J2.849
N110 X428.281 Y257.105 Z-0.563 I-0.075 J-2.849
N115 X428.431 Y262.803 Z-0.876 I0.075 J2.849
N120 X428.281 Y257.105 Z-1.189 I-0.075 J-2.849
N125 X428.431 Y262.803 Z-1.501 I0.075 J2.849
N130 X428.281 Y257.105 Z-1.814 I-0.075 J-2.849
N135 X428.431 Y262.803 Z-2.127 I0.075 J2.849
N140 X428.281 Y257.105 Z-2.439 I-0.075 J-2.849
N145 X428.431 Y262.803 Z-2.752 I0.075 J2.849
N150 X428.281 Y257.105 Z-3.065 I-0.075 J-2.849
N155 X428.431 Y262.803 Z-3.377 I0.075 J2.849
N160 X428.281 Y257.105 Z-3.69 I-0.075 J-2.849
N165 X428.356 Y262.804 Z-4. I0.075 J2.849
N170 Y258.249 I0. J-2.277
N175 G1 X128.356 F1200.
N180 G2 Y260.459 I0. J1.105
N185 G1 X428.356
N190 G2 Y258.249 I0. J-1.105
N195 G3 X426.56 Y257.052 I0. J-1.946
N200 G2 X424.763 Y255.854 I-1.796 J0.748
N205 G1 X128.356
N210 G2 Y262.854 I0. J3.5
N215 G1 X428.356
N220 G2 Y255.854 I0. J-3.5
N225 G1 X424.763
N230 G2 X424.656 Y256.434 I0. J0.3
N235 G1 X426.559 Y257.165
N240 G3 X426.632 Y257.684 I-0.108 J0.28
N245 G2 X430.08 Y262.224 Z-4.313 I1.724 J2.27 F333.33
N250 X426.632 Y257.684 Z-4.625 I-1.724 J-2.27
N255 X430.08 Y262.224 Z-4.938 I1.724 J2.27
N260 X426.632 Y257.684 Z-5.251 I-1.724 J-2.27
N265 X430.08 Y262.224 Z-5.563 I1.724 J2.27
N270 X426.632 Y257.684 Z-5.876 I-1.724 J-2.27
N275 X430.08 Y262.224 Z-6.189 I1.724 J2.27
N280 X426.632 Y257.684 Z-6.501 I-1.724 J-2.27
N285 X430.08 Y262.224 Z-6.814 I1.724 J2.27
N290 X426.632 Y257.684 Z-7.127 I-1.724 J-2.27
N295 X430.08 Y262.224 Z-7.439 I1.724 J2.27
N300 X426.632 Y257.684 Z-7.752 I-1.724 J-2.27
N305 X428.356 Y262.804 Z-8. I1.724 J2.27
N310 Y258.249 I0. J-2.277
N315 G1 X128.356 F1200.
N320 G2 Y260.459 I0. J1.105
N325 G1 X428.356
N330 G2 Y258.249 I0. J-1.105
N335 G3 X426.56 Y257.052 I0. J-1.946
N340 G2 X424.763 Y255.854 I-1.796 J0.748
N345 G1 X128.356
N350 G2 Y262.854 I0. J3.5
N355 G1 X428.356
N360 G2 Y255.854 I0. J-3.5
N365 G1 X424.763
N370 G2 X424.656 Y256.434 I0. J0.3
N375 G1 X426.559 Y257.165
N380 G3 X426.632 Y257.684 I-0.108 J0.28
N385 G2 X430.08 Y262.224 Z-8.313 I1.724 J2.27 F333.33
N390 X426.632 Y257.684 Z-8.625 I-1.724 J-2.27
N395 X430.08 Y262.224 Z-8.938 I1.724 J2.27
N400 X426.632 Y257.684 Z-9.251 I-1.724 J-2.27
N405 X430.08 Y262.224 Z-9.563 I1.724 J2.27
N410 X426.632 Y257.684 Z-9.876 I-1.724 J-2.27
N415 X430.08 Y262.224 Z-10.189 I1.724 J2.27
N420 X426.632 Y257.684 Z-10.501 I-1.724 J-2.27
N425 X430.08 Y262.224 Z-10.814 I1.724 J2.27
N430 X426.632 Y257.684 Z-11.127 I-1.724 J-2.27
N435 X430.08 Y262.224 Z-11.439 I1.724 J2.27
N440 X426.632 Y257.684 Z-11.752 I-1.724 J-2.27
N445 X428.356 Y262.804 Z-12. I1.724 J2.27
N450 Y258.249 I0. J-2.277
N455 G1 X128.356 F1200.
N460 G2 Y260.459 I0. J1.105
N465 G1 X428.356
N470 G2 Y258.249 I0. J-1.105
N475 G3 X426.56 Y257.052 I0. J-1.946
N480 G2 X424.763 Y255.854 I-1.796 J0.748
N485 G1 X128.356
N490 G2 Y262.854 I0. J3.5
N495 G1 X428.356
N500 G2 Y255.854 I0. J-3.5
N505 G1 X424.763
N510 G2 X424.656 Y256.434 I0. J0.3
N515 G1 X426.559 Y257.165
N520 G3 X426.632 Y257.684 I-0.108 J0.28
N525 G2 X430.08 Y262.224 Z-12.313 I1.724 J2.27 F333.33
N530 X426.632 Y257.684 Z-12.625 I-1.724 J-2.27
N535 X430.08 Y262.224 Z-12.938 I1.724 J2.27
N540 X426.632 Y257.684 Z-13.251 I-1.724 J-2.27
N545 X430.08 Y262.224 Z-13.563 I1.724 J2.27
N550 X426.632 Y257.684 Z-13.876 I-1.724 J-2.27
N555 X430.08 Y262.224 Z-14.189 I1.724 J2.27
N560 X426.632 Y257.684 Z-14.501 I-1.724 J-2.27
N565 X430.08 Y262.224 Z-14.814 I1.724 J2.27
N570 X426.632 Y257.684 Z-15.127 I-1.724 J-2.27
N575 X430.08 Y262.224 Z-15.439 I1.724 J2.27
N580 X426.632 Y257.684 Z-15.752 I-1.724 J-2.27
N585 X428.356 Y262.804 Z-16. I1.724 J2.27
N590 Y258.249 I0. J-2.277
N595 G1 X128.356 F1200.
N600 G2 Y260.459 I0. J1.105
N605 G1 X428.356
N610 G2 Y258.249 I0. J-1.105
N615 G3 X426.56 Y257.052 I0. J-1.946
N620 G2 X424.763 Y255.854 I-1.796 J0.748
N625 G1 X128.356
N630 G2 Y262.854 I0. J3.5
N635 G1 X428.356
N640 G2 Y255.854 I0. J-3.5
N645 G1 X424.763
N650 G2 X424.656 Y256.434 I0. J0.3
N655 G1 X426.559 Y257.165
N660 G3 X426.632 Y257.684 I-0.108 J0.28
N665 G2 X430.08 Y262.224 Z-16.313 I1.724 J2.27 F333.33
N670 X426.632 Y257.684 Z-16.625 I-1.724 J-2.27
N675 X430.08 Y262.224 Z-16.938 I1.724 J2.27
N680 X426.632 Y257.684 Z-17.251 I-1.724 J-2.27
N685 X430.08 Y262.224 Z-17.563 I1.724 J2.27
N690 X426.632 Y257.684 Z-17.876 I-1.724 J-2.27
N695 X430.08 Y262.224 Z-18.189 I1.724 J2.27
N700 X426.632 Y257.684 Z-18.501 I-1.724 J-2.27
N705 X430.08 Y262.224 Z-18.814 I1.724 J2.27
N710 X426.632 Y257.684 Z-19.127 I-1.724 J-2.27
N715 X430.08 Y262.224 Z-19.439 I1.724 J2.27
N720 X426.632 Y257.684 Z-19.752 I-1.724 J-2.27
N725 X428.356 Y262.804 Z-20. I1.724 J2.27
N730 Y258.249 I0. J-2.277
N735 G1 X128.356 F1200.
N740 G2 Y260.459 I0. J1.105
N745 G1 X428.356
N750 G2 Y258.249 I0. J-1.105
N755 G3 X426.56 Y257.052 I0. J-1.946
N760 G2 X424.763 Y255.854 I-1.796 J0.748
N765 G1 X128.356
N770 G2 Y262.854 I0. J3.5
N775 G1 X428.356
N780 G2 Y255.854 I0. J-3.5
N785 G1 X424.763
N790 X424.671 Y255.861 Z-19.985 F500.
N795 X424.581 Y255.882 Z-19.971
N800 X424.503 Y255.913 Z-19.928
N805 X424.431 Y255.955 Z-19.885
N810 X424.378 Y255.994 Z-19.819
N815 X424.329 Y256.04 Z-19.753
N820 X424.275 Y256.105 Z-19.585
N825 X424.259 Y256.13 Z-19.4
N830 G0 Z15.
(2D POCKET2 3)
N835 G0 X136.299 Y191.541
N840 Z15.
N845 Z5.
N850 G1 Z1.6 F500.
N855 X136.318 Y191.561 Z1.418 F333.33
N860 X136.376 Y191.619 Z1.254
N865 X136.47 Y191.705 Z1.122
N870 X136.594 Y191.809 Z1.034
N875 X136.739 Y191.916 Z1.
N880 G2 X139.973 Y187.222 Z0.687 I1.617 J-2.347
N885 X136.739 Y191.916 Z0.375 I-1.617 J2.347
N890 X139.973 Y187.222 Z0.062 I1.617 J-2.347
N895 X136.739 Y191.916 Z-0.251 I-1.617 J2.347
N900 X139.973 Y187.222 Z-0.563 I1.617 J-2.347
N905 X136.739 Y191.916 Z-0.876 I-1.617 J2.347
N910 X139.973 Y187.222 Z-1.189 I1.617 J-2.347
N915 X136.739 Y191.916 Z-1.501 I-1.617 J2.347
N920 X139.973 Y187.222 Z-1.814 I1.617 J-2.347
N925 X136.739 Y191.916 Z-2.127 I-1.617 J2.347
N930 X139.973 Y187.222 Z-2.439 I1.617 J-2.347
N935 X136.739 Y191.916 Z-2.752 I-1.617 J2.347
N940 X139.973 Y187.222 Z-3.065 I1.617 J-2.347
N945 X136.739 Y191.916 Z-3.377 I-1.617 J2.347
N950 X139.973 Y187.222 Z-3.69 I1.617 J-2.347
N955 X138.356 Y186.719 Z-3.75 I-1.617 J2.347
N960 G1 X136.04 F1200.
N965 G2 X135.721 Y187.038 I0. J0.319
N970 G1 Y191.67
N975 G2 X136.04 Y191.989 I0.319 J0.
N980 G1 X420.672
N985 G2 X420.991 Y191.67 I0. J-0.319
N990 G1 Y187.038
N995 G2 X420.672 Y186.719 I-0.319 J0.
N1000 G1 X138.356
N1005 G3 X134.856 Y184.522 I0. J-3.887
N1010 G2 X130.827 Y185.444 I-1.909 J0.922
N1015 G1 Y196.563
N1020 G2 X131.147 Y196.883 I0.319 J0.
N1025 G1 X425.565
N1030 G2 X425.885 Y196.563 I0. J-0.319
N1035 G1 Y182.145
N1040 G2 X425.565 Y181.825 I-0.319 J0.
N1045 G1 X131.147
N1050 G2 X130.827 Y182.145 I0. J0.319
N1055 G1 Y185.444
N1060 G3 X128.381 Y189.114 I-3.976 J0.
N1065 G2 X125.934 Y192.784 I1.529 J3.67
N1070 G1 Y201.456
N1075 G2 X126.254 Y201.776 I0.319 J0.
N1080 G1 X430.458
N1085 G2 X430.778 Y201.456 I0. J-0.319
N1090 G1 Y177.251
N1095 G2 X430.458 Y176.932 I-0.319 J0.
N1100 G1 X126.254
N1105 G2 X125.934 Y177.251 I0. J0.319
N1110 G1 Y192.784
N1115 G3 X123.488 Y196.454 I-3.976 J0.
N1120 G2 X121.041 Y200.124 I1.529 J3.67
N1125 G1 Y206.35
N1130 G2 X121.36 Y206.669 I0.319 J0.
N1135 G1 X435.352
N1140 G2 X435.671 Y206.35 I0. J-0.319
N1145 G1 Y172.358
N1150 G2 X435.352 Y172.039 I-0.319 J0.
N1155 G1 X121.36
N1160 G2 X121.041 Y172.358 I0. J0.319
N1165 G1 Y200.124
N1170 G3 X118.594 Y203.794 I-3.976 J0.
N1175 G2 X116.148 Y207.464 I1.529 J3.67
N1180 G1 Y211.243
N1185 G2 X116.467 Y211.562 I0.319 J0.
N1190 G1 X440.245
N1195 G2 X440.564 Y211.243 I0. J-0.319
N1200 G1 Y167.465
N1205 G2 X440.245 Y167.146 I-0.319 J0.
N1210 G1 X116.467
N1215 G2 X116.148 Y167.465 I0. J0.319
N1220 G1 Y207.464
N1225 G3 X113.701 Y211.134 I-3.976 J0.
N1230 G2 X111.254 Y214.804 I1.529 J3.67
N1235 G1 Y216.136
N1240 G2 X111.574 Y216.456 I0.319 J0.
N1245 G1 X445.138
N1250 G2 X445.458 Y216.136 I0. J-0.319
N1255 G1 Y162.572
N1260 G2 X445.138 Y162.252 I-0.319 J0.
N1265 G1 X111.574
N1270 G2 X111.254 Y162.572 I0. J0.319
N1275 G1 Y214.804
N1280 G3 X109.684 Y217.99 I-4.018 J0.
N1285 G2 X110.827 Y221.354 I1.143 J1.488
N1290 G1 X450.356
N1295 Y157.354
N1300 X106.356
N1305 Y221.354
N1310 X110.827
N1315 G2 X111.023 Y221.189 I0. J-0.199
N1320 G1 X111.162 Y220.387
N1325 X111.177 Y220.338
N1330 X111.204 Y220.295
N1335 X138.084 Y187.343
N1340 X138.397 Y186.904
N1345 X138.415 Y186.865
N1350 X138.418 Y186.823
N1355 X138.405 Y186.782
N1360 X138.379 Y186.748
N1365 X138.342 Y186.726
N1370 X138.299 Y186.719
N1375 G2 X138.413 Y192.418 Z-4.063 I0.057 J2.849 F333.33
N1380 X138.299 Y186.719 Z-4.375 I-0.057 J-2.849
N1385 X138.413 Y192.418 Z-4.688 I0.057 J2.849
N1390 X138.299 Y186.719 Z-5.001 I-0.057 J-2.849
N1395 X138.413 Y192.418 Z-5.313 I0.057 J2.849
N1400 X138.299 Y186.719 Z-5.626 I-0.057 J-2.849
N1405 X138.413 Y192.418 Z-5.939 I0.057 J2.849
N1410 X138.299 Y186.719 Z-6.251 I-0.057 J-2.849
N1415 X138.413 Y192.418 Z-6.564 I0.057 J2.849
N1420 X138.299 Y186.719 Z-6.877 I-0.057 J-2.849
N1425 X138.413 Y192.418 Z-7.189 I0.057 J2.849
N1430 X138.356 Y186.719 Z-7.5 I-0.057 J-2.849
N1435 G1 X136.04 F1200.
N1440 G2 X135.721 Y187.038 I0. J0.319
N1445 G1 Y191.67
N1450 G2 X136.04 Y191.989 I0.319 J0.
N1455 G1 X420.672
N1460 G2 X420.991 Y191.67 I0. J-0.319
N1465 G1 Y187.038
N1470 G2 X420.672 Y186.719 I-0.319 J0.
N1475 G1 X138.356
N1480 G3 X134.856 Y184.522 I0. J-3.887
N1485 G2 X130.827 Y185.444 I-1.909 J0.922
N1490 G1 Y196.563
N1495 G2 X131.147 Y196.883 I0.319 J0.
N1500 G1 X425.565
N1505 G2 X425.885 Y196.563 I0. J-0.319
N1510 G1 Y182.145
N1515 G2 X425.565 Y181.825 I-0.319 J0.
N1520 G1 X131.147
N1525 G2 X130.827 Y182.145 I0. J0.319
N1530 G1 Y185.444
N1535 G3 X128.381 Y189.114 I-3.976 J0.
N1540 G2 X125.934 Y192.784 I1.529 J3.67
N1545 G1 Y201.456
N1550 G2 X126.254 Y201.776 I0.319 J0.
N1555 G1 X430.458
N1560 G2 X430.778 Y201.456 I0. J-0.319
N1565 G1 Y177.251
N1570 G2 X430.458 Y176.932 I-0.319 J0.
N1575 G1 X126.254
N1580 G2 X125.934 Y177.251 I0. J0.319
N1585 G1 Y192.784
N1590 G3 X123.488 Y196.454 I-3.976 J0.
N1595 G2 X121.041 Y200.124 I1.529 J3.67
N1600 G1 Y206.35
N1605 G2 X121.36 Y206.669 I0.319 J0.
N1610 G1 X435.352
N1615 G2 X435.671 Y206.35 I0. J-0.319
N1620 G1 Y172.358
N1625 G2 X435.352 Y172.039 I-0.319 J0.
N1630 G1 X121.36
N1635 G2 X121.041 Y172.358 I0. J0.319
N1640 G1 Y200.124
N1645 G3 X118.594 Y203.794 I-3.976 J0.
N1650 G2 X116.148 Y207.464 I1.529 J3.67
N1655 G1 Y211.243
N1660 G2 X116.467 Y211.562 I0.319 J0.
N1665 G1 X440.245
N1670 G2 X440.564 Y211.243 I0. J-0.319
N1675 G1 Y167.465
N1680 G2 X440.245 Y167.146 I-0.319 J0.
N1685 G1 X116.467
N1690 G2 X116.148 Y167.465 I0. J0.319
N1695 G1 Y207.464
N1700 G3 X113.701 Y211.134 I-3.976 J0.
N1705 G2 X111.254 Y214.804 I1.529 J3.67
N1710 G1 Y216.136
N1715 G2 X111.574 Y216.456 I0.319 J0.
N1720 G1 X445.138
N1725 G2 X445.458 Y216.136 I0. J-0.319
N1730 G1 Y162.572
N1735 G2 X445.138 Y162.252 I-0.319 J0.
N1740 G1 X111.574
N1745 G2 X111.254 Y162.572 I0. J0.319
N1750 G1 Y214.804
N1755 G3 X109.684 Y217.99 I-4.018 J0.
N1760 G2 X110.827 Y221.354 I1.143 J1.488
N1765 G1 X450.356
N1770 Y157.354
N1775 X106.356
N1780 Y221.354
N1785 X110.827
N1790 X110.919 Y221.347 Z-7.485 F500.
N1795 X111.009 Y221.326 Z-7.471
N1800 X111.087 Y221.295 Z-7.428
N1805 X111.159 Y221.253 Z-7.385
N1810 X111.213 Y221.214 Z-7.319
N1815 X111.261 Y221.168 Z-7.253
N1820 X111.315 Y221.102 Z-7.085
N1825 X111.332 Y221.078 Z-6.9
N1830 G0 Z5.
N1835 X140.543 Y331.411
N1840 G1 Z1.6 F500.
N1845 X140.563 Y331.392 Z1.418 F333.33
N1850 X140.621 Y331.334 Z1.254
N1855 X140.707 Y331.24 Z1.122
N1860 X140.811 Y331.116 Z1.034
N1865 X140.918 Y330.971 Z1.
N1870 G2 X136.224 Y327.737 Z0.687 I-2.347 J-1.617
N1875 X140.918 Y330.971 Z0.375 I2.347 J1.617
N1880 X136.224 Y327.737 Z0.062 I-2.347 J-1.617
N1885 X140.918 Y330.971 Z-0.251 I2.347 J1.617
N1890 X136.224 Y327.737 Z-0.563 I-2.347 J-1.617
N1895 X140.918 Y330.971 Z-0.876 I2.347 J1.617
N1900 X136.224 Y327.737 Z-1.189 I-2.347 J-1.617
N1905 X140.918 Y330.971 Z-1.501 I2.347 J1.617
N1910 X136.224 Y327.737 Z-1.814 I-2.347 J-1.617
N1915 X140.918 Y330.971 Z-2.127 I2.347 J1.617
N1920 X136.224 Y327.737 Z-2.439 I-2.347 J-1.617
N1925 X140.918 Y330.971 Z-2.752 I2.347 J1.617
N1930 X136.224 Y327.737 Z-3.065 I-2.347 J-1.617
N1935 X140.918 Y330.971 Z-3.377 I2.347 J1.617
N1940 X136.224 Y327.737 Z-3.69 I-2.347 J-1.617
N1945 X135.721 Y329.354 Z-3.75 I2.347 J1.617
N1950 G1 Y331.67 F1200.
N1955 G2 X136.04 Y331.989 I0.319 J0.
N1960 G1 X420.672
N1965 G2 X420.991 Y331.67 I0. J-0.319
N1970 G1 Y327.038
N1975 G2 X420.672 Y326.719 I-0.319 J0.
N1980 G1 X136.04
N1985 G2 X135.721 Y327.038 I0. J0.319
N1990 G1 Y329.354
N1995 G3 X133.524 Y332.854 I-3.887 J0.
N2000 G2 X134.446 Y336.883 I0.922 J1.909
N2005 G1 X425.565
N2010 G2 X425.885 Y336.563 I0. J-0.319
N2015 G1 Y322.145
N2020 G2 X425.565 Y321.825 I-0.319 J0.
N2025 G1 X131.147
N2030 G2 X130.827 Y322.145 I0. J0.319
N2035 G1 Y336.563
N2040 G2 X131.147 Y336.883 I0.319 J0.
N2045 G1 X134.446
N2050 G3 X138.116 Y339.329 I0. J3.976
N2055 G2 X141.786 Y341.776 I3.67 J-1.529
N2060 G1 X430.458
N2065 G2 X430.778 Y341.457 I0. J-0.319
N2070 G1 Y317.251
N2075 G2 X430.458 Y316.932 I-0.319 J0.
N2080 G1 X126.254
N2085 G2 X125.934 Y317.251 I0. J0.319
N2090 G1 Y341.457
N2095 G2 X126.254 Y341.776 I0.319 J0.
N2100 G1 X141.786
N2105 G3 X145.456 Y344.223 I0. J3.976
N2110 G2 X149.126 Y346.669 I3.67 J-1.529
N2115 G1 X435.352
N2120 G2 X435.671 Y346.35 I0. J-0.319
N2125 G1 Y312.358
N2130 G2 X435.352 Y312.039 I-0.319 J0.
N2135 G1 X121.36
N2140 G2 X121.041 Y312.358 I0. J0.319
N2145 G1 Y346.35
N2150 G2 X121.36 Y346.669 I0.319 J0.
N2155 G1 X149.126
N2160 G3 X152.796 Y349.116 I0. J3.976
N2165 G2 X156.466 Y351.562 I3.67 J-1.529
N2170 G1 X440.245
N2175 G2 X440.564 Y351.243 I0. J-0.319
N2180 G1 Y307.465
N2185 G2 X440.245 Y307.146 I-0.319 J0.
N2190 G1 X116.467
N2195 G2 X116.148 Y307.465 I0. J0.319
N2200 G1 Y351.243
N2205 G2 X116.467 Y351.562 I0.319 J0.
N2210 G1 X156.466
N2215 G3 X160.136 Y354.009 I0. J3.976
N2220 G2 X163.806 Y356.456 I3.67 J-1.529
N2225 G1 X445.138
N2230 G2 X445.458 Y356.136 I0. J-0.319
N2235 G1 Y302.572
N2240 G2 X445.138 Y302.252 I-0.319 J0.
N2245 G1 X111.574
N2250 G2 X111.254 Y302.572 I0. J0.319
N2255 G1 Y356.136
N2260 G2 X111.574 Y356.456 I0.319 J0.
N2265 G1 X163.806
N2270 G3 X167.479 Y358.905 I0. J3.98
N2275 G2 X171.153 Y361.354 I3.674 J-1.531
N2280 G1 X450.356
N2285 Y297.354
N2290 X106.356
N2295 Y361.354
N2300 X171.153
N2305 G2 X171.415 Y360.909 I0. J-0.3
N2310 G1 X167.876 Y354.527
N2315 X167.842 Y354.478
N2320 X167.8 Y354.437
N2325 X136.348 Y329.621
N2330 X135.905 Y329.312
N2335 X135.866 Y329.295
N2340 X135.824 Y329.292
N2345 X135.783 Y329.305
N2350 X135.75 Y329.332
N2355 X135.728 Y329.368
N2360 X135.721 Y329.411
N2365 G2 X141.42 Y329.297 Z-4.063 I2.849 J-0.057 F333.33
N2370 X135.721 Y329.411 Z-4.375 I-2.849 J0.057
N2375 X141.42 Y329.297 Z-4.688 I2.849 J-0.057
N2380 X135.721 Y329.411 Z-5.001 I-2.849 J0.057
N2385 X141.42 Y329.297 Z-5.313 I2.849 J-0.057
N2390 X135.721 Y329.411 Z-5.626 I-2.849 J0.057
N2395 X141.42 Y329.297 Z-5.939 I2.849 J-0.057
N2400 X135.721 Y329.411 Z-6.251 I-2.849 J0.057
N2405 X141.42 Y329.297 Z-6.564 I2.849 J-0.057
N2410 X135.721 Y329.411 Z-6.877 I-2.849 J0.057
N2415 X141.42 Y329.297 Z-7.189 I2.849 J-0.057
N2420 X135.721 Y329.354 Z-7.5 I-2.849 J0.057
N2425 G1 Y331.67 F1200.
N2430 G2 X136.04 Y331.989 I0.319 J0.
N2435 G1 X420.672
N2440 G2 X420.991 Y331.67 I0. J-0.319
N2445 G1 Y327.038
N2450 G2 X420.672 Y326.719 I-0.319 J0.
N2455 G1 X136.04
N2460 G2 X135.721 Y327.038 I0. J0.319
N2465 G1 Y329.354
N2470 G3 X133.524 Y332.854 I-3.887 J0.
N2475 G2 X134.446 Y336.883 I0.922 J1.909
N2480 G1 X425.565
N2485 G2 X425.885 Y336.563 I0. J-0.319
N2490 G1 Y322.145
N2495 G2 X425.565 Y321.825 I-0.319 J0.
N2500 G1 X131.147
N2505 G2 X130.827 Y322.145 I0. J0.319
N2510 G1 Y336.563
N2515 G2 X131.147 Y336.883 I0.319 J0.
N2520 G1 X134.446
N2525 G3 X138.116 Y339.329 I0. J3.976
N2530 G2 X141.786 Y341.776 I3.67 J-1.529
N2535 G1 X430.458
N2540 G2 X430.778 Y341.457 I0. J-0.319
N2545 G1 Y317.251
N2550 G2 X430.458 Y316.932 I-0.319 J0.
N2555 G1 X126.254
N2560 G2 X125.934 Y317.251 I0. J0.319
N2565 G1 Y341.457
N2570 G2 X126.254 Y341.776 I0.319 J0.
N2575 G1 X141.786
N2580 G3 X145.456 Y344.223 I0. J3.976
N2585 G2 X149.126 Y346.669 I3.67 J-1.529
N2590 G1 X435.352
N2595 G2 X435.671 Y346.35 I0. J-0.319
N2600 G1 Y312.358
N2605 G2 X435.352 Y312.039 I-0.319 J0.
N2610 G1 X121.36
N2615 G2 X121.041 Y312.358 I0. J0.319
N2620 G1 Y346.35
N2625 G2 X121.36 Y346.669 I0.319 J0.
N2630 G1 X149.126
N2635 G3 X152.796 Y349.116 I0. J3.976
N2640 G2 X156.466 Y351.562 I3.67 J-1.529
N2645 G1 X440.245
N2650 G2 X440.564 Y351.243 I0. J-0.319
N2655 G1 Y307.465
N2660 G2 X440.245 Y307.146 I-0.319 J0.
N2665 G1 X116.467
N2670 G2 X116.148 Y307.465 I0. J0.319
N2675 G1 Y351.243
N2680 G2 X116.467 Y351.562 I0.319 J0.
N2685 G1 X156.466
N2690 G3 X160.136 Y354.009 I0. J3.976
N2695 G2 X163.806 Y356.456 I3.67 J-1.529
N2700 G1 X445.138
N2705 G2 X445.458 Y356.136 I0. J-0.319
N2710 G1 Y302.572
N2715 G2 X445.138 Y302.252 I-0.319 J0.
N2720 G1 X111.574
N2725 G2 X111.254 Y302.572 I0. J0.319
N2730 G1 Y356.136
N2735 G2 X111.574 Y356.456 I0.319 J0.
N2740 G1 X163.806
N2745 G3 X167.479 Y358.905 I0. J3.98
N2750 G2 X171.153 Y361.354 I3.674 J-1.531
N2755 G1 X450.356
N2760 Y297.354
N2765 X106.356
N2770 Y361.354
N2775 X171.153
N2780 X171.245 Y361.347 Z-7.485 F500.
N2785 X171.335 Y361.326 Z-7.471
N2790 X171.413 Y361.295 Z-7.428
N2795 X171.486 Y361.253 Z-7.385
N2800 X171.539 Y361.214 Z-7.319
N2805 X171.587 Y361.168 Z-7.253
N2810 X171.641 Y361.103 Z-7.085
N2815 X171.658 Y361.078 Z-6.9
N2820 G0 Z15.
(2D POCKET3 3)
N2825 G0 X161.309 Y211.453
N2830 Z15.
N2835 Z5.
N2840 G1 Z1.6 F500.
N2845 X161.33 Y211.472 Z1.418 F333.33
N2850 X161.391 Y211.526 Z1.254
N2855 X161.49 Y211.606 Z1.122
N2860 X161.621 Y211.702 Z1.034
N2865 X161.772 Y211.799 Z1.
N2870 G2 X164.701 Y206.909 Z0.687 I1.464 J-2.445
N2875 X161.772 Y211.799 Z0.375 I-1.464 J2.445
N2880 X164.701 Y206.909 Z0.062 I1.464 J-2.445
N2885 X161.772 Y211.799 Z-0.251 I-1.464 J2.445
N2890 X164.701 Y206.909 Z-0.563 I1.464 J-2.445
N2895 X161.772 Y211.799 Z-0.876 I-1.464 J2.445
N2900 X164.701 Y206.909 Z-1.189 I1.464 J-2.445
N2905 X161.772 Y211.799 Z-1.501 I-1.464 J2.445
N2910 X164.701 Y206.909 Z-1.814 I1.464 J-2.445
N2915 X161.772 Y211.799 Z-2.127 I-1.464 J2.445
N2920 X164.701 Y206.909 Z-2.439 I1.464 J-2.445
N2925 X161.772 Y211.799 Z-2.752 I-1.464 J2.445
N2930 X164.701 Y206.909 Z-3.065 I1.464 J-2.445
N2935 X161.772 Y211.799 Z-3.377 I-1.464 J2.445
N2940 X164.701 Y206.909 Z-3.69 I1.464 J-2.445
N2945 X160.387 Y209.354 Z-3.9 I-1.464 J2.445
N2950 X164.296 I1.955 J0.
N2955 G1 Y169.354 F1200.
N2960 G2 X162.416 I-0.94 J0.
N2965 G1 Y209.354
N2970 G2 X164.296 I0.94 J0.
N2975 G3 X165.326 Y207.809 I1.674 J0.
N2980 G2 X166.356 Y206.264 I-0.644 J-1.545
N2985 G1 Y169.354
N2990 G2 X160.356 I-3. J0.
N2995 G1 Y209.354
N3000 G2 X166.356 I3. J0.
N3005 G1 Y206.264
N3010 X166.349 Y206.222
N3015 X166.33 Y206.185
N3020 X166.3 Y206.155
N3025 X166.262 Y206.137
N3030 X166.221 Y206.131
N3035 X166.179 Y206.138
N3040 X165.564 Y206.348
N3045 X163.403 Y206.813
N3050 X163.368 Y206.816
N3055 X163.334 Y206.809
N3060 X163.303 Y206.793
N3065 X163.278 Y206.769
N3070 X163.108 Y206.56
N3075 X163.077 Y206.533
N3080 X163.04 Y206.517
N3085 X162.999 Y206.514
N3090 G2 X163.474 Y212.194 Z-4.213 I0.238 J2.84 F333.33
N3095 X162.999 Y206.514 Z-4.525 I-0.238 J-2.84
N3100 X163.474 Y212.194 Z-4.838 I0.238 J2.84
N3105 X162.999 Y206.514 Z-5.151 I-0.238 J-2.84
N3110 X163.474 Y212.194 Z-5.463 I0.238 J2.84
N3115 X162.999 Y206.514 Z-5.776 I-0.238 J-2.84
N3120 X163.474 Y212.194 Z-6.089 I0.238 J2.84
N3125 X162.999 Y206.514 Z-6.401 I-0.238 J-2.84
N3130 X163.474 Y212.194 Z-6.714 I0.238 J2.84
N3135 X162.999 Y206.514 Z-7.027 I-0.238 J-2.84
N3140 X163.474 Y212.194 Z-7.339 I0.238 J2.84
N3145 X162.999 Y206.514 Z-7.652 I-0.238 J-2.84
N3150 X160.387 Y209.354 Z-7.8 I0.238 J2.84
N3155 X164.296 I1.955 J0.
N3160 G1 Y169.354 F1200.
N3165 G2 X162.416 I-0.94 J0.
N3170 G1 Y209.354
N3175 G2 X164.296 I0.94 J0.
N3180 G3 X165.326 Y207.809 I1.674 J0.
N3185 G2 X166.356 Y206.264 I-0.644 J-1.545
N3190 G1 Y169.354
N3195 G2 X160.356 I-3. J0.
N3200 G1 Y209.354
N3205 G2 X166.356 I3. J0.
N3210 G1 Y206.264
N3215 X166.349 Y206.222
N3220 X166.33 Y206.185
N3225 X166.3 Y206.155
N3230 X166.262 Y206.137
N3235 X166.221 Y206.131
N3240 X166.179 Y206.138
N3245 X165.564 Y206.348
N3250 X163.403 Y206.813
N3255 X163.368 Y206.816
N3260 X163.334 Y206.809
N3265 X163.303 Y206.793
N3270 X163.278 Y206.769
N3275 X163.108 Y206.56
N3280 X163.077 Y206.533
N3285 X163.04 Y206.517
N3290 X162.999 Y206.514
N3295 G2 X163.474 Y212.194 Z-8.113 I0.238 J2.84 F333.33
N3300 X162.999 Y206.514 Z-8.425 I-0.238 J-2.84
N3305 X163.474 Y212.194 Z-8.738 I0.238 J2.84
N3310 X162.999 Y206.514 Z-9.051 I-0.238 J-2.84
N3315 X163.474 Y212.194 Z-9.363 I0.238 J2.84
N3320 X162.999 Y206.514 Z-9.676 I-0.238 J-2.84
N3325 X163.474 Y212.194 Z-9.989 I0.238 J2.84
N3330 X162.999 Y206.514 Z-10.301 I-0.238 J-2.84
N3335 X163.474 Y212.194 Z-10.614 I0.238 J2.84
N3340 X162.999 Y206.514 Z-10.927 I-0.238 J-2.84
N3345 X163.474 Y212.194 Z-11.239 I0.238 J2.84
N3350 X162.999 Y206.514 Z-11.552 I-0.238 J-2.84
N3355 X160.387 Y209.354 Z-11.7 I0.238 J2.84
N3360 X164.296 I1.955 J0.
N3365 G1 Y169.354 F1200.
N3370 G2 X162.416 I-0.94 J0.
N3375 G1 Y209.354
N3380 G2 X164.296 I0.94 J0.
N3385 G3 X165.326 Y207.809 I1.674 J0.
N3390 G2 X166.356 Y206.264 I-0.644 J-1.545
N3395 G1 Y169.354
N3400 G2 X160.356 I-3. J0.
N3405 G1 Y209.354
N3410 G2 X166.356 I3. J0.
N3415 G1 Y206.264
N3420 X166.349 Y206.222
N3425 X166.33 Y206.185
N3430 X166.3 Y206.155
N3435 X166.262 Y206.137
N3440 X166.221 Y206.131
N3445 X166.179 Y206.138
N3450 X165.564 Y206.348
N3455 X163.403 Y206.813
N3460 X163.368 Y206.816
N3465 X163.334 Y206.809
N3470 X163.303 Y206.793
N3475 X163.278 Y206.769
N3480 X163.108 Y206.56
N3485 X163.077 Y206.533
N3490 X163.04 Y206.517
N3495 X162.999 Y206.514
N3500 G2 X163.474 Y212.194 Z-12.013 I0.238 J2.84 F333.33
N3505 X162.999 Y206.514 Z-12.325 I-0.238 J-2.84
N3510 X163.474 Y212.194 Z-12.638 I0.238 J2.84
N3515 X162.999 Y206.514 Z-12.951 I-0.238 J-2.84
N3520 X163.474 Y212.194 Z-13.263 I0.238 J2.84
N3525 X162.999 Y206.514 Z-13.576 I-0.238 J-2.84
N3530 X163.474 Y212.194 Z-13.889 I0.238 J2.84
N3535 X162.999 Y206.514 Z-14.201 I-0.238 J-2.84
N3540 X163.474 Y212.194 Z-14.514 I0.238 J2.84
N3545 X162.999 Y206.514 Z-14.827 I-0.238 J-2.84
N3550 X163.474 Y212.194 Z-15.139 I0.238 J2.84
N3555 X162.999 Y206.514 Z-15.452 I-0.238 J-2.84
N3560 X160.387 Y209.354 Z-15.6 I0.238 J2.84
N3565 X164.296 I1.955 J0.
N3570 G1 Y169.354 F1200.
N3575 G2 X162.416 I-0.94 J0.
N3580 G1 Y209.354
N3585 G2 X164.296 I0.94 J0.
N3590 G3 X165.326 Y207.809 I1.674 J0.
N3595 G2 X166.356 Y206.264 I-0.644 J-1.545
N3600 G1 Y169.354
N3605 G2 X160.356 I-3. J0.
N3610 G1 Y209.354
N3615 G2 X166.356 I3. J0.
N3620 G1 Y206.264
N3625 X166.349 Y206.222
N3630 X166.33 Y206.185
N3635 X166.3 Y206.155
N3640 X166.262 Y206.137
N3645 X166.221 Y206.131
N3650 X166.179 Y206.138
N3655 X165.564 Y206.348
N3660 X163.403 Y206.813
N3665 X163.368 Y206.816
N3670 X163.334 Y206.809
N3675 X163.303 Y206.793
N3680 X163.278 Y206.769
N3685 X163.108 Y206.56
N3690 X163.077 Y206.533
N3695 X163.04 Y206.517
N3700 X162.999 Y206.514
N3705 G2 X163.474 Y212.194 Z-15.913 I0.238 J2.84 F333.33
N3710 X162.999 Y206.514 Z-16.225 I-0.238 J-2.84
N3715 X163.474 Y212.194 Z-16.538 I0.238 J2.84
N3720 X162.999 Y206.514 Z-16.851 I-0.238 J-2.84
N3725 X163.474 Y212.194 Z-17.163 I0.238 J2.84
N3730 X162.999 Y206.514 Z-17.476 I-0.238 J-2.84
N3735 X163.474 Y212.194 Z-17.789 I0.238 J2.84
N3740 X162.999 Y206.514 Z-18.101 I-0.238 J-2.84
N3745 X163.474 Y212.194 Z-18.414 I0.238 J2.84
N3750 X162.999 Y206.514 Z-18.727 I-0.238 J-2.84
N3755 X163.474 Y212.194 Z-19.039 I0.238 J2.84
N3760 X162.999 Y206.514 Z-19.352 I-0.238 J-2.84
N3765 X160.387 Y209.354 Z-19.5 I0.238 J2.84
N3770 X164.296 I1.955 J0.
N3775 G1 Y169.354 F1200.
N3780 G2 X162.416 I-0.94 J0.
N3785 G1 Y209.354
N3790 G2 X164.296 I0.94 J0.
N3795 G3 X165.326 Y207.809 I1.674 J0.
N3800 G2 X166.356 Y206.264 I-0.644 J-1.545
N3805 G1 Y169.354
N3810 G2 X160.356 I-3. J0.
N3815 G1 Y209.354
N3820 G2 X166.356 I3. J0.
N3825 G1 Y206.264
N3830 X166.349 Y206.172 Z-19.485 F500.
N3835 X166.328 Y206.082 Z-19.471
N3840 X166.297 Y206.004 Z-19.428
N3845 X166.255 Y205.931 Z-19.385
N3850 X166.216 Y205.878 Z-19.319
N3855 X166.17 Y205.83 Z-19.253
N3860 X166.104 Y205.776 Z-19.085
N3865 X166.08 Y205.759 Z-18.9
N3870 G0 Z5.
N3875 X161.309 Y311.453
N3880 G1 Z1.6 F500.
N3885 X161.33 Y311.472 Z1.418 F333.33
N3890 X161.391 Y311.526 Z1.254
N3895 X161.49 Y311.606 Z1.122
N3900 X161.621 Y311.702 Z1.034
N3905 X161.772 Y311.799 Z1.
N3910 G2 X164.701 Y306.909 Z0.687 I1.464 J-2.445
N3915 X161.772 Y311.799 Z0.375 I-1.464 J2.445
N3920 X164.701 Y306.909 Z0.062 I1.464 J-2.445
N3925 X161.772 Y311.799 Z-0.251 I-1.464 J2.445
N3930 X164.701 Y306.909 Z-0.563 I1.464 J-2.445
N3935 X161.772 Y311.799 Z-0.876 I-1.464 J2.445
N3940 X164.701 Y306.909 Z-1.189 I1.464 J-2.445
N3945 X161.772 Y311.799 Z-1.501 I-1.464 J2.445
N3950 X164.701 Y306.909 Z-1.814 I1.464 J-2.445
N3955 X161.772 Y311.799 Z-2.127 I-1.464 J2.445
N3960 X164.701 Y306.909 Z-2.439 I1.464 J-2.445
N3965 X161.772 Y311.799 Z-2.752 I-1.464 J2.445
N3970 X164.701 Y306.909 Z-3.065 I1.464 J-2.445
N3975 X161.772 Y311.799 Z-3.377 I-1.464 J2.445
N3980 X164.701 Y306.909 Z-3.69 I1.464 J-2.445
N3985 X160.387 Y309.354 Z-3.9 I-1.464 J2.445
N3990 X164.296 I1.955 J0.
N3995 X162.416 I-0.94 J0. F1200.
N4000 G1 Y349.354
N4005 G2 X164.296 I0.94 J0.
N4010 G1 Y309.354
N4015 G3 X164.937 Y308.148 I1.456 J0.
N4020 G2 X164.9 Y306.782 I-0.453 J-0.671
N4025 X160.356 Y309.354 I-1.544 J2.572
N4030 G1 Y349.354
N4035 G2 X166.356 I3. J0.
N4040 G1 Y309.354
N4045 G2 X164.9 Y306.782 I-3. J0.
N4050 G1 X164.845 Y306.756
N4055 X164.785 Y306.742
N4060 X163.063 Y306.515
N4065 X162.999 Y306.514
N4070 G2 X163.474 Y312.194 Z-4.213 I0.238 J2.84 F333.33
N4075 X162.999 Y306.514 Z-4.525 I-0.238 J-2.84
N4080 X163.474 Y312.194 Z-4.838 I0.238 J2.84
N4085 X162.999 Y306.514 Z-5.151 I-0.238 J-2.84
N4090 X163.474 Y312.194 Z-5.463 I0.238 J2.84
N4095 X162.999 Y306.514 Z-5.776 I-0.238 J-2.84
N4100 X163.474 Y312.194 Z-6.089 I0.238 J2.84
N4105 X162.999 Y306.514 Z-6.401 I-0.238 J-2.84
N4110 X163.474 Y312.194 Z-6.714 I0.238 J2.84
N4115 X162.999 Y306.514 Z-7.027 I-0.238 J-2.84
N4120 X163.474 Y312.194 Z-7.339 I0.238 J2.84
N4125 X162.999 Y306.514 Z-7.652 I-0.238 J-2.84
N4130 X160.387 Y309.354 Z-7.8 I0.238 J2.84
N4135 X164.296 I1.955 J0.
N4140 X162.416 I-0.94 J0. F1200.
N4145 G1 Y349.354
N4150 G2 X164.296 I0.94 J0.
N4155 G1 Y309.354
N4160 G3 X164.937 Y308.148 I1.456 J0.
N4165 G2 X164.9 Y306.782 I-0.453 J-0.671
N4170 X160.356 Y309.354 I-1.544 J2.572
N4175 G1 Y349.354
N4180 G2 X166.356 I3. J0.
N4185 G1 Y309.354
N4190 G2 X164.9 Y306.782 I-3. J0.
N4195 G1 X164.845 Y306.756
N4200 X164.785 Y306.742
N4205 X163.063 Y306.515
N4210 X162.999 Y306.514
N4215 G2 X163.474 Y312.194 Z-8.113 I0.238 J2.84 F333.33
N4220 X162.999 Y306.514 Z-8.425 I-0.238 J-2.84
N4225 X163.474 Y312.194 Z-8.738 I0.238 J2.84
N4230 X162.999 Y306.514 Z-9.051 I-0.238 J-2.84
N4235 X163.474 Y312.194 Z-9.363 I0.238 J2.84
N4240 X162.999 Y306.514 Z-9.676 I-0.238 J-2.84
N4245 X163.474 Y312.194 Z-9.989 I0.238 J2.84
N4250 X162.999 Y306.514 Z-10.301 I-0.238 J-2.84
N4255 X163.474 Y312.194 Z-10.614 I0.238 J2.84
N4260 X162.999 Y306.514 Z-10.927 I-0.238 J-2.84
N4265 X163.474 Y312.194 Z-11.239 I0.238 J2.84
N4270 X162.999 Y306.514 Z-11.552 I-0.238 J-2.84
N4275 X160.387 Y309.354 Z-11.7 I0.238 J2.84
N4280 X164.296 I1.955 J0.
N4285 X162.416 I-0.94 J0. F1200.
N4290 G1 Y349.354
N4295 G2 X164.296 I0.94 J0.
N4300 G1 Y309.354
N4305 G3 X164.937 Y308.148 I1.456 J0.
N4310 G2 X164.9 Y306.782 I-0.453 J-0.671
N4315 X160.356 Y309.354 I-1.544 J2.572
N4320 G1 Y349.354
N4325 G2 X166.356 I3. J0.
N4330 G1 Y309.354
N4335 G2 X164.9 Y306.782 I-3. J0.
N4340 G1 X164.845 Y306.756
N4345 X164.785 Y306.742
N4350 X163.063 Y306.515
N4355 X162.999 Y306.514
N4360 G2 X163.474 Y312.194 Z-12.013 I0.238 J2.84 F333.33
N4365 X162.999 Y306.514 Z-12.325 I-0.238 J-2.84
N4370 X163.474 Y312.194 Z-12.638 I0.238 J2.84
N4375 X162.999 Y306.514 Z-12.951 I-0.238 J-2.84
N4380 X163.474 Y312.194 Z-13.263 I0.238 J2.84
N4385 X162.999 Y306.514 Z-13.576 I-0.238 J-2.84
N4390 X163.474 Y312.194 Z-13.889 I0.238 J2.84
N4395 X162.999 Y306.514 Z-14.201 I-0.238 J-2.84
N4400 X163.474 Y312.194 Z-14.514 I0.238 J2.84
N4405 X162.999 Y306.514 Z-14.827 I-0.238 J-2.84
N4410 X163.474 Y312.194 Z-15.139 I0.238 J2.84
N4415 X162.999 Y306.514 Z-15.452 I-0.238 J-2.84
N4420 X160.387 Y309.354 Z-15.6 I0.238 J2.84
N4425 X164.296 I1.955 J0.
N4430 X162.416 I-0.94 J0. F1200.
N4435 G1 Y349.354
N4440 G2 X164.296 I0.94 J0.
N4445 G1 Y309.354
N4450 G3 X164.937 Y308.148 I1.456 J0.
N4455 G2 X164.9 Y306.782 I-0.453 J-0.671
N4460 X160.356 Y309.354 I-1.544 J2.572
N4465 G1 Y349.354
N4470 G2 X166.356 I3. J0.
N4475 G1 Y309.354
N4480 G2 X164.9 Y306.782 I-3. J0.
N4485 G1 X164.845 Y306.756
N4490 X164.785 Y306.742
N4495 X163.063 Y306.515
N4500 X162.999 Y306.514
N4505 G2 X163.474 Y312.194 Z-15.913 I0.238 J2.84 F333.33
N4510 X162.999 Y306.514 Z-16.225 I-0.238 J-2.84
N4515 X163.474 Y312.194 Z-16.538 I0.238 J2.84
N4520 X162.999 Y306.514 Z-16.851 I-0.238 J-2.84
N4525 X163.474 Y312.194 Z-17.163 I0.238 J2.84
N4530 X162.999 Y306.514 Z-17.476 I-0.238 J-2.84
N4535 X163.474 Y312.194 Z-17.789 I0.238 J2.84
N4540 X162.999 Y306.514 Z-18.101 I-0.238 J-2.84
N4545 X163.474 Y312.194 Z-18.414 I0.238 J2.84
N4550 X162.999 Y306.514 Z-18.727 I-0.238 J-2.84
N4555 X163.474 Y312.194 Z-19.039 I0.238 J2.84
N4560 X162.999 Y306.514 Z-19.352 I-0.238 J-2.84
N4565 X160.387 Y309.354 Z-19.5 I0.238 J2.84
N4570 X164.296 I1.955 J0.
N4575 X162.416 I-0.94 J0. F1200.
N4580 G1 Y349.354
N4585 G2 X164.296 I0.94 J0.
N4590 G1 Y309.354
N4595 G3 X164.937 Y308.148 I1.456 J0.
N4600 G2 X164.9 Y306.782 I-0.453 J-0.671
N4605 X160.356 Y309.354 I-1.544 J2.572
N4610 G1 Y349.354
N4615 G2 X166.356 I3. J0.
N4620 G1 Y309.354
N4625 G2 X164.9 Y306.782 I-3. J0.
N4630 G1 X164.818 Y306.741 Z-19.485 F500.
N4635 X164.729 Y306.713 Z-19.471
N4640 X164.647 Y306.699 Z-19.428
N4645 X164.563 Y306.697 Z-19.385
N4650 X164.497 Y306.704 Z-19.319
N4655 X164.433 Y306.718 Z-19.253
N4660 X164.352 Y306.746 Z-19.085
N4665 X164.326 Y306.759 Z-18.9
N4670 G0 Z5.
N4675 X391.257 Y309.336
N4680 G1 Z1.6 F500.
N4685 X391.238 Y309.357 Z1.418 F333.33
N4690 X391.184 Y309.419 Z1.254
N4695 X391.104 Y309.518 Z1.122
N4700 X391.008 Y309.648 Z1.034
N4705 X390.911 Y309.8 Z1.
N4710 G2 X395.801 Y312.728 Z0.687 I2.445 J1.464
N4715 X390.911 Y309.8 Z0.375 I-2.445 J-1.464
N4720 X395.801 Y312.728 Z0.062 I2.445 J1.464
N4725 X390.911 Y309.8 Z-0.251 I-2.445 J-1.464
N4730 X395.801 Y312.728 Z-0.563 I2.445 J1.464
N4735 X390.911 Y309.8 Z-0.876 I-2.445 J-1.464
N4740 X395.801 Y312.728 Z-1.189 I2.445 J1.464
N4745 X390.911 Y309.8 Z-1.501 I-2.445 J-1.464
N4750 X395.801 Y312.728 Z-1.814 I2.445 J1.464
N4755 X390.911 Y309.8 Z-2.127 I-2.445 J-1.464
N4760 X395.801 Y312.728 Z-2.439 I2.445 J1.464
N4765 X390.911 Y309.8 Z-2.752 I-2.445 J-1.464
N4770 X395.801 Y312.728 Z-3.065 I2.445 J1.464
N4775 X390.911 Y309.8 Z-3.377 I-2.445 J-1.464
N4780 X395.801 Y312.728 Z-3.69 I2.445 J1.464
N4785 X393.356 Y308.414 Z-3.9 I-2.445 J-1.464
N4790 X392.416 Y309.354 I0. J0.94 F1200.
N4795 G1 Y349.354
N4800 G2 X394.296 I0.94 J0.
N4805 G1 Y309.354
N4810 G2 X393.356 Y308.414 I-0.94 J0.
N4815 G3 X392.15 Y307.773 I0. J-1.456
N4820 G2 X390.784 Y307.81 I-0.671 J0.453
N4825 X390.356 Y309.354 I2.572 J1.544
N4830 G1 Y349.354
N4835 G2 X396.356 I3. J0.
N4840 G1 Y309.354
N4845 G2 X390.784 Y307.81 I-3. J0.
N4850 G1 X390.769 Y307.845
N4855 X390.765 Y307.884
N4860 X390.773 Y307.922
N4865 X390.791 Y307.957
N4870 X390.818 Y307.985
N4875 X390.852 Y308.003
N4880 X391.463 Y308.234
N4885 X395.498 Y310.851
N4890 X396.006 Y311.147
N4895 X396.043 Y311.161
N4900 X396.082 Y311.163
N4905 X396.12 Y311.153
N4910 X396.153 Y311.132
N4915 X396.178 Y311.102
N4920 X396.193 Y311.066
N4925 X396.196 Y311.026
N4930 G2 X390.516 Y311.502 Z-4.213 I-2.84 J0.238 F333.33
N4935 X396.196 Y311.026 Z-4.525 I2.84 J-0.238
N4940 X390.516 Y311.502 Z-4.838 I-2.84 J0.238
N4945 X396.196 Y311.026 Z-5.151 I2.84 J-0.238
N4950 X390.516 Y311.502 Z-5.463 I-2.84 J0.238
N4955 X396.196 Y311.026 Z-5.776 I2.84 J-0.238
N4960 X390.516 Y311.502 Z-6.089 I-2.84 J0.238
N4965 X396.196 Y311.026 Z-6.401 I2.84 J-0.238
N4970 X390.516 Y311.502 Z-6.714 I-2.84 J0.238
N4975 X396.196 Y311.026 Z-7.027 I2.84 J-0.238
N4980 X390.516 Y311.502 Z-7.339 I-2.84 J0.238
N4985 X396.196 Y311.026 Z-7.652 I2.84 J-0.238
N4990 X393.356 Y308.414 Z-7.8 I-2.84 J0.238
N4995 X392.416 Y309.354 I0. J0.94 F1200.
N5000 G1 Y349.354
N5005 G2 X394.296 I0.94 J0.
N5010 G1 Y309.354
N5015 G2 X393.356 Y308.414 I-0.94 J0.
N5020 G3 X392.15 Y307.773 I0. J-1.456
N5025 G2 X390.784 Y307.81 I-0.671 J0.453
N5030 X390.356 Y309.354 I2.572 J1.544
N5035 G1 Y349.354
N5040 G2 X396.356 I3. J0.
N5045 G1 Y309.354
N5050 G2 X390.784 Y307.81 I-3. J0.
N5055 G1 X390.769 Y307.845
N5060 X390.765 Y307.884
N5065 X390.773 Y307.922
N5070 X390.791 Y307.957
N5075 X390.818 Y307.985
N5080 X390.852 Y308.003
N5085 X391.463 Y308.234
N5090 X395.498 Y310.851
N5095 X396.006 Y311.147
N5100 X396.043 Y311.161
N5105 X396.082 Y311.163
N5110 X396.12 Y311.153
N5115 X396.153 Y311.132
N5120 X396.178 Y311.102
N5125 X396.193 Y311.066
N5130 X396.196 Y311.026
N5135 G2 X390.516 Y311.502 Z-8.113 I-2.84 J0.238 F333.33
N5140 X396.196 Y311.026 Z-8.425 I2.84 J-0.238
N5145 X390.516 Y311.502 Z-8.738 I-2.84 J0.238
N5150 X396.196 Y311.026 Z-9.051 I2.84 J-0.238
N5155 X390.516 Y311.502 Z-9.363 I-2.84 J0.238
N5160 X396.196 Y311.026 Z-9.676 I2.84 J-0.238
N5165 X390.516 Y311.502 Z-9.989 I-2.84 J0.238
N5170 X396.196 Y311.026 Z-10.301 I2.84 J-0.238
N5175 X390.516 Y311.502 Z-10.614 I-2.84 J0.238
N5180 X396.196 Y311.026 Z-10.927 I2.84 J-0.238
N5185 X390.516 Y311.502 Z-11.239 I-2.84 J0.238
N5190 X396.196 Y311.026 Z-11.552 I2.84 J-0.238
N5195 X393.356 Y308.414 Z-11.7 I-2.84 J0.238
N5200 X392.416 Y309.354 I0. J0.94 F1200.
N5205 G1 Y349.354
N5210 G2 X394.296 I0.94 J0.
N5215 G1 Y309.354
N5220 G2 X393.356 Y308.414 I-0.94 J0.
N5225 G3 X392.15 Y307.773 I0. J-1.456
N5230 G2 X390.784 Y307.81 I-0.671 J0.453
N5235 X390.356 Y309.354 I2.572 J1.544
N5240 G1 Y349.354
N5245 G2 X396.356 I3. J0.
N5250 G1 Y309.354
N5255 G2 X390.784 Y307.81 I-3. J0.
N5260 G1 X390.769 Y307.845
N5265 X390.765 Y307.884
N5270 X390.773 Y307.922
N5275 X390.791 Y307.957
N5280 X390.818 Y307.985
N5285 X390.852 Y308.003
N5290 X391.463 Y308.234
N5295 X395.498 Y310.851
N5300 X396.006 Y311.147
N5305 X396.043 Y311.161
N5310 X396.082 Y311.163
N5315 X396.12 Y311.153
N5320 X396.153 Y311.132
N5325 X396.178 Y311.102
N5330 X396.193 Y311.066
N5335 X396.196 Y311.026
N5340 G2 X390.516 Y311.502 Z-12.013 I-2.84 J0.238 F333.33
N5345 X396.196 Y311.026 Z-12.325 I2.84 J-0.238
N5350 X390.516 Y311.502 Z-12.638 I-2.84 J0.238
N5355 X396.196 Y311.026 Z-12.951 I2.84 J-0.238
N5360 X390.516 Y311.502 Z-13.263 I-2.84 J0.238
N5365 X396.196 Y311.026 Z-13.576 I2.84 J-0.238
N5370 X390.516 Y311.502 Z-13.889 I-2.84 J0.238
N5375 X396.196 Y311.026 Z-14.201 I2.84 J-0.238
N5380 X390.516 Y311.502 Z-14.514 I-2.84 J0.238
N5385 X396.196 Y311.026 Z-14.827 I2.84 J-0.238
N5390 X390.516 Y311.502 Z-15.139 I-2.84 J0.238
N5395 X396.196 Y311.026 Z-15.452 I2.84 J-0.238
N5400 X393.356 Y308.414 Z-15.6 I-2.84 J0.238
N5405 X392.416 Y309.354 I0. J0.94 F1200.
N5410 G1 Y349.354
N5415 G2 X394.296 I0.94 J0.
N5420 G1 Y309.354
N5425 G2 X393.356 Y308.414 I-0.94 J0.
N5430 G3 X392.15 Y307.773 I0. J-1.456
N5435 G2 X390.784 Y307.81 I-0.671 J0.453
N5440 X390.356 Y309.354 I2.572 J1.544
N5445 G1 Y349.354
N5450 G2 X396.356 I3. J0.
N5455 G1 Y309.354
N5460 G2 X390.784 Y307.81 I-3. J0.
N5465 G1 X390.769 Y307.845
N5470 X390.765 Y307.884
N5475 X390.773 Y307.922
N5480 X390.791 Y307.957
N5485 X390.818 Y307.985
N5490 X390.852 Y308.003
N5495 X391.463 Y308.234
N5500 X395.498 Y310.851
N5505 X396.006 Y311.147
N5510 X396.043 Y311.161
N5515 X396.082 Y311.163
N5520 X396.12 Y311.153
N5525 X396.153 Y311.132
N5530 X396.178 Y311.102
N5535 X396.193 Y311.066
N5540 X396.196 Y311.026
N5545 G2 X390.516 Y311.502 Z-15.913 I-2.84 J0.238 F333.33
N5550 X396.196 Y311.026 Z-16.225 I2.84 J-0.238
N5555 X390.516 Y311.502 Z-16.538 I-2.84 J0.238
N5560 X396.196 Y311.026 Z-16.851 I2.84 J-0.238
N5565 X390.516 Y311.502 Z-17.163 I-2.84 J0.238
N5570 X396.196 Y311.026 Z-17.476 I2.84 J-0.238
N5575 X390.516 Y311.502 Z-17.789 I-2.84 J0.238
N5580 X396.196 Y311.026 Z-18.101 I2.84 J-0.238
N5585 X390.516 Y311.502 Z-18.414 I-2.84 J0.238
N5590 X396.196 Y311.026 Z-18.727 I2.84 J-0.238
N5595 X390.516 Y311.502 Z-19.039 I-2.84 J0.238
N5600 X396.196 Y311.026 Z-19.352 I2.84 J-0.238
N5605 X393.356 Y308.414 Z-19.5 I-2.84 J0.238
N5610 X392.416 Y309.354 I0. J0.94 F1200.
N5615 G1 Y349.354
N5620 G2 X394.296 I0.94 J0.
N5625 G1 Y309.354
N5630 G2 X393.356 Y308.414 I-0.94 J0.
N5635 G3 X392.15 Y307.773 I0. J-1.456
N5640 G2 X390.784 Y307.81 I-0.671 J0.453
N5645 X390.356 Y309.354 I2.572 J1.544
N5650 G1 Y349.354
N5655 G2 X396.356 I3. J0.
N5660 G1 Y309.354
N5665 G2 X390.784 Y307.81 I-3. J0.
N5670 G1 X390.743 Y307.892 Z-19.485 F500.
N5675 X390.715 Y307.981 Z-19.471
N5680 X390.701 Y308.063 Z-19.428
N5685 X390.699 Y308.147 Z-19.385
N5690 X390.706 Y308.213 Z-19.319
N5695 X390.72 Y308.277 Z-19.253
N5700 X390.748 Y308.358 Z-19.085
N5705 X390.761 Y308.384 Z-18.9
N5710 G0 Z5.
N5715 X395.403 Y207.255
N5720 G1 Z1.6 F500.
N5725 X395.382 Y207.236 Z1.418 F333.33
N5730 X395.321 Y207.182 Z1.254
N5735 X395.222 Y207.102 Z1.122
N5740 X395.091 Y207.006 Z1.034
N5745 X394.94 Y206.909 Z1.
N5750 G2 X392.011 Y211.799 Z0.687 I-1.464 J2.445
N5755 X394.94 Y206.909 Z0.375 I1.464 J-2.445
N5760 X392.011 Y211.799 Z0.062 I-1.464 J2.445
N5765 X394.94 Y206.909 Z-0.251 I1.464 J-2.445
N5770 X392.011 Y211.799 Z-0.563 I-1.464 J2.445
N5775 X394.94 Y206.909 Z-0.876 I1.464 J-2.445
N5780 X392.011 Y211.799 Z-1.189 I-1.464 J2.445
N5785 X394.94 Y206.909 Z-1.501 I1.464 J-2.445
N5790 X392.011 Y211.799 Z-1.814 I-1.464 J2.445
N5795 X394.94 Y206.909 Z-2.127 I1.464 J-2.445
N5800 X392.011 Y211.799 Z-2.439 I-1.464 J2.445
N5805 X394.94 Y206.909 Z-2.752 I1.464 J-2.445
N5810 X392.011 Y211.799 Z-3.065 I-1.464 J2.445
N5815 X394.94 Y206.909 Z-3.377 I1.464 J-2.445
N5820 X392.011 Y211.799 Z-3.69 I-1.464 J2.445
N5825 X396.325 Y209.354 Z-3.9 I1.464 J-2.445
N5830 X392.416 I-1.955 J0.
N5835 X394.296 I0.94 J0. F1200.
N5840 G1 Y169.354
N5845 G2 X392.416 I-0.94 J0.
N5850 G1 Y209.354
N5855 G3 X391.775 Y210.56 I-1.456 J0.
N5860 G2 X391.812 Y211.926 I0.453 J0.671
N5865 X396.356 Y209.354 I1.544 J-2.572
N5870 G1 Y169.354
N5875 G2 X390.356 I-3. J0.
N5880 G1 Y209.354
N5885 G2 X391.812 Y211.926 I3. J0.
N5890 G1 X391.867 Y211.952
N5895 X391.927 Y211.966
N5900 X393.649 Y212.193
N5905 X393.713 Y212.194
N5910 G2 X393.238 Y206.514 Z-4.213 I-0.238 J-2.84 F333.33
N5915 X393.713 Y212.194 Z-4.525 I0.238 J2.84
N5920 X393.238 Y206.514 Z-4.838 I-0.238 J-2.84
N5925 X393.713 Y212.194 Z-5.151 I0.238 J2.84
N5930 X393.238 Y206.514 Z-5.463 I-0.238 J-2.84
N5935 X393.713 Y212.194 Z-5.776 I0.238 J2.84
N5940 X393.238 Y206.514 Z-6.089 I-0.238 J-2.84
N5945 X393.713 Y212.194 Z-6.401 I0.238 J2.84
N5950 X393.238 Y206.514 Z-6.714 I-0.238 J-2.84
N5955 X393.713 Y212.194 Z-7.027 I0.238 J2.84
N5960 X393.238 Y206.514 Z-7.339 I-0.238 J-2.84
N5965 X393.713 Y212.194 Z-7.652 I0.238 J2.84
N5970 X396.325 Y209.354 Z-7.8 I-0.238 J-2.84
N5975 X392.416 I-1.955 J0.
N5980 X394.296 I0.94 J0. F1200.
N5985 G1 Y169.354
N5990 G2 X392.416 I-0.94 J0.
N5995 G1 Y209.354
N6000 G3 X391.775 Y210.56 I-1.456 J0.
N6005 G2 X391.812 Y211.926 I0.453 J0.671
N6010 X396.356 Y209.354 I1.544 J-2.572
N6015 G1 Y169.354
N6020 G2 X390.356 I-3. J0.
N6025 G1 Y209.354
N6030 G2 X391.812 Y211.926 I3. J0.
N6035 G1 X391.867 Y211.952
N6040 X391.927 Y211.966
N6045 X393.649 Y212.193
N6050 X393.713 Y212.194
N6055 G2 X393.238 Y206.514 Z-8.113 I-0.238 J-2.84 F333.33
N6060 X393.713 Y212.194 Z-8.425 I0.238 J2.84
N6065 X393.238 Y206.514 Z-8.738 I-0.238 J-2.84
N6070 X393.713 Y212.194 Z-9.051 I0.238 J2.84
N6075 X393.238 Y206.514 Z-9.363 I-0.238 J-2.84
N6080 X393.713 Y212.194 Z-9.676 I0.238 J2.84
N6085 X393.238 Y206.514 Z-9.989 I-0.238 J-2.84
N6090 X393.713 Y212.194 Z-10.301 I0.238 J2.84
N6095 X393.238 Y206.514 Z-10.614 I-0.238 J-2.84
N6100 X393.713 Y212.194 Z-10.927 I0.238 J2.84
N6105 X393.238 Y206.514 Z-11.239 I-0.238 J-2.84
N6110 X393.713 Y212.194 Z-11.552 I0.238 J2.84
N6115 X396.325 Y209.354 Z-11.7 I-0.238 J-2.84
N6120 X392.416 I-1.955 J0.
N6125 X394.296 I0.94 J0. F1200.
N6130 G1 Y169.354
N6135 G2 X392.416 I-0.94 J0.
N6140 G1 Y209.354
N6145 G3 X391.775 Y210.56 I-1.456 J0.
N6150 G2 X391.812 Y211.926 I0.453 J0.671
N6155 X396.356 Y209.354 I1.544 J-2.572
N6160 G1 Y169.354
N6165 G2 X390.356 I-3. J0.
N6170 G1 Y209.354
N6175 G2 X391.812 Y211.926 I3. J0.
N6180 G1 X391.867 Y211.952
N6185 X391.927 Y211.966
N6190 X393.649 Y212.193
N6195 X393.713 Y212.194
N6200 G2 X393.238 Y206.514 Z-12.013 I-0.238 J-2.84 F333.33
N6205 X393.713 Y212.194 Z-12.325 I0.238 J2.84
N6210 X393.238 Y206.514 Z-12.638 I-0.238 J-2.84
N6215 X393.713 Y212.194 Z-12.951 I0.238 J2.84
N6220 X393.238 Y206.514 Z-13.263 I-0.238 J-2.84
N6225 X393.713 Y212.194 Z-13.576 I0.238 J2.84
N6230 X393.238 Y206.514 Z-13.889 I-0.238 J-2.84
N6235 X393.713 Y212.194 Z-14.201 I0.238 J2.84
N6240 X393.238 Y206.514 Z-14.514 I-0.238 J-2.84
N6245 X393.713 Y212.194 Z-14.827 I0.238 J2.84
N6250 X393.238 Y206.514 Z-15.139 I-0.238 J-2.84
N6255 X393.713 Y212.194 Z-15.452 I0.238 J2.84
N6260 X396.325 Y209.354 Z-15.6 I-0.238 J-2.84
N6265 X392.416 I-1.955 J0.
N6270 X394.296 I0.94 J0. F1200.
N6275 G1 Y169.354
N6280 G2 X392.416 I-0.94 J0.
N6285 G1 Y209.354
N6290 G3 X391.775 Y210.56 I-1.456 J0.
N6295 G2 X391.812 Y211.926 I0.453 J0.671
N6300 X396.356 Y209.354 I1.544 J-2.572
N6305 G1 Y169.354
N6310 G2 X390.356 I-3. J0.
N6315 G1 Y209.354
N6320 G2 X391.812 Y211.926 I3. J0.
N6325 G1 X391.867 Y211.952
N6330 X391.927 Y211.966
N6335 X393.649 Y212.193
N6340 X393.713 Y212.194
N6345 G2 X393.238 Y206.514 Z-15.913 I-0.238 J-2.84 F333.33
N6350 X393.713 Y212.194 Z-16.225 I0.238 J2.84
N6355 X393.238 Y206.514 Z-16.538 I-0.238 J-2.84
N6360 X393.713 Y212.194 Z-16.851 I0.238 J2.84
N6365 X393.238 Y206.514 Z-17.163 I-0.238 J-2.84
N6370 X393.713 Y212.194 Z-17.476 I0.238 J2.84
N6375 X393.238 Y206.514 Z-17.789 I-0.238 J-2.84
N6380 X393.713 Y212.194 Z-18.101 I0.238 J2.84
N6385 X393.238 Y206.514 Z-18.414 I-0.238 J-2.84
N6390 X393.713 Y212.194 Z-18.727 I0.238 J2.84
N6395 X393.238 Y206.514 Z-19.039 I-0.238 J-2.84
N6400 X393.713 Y212.194 Z-19.352 I0.238 J2.84
N6405 X396.325 Y209.354 Z-19.5 I-0.238 J-2.84
N6410 X392.416 I-1.955 J0.
N6415 X394.296 I0.94 J0. F1200.
N6420 G1 Y169.354
N6425 G2 X392.416 I-0.94 J0.
N6430 G1 Y209.354
N6435 G3 X391.775 Y210.56 I-1.456 J0.
N6440 G2 X391.812 Y211.926 I0.453 J0.671
N6445 X396.356 Y209.354 I1.544 J-2.572
N6450 G1 Y169.354
N6455 G2 X390.356 I-3. J0.
N6460 G1 Y209.354
N6465 G2 X391.812 Y211.926 I3. J0.
N6470 G1 X391.894 Y211.967 Z-19.485 F500.
N6475 X391.983 Y211.995 Z-19.471
N6480 X392.065 Y212.009 Z-19.428
N6485 X392.149 Y212.011 Z-19.385
N6490 X392.215 Y212.004 Z-19.319
N6495 X392.279 Y211.99 Z-19.253
N6500 X392.36 Y211.962 Z-19.085
N6505 X392.386 Y211.949 Z-18.9
N6510 G0 Z15.
(2D CONTOUR1 3)
N6515 G0 X761.251 Y146.788
N6520 Z15.
N6525 Z5.
N6530 G1 Z-3.4 F100.33
N6535 X761.243 Y146.787 Z-3.494
N6540 X761.222 Y146.784 Z-3.585
N6545 X761.186 Y146.778 Z-3.672
N6550 X761.137 Y146.771 Z-3.753
N6555 X761.077 Y146.762 Z-3.824
N6560 X761.006 Y146.751 Z-3.885
N6565 X760.927 Y146.739 Z-3.935
N6570 X760.841 Y146.726 Z-3.971
N6575 X760.75 Y146.712 Z-3.993
N6580 X760.657 Y146.698 Z-4.
N6585 X760.064 Y146.609 F500.
N6590 G2 X759.381 Y147.112 I-0.09 J0.593
N6595 G3 X705.273 Y185.983 I-46.025 J-6.971 F1200.
N6600 G1 X589.599 Y165.587
N6605 G2 X550.559 Y215.715 I-6.243 J35.404
N6610 G3 Y302.994 I-97.202 J43.639
N6615 G2 X589.599 Y353.122 I32.797 J14.724
N6620 G1 X705.273 Y332.725
N6625 G3 X759.906 Y378.567 I8.084 J45.843
N6630 G1 Y509.354
N6635 G3 X752.785 Y515.879 I-6.55 J0.
N6640 G1 X444.069 Y488.87
N6645 G3 X420.791 Y484.178 I9.286 J-106.15
N6650 G1 X86.072 Y376.735
N6655 G3 X46.806 Y322.891 I17.284 J-53.844
N6660 G1 Y195.817
N6665 G3 X86.072 Y141.973 I56.549 J0.
N6670 G1 X420.791 Y34.531
N6675 G3 X444.069 Y29.838 I32.565 J101.452
N6680 G1 X752.785 Y2.829
N6685 G3 X759.906 Y9.354 I0.571 J6.525
N6690 G1 Y140.141
N6695 G3 X759.381 Y147.112 I-46.55 J0.
N6700 X757.53 Y149.106 I-2.39 J-0.362
N6705 G2 X755.581 Y151.004 I0.584 J2.55
N6710 G3 X705.785 Y183.078 I-42.225 J-10.863
N6715 G1 X590.111 Y162.682
N6720 G2 X547.868 Y216.924 I-6.755 J38.309
N6725 G3 Y301.785 I-94.512 J42.431
N6730 G2 X590.111 Y356.027 I35.488 J15.932
N6735 G1 X705.785 Y335.63
N6740 G3 X756.956 Y378.567 I7.571 J42.937
N6745 G1 Y509.354
N6750 G3 X753.042 Y512.94 I-3.6 J0.
N6755 G1 X444.326 Y485.931
N6760 G3 X421.693 Y481.369 I9.028 J-103.206
N6765 G1 X86.974 Y373.926
N6770 G3 X49.756 Y322.891 I16.382 J-51.035
N6775 G1 Y195.817
N6780 G3 X86.974 Y144.782 I53.6 J0.
N6785 G1 X421.693 Y37.34
N6790 G3 X444.326 Y32.777 I31.664 J98.643
N6795 G1 X753.042 Y5.768
N6800 G3 X756.956 Y9.354 I0.314 J3.586
N6805 G1 Y140.141
N6810 G3 X755.581 Y151.004 I-43.6 J0.
N6815 X755.176 Y151.366 I-0.473 J-0.122
N6820 G2 X754.767 Y151.724 I0.069 J0.491
N6825 G3 X705.889 Y182.487 I-41.41 J-11.583
N6830 G1 X590.215 Y162.091
N6835 G2 X547.321 Y217.169 I-6.859 J38.9
N6840 G3 Y301.54 I-93.965 J42.185
N6845 G2 X590.215 Y356.618 I36.035 J16.178
N6850 G1 X705.889 Y336.221
N6855 G3 X756.356 Y378.567 I7.467 J42.347
N6860 G1 Y509.354
N6865 G3 X753.095 Y512.343 I-3. J0.
N6870 G1 X444.379 Y485.334
N6875 G3 X421.876 Y480.797 I8.976 J-102.608
N6880 G1 X87.157 Y373.354
N6885 G3 X50.356 Y322.891 I16.198 J-50.464
N6890 G1 Y195.817
N6895 G3 X87.157 Y145.354 I53. J0.
N6900 G1 X421.876 Y37.911
N6905 G3 X444.379 Y33.375 I31.48 J98.072
N6910 G1 X753.095 Y6.366
N6915 G3 X756.356 Y9.354 I0.261 J2.989
N6920 G1 Y140.141
N6925 G3 X754.767 Y151.724 I-43. J0.
N6930 G2 X755.183 Y152.463 I0.578 J0.162 F500.
N6935 G1 X755.761 Y152.625
N6940 X755.851 Y152.65 Z-3.993
N6945 X755.939 Y152.675 Z-3.971
N6950 X756.023 Y152.698 Z-3.935
N6955 X756.1 Y152.72 Z-3.885
N6960 X756.169 Y152.739 Z-3.824
N6965 X756.228 Y152.756 Z-3.753
N6970 X756.275 Y152.769 Z-3.672
N6975 X756.31 Y152.779 Z-3.585
N6980 X756.331 Y152.785 Z-3.494
N6985 X756.338 Y152.787 Z-3.4
N6990 G0 Z5.
N6995 X761.251 Y146.788
N7000 G1 Z1. F100.33
N7005 Z-7.4
N7010 X761.243 Y146.787 Z-7.494
N7015 X761.222 Y146.784 Z-7.585
N7020 X761.186 Y146.778 Z-7.672
N7025 X761.137 Y146.771 Z-7.753
N7030 X761.077 Y146.762 Z-7.824
N7035 X761.006 Y146.751 Z-7.885
N7040 X760.927 Y146.739 Z-7.935
N7045 X760.841 Y146.726 Z-7.971
N7050 X760.75 Y146.712 Z-7.993
N7055 X760.657 Y146.698 Z-8.
N7060 X760.064 Y146.609 F500.
N7065 G2 X759.381 Y147.112 I-0.09 J0.593
N7070 G3 X705.273 Y185.983 I-46.025 J-6.971 F1200.
N7075 G1 X589.599 Y165.587
N7080 G2 X550.559 Y215.715 I-6.243 J35.404
N7085 G3 Y302.994 I-97.202 J43.639
N7090 G2 X589.599 Y353.122 I32.797 J14.724
N7095 G1 X705.273 Y332.725
N7100 G3 X759.906 Y378.567 I8.084 J45.843
N7105 G1 Y509.354
N7110 G3 X752.785 Y515.879 I-6.55 J0.
N7115 G1 X444.069 Y488.87
N7120 G3 X420.791 Y484.178 I9.286 J-106.15
N7125 G1 X86.072 Y376.735
N7130 G3 X46.806 Y322.891 I17.284 J-53.844
N7135 G1 Y195.817
N7140 G3 X86.072 Y141.973 I56.549 J0.
N7145 G1 X420.791 Y34.531
N7150 G3 X444.069 Y29.838 I32.565 J101.452
N7155 G1 X752.785 Y2.829
N7160 G3 X759.906 Y9.354 I0.571 J6.525
N7165 G1 Y140.141
N7170 G3 X759.381 Y147.112 I-46.55 J0.
N7175 X757.53 Y149.106 I-2.39 J-0.362
N7180 G2 X755.581 Y151.004 I0.584 J2.55
N7185 G3 X705.785 Y183.078 I-42.225 J-10.863
N7190 G1 X590.111 Y162.682
N7195 G2 X547.868 Y216.924 I-6.755 J38.309
N7200 G3 Y301.785 I-94.512 J42.431
N7205 G2 X590.111 Y356.027 I35.488 J15.932
N7210 G1 X705.785 Y335.63
N7215 G3 X756.956 Y378.567 I7.571 J42.937
N7220 G1 Y509.354
N7225 G3 X753.042 Y512.94 I-3.6 J0.
N7230 G1 X444.326 Y485.931
N7235 G3 X421.693 Y481.369 I9.028 J-103.206
N7240 G1 X86.974 Y373.926
N7245 G3 X49.756 Y322.891 I16.382 J-51.035
N7250 G1 Y195.817
N7255 G3 X86.974 Y144.782 I53.6 J0.
N7260 G1 X421.693 Y37.34
N7265 G3 X444.326 Y32.777 I31.664 J98.643
N7270 G1 X753.042 Y5.768
N7275 G3 X756.956 Y9.354 I0.314 J3.586
N7280 G1 Y140.141
N7285 G3 X755.581 Y151.004 I-43.6 J0.
N7290 X755.176 Y151.366 I-0.473 J-0.122
N7295 G2 X754.767 Y151.724 I0.069 J0.491
N7300 G3 X705.889 Y182.487 I-41.41 J-11.583
N7305 G1 X590.215 Y162.091
N7310 G2 X547.321 Y217.169 I-6.859 J38.9
N7315 G3 Y301.54 I-93.965 J42.185
N7320 G2 X590.215 Y356.618 I36.035 J16.178
N7325 G1 X705.889 Y336.221
N7330 G3 X756.356 Y378.567 I7.467 J42.347
N7335 G1 Y509.354
N7340 G3 X753.095 Y512.343 I-3. J0.
N7345 G1 X444.379 Y485.334
N7350 G3 X421.876 Y480.797 I8.976 J-102.608
N7355 G1 X87.157 Y373.354
N7360 G3 X50.356 Y322.891 I16.198 J-50.464
N7365 G1 Y195.817
N7370 G3 X87.157 Y145.354 I53. J0.
N7375 G1 X421.876 Y37.911
N7380 G3 X444.379 Y33.375 I31.48 J98.072
N7385 G1 X753.095 Y6.366
N7390 G3 X756.356 Y9.354 I0.261 J2.989
N7395 G1 Y140.141
N7400 G3 X754.767 Y151.724 I-43. J0.
N7405 G2 X755.183 Y152.463 I0.578 J0.162 F500.
N7410 G1 X755.761 Y152.625
N7415 X755.851 Y152.65 Z-7.993
N7420 X755.939 Y152.675 Z-7.971
N7425 X756.023 Y152.698 Z-7.935
N7430 X756.1 Y152.72 Z-7.885
N7435 X756.169 Y152.739 Z-7.824
N7440 X756.228 Y152.756 Z-7.753
N7445 X756.275 Y152.769 Z-7.672
N7450 X756.31 Y152.779 Z-7.585
N7455 X756.331 Y152.785 Z-7.494
N7460 X756.338 Y152.787 Z-7.4
N7465 G0 Z5.
N7470 X761.251 Y146.788
N7475 G1 Z-3. F100.33
N7480 Z-11.4
N7485 X761.243 Y146.787 Z-11.494
N7490 X761.222 Y146.784 Z-11.585
N7495 X761.186 Y146.778 Z-11.672
N7500 X761.137 Y146.771 Z-11.753
N7505 X761.077 Y146.762 Z-11.824
N7510 X761.006 Y146.751 Z-11.885
N7515 X760.927 Y146.739 Z-11.935
N7520 X760.841 Y146.726 Z-11.971
N7525 X760.75 Y146.712 Z-11.993
N7530 X760.657 Y146.698 Z-12.
N7535 X760.064 Y146.609 F500.
N7540 G2 X759.381 Y147.112 I-0.09 J0.593
N7545 G3 X705.273 Y185.983 I-46.025 J-6.971 F1200.
N7550 G1 X589.599 Y165.587
N7555 G2 X550.559 Y215.715 I-6.243 J35.404
N7560 G3 Y302.994 I-97.202 J43.639
N7565 G2 X589.599 Y353.122 I32.797 J14.724
N7570 G1 X705.273 Y332.725
N7575 G3 X759.906 Y378.567 I8.084 J45.843
N7580 G1 Y509.354
N7585 G3 X752.785 Y515.879 I-6.55 J0.
N7590 G1 X444.069 Y488.87
N7595 G3 X420.791 Y484.178 I9.286 J-106.15
N7600 G1 X86.072 Y376.735
N7605 G3 X46.806 Y322.891 I17.284 J-53.844
N7610 G1 Y195.817
N7615 G3 X86.072 Y141.973 I56.549 J0.
N7620 G1 X420.791 Y34.531
N7625 G3 X444.069 Y29.838 I32.565 J101.452
N7630 G1 X752.785 Y2.829
N7635 G3 X759.906 Y9.354 I0.571 J6.525
N7640 G1 Y140.141
N7645 G3 X759.381 Y147.112 I-46.55 J0.
N7650 X757.53 Y149.106 I-2.39 J-0.362
N7655 G2 X755.581 Y151.004 I0.584 J2.55
N7660 G3 X705.785 Y183.078 I-42.225 J-10.863
N7665 G1 X590.111 Y162.682
N7670 G2 X547.868 Y216.924 I-6.755 J38.309
N7675 G3 Y301.785 I-94.512 J42.431
N7680 G2 X590.111 Y356.027 I35.488 J15.932
N7685 G1 X705.785 Y335.63
N7690 G3 X756.956 Y378.567 I7.571 J42.937
N7695 G1 Y509.354
N7700 G3 X753.042 Y512.94 I-3.6 J0.
N7705 G1 X444.326 Y485.931
N7710 G3 X421.693 Y481.369 I9.028 J-103.206
N7715 G1 X86.974 Y373.926
N7720 G3 X49.756 Y322.891 I16.382 J-51.035
N7725 G1 Y195.817
N7730 G3 X86.974 Y144.782 I53.6 J0.
N7735 G1 X421.693 Y37.34
N7740 G3 X444.326 Y32.777 I31.664 J98.643
N7745 G1 X753.042 Y5.768
N7750 G3 X756.956 Y9.354 I0.314 J3.586
N7755 G1 Y140.141
N7760 G3 X755.581 Y151.004 I-43.6 J0.
N7765 X755.176 Y151.366 I-0.473 J-0.122
N7770 G2 X754.767 Y151.724 I0.069 J0.491
N7775 G3 X705.889 Y182.487 I-41.41 J-11.583
N7780 G1 X590.215 Y162.091
N7785 G2 X547.321 Y217.169 I-6.859 J38.9
N7790 G3 Y301.54 I-93.965 J42.185
N7795 G2 X590.215 Y356.618 I36.035 J16.178
N7800 G1 X705.889 Y336.221
N7805 G3 X756.356 Y378.567 I7.467 J42.347
N7810 G1 Y509.354
N7815 G3 X753.095 Y512.343 I-3. J0.
N7820 G1 X444.379 Y485.334
N7825 G3 X421.876 Y480.797 I8.976 J-102.608
N7830 G1 X87.157 Y373.354
N7835 G3 X50.356 Y322.891 I16.198 J-50.464
N7840 G1 Y195.817
N7845 G3 X87.157 Y145.354 I53. J0.
N7850 G1 X421.876 Y37.911
N7855 G3 X444.379 Y33.375 I31.48 J98.072
N7860 G1 X753.095 Y6.366
N7865 G3 X756.356 Y9.354 I0.261 J2.989
N7870 G1 Y140.141
N7875 G3 X754.767 Y151.724 I-43. J0.
N7880 G2 X755.183 Y152.463 I0.578 J0.162 F500.
N7885 G1 X755.761 Y152.625
N7890 X755.851 Y152.65 Z-11.993
N7895 X755.939 Y152.675 Z-11.971
N7900 X756.023 Y152.698 Z-11.935
N7905 X756.1 Y152.72 Z-11.885
N7910 X756.169 Y152.739 Z-11.824
N7915 X756.228 Y152.756 Z-11.753
N7920 X756.275 Y152.769 Z-11.672
N7925 X756.31 Y152.779 Z-11.585
N7930 X756.331 Y152.785 Z-11.494
N7935 X756.338 Y152.787 Z-11.4
N7940 G0 Z5.
N7945 X761.251 Y146.788
N7950 G1 Z-7. F100.33
N7955 Z-15.4
N7960 X761.243 Y146.787 Z-15.494
N7965 X761.222 Y146.784 Z-15.585
N7970 X761.186 Y146.778 Z-15.672
N7975 X761.137 Y146.771 Z-15.753
N7980 X761.077 Y146.762 Z-15.824
N7985 X761.006 Y146.751 Z-15.885
N7990 X760.927 Y146.739 Z-15.935
N7995 X760.841 Y146.726 Z-15.971
N8000 X760.75 Y146.712 Z-15.993
N8005 X760.657 Y146.698 Z-16.
N8010 X760.064 Y146.609 F500.
N8015 G2 X759.381 Y147.112 I-0.09 J0.593
N8020 G3 X705.273 Y185.983 I-46.025 J-6.971 F1200.
N8025 G1 X589.599 Y165.587
N8030 G2 X550.559 Y215.715 I-6.243 J35.404
N8035 G3 Y302.994 I-97.202 J43.639
N8040 G2 X589.599 Y353.122 I32.797 J14.724
N8045 G1 X705.273 Y332.725
N8050 G3 X759.906 Y378.567 I8.084 J45.843
N8055 G1 Y509.354
N8060 G3 X752.785 Y515.879 I-6.55 J0.
N8065 G1 X444.069 Y488.87
N8070 G3 X420.791 Y484.178 I9.286 J-106.15
N8075 G1 X86.072 Y376.735
N8080 G3 X46.806 Y322.891 I17.284 J-53.844
N8085 G1 Y195.817
N8090 G3 X86.072 Y141.973 I56.549 J0.
N8095 G1 X420.791 Y34.531
N8100 G3 X444.069 Y29.838 I32.565 J101.452
N8105 G1 X752.785 Y2.829
N8110 G3 X759.906 Y9.354 I0.571 J6.525
N8115 G1 Y140.141
N8120 G3 X759.381 Y147.112 I-46.55 J0.
N8125 X757.53 Y149.106 I-2.39 J-0.362
N8130 G2 X755.581 Y151.004 I0.584 J2.55
N8135 G3 X705.785 Y183.078 I-42.225 J-10.863
N8140 G1 X590.111 Y162.682
N8145 G2 X547.868 Y216.924 I-6.755 J38.309
N8150 G3 Y301.785 I-94.512 J42.431
N8155 G2 X590.111 Y356.027 I35.488 J15.932
N8160 G1 X705.785 Y335.63
N8165 G3 X756.956 Y378.567 I7.571 J42.937
N8170 G1 Y509.354
N8175 G3 X753.042 Y512.94 I-3.6 J0.
N8180 G1 X444.326 Y485.931
N8185 G3 X421.693 Y481.369 I9.028 J-103.206
N8190 G1 X86.974 Y373.926
N8195 G3 X49.756 Y322.891 I16.382 J-51.035
N8200 G1 Y195.817
N8205 G3 X86.974 Y144.782 I53.6 J0.
N8210 G1 X421.693 Y37.34
N8215 G3 X444.326 Y32.777 I31.664 J98.643
N8220 G1 X753.042 Y5.768
N8225 G3 X756.956 Y9.354 I0.314 J3.586
N8230 G1 Y140.141
N8235 G3 X755.581 Y151.004 I-43.6 J0.
N8240 X755.176 Y151.366 I-0.473 J-0.122
N8245 G2 X754.767 Y151.724 I0.069 J0.491
N8250 G3 X705.889 Y182.487 I-41.41 J-11.583
N8255 G1 X590.215 Y162.091
N8260 G2 X547.321 Y217.169 I-6.859 J38.9
N8265 G3 Y301.54 I-93.965 J42.185
N8270 G2 X590.215 Y356.618 I36.035 J16.178
N8275 G1 X705.889 Y336.221
N8280 G3 X756.356 Y378.567 I7.467 J42.347
N8285 G1 Y509.354
N8290 G3 X753.095 Y512.343 I-3. J0.
N8295 G1 X444.379 Y485.334
N8300 G3 X421.876 Y480.797 I8.976 J-102.608
N8305 G1 X87.157 Y373.354
N8310 G3 X50.356 Y322.891 I16.198 J-50.464
N8315 G1 Y195.817
N8320 G3 X87.157 Y145.354 I53. J0.
N8325 G1 X421.876 Y37.911
N8330 G3 X444.379 Y33.375 I31.48 J98.072
N8335 G1 X753.095 Y6.366
N8340 G3 X756.356 Y9.354 I0.261 J2.989
N8345 G1 Y140.141
N8350 G3 X754.767 Y151.724 I-43. J0.
N8355 G2 X755.183 Y152.463 I0.578 J0.162 F500.
N8360 G1 X755.761 Y152.625
N8365 X755.851 Y152.65 Z-15.993
N8370 X755.939 Y152.675 Z-15.971
N8375 X756.023 Y152.698 Z-15.935
N8380 X756.1 Y152.72 Z-15.885
N8385 X756.169 Y152.739 Z-15.824
N8390 X756.228 Y152.756 Z-15.753
N8395 X756.275 Y152.769 Z-15.672
N8400 X756.31 Y152.779 Z-15.585
N8405 X756.331 Y152.785 Z-15.494
N8410 X756.338 Y152.787 Z-15.4
N8415 G0 Z5.
N8420 X761.251 Y146.788
N8425 G1 Z-11. F100.33
N8430 Z-19.4
N8435 X761.243 Y146.787 Z-19.494
N8440 X761.222 Y146.784 Z-19.585
N8445 X761.186 Y146.778 Z-19.672
N8450 X761.137 Y146.771 Z-19.753
N8455 X761.077 Y146.762 Z-19.824
N8460 X761.006 Y146.751 Z-19.885
N8465 X760.927 Y146.739 Z-19.935
N8470 X760.841 Y146.726 Z-19.971
N8475 X760.75 Y146.712 Z-19.993
N8480 X760.657 Y146.698 Z-20.
N8485 X760.064 Y146.609 F500.
N8490 G2 X759.381 Y147.112 I-0.09 J0.593
N8495 G3 X705.273 Y185.983 I-46.025 J-6.971 F1200.
N8500 G1 X589.599 Y165.587
N8505 G2 X550.559 Y215.715 I-6.243 J35.404
N8510 G3 Y302.994 I-97.202 J43.639
N8515 G2 X589.599 Y353.122 I32.797 J14.724
N8520 G1 X705.273 Y332.725
N8525 G3 X759.906 Y378.567 I8.084 J45.843
N8530 G1 Y424.916
N8535 Z-18.
N8540 Y480.916
N8545 Z-20. F100.33
N8550 Y509.354 F1200.
N8555 G3 X752.785 Y515.879 I-6.55 J0.
N8560 G1 X635.08 Y505.581
N8565 Z-18.
N8570 X579.293 Y500.701
N8575 Z-20. F100.33
N8580 X444.069 Y488.87 F1200.
N8585 G3 X420.791 Y484.178 I9.286 J-106.15
N8590 G1 X309.368 Y448.411
N8595 Z-18.
N8600 X256.048 Y431.296
N8605 Z-20. F100.33
N8610 X86.072 Y376.735 F1200.
N8615 G3 X46.806 Y322.891 I17.284 J-53.844
N8620 G1 Y195.817
N8625 G3 X86.072 Y141.973 I56.549 J0.
N8630 G1 X245.077 Y90.934
N8635 Z-18.
N8640 X298.397 Y73.819
N8645 Z-20. F100.33
N8650 X420.791 Y34.531 F1200.
N8655 G3 X444.069 Y29.838 I32.565 J101.452
N8660 G1 X598.067 Y16.365
N8665 Z-18.
N8670 X653.854 Y11.484
N8675 Z-20. F100.33
N8680 X752.785 Y2.829 F1200.
N8685 G3 X759.906 Y9.354 I0.571 J6.525
N8690 G1 Y32.
N8695 Z-18.
N8700 Y88.
N8705 Z-20. F100.33
N8710 Y140.141 F1200.
N8715 G3 X759.381 Y147.112 I-46.55 J0.
N8720 X757.53 Y149.106 I-2.39 J-0.362
N8725 G2 X755.581 Y151.004 I0.584 J2.55
N8730 G3 X705.785 Y183.078 I-42.225 J-10.863
N8735 G1 X590.111 Y162.682
N8740 G2 X547.868 Y216.924 I-6.755 J38.309
N8745 G3 Y301.785 I-94.512 J42.431
N8750 G2 X590.111 Y356.027 I35.488 J15.932
N8755 G1 X705.785 Y335.63
N8760 G3 X756.956 Y378.567 I7.571 J42.937
N8765 G1 Y424.916
N8770 Z-18.
N8775 Y480.916
N8780 Z-20. F100.33
N8785 Y509.354 F1200.
N8790 G3 X753.042 Y512.94 I-3.6 J0.
N8795 G1 X635.337 Y502.642
N8800 Z-18.
N8805 X579.55 Y497.762
N8810 Z-20. F100.33
N8815 X444.326 Y485.931 F1200.
N8820 G3 X421.693 Y481.369 I9.028 J-103.206
N8825 G1 X310.27 Y445.603
N8830 Z-18.
N8835 X256.95 Y428.487
N8840 Z-20. F100.33
N8845 X86.974 Y373.926 F1200.
N8850 G3 X49.756 Y322.891 I16.382 J-51.035
N8855 G1 Y195.817
N8860 G3 X86.974 Y144.782 I53.6 J0.
N8865 G1 X245.979 Y93.743
N8870 Z-18.
N8875 X299.299 Y76.628
N8880 Z-20. F100.33
N8885 X421.693 Y37.34 F1200.
N8890 G3 X444.326 Y32.777 I31.664 J98.643
N8895 G1 X598.324 Y19.304
N8900 Z-18.
N8905 X654.111 Y14.423
N8910 Z-20. F100.33
N8915 X753.042 Y5.768 F1200.
N8920 G3 X756.956 Y9.354 I0.314 J3.586
N8925 G1 Y32.
N8930 Z-18.
N8935 Y88.
N8940 Z-20. F100.33
N8945 Y140.141 F1200.
N8950 G3 X755.581 Y151.004 I-43.6 J0.
N8955 X755.176 Y151.366 I-0.473 J-0.122
N8960 G2 X754.767 Y151.724 I0.069 J0.491
N8965 G3 X705.889 Y182.487 I-41.41 J-11.583
N8970 G1 X590.215 Y162.091
N8975 G2 X547.321 Y217.169 I-6.859 J38.9
N8980 G3 Y301.54 I-93.965 J42.185
N8985 G2 X590.215 Y356.618 I36.035 J16.178
N8990 G1 X705.889 Y336.221
N8995 G3 X756.356 Y378.567 I7.467 J42.347
N9000 G1 Y424.916
N9005 Z-18.
N9010 Y480.916
N9015 Z-20. F100.33
N9020 Y509.354 F1200.
N9025 G3 X753.095 Y512.343 I-3. J0.
N9030 G1 X635.389 Y502.045
N9035 Z-18.
N9040 X579.602 Y497.164
N9045 Z-20. F100.33
N9050 X444.379 Y485.334 F1200.
N9055 G3 X421.876 Y480.797 I8.976 J-102.608
N9060 G1 X310.453 Y445.031
N9065 Z-18.
N9070 X257.133 Y427.916
N9075 Z-20. F100.33
N9080 X87.157 Y373.354 F1200.
N9085 G3 X50.356 Y322.891 I16.198 J-50.464
N9090 G1 Y195.817
N9095 G3 X87.157 Y145.354 I53. J0.
N9100 G1 X246.162 Y94.314
N9105 Z-18.
N9110 X299.482 Y77.199
N9115 Z-20. F100.33
N9120 X421.876 Y37.911 F1200.
N9125 G3 X444.379 Y33.375 I31.48 J98.072
N9130 G1 X598.376 Y19.902
N9135 Z-18.
N9140 X654.163 Y15.021
N9145 Z-20. F100.33
N9150 X753.095 Y6.366 F1200.
N9155 G3 X756.356 Y9.354 I0.261 J2.989
N9160 G1 Y32.
N9165 Z-18.
N9170 Y88.
N9175 Z-20. F100.33
N9180 Y140.141 F1200.
N9185 G3 X754.767 Y151.724 I-43. J0.
N9190 G2 X755.183 Y152.463 I0.578 J0.162 F500.
N9195 G1 X755.761 Y152.625
N9200 X755.851 Y152.65 Z-19.993
N9205 X755.939 Y152.675 Z-19.971
N9210 X756.023 Y152.698 Z-19.935
N9215 X756.1 Y152.72 Z-19.885
N9220 X756.169 Y152.739 Z-19.824
N9225 X756.228 Y152.756 Z-19.753
N9230 X756.275 Y152.769 Z-19.672
N9235 X756.31 Y152.779 Z-19.585
N9240 X756.331 Y152.785 Z-19.494
N9245 X756.338 Y152.787 Z-19.4
N9250 G0 Z15.
N9255 G53 Z0.
N9260 M30
%
