%
(1001)
(T1  D=6. CR=0. - ZMIN=-20. - FLAT END MILL)
N10 G90 G94 G17 G91.1
N15 G21
N20 G53 G0 Z0.
(2D POCKET1 2)
N25 M9
N30 T1 M6
N35 S22000 M3
N40 G54
N45 G0 X427.855 Y262.759
N50 G43 Z15. H1
N55 G0 Z5.
N60 G1 Z1.6 F500.
N65 X427.891 Y262.766 Z1.393 F333.33
N70 X427.996 Y262.781 Z1.211
N75 X428.158 Y262.797 Z1.077
N80 X428.356 Y262.804 Z1.007
N85 X428.431 Y262.803 Z1.
N90 G2 X428.281 Y257.105 Z0.687 I-0.075 J-2.849
N95 X428.431 Y262.803 Z0.375 I0.075 J2.849
N100 X428.281 Y257.105 Z0.062 I-0.075 J-2.849
N105 X428.431 Y262.803 Z-0.251 I0.075 J2.849
N110 X428.281 Y257.105 Z-0.563 I-0.075 J-2.849
N115 X428.431 Y262.803 Z-0.876 I0.075 J2.849
N120 X428.281 Y257.105 Z-1.189 I-0.075 J-2.849
N125 X428.431 Y262.803 Z-1.501 I0.075 J2.849
N130 X428.281 Y257.105 Z-1.814 I-0.075 J-2.849
N135 X428.431 Y262.803 Z-2.127 I0.075 J2.849
N140 X428.281 Y257.105 Z-2.439 I-0.075 J-2.849
N145 X428.431 Y262.803 Z-2.752 I0.075 J2.849
N150 X428.281 Y257.105 Z-3.065 I-0.075 J-2.849
N155 X428.431 Y262.803 Z-3.377 I0.075 J2.849
N160 X428.281 Y257.105 Z-3.69 I-0.075 J-2.849
N165 X428.356 Y262.804 Z-4. I0.075 J2.849
N170 Y258.249 I0. J-2.277
N175 G1 X128.356 F1200.
N180 G2 Y260.459 I0. J1.105
N185 G1 X428.356
N190 G2 Y258.249 I0. J-1.105
N195 G3 X426.56 Y257.052 I0. J-1.946
N200 G2 X424.763 Y255.854 I-1.796 J0.748
N205 G1 X128.356
N210 G2 Y262.854 I0. J3.5
N215 G1 X428.356
N220 G2 Y255.854 I0. J-3.5
N225 G1 X424.763
N230 G2 X424.656 Y256.434 I0. J0.3
N235 G1 X426.559 Y257.165
N240 G3 X426.632 Y257.684 I-0.108 J0.28
N245 G2 X430.08 Y262.224 Z-4.313 I1.724 J2.27 F333.33
N250 X426.632 Y257.684 Z-4.625 I-1.724 J-2.27
N255 X430.08 Y262.224 Z-4.938 I1.724 J2.27
N260 X426.632 Y257.684 Z-5.251 I-1.724 J-2.27
N265 X430.08 Y262.224 Z-5.563 I1.724 J2.27
N270 X426.632 Y257.684 Z-5.876 I-1.724 J-2.27
N275 X430.08 Y262.224 Z-6.189 I1.724 J2.27
N280 X426.632 Y257.684 Z-6.501 I-1.724 J-2.27
N285 X430.08 Y262.224 Z-6.814 I1.724 J2.27
N290 X426.632 Y257.684 Z-7.127 I-1.724 J-2.27
N295 X430.08 Y262.224 Z-7.439 I1.724 J2.27
N300 X426.632 Y257.684 Z-7.752 I-1.724 J-2.27
N305 X428.356 Y262.804 Z-8. I1.724 J2.27
N310 Y258.249 I0. J-2.277
N315 G1 X128.356 F1200.
N320 G2 Y260.459 I0. J1.105
N325 G1 X428.356
N330 G2 Y258.249 I0. J-1.105
N335 G3 X426.56 Y257.052 I0. J-1.946
N340 G2 X424.763 Y255.854 I-1.796 J0.748
N345 G1 X128.356
N350 G2 Y262.854 I0. J3.5
N355 G1 X428.356
N360 G2 Y255.854 I0. J-3.5
N365 G1 X424.763
N370 G2 X424.656 Y256.434 I0. J0.3
N375 G1 X426.559 Y257.165
N380 G3 X426.632 Y257.684 I-0.108 J0.28
N385 G2 X430.08 Y262.224 Z-8.313 I1.724 J2.27 F333.33
N390 X426.632 Y257.684 Z-8.625 I-1.724 J-2.27
N395 X430.08 Y262.224 Z-8.938 I1.724 J2.27
N400 X426.632 Y257.684 Z-9.251 I-1.724 J-2.27
N405 X430.08 Y262.224 Z-9.563 I1.724 J2.27
N410 X426.632 Y257.684 Z-9.876 I-1.724 J-2.27
N415 X430.08 Y262.224 Z-10.189 I1.724 J2.27
N420 X426.632 Y257.684 Z-10.501 I-1.724 J-2.27
N425 X430.08 Y262.224 Z-10.814 I1.724 J2.27
N430 X426.632 Y257.684 Z-11.127 I-1.724 J-2.27
N435 X430.08 Y262.224 Z-11.439 I1.724 J2.27
N440 X426.632 Y257.684 Z-11.752 I-1.724 J-2.27
N445 X428.356 Y262.804 Z-12. I1.724 J2.27
N450 Y258.249 I0. J-2.277
N455 G1 X128.356 F1200.
N460 G2 Y260.459 I0. J1.105
N465 G1 X428.356
N470 G2 Y258.249 I0. J-1.105
N475 G3 X426.56 Y257.052 I0. J-1.946
N480 G2 X424.763 Y255.854 I-1.796 J0.748
N485 G1 X128.356
N490 G2 Y262.854 I0. J3.5
N495 G1 X428.356
N500 G2 Y255.854 I0. J-3.5
N505 G1 X424.763
N510 G2 X424.656 Y256.434 I0. J0.3
N515 G1 X426.559 Y257.165
N520 G3 X426.632 Y257.684 I-0.108 J0.28
N525 G2 X430.08 Y262.224 Z-12.313 I1.724 J2.27 F333.33
N530 X426.632 Y257.684 Z-12.625 I-1.724 J-2.27
N535 X430.08 Y262.224 Z-12.938 I1.724 J2.27
N540 X426.632 Y257.684 Z-13.251 I-1.724 J-2.27
N545 X430.08 Y262.224 Z-13.563 I1.724 J2.27
N550 X426.632 Y257.684 Z-13.876 I-1.724 J-2.27
N555 X430.08 Y262.224 Z-14.189 I1.724 J2.27
N560 X426.632 Y257.684 Z-14.501 I-1.724 J-2.27
N565 X430.08 Y262.224 Z-14.814 I1.724 J2.27
N570 X426.632 Y257.684 Z-15.127 I-1.724 J-2.27
N575 X430.08 Y262.224 Z-15.439 I1.724 J2.27
N580 X426.632 Y257.684 Z-15.752 I-1.724 J-2.27
N585 X428.356 Y262.804 Z-16. I1.724 J2.27
N590 Y258.249 I0. J-2.277
N595 G1 X128.356 F1200.
N600 G2 Y260.459 I0. J1.105
N605 G1 X428.356
N610 G2 Y258.249 I0. J-1.105
N615 G3 X426.56 Y257.052 I0. J-1.946
N620 G2 X424.763 Y255.854 I-1.796 J0.748
N625 G1 X128.356
N630 G2 Y262.854 I0. J3.5
N635 G1 X428.356
N640 G2 Y255.854 I0. J-3.5
N645 G1 X424.763
N650 G2 X424.656 Y256.434 I0. J0.3
N655 G1 X426.559 Y257.165
N660 G3 X426.632 Y257.684 I-0.108 J0.28
N665 G2 X430.08 Y262.224 Z-16.313 I1.724 J2.27 F333.33
N670 X426.632 Y257.684 Z-16.625 I-1.724 J-2.27
N675 X430.08 Y262.224 Z-16.938 I1.724 J2.27
N680 X426.632 Y257.684 Z-17.251 I-1.724 J-2.27
N685 X430.08 Y262.224 Z-17.563 I1.724 J2.27
N690 X426.632 Y257.684 Z-17.876 I-1.724 J-2.27
N695 X430.08 Y262.224 Z-18.189 I1.724 J2.27
N700 X426.632 Y257.684 Z-18.501 I-1.724 J-2.27
N705 X430.08 Y262.224 Z-18.814 I1.724 J2.27
N710 X426.632 Y257.684 Z-19.127 I-1.724 J-2.27
N715 X430.08 Y262.224 Z-19.439 I1.724 J2.27
N720 X426.632 Y257.684 Z-19.752 I-1.724 J-2.27
N725 X428.356 Y262.804 Z-20. I1.724 J2.27
N730 Y258.249 I0. J-2.277
N735 G1 X128.356 F1200.
N740 G2 Y260.459 I0. J1.105
N745 G1 X428.356
N750 G2 Y258.249 I0. J-1.105
N755 G3 X426.56 Y257.052 I0. J-1.946
N760 G2 X424.763 Y255.854 I-1.796 J0.748
N765 G1 X128.356
N770 G2 Y262.854 I0. J3.5
N775 G1 X428.356
N780 G2 Y255.854 I0. J-3.5
N785 G1 X424.763
N790 X424.671 Y255.861 Z-19.985 F500.
N795 X424.581 Y255.882 Z-19.971
N800 X424.503 Y255.913 Z-19.928
N805 X424.431 Y255.955 Z-19.885
N810 X424.378 Y255.994 Z-19.819
N815 X424.329 Y256.04 Z-19.753
N820 X424.275 Y256.105 Z-19.585
N825 X424.259 Y256.13 Z-19.4
N830 G0 Z5.
N835 X797.081 Y613.404
N840 G1 Z1.6 F500.
N845 X797.088 Y613.368 Z1.393 F333.33
N850 X797.103 Y613.263 Z1.211
N855 X797.119 Y613.101 Z1.077
N860 X797.126 Y612.903 Z1.007
N865 X797.125 Y612.828 Z1.
N870 G2 X791.427 Y612.978 Z0.687 I-2.849 J0.075
N875 X797.125 Y612.828 Z0.375 I2.849 J-0.075
N880 X791.427 Y612.978 Z0.062 I-2.849 J0.075
N885 X797.125 Y612.828 Z-0.251 I2.849 J-0.075
N890 X791.427 Y612.978 Z-0.563 I-2.849 J0.075
N895 X797.125 Y612.828 Z-0.876 I2.849 J-0.075
N900 X791.427 Y612.978 Z-1.189 I-2.849 J0.075
N905 X797.125 Y612.828 Z-1.501 I2.849 J-0.075
N910 X791.427 Y612.978 Z-1.814 I-2.849 J0.075
N915 X797.125 Y612.828 Z-2.127 I2.849 J-0.075
N920 X791.427 Y612.978 Z-2.439 I-2.849 J0.075
N925 X797.125 Y612.828 Z-2.752 I2.849 J-0.075
N930 X791.427 Y612.978 Z-3.065 I-2.849 J0.075
N935 X797.125 Y612.828 Z-3.377 I2.849 J-0.075
N940 X791.427 Y612.978 Z-3.69 I-2.849 J0.075
N945 X797.126 Y612.903 Z-4. I2.849 J-0.075
N950 X792.571 I-2.277 J0.
N955 G1 Y912.903 F1200.
N960 G2 X794.781 I1.105 J0.
N965 G1 Y612.903
N970 G2 X792.571 I-1.105 J0.
N975 G3 X791.373 Y614.699 I-1.946 J0.
N980 G2 X790.176 Y616.495 I0.748 J1.796
N985 G1 Y912.903
N990 G2 X797.176 I3.5 J0.
N995 G1 Y612.903
N1000 G2 X790.176 I-3.5 J0.
N1005 G1 Y616.495
N1010 G2 X790.756 Y616.603 I0.3 J0.
N1015 G1 X791.487 Y614.7
N1020 G3 X792.006 Y614.627 I0.28 J0.108
N1025 G2 X796.546 Y611.179 Z-4.313 I2.27 J-1.724 F333.33
N1030 X792.006 Y614.627 Z-4.625 I-2.27 J1.724
N1035 X796.546 Y611.179 Z-4.938 I2.27 J-1.724
N1040 X792.006 Y614.627 Z-5.251 I-2.27 J1.724
N1045 X796.546 Y611.179 Z-5.563 I2.27 J-1.724
N1050 X792.006 Y614.627 Z-5.876 I-2.27 J1.724
N1055 X796.546 Y611.179 Z-6.189 I2.27 J-1.724
N1060 X792.006 Y614.627 Z-6.501 I-2.27 J1.724
N1065 X796.546 Y611.179 Z-6.814 I2.27 J-1.724
N1070 X792.006 Y614.627 Z-7.127 I-2.27 J1.724
N1075 X796.546 Y611.179 Z-7.439 I2.27 J-1.724
N1080 X792.006 Y614.627 Z-7.752 I-2.27 J1.724
N1085 X797.126 Y612.903 Z-8. I2.27 J-1.724
N1090 X792.571 I-2.277 J0.
N1095 G1 Y912.903 F1200.
N1100 G2 X794.781 I1.105 J0.
N1105 G1 Y612.903
N1110 G2 X792.571 I-1.105 J0.
N1115 G3 X791.373 Y614.699 I-1.946 J0.
N1120 G2 X790.176 Y616.495 I0.748 J1.796
N1125 G1 Y912.903
N1130 G2 X797.176 I3.5 J0.
N1135 G1 Y612.903
N1140 G2 X790.176 I-3.5 J0.
N1145 G1 Y616.495
N1150 G2 X790.756 Y616.603 I0.3 J0.
N1155 G1 X791.487 Y614.7
N1160 G3 X792.006 Y614.627 I0.28 J0.108
N1165 G2 X796.546 Y611.179 Z-8.313 I2.27 J-1.724 F333.33
N1170 X792.006 Y614.627 Z-8.625 I-2.27 J1.724
N1175 X796.546 Y611.179 Z-8.938 I2.27 J-1.724
N1180 X792.006 Y614.627 Z-9.251 I-2.27 J1.724
N1185 X796.546 Y611.179 Z-9.563 I2.27 J-1.724
N1190 X792.006 Y614.627 Z-9.876 I-2.27 J1.724
N1195 X796.546 Y611.179 Z-10.189 I2.27 J-1.724
N1200 X792.006 Y614.627 Z-10.501 I-2.27 J1.724
N1205 X796.546 Y611.179 Z-10.814 I2.27 J-1.724
N1210 X792.006 Y614.627 Z-11.127 I-2.27 J1.724
N1215 X796.546 Y611.179 Z-11.439 I2.27 J-1.724
N1220 X792.006 Y614.627 Z-11.752 I-2.27 J1.724
N1225 X797.126 Y612.903 Z-12. I2.27 J-1.724
N1230 X792.571 I-2.277 J0.
N1235 G1 Y912.903 F1200.
N1240 G2 X794.781 I1.105 J0.
N1245 G1 Y612.903
N1250 G2 X792.571 I-1.105 J0.
N1255 G3 X791.373 Y614.699 I-1.946 J0.
N1260 G2 X790.176 Y616.495 I0.748 J1.796
N1265 G1 Y912.903
N1270 G2 X797.176 I3.5 J0.
N1275 G1 Y612.903
N1280 G2 X790.176 I-3.5 J0.
N1285 G1 Y616.495
N1290 G2 X790.756 Y616.603 I0.3 J0.
N1295 G1 X791.487 Y614.7
N1300 G3 X792.006 Y614.627 I0.28 J0.108
N1305 G2 X796.546 Y611.179 Z-12.313 I2.27 J-1.724 F333.33
N1310 X792.006 Y614.627 Z-12.625 I-2.27 J1.724
N1315 X796.546 Y611.179 Z-12.938 I2.27 J-1.724
N1320 X792.006 Y614.627 Z-13.251 I-2.27 J1.724
N1325 X796.546 Y611.179 Z-13.563 I2.27 J-1.724
N1330 X792.006 Y614.627 Z-13.876 I-2.27 J1.724
N1335 X796.546 Y611.179 Z-14.189 I2.27 J-1.724
N1340 X792.006 Y614.627 Z-14.501 I-2.27 J1.724
N1345 X796.546 Y611.179 Z-14.814 I2.27 J-1.724
N1350 X792.006 Y614.627 Z-15.127 I-2.27 J1.724
N1355 X796.546 Y611.179 Z-15.439 I2.27 J-1.724
N1360 X792.006 Y614.627 Z-15.752 I-2.27 J1.724
N1365 X797.126 Y612.903 Z-16. I2.27 J-1.724
N1370 X792.571 I-2.277 J0.
N1375 G1 Y912.903 F1200.
N1380 G2 X794.781 I1.105 J0.
N1385 G1 Y612.903
N1390 G2 X792.571 I-1.105 J0.
N1395 G3 X791.373 Y614.699 I-1.946 J0.
N1400 G2 X790.176 Y616.495 I0.748 J1.796
N1405 G1 Y912.903
N1410 G2 X797.176 I3.5 J0.
N1415 G1 Y612.903
N1420 G2 X790.176 I-3.5 J0.
N1425 G1 Y616.495
N1430 G2 X790.756 Y616.603 I0.3 J0.
N1435 G1 X791.487 Y614.7
N1440 G3 X792.006 Y614.627 I0.28 J0.108
N1445 G2 X796.546 Y611.179 Z-16.313 I2.27 J-1.724 F333.33
N1450 X792.006 Y614.627 Z-16.625 I-2.27 J1.724
N1455 X796.546 Y611.179 Z-16.938 I2.27 J-1.724
N1460 X792.006 Y614.627 Z-17.251 I-2.27 J1.724
N1465 X796.546 Y611.179 Z-17.563 I2.27 J-1.724
N1470 X792.006 Y614.627 Z-17.876 I-2.27 J1.724
N1475 X796.546 Y611.179 Z-18.189 I2.27 J-1.724
N1480 X792.006 Y614.627 Z-18.501 I-2.27 J1.724
N1485 X796.546 Y611.179 Z-18.814 I2.27 J-1.724
N1490 X792.006 Y614.627 Z-19.127 I-2.27 J1.724
N1495 X796.546 Y611.179 Z-19.439 I2.27 J-1.724
N1500 X792.006 Y614.627 Z-19.752 I-2.27 J1.724
N1505 X797.126 Y612.903 Z-20. I2.27 J-1.724
N1510 X792.571 I-2.277 J0.
N1515 G1 Y912.903 F1200.
N1520 G2 X794.781 I1.105 J0.
N1525 G1 Y612.903
N1530 G2 X792.571 I-1.105 J0.
N1535 G3 X791.373 Y614.699 I-1.946 J0.
N1540 G2 X790.176 Y616.495 I0.748 J1.796
N1545 G1 Y912.903
N1550 G2 X797.176 I3.5 J0.
N1555 G1 Y612.903
N1560 G2 X790.176 I-3.5 J0.
N1565 G1 Y616.495
N1570 X790.183 Y616.588 Z-19.985 F500.
N1575 X790.204 Y616.678 Z-19.971
N1580 X790.235 Y616.756 Z-19.928
N1585 X790.277 Y616.828 Z-19.885
N1590 X790.316 Y616.881 Z-19.819
N1595 X790.362 Y616.93 Z-19.753
N1600 X790.427 Y616.984 Z-19.585
N1605 X790.452 Y617. Z-19.4
N1610 G0 Z15.
(2D POCKET2 2)
N1615 G0 X721.619 Y625.09
N1620 Z15.
N1625 Z5.
N1630 G1 Z1.6 F500.
N1635 X721.638 Y625.11 Z1.418 F333.33
N1640 X721.696 Y625.168 Z1.254
N1645 X721.79 Y625.254 Z1.122
N1650 X721.914 Y625.358 Z1.034
N1655 X722.059 Y625.465 Z1.
N1660 G2 X725.293 Y620.771 Z0.687 I1.617 J-2.347
N1665 X722.059 Y625.465 Z0.375 I-1.617 J2.347
N1670 X725.293 Y620.771 Z0.062 I1.617 J-2.347
N1675 X722.059 Y625.465 Z-0.251 I-1.617 J2.347
N1680 X725.293 Y620.771 Z-0.563 I1.617 J-2.347
N1685 X722.059 Y625.465 Z-0.876 I-1.617 J2.347
N1690 X725.293 Y620.771 Z-1.189 I1.617 J-2.347
N1695 X722.059 Y625.465 Z-1.501 I-1.617 J2.347
N1700 X725.293 Y620.771 Z-1.814 I1.617 J-2.347
N1705 X722.059 Y625.465 Z-2.127 I-1.617 J2.347
N1710 X725.293 Y620.771 Z-2.439 I1.617 J-2.347
N1715 X722.059 Y625.465 Z-2.752 I-1.617 J2.347
N1720 X725.293 Y620.771 Z-3.065 I1.617 J-2.347
N1725 X722.059 Y625.465 Z-3.377 I-1.617 J2.347
N1730 X725.293 Y620.771 Z-3.69 I1.617 J-2.347
N1735 X723.676 Y620.268 Z-3.75 I-1.617 J2.347
N1740 G1 X721.36 F1200.
N1745 G2 X721.041 Y620.587 I0. J0.319
N1750 G1 Y905.219
N1755 G2 X721.36 Y905.538 I0.319 J0.
N1760 G1 X725.992
N1765 G2 X726.311 Y905.219 I0. J-0.319
N1770 G1 Y620.587
N1775 G2 X725.992 Y620.268 I-0.319 J0.
N1780 G1 X723.676
N1785 G3 X720.176 Y618.071 I0. J-3.887
N1790 G2 X716.147 Y618.993 I-1.909 J0.922
N1795 G1 Y910.112
N1800 G2 X716.467 Y910.432 I0.319 J0.
N1805 G1 X730.885
N1810 G2 X731.205 Y910.112 I0. J-0.319
N1815 G1 Y615.694
N1820 G2 X730.885 Y615.374 I-0.319 J0.
N1825 G1 X716.467
N1830 G2 X716.147 Y615.694 I0. J0.319
N1835 G1 Y618.993
N1840 G3 X713.701 Y622.663 I-3.976 J0.
N1845 G2 X711.254 Y626.333 I1.529 J3.67
N1850 G1 Y915.005
N1855 G2 X711.573 Y915.325 I0.319 J0.
N1860 G1 X735.779
N1865 G2 X736.098 Y915.005 I0. J-0.319
N1870 G1 Y610.8
N1875 G2 X735.779 Y610.481 I-0.319 J0.
N1880 G1 X711.573
N1885 G2 X711.254 Y610.8 I0. J0.319
N1890 G1 Y626.333
N1895 G3 X708.807 Y630.003 I-3.976 J0.
N1900 G2 X706.361 Y633.673 I1.529 J3.67
N1905 G1 Y919.899
N1910 G2 X706.68 Y920.218 I0.319 J0.
N1915 G1 X740.672
N1920 G2 X740.991 Y919.899 I0. J-0.319
N1925 G1 Y605.907
N1930 G2 X740.672 Y605.588 I-0.319 J0.
N1935 G1 X706.68
N1940 G2 X706.361 Y605.907 I0. J0.319
N1945 G1 Y633.673
N1950 G3 X703.914 Y637.343 I-3.976 J0.
N1955 G2 X701.468 Y641.013 I1.529 J3.67
N1960 G1 Y924.792
N1965 G2 X701.787 Y925.111 I0.319 J0.
N1970 G1 X745.565
N1975 G2 X745.884 Y924.792 I0. J-0.319
N1980 G1 Y601.014
N1985 G2 X745.565 Y600.695 I-0.319 J0.
N1990 G1 X701.787
N1995 G2 X701.468 Y601.014 I0. J0.319
N2000 G1 Y641.013
N2005 G3 X699.021 Y644.683 I-3.976 J0.
N2010 G2 X696.574 Y648.353 I1.529 J3.67
N2015 G1 Y929.685
N2020 G2 X696.894 Y930.005 I0.319 J0.
N2025 G1 X750.458
N2030 G2 X750.778 Y929.685 I0. J-0.319
N2035 G1 Y596.121
N2040 G2 X750.458 Y595.801 I-0.319 J0.
N2045 G1 X696.894
N2050 G2 X696.574 Y596.121 I0. J0.319
N2055 G1 Y648.353
N2060 G3 X694.125 Y652.026 I-3.98 J0.
N2065 G2 X691.676 Y655.7 I1.531 J3.674
N2070 G1 Y934.903
N2075 X755.676
N2080 Y590.903
N2085 X691.676
N2090 Y655.7
N2095 G2 X692.122 Y655.962 I0.3 J0.
N2100 G1 X698.503 Y652.423
N2105 X698.552 Y652.389
N2110 X698.593 Y652.347
N2115 X723.409 Y620.895
N2120 X723.718 Y620.452
N2125 X723.735 Y620.413
N2130 X723.738 Y620.371
N2135 X723.725 Y620.33
N2140 X723.698 Y620.297
N2145 X723.662 Y620.275
N2150 X723.62 Y620.268
N2155 G2 X723.733 Y625.967 Z-4.063 I0.057 J2.849 F333.33
N2160 X723.62 Y620.268 Z-4.375 I-0.057 J-2.849
N2165 X723.733 Y625.967 Z-4.688 I0.057 J2.849
N2170 X723.62 Y620.268 Z-5.001 I-0.057 J-2.849
N2175 X723.733 Y625.967 Z-5.313 I0.057 J2.849
N2180 X723.62 Y620.268 Z-5.626 I-0.057 J-2.849
N2185 X723.733 Y625.967 Z-5.939 I0.057 J2.849
N2190 X723.62 Y620.268 Z-6.251 I-0.057 J-2.849
N2195 X723.733 Y625.967 Z-6.564 I0.057 J2.849
N2200 X723.62 Y620.268 Z-6.877 I-0.057 J-2.849
N2205 X723.733 Y625.967 Z-7.189 I0.057 J2.849
N2210 X723.676 Y620.268 Z-7.5 I-0.057 J-2.849
N2215 G1 X721.36 F1200.
N2220 G2 X721.041 Y620.587 I0. J0.319
N2225 G1 Y905.219
N2230 G2 X721.36 Y905.538 I0.319 J0.
N2235 G1 X725.992
N2240 G2 X726.311 Y905.219 I0. J-0.319
N2245 G1 Y620.587
N2250 G2 X725.992 Y620.268 I-0.319 J0.
N2255 G1 X723.676
N2260 G3 X720.176 Y618.071 I0. J-3.887
N2265 G2 X716.147 Y618.993 I-1.909 J0.922
N2270 G1 Y910.112
N2275 G2 X716.467 Y910.432 I0.319 J0.
N2280 G1 X730.885
N2285 G2 X731.205 Y910.112 I0. J-0.319
N2290 G1 Y615.694
N2295 G2 X730.885 Y615.374 I-0.319 J0.
N2300 G1 X716.467
N2305 G2 X716.147 Y615.694 I0. J0.319
N2310 G1 Y618.993
N2315 G3 X713.701 Y622.663 I-3.976 J0.
N2320 G2 X711.254 Y626.333 I1.529 J3.67
N2325 G1 Y915.005
N2330 G2 X711.573 Y915.325 I0.319 J0.
N2335 G1 X735.779
N2340 G2 X736.098 Y915.005 I0. J-0.319
N2345 G1 Y610.8
N2350 G2 X735.779 Y610.481 I-0.319 J0.
N2355 G1 X711.573
N2360 G2 X711.254 Y610.8 I0. J0.319
N2365 G1 Y626.333
N2370 G3 X708.807 Y630.003 I-3.976 J0.
N2375 G2 X706.361 Y633.673 I1.529 J3.67
N2380 G1 Y919.899
N2385 G2 X706.68 Y920.218 I0.319 J0.
N2390 G1 X740.672
N2395 G2 X740.991 Y919.899 I0. J-0.319
N2400 G1 Y605.907
N2405 G2 X740.672 Y605.588 I-0.319 J0.
N2410 G1 X706.68
N2415 G2 X706.361 Y605.907 I0. J0.319
N2420 G1 Y633.673
N2425 G3 X703.914 Y637.343 I-3.976 J0.
N2430 G2 X701.468 Y641.013 I1.529 J3.67
N2435 G1 Y924.792
N2440 G2 X701.787 Y925.111 I0.319 J0.
N2445 G1 X745.565
N2450 G2 X745.884 Y924.792 I0. J-0.319
N2455 G1 Y601.014
N2460 G2 X745.565 Y600.695 I-0.319 J0.
N2465 G1 X701.787
N2470 G2 X701.468 Y601.014 I0. J0.319
N2475 G1 Y641.013
N2480 G3 X699.021 Y644.683 I-3.976 J0.
N2485 G2 X696.574 Y648.353 I1.529 J3.67
N2490 G1 Y929.685
N2495 G2 X696.894 Y930.005 I0.319 J0.
N2500 G1 X750.458
N2505 G2 X750.778 Y929.685 I0. J-0.319
N2510 G1 Y596.121
N2515 G2 X750.458 Y595.801 I-0.319 J0.
N2520 G1 X696.894
N2525 G2 X696.574 Y596.121 I0. J0.319
N2530 G1 Y648.353
N2535 G3 X694.125 Y652.026 I-3.98 J0.
N2540 G2 X691.676 Y655.7 I1.531 J3.674
N2545 G1 Y934.903
N2550 X755.676
N2555 Y590.903
N2560 X691.676
N2565 Y655.7
N2570 X691.683 Y655.792 Z-7.485 F500.
N2575 X691.704 Y655.882 Z-7.471
N2580 X691.735 Y655.96 Z-7.428
N2585 X691.777 Y656.033 Z-7.385
N2590 X691.816 Y656.086 Z-7.319
N2595 X691.862 Y656.134 Z-7.253
N2600 X691.927 Y656.188 Z-7.085
N2605 X691.952 Y656.205 Z-6.9
N2610 G0 Z5.
N2615 X865.863 Y904.96
N2620 G1 Z1.6 F500.
N2625 X865.883 Y904.941 Z1.418 F333.33
N2630 X865.941 Y904.883 Z1.254
N2635 X866.027 Y904.789 Z1.122
N2640 X866.131 Y904.665 Z1.034
N2645 X866.238 Y904.52 Z1.
N2650 G2 X861.544 Y901.286 Z0.687 I-2.347 J-1.617
N2655 X866.238 Y904.52 Z0.375 I2.347 J1.617
N2660 X861.544 Y901.286 Z0.062 I-2.347 J-1.617
N2665 X866.238 Y904.52 Z-0.251 I2.347 J1.617
N2670 X861.544 Y901.286 Z-0.563 I-2.347 J-1.617
N2675 X866.238 Y904.52 Z-0.876 I2.347 J1.617
N2680 X861.544 Y901.286 Z-1.189 I-2.347 J-1.617
N2685 X866.238 Y904.52 Z-1.501 I2.347 J1.617
N2690 X861.544 Y901.286 Z-1.814 I-2.347 J-1.617
N2695 X866.238 Y904.52 Z-2.127 I2.347 J1.617
N2700 X861.544 Y901.286 Z-2.439 I-2.347 J-1.617
N2705 X866.238 Y904.52 Z-2.752 I2.347 J1.617
N2710 X861.544 Y901.286 Z-3.065 I-2.347 J-1.617
N2715 X866.238 Y904.52 Z-3.377 I2.347 J1.617
N2720 X861.544 Y901.286 Z-3.69 I-2.347 J-1.617
N2725 X861.041 Y902.903 Z-3.75 I2.347 J1.617
N2730 G1 Y905.219 F1200.
N2735 G2 X861.36 Y905.538 I0.319 J0.
N2740 G1 X865.992
N2745 G2 X866.311 Y905.219 I0. J-0.319
N2750 G1 Y620.587
N2755 G2 X865.992 Y620.268 I-0.319 J0.
N2760 G1 X861.36
N2765 G2 X861.041 Y620.587 I0. J0.319
N2770 G1 Y902.903
N2775 G3 X858.844 Y906.403 I-3.887 J0.
N2780 G2 X859.766 Y910.432 I0.922 J1.909
N2785 G1 X870.885
N2790 G2 X871.205 Y910.112 I0. J-0.319
N2795 G1 Y615.694
N2800 G2 X870.885 Y615.374 I-0.319 J0.
N2805 G1 X856.467
N2810 G2 X856.147 Y615.694 I0. J0.319
N2815 G1 Y910.112
N2820 G2 X856.467 Y910.432 I0.319 J0.
N2825 G1 X859.766
N2830 G3 X863.436 Y912.878 I0. J3.976
N2835 G2 X867.106 Y915.325 I3.67 J-1.529
N2840 G1 X875.779
N2845 G2 X876.098 Y915.005 I0. J-0.319
N2850 G1 Y610.8
N2855 G2 X875.779 Y610.481 I-0.319 J0.
N2860 G1 X851.573
N2865 G2 X851.254 Y610.8 I0. J0.319
N2870 G1 Y915.005
N2875 G2 X851.573 Y915.325 I0.319 J0.
N2880 G1 X867.106
N2885 G3 X870.776 Y917.771 I0. J3.976
N2890 G2 X874.446 Y920.218 I3.67 J-1.529
N2895 G1 X880.672
N2900 G2 X880.991 Y919.899 I0. J-0.319
N2905 G1 Y605.907
N2910 G2 X880.672 Y605.588 I-0.319 J0.
N2915 G1 X846.68
N2920 G2 X846.361 Y605.907 I0. J0.319
N2925 G1 Y919.899
N2930 G2 X846.68 Y920.218 I0.319 J0.
N2935 G1 X874.446
N2940 G3 X878.116 Y922.665 I0. J3.976
N2945 G2 X881.786 Y925.111 I3.67 J-1.529
N2950 G1 X885.565
N2955 G2 X885.884 Y924.792 I0. J-0.319
N2960 G1 Y601.014
N2965 G2 X885.565 Y600.695 I-0.319 J0.
N2970 G1 X841.787
N2975 G2 X841.468 Y601.014 I0. J0.319
N2980 G1 Y924.792
N2985 G2 X841.787 Y925.111 I0.319 J0.
N2990 G1 X881.786
N2995 G3 X885.456 Y927.558 I0. J3.976
N3000 G2 X889.126 Y930.005 I3.67 J-1.529
N3005 G1 X890.458
N3010 G2 X890.778 Y929.685 I0. J-0.319
N3015 G1 Y596.121
N3020 G2 X890.458 Y595.801 I-0.319 J0.
N3025 G1 X836.894
N3030 G2 X836.574 Y596.121 I0. J0.319
N3035 G1 Y929.685
N3040 G2 X836.894 Y930.005 I0.319 J0.
N3045 G1 X889.126
N3050 G3 X892.312 Y931.575 I0. J4.018
N3055 G2 X895.676 Y930.432 I1.488 J-1.143
N3060 G1 Y590.903
N3065 X831.676
N3070 Y934.903
N3075 X895.676
N3080 Y930.432
N3085 G2 X895.511 Y930.236 I-0.199 J0.
N3090 G1 X894.708 Y930.097
N3095 X894.66 Y930.082
N3100 X894.617 Y930.055
N3105 X861.665 Y903.175
N3110 X861.226 Y902.862
N3115 X861.187 Y902.844
N3120 X861.145 Y902.841
N3125 X861.104 Y902.854
N3130 X861.07 Y902.88
N3135 X861.048 Y902.917
N3140 X861.041 Y902.96
N3145 G2 X866.74 Y902.846 Z-4.063 I2.849 J-0.057 F333.33
N3150 X861.041 Y902.96 Z-4.375 I-2.849 J0.057
N3155 X866.74 Y902.846 Z-4.688 I2.849 J-0.057
N3160 X861.041 Y902.96 Z-5.001 I-2.849 J0.057
N3165 X866.74 Y902.846 Z-5.313 I2.849 J-0.057
N3170 X861.041 Y902.96 Z-5.626 I-2.849 J0.057
N3175 X866.74 Y902.846 Z-5.939 I2.849 J-0.057
N3180 X861.041 Y902.96 Z-6.251 I-2.849 J0.057
N3185 X866.74 Y902.846 Z-6.564 I2.849 J-0.057
N3190 X861.041 Y902.96 Z-6.877 I-2.849 J0.057
N3195 X866.74 Y902.846 Z-7.189 I2.849 J-0.057
N3200 X861.041 Y902.903 Z-7.5 I-2.849 J0.057
N3205 G1 Y905.219 F1200.
N3210 G2 X861.36 Y905.538 I0.319 J0.
N3215 G1 X865.992
N3220 G2 X866.311 Y905.219 I0. J-0.319
N3225 G1 Y620.587
N3230 G2 X865.992 Y620.268 I-0.319 J0.
N3235 G1 X861.36
N3240 G2 X861.041 Y620.587 I0. J0.319
N3245 G1 Y902.903
N3250 G3 X858.844 Y906.403 I-3.887 J0.
N3255 G2 X859.766 Y910.432 I0.922 J1.909
N3260 G1 X870.885
N3265 G2 X871.205 Y910.112 I0. J-0.319
N3270 G1 Y615.694
N3275 G2 X870.885 Y615.374 I-0.319 J0.
N3280 G1 X856.467
N3285 G2 X856.147 Y615.694 I0. J0.319
N3290 G1 Y910.112
N3295 G2 X856.467 Y910.432 I0.319 J0.
N3300 G1 X859.766
N3305 G3 X863.436 Y912.878 I0. J3.976
N3310 G2 X867.106 Y915.325 I3.67 J-1.529
N3315 G1 X875.779
N3320 G2 X876.098 Y915.005 I0. J-0.319
N3325 G1 Y610.8
N3330 G2 X875.779 Y610.481 I-0.319 J0.
N3335 G1 X851.573
N3340 G2 X851.254 Y610.8 I0. J0.319
N3345 G1 Y915.005
N3350 G2 X851.573 Y915.325 I0.319 J0.
N3355 G1 X867.106
N3360 G3 X870.776 Y917.771 I0. J3.976
N3365 G2 X874.446 Y920.218 I3.67 J-1.529
N3370 G1 X880.672
N3375 G2 X880.991 Y919.899 I0. J-0.319
N3380 G1 Y605.907
N3385 G2 X880.672 Y605.588 I-0.319 J0.
N3390 G1 X846.68
N3395 G2 X846.361 Y605.907 I0. J0.319
N3400 G1 Y919.899
N3405 G2 X846.68 Y920.218 I0.319 J0.
N3410 G1 X874.446
N3415 G3 X878.116 Y922.665 I0. J3.976
N3420 G2 X881.786 Y925.111 I3.67 J-1.529
N3425 G1 X885.565
N3430 G2 X885.884 Y924.792 I0. J-0.319
N3435 G1 Y601.014
N3440 G2 X885.565 Y600.695 I-0.319 J0.
N3445 G1 X841.787
N3450 G2 X841.468 Y601.014 I0. J0.319
N3455 G1 Y924.792
N3460 G2 X841.787 Y925.111 I0.319 J0.
N3465 G1 X881.786
N3470 G3 X885.456 Y927.558 I0. J3.976
N3475 G2 X889.126 Y930.005 I3.67 J-1.529
N3480 G1 X890.458
N3485 G2 X890.778 Y929.685 I0. J-0.319
N3490 G1 Y596.121
N3495 G2 X890.458 Y595.801 I-0.319 J0.
N3500 G1 X836.894
N3505 G2 X836.574 Y596.121 I0. J0.319
N3510 G1 Y929.685
N3515 G2 X836.894 Y930.005 I0.319 J0.
N3520 G1 X889.126
N3525 G3 X892.312 Y931.575 I0. J4.018
N3530 G2 X895.676 Y930.432 I1.488 J-1.143
N3535 G1 Y590.903
N3540 X831.676
N3545 Y934.903
N3550 X895.676
N3555 Y930.432
N3560 X895.669 Y930.34 Z-7.485 F500.
N3565 X895.648 Y930.25 Z-7.471
N3570 X895.617 Y930.172 Z-7.428
N3575 X895.575 Y930.1 Z-7.385
N3580 X895.536 Y930.046 Z-7.319
N3585 X895.49 Y929.998 Z-7.253
N3590 X895.424 Y929.944 Z-7.085
N3595 X895.4 Y929.927 Z-6.9
N3600 G0 Z5.
N3605 X420.413 Y187.167
N3610 G1 Z1.6 F500.
N3615 X420.394 Y187.147 Z1.418 F333.33
N3620 X420.336 Y187.089 Z1.254
N3625 X420.242 Y187.003 Z1.122
N3630 X420.118 Y186.899 Z1.034
N3635 X419.973 Y186.792 Z1.
N3640 G2 X416.739 Y191.486 Z0.687 I-1.617 J2.347
N3645 X419.973 Y186.792 Z0.375 I1.617 J-2.347
N3650 X416.739 Y191.486 Z0.062 I-1.617 J2.347
N3655 X419.973 Y186.792 Z-0.251 I1.617 J-2.347
N3660 X416.739 Y191.486 Z-0.563 I-1.617 J2.347
N3665 X419.973 Y186.792 Z-0.876 I1.617 J-2.347
N3670 X416.739 Y191.486 Z-1.189 I-1.617 J2.347
N3675 X419.973 Y186.792 Z-1.501 I1.617 J-2.347
N3680 X416.739 Y191.486 Z-1.814 I-1.617 J2.347
N3685 X419.973 Y186.792 Z-2.127 I1.617 J-2.347
N3690 X416.739 Y191.486 Z-2.439 I-1.617 J2.347
N3695 X419.973 Y186.792 Z-2.752 I1.617 J-2.347
N3700 X416.739 Y191.486 Z-3.065 I-1.617 J2.347
N3705 X419.973 Y186.792 Z-3.377 I1.617 J-2.347
N3710 X416.739 Y191.486 Z-3.69 I-1.617 J2.347
N3715 X418.356 Y191.989 Z-3.75 I1.617 J-2.347
N3720 G1 X420.672 F1200.
N3725 G2 X420.991 Y191.67 I0. J-0.319
N3730 G1 Y187.038
N3735 G2 X420.672 Y186.719 I-0.319 J0.
N3740 G1 X136.04
N3745 G2 X135.721 Y187.038 I0. J0.319
N3750 G1 Y191.67
N3755 G2 X136.04 Y191.989 I0.319 J0.
N3760 G1 X418.356
N3765 G3 X421.856 Y194.186 I0. J3.887
N3770 G2 X425.885 Y193.264 I1.909 J-0.922
N3775 G1 Y182.145
N3780 G2 X425.565 Y181.825 I-0.319 J0.
N3785 G1 X131.147
N3790 G2 X130.827 Y182.145 I0. J0.319
N3795 G1 Y196.563
N3800 G2 X131.147 Y196.883 I0.319 J0.
N3805 G1 X425.565
N3810 G2 X425.885 Y196.563 I0. J-0.319
N3815 G1 Y193.264
N3820 G3 X428.331 Y189.594 I3.976 J0.
N3825 G2 X430.778 Y185.924 I-1.529 J-3.67
N3830 G1 Y177.251
N3835 G2 X430.458 Y176.932 I-0.319 J0.
N3840 G1 X126.254
N3845 G2 X125.934 Y177.251 I0. J0.319
N3850 G1 Y201.456
N3855 G2 X126.254 Y201.776 I0.319 J0.
N3860 G1 X430.458
N3865 G2 X430.778 Y201.456 I0. J-0.319
N3870 G1 Y185.924
N3875 G3 X433.224 Y182.254 I3.976 J0.
N3880 G2 X435.671 Y178.584 I-1.529 J-3.67
N3885 G1 Y172.358
N3890 G2 X435.352 Y172.039 I-0.319 J0.
N3895 G1 X121.36
N3900 G2 X121.041 Y172.358 I0. J0.319
N3905 G1 Y206.35
N3910 G2 X121.36 Y206.669 I0.319 J0.
N3915 G1 X435.352
N3920 G2 X435.671 Y206.35 I0. J-0.319
N3925 G1 Y178.584
N3930 G3 X438.118 Y174.914 I3.976 J0.
N3935 G2 X440.564 Y171.244 I-1.529 J-3.67
N3940 G1 Y167.465
N3945 G2 X440.245 Y167.146 I-0.319 J0.
N3950 G1 X116.467
N3955 G2 X116.148 Y167.465 I0. J0.319
N3960 G1 Y211.243
N3965 G2 X116.467 Y211.562 I0.319 J0.
N3970 G1 X440.245
N3975 G2 X440.564 Y211.243 I0. J-0.319
N3980 G1 Y171.244
N3985 G3 X443.011 Y167.574 I3.976 J0.
N3990 G2 X445.458 Y163.904 I-1.529 J-3.67
N3995 G1 Y162.572
N4000 G2 X445.138 Y162.252 I-0.319 J0.
N4005 G1 X111.574
N4010 G2 X111.254 Y162.572 I0. J0.319
N4015 G1 Y216.136
N4020 G2 X111.574 Y216.456 I0.319 J0.
N4025 G1 X445.138
N4030 G2 X445.458 Y216.136 I0. J-0.319
N4035 G1 Y163.904
N4040 G3 X447.028 Y160.718 I4.018 J0.
N4045 G2 X445.885 Y157.354 I-1.143 J-1.488
N4050 G1 X106.356
N4055 Y221.354
N4060 X450.356
N4065 Y157.354
N4070 X445.885
N4075 G2 X445.689 Y157.519 I0. J0.199
N4080 G1 X445.55 Y158.321
N4085 X445.535 Y158.37
N4090 X445.508 Y158.413
N4095 X418.628 Y191.365
N4100 X418.315 Y191.804
N4105 X418.297 Y191.843
N4110 X418.294 Y191.885
N4115 X418.307 Y191.926
N4120 X418.333 Y191.96
N4125 X418.37 Y191.982
N4130 X418.413 Y191.989
N4135 G2 X418.299 Y186.29 Z-4.063 I-0.057 J-2.849 F333.33
N4140 X418.413 Y191.989 Z-4.375 I0.057 J2.849
N4145 X418.299 Y186.29 Z-4.688 I-0.057 J-2.849
N4150 X418.413 Y191.989 Z-5.001 I0.057 J2.849
N4155 X418.299 Y186.29 Z-5.313 I-0.057 J-2.849
N4160 X418.413 Y191.989 Z-5.626 I0.057 J2.849
N4165 X418.299 Y186.29 Z-5.939 I-0.057 J-2.849
N4170 X418.413 Y191.989 Z-6.251 I0.057 J2.849
N4175 X418.299 Y186.29 Z-6.564 I-0.057 J-2.849
N4180 X418.413 Y191.989 Z-6.877 I0.057 J2.849
N4185 X418.299 Y186.29 Z-7.189 I-0.057 J-2.849
N4190 X418.356 Y191.989 Z-7.5 I0.057 J2.849
N4195 G1 X420.672 F1200.
N4200 G2 X420.991 Y191.67 I0. J-0.319
N4205 G1 Y187.038
N4210 G2 X420.672 Y186.719 I-0.319 J0.
N4215 G1 X136.04
N4220 G2 X135.721 Y187.038 I0. J0.319
N4225 G1 Y191.67
N4230 G2 X136.04 Y191.989 I0.319 J0.
N4235 G1 X418.356
N4240 G3 X421.856 Y194.186 I0. J3.887
N4245 G2 X425.885 Y193.264 I1.909 J-0.922
N4250 G1 Y182.145
N4255 G2 X425.565 Y181.825 I-0.319 J0.
N4260 G1 X131.147
N4265 G2 X130.827 Y182.145 I0. J0.319
N4270 G1 Y196.563
N4275 G2 X131.147 Y196.883 I0.319 J0.
N4280 G1 X425.565
N4285 G2 X425.885 Y196.563 I0. J-0.319
N4290 G1 Y193.264
N4295 G3 X428.331 Y189.594 I3.976 J0.
N4300 G2 X430.778 Y185.924 I-1.529 J-3.67
N4305 G1 Y177.251
N4310 G2 X430.458 Y176.932 I-0.319 J0.
N4315 G1 X126.254
N4320 G2 X125.934 Y177.251 I0. J0.319
N4325 G1 Y201.456
N4330 G2 X126.254 Y201.776 I0.319 J0.
N4335 G1 X430.458
N4340 G2 X430.778 Y201.456 I0. J-0.319
N4345 G1 Y185.924
N4350 G3 X433.224 Y182.254 I3.976 J0.
N4355 G2 X435.671 Y178.584 I-1.529 J-3.67
N4360 G1 Y172.358
N4365 G2 X435.352 Y172.039 I-0.319 J0.
N4370 G1 X121.36
N4375 G2 X121.041 Y172.358 I0. J0.319
N4380 G1 Y206.35
N4385 G2 X121.36 Y206.669 I0.319 J0.
N4390 G1 X435.352
N4395 G2 X435.671 Y206.35 I0. J-0.319
N4400 G1 Y178.584
N4405 G3 X438.118 Y174.914 I3.976 J0.
N4410 G2 X440.564 Y171.244 I-1.529 J-3.67
N4415 G1 Y167.465
N4420 G2 X440.245 Y167.146 I-0.319 J0.
N4425 G1 X116.467
N4430 G2 X116.148 Y167.465 I0. J0.319
N4435 G1 Y211.243
N4440 G2 X116.467 Y211.562 I0.319 J0.
N4445 G1 X440.245
N4450 G2 X440.564 Y211.243 I0. J-0.319
N4455 G1 Y171.244
N4460 G3 X443.011 Y167.574 I3.976 J0.
N4465 G2 X445.458 Y163.904 I-1.529 J-3.67
N4470 G1 Y162.572
N4475 G2 X445.138 Y162.252 I-0.319 J0.
N4480 G1 X111.574
N4485 G2 X111.254 Y162.572 I0. J0.319
N4490 G1 Y216.136
N4495 G2 X111.574 Y216.456 I0.319 J0.
N4500 G1 X445.138
N4505 G2 X445.458 Y216.136 I0. J-0.319
N4510 G1 Y163.904
N4515 G3 X447.028 Y160.718 I4.018 J0.
N4520 G2 X445.885 Y157.354 I-1.143 J-1.488
N4525 G1 X106.356
N4530 Y221.354
N4535 X450.356
N4540 Y157.354
N4545 X445.885
N4550 X445.793 Y157.361 Z-7.485 F500.
N4555 X445.703 Y157.382 Z-7.471
N4560 X445.625 Y157.413 Z-7.428
N4565 X445.553 Y157.455 Z-7.385
N4570 X445.5 Y157.494 Z-7.319
N4575 X445.451 Y157.54 Z-7.253
N4580 X445.397 Y157.605 Z-7.085
N4585 X445.38 Y157.63 Z-6.9
N4590 G0 Z5.
N4595 X140.413 Y327.167
N4600 G1 Z1.6 F500.
N4605 X140.394 Y327.147 Z1.418 F333.33
N4610 X140.336 Y327.089 Z1.254
N4615 X140.242 Y327.003 Z1.122
N4620 X140.118 Y326.899 Z1.034
N4625 X139.973 Y326.792 Z1.
N4630 G2 X136.739 Y331.486 Z0.687 I-1.617 J2.347
N4635 X139.973 Y326.792 Z0.375 I1.617 J-2.347
N4640 X136.739 Y331.486 Z0.062 I-1.617 J2.347
N4645 X139.973 Y326.792 Z-0.251 I1.617 J-2.347
N4650 X136.739 Y331.486 Z-0.563 I-1.617 J2.347
N4655 X139.973 Y326.792 Z-0.876 I1.617 J-2.347
N4660 X136.739 Y331.486 Z-1.189 I-1.617 J2.347
N4665 X139.973 Y326.792 Z-1.501 I1.617 J-2.347
N4670 X136.739 Y331.486 Z-1.814 I-1.617 J2.347
N4675 X139.973 Y326.792 Z-2.127 I1.617 J-2.347
N4680 X136.739 Y331.486 Z-2.439 I-1.617 J2.347
N4685 X139.973 Y326.792 Z-2.752 I1.617 J-2.347
N4690 X136.739 Y331.486 Z-3.065 I-1.617 J2.347
N4695 X139.973 Y326.792 Z-3.377 I1.617 J-2.347
N4700 X136.739 Y331.486 Z-3.69 I-1.617 J2.347
N4705 X138.356 Y331.989 Z-3.75 I1.617 J-2.347
N4710 G1 X420.672 F1200.
N4715 G2 X420.991 Y331.67 I0. J-0.319
N4720 G1 Y327.038
N4725 G2 X420.672 Y326.719 I-0.319 J0.
N4730 G1 X136.04
N4735 G2 X135.721 Y327.038 I0. J0.319
N4740 G1 Y331.67
N4745 G2 X136.04 Y331.989 I0.319 J0.
N4750 G1 X138.356
N4755 G3 X142.026 Y334.436 I0. J3.976
N4760 G2 X145.696 Y336.883 I3.67 J-1.529
N4765 G1 X425.565
N4770 G2 X425.885 Y336.563 I0. J-0.319
N4775 G1 Y322.145
N4780 G2 X425.565 Y321.825 I-0.319 J0.
N4785 G1 X131.147
N4790 G2 X130.827 Y322.145 I0. J0.319
N4795 G1 Y336.563
N4800 G2 X131.147 Y336.883 I0.319 J0.
N4805 G1 X145.696
N4810 G3 X149.366 Y339.329 I0. J3.976
N4815 G2 X153.036 Y341.776 I3.67 J-1.529
N4820 G1 X430.458
N4825 G2 X430.778 Y341.457 I0. J-0.319
N4830 G1 Y317.251
N4835 G2 X430.458 Y316.932 I-0.319 J0.
N4840 G1 X126.254
N4845 G2 X125.934 Y317.251 I0. J0.319
N4850 G1 Y341.457
N4855 G2 X126.254 Y341.776 I0.319 J0.
N4860 G1 X153.036
N4865 G3 X156.706 Y344.223 I0. J3.976
N4870 G2 X160.376 Y346.669 I3.67 J-1.529
N4875 G1 X435.352
N4880 G2 X435.671 Y346.35 I0. J-0.319
N4885 G1 Y312.358
N4890 G2 X435.352 Y312.039 I-0.319 J0.
N4895 G1 X121.36
N4900 G2 X121.041 Y312.358 I0. J0.319
N4905 G1 Y346.35
N4910 G2 X121.36 Y346.669 I0.319 J0.
N4915 G1 X160.376
N4920 G3 X164.046 Y349.116 I0. J3.976
N4925 G2 X167.716 Y351.562 I3.67 J-1.529
N4930 G1 X440.245
N4935 G2 X440.564 Y351.243 I0. J-0.319
N4940 G1 Y307.465
N4945 G2 X440.245 Y307.146 I-0.319 J0.
N4950 G1 X116.467
N4955 G2 X116.148 Y307.465 I0. J0.319
N4960 G1 Y351.243
N4965 G2 X116.467 Y351.562 I0.319 J0.
N4970 G1 X167.716
N4975 G3 X171.386 Y354.009 I0. J3.976
N4980 G2 X175.056 Y356.456 I3.67 J-1.529
N4985 G1 X445.138
N4990 G2 X445.458 Y356.136 I0. J-0.319
N4995 G1 Y302.572
N5000 G2 X445.138 Y302.252 I-0.319 J0.
N5005 G1 X111.574
N5010 G2 X111.254 Y302.572 I0. J0.319
N5015 G1 Y356.136
N5020 G2 X111.574 Y356.456 I0.319 J0.
N5025 G1 X175.056
N5030 G3 X178.729 Y358.905 I0. J3.98
N5035 G2 X182.403 Y361.354 I3.674 J-1.531
N5040 G1 X450.356
N5045 Y297.354
N5050 X106.356
N5055 Y361.354
N5060 X182.403
N5065 X182.495 Y361.347 Z-3.735 F500.
N5070 X182.586 Y361.326 Z-3.721
N5075 X182.663 Y361.295 Z-3.678
N5080 X182.736 Y361.253 Z-3.635
N5085 X182.789 Y361.214 Z-3.569
N5090 X182.837 Y361.168 Z-3.503
N5095 X182.892 Y361.103 Z-3.335
N5100 X182.908 Y361.078 Z-3.15
N5105 G0 Z5.
N5110 X140.413 Y327.167
N5115 G1 Z-2.15 F500.
N5120 X140.394 Y327.147 Z-2.332 F333.33
N5125 X140.336 Y327.089 Z-2.496
N5130 X140.242 Y327.003 Z-2.628
N5135 X140.118 Y326.899 Z-2.716
N5140 X139.973 Y326.792 Z-2.75
N5145 G2 X136.739 Y331.486 Z-3.063 I-1.617 J2.347
N5150 X139.973 Y326.792 Z-3.375 I1.617 J-2.347
N5155 X136.739 Y331.486 Z-3.688 I-1.617 J2.347
N5160 X139.973 Y326.792 Z-4.001 I1.617 J-2.347
N5165 X136.739 Y331.486 Z-4.313 I-1.617 J2.347
N5170 X139.973 Y326.792 Z-4.626 I1.617 J-2.347
N5175 X136.739 Y331.486 Z-4.939 I-1.617 J2.347
N5180 X139.973 Y326.792 Z-5.251 I1.617 J-2.347
N5185 X136.739 Y331.486 Z-5.564 I-1.617 J2.347
N5190 X139.973 Y326.792 Z-5.877 I1.617 J-2.347
N5195 X136.739 Y331.486 Z-6.189 I-1.617 J2.347
N5200 X139.973 Y326.792 Z-6.502 I1.617 J-2.347
N5205 X136.739 Y331.486 Z-6.815 I-1.617 J2.347
N5210 X139.973 Y326.792 Z-7.127 I1.617 J-2.347
N5215 X136.739 Y331.486 Z-7.44 I-1.617 J2.347
N5220 X138.356 Y331.989 Z-7.5 I1.617 J-2.347
N5225 G1 X420.672 F1200.
N5230 G2 X420.991 Y331.67 I0. J-0.319
N5235 G1 Y327.038
N5240 G2 X420.672 Y326.719 I-0.319 J0.
N5245 G1 X136.04
N5250 G2 X135.721 Y327.038 I0. J0.319
N5255 G1 Y331.67
N5260 G2 X136.04 Y331.989 I0.319 J0.
N5265 G1 X138.356
N5270 G3 X142.026 Y334.436 I0. J3.976
N5275 G2 X145.696 Y336.883 I3.67 J-1.529
N5280 G1 X425.565
N5285 G2 X425.885 Y336.563 I0. J-0.319
N5290 G1 Y322.145
N5295 G2 X425.565 Y321.825 I-0.319 J0.
N5300 G1 X131.147
N5305 G2 X130.827 Y322.145 I0. J0.319
N5310 G1 Y336.563
N5315 G2 X131.147 Y336.883 I0.319 J0.
N5320 G1 X145.696
N5325 G3 X149.366 Y339.329 I0. J3.976
N5330 G2 X153.036 Y341.776 I3.67 J-1.529
N5335 G1 X430.458
N5340 G2 X430.778 Y341.457 I0. J-0.319
N5345 G1 Y317.251
N5350 G2 X430.458 Y316.932 I-0.319 J0.
N5355 G1 X126.254
N5360 G2 X125.934 Y317.251 I0. J0.319
N5365 G1 Y341.457
N5370 G2 X126.254 Y341.776 I0.319 J0.
N5375 G1 X153.036
N5380 G3 X156.706 Y344.223 I0. J3.976
N5385 G2 X160.376 Y346.669 I3.67 J-1.529
N5390 G1 X435.352
N5395 G2 X435.671 Y346.35 I0. J-0.319
N5400 G1 Y312.358
N5405 G2 X435.352 Y312.039 I-0.319 J0.
N5410 G1 X121.36
N5415 G2 X121.041 Y312.358 I0. J0.319
N5420 G1 Y346.35
N5425 G2 X121.36 Y346.669 I0.319 J0.
N5430 G1 X160.376
N5435 G3 X164.046 Y349.116 I0. J3.976
N5440 G2 X167.716 Y351.562 I3.67 J-1.529
N5445 G1 X440.245
N5450 G2 X440.564 Y351.243 I0. J-0.319
N5455 G1 Y307.465
N5460 G2 X440.245 Y307.146 I-0.319 J0.
N5465 G1 X116.467
N5470 G2 X116.148 Y307.465 I0. J0.319
N5475 G1 Y351.243
N5480 G2 X116.467 Y351.562 I0.319 J0.
N5485 G1 X167.716
N5490 G3 X171.386 Y354.009 I0. J3.976
N5495 G2 X175.056 Y356.456 I3.67 J-1.529
N5500 G1 X445.138
N5505 G2 X445.458 Y356.136 I0. J-0.319
N5510 G1 Y302.572
N5515 G2 X445.138 Y302.252 I-0.319 J0.
N5520 G1 X111.574
N5525 G2 X111.254 Y302.572 I0. J0.319
N5530 G1 Y356.136
N5535 G2 X111.574 Y356.456 I0.319 J0.
N5540 G1 X175.056
N5545 G3 X178.729 Y358.905 I0. J3.98
N5550 G2 X182.403 Y361.354 I3.674 J-1.531
N5555 G1 X450.356
N5560 Y297.354
N5565 X106.356
N5570 Y361.354
N5575 X182.403
N5580 X182.495 Y361.347 Z-7.485 F500.
N5585 X182.586 Y361.326 Z-7.471
N5590 X182.663 Y361.295 Z-7.428
N5595 X182.736 Y361.253 Z-7.385
N5600 X182.789 Y361.214 Z-7.319
N5605 X182.837 Y361.168 Z-7.253
N5610 X182.892 Y361.103 Z-7.085
N5615 X182.908 Y361.078 Z-6.9
N5620 G0 Z15.
(2D POCKET3 2)
N5625 G0 X391.309 Y351.453
N5630 Z15.
N5635 Z5.
N5640 G1 Z1.6 F500.
N5645 X391.33 Y351.472 Z1.418 F333.33
N5650 X391.391 Y351.526 Z1.254
N5655 X391.49 Y351.606 Z1.122
N5660 X391.621 Y351.702 Z1.034
N5665 X391.772 Y351.799 Z1.
N5670 G2 X394.701 Y346.909 Z0.687 I1.464 J-2.445
N5675 X391.772 Y351.799 Z0.375 I-1.464 J2.445
N5680 X394.701 Y346.909 Z0.062 I1.464 J-2.445
N5685 X391.772 Y351.799 Z-0.251 I-1.464 J2.445
N5690 X394.701 Y346.909 Z-0.563 I1.464 J-2.445
N5695 X391.772 Y351.799 Z-0.876 I-1.464 J2.445
N5700 X394.701 Y346.909 Z-1.189 I1.464 J-2.445
N5705 X391.772 Y351.799 Z-1.501 I-1.464 J2.445
N5710 X394.701 Y346.909 Z-1.814 I1.464 J-2.445
N5715 X391.772 Y351.799 Z-2.127 I-1.464 J2.445
N5720 X394.701 Y346.909 Z-2.439 I1.464 J-2.445
N5725 X391.772 Y351.799 Z-2.752 I-1.464 J2.445
N5730 X394.701 Y346.909 Z-3.065 I1.464 J-2.445
N5735 X391.772 Y351.799 Z-3.377 I-1.464 J2.445
N5740 X394.701 Y346.909 Z-3.69 I1.464 J-2.445
N5745 X390.387 Y349.354 Z-3.9 I-1.464 J2.445
N5750 X394.296 I1.955 J0.
N5755 G1 Y309.354 F1200.
N5760 G2 X392.416 I-0.94 J0.
N5765 G1 Y349.354
N5770 G2 X394.296 I0.94 J0.
N5775 G3 X395.326 Y347.809 I1.674 J0.
N5780 G2 X396.356 Y346.264 I-0.644 J-1.545
N5785 G1 Y309.354
N5790 G2 X390.356 I-3. J0.
N5795 G1 Y349.354
N5800 G2 X396.356 I3. J0.
N5805 G1 Y346.264
N5810 X396.349 Y346.222
N5815 X396.33 Y346.185
N5820 X396.3 Y346.155
N5825 X396.262 Y346.137
N5830 X396.221 Y346.131
N5835 X396.179 Y346.138
N5840 X395.564 Y346.348
N5845 X393.403 Y346.813
N5850 X393.368 Y346.816
N5855 X393.334 Y346.809
N5860 X393.303 Y346.793
N5865 X393.278 Y346.769
N5870 X393.108 Y346.56
N5875 X393.077 Y346.533
N5880 X393.04 Y346.517
N5885 X392.999 Y346.514
N5890 G2 X393.474 Y352.194 Z-4.213 I0.238 J2.84 F333.33
N5895 X392.999 Y346.514 Z-4.525 I-0.238 J-2.84
N5900 X393.474 Y352.194 Z-4.838 I0.238 J2.84
N5905 X392.999 Y346.514 Z-5.151 I-0.238 J-2.84
N5910 X393.474 Y352.194 Z-5.463 I0.238 J2.84
N5915 X392.999 Y346.514 Z-5.776 I-0.238 J-2.84
N5920 X393.474 Y352.194 Z-6.089 I0.238 J2.84
N5925 X392.999 Y346.514 Z-6.401 I-0.238 J-2.84
N5930 X393.474 Y352.194 Z-6.714 I0.238 J2.84
N5935 X392.999 Y346.514 Z-7.027 I-0.238 J-2.84
N5940 X393.474 Y352.194 Z-7.339 I0.238 J2.84
N5945 X392.999 Y346.514 Z-7.652 I-0.238 J-2.84
N5950 X390.387 Y349.354 Z-7.8 I0.238 J2.84
N5955 X394.296 I1.955 J0.
N5960 G1 Y309.354 F1200.
N5965 G2 X392.416 I-0.94 J0.
N5970 G1 Y349.354
N5975 G2 X394.296 I0.94 J0.
N5980 G3 X395.326 Y347.809 I1.674 J0.
N5985 G2 X396.356 Y346.264 I-0.644 J-1.545
N5990 G1 Y309.354
N5995 G2 X390.356 I-3. J0.
N6000 G1 Y349.354
N6005 G2 X396.356 I3. J0.
N6010 G1 Y346.264
N6015 X396.349 Y346.222
N6020 X396.33 Y346.185
N6025 X396.3 Y346.155
N6030 X396.262 Y346.137
N6035 X396.221 Y346.131
N6040 X396.179 Y346.138
N6045 X395.564 Y346.348
N6050 X393.403 Y346.813
N6055 X393.368 Y346.816
N6060 X393.334 Y346.809
N6065 X393.303 Y346.793
N6070 X393.278 Y346.769
N6075 X393.108 Y346.56
N6080 X393.077 Y346.533
N6085 X393.04 Y346.517
N6090 X392.999 Y346.514
N6095 G2 X393.474 Y352.194 Z-8.113 I0.238 J2.84 F333.33
N6100 X392.999 Y346.514 Z-8.425 I-0.238 J-2.84
N6105 X393.474 Y352.194 Z-8.738 I0.238 J2.84
N6110 X392.999 Y346.514 Z-9.051 I-0.238 J-2.84
N6115 X393.474 Y352.194 Z-9.363 I0.238 J2.84
N6120 X392.999 Y346.514 Z-9.676 I-0.238 J-2.84
N6125 X393.474 Y352.194 Z-9.989 I0.238 J2.84
N6130 X392.999 Y346.514 Z-10.301 I-0.238 J-2.84
N6135 X393.474 Y352.194 Z-10.614 I0.238 J2.84
N6140 X392.999 Y346.514 Z-10.927 I-0.238 J-2.84
N6145 X393.474 Y352.194 Z-11.239 I0.238 J2.84
N6150 X392.999 Y346.514 Z-11.552 I-0.238 J-2.84
N6155 X390.387 Y349.354 Z-11.7 I0.238 J2.84
N6160 X394.296 I1.955 J0.
N6165 G1 Y309.354 F1200.
N6170 G2 X392.416 I-0.94 J0.
N6175 G1 Y349.354
N6180 G2 X394.296 I0.94 J0.
N6185 G3 X395.326 Y347.809 I1.674 J0.
N6190 G2 X396.356 Y346.264 I-0.644 J-1.545
N6195 G1 Y309.354
N6200 G2 X390.356 I-3. J0.
N6205 G1 Y349.354
N6210 G2 X396.356 I3. J0.
N6215 G1 Y346.264
N6220 X396.349 Y346.222
N6225 X396.33 Y346.185
N6230 X396.3 Y346.155
N6235 X396.262 Y346.137
N6240 X396.221 Y346.131
N6245 X396.179 Y346.138
N6250 X395.564 Y346.348
N6255 X393.403 Y346.813
N6260 X393.368 Y346.816
N6265 X393.334 Y346.809
N6270 X393.303 Y346.793
N6275 X393.278 Y346.769
N6280 X393.108 Y346.56
N6285 X393.077 Y346.533
N6290 X393.04 Y346.517
N6295 X392.999 Y346.514
N6300 G2 X393.474 Y352.194 Z-12.013 I0.238 J2.84 F333.33
N6305 X392.999 Y346.514 Z-12.325 I-0.238 J-2.84
N6310 X393.474 Y352.194 Z-12.638 I0.238 J2.84
N6315 X392.999 Y346.514 Z-12.951 I-0.238 J-2.84
N6320 X393.474 Y352.194 Z-13.263 I0.238 J2.84
N6325 X392.999 Y346.514 Z-13.576 I-0.238 J-2.84
N6330 X393.474 Y352.194 Z-13.889 I0.238 J2.84
N6335 X392.999 Y346.514 Z-14.201 I-0.238 J-2.84
N6340 X393.474 Y352.194 Z-14.514 I0.238 J2.84
N6345 X392.999 Y346.514 Z-14.827 I-0.238 J-2.84
N6350 X393.474 Y352.194 Z-15.139 I0.238 J2.84
N6355 X392.999 Y346.514 Z-15.452 I-0.238 J-2.84
N6360 X390.387 Y349.354 Z-15.6 I0.238 J2.84
N6365 X394.296 I1.955 J0.
N6370 G1 Y309.354 F1200.
N6375 G2 X392.416 I-0.94 J0.
N6380 G1 Y349.354
N6385 G2 X394.296 I0.94 J0.
N6390 G3 X395.326 Y347.809 I1.674 J0.
N6395 G2 X396.356 Y346.264 I-0.644 J-1.545
N6400 G1 Y309.354
N6405 G2 X390.356 I-3. J0.
N6410 G1 Y349.354
N6415 G2 X396.356 I3. J0.
N6420 G1 Y346.264
N6425 X396.349 Y346.222
N6430 X396.33 Y346.185
N6435 X396.3 Y346.155
N6440 X396.262 Y346.137
N6445 X396.221 Y346.131
N6450 X396.179 Y346.138
N6455 X395.564 Y346.348
N6460 X393.403 Y346.813
N6465 X393.368 Y346.816
N6470 X393.334 Y346.809
N6475 X393.303 Y346.793
N6480 X393.278 Y346.769
N6485 X393.108 Y346.56
N6490 X393.077 Y346.533
N6495 X393.04 Y346.517
N6500 X392.999 Y346.514
N6505 G2 X393.474 Y352.194 Z-15.913 I0.238 J2.84 F333.33
N6510 X392.999 Y346.514 Z-16.225 I-0.238 J-2.84
N6515 X393.474 Y352.194 Z-16.538 I0.238 J2.84
N6520 X392.999 Y346.514 Z-16.851 I-0.238 J-2.84
N6525 X393.474 Y352.194 Z-17.163 I0.238 J2.84
N6530 X392.999 Y346.514 Z-17.476 I-0.238 J-2.84
N6535 X393.474 Y352.194 Z-17.789 I0.238 J2.84
N6540 X392.999 Y346.514 Z-18.101 I-0.238 J-2.84
N6545 X393.474 Y352.194 Z-18.414 I0.238 J2.84
N6550 X392.999 Y346.514 Z-18.727 I-0.238 J-2.84
N6555 X393.474 Y352.194 Z-19.039 I0.238 J2.84
N6560 X392.999 Y346.514 Z-19.352 I-0.238 J-2.84
N6565 X390.387 Y349.354 Z-19.5 I0.238 J2.84
N6570 X394.296 I1.955 J0.
N6575 G1 Y309.354 F1200.
N6580 G2 X392.416 I-0.94 J0.
N6585 G1 Y349.354
N6590 G2 X394.296 I0.94 J0.
N6595 G3 X395.326 Y347.809 I1.674 J0.
N6600 G2 X396.356 Y346.264 I-0.644 J-1.545
N6605 G1 Y309.354
N6610 G2 X390.356 I-3. J0.
N6615 G1 Y349.354
N6620 G2 X396.356 I3. J0.
N6625 G1 Y346.264
N6630 X396.349 Y346.172 Z-19.485 F500.
N6635 X396.328 Y346.082 Z-19.471
N6640 X396.297 Y346.004 Z-19.428
N6645 X396.255 Y345.931 Z-19.385
N6650 X396.216 Y345.878 Z-19.319
N6655 X396.17 Y345.83 Z-19.253
N6660 X396.104 Y345.776 Z-19.085
N6665 X396.08 Y345.759 Z-18.9
N6670 G0 Z5.
N6675 X391.309 Y211.453
N6680 G1 Z1.6 F500.
N6685 X391.33 Y211.472 Z1.418 F333.33
N6690 X391.391 Y211.526 Z1.254
N6695 X391.49 Y211.606 Z1.122
N6700 X391.621 Y211.702 Z1.034
N6705 X391.772 Y211.799 Z1.
N6710 G2 X394.701 Y206.909 Z0.687 I1.464 J-2.445
N6715 X391.772 Y211.799 Z0.375 I-1.464 J2.445
N6720 X394.701 Y206.909 Z0.062 I1.464 J-2.445
N6725 X391.772 Y211.799 Z-0.251 I-1.464 J2.445
N6730 X394.701 Y206.909 Z-0.563 I1.464 J-2.445
N6735 X391.772 Y211.799 Z-0.876 I-1.464 J2.445
N6740 X394.701 Y206.909 Z-1.189 I1.464 J-2.445
N6745 X391.772 Y211.799 Z-1.501 I-1.464 J2.445
N6750 X394.701 Y206.909 Z-1.814 I1.464 J-2.445
N6755 X391.772 Y211.799 Z-2.127 I-1.464 J2.445
N6760 X394.701 Y206.909 Z-2.439 I1.464 J-2.445
N6765 X391.772 Y211.799 Z-2.752 I-1.464 J2.445
N6770 X394.701 Y206.909 Z-3.065 I1.464 J-2.445
N6775 X391.772 Y211.799 Z-3.377 I-1.464 J2.445
N6780 X394.701 Y206.909 Z-3.69 I1.464 J-2.445
N6785 X390.387 Y209.354 Z-3.9 I-1.464 J2.445
N6790 X394.296 I1.955 J0.
N6795 G1 Y169.354 F1200.
N6800 G2 X392.416 I-0.94 J0.
N6805 G1 Y209.354
N6810 G2 X394.296 I0.94 J0.
N6815 G3 X395.326 Y207.809 I1.674 J0.
N6820 G2 X396.356 Y206.264 I-0.644 J-1.545
N6825 G1 Y169.354
N6830 G2 X390.356 I-3. J0.
N6835 G1 Y209.354
N6840 G2 X396.356 I3. J0.
N6845 G1 Y206.264
N6850 X396.349 Y206.222
N6855 X396.33 Y206.185
N6860 X396.3 Y206.155
N6865 X396.262 Y206.137
N6870 X396.221 Y206.131
N6875 X396.179 Y206.138
N6880 X395.564 Y206.348
N6885 X393.403 Y206.813
N6890 X393.368 Y206.816
N6895 X393.334 Y206.809
N6900 X393.303 Y206.793
N6905 X393.278 Y206.769
N6910 X393.108 Y206.56
N6915 X393.077 Y206.533
N6920 X393.04 Y206.517
N6925 X392.999 Y206.514
N6930 G2 X393.474 Y212.194 Z-4.213 I0.238 J2.84 F333.33
N6935 X392.999 Y206.514 Z-4.525 I-0.238 J-2.84
N6940 X393.474 Y212.194 Z-4.838 I0.238 J2.84
N6945 X392.999 Y206.514 Z-5.151 I-0.238 J-2.84
N6950 X393.474 Y212.194 Z-5.463 I0.238 J2.84
N6955 X392.999 Y206.514 Z-5.776 I-0.238 J-2.84
N6960 X393.474 Y212.194 Z-6.089 I0.238 J2.84
N6965 X392.999 Y206.514 Z-6.401 I-0.238 J-2.84
N6970 X393.474 Y212.194 Z-6.714 I0.238 J2.84
N6975 X392.999 Y206.514 Z-7.027 I-0.238 J-2.84
N6980 X393.474 Y212.194 Z-7.339 I0.238 J2.84
N6985 X392.999 Y206.514 Z-7.652 I-0.238 J-2.84
N6990 X390.387 Y209.354 Z-7.8 I0.238 J2.84
N6995 X394.296 I1.955 J0.
N7000 G1 Y169.354 F1200.
N7005 G2 X392.416 I-0.94 J0.
N7010 G1 Y209.354
N7015 G2 X394.296 I0.94 J0.
N7020 G3 X395.326 Y207.809 I1.674 J0.
N7025 G2 X396.356 Y206.264 I-0.644 J-1.545
N7030 G1 Y169.354
N7035 G2 X390.356 I-3. J0.
N7040 G1 Y209.354
N7045 G2 X396.356 I3. J0.
N7050 G1 Y206.264
N7055 X396.349 Y206.222
N7060 X396.33 Y206.185
N7065 X396.3 Y206.155
N7070 X396.262 Y206.137
N7075 X396.221 Y206.131
N7080 X396.179 Y206.138
N7085 X395.564 Y206.348
N7090 X393.403 Y206.813
N7095 X393.368 Y206.816
N7100 X393.334 Y206.809
N7105 X393.303 Y206.793
N7110 X393.278 Y206.769
N7115 X393.108 Y206.56
N7120 X393.077 Y206.533
N7125 X393.04 Y206.517
N7130 X392.999 Y206.514
N7135 G2 X393.474 Y212.194 Z-8.113 I0.238 J2.84 F333.33
N7140 X392.999 Y206.514 Z-8.425 I-0.238 J-2.84
N7145 X393.474 Y212.194 Z-8.738 I0.238 J2.84
N7150 X392.999 Y206.514 Z-9.051 I-0.238 J-2.84
N7155 X393.474 Y212.194 Z-9.363 I0.238 J2.84
N7160 X392.999 Y206.514 Z-9.676 I-0.238 J-2.84
N7165 X393.474 Y212.194 Z-9.989 I0.238 J2.84
N7170 X392.999 Y206.514 Z-10.301 I-0.238 J-2.84
N7175 X393.474 Y212.194 Z-10.614 I0.238 J2.84
N7180 X392.999 Y206.514 Z-10.927 I-0.238 J-2.84
N7185 X393.474 Y212.194 Z-11.239 I0.238 J2.84
N7190 X392.999 Y206.514 Z-11.552 I-0.238 J-2.84
N7195 X390.387 Y209.354 Z-11.7 I0.238 J2.84
N7200 X394.296 I1.955 J0.
N7205 G1 Y169.354 F1200.
N7210 G2 X392.416 I-0.94 J0.
N7215 G1 Y209.354
N7220 G2 X394.296 I0.94 J0.
N7225 G3 X395.326 Y207.809 I1.674 J0.
N7230 G2 X396.356 Y206.264 I-0.644 J-1.545
N7235 G1 Y169.354
N7240 G2 X390.356 I-3. J0.
N7245 G1 Y209.354
N7250 G2 X396.356 I3. J0.
N7255 G1 Y206.264
N7260 X396.349 Y206.222
N7265 X396.33 Y206.185
N7270 X396.3 Y206.155
N7275 X396.262 Y206.137
N7280 X396.221 Y206.131
N7285 X396.179 Y206.138
N7290 X395.564 Y206.348
N7295 X393.403 Y206.813
N7300 X393.368 Y206.816
N7305 X393.334 Y206.809
N7310 X393.303 Y206.793
N7315 X393.278 Y206.769
N7320 X393.108 Y206.56
N7325 X393.077 Y206.533
N7330 X393.04 Y206.517
N7335 X392.999 Y206.514
N7340 G2 X393.474 Y212.194 Z-12.013 I0.238 J2.84 F333.33
N7345 X392.999 Y206.514 Z-12.325 I-0.238 J-2.84
N7350 X393.474 Y212.194 Z-12.638 I0.238 J2.84
N7355 X392.999 Y206.514 Z-12.951 I-0.238 J-2.84
N7360 X393.474 Y212.194 Z-13.263 I0.238 J2.84
N7365 X392.999 Y206.514 Z-13.576 I-0.238 J-2.84
N7370 X393.474 Y212.194 Z-13.889 I0.238 J2.84
N7375 X392.999 Y206.514 Z-14.201 I-0.238 J-2.84
N7380 X393.474 Y212.194 Z-14.514 I0.238 J2.84
N7385 X392.999 Y206.514 Z-14.827 I-0.238 J-2.84
N7390 X393.474 Y212.194 Z-15.139 I0.238 J2.84
N7395 X392.999 Y206.514 Z-15.452 I-0.238 J-2.84
N7400 X390.387 Y209.354 Z-15.6 I0.238 J2.84
N7405 X394.296 I1.955 J0.
N7410 G1 Y169.354 F1200.
N7415 G2 X392.416 I-0.94 J0.
N7420 G1 Y209.354
N7425 G2 X394.296 I0.94 J0.
N7430 G3 X395.326 Y207.809 I1.674 J0.
N7435 G2 X396.356 Y206.264 I-0.644 J-1.545
N7440 G1 Y169.354
N7445 G2 X390.356 I-3. J0.
N7450 G1 Y209.354
N7455 G2 X396.356 I3. J0.
N7460 G1 Y206.264
N7465 X396.349 Y206.222
N7470 X396.33 Y206.185
N7475 X396.3 Y206.155
N7480 X396.262 Y206.137
N7485 X396.221 Y206.131
N7490 X396.179 Y206.138
N7495 X395.564 Y206.348
N7500 X393.403 Y206.813
N7505 X393.368 Y206.816
N7510 X393.334 Y206.809
N7515 X393.303 Y206.793
N7520 X393.278 Y206.769
N7525 X393.108 Y206.56
N7530 X393.077 Y206.533
N7535 X393.04 Y206.517
N7540 X392.999 Y206.514
N7545 G2 X393.474 Y212.194 Z-15.913 I0.238 J2.84 F333.33
N7550 X392.999 Y206.514 Z-16.225 I-0.238 J-2.84
N7555 X393.474 Y212.194 Z-16.538 I0.238 J2.84
N7560 X392.999 Y206.514 Z-16.851 I-0.238 J-2.84
N7565 X393.474 Y212.194 Z-17.163 I0.238 J2.84
N7570 X392.999 Y206.514 Z-17.476 I-0.238 J-2.84
N7575 X393.474 Y212.194 Z-17.789 I0.238 J2.84
N7580 X392.999 Y206.514 Z-18.101 I-0.238 J-2.84
N7585 X393.474 Y212.194 Z-18.414 I0.238 J2.84
N7590 X392.999 Y206.514 Z-18.727 I-0.238 J-2.84
N7595 X393.474 Y212.194 Z-19.039 I0.238 J2.84
N7600 X392.999 Y206.514 Z-19.352 I-0.238 J-2.84
N7605 X390.387 Y209.354 Z-19.5 I0.238 J2.84
N7610 X394.296 I1.955 J0.
N7615 G1 Y169.354 F1200.
N7620 G2 X392.416 I-0.94 J0.
N7625 G1 Y209.354
N7630 G2 X394.296 I0.94 J0.
N7635 G3 X395.326 Y207.809 I1.674 J0.
N7640 G2 X396.356 Y206.264 I-0.644 J-1.545
N7645 G1 Y169.354
N7650 G2 X390.356 I-3. J0.
N7655 G1 Y209.354
N7660 G2 X396.356 I3. J0.
N7665 G1 Y206.264
N7670 X396.349 Y206.172 Z-19.485 F500.
N7675 X396.328 Y206.082 Z-19.471
N7680 X396.297 Y206.004 Z-19.428
N7685 X396.255 Y205.931 Z-19.385
N7690 X396.216 Y205.878 Z-19.319
N7695 X396.17 Y205.83 Z-19.253
N7700 X396.104 Y205.776 Z-19.085
N7705 X396.08 Y205.759 Z-18.9
N7710 G0 Z5.
N7715 X161.309 Y211.453
N7720 G1 Z1.6 F500.
N7725 X161.33 Y211.472 Z1.418 F333.33
N7730 X161.391 Y211.526 Z1.254
N7735 X161.49 Y211.606 Z1.122
N7740 X161.621 Y211.702 Z1.034
N7745 X161.772 Y211.799 Z1.
N7750 G2 X164.701 Y206.909 Z0.687 I1.464 J-2.445
N7755 X161.772 Y211.799 Z0.375 I-1.464 J2.445
N7760 X164.701 Y206.909 Z0.062 I1.464 J-2.445
N7765 X161.772 Y211.799 Z-0.251 I-1.464 J2.445
N7770 X164.701 Y206.909 Z-0.563 I1.464 J-2.445
N7775 X161.772 Y211.799 Z-0.876 I-1.464 J2.445
N7780 X164.701 Y206.909 Z-1.189 I1.464 J-2.445
N7785 X161.772 Y211.799 Z-1.501 I-1.464 J2.445
N7790 X164.701 Y206.909 Z-1.814 I1.464 J-2.445
N7795 X161.772 Y211.799 Z-2.127 I-1.464 J2.445
N7800 X164.701 Y206.909 Z-2.439 I1.464 J-2.445
N7805 X161.772 Y211.799 Z-2.752 I-1.464 J2.445
N7810 X164.701 Y206.909 Z-3.065 I1.464 J-2.445
N7815 X161.772 Y211.799 Z-3.377 I-1.464 J2.445
N7820 X164.701 Y206.909 Z-3.69 I1.464 J-2.445
N7825 X160.387 Y209.354 Z-3.9 I-1.464 J2.445
N7830 X164.296 I1.955 J0.
N7835 G1 Y169.354 F1200.
N7840 G2 X162.416 I-0.94 J0.
N7845 G1 Y209.354
N7850 G2 X164.296 I0.94 J0.
N7855 G3 X165.326 Y207.809 I1.674 J0.
N7860 G2 X166.356 Y206.264 I-0.644 J-1.545
N7865 G1 Y169.354
N7870 G2 X160.356 I-3. J0.
N7875 G1 Y209.354
N7880 G2 X166.356 I3. J0.
N7885 G1 Y206.264
N7890 X166.349 Y206.222
N7895 X166.33 Y206.185
N7900 X166.3 Y206.155
N7905 X166.262 Y206.137
N7910 X166.221 Y206.131
N7915 X166.179 Y206.138
N7920 X165.564 Y206.348
N7925 X163.403 Y206.813
N7930 X163.368 Y206.816
N7935 X163.334 Y206.809
N7940 X163.303 Y206.793
N7945 X163.278 Y206.769
N7950 X163.108 Y206.56
N7955 X163.077 Y206.533
N7960 X163.04 Y206.517
N7965 X162.999 Y206.514
N7970 G2 X163.474 Y212.194 Z-4.213 I0.238 J2.84 F333.33
N7975 X162.999 Y206.514 Z-4.525 I-0.238 J-2.84
N7980 X163.474 Y212.194 Z-4.838 I0.238 J2.84
N7985 X162.999 Y206.514 Z-5.151 I-0.238 J-2.84
N7990 X163.474 Y212.194 Z-5.463 I0.238 J2.84
N7995 X162.999 Y206.514 Z-5.776 I-0.238 J-2.84
N8000 X163.474 Y212.194 Z-6.089 I0.238 J2.84
N8005 X162.999 Y206.514 Z-6.401 I-0.238 J-2.84
N8010 X163.474 Y212.194 Z-6.714 I0.238 J2.84
N8015 X162.999 Y206.514 Z-7.027 I-0.238 J-2.84
N8020 X163.474 Y212.194 Z-7.339 I0.238 J2.84
N8025 X162.999 Y206.514 Z-7.652 I-0.238 J-2.84
N8030 X160.387 Y209.354 Z-7.8 I0.238 J2.84
N8035 X164.296 I1.955 J0.
N8040 G1 Y169.354 F1200.
N8045 G2 X162.416 I-0.94 J0.
N8050 G1 Y209.354
N8055 G2 X164.296 I0.94 J0.
N8060 G3 X165.326 Y207.809 I1.674 J0.
N8065 G2 X166.356 Y206.264 I-0.644 J-1.545
N8070 G1 Y169.354
N8075 G2 X160.356 I-3. J0.
N8080 G1 Y209.354
N8085 G2 X166.356 I3. J0.
N8090 G1 Y206.264
N8095 X166.349 Y206.222
N8100 X166.33 Y206.185
N8105 X166.3 Y206.155
N8110 X166.262 Y206.137
N8115 X166.221 Y206.131
N8120 X166.179 Y206.138
N8125 X165.564 Y206.348
N8130 X163.403 Y206.813
N8135 X163.368 Y206.816
N8140 X163.334 Y206.809
N8145 X163.303 Y206.793
N8150 X163.278 Y206.769
N8155 X163.108 Y206.56
N8160 X163.077 Y206.533
N8165 X163.04 Y206.517
N8170 X162.999 Y206.514
N8175 G2 X163.474 Y212.194 Z-8.113 I0.238 J2.84 F333.33
N8180 X162.999 Y206.514 Z-8.425 I-0.238 J-2.84
N8185 X163.474 Y212.194 Z-8.738 I0.238 J2.84
N8190 X162.999 Y206.514 Z-9.051 I-0.238 J-2.84
N8195 X163.474 Y212.194 Z-9.363 I0.238 J2.84
N8200 X162.999 Y206.514 Z-9.676 I-0.238 J-2.84
N8205 X163.474 Y212.194 Z-9.989 I0.238 J2.84
N8210 X162.999 Y206.514 Z-10.301 I-0.238 J-2.84
N8215 X163.474 Y212.194 Z-10.614 I0.238 J2.84
N8220 X162.999 Y206.514 Z-10.927 I-0.238 J-2.84
N8225 X163.474 Y212.194 Z-11.239 I0.238 J2.84
N8230 X162.999 Y206.514 Z-11.552 I-0.238 J-2.84
N8235 X160.387 Y209.354 Z-11.7 I0.238 J2.84
N8240 X164.296 I1.955 J0.
N8245 G1 Y169.354 F1200.
N8250 G2 X162.416 I-0.94 J0.
N8255 G1 Y209.354
N8260 G2 X164.296 I0.94 J0.
N8265 G3 X165.326 Y207.809 I1.674 J0.
N8270 G2 X166.356 Y206.264 I-0.644 J-1.545
N8275 G1 Y169.354
N8280 G2 X160.356 I-3. J0.
N8285 G1 Y209.354
N8290 G2 X166.356 I3. J0.
N8295 G1 Y206.264
N8300 X166.349 Y206.222
N8305 X166.33 Y206.185
N8310 X166.3 Y206.155
N8315 X166.262 Y206.137
N8320 X166.221 Y206.131
N8325 X166.179 Y206.138
N8330 X165.564 Y206.348
N8335 X163.403 Y206.813
N8340 X163.368 Y206.816
N8345 X163.334 Y206.809
N8350 X163.303 Y206.793
N8355 X163.278 Y206.769
N8360 X163.108 Y206.56
N8365 X163.077 Y206.533
N8370 X163.04 Y206.517
N8375 X162.999 Y206.514
N8380 G2 X163.474 Y212.194 Z-12.013 I0.238 J2.84 F333.33
N8385 X162.999 Y206.514 Z-12.325 I-0.238 J-2.84
N8390 X163.474 Y212.194 Z-12.638 I0.238 J2.84
N8395 X162.999 Y206.514 Z-12.951 I-0.238 J-2.84
N8400 X163.474 Y212.194 Z-13.263 I0.238 J2.84
N8405 X162.999 Y206.514 Z-13.576 I-0.238 J-2.84
N8410 X163.474 Y212.194 Z-13.889 I0.238 J2.84
N8415 X162.999 Y206.514 Z-14.201 I-0.238 J-2.84
N8420 X163.474 Y212.194 Z-14.514 I0.238 J2.84
N8425 X162.999 Y206.514 Z-14.827 I-0.238 J-2.84
N8430 X163.474 Y212.194 Z-15.139 I0.238 J2.84
N8435 X162.999 Y206.514 Z-15.452 I-0.238 J-2.84
N8440 X160.387 Y209.354 Z-15.6 I0.238 J2.84
N8445 X164.296 I1.955 J0.
N8450 G1 Y169.354 F1200.
N8455 G2 X162.416 I-0.94 J0.
N8460 G1 Y209.354
N8465 G2 X164.296 I0.94 J0.
N8470 G3 X165.326 Y207.809 I1.674 J0.
N8475 G2 X166.356 Y206.264 I-0.644 J-1.545
N8480 G1 Y169.354
N8485 G2 X160.356 I-3. J0.
N8490 G1 Y209.354
N8495 G2 X166.356 I3. J0.
N8500 G1 Y206.264
N8505 X166.349 Y206.222
N8510 X166.33 Y206.185
N8515 X166.3 Y206.155
N8520 X166.262 Y206.137
N8525 X166.221 Y206.131
N8530 X166.179 Y206.138
N8535 X165.564 Y206.348
N8540 X163.403 Y206.813
N8545 X163.368 Y206.816
N8550 X163.334 Y206.809
N8555 X163.303 Y206.793
N8560 X163.278 Y206.769
N8565 X163.108 Y206.56
N8570 X163.077 Y206.533
N8575 X163.04 Y206.517
N8580 X162.999 Y206.514
N8585 G2 X163.474 Y212.194 Z-15.913 I0.238 J2.84 F333.33
N8590 X162.999 Y206.514 Z-16.225 I-0.238 J-2.84
N8595 X163.474 Y212.194 Z-16.538 I0.238 J2.84
N8600 X162.999 Y206.514 Z-16.851 I-0.238 J-2.84
N8605 X163.474 Y212.194 Z-17.163 I0.238 J2.84
N8610 X162.999 Y206.514 Z-17.476 I-0.238 J-2.84
N8615 X163.474 Y212.194 Z-17.789 I0.238 J2.84
N8620 X162.999 Y206.514 Z-18.101 I-0.238 J-2.84
N8625 X163.474 Y212.194 Z-18.414 I0.238 J2.84
N8630 X162.999 Y206.514 Z-18.727 I-0.238 J-2.84
N8635 X163.474 Y212.194 Z-19.039 I0.238 J2.84
N8640 X162.999 Y206.514 Z-19.352 I-0.238 J-2.84
N8645 X160.387 Y209.354 Z-19.5 I0.238 J2.84
N8650 X164.296 I1.955 J0.
N8655 G1 Y169.354 F1200.
N8660 G2 X162.416 I-0.94 J0.
N8665 G1 Y209.354
N8670 G2 X164.296 I0.94 J0.
N8675 G3 X165.326 Y207.809 I1.674 J0.
N8680 G2 X166.356 Y206.264 I-0.644 J-1.545
N8685 G1 Y169.354
N8690 G2 X160.356 I-3. J0.
N8695 G1 Y209.354
N8700 G2 X166.356 I3. J0.
N8705 G1 Y206.264
N8710 X166.349 Y206.172 Z-19.485 F500.
N8715 X166.328 Y206.082 Z-19.471
N8720 X166.297 Y206.004 Z-19.428
N8725 X166.255 Y205.931 Z-19.385
N8730 X166.216 Y205.878 Z-19.319
N8735 X166.17 Y205.83 Z-19.253
N8740 X166.104 Y205.776 Z-19.085
N8745 X166.08 Y205.759 Z-18.9
N8750 G0 Z5.
N8755 X161.309 Y351.453
N8760 G1 Z1.6 F500.
N8765 X161.33 Y351.472 Z1.418 F333.33
N8770 X161.391 Y351.526 Z1.254
N8775 X161.49 Y351.606 Z1.122
N8780 X161.621 Y351.702 Z1.034
N8785 X161.772 Y351.799 Z1.
N8790 G2 X164.701 Y346.909 Z0.687 I1.464 J-2.445
N8795 X161.772 Y351.799 Z0.375 I-1.464 J2.445
N8800 X164.701 Y346.909 Z0.062 I1.464 J-2.445
N8805 X161.772 Y351.799 Z-0.251 I-1.464 J2.445
N8810 X164.701 Y346.909 Z-0.563 I1.464 J-2.445
N8815 X161.772 Y351.799 Z-0.876 I-1.464 J2.445
N8820 X164.701 Y346.909 Z-1.189 I1.464 J-2.445
N8825 X161.772 Y351.799 Z-1.501 I-1.464 J2.445
N8830 X164.701 Y346.909 Z-1.814 I1.464 J-2.445
N8835 X161.772 Y351.799 Z-2.127 I-1.464 J2.445
N8840 X164.701 Y346.909 Z-2.439 I1.464 J-2.445
N8845 X161.772 Y351.799 Z-2.752 I-1.464 J2.445
N8850 X164.701 Y346.909 Z-3.065 I1.464 J-2.445
N8855 X161.772 Y351.799 Z-3.377 I-1.464 J2.445
N8860 X164.701 Y346.909 Z-3.69 I1.464 J-2.445
N8865 X160.387 Y349.354 Z-3.9 I-1.464 J2.445
N8870 X164.296 I1.955 J0.
N8875 G1 Y309.354 F1200.
N8880 G2 X162.416 I-0.94 J0.
N8885 G1 Y349.354
N8890 G2 X164.296 I0.94 J0.
N8895 G3 X165.326 Y347.809 I1.674 J0.
N8900 G2 X166.356 Y346.264 I-0.644 J-1.545
N8905 G1 Y309.354
N8910 G2 X160.356 I-3. J0.
N8915 G1 Y349.354
N8920 G2 X166.356 I3. J0.
N8925 G1 Y346.264
N8930 X166.349 Y346.222
N8935 X166.33 Y346.185
N8940 X166.3 Y346.155
N8945 X166.262 Y346.137
N8950 X166.221 Y346.131
N8955 X166.179 Y346.138
N8960 X165.564 Y346.348
N8965 X163.403 Y346.813
N8970 X163.368 Y346.816
N8975 X163.334 Y346.809
N8980 X163.303 Y346.793
N8985 X163.278 Y346.769
N8990 X163.108 Y346.56
N8995 X163.077 Y346.533
N9000 X163.04 Y346.517
N9005 X162.999 Y346.514
N9010 G2 X163.474 Y352.194 Z-4.213 I0.238 J2.84 F333.33
N9015 X162.999 Y346.514 Z-4.525 I-0.238 J-2.84
N9020 X163.474 Y352.194 Z-4.838 I0.238 J2.84
N9025 X162.999 Y346.514 Z-5.151 I-0.238 J-2.84
N9030 X163.474 Y352.194 Z-5.463 I0.238 J2.84
N9035 X162.999 Y346.514 Z-5.776 I-0.238 J-2.84
N9040 X163.474 Y352.194 Z-6.089 I0.238 J2.84
N9045 X162.999 Y346.514 Z-6.401 I-0.238 J-2.84
N9050 X163.474 Y352.194 Z-6.714 I0.238 J2.84
N9055 X162.999 Y346.514 Z-7.027 I-0.238 J-2.84
N9060 X163.474 Y352.194 Z-7.339 I0.238 J2.84
N9065 X162.999 Y346.514 Z-7.652 I-0.238 J-2.84
N9070 X160.387 Y349.354 Z-7.8 I0.238 J2.84
N9075 X164.296 I1.955 J0.
N9080 G1 Y309.354 F1200.
N9085 G2 X162.416 I-0.94 J0.
N9090 G1 Y349.354
N9095 G2 X164.296 I0.94 J0.
N9100 G3 X165.326 Y347.809 I1.674 J0.
N9105 G2 X166.356 Y346.264 I-0.644 J-1.545
N9110 G1 Y309.354
N9115 G2 X160.356 I-3. J0.
N9120 G1 Y349.354
N9125 G2 X166.356 I3. J0.
N9130 G1 Y346.264
N9135 X166.349 Y346.222
N9140 X166.33 Y346.185
N9145 X166.3 Y346.155
N9150 X166.262 Y346.137
N9155 X166.221 Y346.131
N9160 X166.179 Y346.138
N9165 X165.564 Y346.348
N9170 X163.403 Y346.813
N9175 X163.368 Y346.816
N9180 X163.334 Y346.809
N9185 X163.303 Y346.793
N9190 X163.278 Y346.769
N9195 X163.108 Y346.56
N9200 X163.077 Y346.533
N9205 X163.04 Y346.517
N9210 X162.999 Y346.514
N9215 G2 X163.474 Y352.194 Z-8.113 I0.238 J2.84 F333.33
N9220 X162.999 Y346.514 Z-8.425 I-0.238 J-2.84
N9225 X163.474 Y352.194 Z-8.738 I0.238 J2.84
N9230 X162.999 Y346.514 Z-9.051 I-0.238 J-2.84
N9235 X163.474 Y352.194 Z-9.363 I0.238 J2.84
N9240 X162.999 Y346.514 Z-9.676 I-0.238 J-2.84
N9245 X163.474 Y352.194 Z-9.989 I0.238 J2.84
N9250 X162.999 Y346.514 Z-10.301 I-0.238 J-2.84
N9255 X163.474 Y352.194 Z-10.614 I0.238 J2.84
N9260 X162.999 Y346.514 Z-10.927 I-0.238 J-2.84
N9265 X163.474 Y352.194 Z-11.239 I0.238 J2.84
N9270 X162.999 Y346.514 Z-11.552 I-0.238 J-2.84
N9275 X160.387 Y349.354 Z-11.7 I0.238 J2.84
N9280 X164.296 I1.955 J0.
N9285 G1 Y309.354 F1200.
N9290 G2 X162.416 I-0.94 J0.
N9295 G1 Y349.354
N9300 G2 X164.296 I0.94 J0.
N9305 G3 X165.326 Y347.809 I1.674 J0.
N9310 G2 X166.356 Y346.264 I-0.644 J-1.545
N9315 G1 Y309.354
N9320 G2 X160.356 I-3. J0.
N9325 G1 Y349.354
N9330 G2 X166.356 I3. J0.
N9335 G1 Y346.264
N9340 X166.349 Y346.222
N9345 X166.33 Y346.185
N9350 X166.3 Y346.155
N9355 X166.262 Y346.137
N9360 X166.221 Y346.131
N9365 X166.179 Y346.138
N9370 X165.564 Y346.348
N9375 X163.403 Y346.813
N9380 X163.368 Y346.816
N9385 X163.334 Y346.809
N9390 X163.303 Y346.793
N9395 X163.278 Y346.769
N9400 X163.108 Y346.56
N9405 X163.077 Y346.533
N9410 X163.04 Y346.517
N9415 X162.999 Y346.514
N9420 G2 X163.474 Y352.194 Z-12.013 I0.238 J2.84 F333.33
N9425 X162.999 Y346.514 Z-12.325 I-0.238 J-2.84
N9430 X163.474 Y352.194 Z-12.638 I0.238 J2.84
N9435 X162.999 Y346.514 Z-12.951 I-0.238 J-2.84
N9440 X163.474 Y352.194 Z-13.263 I0.238 J2.84
N9445 X162.999 Y346.514 Z-13.576 I-0.238 J-2.84
N9450 X163.474 Y352.194 Z-13.889 I0.238 J2.84
N9455 X162.999 Y346.514 Z-14.201 I-0.238 J-2.84
N9460 X163.474 Y352.194 Z-14.514 I0.238 J2.84
N9465 X162.999 Y346.514 Z-14.827 I-0.238 J-2.84
N9470 X163.474 Y352.194 Z-15.139 I0.238 J2.84
N9475 X162.999 Y346.514 Z-15.452 I-0.238 J-2.84
N9480 X160.387 Y349.354 Z-15.6 I0.238 J2.84
N9485 X164.296 I1.955 J0.
N9490 G1 Y309.354 F1200.
N9495 G2 X162.416 I-0.94 J0.
N9500 G1 Y349.354
N9505 G2 X164.296 I0.94 J0.
N9510 G3 X165.326 Y347.809 I1.674 J0.
N9515 G2 X166.356 Y346.264 I-0.644 J-1.545
N9520 G1 Y309.354
N9525 G2 X160.356 I-3. J0.
N9530 G1 Y349.354
N9535 G2 X166.356 I3. J0.
N9540 G1 Y346.264
N9545 X166.349 Y346.222
N9550 X166.33 Y346.185
N9555 X166.3 Y346.155
N9560 X166.262 Y346.137
N9565 X166.221 Y346.131
N9570 X166.179 Y346.138
N9575 X165.564 Y346.348
N9580 X163.403 Y346.813
N9585 X163.368 Y346.816
N9590 X163.334 Y346.809
N9595 X163.303 Y346.793
N9600 X163.278 Y346.769
N9605 X163.108 Y346.56
N9610 X163.077 Y346.533
N9615 X163.04 Y346.517
N9620 X162.999 Y346.514
N9625 G2 X163.474 Y352.194 Z-15.913 I0.238 J2.84 F333.33
N9630 X162.999 Y346.514 Z-16.225 I-0.238 J-2.84
N9635 X163.474 Y352.194 Z-16.538 I0.238 J2.84
N9640 X162.999 Y346.514 Z-16.851 I-0.238 J-2.84
N9645 X163.474 Y352.194 Z-17.163 I0.238 J2.84
N9650 X162.999 Y346.514 Z-17.476 I-0.238 J-2.84
N9655 X163.474 Y352.194 Z-17.789 I0.238 J2.84
N9660 X162.999 Y346.514 Z-18.101 I-0.238 J-2.84
N9665 X163.474 Y352.194 Z-18.414 I0.238 J2.84
N9670 X162.999 Y346.514 Z-18.727 I-0.238 J-2.84
N9675 X163.474 Y352.194 Z-19.039 I0.238 J2.84
N9680 X162.999 Y346.514 Z-19.352 I-0.238 J-2.84
N9685 X160.387 Y349.354 Z-19.5 I0.238 J2.84
N9690 X164.296 I1.955 J0.
N9695 G1 Y309.354 F1200.
N9700 G2 X162.416 I-0.94 J0.
N9705 G1 Y349.354
N9710 G2 X164.296 I0.94 J0.
N9715 G3 X165.326 Y347.809 I1.674 J0.
N9720 G2 X166.356 Y346.264 I-0.644 J-1.545
N9725 G1 Y309.354
N9730 G2 X160.356 I-3. J0.
N9735 G1 Y349.354
N9740 G2 X166.356 I3. J0.
N9745 G1 Y346.264
N9750 X166.349 Y346.172 Z-19.485 F500.
N9755 X166.328 Y346.082 Z-19.471
N9760 X166.297 Y346.004 Z-19.428
N9765 X166.255 Y345.931 Z-19.385
N9770 X166.216 Y345.878 Z-19.319
N9775 X166.17 Y345.83 Z-19.253
N9780 X166.104 Y345.776 Z-19.085
N9785 X166.08 Y345.759 Z-18.9
N9790 G0 Z5.
N9795 X701.577 Y645.856
N9800 G1 Z1.6 F500.
N9805 X701.558 Y645.877 Z1.418 F333.33
N9810 X701.504 Y645.938 Z1.254
N9815 X701.424 Y646.037 Z1.122
N9820 X701.328 Y646.168 Z1.034
N9825 X701.231 Y646.319 Z1.
N9830 G2 X706.121 Y649.248 Z0.687 I2.445 J1.464
N9835 X701.231 Y646.319 Z0.375 I-2.445 J-1.464
N9840 X706.121 Y649.248 Z0.062 I2.445 J1.464
N9845 X701.231 Y646.319 Z-0.251 I-2.445 J-1.464
N9850 X706.121 Y649.248 Z-0.563 I2.445 J1.464
N9855 X701.231 Y646.319 Z-0.876 I-2.445 J-1.464
N9860 X706.121 Y649.248 Z-1.189 I2.445 J1.464
N9865 X701.231 Y646.319 Z-1.501 I-2.445 J-1.464
N9870 X706.121 Y649.248 Z-1.814 I2.445 J1.464
N9875 X701.231 Y646.319 Z-2.127 I-2.445 J-1.464
N9880 X706.121 Y649.248 Z-2.439 I2.445 J1.464
N9885 X701.231 Y646.319 Z-2.752 I-2.445 J-1.464
N9890 X706.121 Y649.248 Z-3.065 I2.445 J1.464
N9895 X701.231 Y646.319 Z-3.377 I-2.445 J-1.464
N9900 X706.121 Y649.248 Z-3.69 I2.445 J1.464
N9905 X703.676 Y644.934 Z-3.9 I-2.445 J-1.464
N9910 Y648.843 I0. J1.955
N9915 G1 X743.676 F1200.
N9920 G2 Y646.963 I0. J-0.94
N9925 G1 X703.676
N9930 G2 Y648.843 I0. J0.94
N9935 G3 X705.221 Y649.873 I0. J1.674
N9940 G2 X706.766 Y650.903 I1.545 J-0.644
N9945 G1 X743.676
N9950 G2 Y644.903 I0. J-3.
N9955 G1 X703.676
N9960 G2 Y650.903 I0. J3.
N9965 G1 X706.766
N9970 X706.808 Y650.896
N9975 X706.845 Y650.877
N9980 X706.875 Y650.847
N9985 X706.893 Y650.809
N9990 X706.899 Y650.768
N9995 X706.892 Y650.726
N10000 X706.682 Y650.111
N10005 X706.217 Y647.95
N10010 X706.214 Y647.915
N10015 X706.221 Y647.881
N10020 X706.237 Y647.85
N10025 X706.261 Y647.825
N10030 X706.47 Y647.655
N10035 X706.497 Y647.624
N10040 X706.513 Y647.587
N10045 X706.516 Y647.546
N10050 G2 X700.836 Y648.021 Z-4.213 I-2.84 J0.238 F333.33
N10055 X706.516 Y647.546 Z-4.525 I2.84 J-0.238
N10060 X700.836 Y648.021 Z-4.838 I-2.84 J0.238
N10065 X706.516 Y647.546 Z-5.151 I2.84 J-0.238
N10070 X700.836 Y648.021 Z-5.463 I-2.84 J0.238
N10075 X706.516 Y647.546 Z-5.776 I2.84 J-0.238
N10080 X700.836 Y648.021 Z-6.089 I-2.84 J0.238
N10085 X706.516 Y647.546 Z-6.401 I2.84 J-0.238
N10090 X700.836 Y648.021 Z-6.714 I-2.84 J0.238
N10095 X706.516 Y647.546 Z-7.027 I2.84 J-0.238
N10100 X700.836 Y648.021 Z-7.339 I-2.84 J0.238
N10105 X706.516 Y647.546 Z-7.652 I2.84 J-0.238
N10110 X703.676 Y644.934 Z-7.8 I-2.84 J0.238
N10115 Y648.843 I0. J1.955
N10120 G1 X743.676 F1200.
N10125 G2 Y646.963 I0. J-0.94
N10130 G1 X703.676
N10135 G2 Y648.843 I0. J0.94
N10140 G3 X705.221 Y649.873 I0. J1.674
N10145 G2 X706.766 Y650.903 I1.545 J-0.644
N10150 G1 X743.676
N10155 G2 Y644.903 I0. J-3.
N10160 G1 X703.676
N10165 G2 Y650.903 I0. J3.
N10170 G1 X706.766
N10175 X706.808 Y650.896
N10180 X706.845 Y650.877
N10185 X706.875 Y650.847
N10190 X706.893 Y650.809
N10195 X706.899 Y650.768
N10200 X706.892 Y650.726
N10205 X706.682 Y650.111
N10210 X706.217 Y647.95
N10215 X706.214 Y647.915
N10220 X706.221 Y647.881
N10225 X706.237 Y647.85
N10230 X706.261 Y647.825
N10235 X706.47 Y647.655
N10240 X706.497 Y647.624
N10245 X706.513 Y647.587
N10250 X706.516 Y647.546
N10255 G2 X700.836 Y648.021 Z-8.113 I-2.84 J0.238 F333.33
N10260 X706.516 Y647.546 Z-8.425 I2.84 J-0.238
N10265 X700.836 Y648.021 Z-8.738 I-2.84 J0.238
N10270 X706.516 Y647.546 Z-9.051 I2.84 J-0.238
N10275 X700.836 Y648.021 Z-9.363 I-2.84 J0.238
N10280 X706.516 Y647.546 Z-9.676 I2.84 J-0.238
N10285 X700.836 Y648.021 Z-9.989 I-2.84 J0.238
N10290 X706.516 Y647.546 Z-10.301 I2.84 J-0.238
N10295 X700.836 Y648.021 Z-10.614 I-2.84 J0.238
N10300 X706.516 Y647.546 Z-10.927 I2.84 J-0.238
N10305 X700.836 Y648.021 Z-11.239 I-2.84 J0.238
N10310 X706.516 Y647.546 Z-11.552 I2.84 J-0.238
N10315 X703.676 Y644.934 Z-11.7 I-2.84 J0.238
N10320 Y648.843 I0. J1.955
N10325 G1 X743.676 F1200.
N10330 G2 Y646.963 I0. J-0.94
N10335 G1 X703.676
N10340 G2 Y648.843 I0. J0.94
N10345 G3 X705.221 Y649.873 I0. J1.674
N10350 G2 X706.766 Y650.903 I1.545 J-0.644
N10355 G1 X743.676
N10360 G2 Y644.903 I0. J-3.
N10365 G1 X703.676
N10370 G2 Y650.903 I0. J3.
N10375 G1 X706.766
N10380 X706.808 Y650.896
N10385 X706.845 Y650.877
N10390 X706.875 Y650.847
N10395 X706.893 Y650.809
N10400 X706.899 Y650.768
N10405 X706.892 Y650.726
N10410 X706.682 Y650.111
N10415 X706.217 Y647.95
N10420 X706.214 Y647.915
N10425 X706.221 Y647.881
N10430 X706.237 Y647.85
N10435 X706.261 Y647.825
N10440 X706.47 Y647.655
N10445 X706.497 Y647.624
N10450 X706.513 Y647.587
N10455 X706.516 Y647.546
N10460 G2 X700.836 Y648.021 Z-12.013 I-2.84 J0.238 F333.33
N10465 X706.516 Y647.546 Z-12.325 I2.84 J-0.238
N10470 X700.836 Y648.021 Z-12.638 I-2.84 J0.238
N10475 X706.516 Y647.546 Z-12.951 I2.84 J-0.238
N10480 X700.836 Y648.021 Z-13.263 I-2.84 J0.238
N10485 X706.516 Y647.546 Z-13.576 I2.84 J-0.238
N10490 X700.836 Y648.021 Z-13.889 I-2.84 J0.238
N10495 X706.516 Y647.546 Z-14.201 I2.84 J-0.238
N10500 X700.836 Y648.021 Z-14.514 I-2.84 J0.238
N10505 X706.516 Y647.546 Z-14.827 I2.84 J-0.238
N10510 X700.836 Y648.021 Z-15.139 I-2.84 J0.238
N10515 X706.516 Y647.546 Z-15.452 I2.84 J-0.238
N10520 X703.676 Y644.934 Z-15.6 I-2.84 J0.238
N10525 Y648.843 I0. J1.955
N10530 G1 X743.676 F1200.
N10535 G2 Y646.963 I0. J-0.94
N10540 G1 X703.676
N10545 G2 Y648.843 I0. J0.94
N10550 G3 X705.221 Y649.873 I0. J1.674
N10555 G2 X706.766 Y650.903 I1.545 J-0.644
N10560 G1 X743.676
N10565 G2 Y644.903 I0. J-3.
N10570 G1 X703.676
N10575 G2 Y650.903 I0. J3.
N10580 G1 X706.766
N10585 X706.808 Y650.896
N10590 X706.845 Y650.877
N10595 X706.875 Y650.847
N10600 X706.893 Y650.809
N10605 X706.899 Y650.768
N10610 X706.892 Y650.726
N10615 X706.682 Y650.111
N10620 X706.217 Y647.95
N10625 X706.214 Y647.915
N10630 X706.221 Y647.881
N10635 X706.237 Y647.85
N10640 X706.261 Y647.825
N10645 X706.47 Y647.655
N10650 X706.497 Y647.624
N10655 X706.513 Y647.587
N10660 X706.516 Y647.546
N10665 G2 X700.836 Y648.021 Z-15.913 I-2.84 J0.238 F333.33
N10670 X706.516 Y647.546 Z-16.225 I2.84 J-0.238
N10675 X700.836 Y648.021 Z-16.538 I-2.84 J0.238
N10680 X706.516 Y647.546 Z-16.851 I2.84 J-0.238
N10685 X700.836 Y648.021 Z-17.163 I-2.84 J0.238
N10690 X706.516 Y647.546 Z-17.476 I2.84 J-0.238
N10695 X700.836 Y648.021 Z-17.789 I-2.84 J0.238
N10700 X706.516 Y647.546 Z-18.101 I2.84 J-0.238
N10705 X700.836 Y648.021 Z-18.414 I-2.84 J0.238
N10710 X706.516 Y647.546 Z-18.727 I2.84 J-0.238
N10715 X700.836 Y648.021 Z-19.039 I-2.84 J0.238
N10720 X706.516 Y647.546 Z-19.352 I2.84 J-0.238
N10725 X703.676 Y644.934 Z-19.5 I-2.84 J0.238
N10730 Y648.843 I0. J1.955
N10735 G1 X743.676 F1200.
N10740 G2 Y646.963 I0. J-0.94
N10745 G1 X703.676
N10750 G2 Y648.843 I0. J0.94
N10755 G3 X705.221 Y649.873 I0. J1.674
N10760 G2 X706.766 Y650.903 I1.545 J-0.644
N10765 G1 X743.676
N10770 G2 Y644.903 I0. J-3.
N10775 G1 X703.676
N10780 G2 Y650.903 I0. J3.
N10785 G1 X706.766
N10790 X706.858 Y650.896 Z-19.485 F500.
N10795 X706.948 Y650.875 Z-19.471
N10800 X707.026 Y650.844 Z-19.428
N10805 X707.099 Y650.802 Z-19.385
N10810 X707.152 Y650.763 Z-19.319
N10815 X707.2 Y650.717 Z-19.253
N10820 X707.254 Y650.651 Z-19.085
N10825 X707.271 Y650.627 Z-18.9
N10830 G0 Z5.
N10835 X841.577 Y645.856
N10840 G1 Z1.6 F500.
N10845 X841.558 Y645.877 Z1.418 F333.33
N10850 X841.504 Y645.938 Z1.254
N10855 X841.424 Y646.037 Z1.122
N10860 X841.328 Y646.168 Z1.034
N10865 X841.231 Y646.319 Z1.
N10870 G2 X846.121 Y649.248 Z0.687 I2.445 J1.464
N10875 X841.231 Y646.319 Z0.375 I-2.445 J-1.464
N10880 X846.121 Y649.248 Z0.062 I2.445 J1.464
N10885 X841.231 Y646.319 Z-0.251 I-2.445 J-1.464
N10890 X846.121 Y649.248 Z-0.563 I2.445 J1.464
N10895 X841.231 Y646.319 Z-0.876 I-2.445 J-1.464
N10900 X846.121 Y649.248 Z-1.189 I2.445 J1.464
N10905 X841.231 Y646.319 Z-1.501 I-2.445 J-1.464
N10910 X846.121 Y649.248 Z-1.814 I2.445 J1.464
N10915 X841.231 Y646.319 Z-2.127 I-2.445 J-1.464
N10920 X846.121 Y649.248 Z-2.439 I2.445 J1.464
N10925 X841.231 Y646.319 Z-2.752 I-2.445 J-1.464
N10930 X846.121 Y649.248 Z-3.065 I2.445 J1.464
N10935 X841.231 Y646.319 Z-3.377 I-2.445 J-1.464
N10940 X846.121 Y649.248 Z-3.69 I2.445 J1.464
N10945 X843.676 Y644.934 Z-3.9 I-2.445 J-1.464
N10950 Y648.843 I0. J1.955
N10955 G1 X883.676 F1200.
N10960 G2 Y646.963 I0. J-0.94
N10965 G1 X843.676
N10970 G2 Y648.843 I0. J0.94
N10975 G3 X845.221 Y649.873 I0. J1.674
N10980 G2 X846.766 Y650.903 I1.545 J-0.644
N10985 G1 X883.676
N10990 G2 Y644.903 I0. J-3.
N10995 G1 X843.676
N11000 G2 Y650.903 I0. J3.
N11005 G1 X846.766
N11010 X846.808 Y650.896
N11015 X846.845 Y650.877
N11020 X846.875 Y650.847
N11025 X846.893 Y650.809
N11030 X846.899 Y650.768
N11035 X846.892 Y650.726
N11040 X846.682 Y650.111
N11045 X846.217 Y647.95
N11050 X846.214 Y647.915
N11055 X846.221 Y647.881
N11060 X846.237 Y647.85
N11065 X846.261 Y647.825
N11070 X846.47 Y647.655
N11075 X846.497 Y647.624
N11080 X846.513 Y647.587
N11085 X846.516 Y647.546
N11090 G2 X840.836 Y648.021 Z-4.213 I-2.84 J0.238 F333.33
N11095 X846.516 Y647.546 Z-4.525 I2.84 J-0.238
N11100 X840.836 Y648.021 Z-4.838 I-2.84 J0.238
N11105 X846.516 Y647.546 Z-5.151 I2.84 J-0.238
N11110 X840.836 Y648.021 Z-5.463 I-2.84 J0.238
N11115 X846.516 Y647.546 Z-5.776 I2.84 J-0.238
N11120 X840.836 Y648.021 Z-6.089 I-2.84 J0.238
N11125 X846.516 Y647.546 Z-6.401 I2.84 J-0.238
N11130 X840.836 Y648.021 Z-6.714 I-2.84 J0.238
N11135 X846.516 Y647.546 Z-7.027 I2.84 J-0.238
N11140 X840.836 Y648.021 Z-7.339 I-2.84 J0.238
N11145 X846.516 Y647.546 Z-7.652 I2.84 J-0.238
N11150 X843.676 Y644.934 Z-7.8 I-2.84 J0.238
N11155 Y648.843 I0. J1.955
N11160 G1 X883.676 F1200.
N11165 G2 Y646.963 I0. J-0.94
N11170 G1 X843.676
N11175 G2 Y648.843 I0. J0.94
N11180 G3 X845.221 Y649.873 I0. J1.674
N11185 G2 X846.766 Y650.903 I1.545 J-0.644
N11190 G1 X883.676
N11195 G2 Y644.903 I0. J-3.
N11200 G1 X843.676
N11205 G2 Y650.903 I0. J3.
N11210 G1 X846.766
N11215 X846.808 Y650.896
N11220 X846.845 Y650.877
N11225 X846.875 Y650.847
N11230 X846.893 Y650.809
N11235 X846.899 Y650.768
N11240 X846.892 Y650.726
N11245 X846.682 Y650.111
N11250 X846.217 Y647.95
N11255 X846.214 Y647.915
N11260 X846.221 Y647.881
N11265 X846.237 Y647.85
N11270 X846.261 Y647.825
N11275 X846.47 Y647.655
N11280 X846.497 Y647.624
N11285 X846.513 Y647.587
N11290 X846.516 Y647.546
N11295 G2 X840.836 Y648.021 Z-8.113 I-2.84 J0.238 F333.33
N11300 X846.516 Y647.546 Z-8.425 I2.84 J-0.238
N11305 X840.836 Y648.021 Z-8.738 I-2.84 J0.238
N11310 X846.516 Y647.546 Z-9.051 I2.84 J-0.238
N11315 X840.836 Y648.021 Z-9.363 I-2.84 J0.238
N11320 X846.516 Y647.546 Z-9.676 I2.84 J-0.238
N11325 X840.836 Y648.021 Z-9.989 I-2.84 J0.238
N11330 X846.516 Y647.546 Z-10.301 I2.84 J-0.238
N11335 X840.836 Y648.021 Z-10.614 I-2.84 J0.238
N11340 X846.516 Y647.546 Z-10.927 I2.84 J-0.238
N11345 X840.836 Y648.021 Z-11.239 I-2.84 J0.238
N11350 X846.516 Y647.546 Z-11.552 I2.84 J-0.238
N11355 X843.676 Y644.934 Z-11.7 I-2.84 J0.238
N11360 Y648.843 I0. J1.955
N11365 G1 X883.676 F1200.
N11370 G2 Y646.963 I0. J-0.94
N11375 G1 X843.676
N11380 G2 Y648.843 I0. J0.94
N11385 G3 X845.221 Y649.873 I0. J1.674
N11390 G2 X846.766 Y650.903 I1.545 J-0.644
N11395 G1 X883.676
N11400 G2 Y644.903 I0. J-3.
N11405 G1 X843.676
N11410 G2 Y650.903 I0. J3.
N11415 G1 X846.766
N11420 X846.808 Y650.896
N11425 X846.845 Y650.877
N11430 X846.875 Y650.847
N11435 X846.893 Y650.809
N11440 X846.899 Y650.768
N11445 X846.892 Y650.726
N11450 X846.682 Y650.111
N11455 X846.217 Y647.95
N11460 X846.214 Y647.915
N11465 X846.221 Y647.881
N11470 X846.237 Y647.85
N11475 X846.261 Y647.825
N11480 X846.47 Y647.655
N11485 X846.497 Y647.624
N11490 X846.513 Y647.587
N11495 X846.516 Y647.546
N11500 G2 X840.836 Y648.021 Z-12.013 I-2.84 J0.238 F333.33
N11505 X846.516 Y647.546 Z-12.325 I2.84 J-0.238
N11510 X840.836 Y648.021 Z-12.638 I-2.84 J0.238
N11515 X846.516 Y647.546 Z-12.951 I2.84 J-0.238
N11520 X840.836 Y648.021 Z-13.263 I-2.84 J0.238
N11525 X846.516 Y647.546 Z-13.576 I2.84 J-0.238
N11530 X840.836 Y648.021 Z-13.889 I-2.84 J0.238
N11535 X846.516 Y647.546 Z-14.201 I2.84 J-0.238
N11540 X840.836 Y648.021 Z-14.514 I-2.84 J0.238
N11545 X846.516 Y647.546 Z-14.827 I2.84 J-0.238
N11550 X840.836 Y648.021 Z-15.139 I-2.84 J0.238
N11555 X846.516 Y647.546 Z-15.452 I2.84 J-0.238
N11560 X843.676 Y644.934 Z-15.6 I-2.84 J0.238
N11565 Y648.843 I0. J1.955
N11570 G1 X883.676 F1200.
N11575 G2 Y646.963 I0. J-0.94
N11580 G1 X843.676
N11585 G2 Y648.843 I0. J0.94
N11590 G3 X845.221 Y649.873 I0. J1.674
N11595 G2 X846.766 Y650.903 I1.545 J-0.644
N11600 G1 X883.676
N11605 G2 Y644.903 I0. J-3.
N11610 G1 X843.676
N11615 G2 Y650.903 I0. J3.
N11620 G1 X846.766
N11625 X846.808 Y650.896
N11630 X846.845 Y650.877
N11635 X846.875 Y650.847
N11640 X846.893 Y650.809
N11645 X846.899 Y650.768
N11650 X846.892 Y650.726
N11655 X846.682 Y650.111
N11660 X846.217 Y647.95
N11665 X846.214 Y647.915
N11670 X846.221 Y647.881
N11675 X846.237 Y647.85
N11680 X846.261 Y647.825
N11685 X846.47 Y647.655
N11690 X846.497 Y647.624
N11695 X846.513 Y647.587
N11700 X846.516 Y647.546
N11705 G2 X840.836 Y648.021 Z-15.913 I-2.84 J0.238 F333.33
N11710 X846.516 Y647.546 Z-16.225 I2.84 J-0.238
N11715 X840.836 Y648.021 Z-16.538 I-2.84 J0.238
N11720 X846.516 Y647.546 Z-16.851 I2.84 J-0.238
N11725 X840.836 Y648.021 Z-17.163 I-2.84 J0.238
N11730 X846.516 Y647.546 Z-17.476 I2.84 J-0.238
N11735 X840.836 Y648.021 Z-17.789 I-2.84 J0.238
N11740 X846.516 Y647.546 Z-18.101 I2.84 J-0.238
N11745 X840.836 Y648.021 Z-18.414 I-2.84 J0.238
N11750 X846.516 Y647.546 Z-18.727 I2.84 J-0.238
N11755 X840.836 Y648.021 Z-19.039 I-2.84 J0.238
N11760 X846.516 Y647.546 Z-19.352 I2.84 J-0.238
N11765 X843.676 Y644.934 Z-19.5 I-2.84 J0.238
N11770 Y648.843 I0. J1.955
N11775 G1 X883.676 F1200.
N11780 G2 Y646.963 I0. J-0.94
N11785 G1 X843.676
N11790 G2 Y648.843 I0. J0.94
N11795 G3 X845.221 Y649.873 I0. J1.674
N11800 G2 X846.766 Y650.903 I1.545 J-0.644
N11805 G1 X883.676
N11810 G2 Y644.903 I0. J-3.
N11815 G1 X843.676
N11820 G2 Y650.903 I0. J3.
N11825 G1 X846.766
N11830 X846.858 Y650.896 Z-19.485 F500.
N11835 X846.948 Y650.875 Z-19.471
N11840 X847.026 Y650.844 Z-19.428
N11845 X847.099 Y650.802 Z-19.385
N11850 X847.152 Y650.763 Z-19.319
N11855 X847.2 Y650.717 Z-19.253
N11860 X847.254 Y650.651 Z-19.085
N11865 X847.271 Y650.627 Z-18.9
N11870 G0 Z5.
N11875 X841.577 Y875.856
N11880 G1 Z1.6 F500.
N11885 X841.558 Y875.877 Z1.418 F333.33
N11890 X841.504 Y875.938 Z1.254
N11895 X841.424 Y876.037 Z1.122
N11900 X841.328 Y876.168 Z1.034
N11905 X841.231 Y876.319 Z1.
N11910 G2 X846.121 Y879.248 Z0.687 I2.445 J1.464
N11915 X841.231 Y876.319 Z0.375 I-2.445 J-1.464
N11920 X846.121 Y879.248 Z0.062 I2.445 J1.464
N11925 X841.231 Y876.319 Z-0.251 I-2.445 J-1.464
N11930 X846.121 Y879.248 Z-0.563 I2.445 J1.464
N11935 X841.231 Y876.319 Z-0.876 I-2.445 J-1.464
N11940 X846.121 Y879.248 Z-1.189 I2.445 J1.464
N11945 X841.231 Y876.319 Z-1.501 I-2.445 J-1.464
N11950 X846.121 Y879.248 Z-1.814 I2.445 J1.464
N11955 X841.231 Y876.319 Z-2.127 I-2.445 J-1.464
N11960 X846.121 Y879.248 Z-2.439 I2.445 J1.464
N11965 X841.231 Y876.319 Z-2.752 I-2.445 J-1.464
N11970 X846.121 Y879.248 Z-3.065 I2.445 J1.464
N11975 X841.231 Y876.319 Z-3.377 I-2.445 J-1.464
N11980 X846.121 Y879.248 Z-3.69 I2.445 J1.464
N11985 X843.676 Y874.934 Z-3.9 I-2.445 J-1.464
N11990 Y878.843 I0. J1.955
N11995 G1 X883.676 F1200.
N12000 G2 Y876.963 I0. J-0.94
N12005 G1 X843.676
N12010 G2 Y878.843 I0. J0.94
N12015 G3 X845.221 Y879.873 I0. J1.674
N12020 G2 X846.766 Y880.903 I1.545 J-0.644
N12025 G1 X883.676
N12030 G2 Y874.903 I0. J-3.
N12035 G1 X843.676
N12040 G2 Y880.903 I0. J3.
N12045 G1 X846.766
N12050 X846.808 Y880.896
N12055 X846.845 Y880.877
N12060 X846.875 Y880.847
N12065 X846.893 Y880.809
N12070 X846.899 Y880.768
N12075 X846.892 Y880.726
N12080 X846.682 Y880.111
N12085 X846.217 Y877.95
N12090 X846.214 Y877.915
N12095 X846.221 Y877.881
N12100 X846.237 Y877.85
N12105 X846.261 Y877.825
N12110 X846.47 Y877.655
N12115 X846.497 Y877.624
N12120 X846.513 Y877.587
N12125 X846.516 Y877.546
N12130 G2 X840.836 Y878.021 Z-4.213 I-2.84 J0.238 F333.33
N12135 X846.516 Y877.546 Z-4.525 I2.84 J-0.238
N12140 X840.836 Y878.021 Z-4.838 I-2.84 J0.238
N12145 X846.516 Y877.546 Z-5.151 I2.84 J-0.238
N12150 X840.836 Y878.021 Z-5.463 I-2.84 J0.238
N12155 X846.516 Y877.546 Z-5.776 I2.84 J-0.238
N12160 X840.836 Y878.021 Z-6.089 I-2.84 J0.238
N12165 X846.516 Y877.546 Z-6.401 I2.84 J-0.238
N12170 X840.836 Y878.021 Z-6.714 I-2.84 J0.238
N12175 X846.516 Y877.546 Z-7.027 I2.84 J-0.238
N12180 X840.836 Y878.021 Z-7.339 I-2.84 J0.238
N12185 X846.516 Y877.546 Z-7.652 I2.84 J-0.238
N12190 X843.676 Y874.934 Z-7.8 I-2.84 J0.238
N12195 Y878.843 I0. J1.955
N12200 G1 X883.676 F1200.
N12205 G2 Y876.963 I0. J-0.94
N12210 G1 X843.676
N12215 G2 Y878.843 I0. J0.94
N12220 G3 X845.221 Y879.873 I0. J1.674
N12225 G2 X846.766 Y880.903 I1.545 J-0.644
N12230 G1 X883.676
N12235 G2 Y874.903 I0. J-3.
N12240 G1 X843.676
N12245 G2 Y880.903 I0. J3.
N12250 G1 X846.766
N12255 X846.808 Y880.896
N12260 X846.845 Y880.877
N12265 X846.875 Y880.847
N12270 X846.893 Y880.809
N12275 X846.899 Y880.768
N12280 X846.892 Y880.726
N12285 X846.682 Y880.111
N12290 X846.217 Y877.95
N12295 X846.214 Y877.915
N12300 X846.221 Y877.881
N12305 X846.237 Y877.85
N12310 X846.261 Y877.825
N12315 X846.47 Y877.655
N12320 X846.497 Y877.624
N12325 X846.513 Y877.587
N12330 X846.516 Y877.546
N12335 G2 X840.836 Y878.021 Z-8.113 I-2.84 J0.238 F333.33
N12340 X846.516 Y877.546 Z-8.425 I2.84 J-0.238
N12345 X840.836 Y878.021 Z-8.738 I-2.84 J0.238
N12350 X846.516 Y877.546 Z-9.051 I2.84 J-0.238
N12355 X840.836 Y878.021 Z-9.363 I-2.84 J0.238
N12360 X846.516 Y877.546 Z-9.676 I2.84 J-0.238
N12365 X840.836 Y878.021 Z-9.989 I-2.84 J0.238
N12370 X846.516 Y877.546 Z-10.301 I2.84 J-0.238
N12375 X840.836 Y878.021 Z-10.614 I-2.84 J0.238
N12380 X846.516 Y877.546 Z-10.927 I2.84 J-0.238
N12385 X840.836 Y878.021 Z-11.239 I-2.84 J0.238
N12390 X846.516 Y877.546 Z-11.552 I2.84 J-0.238
N12395 X843.676 Y874.934 Z-11.7 I-2.84 J0.238
N12400 Y878.843 I0. J1.955
N12405 G1 X883.676 F1200.
N12410 G2 Y876.963 I0. J-0.94
N12415 G1 X843.676
N12420 G2 Y878.843 I0. J0.94
N12425 G3 X845.221 Y879.873 I0. J1.674
N12430 G2 X846.766 Y880.903 I1.545 J-0.644
N12435 G1 X883.676
N12440 G2 Y874.903 I0. J-3.
N12445 G1 X843.676
N12450 G2 Y880.903 I0. J3.
N12455 G1 X846.766
N12460 X846.808 Y880.896
N12465 X846.845 Y880.877
N12470 X846.875 Y880.847
N12475 X846.893 Y880.809
N12480 X846.899 Y880.768
N12485 X846.892 Y880.726
N12490 X846.682 Y880.111
N12495 X846.217 Y877.95
N12500 X846.214 Y877.915
N12505 X846.221 Y877.881
N12510 X846.237 Y877.85
N12515 X846.261 Y877.825
N12520 X846.47 Y877.655
N12525 X846.497 Y877.624
N12530 X846.513 Y877.587
N12535 X846.516 Y877.546
N12540 G2 X840.836 Y878.021 Z-12.013 I-2.84 J0.238 F333.33
N12545 X846.516 Y877.546 Z-12.325 I2.84 J-0.238
N12550 X840.836 Y878.021 Z-12.638 I-2.84 J0.238
N12555 X846.516 Y877.546 Z-12.951 I2.84 J-0.238
N12560 X840.836 Y878.021 Z-13.263 I-2.84 J0.238
N12565 X846.516 Y877.546 Z-13.576 I2.84 J-0.238
N12570 X840.836 Y878.021 Z-13.889 I-2.84 J0.238
N12575 X846.516 Y877.546 Z-14.201 I2.84 J-0.238
N12580 X840.836 Y878.021 Z-14.514 I-2.84 J0.238
N12585 X846.516 Y877.546 Z-14.827 I2.84 J-0.238
N12590 X840.836 Y878.021 Z-15.139 I-2.84 J0.238
N12595 X846.516 Y877.546 Z-15.452 I2.84 J-0.238
N12600 X843.676 Y874.934 Z-15.6 I-2.84 J0.238
N12605 Y878.843 I0. J1.955
N12610 G1 X883.676 F1200.
N12615 G2 Y876.963 I0. J-0.94
N12620 G1 X843.676
N12625 G2 Y878.843 I0. J0.94
N12630 G3 X845.221 Y879.873 I0. J1.674
N12635 G2 X846.766 Y880.903 I1.545 J-0.644
N12640 G1 X883.676
N12645 G2 Y874.903 I0. J-3.
N12650 G1 X843.676
N12655 G2 Y880.903 I0. J3.
N12660 G1 X846.766
N12665 X846.808 Y880.896
N12670 X846.845 Y880.877
N12675 X846.875 Y880.847
N12680 X846.893 Y880.809
N12685 X846.899 Y880.768
N12690 X846.892 Y880.726
N12695 X846.682 Y880.111
N12700 X846.217 Y877.95
N12705 X846.214 Y877.915
N12710 X846.221 Y877.881
N12715 X846.237 Y877.85
N12720 X846.261 Y877.825
N12725 X846.47 Y877.655
N12730 X846.497 Y877.624
N12735 X846.513 Y877.587
N12740 X846.516 Y877.546
N12745 G2 X840.836 Y878.021 Z-15.913 I-2.84 J0.238 F333.33
N12750 X846.516 Y877.546 Z-16.225 I2.84 J-0.238
N12755 X840.836 Y878.021 Z-16.538 I-2.84 J0.238
N12760 X846.516 Y877.546 Z-16.851 I2.84 J-0.238
N12765 X840.836 Y878.021 Z-17.163 I-2.84 J0.238
N12770 X846.516 Y877.546 Z-17.476 I2.84 J-0.238
N12775 X840.836 Y878.021 Z-17.789 I-2.84 J0.238
N12780 X846.516 Y877.546 Z-18.101 I2.84 J-0.238
N12785 X840.836 Y878.021 Z-18.414 I-2.84 J0.238
N12790 X846.516 Y877.546 Z-18.727 I2.84 J-0.238
N12795 X840.836 Y878.021 Z-19.039 I-2.84 J0.238
N12800 X846.516 Y877.546 Z-19.352 I2.84 J-0.238
N12805 X843.676 Y874.934 Z-19.5 I-2.84 J0.238
N12810 Y878.843 I0. J1.955
N12815 G1 X883.676 F1200.
N12820 G2 Y876.963 I0. J-0.94
N12825 G1 X843.676
N12830 G2 Y878.843 I0. J0.94
N12835 G3 X845.221 Y879.873 I0. J1.674
N12840 G2 X846.766 Y880.903 I1.545 J-0.644
N12845 G1 X883.676
N12850 G2 Y874.903 I0. J-3.
N12855 G1 X843.676
N12860 G2 Y880.903 I0. J3.
N12865 G1 X846.766
N12870 X846.858 Y880.896 Z-19.485 F500.
N12875 X846.948 Y880.875 Z-19.471
N12880 X847.026 Y880.844 Z-19.428
N12885 X847.099 Y880.802 Z-19.385
N12890 X847.152 Y880.763 Z-19.319
N12895 X847.2 Y880.717 Z-19.253
N12900 X847.254 Y880.651 Z-19.085
N12905 X847.271 Y880.627 Z-18.9
N12910 G0 Z5.
N12915 X701.577 Y875.856
N12920 G1 Z1.6 F500.
N12925 X701.558 Y875.877 Z1.418 F333.33
N12930 X701.504 Y875.938 Z1.254
N12935 X701.424 Y876.037 Z1.122
N12940 X701.328 Y876.168 Z1.034
N12945 X701.231 Y876.319 Z1.
N12950 G2 X706.121 Y879.248 Z0.687 I2.445 J1.464
N12955 X701.231 Y876.319 Z0.375 I-2.445 J-1.464
N12960 X706.121 Y879.248 Z0.062 I2.445 J1.464
N12965 X701.231 Y876.319 Z-0.251 I-2.445 J-1.464
N12970 X706.121 Y879.248 Z-0.563 I2.445 J1.464
N12975 X701.231 Y876.319 Z-0.876 I-2.445 J-1.464
N12980 X706.121 Y879.248 Z-1.189 I2.445 J1.464
N12985 X701.231 Y876.319 Z-1.501 I-2.445 J-1.464
N12990 X706.121 Y879.248 Z-1.814 I2.445 J1.464
N12995 X701.231 Y876.319 Z-2.127 I-2.445 J-1.464
N13000 X706.121 Y879.248 Z-2.439 I2.445 J1.464
N13005 X701.231 Y876.319 Z-2.752 I-2.445 J-1.464
N13010 X706.121 Y879.248 Z-3.065 I2.445 J1.464
N13015 X701.231 Y876.319 Z-3.377 I-2.445 J-1.464
N13020 X706.121 Y879.248 Z-3.69 I2.445 J1.464
N13025 X703.676 Y874.934 Z-3.9 I-2.445 J-1.464
N13030 Y878.843 I0. J1.955
N13035 G1 X743.676 F1200.
N13040 G2 Y876.963 I0. J-0.94
N13045 G1 X703.676
N13050 G2 Y878.843 I0. J0.94
N13055 G3 X705.221 Y879.873 I0. J1.674
N13060 G2 X706.766 Y880.903 I1.545 J-0.644
N13065 G1 X743.676
N13070 G2 Y874.903 I0. J-3.
N13075 G1 X703.676
N13080 G2 Y880.903 I0. J3.
N13085 G1 X706.766
N13090 X706.808 Y880.896
N13095 X706.845 Y880.877
N13100 X706.875 Y880.847
N13105 X706.893 Y880.809
N13110 X706.899 Y880.768
N13115 X706.892 Y880.726
N13120 X706.682 Y880.111
N13125 X706.217 Y877.95
N13130 X706.214 Y877.915
N13135 X706.221 Y877.881
N13140 X706.237 Y877.85
N13145 X706.261 Y877.825
N13150 X706.47 Y877.655
N13155 X706.497 Y877.624
N13160 X706.513 Y877.587
N13165 X706.516 Y877.546
N13170 G2 X700.836 Y878.021 Z-4.213 I-2.84 J0.238 F333.33
N13175 X706.516 Y877.546 Z-4.525 I2.84 J-0.238
N13180 X700.836 Y878.021 Z-4.838 I-2.84 J0.238
N13185 X706.516 Y877.546 Z-5.151 I2.84 J-0.238
N13190 X700.836 Y878.021 Z-5.463 I-2.84 J0.238
N13195 X706.516 Y877.546 Z-5.776 I2.84 J-0.238
N13200 X700.836 Y878.021 Z-6.089 I-2.84 J0.238
N13205 X706.516 Y877.546 Z-6.401 I2.84 J-0.238
N13210 X700.836 Y878.021 Z-6.714 I-2.84 J0.238
N13215 X706.516 Y877.546 Z-7.027 I2.84 J-0.238
N13220 X700.836 Y878.021 Z-7.339 I-2.84 J0.238
N13225 X706.516 Y877.546 Z-7.652 I2.84 J-0.238
N13230 X703.676 Y874.934 Z-7.8 I-2.84 J0.238
N13235 Y878.843 I0. J1.955
N13240 G1 X743.676 F1200.
N13245 G2 Y876.963 I0. J-0.94
N13250 G1 X703.676
N13255 G2 Y878.843 I0. J0.94
N13260 G3 X705.221 Y879.873 I0. J1.674
N13265 G2 X706.766 Y880.903 I1.545 J-0.644
N13270 G1 X743.676
N13275 G2 Y874.903 I0. J-3.
N13280 G1 X703.676
N13285 G2 Y880.903 I0. J3.
N13290 G1 X706.766
N13295 X706.808 Y880.896
N13300 X706.845 Y880.877
N13305 X706.875 Y880.847
N13310 X706.893 Y880.809
N13315 X706.899 Y880.768
N13320 X706.892 Y880.726
N13325 X706.682 Y880.111
N13330 X706.217 Y877.95
N13335 X706.214 Y877.915
N13340 X706.221 Y877.881
N13345 X706.237 Y877.85
N13350 X706.261 Y877.825
N13355 X706.47 Y877.655
N13360 X706.497 Y877.624
N13365 X706.513 Y877.587
N13370 X706.516 Y877.546
N13375 G2 X700.836 Y878.021 Z-8.113 I-2.84 J0.238 F333.33
N13380 X706.516 Y877.546 Z-8.425 I2.84 J-0.238
N13385 X700.836 Y878.021 Z-8.738 I-2.84 J0.238
N13390 X706.516 Y877.546 Z-9.051 I2.84 J-0.238
N13395 X700.836 Y878.021 Z-9.363 I-2.84 J0.238
N13400 X706.516 Y877.546 Z-9.676 I2.84 J-0.238
N13405 X700.836 Y878.021 Z-9.989 I-2.84 J0.238
N13410 X706.516 Y877.546 Z-10.301 I2.84 J-0.238
N13415 X700.836 Y878.021 Z-10.614 I-2.84 J0.238
N13420 X706.516 Y877.546 Z-10.927 I2.84 J-0.238
N13425 X700.836 Y878.021 Z-11.239 I-2.84 J0.238
N13430 X706.516 Y877.546 Z-11.552 I2.84 J-0.238
N13435 X703.676 Y874.934 Z-11.7 I-2.84 J0.238
N13440 Y878.843 I0. J1.955
N13445 G1 X743.676 F1200.
N13450 G2 Y876.963 I0. J-0.94
N13455 G1 X703.676
N13460 G2 Y878.843 I0. J0.94
N13465 G3 X705.221 Y879.873 I0. J1.674
N13470 G2 X706.766 Y880.903 I1.545 J-0.644
N13475 G1 X743.676
N13480 G2 Y874.903 I0. J-3.
N13485 G1 X703.676
N13490 G2 Y880.903 I0. J3.
N13495 G1 X706.766
N13500 X706.808 Y880.896
N13505 X706.845 Y880.877
N13510 X706.875 Y880.847
N13515 X706.893 Y880.809
N13520 X706.899 Y880.768
N13525 X706.892 Y880.726
N13530 X706.682 Y880.111
N13535 X706.217 Y877.95
N13540 X706.214 Y877.915
N13545 X706.221 Y877.881
N13550 X706.237 Y877.85
N13555 X706.261 Y877.825
N13560 X706.47 Y877.655
N13565 X706.497 Y877.624
N13570 X706.513 Y877.587
N13575 X706.516 Y877.546
N13580 G2 X700.836 Y878.021 Z-12.013 I-2.84 J0.238 F333.33
N13585 X706.516 Y877.546 Z-12.325 I2.84 J-0.238
N13590 X700.836 Y878.021 Z-12.638 I-2.84 J0.238
N13595 X706.516 Y877.546 Z-12.951 I2.84 J-0.238
N13600 X700.836 Y878.021 Z-13.263 I-2.84 J0.238
N13605 X706.516 Y877.546 Z-13.576 I2.84 J-0.238
N13610 X700.836 Y878.021 Z-13.889 I-2.84 J0.238
N13615 X706.516 Y877.546 Z-14.201 I2.84 J-0.238
N13620 X700.836 Y878.021 Z-14.514 I-2.84 J0.238
N13625 X706.516 Y877.546 Z-14.827 I2.84 J-0.238
N13630 X700.836 Y878.021 Z-15.139 I-2.84 J0.238
N13635 X706.516 Y877.546 Z-15.452 I2.84 J-0.238
N13640 X703.676 Y874.934 Z-15.6 I-2.84 J0.238
N13645 Y878.843 I0. J1.955
N13650 G1 X743.676 F1200.
N13655 G2 Y876.963 I0. J-0.94
N13660 G1 X703.676
N13665 G2 Y878.843 I0. J0.94
N13670 G3 X705.221 Y879.873 I0. J1.674
N13675 G2 X706.766 Y880.903 I1.545 J-0.644
N13680 G1 X743.676
N13685 G2 Y874.903 I0. J-3.
N13690 G1 X703.676
N13695 G2 Y880.903 I0. J3.
N13700 G1 X706.766
N13705 X706.808 Y880.896
N13710 X706.845 Y880.877
N13715 X706.875 Y880.847
N13720 X706.893 Y880.809
N13725 X706.899 Y880.768
N13730 X706.892 Y880.726
N13735 X706.682 Y880.111
N13740 X706.217 Y877.95
N13745 X706.214 Y877.915
N13750 X706.221 Y877.881
N13755 X706.237 Y877.85
N13760 X706.261 Y877.825
N13765 X706.47 Y877.655
N13770 X706.497 Y877.624
N13775 X706.513 Y877.587
N13780 X706.516 Y877.546
N13785 G2 X700.836 Y878.021 Z-15.913 I-2.84 J0.238 F333.33
N13790 X706.516 Y877.546 Z-16.225 I2.84 J-0.238
N13795 X700.836 Y878.021 Z-16.538 I-2.84 J0.238
N13800 X706.516 Y877.546 Z-16.851 I2.84 J-0.238
N13805 X700.836 Y878.021 Z-17.163 I-2.84 J0.238
N13810 X706.516 Y877.546 Z-17.476 I2.84 J-0.238
N13815 X700.836 Y878.021 Z-17.789 I-2.84 J0.238
N13820 X706.516 Y877.546 Z-18.101 I2.84 J-0.238
N13825 X700.836 Y878.021 Z-18.414 I-2.84 J0.238
N13830 X706.516 Y877.546 Z-18.727 I2.84 J-0.238
N13835 X700.836 Y878.021 Z-19.039 I-2.84 J0.238
N13840 X706.516 Y877.546 Z-19.352 I2.84 J-0.238
N13845 X703.676 Y874.934 Z-19.5 I-2.84 J0.238
N13850 Y878.843 I0. J1.955
N13855 G1 X743.676 F1200.
N13860 G2 Y876.963 I0. J-0.94
N13865 G1 X703.676
N13870 G2 Y878.843 I0. J0.94
N13875 G3 X705.221 Y879.873 I0. J1.674
N13880 G2 X706.766 Y880.903 I1.545 J-0.644
N13885 G1 X743.676
N13890 G2 Y874.903 I0. J-3.
N13895 G1 X703.676
N13900 G2 Y880.903 I0. J3.
N13905 G1 X706.766
N13910 X706.858 Y880.896 Z-19.485 F500.
N13915 X706.948 Y880.875 Z-19.471
N13920 X707.026 Y880.844 Z-19.428
N13925 X707.099 Y880.802 Z-19.385
N13930 X707.152 Y880.763 Z-19.319
N13935 X707.2 Y880.717 Z-19.253
N13940 X707.254 Y880.651 Z-19.085
N13945 X707.271 Y880.627 Z-18.9
N13950 G0 Z15.
(2D CONTOUR1 2)
N13955 G0 X535.384 Y1239.049
N13960 Z15.
N13965 Z5.
N13970 G1 Z-3.4 F100.33
N13975 X535.391 Y1239.048 Z-3.494
N13980 X535.413 Y1239.047 Z-3.585
N13985 X535.449 Y1239.045 Z-3.672
N13990 X535.498 Y1239.041 Z-3.753
N13995 X535.559 Y1239.037 Z-3.824
N14000 X535.63 Y1239.033 Z-3.885
N14005 X535.711 Y1239.027 Z-3.935
N14010 X535.797 Y1239.021 Z-3.971
N14015 X535.889 Y1239.015 Z-3.993
N14020 X535.982 Y1239.009 Z-4.
N14025 X536.581 Y1238.97 F500.
N14030 G2 X537.14 Y1238.332 I-0.04 J-0.599
N14035 G3 X537.151 Y1237.329 I6.536 J-0.432 F1200.
N14040 G1 X564.161 Y928.616
N14045 G3 X568.853 Y905.337 I106.158 J9.286
N14050 G1 X676.295 Y570.619
N14055 G3 X730.14 Y531.353 I53.844 J17.283
N14060 G1 X857.213
N14065 G3 X911.058 Y570.619 I0. J56.551
N14070 G1 X1018.496 Y905.336
N14075 G3 X1023.195 Y928.616 I-101.555 J32.612
N14080 G1 X1050.205 Y1237.329
N14085 G3 X1043.68 Y1244.45 I-6.525 J0.571
N14090 G1 X912.89
N14095 G3 X867.047 Y1189.823 I0. J-46.55
N14100 G1 X887.443 Y1074.143
N14105 G2 X837.316 Y1035.105 I-35.403 J-6.242
N14110 G3 X750.037 I-43.639 J-97.202
N14115 G2 X699.909 Y1074.143 I-14.725 J32.795
N14120 G1 X720.306 Y1189.823
N14125 G3 X674.463 Y1244.45 I-45.843 J8.077
N14130 G1 X543.676
N14135 G3 X537.14 Y1238.332 I0. J-6.55
N14140 X538.696 Y1235.967 I2.341 J-0.155
N14145 G2 X540.427 Y1233.727 I-0.877 J-2.467
N14150 G1 X567.1 Y928.873
N14155 G3 X571.662 Y906.239 I103.206 J9.027
N14160 G1 X679.104 Y571.521
N14165 G3 X730.14 Y534.303 I51.035 J16.383
N14170 G1 X857.213
N14175 G3 X908.249 Y571.521 I0. J53.6
N14180 G1 X1015.688 Y906.238
N14185 G3 X1020.256 Y928.872 I-98.635 J31.687
N14190 G1 X1047.266 Y1237.586
N14195 G3 X1043.68 Y1241.5 I-3.586 J0.314
N14200 G1 X912.89
N14205 G3 X869.952 Y1190.335 I0. J-43.6
N14210 G1 X890.349 Y1074.655
N14215 G2 X836.108 Y1032.414 I-38.308 J-6.755
N14220 G3 X751.246 I-42.431 J-94.511
N14225 G2 X697.004 Y1074.655 I-15.933 J35.486
N14230 G1 X717.4 Y1190.335
N14235 G3 X674.463 Y1241.5 I-42.938 J7.566
N14240 G1 X543.676
N14245 G3 X540.09 Y1237.586 I0. J-3.6
N14250 G1 X540.427 Y1233.727
N14255 G3 X540.765 Y1233.305 I0.486 J0.042
N14260 G2 X541.103 Y1232.883 I-0.148 J-0.465
N14265 G1 X567.697 Y928.926
N14270 G3 X572.234 Y906.422 I102.608 J8.974
N14275 G1 X679.676 Y571.704
N14280 G3 X730.14 Y534.903 I50.464 J16.199
N14285 G1 X857.213
N14290 G3 X907.677 Y571.704 I0. J53.
N14295 G1 X1015.116 Y906.422
N14300 G3 X1019.659 Y928.925 I-98.064 J31.504
N14305 G1 X1046.669 Y1237.639
N14310 G3 X1043.68 Y1240.9 I-2.989 J0.261
N14315 G1 X912.89
N14320 G3 X870.542 Y1190.439 I0. J-43.
N14325 G1 X890.94 Y1074.759
N14330 G2 X835.862 Y1031.867 I-38.899 J-6.859
N14335 G3 X751.491 I-42.185 J-93.964
N14340 G2 X696.413 Y1074.759 I-16.179 J36.034
N14345 G1 X716.809 Y1190.439
N14350 G3 X674.463 Y1240.9 I-42.347 J7.462
N14355 G1 X543.676
N14360 G3 X540.687 Y1237.639 I0. J-3.
N14365 G1 X541.103 Y1232.883
N14370 G2 X540.558 Y1232.233 I-0.598 J-0.052 F500.
N14375 G1 X539.96 Y1232.181
N14380 X539.867 Y1232.173 Z-3.993
N14385 X539.776 Y1232.165 Z-3.971
N14390 X539.689 Y1232.157 Z-3.935
N14395 X539.609 Y1232.15 Z-3.885
N14400 X539.538 Y1232.144 Z-3.824
N14405 X539.477 Y1232.139 Z-3.753
N14410 X539.428 Y1232.134 Z-3.672
N14415 X539.392 Y1232.131 Z-3.585
N14420 X539.37 Y1232.129 Z-3.494
N14425 X539.363 Z-3.4
N14430 G0 Z5.
N14435 X535.384 Y1239.049
N14440 G1 Z1. F100.33
N14445 Z-7.4
N14450 X535.391 Y1239.048 Z-7.494
N14455 X535.413 Y1239.047 Z-7.585
N14460 X535.449 Y1239.045 Z-7.672
N14465 X535.498 Y1239.041 Z-7.753
N14470 X535.559 Y1239.037 Z-7.824
N14475 X535.63 Y1239.033 Z-7.885
N14480 X535.711 Y1239.027 Z-7.935
N14485 X535.797 Y1239.021 Z-7.971
N14490 X535.889 Y1239.015 Z-7.993
N14495 X535.982 Y1239.009 Z-8.
N14500 X536.581 Y1238.97 F500.
N14505 G2 X537.14 Y1238.332 I-0.04 J-0.599
N14510 G3 X537.151 Y1237.329 I6.536 J-0.432 F1200.
N14515 G1 X564.161 Y928.616
N14520 G3 X568.853 Y905.337 I106.158 J9.286
N14525 G1 X676.295 Y570.619
N14530 G3 X730.14 Y531.353 I53.844 J17.283
N14535 G1 X857.213
N14540 G3 X911.058 Y570.619 I0. J56.551
N14545 G1 X1018.496 Y905.336
N14550 G3 X1023.195 Y928.616 I-101.555 J32.612
N14555 G1 X1050.205 Y1237.329
N14560 G3 X1043.68 Y1244.45 I-6.525 J0.571
N14565 G1 X912.89
N14570 G3 X867.047 Y1189.823 I0. J-46.55
N14575 G1 X887.443 Y1074.143
N14580 G2 X837.316 Y1035.105 I-35.403 J-6.242
N14585 G3 X750.037 I-43.639 J-97.202
N14590 G2 X699.909 Y1074.143 I-14.725 J32.795
N14595 G1 X720.306 Y1189.823
N14600 G3 X674.463 Y1244.45 I-45.843 J8.077
N14605 G1 X543.676
N14610 G3 X537.14 Y1238.332 I0. J-6.55
N14615 X538.696 Y1235.967 I2.341 J-0.155
N14620 G2 X540.427 Y1233.727 I-0.877 J-2.467
N14625 G1 X567.1 Y928.873
N14630 G3 X571.662 Y906.239 I103.206 J9.027
N14635 G1 X679.104 Y571.521
N14640 G3 X730.14 Y534.303 I51.035 J16.383
N14645 G1 X857.213
N14650 G3 X908.249 Y571.521 I0. J53.6
N14655 G1 X1015.688 Y906.238
N14660 G3 X1020.256 Y928.872 I-98.635 J31.687
N14665 G1 X1047.266 Y1237.586
N14670 G3 X1043.68 Y1241.5 I-3.586 J0.314
N14675 G1 X912.89
N14680 G3 X869.952 Y1190.335 I0. J-43.6
N14685 G1 X890.349 Y1074.655
N14690 G2 X836.108 Y1032.414 I-38.308 J-6.755
N14695 G3 X751.246 I-42.431 J-94.511
N14700 G2 X697.004 Y1074.655 I-15.933 J35.486
N14705 G1 X717.4 Y1190.335
N14710 G3 X674.463 Y1241.5 I-42.938 J7.566
N14715 G1 X543.676
N14720 G3 X540.09 Y1237.586 I0. J-3.6
N14725 G1 X540.427 Y1233.727
N14730 G3 X540.765 Y1233.305 I0.486 J0.042
N14735 G2 X541.103 Y1232.883 I-0.148 J-0.465
N14740 G1 X567.697 Y928.926
N14745 G3 X572.234 Y906.422 I102.608 J8.974
N14750 G1 X679.676 Y571.704
N14755 G3 X730.14 Y534.903 I50.464 J16.199
N14760 G1 X857.213
N14765 G3 X907.677 Y571.704 I0. J53.
N14770 G1 X1015.116 Y906.422
N14775 G3 X1019.659 Y928.925 I-98.064 J31.504
N14780 G1 X1046.669 Y1237.639
N14785 G3 X1043.68 Y1240.9 I-2.989 J0.261
N14790 G1 X912.89
