%
(CLAMP_V2_1)
(MACHINE)
(  MODEL LASER SNAKE V2)
(  DESCRIPTION 3-AXIS ROUTER)
(T1  D=3.175 CR=0. - ZMIN=-18.1 - FLAT END MILL)
N10 G90 G94 G17 G91.1
N15 G21
(WHEN USING FUSION 360 FOR PERSONAL USE, THE FEEDRATE OF)
(RAPID MOVES IS REDUCED TO MATCH THE FEEDRATE OF CUTTING)
(MOVES, WHICH CAN INCREASE MACHINING TIME. UNRESTRICTED RAPID)
(MOVES ARE AVAILABLE WITH A FUSION 360 SUBSCRIPTION.)
N20 G53 G0 Z0.
(2D CONTOUR2)
N25 T1 M6
N30 S18000 M3
N35 G54
N40 G0 X145.579 Y-85.262
N45 G43 Z15. H1
N50 G1 Z5. F1000.
N55 Z-3.62 F100.
N60 G3 X144.069 Y-83.894 I-1.572 J-0.219 F1000.
N65 G2 Y-36.106 I0.931 J23.894
N70 G3 X145.594 Y-34.519 I-0.062 J1.586
N75 G1 Y0.
N80 G3 X144.007 Y1.587 I-1.587 J0.
N85 G1 X0.
N90 G3 X-1.587 Y0. I0. J-1.587
N95 G1 Y-120.
N100 G3 X0. Y-121.588 I1.587 J0.
N105 G1 X144.007
N110 G3 X145.594 Y-120. I0. J1.588
N115 G1 Y-85.481
N120 X145.591 Y-85.371
N125 X145.579 Y-85.262
N130 Z-7.24 F100.
N135 G3 X144.069 Y-83.894 I-1.572 J-0.219 F1000.
N140 G2 Y-36.106 I0.931 J23.894
N145 G3 X145.594 Y-34.519 I-0.062 J1.586
N150 G1 Y0.
N155 G3 X144.007 Y1.587 I-1.587 J0.
N160 G1 X0.
N165 G3 X-1.587 Y0. I0. J-1.587
N170 G1 Y-120.
N175 G3 X0. Y-121.588 I1.587 J0.
N180 G1 X144.007
N185 G3 X145.594 Y-120. I0. J1.588
N190 G1 Y-85.481
N195 X145.591 Y-85.371
N200 X145.579 Y-85.262
N205 Z-10.86 F100.
N210 G3 X144.069 Y-83.894 I-1.572 J-0.219 F1000.
N215 G2 Y-36.106 I0.931 J23.894
N220 G3 X145.594 Y-34.519 I-0.062 J1.586
N225 G1 Y0.
N230 G3 X144.007 Y1.587 I-1.587 J0.
N235 G1 X0.
N240 G3 X-1.587 Y0. I0. J-1.587
N245 G1 Y-120.
N250 G3 X0. Y-121.588 I1.587 J0.
N255 G1 X144.007
N260 G3 X145.594 Y-120. I0. J1.588
N265 G1 Y-85.481
N270 X145.591 Y-85.371
N275 X145.579 Y-85.262
N280 Z-14.48 F100.
N285 G3 X144.069 Y-83.894 I-1.572 J-0.219 F1000.
N290 G2 Y-36.106 I0.931 J23.894
N295 G3 X145.594 Y-34.519 I-0.062 J1.586
N300 G1 Y0.
N305 G3 X144.007 Y1.587 I-1.587 J0.
N310 G1 X0.
N315 G3 X-1.587 Y0. I0. J-1.587
N320 G1 Y-120.
N325 G3 X0. Y-121.588 I1.587 J0.
N330 G1 X144.007
N335 G3 X145.594 Y-120. I0. J1.588
N340 G1 Y-85.481
N345 X145.591 Y-85.371
N350 X145.579 Y-85.262
N355 Z-18.1 F100.
N360 G3 X144.069 Y-83.894 I-1.572 J-0.219 F1000.
N365 G2 Y-36.106 I0.931 J23.894
N370 G3 X145.594 Y-34.519 I-0.062 J1.586
N375 G1 Y0.
N380 G3 X144.007 Y1.587 I-1.587 J0.
N385 G1 X0.
N390 G3 X-1.587 Y0. I0. J-1.587
N395 G1 Y-120.
N400 G3 X0. Y-121.588 I1.587 J0.
N405 G1 X144.007
N410 G3 X145.594 Y-120. I0. J1.588
N415 G1 Y-85.481
N420 X145.591 Y-85.371
N425 X145.579 Y-85.262
N430 Z15.
N435 G53 G0 Z0.
N440 G53 G0 X0. Y0.
N445 M30
%
