%
(CLAMP_V2_BORE)
(MACHINE)
(  MODEL LASER SNAKE V2)
(  DESCRIPTION 3-AXIS ROUTER)
(T1  D=3.175 CR=0. - ZMIN=-18. - FLAT END MILL)
N10 G90 G94 G17 G91.1
N15 G21
(WHEN USING FUSION 360 FOR PERSONAL USE, THE FEEDRATE OF)
(RAPID MOVES IS REDUCED TO MATCH THE FEEDRATE OF CUTTING)
(MOVES, WHICH CAN INCREASE MACHINING TIME. UNRESTRICTED RAPID)
(MOVES ARE AVAILABLE WITH A FUSION 360 SUBSCRIPTION.)
N20 G53 G0 Z0.
(BORE1)
N25 T1 M6
N30 S18000 M3
N35 G54
N40 G0 X129.007 Y-8.
N45 G43 Z15. H1
N50 G1 Z2. F500.
N55 Z0. F100.
N60 X127.094
N65 G2 X130.919 Z-0.744 I1.913 J0. F500.
N70 X127.094 Z-1.488 I-1.913 J0.
N75 X130.919 Z-2.232 I1.913 J0.
N80 X127.094 Z-2.976 I-1.913 J0.
N85 X130.919 Z-3.72 I1.913 J0.
N90 X127.094 Z-4.464 I-1.913 J0.
N95 X130.919 Z-5.208 I1.913 J0.
N100 X127.094 Z-5.952 I-1.913 J0.
N105 X130.919 Z-6.696 I1.913 J0.
N110 X127.094 Z-7.439 I-1.913 J0.
N115 X130.919 Z-8.183 I1.913 J0.
N120 X127.094 Z-8.927 I-1.913 J0.
N125 X130.919 Z-9.671 I1.913 J0.
N130 X127.094 Z-10.415 I-1.913 J0.
N135 X130.919 Z-11.159 I1.913 J0.
N140 X127.094 Z-11.903 I-1.913 J0.
N145 X130.919 Z-12.647 I1.913 J0.
N150 X127.094 Z-13.391 I-1.913 J0.
N155 X130.919 Z-14.135 I1.913 J0.
N160 X127.094 Z-14.879 I-1.913 J0.
N165 X130.919 Z-15.623 I1.913 J0.
N170 X127.094 Z-16.367 I-1.913 J0.
N175 X130.919 Z-17.111 I1.913 J0.
N180 X127.094 Z-17.855 I-1.913 J0.
N185 X127.443 Y-6.899 Z-18. I1.913 J0.
N190 X130.571 Y-9.101 I1.564 J-1.101
N195 X127.443 Y-6.899 I-1.564 J1.101
N200 G1 X129.007 Y-8. F100.
N205 Z5. F500.
N210 Y-112.
N215 Z2.
N220 Z0. F100.
N225 X127.094
N230 G2 X130.919 Z-0.744 I1.913 J0. F500.
N235 X127.094 Z-1.488 I-1.913 J0.
N240 X130.919 Z-2.232 I1.913 J0.
N245 X127.094 Z-2.976 I-1.913 J0.
N250 X130.919 Z-3.72 I1.913 J0.
N255 X127.094 Z-4.464 I-1.913 J0.
N260 X130.919 Z-5.208 I1.913 J0.
N265 X127.094 Z-5.952 I-1.913 J0.
N270 X130.919 Z-6.696 I1.913 J0.
N275 X127.094 Z-7.439 I-1.913 J0.
N280 X130.919 Z-8.183 I1.913 J0.
N285 X127.094 Z-8.927 I-1.913 J0.
N290 X130.919 Z-9.671 I1.913 J0.
N295 X127.094 Z-10.415 I-1.913 J0.
N300 X130.919 Z-11.159 I1.913 J0.
N305 X127.094 Z-11.903 I-1.913 J0.
N310 X130.919 Z-12.647 I1.913 J0.
N315 X127.094 Z-13.391 I-1.913 J0.
N320 X130.919 Z-14.135 I1.913 J0.
N325 X127.094 Z-14.879 I-1.913 J0.
N330 X130.919 Z-15.623 I1.913 J0.
N335 X127.094 Z-16.367 I-1.913 J0.
N340 X130.919 Z-17.111 I1.913 J0.
N345 X127.094 Z-17.855 I-1.913 J0.
N350 X127.443 Y-110.899 Z-18. I1.913 J0.
N355 X130.571 Y-113.101 I1.564 J-1.101
N360 X127.443 Y-110.899 I-1.564 J1.101
N365 G1 X129.007 Y-112. F100.
N370 Z5. F500.
N375 X10.
N380 Z2.
N385 Z0. F100.
N390 X8.087
N395 G2 X11.913 Z-0.744 I1.913 J0. F500.
N400 X8.087 Z-1.488 I-1.913 J0.
N405 X11.913 Z-2.232 I1.913 J0.
N410 X8.087 Z-2.976 I-1.913 J0.
N415 X11.913 Z-3.72 I1.913 J0.
N420 X8.087 Z-4.464 I-1.913 J0.
N425 X11.913 Z-5.208 I1.913 J0.
N430 X8.087 Z-5.952 I-1.913 J0.
N435 X11.913 Z-6.696 I1.913 J0.
N440 X8.087 Z-7.439 I-1.913 J0.
N445 X11.913 Z-8.183 I1.913 J0.
N450 X8.087 Z-8.927 I-1.913 J0.
N455 X11.913 Z-9.671 I1.913 J0.
N460 X8.087 Z-10.415 I-1.913 J0.
N465 X11.913 Z-11.159 I1.913 J0.
N470 X8.087 Z-11.903 I-1.913 J0.
N475 X11.913 Z-12.647 I1.913 J0.
N480 X8.087 Z-13.391 I-1.913 J0.
N485 X11.913 Z-14.135 I1.913 J0.
N490 X8.087 Z-14.879 I-1.913 J0.
N495 X11.913 Z-15.623 I1.913 J0.
N500 X8.087 Z-16.367 I-1.913 J0.
N505 X11.913 Z-17.111 I1.913 J0.
N510 X8.087 Z-17.855 I-1.913 J0.
N515 X8.436 Y-110.899 Z-18. I1.913 J0.
N520 X11.564 Y-113.101 I1.564 J-1.101
N525 X8.436 Y-110.899 I-1.564 J1.101
N530 G1 X10. Y-112. F100.
N535 Z5. F500.
N540 Y-8.
N545 Z2.
N550 Z0. F100.
N555 X8.087
N560 G2 X11.913 Z-0.744 I1.913 J0. F500.
N565 X8.087 Z-1.488 I-1.913 J0.
N570 X11.913 Z-2.232 I1.913 J0.
N575 X8.087 Z-2.976 I-1.913 J0.
N580 X11.913 Z-3.72 I1.913 J0.
N585 X8.087 Z-4.464 I-1.913 J0.
N590 X11.913 Z-5.208 I1.913 J0.
N595 X8.087 Z-5.952 I-1.913 J0.
N600 X11.913 Z-6.696 I1.913 J0.
N605 X8.087 Z-7.439 I-1.913 J0.
N610 X11.913 Z-8.183 I1.913 J0.
N615 X8.087 Z-8.927 I-1.913 J0.
N620 X11.913 Z-9.671 I1.913 J0.
N625 X8.087 Z-10.415 I-1.913 J0.
N630 X11.913 Z-11.159 I1.913 J0.
N635 X8.087 Z-11.903 I-1.913 J0.
N640 X11.913 Z-12.647 I1.913 J0.
N645 X8.087 Z-13.391 I-1.913 J0.
N650 X11.913 Z-14.135 I1.913 J0.
N655 X8.087 Z-14.879 I-1.913 J0.
N660 X11.913 Z-15.623 I1.913 J0.
N665 X8.087 Z-16.367 I-1.913 J0.
N670 X11.913 Z-17.111 I1.913 J0.
N675 X8.087 Z-17.855 I-1.913 J0.
N680 X8.436 Y-6.899 Z-18. I1.913 J0.
N685 X11.564 Y-9.101 I1.564 J-1.101
N690 X8.436 Y-6.899 I-1.564 J1.101
N695 G1 X10. Y-8. F100.
N700 Z15. F500.
N705 G53 G0 Z0.
N710 G53 G0 X0. Y0.
N715 M30
%
