%
(CLAMP_V2_2)
(MACHINE)
(  MODEL LASER SNAKE V2)
(  DESCRIPTION 3-AXIS ROUTER)
(T1  D=3.175 CR=0. - ZMIN=-18.1 - FLAT END MILL)
N10 G90 G94 G17 G91.1
N15 G21
(WHEN USING FUSION 360 FOR PERSONAL USE, THE FEEDRATE OF)
(RAPID MOVES IS REDUCED TO MATCH THE FEEDRATE OF CUTTING)
(MOVES, WHICH CAN INCREASE MACHINING TIME. UNRESTRICTED RAPID)
(MOVES ARE AVAILABLE WITH A FUSION 360 SUBSCRIPTION.)
N20 G53 G0 Z0.
(2D CONTOUR2 2)
N25 T1 M6
N30 S18000 M3
N35 G54
N40 G0 X39.656 Y-83.757
N45 G43 Z15. H1
N50 G1 Z5. F1000.
N55 Z-3.62 F100.
N60 G3 X26.587 Y-21.839 I-40.655 J23.757 F1000.
N65 G1 Y0.
N70 G3 X25. Y1.587 I-1.587 J0.
N75 G1 X0.
N80 G3 X-1.587 Y0. I0. J-1.587
N85 G1 Y-34.52
N90 G3 X-0.062 Y-36.106 I1.587 J0.
N95 G2 Y-83.894 I-0.936 J-23.894
N100 G3 X-1.587 Y-85.48 I0.062 J-1.586
N105 G1 Y-120.
N110 G3 X0. Y-121.588 I1.587 J0.
N115 G1 X25.
N120 G3 X26.587 Y-120. I0. J1.588
N125 G1 Y-98.161
N130 G3 X39.656 Y-83.757 I-27.586 J38.161
N135 G1 Z-7.24 F100.
N140 G3 X26.587 Y-21.839 I-40.655 J23.757 F1000.
N145 G1 Y0.
N150 G3 X25. Y1.587 I-1.587 J0.
N155 G1 X0.
N160 G3 X-1.587 Y0. I0. J-1.587
N165 G1 Y-34.52
N170 G3 X-0.062 Y-36.106 I1.587 J0.
N175 G2 Y-83.894 I-0.936 J-23.894
N180 G3 X-1.587 Y-85.48 I0.062 J-1.586
N185 G1 Y-120.
N190 G3 X0. Y-121.588 I1.587 J0.
N195 G1 X25.
N200 G3 X26.587 Y-120. I0. J1.588
N205 G1 Y-98.161
N210 G3 X39.656 Y-83.757 I-27.586 J38.161
N215 G1 Z-10.86 F100.
N220 G3 X26.587 Y-21.839 I-40.655 J23.757 F1000.
N225 G1 Y0.
N230 G3 X25. Y1.587 I-1.587 J0.
N235 G1 X0.
N240 G3 X-1.587 Y0. I0. J-1.587
N245 G1 Y-34.52
N250 G3 X-0.062 Y-36.106 I1.587 J0.
N255 G2 Y-83.894 I-0.936 J-23.894
N260 G3 X-1.587 Y-85.48 I0.062 J-1.586
N265 G1 Y-120.
N270 G3 X0. Y-121.588 I1.587 J0.
N275 G1 X25.
N280 G3 X26.587 Y-120. I0. J1.588
N285 G1 Y-98.161
N290 G3 X39.656 Y-83.757 I-27.586 J38.161
N295 G1 Z-14.48 F100.
N300 G3 X26.587 Y-21.839 I-40.655 J23.757 F1000.
N305 G1 Y0.
N310 G3 X25. Y1.587 I-1.587 J0.
N315 G1 X0.
N320 G3 X-1.587 Y0. I0. J-1.587
N325 G1 Y-34.52
N330 G3 X-0.062 Y-36.106 I1.587 J0.
N335 G2 Y-83.894 I-0.936 J-23.894
N340 G3 X-1.587 Y-85.48 I0.062 J-1.586
N345 G1 Y-120.
N350 G3 X0. Y-121.588 I1.587 J0.
N355 G1 X25.
N360 G3 X26.587 Y-120. I0. J1.588
N365 G1 Y-98.161
N370 G3 X39.656 Y-83.757 I-27.586 J38.161
N375 G1 Z-18.1 F100.
N380 G3 X26.587 Y-21.839 I-40.655 J23.757 F1000.
N385 G1 Y0.
N390 G3 X25. Y1.587 I-1.587 J0.
N395 G1 X0.
N400 G3 X-1.587 Y0. I0. J-1.587
N405 G1 Y-34.52
N410 G3 X-0.062 Y-36.106 I1.587 J0.
N415 G2 Y-83.894 I-0.936 J-23.894
N420 G3 X-1.587 Y-85.48 I0.062 J-1.586
N425 G1 Y-120.
N430 G3 X0. Y-121.588 I1.587 J0.
N435 G1 X25.
N440 G3 X26.587 Y-120. I0. J1.588
N445 G1 Y-98.161
N450 G3 X39.656 Y-83.757 I-27.586 J38.161
N455 G1 Z15.
N460 G53 G0 Z0.
N465 G53 G0 X0. Y0.
N470 M30
%
