%
(CLAMP_V2_1_R2)
(MACHINE)
(  MODEL LASER SNAKE V2)
(  DESCRIPTION 3-AXIS ROUTER)
(T1  D=3.175 CR=0. - ZMIN=-18.1 - FLAT END MILL)
N10 G90 G94 G17 G91.1
N15 G21
(WHEN USING FUSION 360 FOR PERSONAL USE, THE FEEDRATE OF)
(RAPID MOVES IS REDUCED TO MATCH THE FEEDRATE OF CUTTING)
(MOVES, WHICH CAN INCREASE MACHINING TIME. UNRESTRICTED RAPID)
(MOVES ARE AVAILABLE WITH A FUSION 360 SUBSCRIPTION.)
N20 G53 G0 Z0.
(2D CONTOUR2)
N25 T1 M6
N30 S18000 M3
N35 G54
N40 G0 X145.579 Y-85.262
N45 G43 Z15. H1
N50 G1 Z5. F1000.
N55 Z-3.62 F100.
N60 G3 X144.069 Y-83.894 I-1.572 J-0.219 F1000.
N65 G2 Y-36.106 I0.931 J23.894
N70 G3 X145.594 Y-34.519 I-0.062 J1.586
N75 G1 Y0.
N80 G3 X144.007 Y1.587 I-1.587 J0.
N85 G1 X0.
N90 G3 X-1.587 Y0. I0. J-1.587
N95 G1 Y-120.
N100 G3 X0. Y-121.588 I1.587 J0.
N105 G1 X144.007
N110 G3 X145.594 Y-120. I0. J1.588
N115 G1 Y-85.481
N120 X145.591 Y-85.371
N125 X145.579 Y-85.262
N130 Z-7.24 F100.
N135 G3 X144.069 Y-83.894 I-1.572 J-0.219 F1000.
N140 G2 Y-36.106 I0.931 J23.894
N145 G3 X145.594 Y-34.519 I-0.062 J1.586
N150 G1 Y0.
N155 G3 X144.007 Y1.587 I-1.587 J0.
N160 G1 X0.
N165 G3 X-1.587 Y0. I0. J-1.587
N170 G1 Y-120.
N175 G3 X0. Y-121.588 I1.587 J0.
N180 G1 X144.007
N185 G3 X145.594 Y-120. I0. J1.588
N190 G1 Y-85.481
N195 X145.591 Y-85.371
N200 X145.579 Y-85.262
N205 Z-10.86 F100.
N210 G3 X144.069 Y-83.894 I-1.572 J-0.219 F1000.
N215 G2 Y-36.106 I0.931 J23.894
N220 G3 X145.594 Y-34.519 I-0.062 J1.586
N225 G1 Y0.
N230 G3 X144.007 Y1.587 I-1.587 J0.
N235 G1 X0.
N240 G3 X-1.587 Y0. I0. J-1.587
N245 G1 Y-120.
N250 G3 X0. Y-121.588 I1.587 J0.
N255 G1 X144.007
N260 G3 X145.594 Y-120. I0. J1.588
N265 G1 Y-85.481
N270 X145.591 Y-85.371
N275 X145.579 Y-85.262
N280 Z-14.48 F100.
N285 G3 X144.069 Y-83.894 I-1.572 J-0.219 F1000.
N290 G2 Y-36.106 I0.931 J23.894
N295 G3 X145.594 Y-34.519 I-0.062 J1.586
N300 G1 Y-20.765
N305 Z-14.
N310 Y-7.59
N315 Z-14.48 F100.
N320 Y0. F1000.
N325 G3 X144.007 Y1.587 I-1.587 J0.
N330 G1 X129.305
N335 Z-14.
N340 X116.131
N345 Z-14.48 F100.
N350 X81.967 F1000.
N355 Z-14.
N360 X68.792
N365 Z-14.48 F100.
N370 X39.77 F1000.
N375 Z-14.
N380 X26.595
N385 Z-14.48 F100.
N390 X0. F1000.
N395 G3 X-1.587 Y0. I0. J-1.587
N400 G1 Y-29.969
N405 Z-14.
N410 Y-43.144
N415 Z-14.48 F100.
N420 Y-77.922 F1000.
N425 Z-14.
N430 Y-91.097
N435 Z-14.48 F100.
N440 Y-120. F1000.
N445 G3 X0. Y-121.588 I1.587 J0.
N450 G1 X25.767
N455 Z-14.
N460 X38.942
N465 Z-14.48 F100.
N470 X76.438 F1000.
N475 Z-14.
N480 X89.613
N485 Z-14.48 F100.
N490 X113.659 F1000.
N495 Z-14.
N500 X126.834
N505 Z-14.48 F100.
N510 X144.007 F1000.
N515 G3 X145.594 Y-120. I0. J1.588
N520 G1 Y-110.011
N525 Z-14.
N530 Y-96.837
N535 Z-14.48 F100.
N540 Y-85.481 F1000.
N545 X145.591 Y-85.371
N550 X145.579 Y-85.262
N555 Z-18.1 F100.
N560 G3 X144.069 Y-83.894 I-1.572 J-0.219 F1000.
N565 G2 Y-36.106 I0.931 J23.894
N570 G3 X145.594 Y-34.519 I-0.062 J1.586
N575 G1 Y-20.765
N580 Z-14.
N585 Y-7.59
N590 Z-18.1 F100.
N595 Y0. F1000.
N600 G3 X144.007 Y1.587 I-1.587 J0.
N605 G1 X129.305
N610 Z-14.
N615 X116.131
N620 Z-18.1 F100.
N625 X81.967 F1000.
N630 Z-14.
N635 X68.792
N640 Z-18.1 F100.
N645 X39.77 F1000.
N650 Z-14.
N655 X26.595
N660 Z-18.1 F100.
N665 X0. F1000.
N670 G3 X-1.587 Y0. I0. J-1.587
N675 G1 Y-29.969
N680 Z-14.
N685 Y-43.144
N690 Z-18.1 F100.
N695 Y-77.922 F1000.
N700 Z-14.
N705 Y-91.097
N710 Z-18.1 F100.
N715 Y-120. F1000.
N720 G3 X0. Y-121.588 I1.587 J0.
N725 G1 X25.767
N730 Z-14.
N735 X38.942
N740 Z-18.1 F100.
N745 X76.438 F1000.
N750 Z-14.
N755 X89.613
N760 Z-18.1 F100.
N765 X113.659 F1000.
N770 Z-14.
N775 X126.834
N780 Z-18.1 F100.
N785 X144.007 F1000.
N790 G3 X145.594 Y-120. I0. J1.588
N795 G1 Y-110.011
N800 Z-14.
N805 Y-96.837
N810 Z-18.1 F100.
N815 Y-85.481 F1000.
N820 X145.591 Y-85.371
N825 X145.579 Y-85.262
N830 Z15.
N835 G53 G0 Z0.
N840 G53 G0 X0. Y0.
N845 M30
%
