%
(FILTER_CLAMP_1)
(MACHINE)
(  MODEL LASER SNAKE V2)
(  DESCRIPTION 3-AXIS ROUTER)
(T1  D=3.175 CR=0. - ZMIN=-18.1 - FLAT END MILL)
N10 G90 G94 G17 G91.1
N15 G21
(WHEN USING FUSION 360 FOR PERSONAL USE, THE FEEDRATE OF)
(RAPID MOVES IS REDUCED TO MATCH THE FEEDRATE OF CUTTING)
(MOVES, WHICH CAN INCREASE MACHINING TIME. UNRESTRICTED RAPID)
(MOVES ARE AVAILABLE WITH A FUSION 360 SUBSCRIPTION.)
N20 G53 G0 Z0.
(2D CONTOUR1)
N25 T1 M6
N30 S18000 M3
N35 G54
N40 G0 X38.132 Y-38.93
N45 G43 Z15. H1
N50 G1 Z5. F1000.
N55 Z-3. F100.
N60 X38.133 Y-38.923 Z-3.121 F150.
N65 X38.138 Y-38.902 Z-3.239
N70 X38.145 Y-38.867 Z-3.355
N75 X38.154 Y-38.818 Z-3.465
N80 X38.166 Y-38.757 Z-3.568
N85 X38.181 Y-38.684 Z-3.663
N90 X38.197 Y-38.6 Z-3.749
N95 X38.216 Y-38.507 Z-3.823
N100 X38.236 Y-38.405 Z-3.885
N105 X38.257 Y-38.297 Z-3.935
N110 X38.279 Y-38.184 Z-3.971
N115 X38.302 Y-38.068 Z-3.993
N120 X38.325 Y-37.949 Z-4.
N125 X38.519 Y-36.968
N130 G2 X39.693 Y-36.18 I0.981 J-0.193
N135 G1 X39.844 Y-36.203 F1000.
N140 G2 Y-83.797 I-2.344 J-23.797
N145 G3 X38.412 Y-85.377 I0.156 J-1.58
N150 G1 Y-120.
N155 G3 X40. Y-121.588 I1.588 J0.
N160 G1 X65.
N165 G3 X66.588 Y-120. I0. J1.588
N170 G1 Y-103.209
N175 G3 Y-16.791 I-29.088 J43.209
N180 G1 Y0.
N185 G3 X65. Y1.587 I-1.588 J0.
N190 G1 X40.
N195 G3 X38.412 Y0. I0. J-1.587
N200 G1 Y-34.623
N205 G3 X39.693 Y-36.18 I1.588 J0.
N210 G2 X40.481 Y-37.355 I-0.193 J-0.981 F150.
N215 G1 X40.288 Y-38.336
N220 X40.264 Y-38.454 Z-3.993
N225 X40.241 Y-38.571 Z-3.971
N230 X40.219 Y-38.684 Z-3.935
N235 X40.198 Y-38.792 Z-3.885
N240 X40.178 Y-38.893 Z-3.823
N245 X40.159 Y-38.987 Z-3.749
N250 X40.143 Y-39.07 Z-3.663
N255 X40.129 Y-39.143 Z-3.568
N260 X40.116 Y-39.205 Z-3.465
N265 X40.107 Y-39.253 Z-3.355
N270 X40.1 Y-39.289 Z-3.239
N275 X40.096 Y-39.31 Z-3.121
N280 X40.094 Y-39.317 Z-3.
N285 Z5. F1000.
N290 X38.132 Y-38.93
N295 Z1. F100.
N300 Z-7.
N305 X38.133 Y-38.923 Z-7.121 F150.
N310 X38.138 Y-38.902 Z-7.239
N315 X38.145 Y-38.867 Z-7.355
N320 X38.154 Y-38.818 Z-7.465
N325 X38.166 Y-38.757 Z-7.568
N330 X38.181 Y-38.684 Z-7.663
N335 X38.197 Y-38.6 Z-7.749
N340 X38.216 Y-38.507 Z-7.823
N345 X38.236 Y-38.405 Z-7.885
N350 X38.257 Y-38.297 Z-7.935
N355 X38.279 Y-38.184 Z-7.971
N360 X38.302 Y-38.068 Z-7.993
N365 X38.325 Y-37.949 Z-8.
N370 X38.519 Y-36.968
N375 G2 X39.693 Y-36.18 I0.981 J-0.193
N380 G1 X39.844 Y-36.203 F1000.
N385 G2 Y-83.797 I-2.344 J-23.797
N390 G3 X38.412 Y-85.377 I0.156 J-1.58
N395 G1 Y-120.
N400 G3 X40. Y-121.588 I1.588 J0.
N405 G1 X65.
N410 G3 X66.588 Y-120. I0. J1.588
N415 G1 Y-103.209
N420 G3 Y-16.791 I-29.088 J43.209
N425 G1 Y0.
N430 G3 X65. Y1.587 I-1.588 J0.
N435 G1 X40.
N440 G3 X38.412 Y0. I0. J-1.587
N445 G1 Y-34.623
N450 G3 X39.693 Y-36.18 I1.588 J0.
N455 G2 X40.481 Y-37.355 I-0.193 J-0.981 F150.
N460 G1 X40.288 Y-38.336
N465 X40.264 Y-38.454 Z-7.993
N470 X40.241 Y-38.571 Z-7.971
N475 X40.219 Y-38.684 Z-7.935
N480 X40.198 Y-38.792 Z-7.885
N485 X40.178 Y-38.893 Z-7.823
N490 X40.159 Y-38.987 Z-7.749
N495 X40.143 Y-39.07 Z-7.663
N500 X40.129 Y-39.143 Z-7.568
N505 X40.116 Y-39.205 Z-7.465
N510 X40.107 Y-39.253 Z-7.355
N515 X40.1 Y-39.289 Z-7.239
N520 X40.096 Y-39.31 Z-7.121
N525 X40.094 Y-39.317 Z-7.
N530 Z5. F1000.
N535 X38.132 Y-38.93
N540 Z-3. F100.
N545 Z-11.
N550 X38.133 Y-38.923 Z-11.121 F150.
N555 X38.138 Y-38.902 Z-11.239
N560 X38.145 Y-38.867 Z-11.355
N565 X38.154 Y-38.818 Z-11.465
N570 X38.166 Y-38.757 Z-11.568
N575 X38.181 Y-38.684 Z-11.663
N580 X38.197 Y-38.6 Z-11.749
N585 X38.216 Y-38.507 Z-11.823
N590 X38.236 Y-38.405 Z-11.885
N595 X38.257 Y-38.297 Z-11.935
N600 X38.279 Y-38.184 Z-11.971
N605 X38.302 Y-38.068 Z-11.993
N610 X38.325 Y-37.949 Z-12.
N615 X38.519 Y-36.968
N620 G2 X39.693 Y-36.18 I0.981 J-0.193
N625 G1 X39.844 Y-36.203 F1000.
N630 G2 Y-83.797 I-2.344 J-23.797
N635 G3 X38.412 Y-85.377 I0.156 J-1.58
N640 G1 Y-120.
N645 G3 X40. Y-121.588 I1.588 J0.
N650 G1 X65.
N655 G3 X66.588 Y-120. I0. J1.588
N660 G1 Y-103.209
N665 G3 Y-16.791 I-29.088 J43.209
N670 G1 Y0.
N675 G3 X65. Y1.587 I-1.588 J0.
N680 G1 X40.
N685 G3 X38.412 Y0. I0. J-1.587
N690 G1 Y-34.623
N695 G3 X39.693 Y-36.18 I1.588 J0.
N700 G2 X40.481 Y-37.355 I-0.193 J-0.981 F150.
N705 G1 X40.288 Y-38.336
N710 X40.264 Y-38.454 Z-11.993
N715 X40.241 Y-38.571 Z-11.971
N720 X40.219 Y-38.684 Z-11.935
N725 X40.198 Y-38.792 Z-11.885
N730 X40.178 Y-38.893 Z-11.823
N735 X40.159 Y-38.987 Z-11.749
N740 X40.143 Y-39.07 Z-11.663
N745 X40.129 Y-39.143 Z-11.568
N750 X40.116 Y-39.205 Z-11.465
N755 X40.107 Y-39.253 Z-11.355
N760 X40.1 Y-39.289 Z-11.239
N765 X40.096 Y-39.31 Z-11.121
N770 X40.094 Y-39.317 Z-11.
N775 Z5. F1000.
N780 X38.132 Y-38.93
N785 Z-7. F100.
N790 Z-15.
N795 X38.133 Y-38.923 Z-15.121 F150.
N800 X38.138 Y-38.902 Z-15.239
N805 X38.145 Y-38.867 Z-15.355
N810 X38.154 Y-38.818 Z-15.465
N815 X38.166 Y-38.757 Z-15.568
N820 X38.181 Y-38.684 Z-15.663
N825 X38.197 Y-38.6 Z-15.749
N830 X38.216 Y-38.507 Z-15.823
N835 X38.236 Y-38.405 Z-15.885
N840 X38.257 Y-38.297 Z-15.935
N845 X38.279 Y-38.184 Z-15.971
N850 X38.302 Y-38.068 Z-15.993
N855 X38.325 Y-37.949 Z-16.
N860 X38.519 Y-36.968
N865 G2 X39.693 Y-36.18 I0.981 J-0.193
N870 G1 X39.844 Y-36.203 F1000.
N875 G2 Y-83.797 I-2.344 J-23.797
N880 G3 X38.412 Y-85.377 I0.156 J-1.58
N885 G1 Y-120.
N890 G3 X40. Y-121.588 I1.588 J0.
N895 G1 X65.
N900 G3 X66.588 Y-120. I0. J1.588
N905 G1 Y-103.209
N910 G3 Y-16.791 I-29.088 J43.209
N915 G1 Y0.
N920 G3 X65. Y1.587 I-1.588 J0.
N925 G1 X40.
N930 G3 X38.412 Y0. I0. J-1.587
N935 G1 Y-34.623
N940 G3 X39.693 Y-36.18 I1.588 J0.
N945 G2 X40.481 Y-37.355 I-0.193 J-0.981 F150.
N950 G1 X40.288 Y-38.336
N955 X40.264 Y-38.454 Z-15.993
N960 X40.241 Y-38.571 Z-15.971
N965 X40.219 Y-38.684 Z-15.935
N970 X40.198 Y-38.792 Z-15.885
N975 X40.178 Y-38.893 Z-15.823
N980 X40.159 Y-38.987 Z-15.749
N985 X40.143 Y-39.07 Z-15.663
N990 X40.129 Y-39.143 Z-15.568
N995 X40.116 Y-39.205 Z-15.465
N1000 X40.107 Y-39.253 Z-15.355
N1005 X40.1 Y-39.289 Z-15.239
N1010 X40.096 Y-39.31 Z-15.121
N1015 X40.094 Y-39.317 Z-15.
N1020 Z5. F1000.
N1025 X38.132 Y-38.93
N1030 Z-11. F100.
N1035 Z-17.1
N1040 X38.133 Y-38.923 Z-17.221 F150.
N1045 X38.138 Y-38.902 Z-17.339
N1050 X38.145 Y-38.867 Z-17.455
N1055 X38.154 Y-38.818 Z-17.565
N1060 X38.166 Y-38.757 Z-17.668
N1065 X38.181 Y-38.684 Z-17.763
N1070 X38.197 Y-38.6 Z-17.849
N1075 X38.216 Y-38.507 Z-17.923
N1080 X38.236 Y-38.405 Z-17.985
N1085 X38.257 Y-38.297 Z-18.035
N1090 X38.279 Y-38.184 Z-18.071
N1095 X38.302 Y-38.068 Z-18.093
N1100 X38.325 Y-37.949 Z-18.1
N1105 X38.519 Y-36.968
N1110 G2 X39.693 Y-36.18 I0.981 J-0.193
N1115 G1 X39.844 Y-36.203 F1000.
N1120 G2 Y-83.797 I-2.344 J-23.797
N1125 G3 X38.412 Y-85.377 I0.156 J-1.58
N1130 G1 Y-120.
N1135 G3 X40. Y-121.588 I1.588 J0.
N1140 G1 X65.
N1145 G3 X66.588 Y-120. I0. J1.588
N1150 G1 Y-103.209
N1155 G3 Y-16.791 I-29.088 J43.209
N1160 G1 Y0.
N1165 G3 X65. Y1.587 I-1.588 J0.
N1170 G1 X40.
N1175 G3 X38.412 Y0. I0. J-1.587
N1180 G1 Y-34.623
N1185 G3 X39.693 Y-36.18 I1.588 J0.
N1190 G2 X40.481 Y-37.355 I-0.193 J-0.981 F150.
N1195 G1 X40.288 Y-38.336
N1200 X40.264 Y-38.454 Z-18.093
N1205 X40.241 Y-38.571 Z-18.071
N1210 X40.219 Y-38.684 Z-18.035
N1215 X40.198 Y-38.792 Z-17.985
N1220 X40.178 Y-38.893 Z-17.923
N1225 X40.159 Y-38.987 Z-17.849
N1230 X40.143 Y-39.07 Z-17.763
N1235 X40.129 Y-39.143 Z-17.668
N1240 X40.116 Y-39.205 Z-17.565
N1245 X40.107 Y-39.253 Z-17.455
N1250 X40.1 Y-39.289 Z-17.339
N1255 X40.096 Y-39.31 Z-17.221
N1260 X40.094 Y-39.317 Z-17.1
N1265 Z5. F1000.
N1270 X31.868 Y-81.07
N1275 Z-3. F100.
N1280 X31.867 Y-81.077 Z-3.121 F150.
N1285 X31.862 Y-81.098 Z-3.239
N1290 X31.855 Y-81.133 Z-3.355
N1295 X31.846 Y-81.182 Z-3.465
N1300 X31.834 Y-81.243 Z-3.568
N1305 X31.819 Y-81.316 Z-3.663
N1310 X31.803 Y-81.4 Z-3.749
N1315 X31.784 Y-81.493 Z-3.823
N1320 X31.764 Y-81.595 Z-3.885
N1325 X31.743 Y-81.703 Z-3.935
N1330 X31.721 Y-81.816 Z-3.971
N1335 X31.698 Y-81.932 Z-3.993
N1340 X31.675 Y-82.051 Z-4.
N1345 X31.481 Y-83.032
N1350 G2 X30.307 Y-83.82 I-0.981 J0.193
N1355 G1 X30.156 Y-83.797 F1000.
N1360 G2 Y-36.203 I2.344 J23.797
N1365 G3 X31.587 Y-34.623 I-0.156 J1.58
N1370 G1 Y0.
N1375 G3 X30. Y1.587 I-1.587 J0.
N1380 G1 X0.
N1385 G3 X-1.587 Y0. I0. J-1.587
N1390 G1 Y-120.
N1395 G3 X0. Y-121.588 I1.587 J0.
N1400 G1 X30.
N1405 G3 X31.587 Y-120. I0. J1.588
N1410 G1 Y-85.377
N1415 G3 X30.307 Y-83.82 I-1.587 J0.
N1420 G2 X29.519 Y-82.645 I0.193 J0.981 F150.
N1425 G1 X29.712 Y-81.664
N1430 X29.736 Y-81.546 Z-3.993
N1435 X29.759 Y-81.429 Z-3.971
N1440 X29.781 Y-81.316 Z-3.935
N1445 X29.802 Y-81.208 Z-3.885
N1450 X29.822 Y-81.107 Z-3.823
N1455 X29.841 Y-81.013 Z-3.749
N1460 X29.857 Y-80.93 Z-3.663
N1465 X29.871 Y-80.857 Z-3.568
N1470 X29.884 Y-80.795 Z-3.465
N1475 X29.893 Y-80.747 Z-3.355
N1480 X29.9 Y-80.711 Z-3.239
N1485 X29.904 Y-80.69 Z-3.121
N1490 X29.906 Y-80.683 Z-3.
N1495 Z5. F1000.
N1500 X31.868 Y-81.07
N1505 Z1. F100.
N1510 Z-7.
N1515 X31.867 Y-81.077 Z-7.121 F150.
N1520 X31.862 Y-81.098 Z-7.239
N1525 X31.855 Y-81.133 Z-7.355
N1530 X31.846 Y-81.182 Z-7.465
N1535 X31.834 Y-81.243 Z-7.568
N1540 X31.819 Y-81.316 Z-7.663
N1545 X31.803 Y-81.4 Z-7.749
N1550 X31.784 Y-81.493 Z-7.823
N1555 X31.764 Y-81.595 Z-7.885
N1560 X31.743 Y-81.703 Z-7.935
N1565 X31.721 Y-81.816 Z-7.971
N1570 X31.698 Y-81.932 Z-7.993
N1575 X31.675 Y-82.051 Z-8.
N1580 X31.481 Y-83.032
N1585 G2 X30.307 Y-83.82 I-0.981 J0.193
N1590 G1 X30.156 Y-83.797 F1000.
N1595 G2 Y-36.203 I2.344 J23.797
N1600 G3 X31.587 Y-34.623 I-0.156 J1.58
N1605 G1 Y0.
N1610 G3 X30. Y1.587 I-1.587 J0.
N1615 G1 X0.
N1620 G3 X-1.587 Y0. I0. J-1.587
N1625 G1 Y-120.
N1630 G3 X0. Y-121.588 I1.587 J0.
N1635 G1 X30.
N1640 G3 X31.587 Y-120. I0. J1.588
N1645 G1 Y-85.377
N1650 G3 X30.307 Y-83.82 I-1.587 J0.
N1655 G2 X29.519 Y-82.645 I0.193 J0.981 F150.
N1660 G1 X29.712 Y-81.664
N1665 X29.736 Y-81.546 Z-7.993
N1670 X29.759 Y-81.429 Z-7.971
N1675 X29.781 Y-81.316 Z-7.935
N1680 X29.802 Y-81.208 Z-7.885
N1685 X29.822 Y-81.107 Z-7.823
N1690 X29.841 Y-81.013 Z-7.749
N1695 X29.857 Y-80.93 Z-7.663
N1700 X29.871 Y-80.857 Z-7.568
N1705 X29.884 Y-80.795 Z-7.465
N1710 X29.893 Y-80.747 Z-7.355
N1715 X29.9 Y-80.711 Z-7.239
N1720 X29.904 Y-80.69 Z-7.121
N1725 X29.906 Y-80.683 Z-7.
N1730 Z5. F1000.
N1735 X31.868 Y-81.07
N1740 Z-3. F100.
N1745 Z-11.
N1750 X31.867 Y-81.077 Z-11.121 F150.
N1755 X31.862 Y-81.098 Z-11.239
N1760 X31.855 Y-81.133 Z-11.355
N1765 X31.846 Y-81.182 Z-11.465
N1770 X31.834 Y-81.243 Z-11.568
N1775 X31.819 Y-81.316 Z-11.663
N1780 X31.803 Y-81.4 Z-11.749
N1785 X31.784 Y-81.493 Z-11.823
N1790 X31.764 Y-81.595 Z-11.885
N1795 X31.743 Y-81.703 Z-11.935
N1800 X31.721 Y-81.816 Z-11.971
N1805 X31.698 Y-81.932 Z-11.993
N1810 X31.675 Y-82.051 Z-12.
N1815 X31.481 Y-83.032
N1820 G2 X30.307 Y-83.82 I-0.981 J0.193
N1825 G1 X30.156 Y-83.797 F1000.
N1830 G2 Y-36.203 I2.344 J23.797
N1835 G3 X31.587 Y-34.623 I-0.156 J1.58
N1840 G1 Y0.
N1845 G3 X30. Y1.587 I-1.587 J0.
N1850 G1 X0.
N1855 G3 X-1.587 Y0. I0. J-1.587
N1860 G1 Y-120.
N1865 G3 X0. Y-121.588 I1.587 J0.
N1870 G1 X30.
N1875 G3 X31.587 Y-120. I0. J1.588
N1880 G1 Y-85.377
N1885 G3 X30.307 Y-83.82 I-1.587 J0.
N1890 G2 X29.519 Y-82.645 I0.193 J0.981 F150.
N1895 G1 X29.712 Y-81.664
N1900 X29.736 Y-81.546 Z-11.993
N1905 X29.759 Y-81.429 Z-11.971
N1910 X29.781 Y-81.316 Z-11.935
N1915 X29.802 Y-81.208 Z-11.885
N1920 X29.822 Y-81.107 Z-11.823
N1925 X29.841 Y-81.013 Z-11.749
N1930 X29.857 Y-80.93 Z-11.663
N1935 X29.871 Y-80.857 Z-11.568
N1940 X29.884 Y-80.795 Z-11.465
N1945 X29.893 Y-80.747 Z-11.355
N1950 X29.9 Y-80.711 Z-11.239
N1955 X29.904 Y-80.69 Z-11.121
N1960 X29.906 Y-80.683 Z-11.
N1965 Z5. F1000.
N1970 X31.868 Y-81.07
N1975 Z-7. F100.
N1980 Z-15.
N1985 X31.867 Y-81.077 Z-15.121 F150.
N1990 X31.862 Y-81.098 Z-15.239
N1995 X31.855 Y-81.133 Z-15.355
N2000 X31.846 Y-81.182 Z-15.465
N2005 X31.834 Y-81.243 Z-15.568
N2010 X31.819 Y-81.316 Z-15.663
N2015 X31.803 Y-81.4 Z-15.749
N2020 X31.784 Y-81.493 Z-15.823
N2025 X31.764 Y-81.595 Z-15.885
N2030 X31.743 Y-81.703 Z-15.935
N2035 X31.721 Y-81.816 Z-15.971
N2040 X31.698 Y-81.932 Z-15.993
N2045 X31.675 Y-82.051 Z-16.
N2050 X31.481 Y-83.032
N2055 G2 X30.307 Y-83.82 I-0.981 J0.193
N2060 G1 X30.156 Y-83.797 F1000.
N2065 G2 Y-36.203 I2.344 J23.797
N2070 G3 X31.587 Y-34.623 I-0.156 J1.58
N2075 G1 Y0.
N2080 G3 X30. Y1.587 I-1.587 J0.
N2085 G1 X0.
N2090 G3 X-1.587 Y0. I0. J-1.587
N2095 G1 Y-120.
N2100 G3 X0. Y-121.588 I1.587 J0.
N2105 G1 X30.
N2110 G3 X31.587 Y-120. I0. J1.588
N2115 G1 Y-85.377
N2120 G3 X30.307 Y-83.82 I-1.587 J0.
N2125 G2 X29.519 Y-82.645 I0.193 J0.981 F150.
N2130 G1 X29.712 Y-81.664
N2135 X29.736 Y-81.546 Z-15.993
N2140 X29.759 Y-81.429 Z-15.971
N2145 X29.781 Y-81.316 Z-15.935
N2150 X29.802 Y-81.208 Z-15.885
N2155 X29.822 Y-81.107 Z-15.823
N2160 X29.841 Y-81.013 Z-15.749
N2165 X29.857 Y-80.93 Z-15.663
N2170 X29.871 Y-80.857 Z-15.568
N2175 X29.884 Y-80.795 Z-15.465
N2180 X29.893 Y-80.747 Z-15.355
N2185 X29.9 Y-80.711 Z-15.239
N2190 X29.904 Y-80.69 Z-15.121
N2195 X29.906 Y-80.683 Z-15.
N2200 Z5. F1000.
N2205 X31.868 Y-81.07
N2210 Z-11. F100.
N2215 Z-17.1
N2220 X31.867 Y-81.077 Z-17.221 F150.
N2225 X31.862 Y-81.098 Z-17.339
N2230 X31.855 Y-81.133 Z-17.455
N2235 X31.846 Y-81.182 Z-17.565
N2240 X31.834 Y-81.243 Z-17.668
N2245 X31.819 Y-81.316 Z-17.763
N2250 X31.803 Y-81.4 Z-17.849
N2255 X31.784 Y-81.493 Z-17.923
N2260 X31.764 Y-81.595 Z-17.985
N2265 X31.743 Y-81.703 Z-18.035
N2270 X31.721 Y-81.816 Z-18.071
N2275 X31.698 Y-81.932 Z-18.093
N2280 X31.675 Y-82.051 Z-18.1
N2285 X31.481 Y-83.032
N2290 G2 X30.307 Y-83.82 I-0.981 J0.193
N2295 G1 X30.156 Y-83.797 F1000.
N2300 G2 Y-36.203 I2.344 J23.797
N2305 G3 X31.587 Y-34.623 I-0.156 J1.58
N2310 G1 Y0.
N2315 G3 X30. Y1.587 I-1.587 J0.
N2320 G1 X0.
N2325 G3 X-1.587 Y0. I0. J-1.587
N2330 G1 Y-120.
N2335 G3 X0. Y-121.588 I1.587 J0.
N2340 G1 X30.
N2345 G3 X31.587 Y-120. I0. J1.588
N2350 G1 Y-85.377
N2355 G3 X30.307 Y-83.82 I-1.587 J0.
N2360 G2 X29.519 Y-82.645 I0.193 J0.981 F150.
N2365 G1 X29.712 Y-81.664
N2370 X29.736 Y-81.546 Z-18.093
N2375 X29.759 Y-81.429 Z-18.071
N2380 X29.781 Y-81.316 Z-18.035
N2385 X29.802 Y-81.208 Z-17.985
N2390 X29.822 Y-81.107 Z-17.923
N2395 X29.841 Y-81.013 Z-17.849
N2400 X29.857 Y-80.93 Z-17.763
N2405 X29.871 Y-80.857 Z-17.668
N2410 X29.884 Y-80.795 Z-17.565
N2415 X29.893 Y-80.747 Z-17.455
N2420 X29.9 Y-80.711 Z-17.339
N2425 X29.904 Y-80.69 Z-17.221
N2430 X29.906 Y-80.683 Z-17.1
N2435 Z15. F1000.
N2440 G53 G0 Z0.
N2445 G53 G0 X0. Y0.
N2450 M30
%
