%
(CHANGE_DRILL_001)
(MACHINE)
(  MODEL LASER SNAKE V2)
(  DESCRIPTION 3-AXIS ROUTER)
(T1  D=2. CR=0. TAPER=118DEG - ZMIN=-20.601 - DRILL)
N10 G90 G94 G17 G91.1
N15 G21
N20 G53 G0 Z0.
(DRILL1)
N25 T1 M6
N30 S10000 M3
N35 G54
N40 G0 X0. Y-1197.5
N45 G43 Z15. H1
N50 G0 Z5.
N55 G98 G81 X0. Y-1197.5 Z-20.601 R5. F150.
N60 X30. Y-1172.5
N65 Y-860.
N70 X105. Y-650.
N75 X30. Y-547.5
N80 X10. Y-464.5
N85 X50.
N90 X105. Y-337.5
N95 Y-25.
N100 X50. Y-8.
N105 X10.
N110 G80
N115 G0 Z15.
N120 G53 G0 Z0.
N125 G53 G0 X0. Y0.
N130 M30
%
