%
(CHANGE_CONTOUR_001)
(MACHINE)
(  MODEL LASER SNAKE V2)
(  DESCRIPTION 3-AXIS ROUTER)
(T2  D=3.175 CR=0. - ZMIN=-18.1 - FLAT END MILL)
N10 G90 G94 G17 G91.1
N15 G21
(WHEN USING FUSION 360 FOR PERSONAL USE, THE FEEDRATE OF)
(RAPID MOVES IS REDUCED TO MATCH THE FEEDRATE OF CUTTING)
(MOVES, WHICH CAN INCREASE MACHINING TIME. UNRESTRICTED RAPID)
(MOVES ARE AVAILABLE WITH A FUSION 360 SUBSCRIPTION.)
N20 G53 G0 Z0.
(2D CONTOUR1)
N25 T2 M6
N30 S18000 M3
N35 G54
N40 G0 X60. Y-474.087
N45 G43 Z15. H2
N50 G1 Z5. F1000.
N55 Z-3.62 F100.
N60 G3 X61.588 Y-472.5 I0. J1.587 F1000.
N65 G1 Y0.
N70 G3 X60. Y1.587 I-1.588 J0.
N75 G1 X0.
N80 G3 X-1.587 Y0. I0. J-1.587
N85 G1 Y-472.5
N90 G3 X0. Y-474.087 I1.587 J0.
N95 G1 X60.
N100 Z-7.24 F100.
N105 G3 X61.588 Y-472.5 I0. J1.587 F1000.
N110 G1 Y0.
N115 G3 X60. Y1.587 I-1.588 J0.
N120 G1 X0.
N125 G3 X-1.587 Y0. I0. J-1.587
N130 G1 Y-472.5
N135 G3 X0. Y-474.087 I1.587 J0.
N140 G1 X60.
N145 Z-10.86 F100.
N150 G3 X61.588 Y-472.5 I0. J1.587 F1000.
N155 G1 Y0.
N160 G3 X60. Y1.587 I-1.588 J0.
N165 G1 X0.
N170 G3 X-1.587 Y0. I0. J-1.587
N175 G1 Y-472.5
N180 G3 X0. Y-474.087 I1.587 J0.
N185 G1 X60.
N190 Z-14.48 F100.
N195 G3 X61.588 Y-472.5 I0. J1.587 F1000.
N200 G1 Y0.
N205 G3 X60. Y1.587 I-1.588 J0.
N210 G1 X0.
N215 G3 X-1.587 Y0. I0. J-1.587
N220 G1 Y-472.5
N225 G3 X0. Y-474.087 I1.587 J0.
N230 G1 X60.
N235 Z-18.1 F100.
N240 G3 X61.588 Y-472.5 I0. J1.587 F1000.
N245 G1 Y0.
N250 G3 X60. Y1.587 I-1.588 J0.
N255 G1 X0.
N260 G3 X-1.587 Y0. I0. J-1.587
N265 G1 Y-472.5
N270 G3 X0. Y-474.087 I1.587 J0.
N275 G1 X60.
N280 Z5.
N285 X73.412 Y-472.5
N290 Z-3.62 F100.
N295 Y-675. F1000.
N300 G3 X75. Y-676.588 I1.588 J0.
N305 G1 X135.
N310 G3 X136.587 Y-675. I0. J1.588
N315 G1 Y0.
N320 G3 X135. Y1.587 I-1.587 J0.
N325 G1 X75.
N330 G3 X73.412 Y0. I0. J-1.587
N335 G1 Y-472.5
N340 Z-7.24 F100.
N345 Y-675. F1000.
N350 G3 X75. Y-676.588 I1.588 J0.
N355 G1 X135.
N360 G3 X136.587 Y-675. I0. J1.588
N365 G1 Y0.
N370 G3 X135. Y1.587 I-1.587 J0.
N375 G1 X75.
N380 G3 X73.412 Y0. I0. J-1.587
N385 G1 Y-472.5
N390 Z-10.86 F100.
N395 Y-675. F1000.
N400 G3 X75. Y-676.588 I1.588 J0.
N405 G1 X135.
N410 G3 X136.587 Y-675. I0. J1.588
N415 G1 Y0.
N420 G3 X135. Y1.587 I-1.587 J0.
N425 G1 X75.
N430 G3 X73.412 Y0. I0. J-1.587
N435 G1 Y-472.5
N440 Z-14.48 F100.
N445 Y-675. F1000.
N450 G3 X75. Y-676.588 I1.588 J0.
N455 G1 X135.
N460 G3 X136.587 Y-675. I0. J1.588
N465 G1 Y0.
N470 G3 X135. Y1.587 I-1.587 J0.
N475 G1 X75.
N480 G3 X73.412 Y0. I0. J-1.587
N485 G1 Y-472.5
N490 Z-18.1 F100.
N495 Y-675. F1000.
N500 G3 X75. Y-676.588 I1.588 J0.
N505 G1 X135.
N510 G3 X136.587 Y-675. I0. J1.588
N515 G1 Y0.
N520 G3 X135. Y1.587 I-1.587 J0.
N525 G1 X75.
N530 G3 X73.412 Y0. I0. J-1.587
N535 G1 Y-472.5
N540 Z5.
N545 X60. Y-520.912
N550 Z-3.62 F100.
N555 X0. F1000.
N560 G3 X-1.587 Y-522.5 I0. J-1.588
N565 G1 Y-1197.5
N570 G3 X0. Y-1199.088 I1.587 J0.
N575 G1 X60.
N580 G3 X61.588 Y-1197.5 I0. J1.588
N585 G1 Y-522.5
N590 G3 X60. Y-520.912 I-1.588 J0.
N595 G1 Z-7.24 F100.
N600 X0. F1000.
N605 G3 X-1.587 Y-522.5 I0. J-1.588
N610 G1 Y-1197.5
N615 G3 X0. Y-1199.088 I1.587 J0.
N620 G1 X60.
N625 G3 X61.588 Y-1197.5 I0. J1.588
N630 G1 Y-522.5
N635 G3 X60. Y-520.912 I-1.588 J0.
N640 G1 Z-10.86 F100.
N645 X0. F1000.
N650 G3 X-1.587 Y-522.5 I0. J-1.588
N655 G1 Y-1197.5
N660 G3 X0. Y-1199.088 I1.587 J0.
N665 G1 X60.
N670 G3 X61.588 Y-1197.5 I0. J1.588
N675 G1 Y-522.5
N680 G3 X60. Y-520.912 I-1.588 J0.
N685 G1 Z-14.48 F100.
N690 X0. F1000.
N695 G3 X-1.587 Y-522.5 I0. J-1.588
N700 G1 Y-1197.5
N705 G3 X0. Y-1199.088 I1.587 J0.
N710 G1 X60.
N715 G3 X61.588 Y-1197.5 I0. J1.588
N720 G1 Y-522.5
N725 G3 X60. Y-520.912 I-1.588 J0.
N730 G1 Z-18.1 F100.
N735 X0. F1000.
N740 G3 X-1.587 Y-522.5 I0. J-1.588
N745 G1 Y-1197.5
N750 G3 X0. Y-1199.088 I1.587 J0.
N755 G1 X60.
N760 G3 X61.588 Y-1197.5 I0. J1.588
N765 G1 Y-522.5
N770 G3 X60. Y-520.912 I-1.588 J0.
N775 G1 Z15.
N780 G53 G0 Z0.
N785 G53 G0 X0. Y0.
N790 M30
%
