%
(BASE_FLAT_MILL)
(T1  D=6. CR=0. - ZMIN=-40. - FLAT END MILL)
N10 G90 G94 G17 G91.1
N15 G21
N20 G53 G0 Z0.
(2D CONTOUR3)
N25 T1 M6
N30 S12000 M3
N35 G54
N40 G0 X43.1 Y-6.8
N45 G43 Z15. H1
N50 G0 Z5.
N55 G1 Z4. F333.33
N60 Z-2.4
N65 G19 G3 Y-6.2 Z-3. J0.6 K0.
N70 G1 Y-5.6 F1000.
N75 G17 G3 X42.5 Y-5. I-0.6 J0.
N80 G1 X10.001
N85 G2 X-4.999 Y10. I0. J15.
N90 G1 Y42.485
N95 G2 X42.445 Y90.248 I47.5 J0.262
N100 X90.001 Y42.596 I0.055 J-47.5
N105 G1 Y10.
N110 G2 X75.001 Y-5. I-15. J0.
N115 G1 X42.5
N120 G2 X41. Y-4. I0. J1.625
N125 G3 X39.5 Y-3. I-1.5 J-0.625
N130 G1 X10.001
N135 G2 X-2.999 Y10. I0. J13.
N140 G1 Y42.491
N145 G2 X42.446 Y88.248 I45.5 J0.256
N150 X88.001 Y42.599 I0.054 J-45.5
N155 G1 Y10.
N160 G2 X75.001 Y-3. I-13. J0.
N165 G1 X39.5
N170 X38.5
N175 G3 X37.9 Y-3.6 I0. J-0.6
N180 G1 Y-4.2
N185 G19 G2 Y-4.8 Z-2.4 J0. K0.6
N190 G0 Z5.
N195 X43.1 Y-6.8
N200 G1 Z1. F333.33
N205 Z-5.4
N210 G3 Y-6.2 Z-6. J0.6 K0.
N215 G1 Y-5.6 F1000.
N220 G17 G3 X42.5 Y-5. I-0.6 J0.
N225 G1 X10.001
N230 G2 X-4.999 Y10. I0. J15.
N235 G1 Y42.485
N240 G2 X42.445 Y90.248 I47.5 J0.262
N245 X90.001 Y42.596 I0.055 J-47.5
N250 G1 Y10.
N255 G2 X75.001 Y-5. I-15. J0.
N260 G1 X42.5
N265 G2 X41. Y-4. I0. J1.625
N270 G3 X39.5 Y-3. I-1.5 J-0.625
N275 G1 X10.001
N280 G2 X-2.999 Y10. I0. J13.
N285 G1 Y42.491
N290 G2 X42.446 Y88.248 I45.5 J0.256
N295 X88.001 Y42.599 I0.054 J-45.5
N300 G1 Y10.
N305 G2 X75.001 Y-3. I-13. J0.
N310 G1 X39.5
N315 X38.5
N320 G3 X37.9 Y-3.6 I0. J-0.6
N325 G1 Y-4.2
N330 G19 G2 Y-4.8 Z-5.4 J0. K0.6
N335 G0 Z5.
N340 X43.1 Y-6.8
N345 G1 Z-2. F333.33
N350 Z-8.4
N355 G3 Y-6.2 Z-9. J0.6 K0.
N360 G1 Y-5.6 F1000.
N365 G17 G3 X42.5 Y-5. I-0.6 J0.
N370 G1 X10.001
N375 G2 X-4.999 Y10. I0. J15.
N380 G1 Y42.485
N385 G2 X42.445 Y90.248 I47.5 J0.262
N390 X90.001 Y42.596 I0.055 J-47.5
N395 G1 Y10.
N400 G2 X75.001 Y-5. I-15. J0.
N405 G1 X42.5
N410 G2 X41. Y-4. I0. J1.625
N415 G3 X39.5 Y-3. I-1.5 J-0.625
N420 G1 X10.001
N425 G2 X-2.999 Y10. I0. J13.
N430 G1 Y42.491
N435 G2 X42.446 Y88.248 I45.5 J0.256
N440 X88.001 Y42.599 I0.054 J-45.5
N445 G1 Y10.
N450 G2 X75.001 Y-3. I-13. J0.
N455 G1 X39.5
N460 X38.5
N465 G3 X37.9 Y-3.6 I0. J-0.6
N470 G1 Y-4.2
N475 G19 G2 Y-4.8 Z-8.4 J0. K0.6
N480 G0 Z5.
N485 X43.1 Y-6.8
N490 G1 Z-5. F333.33
N495 Z-11.4
N500 G3 Y-6.2 Z-12. J0.6 K0.
N505 G1 Y-5.6 F1000.
N510 G17 G3 X42.5 Y-5. I-0.6 J0.
N515 G1 X10.001
N520 G2 X-4.999 Y10. I0. J15.
N525 G1 Y42.485
N530 G2 X42.445 Y90.248 I47.5 J0.262
N535 X90.001 Y42.596 I0.055 J-47.5
N540 G1 Y10.
N545 G2 X75.001 Y-5. I-15. J0.
N550 G1 X42.5
N555 G2 X41. Y-4. I0. J1.625
N560 G3 X39.5 Y-3. I-1.5 J-0.625
N565 G1 X10.001
N570 G2 X-2.999 Y10. I0. J13.
N575 G1 Y42.491
N580 G2 X42.446 Y88.248 I45.5 J0.256
N585 X88.001 Y42.599 I0.054 J-45.5
N590 G1 Y10.
N595 G2 X75.001 Y-3. I-13. J0.
N600 G1 X39.5
N605 X38.5
N610 G3 X37.9 Y-3.6 I0. J-0.6
N615 G1 Y-4.2
N620 G19 G2 Y-4.8 Z-11.4 J0. K0.6
N625 G0 Z5.
N630 X43.1 Y-6.8
N635 G1 Z-8. F333.33
N640 Z-14.4
N645 G3 Y-6.2 Z-15. J0.6 K0.
N650 G1 Y-5.6 F1000.
N655 G17 G3 X42.5 Y-5. I-0.6 J0.
N660 G1 X10.001
N665 G2 X-4.999 Y10. I0. J15.
N670 G1 Y42.485
N675 G2 X42.445 Y90.248 I47.5 J0.262
N680 X90.001 Y42.596 I0.055 J-47.5
N685 G1 Y10.
N690 G2 X75.001 Y-5. I-15. J0.
N695 G1 X42.5
N700 G2 X41. Y-4. I0. J1.625
N705 G3 X39.5 Y-3. I-1.5 J-0.625
N710 G1 X10.001
N715 G2 X-2.999 Y10. I0. J13.
N720 G1 Y42.491
N725 G2 X42.446 Y88.248 I45.5 J0.256
N730 X88.001 Y42.599 I0.054 J-45.5
N735 G1 Y10.
N740 G2 X75.001 Y-3. I-13. J0.
N745 G1 X39.5
N750 X38.5
N755 G3 X37.9 Y-3.6 I0. J-0.6
N760 G1 Y-4.2
N765 G19 G2 Y-4.8 Z-14.4 J0. K0.6
N770 G0 Z5.
N775 X43.1 Y-6.8
N780 G1 Z-11. F333.33
N785 Z-17.4
N790 G3 Y-6.2 Z-18. J0.6 K0.
N795 G1 Y-5.6 F1000.
N800 G17 G3 X42.5 Y-5. I-0.6 J0.
N805 G1 X10.001
N810 G2 X-4.999 Y10. I0. J15.
N815 G1 Y42.485
N820 G2 X42.445 Y90.248 I47.5 J0.262
N825 X90.001 Y42.596 I0.055 J-47.5
N830 G1 Y10.
N835 G2 X75.001 Y-5. I-15. J0.
N840 G1 X42.5
N845 G2 X41. Y-4. I0. J1.625
N850 G3 X39.5 Y-3. I-1.5 J-0.625
N855 G1 X10.001
N860 G2 X-2.999 Y10. I0. J13.
N865 G1 Y42.491
N870 G2 X42.446 Y88.248 I45.5 J0.256
N875 X88.001 Y42.599 I0.054 J-45.5
N880 G1 Y10.
N885 G2 X75.001 Y-3. I-13. J0.
N890 G1 X39.5
N895 X38.5
N900 G3 X37.9 Y-3.6 I0. J-0.6
N905 G1 Y-4.2
N910 G19 G2 Y-4.8 Z-17.4 J0. K0.6
N915 G0 Z5.
N920 X43.1 Y-6.8
N925 G1 Z-14. F333.33
N930 Z-20.4
N935 G3 Y-6.2 Z-21. J0.6 K0.
N940 G1 Y-5.6 F1000.
N945 G17 G3 X42.5 Y-5. I-0.6 J0.
N950 G1 X10.001
N955 G2 X-4.999 Y10. I0. J15.
N960 G1 Y42.485
N965 G2 X42.445 Y90.248 I47.5 J0.262
N970 X90.001 Y42.596 I0.055 J-47.5
N975 G1 Y10.
N980 G2 X75.001 Y-5. I-15. J0.
N985 G1 X42.5
N990 G2 X41. Y-4. I0. J1.625
N995 G3 X39.5 Y-3. I-1.5 J-0.625
N1000 G1 X10.001
N1005 G2 X-2.999 Y10. I0. J13.
N1010 G1 Y42.491
N1015 G2 X42.446 Y88.248 I45.5 J0.256
N1020 X88.001 Y42.599 I0.054 J-45.5
N1025 G1 Y10.
N1030 G2 X75.001 Y-3. I-13. J0.
N1035 G1 X39.5
N1040 X38.5
N1045 G3 X37.9 Y-3.6 I0. J-0.6
N1050 G1 Y-4.2
N1055 G19 G2 Y-4.8 Z-20.4 J0. K0.6
N1060 G0 Z5.
N1065 X43.1 Y-6.8
N1070 G1 Z-17. F333.33
N1075 Z-23.4
N1080 G3 Y-6.2 Z-24. J0.6 K0.
N1085 G1 Y-5.6 F1000.
N1090 G17 G3 X42.5 Y-5. I-0.6 J0.
N1095 G1 X10.001
N1100 G2 X-4.999 Y10. I0. J15.
N1105 G1 Y42.485
N1110 G2 X42.445 Y90.248 I47.5 J0.262
N1115 X90.001 Y42.596 I0.055 J-47.5
N1120 G1 Y10.
N1125 G2 X75.001 Y-5. I-15. J0.
N1130 G1 X42.5
N1135 G2 X41. Y-4. I0. J1.625
N1140 G3 X39.5 Y-3. I-1.5 J-0.625
N1145 G1 X10.001
N1150 G2 X-2.999 Y10. I0. J13.
N1155 G1 Y42.491
N1160 G2 X42.446 Y88.248 I45.5 J0.256
N1165 X88.001 Y42.599 I0.054 J-45.5
N1170 G1 Y10.
N1175 G2 X75.001 Y-3. I-13. J0.
N1180 G1 X39.5
N1185 X38.5
N1190 G3 X37.9 Y-3.6 I0. J-0.6
N1195 G1 Y-4.2
N1200 G19 G2 Y-4.8 Z-23.4 J0. K0.6
N1205 G0 Z5.
N1210 X43.1 Y-6.8
N1215 G1 Z-20. F333.33
N1220 Z-26.4
N1225 G3 Y-6.2 Z-27. J0.6 K0.
N1230 G1 Y-5.6 F1000.
N1235 G17 G3 X42.5 Y-5. I-0.6 J0.
N1240 G1 X10.001
N1245 G2 X-4.999 Y10. I0. J15.
N1250 G1 Y42.485
N1255 G2 X42.445 Y90.248 I47.5 J0.262
N1260 X90.001 Y42.596 I0.055 J-47.5
N1265 G1 Y10.
N1270 G2 X75.001 Y-5. I-15. J0.
N1275 G1 X42.5
N1280 G2 X41. Y-4. I0. J1.625
N1285 G3 X39.5 Y-3. I-1.5 J-0.625
N1290 G1 X10.001
N1295 G2 X-2.999 Y10. I0. J13.
N1300 G1 Y42.491
N1305 G2 X42.446 Y88.248 I45.5 J0.256
N1310 X88.001 Y42.599 I0.054 J-45.5
N1315 G1 Y10.
N1320 G2 X75.001 Y-3. I-13. J0.
N1325 G1 X39.5
N1330 X38.5
N1335 G3 X37.9 Y-3.6 I0. J-0.6
N1340 G1 Y-4.2
N1345 G19 G2 Y-4.8 Z-26.4 J0. K0.6
N1350 G0 Z5.
N1355 X43.1 Y-6.8
N1360 G1 Z-23. F333.33
N1365 Z-29.4
N1370 G3 Y-6.2 Z-30. J0.6 K0.
N1375 G1 Y-5.6 F1000.
N1380 G17 G3 X42.5 Y-5. I-0.6 J0.
N1385 G1 X10.001
N1390 G2 X-4.999 Y10. I0. J15.
N1395 G1 Y42.485
N1400 G2 X42.445 Y90.248 I47.5 J0.262
N1405 X90.001 Y42.596 I0.055 J-47.5
N1410 G1 Y10.
N1415 G2 X75.001 Y-5. I-15. J0.
N1420 G1 X42.5
N1425 G2 X41. Y-4. I0. J1.625
N1430 G3 X39.5 Y-3. I-1.5 J-0.625
N1435 G1 X10.001
N1440 G2 X-2.999 Y10. I0. J13.
N1445 G1 Y42.491
N1450 G2 X42.446 Y88.248 I45.5 J0.256
N1455 X88.001 Y42.599 I0.054 J-45.5
N1460 G1 Y10.
N1465 G2 X75.001 Y-3. I-13. J0.
N1470 G1 X39.5
N1475 X38.5
N1480 G3 X37.9 Y-3.6 I0. J-0.6
N1485 G1 Y-4.2
N1490 G19 G2 Y-4.8 Z-29.4 J0. K0.6
N1495 G0 Z5.
N1500 X43.1 Y-6.8
N1505 G1 Z-26. F333.33
N1510 Z-32.4
N1515 G3 Y-6.2 Z-33. J0.6 K0.
N1520 G1 Y-5.6 F1000.
N1525 G17 G3 X42.5 Y-5. I-0.6 J0.
N1530 G1 X10.001
N1535 G2 X-4.999 Y10. I0. J15.
N1540 G1 Y42.485
N1545 G2 X42.445 Y90.248 I47.5 J0.262
N1550 X90.001 Y42.596 I0.055 J-47.5
N1555 G1 Y10.
N1560 G2 X75.001 Y-5. I-15. J0.
N1565 G1 X42.5
N1570 G2 X41. Y-4. I0. J1.625
N1575 G3 X39.5 Y-3. I-1.5 J-0.625
N1580 G1 X10.001
N1585 G2 X-2.999 Y10. I0. J13.
N1590 G1 Y42.491
N1595 G2 X42.446 Y88.248 I45.5 J0.256
N1600 X88.001 Y42.599 I0.054 J-45.5
N1605 G1 Y10.
N1610 G2 X75.001 Y-3. I-13. J0.
N1615 G1 X39.5
N1620 X38.5
N1625 G3 X37.9 Y-3.6 I0. J-0.6
N1630 G1 Y-4.2
N1635 G19 G2 Y-4.8 Z-32.4 J0. K0.6
N1640 G0 Z5.
N1645 X43.1 Y-6.8
N1650 G1 Z-29. F333.33
N1655 Z-35.4
N1660 G3 Y-6.2 Z-36. J0.6 K0.
N1665 G1 Y-5.6 F1000.
N1670 G17 G3 X42.5 Y-5. I-0.6 J0.
N1675 G1 X10.001
N1680 G2 X-4.999 Y10. I0. J15.
N1685 G1 Y42.485
N1690 G2 X42.445 Y90.248 I47.5 J0.262
N1695 X90.001 Y42.596 I0.055 J-47.5
N1700 G1 Y10.
N1705 G2 X75.001 Y-5. I-15. J0.
N1710 G1 X42.5
N1715 G2 X41. Y-4. I0. J1.625
N1720 G3 X39.5 Y-3. I-1.5 J-0.625
N1725 G1 X10.001
N1730 G2 X-2.999 Y10. I0. J13.
N1735 G1 Y42.491
N1740 G2 X42.446 Y88.248 I45.5 J0.256
N1745 X88.001 Y42.599 I0.054 J-45.5
N1750 G1 Y10.
N1755 G2 X75.001 Y-3. I-13. J0.
N1760 G1 X39.5
N1765 X38.5
N1770 G3 X37.9 Y-3.6 I0. J-0.6
N1775 G1 Y-4.2
N1780 G19 G2 Y-4.8 Z-35.4 J0. K0.6
N1785 G0 Z5.
N1790 X43.1 Y-6.8
N1795 G1 Z-32. F333.33
N1800 Z-38.4
N1805 G3 Y-6.2 Z-39. J0.6 K0.
N1810 G1 Y-5.6 F1000.
N1815 G17 G3 X42.5 Y-5. I-0.6 J0.
N1820 G1 X10.001
N1825 G2 X-4.999 Y10. I0. J15.
N1830 G1 Y42.485
N1835 G2 X42.445 Y90.248 I47.5 J0.262
N1840 X90.001 Y42.596 I0.055 J-47.5
N1845 G1 Y10.
N1850 G2 X75.001 Y-5. I-15. J0.
N1855 G1 X42.5
N1860 G2 X41. Y-4. I0. J1.625
N1865 G3 X39.5 Y-3. I-1.5 J-0.625
N1870 G1 X10.001
N1875 G2 X-2.999 Y10. I0. J13.
N1880 G1 Y42.491
N1885 G2 X42.446 Y88.248 I45.5 J0.256
N1890 X88.001 Y42.599 I0.054 J-45.5
N1895 G1 Y10.
N1900 G2 X75.001 Y-3. I-13. J0.
N1905 G1 X39.5
N1910 X38.5
N1915 G3 X37.9 Y-3.6 I0. J-0.6
N1920 G1 Y-4.2
N1925 G19 G2 Y-4.8 Z-38.4 J0. K0.6
N1930 G0 Z5.
N1935 X43.1 Y-6.8
N1940 G1 Z-35. F333.33
N1945 Z-39.4
N1950 G3 Y-6.2 Z-40. J0.6 K0.
N1955 G1 Y-5.6 F1000.
N1960 G17 G3 X42.5 Y-5. I-0.6 J0.
N1965 G1 X10.001
N1970 G2 X-4.999 Y10. I0. J15.
N1975 G1 Y42.485
N1980 G2 X42.445 Y90.248 I47.5 J0.262
N1985 X90.001 Y42.596 I0.055 J-47.5
N1990 G1 Y10.
N1995 G2 X75.001 Y-5. I-15. J0.
N2000 G1 X42.5
N2005 G2 X41. Y-4. I0. J1.625
N2010 G3 X39.5 Y-3. I-1.5 J-0.625
N2015 G1 X10.001
N2020 G2 X-2.999 Y10. I0. J13.
N2025 G1 Y42.491
N2030 G2 X42.446 Y88.248 I45.5 J0.256
N2035 X88.001 Y42.599 I0.054 J-45.5
N2040 G1 Y10.
N2045 G2 X75.001 Y-3. I-13. J0.
N2050 G1 X39.5
N2055 X38.5
N2060 G3 X37.9 Y-3.6 I0. J-0.6
N2065 G1 Y-4.2
N2070 G19 G2 Y-4.8 Z-39.4 J0. K0.6
N2075 G0 Z15.
N2080 G17
(ADAPTIVE2)
N2085 G0 X43.302 Y45.482
N2090 Z15.
N2095 Z5.
N2100 Z2.5
N2105 G3 X41.699 Y40.012 Z2.187 I-0.801 J-2.735 F333.33
N2110 X43.302 Y45.482 Z1.875 I0.801 J2.735
N2115 X41.699 Y40.012 Z1.562 I-0.801 J-2.735
N2120 X43.302 Y45.482 Z1.249 I0.801 J2.735
N2125 X41.699 Y40.012 Z0.937 I-0.801 J-2.735
N2130 X43.302 Y45.482 Z0.624 I0.801 J2.735
N2135 X41.699 Y40.012 Z0.311 I-0.801 J-2.735
N2140 X43.302 Y45.482 Z-0.001 I0.801 J2.735
N2145 X41.699 Y40.012 Z-0.314 I-0.801 J-2.735
N2150 X43.302 Y45.482 Z-0.627 I0.801 J2.735
N2155 X41.699 Y40.012 Z-0.939 I-0.801 J-2.735
N2160 X43.302 Y45.482 Z-1.252 I0.801 J2.735
N2165 X41.699 Y40.012 Z-1.565 I-0.801 J-2.735
N2170 X43.302 Y45.482 Z-1.877 I0.801 J2.735
N2175 X41.699 Y40.012 Z-2.19 I-0.801 J-2.735
N2180 X43.302 Y45.482 Z-2.503 I0.801 J2.735
N2185 X41.699 Y40.012 Z-2.815 I-0.801 J-2.735
N2190 X45.351 Y42.747 Z-3. I0.801 J2.735
N2195 X39.651 I-2.85 J0.
N2200 X45.351 I2.85 J0.
N2205 G1 X45.354 Y43.003 F1000.
N2210 X45.555 Y44.008
N2215 X45.587 Y44.154
N2220 X45.604 Y44.303
N2225 X45.606 Y44.453
N2230 X45.596 Y44.608
N2235 X45.572 Y44.772
N2240 X45.532 Y44.945
N2245 X45.476 Y45.124
N2250 X45.401 Y45.308
N2255 X45.306 Y45.495
N2260 X45.191 Y45.684
N2265 X45.056 Y45.87
N2270 X44.899 Y46.053
N2275 X44.721 Y46.23
N2280 X44.523 Y46.398
N2285 X44.304 Y46.555
N2290 X44.066 Y46.698
N2295 X43.81 Y46.825
N2300 X43.538 Y46.934
N2305 X43.25 Y47.023
N2310 X42.951 Y47.09
N2315 X42.64 Y47.133
N2320 X42.322 Y47.152
N2325 X41.998 Y47.145
N2330 X41.671 Y47.112
N2335 X41.344 Y47.052
N2340 X41.019 Y46.964
N2345 X40.698 Y46.85
N2350 X40.385 Y46.709
N2355 X40.082 Y46.542
N2360 X39.791 Y46.35
N2365 X39.515 Y46.134
N2370 X39.256 Y45.895
N2375 X39.015 Y45.635
N2380 X38.796 Y45.355
N2385 X38.598 Y45.058
N2390 X38.425 Y44.744
N2395 X38.277 Y44.417
N2400 X38.155 Y44.078
N2405 X38.061 Y43.729
N2410 X37.995 Y43.374
N2415 X37.957 Y43.013
N2420 X37.949 Y42.651
N2425 X37.97 Y42.288
N2430 X38.02 Y41.928
N2435 X38.098 Y41.572
N2440 X38.206 Y41.224
N2445 X38.34 Y40.885
N2450 X38.502 Y40.558
N2455 X38.689 Y40.244
N2460 X38.902 Y39.947
N2465 X39.137 Y39.668
N2470 X39.394 Y39.408
N2475 X39.672 Y39.169
N2480 X39.967 Y38.954
N2485 X40.279 Y38.763
N2490 X40.606 Y38.597
N2495 X40.945 Y38.459
N2500 X41.294 Y38.347
N2505 X41.65 Y38.265
N2510 X42.013 Y38.211
N2515 X42.378 Y38.186
N2520 X42.744 Y38.191
N2525 X43.109 Y38.225
N2530 X43.47 Y38.288
N2535 X43.825 Y38.38
N2540 X44.171 Y38.501
N2545 X44.506 Y38.648
N2550 X44.829 Y38.822
N2555 X45.136 Y39.022
N2560 X45.426 Y39.245
N2565 X45.698 Y39.491
N2570 X45.949 Y39.758
N2575 X46.178 Y40.045
N2580 X46.383 Y40.348
N2585 X46.701 Y40.913
N2590 X47.022 Y41.606
N2595 X47.22 Y42.147
N2600 X47.356 Y42.63
N2605 X47.443 Y43.078
N2610 X47.491 Y43.511
N2615 X47.504 Y43.93
N2620 X47.484 Y44.337
N2625 X47.433 Y44.733
N2630 X47.35 Y45.12
N2635 X47.237 Y45.499
N2640 X47.094 Y45.867
N2645 X46.921 Y46.224
N2650 X46.719 Y46.569
N2655 X46.488 Y46.899
N2660 X46.228 Y47.212
N2665 X45.941 Y47.507
N2670 X45.628 Y47.78
N2675 X45.289 Y48.032
N2680 X44.926 Y48.258
N2685 X44.541 Y48.457
N2690 X44.135 Y48.627
N2695 X43.712 Y48.766
N2700 X43.273 Y48.872
N2705 X42.821 Y48.943
N2710 X42.36 Y48.978
N2715 X41.893 Y48.976
N2720 X41.423 Y48.936
N2725 X40.954 Y48.857
N2730 X40.488 Y48.74
N2735 X40.03 Y48.585
N2740 X39.583 Y48.393
N2745 X39.15 Y48.164
N2750 X38.734 Y47.899
N2755 X38.338 Y47.6
N2760 X37.966 Y47.268
N2765 X37.62 Y46.906
N2770 X37.303 Y46.516
N2775 X37.018 Y46.1
N2780 X36.765 Y45.661
N2785 X36.548 Y45.201
N2790 X36.368 Y44.725
N2795 X36.227 Y44.234
N2800 X36.125 Y43.732
N2805 X36.064 Y43.223
N2810 X36.044 Y42.71
N2815 X36.065 Y42.196
N2820 X36.127 Y41.684
N2825 X36.23 Y41.179
N2830 X36.374 Y40.683
N2835 X36.557 Y40.199
N2840 X36.778 Y39.732
N2845 X37.037 Y39.283
N2850 X37.331 Y38.857
N2855 X37.658 Y38.455
N2860 X38.017 Y38.08
N2865 X38.405 Y37.736
N2870 X38.819 Y37.423
N2875 X39.257 Y37.145
N2880 X39.716 Y36.903
N2885 X40.194 Y36.698
N2890 X40.686 Y36.532
N2895 X41.19 Y36.406
N2900 X41.703 Y36.321
N2905 X42.221 Y36.278
N2910 X42.74 Y36.276
N2915 X43.259 Y36.316
N2920 X43.772 Y36.397
N2925 X44.278 Y36.52
N2930 X44.772 Y36.682
N2935 X45.251 Y36.884
N2940 X45.713 Y37.123
N2945 X46.153 Y37.399
N2950 X46.571 Y37.71
N2955 X47.004 Y38.089
N2960 X47.446 Y38.544
N2965 X47.86 Y39.045
N2970 X48.242 Y39.592
N2975 X48.579 Y40.167
N2980 X48.862 Y40.754
N2985 X49.091 Y41.347
N2990 X49.268 Y41.941
N2995 X49.393 Y42.534
N3000 X49.469 Y43.125
N3005 X49.497 Y43.711
N3010 X49.479 Y44.292
N3015 X49.414 Y44.864
N3020 X49.304 Y45.425
N3025 X49.15 Y45.973
N3030 X48.953 Y46.506
N3035 X48.714 Y47.022
N3040 X48.433 Y47.518
N3045 X48.113 Y47.991
N3050 X47.754 Y48.439
N3055 X47.358 Y48.859
N3060 X46.927 Y49.249
N3065 X46.462 Y49.605
N3070 X45.966 Y49.926
N3075 X45.442 Y50.208
N3080 X44.892 Y50.45
N3085 X44.32 Y50.648
N3090 X43.728 Y50.8
N3095 X43.122 Y50.906
N3100 X42.505 Y50.963
N3105 X41.88 Y50.97
N3110 X41.253 Y50.927
N3115 X40.627 Y50.833
N3120 X40.007 Y50.688
N3125 X39.396 Y50.493
N3130 X38.8 Y50.248
N3135 X38.222 Y49.954
N3140 X37.667 Y49.613
N3145 X37.139 Y49.227
N3150 X36.641 Y48.798
N3155 X36.177 Y48.328
N3160 X35.751 Y47.821
N3165 X35.365 Y47.279
N3170 X35.023 Y46.706
N3175 X34.728 Y46.106
N3180 X34.481 Y45.483
N3185 X34.284 Y44.84
N3190 X34.139 Y44.182
N3195 X34.047 Y43.513
N3200 X34.01 Y42.838
N3205 X34.026 Y42.162
N3210 X34.097 Y41.488
N3215 X34.222 Y40.821
N3220 X34.4 Y40.165
N3225 X34.63 Y39.526
N3230 X34.911 Y38.906
N3235 X35.242 Y38.311
N3240 X35.619 Y37.743
N3245 X36.041 Y37.208
N3250 X36.504 Y36.708
N3255 X37.007 Y36.246
N3260 X37.545 Y35.826
N3265 X38.115 Y35.451
N3270 X38.713 Y35.122
N3275 X39.336 Y34.843
N3280 X39.98 Y34.614
N3285 X40.64 Y34.438
N3290 X41.313 Y34.315
N3295 X41.993 Y34.247
N3300 X42.676 Y34.233
N3305 X43.358 Y34.275
N3310 X44.035 Y34.37
N3315 X44.702 Y34.52
N3320 X45.355 Y34.723
N3325 X45.99 Y34.978
N3330 X46.614 Y35.289
N3335 X47.233 Y35.662
N3340 X47.837 Y36.096
N3345 X48.422 Y36.592
N3350 X48.976 Y37.144
N3355 X49.49 Y37.746
N3360 X49.956 Y38.39
N3365 X50.368 Y39.067
N3370 X50.723 Y39.772
N3375 X51.017 Y40.497
N3380 X51.25 Y41.237
N3385 X51.422 Y41.987
N3390 X51.532 Y42.743
N3395 X51.58 Y43.498
N3400 X51.568 Y44.251
N3405 X51.496 Y44.995
N3410 X51.365 Y45.729
N3415 X51.176 Y46.447
N3420 X50.931 Y47.147
N3425 X50.63 Y47.824
N3430 X50.275 Y48.476
N3435 X49.869 Y49.098
N3440 X49.412 Y49.688
N3445 X48.908 Y50.241
N3450 X48.359 Y50.754
N3455 X47.767 Y51.223
N3460 X47.136 Y51.646
N3465 X46.47 Y52.019
N3470 X45.771 Y52.34
N3475 X45.044 Y52.605
N3480 X44.295 Y52.811
N3485 X43.526 Y52.958
N3490 X42.744 Y53.043
N3495 X41.953 Y53.066
N3500 X41.158 Y53.024
N3505 X40.365 Y52.918
N3510 X39.579 Y52.749
N3515 X38.806 Y52.515
N3520 X38.05 Y52.219
N3525 X37.317 Y51.861
N3530 X36.612 Y51.444
N3535 X35.94 Y50.97
N3540 X35.306 Y50.442
N3545 X34.715 Y49.862
N3550 X34.17 Y49.235
N3555 X33.676 Y48.564
N3560 X33.236 Y47.854
N3565 X32.854 Y47.109
N3570 X32.532 Y46.334
N3575 X32.272 Y45.534
N3580 X32.078 Y44.714
N3585 X31.949 Y43.88
N3590 X31.888 Y43.036
N3595 X31.895 Y42.19
N3600 X31.97 Y41.346
N3605 X32.112 Y40.509
N3610 X32.321 Y39.686
N3615 X32.596 Y38.882
N3620 X32.935 Y38.102
N3625 X33.335 Y37.351
N3630 X33.795 Y36.634
N3635 X34.311 Y35.956
N3640 X34.881 Y35.321
N3645 X35.499 Y34.734
N3650 X36.163 Y34.198
N3655 X36.868 Y33.717
N3660 X37.609 Y33.294
N3665 X38.383 Y32.932
N3670 X39.183 Y32.633
N3675 X40.004 Y32.399
N3680 X40.842 Y32.231
N3685 X41.691 Y32.132
N3690 X42.545 Y32.101
N3695 X43.399 Y32.138
N3700 X44.247 Y32.244
N3705 X45.086 Y32.418
N3710 X45.915 Y32.661
N3715 X46.73 Y32.973
N3720 X47.528 Y33.354
N3725 X48.305 Y33.806
N3730 X49.058 Y34.328
N3735 X49.779 Y34.918
N3740 X50.457 Y35.573
N3745 X51.087 Y36.285
N3750 X51.659 Y37.049
N3755 X52.168 Y37.857
N3760 X52.61 Y38.701
N3765 X52.982 Y39.575
N3770 X53.281 Y40.473
N3775 X53.506 Y41.387
N3780 X53.656 Y42.311
N3785 X53.731 Y43.24
N3790 X53.732 Y44.167
N3795 X53.658 Y45.088
N3800 X53.511 Y45.997
N3805 X53.292 Y46.889
N3810 X53.002 Y47.76
N3815 X52.644 Y48.604
N3820 X52.219 Y49.417
N3825 X51.729 Y50.195
N3830 X51.177 Y50.932
N3835 X50.567 Y51.624
N3840 X49.901 Y52.267
N3845 X49.182 Y52.857
N3850 X48.415 Y53.389
N3855 X47.605 Y53.86
N3860 X46.755 Y54.267
N3865 X45.872 Y54.605
N3870 X44.96 Y54.873
N3875 X44.024 Y55.068
N3880 X43.072 Y55.188
N3885 X42.109 Y55.231
N3890 X41.141 Y55.196
N3895 X40.175 Y55.083
N3900 X39.216 Y54.893
N3905 X38.273 Y54.624
N3910 X37.35 Y54.28
N3915 X36.454 Y53.861
N3920 X35.592 Y53.37
N3925 X34.77 Y52.81
N3930 X33.992 Y52.183
N3935 X33.266 Y51.494
N3940 X32.595 Y50.747
N3945 X31.984 Y49.946
N3950 X31.439 Y49.097
N3955 X30.963 Y48.205
N3960 X30.559 Y47.276
N3965 X30.23 Y46.315
N3970 X29.979 Y45.33
N3975 X29.807 Y44.326
N3980 X29.717 Y43.31
N3985 X29.708 Y42.29
N3990 X29.781 Y41.27
N3995 X29.936 Y40.259
N4000 X30.172 Y39.262
N4005 X30.487 Y38.288
N4010 X30.88 Y37.342
N4015 X31.347 Y36.43
N4020 X31.885 Y35.559
N4025 X32.492 Y34.733
N4030 X33.162 Y33.959
N4035 X33.893 Y33.241
N4040 X34.678 Y32.583
N4045 X35.514 Y31.991
N4050 X36.394 Y31.467
N4055 X37.313 Y31.015
N4060 X38.265 Y30.638
N4065 X39.245 Y30.338
N4070 X40.245 Y30.118
N4075 X41.26 Y29.977
N4080 X42.282 Y29.919
N4085 X43.306 Y29.942
N4090 X44.325 Y30.047
N4095 X45.332 Y30.232
N4100 X46.322 Y30.497
N4105 X47.288 Y30.838
N4110 X48.224 Y31.253
N4115 X49.126 Y31.739
N4120 X49.988 Y32.292
N4125 X50.807 Y32.907
N4130 X51.578 Y33.582
N4135 X52.295 Y34.313
N4140 X52.957 Y35.095
N4145 X53.559 Y35.924
N4150 X54.098 Y36.794
N4155 X54.573 Y37.702
N4160 X54.981 Y38.641
N4165 X55.319 Y39.608
N4170 X55.586 Y40.597
N4175 X55.78 Y41.603
N4180 X55.899 Y42.62
N4185 X55.943 Y43.643
N4190 X55.911 Y44.667
N4195 X55.801 Y45.686
N4200 X55.614 Y46.693
N4205 X55.353 Y47.683
N4210 X55.017 Y48.651
N4215 X54.609 Y49.59
N4220 X54.133 Y50.497
N4225 X53.589 Y51.365
N4230 X52.983 Y52.191
N4235 X52.317 Y52.969
N4240 X51.594 Y53.695
N4245 X50.82 Y54.366
N4250 X49.999 Y54.978
N4255 X49.135 Y55.528
N4260 X48.233 Y56.013
N4265 X47.297 Y56.429
N4270 X46.333 Y56.775
N4275 X45.346 Y57.048
N4280 X44.341 Y57.249
N4285 X43.325 Y57.377
N4290 X42.302 Y57.431
N4295 X41.278 Y57.413
N4300 X40.258 Y57.322
N4305 X39.246 Y57.16
N4310 X38.249 Y56.925
N4315 X37.272 Y56.618
N4320 X36.319 Y56.242
N4325 X35.396 Y55.799
N4330 X34.505 Y55.293
N4335 X33.652 Y54.727
N4340 X32.84 Y54.103
N4345 X32.072 Y53.424
N4350 X31.355 Y52.693
N4355 X30.691 Y51.913
N4360 X30.085 Y51.087
N4365 X29.536 Y50.222
N4370 X29.049 Y49.321
N4375 X28.623 Y48.39
N4380 X28.262 Y47.431
N4385 X27.968 Y46.45
N4390 X27.744 Y45.451
N4395 X27.591 Y44.438
N4400 X27.507 Y43.417
N4405 X27.493 Y42.393
N4410 X27.547 Y41.37
N4415 X27.67 Y40.353
N4420 X27.864 Y39.347
N4425 X28.128 Y38.358
N4430 X28.46 Y37.389
N4435 X28.857 Y36.444
N4440 X29.316 Y35.529
N4445 X29.836 Y34.646
N4450 X30.414 Y33.801
N4455 X31.05 Y32.997
N4460 X31.74 Y32.241
N4465 X32.48 Y31.533
N4470 X33.267 Y30.877
N4475 X34.096 Y30.275
N4480 X34.963 Y29.73
N4485 X35.865 Y29.245
N4490 X36.799 Y28.824
N4495 X37.76 Y28.469
N4500 X38.743 Y28.181
N4505 X39.743 Y27.96
N4510 X40.755 Y27.805
N4515 X41.776 Y27.719
N4520 X42.8 Y27.702
N4525 X43.823 Y27.758
N4530 X44.84 Y27.883
N4535 X45.845 Y28.077
N4540 X46.836 Y28.338
N4545 X47.807 Y28.663
N4550 X48.755 Y29.051
N4555 X49.676 Y29.5
N4560 X50.564 Y30.01
N4565 X51.416 Y30.578
N4570 X52.23 Y31.2
N4575 X53.003 Y31.872
N4580 X53.731 Y32.592
N4585 X54.413 Y33.357
N4590 X55.045 Y34.163
N4595 X55.623 Y35.008
N4600 X56.146 Y35.889
N4605 X56.612 Y36.802
N4610 X57.019 Y37.741
N4615 X57.368 Y38.704
N4620 X57.656 Y39.687
N4625 X57.883 Y40.686
N4630 X58.045 Y41.697
N4635 X58.14 Y42.717
N4640 X58.169 Y43.741
N4645 X58.133 Y44.765
N4650 X58.031 Y45.784
N4655 X57.865 Y46.795
N4660 X57.635 Y47.793
N4665 X57.34 Y48.774
N4670 X56.981 Y49.733
N4675 X56.559 Y50.667
N4680 X56.079 Y51.571
N4685 X55.542 Y52.444
N4690 X54.952 Y53.28
N4695 X54.31 Y54.079
N4700 X53.617 Y54.833
N4705 X52.877 Y55.541
N4710 X52.092 Y56.2
N4715 X51.267 Y56.807
N4720 X50.406 Y57.361
N4725 X49.512 Y57.86
N4730 X48.588 Y58.302
N4735 X47.637 Y58.684
N4740 X46.664 Y59.003
N4745 X45.672 Y59.26
N4750 X44.666 Y59.453
N4755 X43.65 Y59.584
N4760 X42.628 Y59.652
N4765 X41.604 Y59.658
N4770 X40.581 Y59.602
N4775 X39.564 Y59.482
N4780 X38.557 Y59.297
N4785 X37.563 Y59.049
N4790 X36.586 Y58.74
N4795 X35.63 Y58.372
N4800 X34.698 Y57.948
N4805 X33.793 Y57.468
N4810 X32.919 Y56.935
N4815 X32.079 Y56.348
N4820 X31.277 Y55.711
N4825 X30.516 Y55.026
N4830 X29.797 Y54.296
N4835 X29.124 Y53.524
N4840 X28.498 Y52.713
N4845 X27.921 Y51.867
N4850 X27.396 Y50.987
N4855 X26.927 Y50.077
N4860 X26.512 Y49.14
N4865 X26.155 Y48.18
N4870 X25.857 Y47.2
N4875 X25.616 Y46.205
N4880 X25.436 Y45.197
N4885 X25.315 Y44.179
N4890 X25.256 Y43.157
N4895 X25.259 Y42.132
N4900 X25.324 Y41.11
N4905 X25.449 Y40.094
N4910 X25.634 Y39.086
N4915 X25.878 Y38.091
N4920 X26.18 Y37.113
N4925 X26.54 Y36.154
N4930 X26.958 Y35.219
N4935 X27.431 Y34.31
N4940 X27.957 Y33.431
N4945 X28.534 Y32.585
N4950 X29.16 Y31.774
N4955 X29.833 Y31.002
N4960 X30.549 Y30.27
N4965 X31.309 Y29.583
N4970 X32.108 Y28.943
N4975 X32.945 Y28.351
N4980 X33.814 Y27.81
N4985 X34.714 Y27.321
N4990 X35.642 Y26.886
N4995 X36.593 Y26.507
N5000 X37.565 Y26.184
N5005 X38.555 Y25.92
N5010 X39.559 Y25.716
N5015 X40.573 Y25.572
N5020 X41.594 Y25.488
N5025 X42.618 Y25.465
N5030 X43.641 Y25.501
N5035 X44.661 Y25.597
N5040 X45.673 Y25.754
N5045 X46.675 Y25.97
N5050 X47.661 Y26.246
N5055 X48.63 Y26.578
N5060 X49.578 Y26.965
N5065 X50.503 Y27.406
N5070 X51.401 Y27.899
N5075 X52.27 Y28.441
N5080 X53.106 Y29.033
N5085 X53.907 Y29.671
N5090 X54.669 Y30.355
N5095 X55.393 Y31.08
N5100 X56.075 Y31.844
N5105 X56.713 Y32.645
N5110 X57.306 Y33.48
N5115 X57.852 Y34.347
N5120 X58.35 Y35.242
N5125 X58.795 Y36.165
N5130 X59.189 Y37.11
N5135 X59.529 Y38.076
N5140 X59.816 Y39.06
N5145 X60.048 Y40.057
N5150 X60.224 Y41.066
N5155 X60.344 Y42.083
N5160 X60.408 Y43.106
N5165 X60.412 Y44.13
N5170 X60.358 Y45.153
N5175 X60.246 Y46.171
N5180 X60.078 Y47.181
N5185 X59.852 Y48.181
N5190 X59.571 Y49.166
N5195 X59.235 Y50.133
N5200 X58.846 Y51.08
N5205 X58.402 Y52.004
N5210 X57.906 Y52.9
N5215 X57.361 Y53.767
N5220 X56.768 Y54.602
N5225 X56.13 Y55.403
N5230 X55.447 Y56.167
N5235 X54.724 Y56.892
N5240 X53.961 Y57.576
N5245 X53.16 Y58.215
N5250 X52.325 Y58.807
N5255 X51.457 Y59.352
N5260 X50.561 Y59.847
N5265 X49.638 Y60.293
N5270 X48.693 Y60.686
N5275 X47.727 Y61.026
N5280 X46.743 Y61.313
N5285 X45.745 Y61.544
N5290 X44.736 Y61.719
N5295 X43.719 Y61.838
N5300 X42.697 Y61.902
N5305 X41.672 Y61.91
N5310 X40.649 Y61.863
N5315 X39.63 Y61.761
N5320 X38.618 Y61.603
N5325 X37.616 Y61.39
N5330 X36.628 Y61.122
N5335 X35.655 Y60.8
N5340 X34.702 Y60.425
N5345 X33.77 Y60.001
N5350 X32.861 Y59.527
N5355 X31.98 Y59.006
N5360 X31.127 Y58.439
N5365 X30.305 Y57.827
N5370 X29.519 Y57.171
N5375 X28.769 Y56.473
N5380 X28.059 Y55.735
N5385 X27.388 Y54.961
N5390 X26.759 Y54.153
N5395 X26.173 Y53.312
N5400 X25.633 Y52.442
N5405 X25.139 Y51.545
N5410 X24.693 Y50.623
N5415 X24.299 Y49.677
N5420 X23.955 Y48.712
N5425 X23.664 Y47.73
N5430 X23.424 Y46.735
N5435 X23.237 Y45.727
N5440 X23.103 Y44.712
N5445 X23.022 Y43.691
N5450 X22.994 Y42.667
N5455 X23.022 Y41.643
N5460 X23.104 Y40.622
N5465 X23.241 Y39.607
N5470 X23.431 Y38.601
N5475 X23.673 Y37.605
N5480 X23.967 Y36.624
N5485 X24.311 Y35.659
N5490 X24.706 Y34.714
N5495 X25.149 Y33.791
N5500 X25.641 Y32.892
N5505 X26.18 Y32.022
N5510 X26.765 Y31.181
N5515 X27.393 Y30.371
N5520 X28.062 Y29.596
N5525 X28.771 Y28.856
N5530 X29.517 Y28.154
N5535 X30.298 Y27.492
N5540 X31.114 Y26.872
N5545 X31.961 Y26.297
N5550 X32.838 Y25.768
N5555 X33.741 Y25.285
N5560 X34.669 Y24.85
N5565 X35.617 Y24.464
N5570 X36.585 Y24.127
N5575 X37.569 Y23.842
N5580 X38.566 Y23.607
N5585 X39.574 Y23.427
N5590 X40.59 Y23.3
N5595 X41.612 Y23.228
N5600 X42.636 Y23.208
N5605 X43.66 Y23.242
N5610 X44.68 Y23.329
N5615 X45.695 Y23.468
N5620 X46.701 Y23.66
N5625 X47.696 Y23.903
N5630 X48.677 Y24.198
N5635 X49.641 Y24.545
N5640 X50.586 Y24.94
N5645 X51.51 Y25.383
N5650 X52.41 Y25.872
N5655 X53.284 Y26.405
N5660 X54.131 Y26.982
N5665 X54.947 Y27.601
N5670 X55.732 Y28.259
N5675 X56.481 Y28.957
N5680 X57.195 Y29.692
N5685 X57.87 Y30.462
N5690 X58.506 Y31.265
N5695 X59.103 Y32.097
N5700 X59.657 Y32.958
N5705 X60.169 Y33.846
N5710 X60.637 Y34.757
N5715 X61.059 Y35.69
N5720 X61.433 Y36.644
N5725 X61.759 Y37.615
N5730 X62.037 Y38.601
N5735 X62.265 Y39.599
N5740 X62.444 Y40.608
N5745 X62.573 Y41.624
N5750 X62.651 Y42.645
N5755 X62.679 Y43.669
N5760 X62.656 Y44.693
N5765 X62.58 Y45.715
N5770 X62.453 Y46.731
N5775 X62.274 Y47.74
N5780 X62.045 Y48.738
N5785 X61.766 Y49.724
N5790 X61.439 Y50.694
N5795 X61.064 Y51.647
N5800 X60.641 Y52.58
N5805 X60.173 Y53.491
N5810 X59.659 Y54.377
N5815 X59.101 Y55.236
N5820 X58.499 Y56.065
N5825 X57.858 Y56.864
N5830 X57.177 Y57.629
N5835 X56.46 Y58.361
N5840 X55.708 Y59.055
N5845 X54.921 Y59.712
N5850 X54.104 Y60.329
N5855 X53.256 Y60.904
N5860 X52.38 Y61.435
N5865 X51.479 Y61.921
N5870 X50.554 Y62.362
N5875 X49.609 Y62.758
N5880 X48.646 Y63.106
N5885 X47.667 Y63.407
N5890 X46.674 Y63.659
N5895 X45.671 Y63.863
N5900 X44.658 Y64.017
N5905 X43.639 Y64.12
N5910 X42.616 Y64.173
N5915 X41.592 Y64.175
N5920 X40.568 Y64.129
N5925 X39.549 Y64.033
N5930 X38.535 Y63.888
N5935 X37.529 Y63.694
N5940 X36.534 Y63.451
N5945 X35.551 Y63.161
N5950 X34.585 Y62.822
N5955 X33.636 Y62.437
N5960 X32.707 Y62.006
N5965 X31.799 Y61.531
N5970 X30.915 Y61.014
N5975 X30.056 Y60.455
N5980 X29.225 Y59.856
N5985 X28.424 Y59.218
N5990 X27.654 Y58.543
N5995 X26.918 Y57.831
N6000 X26.217 Y57.083
N6005 X25.554 Y56.303
N6010 X24.928 Y55.493
N6015 X24.34 Y54.653
N6020 X23.793 Y53.787
N6025 X23.288 Y52.897
N6030 X22.824 Y51.983
N6035 X22.405 Y51.049
N6040 X22.031 Y50.095
N6045 X21.704 Y49.125
N6050 X21.423 Y48.139
N6055 X21.19 Y47.142
N6060 X21.004 Y46.135
N6065 X20.865 Y45.12
N6070 X20.773 Y44.1
N6075 X20.73 Y43.076
N6080 X20.734 Y42.052
N6085 X20.787 Y41.029
N6090 X20.889 Y40.01
N6095 X21.04 Y38.997
N6100 X21.239 Y37.992
N6105 X21.485 Y36.998
N6110 X21.778 Y36.016
N6115 X22.115 Y35.049
N6120 X22.497 Y34.099
N6125 X22.924 Y33.167
N6130 X23.393 Y32.257
N6135 X23.905 Y31.37
N6140 X24.459 Y30.509
N6145 X25.054 Y29.675
N6150 X25.688 Y28.87
N6155 X26.358 Y28.095
N6160 X27.064 Y27.353
N6165 X27.803 Y26.644
N6170 X28.574 Y25.97
N6175 X29.377 Y25.333
N6180 X30.208 Y24.735
N6185 X31.067 Y24.177
N6190 X31.951 Y23.66
N6195 X32.859 Y23.187
N6200 X33.789 Y22.756
N6205 X34.737 Y22.369
N6210 X35.703 Y22.027
N6215 X36.683 Y21.73
N6220 X37.676 Y21.479
N6225 X38.679 Y21.274
N6230 X39.692 Y21.117
N6235 X40.71 Y21.009
N6240 X41.733 Y20.949
N6245 X42.757 Y20.938
N6250 X43.781 Y20.974
N6255 X44.801 Y21.058
N6260 X45.817 Y21.189
N6265 X46.826 Y21.366
N6270 X47.826 Y21.59
N6275 X48.814 Y21.86
N6280 X49.788 Y22.175
N6285 X50.747 Y22.537
N6290 X51.687 Y22.942
N6295 X52.608 Y23.391
N6300 X53.508 Y23.88
N6305 X54.384 Y24.41
N6310 X55.236 Y24.979
N6315 X56.062 Y25.585
N6320 X56.859 Y26.228
N6325 X57.627 Y26.906
N6330 X58.363 Y27.619
N6335 X59.065 Y28.364
N6340 X59.733 Y29.141
N6345 X60.365 Y29.947
N6350 X60.96 Y30.781
N6355 X61.518 Y31.639
N6360 X62.038 Y32.522
N6365 X62.518 Y33.427
N6370 X62.958 Y34.352
N6375 X63.357 Y35.295
N6380 X63.712 Y36.256
N6385 X64.023 Y37.232
N6390 X64.29 Y38.221
N6395 X64.512 Y39.221
N6400 X64.689 Y40.23
N6405 X64.821 Y41.245
N6410 X64.909 Y42.266
N6415 X64.95 Y43.289
N6420 X64.946 Y44.314
N6425 X64.896 Y45.337
N6430 X64.8 Y46.356
N6435 X64.656 Y47.371
N6440 X64.466 Y48.377
N6445 X64.231 Y49.374
N6450 X63.951 Y50.359
N6455 X63.627 Y51.331
N6460 X63.261 Y52.287
N6465 X62.852 Y53.227
N6470 X62.401 Y54.146
N6475 X61.91 Y55.045
N6480 X61.378 Y55.921
N6485 X60.806 Y56.77
N6490 X60.196 Y57.593
N6495 X59.55 Y58.388
N6500 X58.869 Y59.153
N6505 X58.154 Y59.887
N6510 X57.408 Y60.588
N6515 X56.631 Y61.256
N6520 X55.826 Y61.888
N6525 X54.993 Y62.484
N6530 X54.133 Y63.042
N6535 X53.249 Y63.559
N6540 X52.343 Y64.036
N6545 X51.416 Y64.472
N6550 X50.47 Y64.866
N6555 X49.508 Y65.217
N6560 X48.532 Y65.527
N6565 X47.543 Y65.793
N6570 X46.543 Y66.016
N6575 X45.534 Y66.194
N6580 X44.519 Y66.327
N6585 X43.498 Y66.414
N6590 X42.475 Y66.456
N6595 X41.45 Y66.452
N6600 X40.427 Y66.403
N6605 X39.407 Y66.31
N6610 X38.392 Y66.172
N6615 X37.384 Y65.991
N6620 X36.385 Y65.766
N6625 X35.396 Y65.498
N6630 X34.42 Y65.187
N6635 X33.459 Y64.832
N6640 X32.515 Y64.435
N6645 X31.589 Y63.997
N6650 X30.683 Y63.52
N6655 X29.798 Y63.004
N6660 X28.937 Y62.45
N6665 X28.099 Y61.86
N6670 X27.288 Y61.235
N6675 X26.504 Y60.575
N6680 X25.75 Y59.882
N6685 X25.027 Y59.157
N6690 X24.336 Y58.4
N6695 X23.68 Y57.614
N6700 X23.058 Y56.801
N6705 X22.471 Y55.961
N6710 X21.92 Y55.098
N6715 X21.407 Y54.211
N6720 X20.931 Y53.304
N6725 X20.495 Y52.377
N6730 X20.099 Y51.433
N6735 X19.744 Y50.472
N6740 X19.431 Y49.496
N6745 X19.162 Y48.508
N6750 X18.935 Y47.509
N6755 X18.751 Y46.502
N6760 X18.61 Y45.487
N6765 X18.512 Y44.468
N6770 X18.457 Y43.445
N6775 X18.446 Y42.421
N6780 X18.478 Y41.397
N6785 X18.553 Y40.375
N6790 X18.673 Y39.358
N6795 X18.837 Y38.347
N6800 X19.045 Y37.344
N6805 X19.296 Y36.351
N6810 X19.588 Y35.369
N6815 X19.922 Y34.401
N6820 X20.296 Y33.447
N6825 X20.709 Y32.51
N6830 X21.162 Y31.591
N6835 X21.654 Y30.693
N6840 X22.184 Y29.816
N6845 X22.751 Y28.963
N6850 X23.355 Y28.136
N6855 X23.994 Y27.336
N6860 X24.666 Y26.563
N6865 X25.371 Y25.819
N6870 X26.105 Y25.105
N6875 X26.87 Y24.423
N6880 X27.662 Y23.774
N6885 X28.481 Y23.159
N6890 X29.325 Y22.579
N6895 X30.194 Y22.036
N6900 X31.085 Y21.532
N6905 X31.998 Y21.067
N6910 X32.929 Y20.641
N6915 X33.878 Y20.254
N6920 X34.842 Y19.908
N6925 X35.82 Y19.603
N6930 X36.809 Y19.339
N6935 X37.809 Y19.116
N6940 X38.817 Y18.937
N6945 X39.833 Y18.8
N6950 X40.853 Y18.708
N6955 X41.876 Y18.66
N6960 X42.9 Y18.656
N6965 X43.924 Y18.696
N6970 X44.945 Y18.778
N6975 X45.961 Y18.903
N6980 X46.972 Y19.07
N6985 X47.975 Y19.279
N6990 X48.968 Y19.529
N6995 X49.95 Y19.821
N7000 X50.918 Y20.154
N7005 X51.872 Y20.528
N7010 X52.808 Y20.943
N7015 X53.727 Y21.396
N7020 X54.626 Y21.887
N7025 X55.504 Y22.414
N7030 X56.36 Y22.977
N7035 X57.192 Y23.574
N7040 X57.999 Y24.205
N7045 X58.78 Y24.867
N7050 X59.534 Y25.562
N7055 X60.257 Y26.286
N7060 X60.95 Y27.041
N7065 X61.61 Y27.824
N7070 X62.238 Y28.633
N7075 X62.833 Y29.467
N7080 X63.394 Y30.324
N7085 X63.92 Y31.203
N7090 X64.41 Y32.102
N7095 X64.864 Y33.021
N7100 X65.281 Y33.956
N7105 X65.659 Y34.908
N7110 X65.998 Y35.875
N7115 X66.296 Y36.855
N7120 X66.553 Y37.846
N7125 X66.77 Y38.847
N7130 X66.946 Y39.856
N7135 X67.081 Y40.872
N7140 X67.175 Y41.891
N7145 X67.228 Y42.914
N7150 X67.24 Y43.939
N7155 X67.21 Y44.962
N7160 X67.138 Y45.984
N7165 X67.024 Y47.002
N7170 X66.867 Y48.014
N7175 X66.668 Y49.019
N7180 X66.427 Y50.015
N7185 X66.146 Y51.
N7190 X65.826 Y51.972
N7195 X65.466 Y52.932
N7200 X65.068 Y53.875
N7205 X64.632 Y54.802
N7210 X64.159 Y55.711
N7215 X63.649 Y56.599
N7220 X63.102 Y57.465
N7225 X62.52 Y58.308
N7230 X61.903 Y59.125
N7235 X61.252 Y59.917
N7240 X60.571 Y60.681
N7245 X59.859 Y61.417
N7250 X59.118 Y62.124
N7255 X58.349 Y62.801
N7260 X57.553 Y63.446
N7265 X56.732 Y64.059
N7270 X55.887 Y64.638
N7275 X55.019 Y65.181
N7280 X54.128 Y65.687
N7285 X53.217 Y66.156
N7290 X52.288 Y66.587
N7295 X51.343 Y66.981
N7300 X50.382 Y67.336
N7305 X49.408 Y67.653
N7310 X48.422 Y67.93
N7315 X47.426 Y68.168
N7320 X46.421 Y68.367
N7325 X45.409 Y68.525
N7330 X44.391 Y68.641
N7335 X43.37 Y68.715
N7340 X42.346 Y68.747
N7345 X41.322 Y68.739
N7350 X40.299 Y68.689
N7355 X39.278 Y68.598
N7360 X38.262 Y68.468
N7365 X37.252 Y68.297
N7370 X36.25 Y68.087
N7375 X35.256 Y67.838
N7380 X34.274 Y67.549
N7385 X33.303 Y67.221
N7390 X32.347 Y66.854
N7395 X31.407 Y66.448
N7400 X30.483 Y66.005
N7405 X29.578 Y65.526
N7410 X28.692 Y65.012
N7415 X27.827 Y64.463
N7420 X26.984 Y63.881
N7425 X26.165 Y63.267
N7430 X25.369 Y62.621
N7435 X24.6 Y61.945
N7440 X23.859 Y61.238
N7445 X23.146 Y60.502
N7450 X22.464 Y59.738
N7455 X21.813 Y58.948
N7460 X21.193 Y58.132
N7465 X20.605 Y57.293
N7470 X20.051 Y56.432
N7475 X19.53 Y55.55
N7480 X19.044 Y54.648
N7485 X18.593 Y53.729
N7490 X18.178 Y52.792
N7495 X17.8 Y51.84
N7500 X17.461 Y50.874
N7505 X17.16 Y49.895
N7510 X16.899 Y48.904
N7515 X16.677 Y47.904
N7520 X16.494 Y46.897
N7525 X16.35 Y45.883
N7530 X16.245 Y44.864
N7535 X16.18 Y43.841
N7540 X16.153 Y42.817
N7545 X16.167 Y41.793
N7550 X16.22 Y40.77
N7555 X16.313 Y39.75
N7560 X16.447 Y38.735
N7565 X16.622 Y37.726
N7570 X16.836 Y36.724
N7575 X17.089 Y35.731
N7580 X17.38 Y34.749
N7585 X17.709 Y33.779
N7590 X18.075 Y32.823
N7595 X18.477 Y31.881
N7600 X18.915 Y30.955
N7605 X19.388 Y30.046
N7610 X19.897 Y29.157
N7615 X20.44 Y28.289
N7620 X21.018 Y27.443
N7625 X21.628 Y26.621
N7630 X22.271 Y25.823
N7635 X22.943 Y25.05
N7640 X23.645 Y24.304
N7645 X24.375 Y23.586
N7650 X25.132 Y22.896
N7655 X25.915 Y22.235
N7660 X26.723 Y21.605
N7665 X27.554 Y21.007
N7670 X28.408 Y20.442
N7675 X29.285 Y19.911
N7680 X30.181 Y19.416
N7685 X31.096 Y18.956
N7690 X32.029 Y18.532
N7695 X32.977 Y18.145
N7700 X33.939 Y17.794
N7705 X34.914 Y17.48
N7710 X35.901 Y17.204
N7715 X36.897 Y16.965
N7720 X37.901 Y16.766
N7725 X38.913 Y16.605
N7730 X39.93 Y16.484
N7735 X40.951 Y16.404
N7740 X41.975 Y16.365
N7745 X42.999
N7750 X44.023 Y16.405
N7755 X45.044 Y16.484
N7760 X46.061 Y16.602
N7765 X47.074 Y16.758
N7770 X48.079 Y16.953
N7775 X49.077 Y17.186
N7780 X50.065 Y17.456
N7785 X51.041 Y17.764
N7790 X52.005 Y18.111
N7795 X52.955 Y18.495
N7800 X53.889 Y18.916
N7805 X54.806 Y19.371
N7810 X55.706 Y19.862
N7815 X56.586 Y20.385
N7820 X57.446 Y20.941
N7825 X58.285 Y21.529
N7830 X59.102 Y22.147
N7835 X59.895 Y22.795
N7840 X60.663 Y23.473
N7845 X61.405 Y24.179
N7850 X62.119 Y24.913
N7855 X62.805 Y25.674
N7860 X63.461 Y26.461
N7865 X64.087 Y27.271
N7870 X64.683 Y28.104
N7875 X65.248 Y28.959
N7880 X65.78 Y29.834
N7885 X66.281 Y30.727
N7890 X66.748 Y31.639
N7895 X67.182 Y32.567
N7900 X67.581 Y33.51
N7905 X67.944 Y34.468
N7910 X68.271 Y35.439
N7915 X68.56 Y36.421
N7920 X68.811 Y37.414
N7925 X69.026 Y38.416
N7930 X69.203 Y39.425
N7935 X69.342 Y40.439
N7940 X69.445 Y41.458
N7945 X69.509 Y42.481
N7950 X69.536 Y43.505
N7955 X69.525 Y44.529
N7960 X69.476 Y45.552
N7965 X69.388 Y46.572
N7970 X69.261 Y47.589
N7975 X69.095 Y48.599
N7980 X68.89 Y49.603
N7985 X68.647 Y50.598
N7990 X68.368 Y51.584
N7995 X68.053 Y52.558
N8000 X67.701 Y53.52
N8005 X67.314 Y54.469
N8010 X66.893 Y55.402
N8015 X66.437 Y56.319
N8020 X65.947 Y57.219
N8025 X65.423 Y58.099
N8030 X64.866 Y58.959
N8035 X64.276 Y59.796
N8040 X63.655 Y60.611
N8045 X63.004 Y61.401
N8050 X62.324 Y62.167
N8055 X61.616 Y62.907
N8060 X60.881 Y63.621
N8065 X60.12 Y64.307
N8070 X59.335 Y64.965
N8075 X58.526 Y65.593
N8080 X57.694 Y66.191
N8085 X56.841 Y66.756
N8090 X55.965 Y67.289
N8095 X55.071 Y67.787
N8100 X54.158 Y68.252
N8105 X53.228 Y68.682
N8110 X52.284 Y69.078
N8115 X51.325 Y69.439
N8120 X50.354 Y69.764
N8125 X49.371 Y70.054
N8130 X48.379 Y70.308
N8135 X47.378 Y70.525
N8140 X46.37 Y70.706
N8145 X45.356 Y70.849
N8150 X44.337 Y70.953
N8155 X43.314 Y71.018
N8160 X42.291 Y71.046
N8165 X41.266 Y71.035
N8170 X40.243 Y70.988
N8175 X39.222 Y70.903
N8180 X38.205 Y70.781
N8185 X37.193 Y70.623
N8190 X36.188 Y70.428
N8195 X35.19 Y70.197
N8200 X34.201 Y69.93
N8205 X33.223 Y69.626
N8210 X32.256 Y69.286
N8215 X31.304 Y68.911
N8220 X30.365 Y68.5
N8225 X29.443 Y68.055
N8230 X28.537 Y67.577
N8235 X27.649 Y67.067
N8240 X26.779 Y66.525
N8245 X25.93 Y65.952
N8250 X25.102 Y65.35
N8255 X24.296 Y64.718
N8260 X23.512 Y64.058
N8265 X22.754 Y63.369
N8270 X22.021 Y62.653
N8275 X21.316 Y61.911
N8280 X20.639 Y61.142
N8285 X19.99 Y60.35
N8290 X19.37 Y59.535
N8295 X18.779 Y58.698
N8300 X18.219 Y57.84
N8305 X17.69 Y56.963
N8310 X17.192 Y56.068
N8315 X16.726 Y55.156
N8320 X16.292 Y54.228
N8325 X15.893 Y53.285
N8330 X15.528 Y52.328
N8335 X15.199 Y51.358
N8340 X14.906 Y50.376
N8345 X14.649 Y49.385
N8350 X14.428 Y48.385
N8355 X14.242 Y47.377
N8360 X14.092 Y46.364
N8365 X13.979 Y45.346
N8370 X13.901 Y44.325
N8375 X13.86 Y43.301
N8380 X13.854 Y42.277
N8385 X13.885 Y41.253
N8390 X13.953 Y40.231
N8395 X14.059 Y39.212
N8400 X14.203 Y38.198
N8405 X14.383 Y37.19
N8410 X14.599 Y36.189
N8415 X14.851 Y35.196
N8420 X15.138 Y34.213
N8425 X15.46 Y33.24
N8430 X15.815 Y32.28
N8435 X16.205 Y31.332
N8440 X16.627 Y30.399
N8445 X17.082 Y29.481
N8450 X17.569 Y28.581
N8455 X18.09 Y27.698
N8460 X18.642 Y26.836
N8465 X19.226 Y25.994
N8470 X19.839 Y25.174
N8475 X20.482 Y24.376
N8480 X21.152 Y23.602
N8485 X21.85 Y22.852
N8490 X22.573 Y22.127
N8495 X23.322 Y21.427
N8500 X24.094 Y20.755
N8505 X24.89 Y20.11
N8510 X25.708 Y19.494
N8515 X26.548 Y18.907
N8520 X27.409 Y18.352
N8525 X28.29 Y17.829
N8530 X29.189 Y17.339
N8535 X30.105 Y16.881
N8540 X31.037 Y16.455
N8545 X31.983 Y16.064
N8550 X32.943 Y15.705
N8555 X33.914 Y15.381
N8560 X34.897 Y15.091
N8565 X35.889 Y14.835
N8570 X36.889 Y14.615
N8575 X37.896 Y14.43
N8580 X38.91 Y14.283
N8585 X39.928 Y14.173
N8590 X40.95 Y14.1
N8595 X41.974 Y14.064
N8600 X42.998
N8605 X44.022 Y14.101
N8610 X45.043 Y14.173
N8615 X46.062 Y14.282
N8620 X47.076 Y14.426
N8625 X48.085 Y14.605
N8630 X49.086 Y14.819
N8635 X50.08 Y15.068
N8640 X51.064 Y15.352
N8645 X52.037 Y15.671
N8650 X52.998 Y16.026
N8655 X53.945 Y16.415
N8660 X54.879 Y16.837
N8665 X55.796 Y17.292
N8670 X56.698 Y17.778
N8675 X57.582 Y18.295
N8680 X58.448 Y18.842
N8685 X59.295 Y19.418
N8690 X60.121 Y20.023
N8695 X60.927 Y20.656
N8700 X61.71 Y21.317
N8705 X62.469 Y22.004
N8710 X63.204 Y22.718
N8715 X63.912 Y23.458
N8720 X64.594 Y24.222
N8725 X65.25 Y25.009
N8730 X65.877 Y25.818
N8735 X66.477 Y26.649
N8740 X67.048 Y27.499
N8745 X67.59 Y28.368
N8750 X68.103 Y29.255
N8755 X68.585 Y30.159
N8760 X69.036 Y31.078
N8765 X69.456 Y32.012
N8770 X69.843 Y32.961
N8775 X70.196 Y33.922
N8780 X70.515 Y34.896
N8785 X70.8 Y35.879
N8790 X71.051 Y36.873
N8795 X71.267 Y37.874
N8800 X71.449 Y38.882
N8805 X71.597 Y39.895
N8810 X71.71 Y40.913
N8815 X71.788 Y41.935
N8820 X71.832 Y42.958
N8825 X71.841 Y43.982
N8830 X71.815 Y45.006
N8835 X71.753 Y46.029
N8840 X71.654 Y47.048
N8845 X71.52 Y48.063
N8850 X71.349 Y49.074
N8855 X71.144 Y50.077
N8860 X70.904 Y51.073
N8865 X70.63 Y52.06
N8870 X70.322 Y53.037
N8875 X69.982 Y54.003
N8880 X69.608 Y54.957
N8885 X69.203 Y55.897
N8890 X68.766 Y56.823
N8895 X68.297 Y57.734
N8900 X67.796 Y58.628
N8905 X67.263 Y59.503
N8910 X66.7 Y60.358
N8915 X66.108 Y61.194
N8920 X65.486 Y62.008
N8925 X64.837 Y62.8
N8930 X64.162 Y63.57
N8935 X63.46 Y64.317
N8940 X62.734 Y65.039
N8945 X61.983 Y65.736
N8950 X61.21 Y66.407
N8955 X60.414 Y67.052
N8960 X59.596 Y67.669
N8965 X58.757 Y68.256
N8970 X57.898 Y68.814
N8975 X57.02 Y69.341
N8980 X56.123 Y69.837
N8985 X55.211 Y70.302
N8990 X54.283 Y70.735
N8995 X53.34 Y71.136
N9000 X52.385 Y71.506
N9005 X51.418 Y71.843
N9010 X50.44 Y72.147
N9015 X49.452 Y72.418
N9020 X48.456 Y72.656
N9025 X47.452 Y72.86
N9030 X46.442 Y73.029
N9035 X45.426 Y73.162
N9040 X44.406 Y73.26
N9045 X43.384 Y73.322
N9050 X42.36 Y73.35
N9055 X41.336 Y73.343
N9060 X40.312 Y73.301
N9065 X39.291 Y73.225
N9070 X38.273 Y73.115
N9075 X37.258 Y72.971
N9080 X36.25 Y72.794
N9085 X35.247 Y72.583
N9090 X34.253 Y72.339
N9095 X33.267 Y72.06
N9100 X32.292 Y71.747
N9105 X31.328 Y71.401
N9110 X30.376 Y71.022
N9115 X29.438 Y70.611
N9120 X28.514 Y70.168
N9125 X27.606 Y69.695
N9130 X26.713 Y69.192
N9135 X25.838 Y68.66
N9140 X24.981 Y68.099
N9145 X24.143 Y67.511
N9150 X23.324 Y66.895
N9155 X22.527 Y66.252
N9160 X21.752 Y65.582
N9165 X21. Y64.887
N9170 X20.273 Y64.165
N9175 X19.571 Y63.419
N9180 X18.894 Y62.651
N9185 X18.244 Y61.859
N9190 X17.62 Y61.047
N9195 X17.023 Y60.215
N9200 X16.454 Y59.363
N9205 X15.913 Y58.493
N9210 X15.401 Y57.606
N9215 X14.918 Y56.702
N9220 X14.466 Y55.784
N9225 X14.044 Y54.85
N9230 X13.654 Y53.903
N9235 X13.297 Y52.943
N9240 X12.973 Y51.971
N9245 X12.682 Y50.989
N9250 X12.424 Y49.998
N9255 X12.199 Y48.999
N9260 X12.007 Y47.993
N9265 X11.848 Y46.981
N9270 X11.722 Y45.964
N9275 X11.629 Y44.944
N9280 X11.57 Y43.922
N9285 X11.544 Y42.898
N9290 X11.552 Y41.905
N9295 X11.553 Y41.862
N9300 X11.649 Y40.066
N9305 X11.664 Y39.834
N9310 X11.736 Y39.136
N9315 X11.77 Y38.903
N9320 X12.107 Y36.811
N9325 X12.15 Y36.578
N9330 X12.243 Y36.113
N9335 X12.292 Y35.881
N9340 X12.863 Y33.788
N9345 X12.927 Y33.556
N9350 X13.142 Y32.858
N9355 X13.226 Y32.625
N9360 X14.044 Y30.533
N9365 X14.141 Y30.3
N9370 X14.347 Y29.835
N9375 X14.451 Y29.603
N9380 X15.66 Y27.278
N9385 X16.113 Y26.542
N9390 X16.238 Y26.347
N9395 X17.164 Y24.952
N9400 X17.324 Y24.72
N9405 X17.74 Y24.121
N9410 X17.821 Y24.022
N9415 X19.6 Y21.876
N9420 X19.759 Y21.697
N9425 X20.297 Y21.168
N9430 X21.925 Y19.583
N9435 X22.157 Y19.369
N9440 X24.25 Y17.726
N9445 X24.482 Y17.559
N9450 X24.947 Y17.233
N9455 X25.18 Y17.075
N9460 X27.455 Y15.652
N9465 X27.505 Y15.624
N9470 X28.435 Y15.171
N9475 X29.838 Y14.489
N9480 X30.527 Y14.175
N9485 X30.76 Y14.08
N9490 X33.317 Y13.157
N9495 X33.496 Y13.094
N9500 X33.782 Y13.017
N9505 X34.247 Y12.903
N9510 X36.572 Y12.335
N9515 X36.804 Y12.288
N9520 X37.037 Y12.252
N9525 X39.129 Y11.972
N9530 X39.362 Y11.941
N9535 X40.059 Y11.86
N9540 X40.292 Y11.847
N9545 X40.989 Y11.826
N9550 X42.384 Y11.789
N9555 X42.617 Y11.784
N9560 X43.082 Y11.778
N9565 X43.314 Y11.776
N9570 X44.012 Y11.82
N9575 X44.244 Y11.837
N9580 X45.639 Y11.949
N9585 X46.337 Y12.01
N9590 X46.569 Y12.039
N9595 X47.267 Y12.15
N9600 X49.591 Y12.588
N9605 X49.749 Y12.629
N9610 X50.289 Y12.773
N9615 X50.521 Y12.839
N9620 X52.614 Y13.47
N9625 X52.846 Y13.546
N9630 X53.544 Y13.815
N9635 X53.776 Y13.912
N9640 X55.869 Y14.795
N9645 X56.101 Y14.911
N9650 X56.615 Y15.187
N9655 X56.799 Y15.286
N9660 X58.426 Y16.187
N9665 X58.659 Y16.322
N9670 X59.094 Y16.582
N9675 X59.124 Y16.601
N9680 X61.449 Y18.234
N9685 X61.708 Y18.442
N9690 X61.914 Y18.608
N9695 X63.849 Y20.302
N9700 X64.471 Y20.922
N9705 X64.546 Y21.
N9710 X66.098 Y22.681
N9715 X66.258 Y22.86
N9720 X66.627 Y23.325
N9725 X67.261 Y24.176
N9730 X67.726 Y24.802
N9735 X67.837 Y24.952
N9740 X68.344 Y25.65
N9745 X68.423 Y25.774
N9750 X69.72 Y27.975
N9755 X69.818 Y28.154
N9760 X70.09 Y28.673
N9765 X70.207 Y28.905
N9770 X71.213 Y31.122
N9775 X71.26 Y31.23
N9780 X71.518 Y31.928
N9785 X71.598 Y32.16
N9790 X72.291 Y34.253
N9795 X72.357 Y34.486
N9800 X72.473 Y34.951
N9805 X72.531 Y35.183
N9810 X72.983 Y37.276
N9815 X73.033 Y37.508
N9820 X73.138 Y38.206
N9825 X73.167 Y38.438
N9830 X73.39 Y40.531
N9835 X73.41 Y40.764
N9840 X73.438 Y41.229
N9845 X73.451 Y41.461
N9850 Y43.786
N9855 X73.433 Y44.484
N9860 X73.417 Y44.716
N9865 X73.193 Y46.809
N9870 X73.167 Y47.042
N9875 X73.086 Y47.739
N9880 X73.073 Y47.802
N9885 X72.433 Y50.762
N9890 X72.376 Y50.98
N9895 X71.988 Y52.157
N9900 X71.372 Y54.017
N9905 X71.269 Y54.25
N9910 X70.214 Y56.575
N9915 X70.102 Y56.807
N9920 X69.987 Y57.04
N9925 X69.865 Y57.272
N9930 X68.632 Y59.365
N9935 X68.491 Y59.598
N9940 X68.017 Y60.295
N9945 X67.958 Y60.379
N9950 X66.811 Y61.923
N9955 X66.268 Y62.62
N9960 X66.098 Y62.813
N9965 X64.703 Y64.325
N9970 X64.556 Y64.481
N9975 X64.006 Y65.054
N9980 X63.866 Y65.178
N9985 X62.272 Y66.573
N9990 X62.146 Y66.681
N9995 X61.681 Y67.07
N10000 X61.449 Y67.26
N10005 X59.117 Y68.898
N10010 X58.891 Y69.045
N10015 X58.324 Y69.363
N10020 X56.225 Y70.526
N10025 X56.101 Y70.591
N10030 X55.869 Y70.699
N10035 X53.776 Y71.582
N10040 X53.544 Y71.679
N10045 X52.846 Y71.948
N10050 X52.614 Y72.024
N10055 X50.521 Y72.655
N10060 X50.289 Y72.721
N10065 X49.802 Y72.851
N10070 X49.591 Y72.906
N10075 X47.267 Y73.344
N10080 X46.569 Y73.461
N10085 X46.337 Y73.489
N10090 X43.547 Y73.713
N10095 X43.314 Y73.728
N10100 X43.082 Y73.724
N10105 X40.292 Y73.65
N10110 X40.059 Y73.637
N10115 X39.327 Y73.549
N10120 X37.037 Y73.242
N10125 X36.804 Y73.198
N10130 X36.276 Y73.084
N10135 X36.107 Y73.046
N10140 X34.015 Y72.535
N10145 X33.782 Y72.476
N10150 X33.085 Y72.25
N10155 X32.809 Y72.154
N10160 X30.76 Y71.415
N10165 X30.527 Y71.322
N10170 X29.809 Y70.991
N10175 X27.737 Y69.983
N10180 X27.505 Y69.87
N10185 X27.432 Y69.829
N10190 X24.947 Y68.274
N10195 X24.834 Y68.201
N10200 X24.482 Y67.942
N10205 X24.25 Y67.768
N10210 X22.729 Y66.573
N10215 X22.157 Y66.104
N10220 X21.925 Y65.911
N10225 X20.297 Y64.327
N10230 X20.218 Y64.248
N10235 X19.6 Y63.612
N10240 X19.544 Y63.551
N10245 X18.002 Y61.69
N10250 X17.631 Y61.225
N10255 X17.508 Y61.06
N10260 X16.075 Y58.9
N10265 X15.929 Y58.668
N10270 X15.648 Y58.186
N10275 X15.531 Y57.97
N10280 X14.323 Y55.645
N10285 X14.253 Y55.479
N10290 X14.02 Y54.9
N10295 X13.221 Y52.855
N10300 X13.09 Y52.517
N10305 X13.049 Y52.39
N10310 X12.225 Y49.367
N10315 X12.181 Y49.134
N10320 X12.03 Y48.204
N10325 X11.73 Y46.344
N10330 X11.698 Y46.112
N10335 X11.662 Y45.647
N10340 X11.636 Y45.182
N10345 X11.524 Y43.089
N10350 Y42.856
N10355 X11.531 Y42.391
N10360 X11.538 Y42.159
N10365 X11.553 Y41.862
N10370 X11.569 Y41.771
N10375 X11.598 Y41.683
N10380 X11.638 Y41.621 Z-2.995
N10385 X11.678 Y41.56 Z-2.982
N10390 X11.716 Y41.501 Z-2.959
N10395 X11.781 Y41.454 Z-2.921
N10400 X11.84 Y41.412 Z-2.871
N10405 X11.892 Y41.374 Z-2.812
N10410 X11.946 Y41.356 Z-2.741
N10415 X11.99 Y41.342 Z-2.663
N10420 X12.021 Y41.332 Z-2.579
N10425 X12.041 Y41.326 Z-2.491
N10430 X12.047 Y41.324 Z-2.4
N10435 G0 Z5.
N10440 X39.245 Y12.457
N10445 Z-1.5
N10450 G1 Z-2.1 F1000.
N10455 X39.252 Y12.455 Z-2.194
N10460 X39.273 Y12.45 Z-2.285
N10465 X39.308 Y12.44 Z-2.372
N10470 X39.355 Y12.427 Z-2.453
N10475 X39.414 Y12.411 Z-2.524
N10480 X39.483 Y12.392 Z-2.585
N10485 X39.561 Y12.371 Z-2.635
N10490 X39.644 Y12.348 Z-2.671
N10495 X39.733 Y12.324 Z-2.693
N10500 X39.823 Y12.299 Z-2.7
N10505 G3 X43.082 Y11.776 I4.04 J14.775
N10510 G1 X43.314 Y11.775
N10515 X43.547 Y11.79
N10520 X43.638 Y11.806
N10525 X43.725 Y11.836
N10530 X43.787 Y11.877 Z-2.695
N10535 X43.847 Y11.918 Z-2.682
N10540 X43.906 Y11.957 Z-2.659
N10545 X43.951 Y12.022 Z-2.621
N10550 X43.994 Y12.081 Z-2.571
N10555 X44.031 Y12.134 Z-2.512
N10560 X44.048 Y12.188 Z-2.441
N10565 X44.061 Y12.232 Z-2.363
N10570 X44.071 Y12.264 Z-2.279
N10575 X44.077 Y12.283 Z-2.191
N10580 X44.079 Y12.29 Z-2.1
N10585 G0 Z5.
N10590 X36.081 Y12.959
N10595 Z-1.2
N10600 G1 Z-1.8 F1000.
N10605 X36.087 Y12.956 Z-1.894
N10610 X36.108 Y12.948 Z-1.985
N10615 X36.142 Y12.935 Z-2.072
N10620 X36.187 Y12.918 Z-2.153
N10625 X36.244 Y12.895 Z-2.224
N10630 X36.311 Y12.869 Z-2.285
N10635 X36.386 Y12.84 Z-2.335
N10640 X36.467 Y12.809 Z-2.371
N10645 X36.552 Y12.776 Z-2.393
N10650 X36.64 Y12.742 Z-2.4
N10655 G3 X39.827 Y11.885 I5.546 J14.279
N10660 G1 X40.059 Y11.857
N10665 X40.292 Y11.845
N10670 X40.524 Y11.838
N10675 G3 X40.915 Y12.907 I0.016 J0.6
N10680 G1 X40.358 Y13.352
N10685 G3 X39.609 Y12.414 I-0.375 J-0.469
N10690 X39.824 Y12.304 I0.375 J0.469
N10695 X43.082 Y11.775 I4.07 J14.767
N10700 G1 X43.314 Y11.773
N10705 X43.547 Y11.789
N10710 X43.638 Y11.805
N10715 X43.725 Y11.835
N10720 X43.787 Y11.877 Z-2.395
N10725 X43.847 Y11.917 Z-2.382
N10730 X43.905 Y11.957 Z-2.359
N10735 X43.951 Y12.021 Z-2.321
N10740 X43.993 Y12.081 Z-2.271
N10745 X44.03 Y12.134 Z-2.212
N10750 X44.047 Y12.188 Z-2.141
N10755 X44.06 Y12.232 Z-2.063
N10760 X44.07 Y12.264 Z-1.979
N10765 X44.076 Y12.283 Z-1.891
N10770 X44.078 Y12.29 Z-1.8
N10775 G0 Z5.
N10780 X39.247 Y12.47
N10785 Z-0.9
N10790 G1 Z-1.5 F1000.
N10795 X39.254 Y12.468 Z-1.594
N10800 X39.276 Y12.462 Z-1.685
N10805 X39.31 Y12.453 Z-1.772
N10810 X39.358 Y12.439 Z-1.853
N10815 X39.417 Y12.423 Z-1.924
N10820 X39.486 Y12.404 Z-1.985
N10825 X39.563 Y12.382 Z-2.035
N10830 X39.647 Y12.359 Z-2.071
N10835 X39.735 Y12.335 Z-2.093
N10840 X39.825 Y12.31 Z-2.1
N10845 G3 X43.082 Y11.774 I4.099 J14.759
N10850 G1 X43.314 Y11.772
N10855 X43.547 Y11.788
N10860 X43.638 Y11.804
N10865 X43.725 Y11.835
N10870 X43.786 Y11.876 Z-2.095
N10875 X43.847 Y11.917 Z-2.082
N10880 X43.905 Y11.956 Z-2.059
N10885 X43.951 Y12.021 Z-2.021
N10890 X43.992 Y12.081 Z-1.971
N10895 X44.03 Y12.134 Z-1.912
N10900 X44.046 Y12.188 Z-1.841
N10905 X44.06 Y12.232 Z-1.763
N10910 X44.069 Y12.264 Z-1.679
N10915 X44.075 Y12.283 Z-1.591
N10920 X44.077 Y12.29 Z-1.5
N10925 G0 Z5.
N10930 X39.249 Y12.477
N10935 Z-0.6
N10940 G1 Z-1.2 F1000.
N10945 X39.256 Y12.475 Z-1.294
N10950 X39.277 Y12.469 Z-1.385
N10955 X39.312 Y12.459 Z-1.472
N10960 X39.359 Y12.446 Z-1.553
N10965 X39.418 Y12.429 Z-1.624
N10970 X39.487 Y12.41 Z-1.685
N10975 X39.564 Y12.388 Z-1.735
N10980 X39.648 Y12.365 Z-1.771
N10985 X39.736 Y12.34 Z-1.793
N10990 X39.827 Y12.315 Z-1.8
N10995 G3 X43.082 Y11.773 I4.129 J14.751
N11000 G1 X43.314 Y11.77
N11005 X43.779 Y11.803
N11010 G3 X43.932 Y12.969 I-0.042 J0.598
N11015 G1 X42.875 Y13.333
N11020 G3 X42.099 Y12.915 I-0.195 J-0.567
N11025 X42.578 Y12.174 I0.581 J-0.149
N11030 X45.872 Y11.968 I2.601 J15.096
N11035 G1 X46.337 Y12.005
N11040 X46.569 Y12.034
N11045 X46.802 Y12.072
N11050 X46.891 Y12.098
N11055 X46.975 Y12.137
N11060 X47.032 Y12.184 Z-1.795
N11065 X47.088 Y12.23 Z-1.782
N11070 X47.142 Y12.275 Z-1.759
N11075 X47.181 Y12.344 Z-1.721
N11080 X47.217 Y12.407 Z-1.671
N11085 X47.249 Y12.463 Z-1.612
N11090 X47.26 Y12.519 Z-1.541
N11095 X47.269 Y12.564 Z-1.463
N11100 X47.276 Y12.597 Z-1.379
N11105 X47.28 Y12.617 Z-1.291
N11110 X47.281 Y12.623 Z-1.2
N11115 G0 Z5.
N11120 X39.25 Y12.483
N11125 Z-0.3
N11130 G1 Z-0.9 F1000.
N11135 X39.257 Y12.481 Z-0.994
N11140 X39.278 Y12.475 Z-1.085
N11145 X39.313 Y12.465 Z-1.172
N11150 X39.36 Y12.452 Z-1.253
N11155 X39.419 Y12.435 Z-1.324
N11160 X39.488 Y12.416 Z-1.385
N11165 X39.565 Y12.394 Z-1.435
N11170 X39.649 Y12.371 Z-1.471
N11175 X39.737 Y12.346 Z-1.493
N11180 X39.828 Y12.32 Z-1.5
N11185 G3 X43.082 Y11.772 I4.158 J14.743
N11190 G1 X43.314 Y11.768
N11195 X43.547 Y11.785
N11200 X43.638 Y11.802
N11205 X43.725 Y11.833
N11210 X43.786 Y11.875 Z-1.495
N11215 X43.846 Y11.916 Z-1.482
N11220 X43.904 Y11.956 Z-1.459
N11225 X43.95 Y12.021 Z-1.421
N11230 X43.991 Y12.08 Z-1.371
N11235 X44.028 Y12.134 Z-1.312
N11240 X44.045 Y12.188 Z-1.241
N11245 X44.058 Y12.232 Z-1.163
N11250 X44.067 Y12.264 Z-1.079
N11255 X44.073 Y12.283 Z-0.991
N11260 X44.075 Y12.29 Z-0.9
N11265 G0 Z5.
N11270 X39.252 Y12.489
N11275 Z0.
N11280 G1 Z-0.6 F1000.
N11285 X39.259 Y12.487 Z-0.694
N11290 X39.28 Y12.481 Z-0.785
N11295 X39.314 Y12.472 Z-0.872
N11300 X39.362 Y12.458 Z-0.953
N11305 X39.421 Y12.441 Z-1.024
N11310 X39.489 Y12.422 Z-1.085
N11315 X39.567 Y12.4 Z-1.135
N11320 X39.65 Y12.376 Z-1.171
N11325 X39.738 Y12.351 Z-1.193
N11330 X39.829 Y12.325 Z-1.2
N11335 G3 X43.082 Y11.771 I4.187 J14.734
N11340 G1 X43.314 Y11.767
N11345 X43.547 Y11.784
N11350 X43.638 Y11.802
N11355 X43.725 Y11.833
N11360 X43.786 Y11.874 Z-1.195
N11365 X43.846 Y11.915 Z-1.182
N11370 X43.904 Y11.955 Z-1.159
N11375 X43.949 Y12.02 Z-1.121
N11380 X43.991 Y12.08 Z-1.071
N11385 X44.028 Y12.133 Z-1.012
N11390 X44.044 Y12.188 Z-0.941
N11395 X44.057 Y12.232 Z-0.863
N11400 X44.066 Y12.264 Z-0.779
N11405 X44.072 Y12.283 Z-0.691
N11410 X44.074 Y12.29 Z-0.6
N11415 G0 Z5.
N11420 X39.252 Y12.491
N11425 Z0.3
N11430 G1 Z-0.3 F1000.
N11435 X39.259 Y12.489 Z-0.394
N11440 X39.28 Y12.483 Z-0.485
N11445 X39.315 Y12.473 Z-0.572
N11450 X39.362 Y12.46 Z-0.653
N11455 X39.421 Y12.443 Z-0.724
N11460 X39.49 Y12.423 Z-0.785
N11465 X39.567 Y12.401 Z-0.835
N11470 X39.651 Y12.378 Z-0.871
N11475 X39.739 Y12.353 Z-0.893
N11480 X39.829 Y12.327 Z-0.9
N11485 G3 X43.082 Y11.77 I4.195 J14.732
N11490 G1 X43.314 Y11.767
N11495 X43.547 Y11.784
N11500 X43.638 Y11.801
N11505 X43.725 Y11.832
N11510 X43.786 Y11.874 Z-0.895
N11515 X43.846 Y11.915 Z-0.882
N11520 X43.904 Y11.955 Z-0.859
N11525 X43.949 Y12.02 Z-0.821
N11530 X43.991 Y12.08 Z-0.771
N11535 X44.027 Y12.133 Z-0.712
N11540 X44.044 Y12.188 Z-0.641
N11545 X44.057 Y12.232 Z-0.563
N11550 X44.066 Y12.264 Z-0.479
N11555 X44.072 Y12.283 Z-0.391
N11560 X44.074 Y12.29 Z-0.3
N11565 G0 Z5.
N11570 X43.219 Y45.505
N11575 Z-0.5
N11580 G3 X41.782 Y39.99 Z-0.813 I-0.719 J-2.758 F333.33
N11585 X43.219 Y45.505 Z-1.125 I0.719 J2.758
N11590 X41.782 Y39.99 Z-1.438 I-0.719 J-2.758
N11595 X43.219 Y45.505 Z-1.751 I0.719 J2.758
N11600 X41.782 Y39.99 Z-2.063 I-0.719 J-2.758
N11605 X43.219 Y45.505 Z-2.376 I0.719 J2.758
N11610 X41.782 Y39.99 Z-2.689 I-0.719 J-2.758
N11615 X43.219 Y45.505 Z-3.001 I0.719 J2.758
N11620 X41.782 Y39.99 Z-3.314 I-0.719 J-2.758
N11625 X43.219 Y45.505 Z-3.627 I0.719 J2.758
N11630 X41.782 Y39.99 Z-3.939 I-0.719 J-2.758
N11635 X43.219 Y45.505 Z-4.252 I0.719 J2.758
N11640 X41.782 Y39.99 Z-4.565 I-0.719 J-2.758
N11645 X43.219 Y45.505 Z-4.877 I0.719 J2.758
N11650 X41.782 Y39.99 Z-5.19 I-0.719 J-2.758
N11655 X43.219 Y45.505 Z-5.503 I0.719 J2.758
N11660 X41.782 Y39.99 Z-5.815 I-0.719 J-2.758
N11665 X45.35 Y42.748 Z-5.997 I0.719 J2.758
N11670 X39.65 I-2.85 J0.
N11675 X45.35 I2.85 J0.
N11680 G1 X45.354 Y43.004 F1000.
N11685 X45.555 Y44.008
N11690 X45.587 Y44.155
N11695 X45.603 Y44.304
N11700 X45.606 Y44.454
N11705 X45.596 Y44.608
N11710 X45.572 Y44.772
N11715 X45.532 Y44.945
N11720 X45.476 Y45.124
N11725 X45.4 Y45.308
N11730 X45.306 Y45.496
N11735 X45.191 Y45.684
N11740 X45.056 Y45.871
N11745 X44.899 Y46.054
N11750 X44.721 Y46.23
N11755 X44.523 Y46.398
N11760 X44.304 Y46.555
N11765 X44.066 Y46.698
N11770 X43.81 Y46.825
N11775 X43.537 Y46.934
N11780 X43.25 Y47.023
N11785 X42.951 Y47.09
N11790 X42.64 Y47.133
N11795 X42.322 Y47.152
N11800 X41.998 Y47.145
N11805 X41.671 Y47.112
N11810 X41.344 Y47.052
N11815 X41.018 Y46.965
N11820 X40.698 Y46.85
N11825 X40.385 Y46.709
N11830 X40.082 Y46.543
N11835 X39.791 Y46.351
N11840 X39.515 Y46.134
N11845 X39.256 Y45.896
N11850 X39.015 Y45.636
N11855 X38.795 Y45.356
N11860 X38.598 Y45.058
N11865 X38.425 Y44.745
N11870 X38.277 Y44.417
N11875 X38.155 Y44.078
N11880 X38.061 Y43.73
N11885 X37.995 Y43.374
N11890 X37.957 Y43.014
N11895 X37.949 Y42.651
N11900 X37.97 Y42.288
N11905 X38.02 Y41.928
N11910 X38.098 Y41.572
N11915 X38.205 Y41.224
N11920 X38.34 Y40.885
N11925 X38.502 Y40.558
N11930 X38.689 Y40.245
N11935 X38.902 Y39.947
N11940 X39.137 Y39.668
N11945 X39.394 Y39.408
N11950 X39.672 Y39.17
N11955 X39.967 Y38.954
N11960 X40.279 Y38.763
N11965 X40.606 Y38.598
N11970 X40.945 Y38.459
N11975 X41.293 Y38.348
N11980 X41.65 Y38.265
N11985 X42.012 Y38.211
N11990 X42.378 Y38.186
N11995 X42.744 Y38.191
N12000 X43.109 Y38.225
N12005 X43.47 Y38.288
N12010 X43.824 Y38.381
N12015 X44.171 Y38.501
N12020 X44.506 Y38.648
N12025 X44.828 Y38.823
N12030 X45.136 Y39.022
N12035 X45.426 Y39.245
N12040 X45.698 Y39.491
N12045 X45.949 Y39.759
N12050 X46.178 Y40.045
N12055 X46.383 Y40.349
N12060 X46.701 Y40.913
N12065 X47.022 Y41.607
N12070 X47.22 Y42.147
N12075 X47.355 Y42.631
N12080 X47.443 Y43.079
N12085 X47.491 Y43.511
N12090 X47.504 Y43.93
N12095 X47.484 Y44.337
N12100 X47.433 Y44.733
N12105 X47.35 Y45.121
N12110 X47.237 Y45.499
N12115 X47.094 Y45.867
N12120 X46.921 Y46.225
N12125 X46.719 Y46.569
N12130 X46.488 Y46.899
N12135 X46.228 Y47.212
N12140 X45.941 Y47.507
N12145 X45.628 Y47.781
N12150 X45.289 Y48.032
N12155 X44.926 Y48.258
N12160 X44.541 Y48.458
N12165 X44.135 Y48.628
N12170 X43.711 Y48.767
N12175 X43.273 Y48.872
N12180 X42.821 Y48.943
N12185 X42.36 Y48.978
N12190 X41.893 Y48.976
N12195 X41.423 Y48.936
N12200 X40.953 Y48.857
N12205 X40.488 Y48.741
N12210 X40.03 Y48.586
N12215 X39.583 Y48.393
N12220 X39.15 Y48.164
N12225 X38.734 Y47.899
N12230 X38.338 Y47.6
N12235 X37.966 Y47.268
N12240 X37.62 Y46.906
N12245 X37.303 Y46.516
N12250 X37.017 Y46.1
N12255 X36.765 Y45.661
N12260 X36.548 Y45.202
N12265 X36.368 Y44.725
N12270 X36.227 Y44.234
N12275 X36.125 Y43.733
N12280 X36.064 Y43.223
N12285 X36.043 Y42.71
N12290 X36.064 Y42.196
N12295 X36.127 Y41.684
N12300 X36.23 Y41.179
N12305 X36.374 Y40.683
N12310 X36.557 Y40.199
N12315 X36.778 Y39.732
N12320 X37.037 Y39.283
N12325 X37.331 Y38.857
N12330 X37.658 Y38.455
N12335 X38.017 Y38.081
N12340 X38.404 Y37.736
N12345 X38.819 Y37.423
N12350 X39.257 Y37.145
N12355 X39.716 Y36.903
N12360 X40.193 Y36.698
N12365 X40.686 Y36.532
N12370 X41.19 Y36.407
N12375 X41.703 Y36.322
N12380 X42.22 Y36.278
N12385 X42.74 Y36.276
N12390 X43.259 Y36.316
N12395 X43.772 Y36.398
N12400 X44.277 Y36.52
N12405 X44.771 Y36.683
N12410 X45.251 Y36.884
N12415 X45.712 Y37.124
N12420 X46.153 Y37.399
N12425 X46.571 Y37.71
N12430 X47.004 Y38.089
N12435 X47.446 Y38.544
N12440 X47.86 Y39.046
N12445 X48.242 Y39.593
N12450 X48.579 Y40.167
N12455 X48.862 Y40.754
N12460 X49.091 Y41.347
N12465 X49.268 Y41.941
N12470 X49.393 Y42.534
N12475 X49.469 Y43.125
N12480 X49.497 Y43.711
N12485 X49.478 Y44.292
N12490 X49.414 Y44.864
N12495 X49.304 Y45.425
N12500 X49.15 Y45.973
N12505 X48.953 Y46.507
N12510 X48.714 Y47.022
N12515 X48.433 Y47.518
N12520 X48.113 Y47.991
N12525 X47.754 Y48.439
N12530 X47.358 Y48.859
N12535 X46.927 Y49.249
N12540 X46.462 Y49.606
N12545 X45.966 Y49.926
N12550 X45.442 Y50.209
N12555 X44.892 Y50.45
N12560 X44.32 Y50.648
N12565 X43.728 Y50.801
N12570 X43.122 Y50.906
N12575 X42.505 Y50.963
N12580 X41.88 Y50.97
N12585 X41.253 Y50.927
N12590 X40.627 Y50.833
N12595 X40.006 Y50.688
N12600 X39.396 Y50.493
N12605 X38.8 Y50.248
N12610 X38.222 Y49.954
N12615 X37.667 Y49.613
N12620 X37.138 Y49.227
N12625 X36.64 Y48.798
N12630 X36.177 Y48.328
N12635 X35.75 Y47.821
N12640 X35.365 Y47.279
N12645 X35.023 Y46.706
N12650 X34.728 Y46.106
N12655 X34.48 Y45.483
N12660 X34.284 Y44.84
N12665 X34.139 Y44.182
N12670 X34.047 Y43.514
N12675 X34.009 Y42.839
N12680 X34.026 Y42.162
N12685 X34.097 Y41.488
N12690 X34.222 Y40.821
N12695 X34.4 Y40.165
N12700 X34.63 Y39.526
N12705 X34.911 Y38.906
N12710 X35.242 Y38.311
N12715 X35.619 Y37.744
N12720 X36.04 Y37.208
N12725 X36.504 Y36.708
N12730 X37.006 Y36.247
N12735 X37.544 Y35.827
N12740 X38.114 Y35.451
N12745 X38.713 Y35.123
N12750 X39.336 Y34.843
N12755 X39.98 Y34.615
N12760 X40.64 Y34.438
N12765 X41.312 Y34.316
N12770 X41.992 Y34.247
N12775 X42.676 Y34.234
N12780 X43.358 Y34.275
N12785 X44.035 Y34.371
N12790 X44.702 Y34.521
N12795 X45.355 Y34.724
N12800 X45.99 Y34.978
N12805 X46.614 Y35.289
N12810 X47.232 Y35.662
N12815 X47.837 Y36.097
N12820 X48.422 Y36.592
N12825 X48.976 Y37.144
N12830 X49.49 Y37.746
N12835 X49.956 Y38.39
N12840 X50.368 Y39.068
N12845 X50.723 Y39.772
N12850 X51.017 Y40.497
N12855 X51.25 Y41.238
N12860 X51.422 Y41.988
N12865 X51.532 Y42.743
N12870 X51.58 Y43.499
N12875 X51.568 Y44.251
N12880 X51.496 Y44.995
N12885 X51.365 Y45.729
N12890 X51.176 Y46.447
N12895 X50.93 Y47.147
N12900 X50.63 Y47.825
N12905 X50.275 Y48.476
N12910 X49.869 Y49.099
N12915 X49.412 Y49.688
N12920 X48.908 Y50.241
N12925 X48.359 Y50.754
N12930 X47.767 Y51.224
N12935 X47.136 Y51.647
N12940 X46.469 Y52.02
N12945 X45.771 Y52.34
N12950 X45.044 Y52.605
N12955 X44.294 Y52.812
N12960 X43.526 Y52.959
N12965 X42.744 Y53.044
N12970 X41.953 Y53.066
N12975 X41.158 Y53.024
N12980 X40.365 Y52.919
N12985 X39.579 Y52.749
N12990 X38.805 Y52.515
N12995 X38.049 Y52.219
N13000 X37.316 Y51.861
N13005 X36.612 Y51.444
N13010 X35.94 Y50.97
N13015 X35.306 Y50.442
N13020 X34.715 Y49.862
N13025 X34.17 Y49.235
N13030 X33.676 Y48.564
N13035 X33.236 Y47.854
N13040 X32.854 Y47.109
N13045 X32.532 Y46.334
N13050 X32.272 Y45.534
N13055 X32.078 Y44.714
N13060 X31.949 Y43.88
N13065 X31.888 Y43.037
N13070 X31.895 Y42.19
N13075 X31.969 Y41.346
N13080 X32.112 Y40.51
N13085 X32.321 Y39.686
N13090 X32.596 Y38.882
N13095 X32.935 Y38.102
N13100 X33.335 Y37.351
N13105 X33.795 Y36.634
N13110 X34.311 Y35.956
N13115 X34.88 Y35.321
N13120 X35.499 Y34.734
N13125 X36.163 Y34.198
N13130 X36.868 Y33.717
N13135 X37.609 Y33.294
N13140 X38.383 Y32.932
N13145 X39.183 Y32.633
N13150 X40.004 Y32.399
N13155 X40.842 Y32.232
N13160 X41.691 Y32.132
N13165 X42.545 Y32.101
N13170 X43.399 Y32.139
N13175 X44.247 Y32.245
N13180 X45.086 Y32.419
N13185 X45.914 Y32.661
N13190 X46.73 Y32.973
N13195 X47.528 Y33.355
N13200 X48.305 Y33.806
N13205 X49.058 Y34.328
N13210 X49.778 Y34.919
N13215 X50.457 Y35.573
N13220 X51.086 Y36.286
N13225 X51.659 Y37.049
N13230 X52.168 Y37.857
N13235 X52.61 Y38.701
N13240 X52.982 Y39.576
N13245 X53.281 Y40.473
N13250 X53.506 Y41.387
N13255 X53.656 Y42.311
N13260 X53.731 Y43.24
N13265 Y44.167
N13270 X53.658 Y45.088
N13275 X53.511 Y45.997
N13280 X53.291 Y46.889
N13285 X53.002 Y47.76
N13290 X52.644 Y48.604
N13295 X52.218 Y49.417
N13300 X51.729 Y50.195
N13305 X51.177 Y50.932
N13310 X50.567 Y51.624
N13315 X49.9 Y52.267
N13320 X49.182 Y52.857
N13325 X48.415 Y53.389
N13330 X47.605 Y53.861
N13335 X46.755 Y54.267
N13340 X45.872 Y54.606
N13345 X44.959 Y54.874
N13350 X44.024 Y55.068
N13355 X43.072 Y55.188
N13360 X42.109 Y55.231
N13365 X41.141 Y55.196
N13370 X40.175 Y55.084
N13375 X39.216 Y54.893
N13380 X38.273 Y54.625
N13385 X37.35 Y54.28
N13390 X36.454 Y53.862
N13395 X35.592 Y53.371
N13400 X34.77 Y52.81
N13405 X33.992 Y52.183
N13410 X33.266 Y51.494
N13415 X32.595 Y50.747
N13420 X31.984 Y49.946
N13425 X31.439 Y49.097
N13430 X30.962 Y48.205
N13435 X30.558 Y47.276
N13440 X30.229 Y46.315
N13445 X29.978 Y45.33
N13450 X29.807 Y44.326
N13455 X29.716 Y43.311
N13460 X29.708 Y42.29
N13465 X29.781 Y41.27
N13470 X29.936 Y40.259
N13475 X30.172 Y39.263
N13480 X30.487 Y38.288
N13485 X30.88 Y37.342
N13490 X31.347 Y36.43
N13495 X31.885 Y35.559
N13500 X32.492 Y34.734
N13505 X33.162 Y33.959
N13510 X33.892 Y33.241
N13515 X34.678 Y32.584
N13520 X35.513 Y31.991
N13525 X36.394 Y31.467
N13530 X37.313 Y31.015
N13535 X38.265 Y30.638
N13540 X39.245 Y30.338
N13545 X40.245 Y30.118
N13550 X41.259 Y29.978
N13555 X42.282 Y29.919
N13560 X43.306 Y29.942
N13565 X44.325 Y30.047
N13570 X45.332 Y30.232
N13575 X46.322 Y30.497
N13580 X47.288 Y30.838
N13585 X48.224 Y31.253
N13590 X49.126 Y31.739
N13595 X49.988 Y32.292
N13600 X50.807 Y32.907
N13605 X51.577 Y33.582
N13610 X52.295 Y34.313
N13615 X52.957 Y35.095
N13620 X53.558 Y35.924
N13625 X54.098 Y36.794
N13630 X54.573 Y37.702
N13635 X54.981 Y38.642
N13640 X55.319 Y39.608
N13645 X55.586 Y40.597
N13650 X55.78 Y41.603
N13655 X55.899 Y42.62
N13660 X55.943 Y43.644
N13665 X55.91 Y44.667
N13670 X55.801 Y45.686
N13675 X55.614 Y46.693
N13680 X55.352 Y47.683
N13685 X55.017 Y48.651
N13690 X54.609 Y49.591
N13695 X54.132 Y50.497
N13700 X53.589 Y51.366
N13705 X52.983 Y52.191
N13710 X52.316 Y52.969
N13715 X51.594 Y53.695
N13720 X50.82 Y54.366
N13725 X49.999 Y54.978
N13730 X49.135 Y55.529
N13735 X48.233 Y56.013
N13740 X47.297 Y56.43
N13745 X46.332 Y56.775
N13750 X45.345 Y57.048
N13755 X44.341 Y57.249
N13760 X43.325 Y57.377
N13765 X42.302 Y57.431
N13770 X41.278 Y57.413
N13775 X40.257 Y57.322
N13780 X39.246 Y57.16
N13785 X38.249 Y56.925
N13790 X37.272 Y56.618
N13795 X36.319 Y56.242
N13800 X35.395 Y55.8
N13805 X34.505 Y55.294
N13810 X33.652 Y54.727
N13815 X32.84 Y54.103
N13820 X32.072 Y53.424
N13825 X31.355 Y52.693
N13830 X30.691 Y51.913
N13835 X30.085 Y51.088
N13840 X29.536 Y50.222
N13845 X29.049 Y49.322
N13850 X28.623 Y48.39
N13855 X28.262 Y47.432
N13860 X27.967 Y46.45
N13865 X27.744 Y45.451
N13870 X27.59 Y44.438
N13875 X27.507 Y43.417
N13880 X27.493 Y42.393
N13885 X27.547 Y41.37
N13890 X27.67 Y40.353
N13895 X27.864 Y39.348
N13900 X28.128 Y38.358
N13905 X28.46 Y37.389
N13910 X28.857 Y36.445
N13915 X29.316 Y35.529
N13920 X29.836 Y34.647
N13925 X30.414 Y33.801
N13930 X31.049 Y32.998
N13935 X31.74 Y32.241
N13940 X32.48 Y31.533
N13945 X33.267 Y30.877
N13950 X34.096 Y30.276
N13955 X34.963 Y29.731
N13960 X35.865 Y29.245
N13965 X36.799 Y28.824
N13970 X37.76 Y28.47
N13975 X38.743 Y28.181
N13980 X39.743 Y27.96
N13985 X40.755 Y27.806
N13990 X41.776 Y27.719
N13995 X42.8 Y27.703
N14000 X43.823 Y27.758
N14005 X44.839 Y27.883
N14010 X45.845 Y28.077
N14015 X46.836 Y28.338
N14020 X47.807 Y28.663
N14025 X48.755 Y29.051
N14030 X49.676 Y29.5
N14035 X50.564 Y30.011
N14040 X51.416 Y30.578
N14045 X52.23 Y31.2
N14050 X53.003 Y31.873
N14055 X53.731 Y32.593
N14060 X54.413 Y33.357
N14065 X55.045 Y34.163
N14070 X55.623 Y35.009
N14075 X56.146 Y35.89
N14080 X56.611 Y36.802
N14085 X57.019 Y37.741
N14090 X57.368 Y38.705
N14095 X57.656 Y39.687
N14100 X57.883 Y40.686
N14105 X58.045 Y41.698
N14110 X58.14 Y42.718
N14115 X58.169 Y43.741
N14120 X58.133 Y44.765
N14125 X58.031 Y45.784
N14130 X57.865 Y46.795
N14135 X57.635 Y47.793
N14140 X57.34 Y48.774
N14145 X56.98 Y49.733
N14150 X56.559 Y50.667
N14155 X56.079 Y51.572
N14160 X55.542 Y52.444
N14165 X54.952 Y53.281
N14170 X54.309 Y54.079
N14175 X53.617 Y54.834
N14180 X52.877 Y55.541
N14185 X52.092 Y56.2
N14190 X51.267 Y56.807
N14195 X50.406 Y57.361
N14200 X49.511 Y57.86
N14205 X48.587 Y58.302
N14210 X47.637 Y58.685
N14215 X46.664 Y59.004
N14220 X45.672 Y59.26
N14225 X44.666 Y59.453
N14230 X43.65 Y59.584
N14235 X42.628 Y59.652
N14240 X41.604 Y59.658
N14245 X40.581 Y59.603
N14250 X39.564 Y59.482
N14255 X38.557 Y59.297
N14260 X37.563 Y59.049
N14265 X36.586 Y58.74
N14270 X35.63 Y58.373
N14275 X34.698 Y57.948
N14280 X33.793 Y57.469
N14285 X32.918 Y56.935
N14290 X32.079 Y56.348
N14295 X31.277 Y55.711
N14300 X30.516 Y55.026
N14305 X29.797 Y54.296
N14310 X29.124 Y53.524
N14315 X28.497 Y52.714
N14320 X27.92 Y51.867
N14325 X27.396 Y50.988
N14330 X26.926 Y50.077
N14335 X26.512 Y49.14
N14340 X26.155 Y48.18
N14345 X25.856 Y47.201
N14350 X25.616 Y46.205
N14355 X25.435 Y45.197
N14360 X25.315 Y44.18
N14365 X25.256 Y43.157
N14370 X25.259 Y42.133
N14375 X25.323 Y41.11
N14380 X25.448 Y40.094
N14385 X25.634 Y39.086
N14390 X25.878 Y38.092
N14395 X26.18 Y37.113
N14400 X26.54 Y36.154
N14405 X26.958 Y35.219
N14410 X27.431 Y34.31
N14415 X27.957 Y33.431
N14420 X28.534 Y32.585
N14425 X29.16 Y31.774
N14430 X29.832 Y31.002
N14435 X30.549 Y30.27
N14440 X31.309 Y29.583
N14445 X32.108 Y28.943
N14450 X32.944 Y28.351
N14455 X33.814 Y27.81
N14460 X34.714 Y27.321
N14465 X35.642 Y26.887
N14470 X36.593 Y26.507
N14475 X37.565 Y26.184
N14480 X38.555 Y25.92
N14485 X39.559 Y25.717
N14490 X40.573 Y25.572
N14495 X41.594 Y25.488
N14500 X42.618 Y25.465
N14505 X43.641 Y25.501
N14510 X44.661 Y25.598
N14515 X45.673 Y25.754
N14520 X46.674 Y25.971
N14525 X47.661 Y26.246
N14530 X48.63 Y26.578
N14535 X49.578 Y26.965
N14540 X50.503 Y27.406
N14545 X51.401 Y27.899
N14550 X52.269 Y28.441
N14555 X53.106 Y29.033
N14560 X53.906 Y29.672
N14565 X54.669 Y30.355
N14570 X55.393 Y31.08
N14575 X56.075 Y31.844
N14580 X56.713 Y32.645
N14585 X57.306 Y33.48
N14590 X57.852 Y34.347
N14595 X58.35 Y35.243
N14600 X58.795 Y36.165
N14605 X59.189 Y37.111
N14610 X59.529 Y38.077
N14615 X59.816 Y39.06
N14620 X60.048 Y40.057
N14625 X60.224 Y41.066
N14630 X60.344 Y42.084
N14635 X60.408 Y43.106
N14640 X60.412 Y44.13
N14645 X60.358 Y45.153
N14650 X60.246 Y46.171
N14655 X60.077 Y47.182
N14660 X59.852 Y48.181
N14665 X59.571 Y49.166
N14670 X59.235 Y50.133
N14675 X58.846 Y51.081
N14680 X58.402 Y52.004
N14685 X57.906 Y52.9
N14690 X57.361 Y53.767
N14695 X56.768 Y54.603
N14700 X56.129 Y55.403
N14705 X55.447 Y56.167
N14710 X54.723 Y56.892
N14715 X53.961 Y57.576
N14720 X53.16 Y58.215
N14725 X52.325 Y58.807
N14730 X51.457 Y59.352
N14735 X50.561 Y59.848
N14740 X49.638 Y60.293
N14745 X48.693 Y60.686
N14750 X47.726 Y61.026
N14755 X46.743 Y61.313
N14760 X45.745 Y61.545
N14765 X44.736 Y61.719
N14770 X43.719 Y61.838
N14775 X42.696 Y61.902
N14780 X41.672 Y61.911
N14785 X40.649 Y61.864
N14790 X39.63 Y61.761
N14795 X38.618 Y61.603
N14800 X37.616 Y61.391
N14805 X36.627 Y61.122
N14810 X35.655 Y60.8
N14815 X34.702 Y60.426
N14820 X33.769 Y60.001
N14825 X32.861 Y59.528
N14830 X31.979 Y59.006
N14835 X31.127 Y58.439
N14840 X30.305 Y57.827
N14845 X29.519 Y57.171
N14850 X28.769 Y56.473
N14855 X28.058 Y55.735
N14860 X27.388 Y54.961
N14865 X26.759 Y54.153
N14870 X26.173 Y53.312
N14875 X25.633 Y52.442
N14880 X25.139 Y51.545
N14885 X24.693 Y50.623
N14890 X24.298 Y49.678
N14895 X23.955 Y48.712
N14900 X23.664 Y47.731
N14905 X23.424 Y46.735
N14910 X23.237 Y45.728
N14915 X23.103 Y44.712
N14920 X23.022 Y43.691
N14925 X22.994 Y42.667
N14930 X23.021 Y41.643
N14935 X23.104 Y40.622
N14940 X23.241 Y39.607
N14945 X23.431 Y38.601
N14950 X23.673 Y37.606
N14955 X23.967 Y36.624
N14960 X24.311 Y35.66
N14965 X24.705 Y34.714
N14970 X25.149 Y33.791
N14975 X25.641 Y32.893
N14980 X26.18 Y32.022
N14985 X26.765 Y31.181
N14990 X27.393 Y30.372
N14995 X28.062 Y29.596
N15000 X28.771 Y28.856
N15005 X29.517 Y28.155
N15010 X30.298 Y27.492
N15015 X31.113 Y26.872
N15020 X31.961 Y26.297
N15025 X32.838 Y25.768
N15030 X33.741 Y25.285
N15035 X34.669 Y24.85
N15040 X35.617 Y24.464
N15045 X36.585 Y24.128
N15050 X37.568 Y23.842
N15055 X38.565 Y23.608
N15060 X39.574 Y23.427
N15065 X40.59 Y23.3
N15070 X41.612 Y23.228
N15075 X42.636 Y23.209
N15080 X43.66 Y23.243
N15085 X44.68 Y23.329
N15090 X45.695 Y23.469
N15095 X46.701 Y23.66
N15100 X47.696 Y23.903
N15105 X48.677 Y24.198
N15110 X49.641 Y24.545
N15115 X50.586 Y24.94
N15120 X51.509 Y25.383
N15125 X52.41 Y25.872
N15130 X53.284 Y26.405
N15135 X54.13 Y26.982
N15140 X54.947 Y27.601
N15145 X55.731 Y28.259
N15150 X56.481 Y28.957
N15155 X57.194 Y29.692
N15160 X57.87 Y30.462
N15165 X58.506 Y31.265
N15170 X59.103 Y32.098
N15175 X59.657 Y32.959
N15180 X60.169 Y33.846
N15185 X60.636 Y34.757
N15190 X61.059 Y35.691
N15195 X61.433 Y36.644
N15200 X61.759 Y37.615
N15205 X62.037 Y38.601
N15210 X62.265 Y39.6
N15215 X62.444 Y40.608
N15220 X62.573 Y41.624
N15225 X62.651 Y42.645
N15230 X62.679 Y43.669
N15235 X62.656 Y44.693
N15240 X62.58 Y45.715
N15245 X62.452 Y46.731
N15250 X62.274 Y47.74
N15255 X62.044 Y48.738
N15260 X61.766 Y49.724
N15265 X61.439 Y50.694
N15270 X61.063 Y51.647
N15275 X60.641 Y52.581
N15280 X60.173 Y53.492
N15285 X59.659 Y54.378
N15290 X59.1 Y55.236
N15295 X58.499 Y56.066
N15300 X57.858 Y56.864
N15305 X57.177 Y57.63
N15310 X56.46 Y58.361
N15315 X55.707 Y59.056
N15320 X54.921 Y59.712
N15325 X54.104 Y60.329
N15330 X53.256 Y60.904
N15335 X52.38 Y61.435
N15340 X51.479 Y61.922
N15345 X50.554 Y62.363
N15350 X49.609 Y62.758
N15355 X48.646 Y63.106
N15360 X47.667 Y63.407
N15365 X46.674 Y63.659
N15370 X45.67 Y63.863
N15375 X44.658 Y64.017
N15380 X43.639 Y64.12
N15385 X42.616 Y64.173
N15390 X41.591 Y64.176
N15395 X40.568 Y64.129
N15400 X39.548 Y64.033
N15405 X38.534 Y63.888
N15410 X37.529 Y63.694
N15415 X36.534 Y63.452
N15420 X35.551 Y63.161
N15425 X34.585 Y62.822
N15430 X33.636 Y62.437
N15435 X32.706 Y62.006
N15440 X31.799 Y61.531
N15445 X30.915 Y61.014
N15450 X30.056 Y60.456
N15455 X29.225 Y59.857
N15460 X28.424 Y59.219
N15465 X27.654 Y58.543
N15470 X26.918 Y57.831
N15475 X26.217 Y57.084
N15480 X25.553 Y56.304
N15485 X24.927 Y55.493
N15490 X24.34 Y54.654
N15495 X23.793 Y53.788
N15500 X23.287 Y52.897
N15505 X22.824 Y51.983
N15510 X22.405 Y51.049
N15515 X22.031 Y50.095
N15520 X21.704 Y49.125
N15525 X21.423 Y48.14
N15530 X21.19 Y47.142
N15535 X21.004 Y46.135
N15540 X20.865 Y45.12
N15545 X20.773 Y44.1
N15550 X20.729 Y43.077
N15555 X20.734 Y42.052
N15560 X20.787 Y41.03
N15565 X20.889 Y40.01
N15570 X21.04 Y38.997
N15575 X21.239 Y37.992
N15580 X21.485 Y36.998
N15585 X21.778 Y36.017
N15590 X22.115 Y35.049
N15595 X22.497 Y34.099
N15600 X22.923 Y33.168
N15605 X23.393 Y32.257
N15610 X23.905 Y31.37
N15615 X24.459 Y30.509
N15620 X25.054 Y29.675
N15625 X25.687 Y28.87
N15630 X26.358 Y28.096
N15635 X27.063 Y27.353
N15640 X27.803 Y26.644
N15645 X28.574 Y25.971
N15650 X29.376 Y25.334
N15655 X30.208 Y24.735
N15660 X31.066 Y24.177
N15665 X31.951 Y23.661
N15670 X32.859 Y23.187
N15675 X33.789 Y22.756
N15680 X34.737 Y22.37
N15685 X35.703 Y22.027
N15690 X36.683 Y21.73
N15695 X37.676 Y21.479
N15700 X38.679 Y21.274
N15705 X39.691 Y21.117
N15710 X40.71 Y21.009
N15715 X41.733 Y20.949
N15720 X42.757 Y20.938
N15725 X43.78 Y20.975
N15730 X44.801 Y21.059
N15735 X45.817 Y21.189
N15740 X46.826 Y21.367
N15745 X47.826 Y21.59
N15750 X48.814 Y21.86
N15755 X49.788 Y22.176
N15760 X50.747 Y22.537
N15765 X51.687 Y22.943
N15770 X52.608 Y23.391
N15775 X53.508 Y23.881
N15780 X54.384 Y24.41
N15785 X55.236 Y24.979
N15790 X56.062 Y25.585
N15795 X56.859 Y26.228
N15800 X57.627 Y26.907
N15805 X58.363 Y27.619
N15810 X59.065 Y28.365
N15815 X59.732 Y29.141
N15820 X60.365 Y29.948
N15825 X60.96 Y30.781
N15830 X61.518 Y31.64
N15835 X62.038 Y32.522
N15840 X62.518 Y33.427
N15845 X62.958 Y34.352
N15850 X63.357 Y35.296
N15855 X63.712 Y36.256
N15860 X64.023 Y37.232
N15865 X64.29 Y38.221
N15870 X64.512 Y39.221
N15875 X64.689 Y40.23
N15880 X64.821 Y41.246
N15885 X64.908 Y42.266
N15890 X64.95 Y43.29
N15895 X64.946 Y44.314
N15900 X64.896 Y45.337
N15905 X64.8 Y46.357
N15910 X64.656 Y47.371
N15915 X64.466 Y48.377
N15920 X64.231 Y49.374
N15925 X63.951 Y50.359
N15930 X63.627 Y51.331
N15935 X63.261 Y52.288
N15940 X62.852 Y53.227
N15945 X62.401 Y54.147
N15950 X61.91 Y55.045
N15955 X61.378 Y55.921
N15960 X60.806 Y56.771
N15965 X60.196 Y57.594
N15970 X59.55 Y58.388
N15975 X58.869 Y59.153
N15980 X58.154 Y59.887
N15985 X57.408 Y60.588
N15990 X56.631 Y61.256
N15995 X55.825 Y61.889
N16000 X54.992 Y62.485
N16005 X54.133 Y63.042
N16010 X53.249 Y63.56
N16015 X52.343 Y64.036
N16020 X51.416 Y64.472
N16025 X50.47 Y64.866
N16030 X49.508 Y65.218
N16035 X48.532 Y65.527
N16040 X47.543 Y65.793
N16045 X46.543 Y66.016
N16050 X45.534 Y66.194
N16055 X44.519 Y66.327
N16060 X43.498 Y66.415
N16065 X42.475 Y66.456
N16070 X41.45 Y66.452
N16075 X40.427 Y66.403
N16080 X39.407 Y66.31
N16085 X38.392 Y66.173
N16090 X37.384 Y65.991
N16095 X36.385 Y65.766
N16100 X35.396 Y65.498
N16105 X34.42 Y65.187
N16110 X33.459 Y64.832
N16115 X32.515 Y64.436
N16120 X31.589 Y63.998
N16125 X30.683 Y63.52
N16130 X29.798 Y63.004
N16135 X28.936 Y62.451
N16140 X28.099 Y61.861
N16145 X27.288 Y61.235
N16150 X26.504 Y60.576
N16155 X25.75 Y59.883
N16160 X25.027 Y59.157
N16165 X24.336 Y58.401
N16170 X23.68 Y57.615
N16175 X23.057 Y56.801
N16180 X22.471 Y55.961
N16185 X21.92 Y55.098
N16190 X21.407 Y54.211
N16195 X20.931 Y53.304
N16200 X20.495 Y52.377
N16205 X20.099 Y51.433
N16210 X19.744 Y50.472
N16215 X19.431 Y49.497
N16220 X19.162 Y48.508
N16225 X18.935 Y47.51
N16230 X18.751 Y46.502
N16235 X18.61 Y45.487
N16240 X18.512 Y44.468
N16245 X18.457 Y43.445
N16250 X18.446 Y42.421
N16255 X18.477 Y41.397
N16260 X18.553 Y40.375
N16265 X18.673 Y39.358
N16270 X18.837 Y38.347
N16275 X19.045 Y37.344
N16280 X19.296 Y36.351
N16285 X19.588 Y35.369
N16290 X19.922 Y34.401
N16295 X20.296 Y33.447
N16300 X20.709 Y32.51
N16305 X21.162 Y31.592
N16310 X21.654 Y30.693
N16315 X22.183 Y29.816
N16320 X22.751 Y28.964
N16325 X23.355 Y28.136
N16330 X23.994 Y27.336
N16335 X24.666 Y26.563
N16340 X25.37 Y25.819
N16345 X26.105 Y25.106
N16350 X26.869 Y24.424
N16355 X27.662 Y23.774
N16360 X28.481 Y23.159
N16365 X29.325 Y22.579
N16370 X30.193 Y22.036
N16375 X31.085 Y21.532
N16380 X31.998 Y21.067
N16385 X32.929 Y20.641
N16390 X33.878 Y20.255
N16395 X34.842 Y19.908
N16400 X35.819 Y19.603
N16405 X36.809 Y19.339
N16410 X37.809 Y19.117
N16415 X38.817 Y18.937
N16420 X39.832 Y18.8
N16425 X40.853 Y18.708
N16430 X41.876 Y18.661
N16435 X42.9 Y18.657
N16440 X43.924 Y18.696
N16445 X44.944 Y18.778
N16450 X45.961 Y18.903
N16455 X46.972 Y19.07
N16460 X47.975 Y19.279
N16465 X48.968 Y19.529
N16470 X49.95 Y19.821
N16475 X50.918 Y20.154
N16480 X51.872 Y20.529
N16485 X52.808 Y20.943
N16490 X53.727 Y21.396
N16495 X54.626 Y21.887
N16500 X55.504 Y22.415
N16505 X56.36 Y22.977
N16510 X57.192 Y23.574
N16515 X57.999 Y24.205
N16520 X58.78 Y24.868
N16525 X59.533 Y25.562
N16530 X60.257 Y26.287
N16535 X60.95 Y27.041
N16540 X61.61 Y27.824
N16545 X62.238 Y28.633
N16550 X62.833 Y29.467
N16555 X63.394 Y30.324
N16560 X63.92 Y31.203
N16565 X64.41 Y32.103
N16570 X64.864 Y33.021
N16575 X65.28 Y33.957
N16580 X65.659 Y34.908
N16585 X65.998 Y35.875
N16590 X66.296 Y36.855
N16595 X66.553 Y37.846
N16600 X66.77 Y38.847
N16605 X66.946 Y39.856
N16610 X67.081 Y40.872
N16615 X67.175 Y41.892
N16620 X67.228 Y42.915
N16625 X67.24 Y43.939
N16630 X67.21 Y44.963
N16635 X67.138 Y45.984
N16640 X67.024 Y47.002
N16645 X66.867 Y48.015
N16650 X66.668 Y49.019
N16655 X66.427 Y50.015
N16660 X66.146 Y51.
N16665 X65.826 Y51.973
N16670 X65.466 Y52.932
N16675 X65.068 Y53.876
N16680 X64.632 Y54.802
N16685 X64.159 Y55.711
N16690 X63.649 Y56.599
N16695 X63.102 Y57.465
N16700 X62.519 Y58.308
N16705 X61.902 Y59.125
N16710 X61.252 Y59.917
N16715 X60.571 Y60.681
N16720 X59.859 Y61.418
N16725 X59.117 Y62.125
N16730 X58.349 Y62.801
N16735 X57.553 Y63.447
N16740 X56.732 Y64.059
N16745 X55.887 Y64.638
N16750 X55.018 Y65.181
N16755 X54.128 Y65.687
N16760 X53.217 Y66.156
N16765 X52.288 Y66.587
N16770 X51.343 Y66.981
N16775 X50.382 Y67.336
N16780 X49.408 Y67.653
N16785 X48.422 Y67.931
N16790 X47.426 Y68.169
N16795 X46.421 Y68.367
N16800 X45.409 Y68.525
N16805 X44.391 Y68.641
N16810 X43.37 Y68.715
N16815 X42.346 Y68.748
N16820 X41.322 Y68.739
N16825 X40.298 Y68.689
N16830 X39.278 Y68.599
N16835 X38.262 Y68.468
N16840 X37.252 Y68.298
N16845 X36.25 Y68.088
N16850 X35.256 Y67.838
N16855 X34.274 Y67.55
N16860 X33.303 Y67.222
N16865 X32.347 Y66.854
N16870 X31.407 Y66.448
N16875 X30.483 Y66.005
N16880 X29.578 Y65.526
N16885 X28.692 Y65.012
N16890 X27.827 Y64.463
N16895 X26.984 Y63.881
N16900 X26.164 Y63.267
N16905 X25.369 Y62.621
N16910 X24.6 Y61.945
N16915 X23.858 Y61.239
N16920 X23.146 Y60.503
N16925 X22.464 Y59.739
N16930 X21.812 Y58.948
N16935 X21.193 Y58.133
N16940 X20.605 Y57.294
N16945 X20.051 Y56.432
N16950 X19.53 Y55.55
N16955 X19.044 Y54.649
N16960 X18.593 Y53.729
N16965 X18.178 Y52.793
N16970 X17.8 Y51.84
N16975 X17.46 Y50.874
N16980 X17.16 Y49.895
N16985 X16.899 Y48.905
N16990 X16.677 Y47.905
N16995 X16.494 Y46.897
N17000 X16.35 Y45.883
N17005 X16.245 Y44.864
N17010 X16.179 Y43.842
N17015 X16.153 Y42.818
N17020 X16.167 Y41.794
N17025 X16.22 Y40.771
N17030 X16.313 Y39.751
N17035 X16.447 Y38.735
N17040 X16.622 Y37.726
N17045 X16.836 Y36.724
N17050 X17.089 Y35.732
N17055 X17.38 Y34.75
N17060 X17.709 Y33.78
N17065 X18.075 Y32.823
N17070 X18.477 Y31.881
N17075 X18.915 Y30.955
N17080 X19.388 Y30.047
N17085 X19.897 Y29.157
N17090 X20.44 Y28.289
N17095 X21.018 Y27.443
N17100 X21.628 Y26.621
N17105 X22.271 Y25.823
N17110 X22.943 Y25.051
N17115 X23.645 Y24.305
N17120 X24.375 Y23.586
N17125 X25.132 Y22.896
N17130 X25.915 Y22.236
N17135 X26.723 Y21.606
N17140 X27.554 Y21.007
N17145 X28.408 Y20.442
N17150 X29.284 Y19.911
N17155 X30.181 Y19.416
N17160 X31.096 Y18.956
N17165 X32.029 Y18.533
N17170 X32.977 Y18.145
N17175 X33.939 Y17.794
N17180 X34.914 Y17.48
N17185 X35.901 Y17.204
N17190 X36.897 Y16.966
N17195 X37.901 Y16.766
N17200 X38.913 Y16.605
N17205 X39.93 Y16.484
N17210 X40.951 Y16.404
N17215 X41.975 Y16.365
N17220 X42.999
N17225 X44.023 Y16.405
N17230 X45.044 Y16.484
N17235 X46.061 Y16.602
N17240 X47.073 Y16.759
N17245 X48.079 Y16.953
N17250 X49.077 Y17.186
N17255 X50.065 Y17.456
N17260 X51.041 Y17.765
N17265 X52.005 Y18.111
N17270 X52.955 Y18.495
N17275 X53.889 Y18.916
N17280 X54.806 Y19.372
N17285 X55.705 Y19.862
N17290 X56.586 Y20.385
N17295 X57.446 Y20.941
N17300 X58.285 Y21.529
N17305 X59.102 Y22.147
N17310 X59.895 Y22.795
N17315 X60.663 Y23.473
N17320 X61.405 Y24.179
N17325 X62.119 Y24.913
N17330 X62.805 Y25.674
N17335 X63.461 Y26.461
N17340 X64.087 Y27.271
N17345 X64.683 Y28.105
N17350 X65.247 Y28.959
N17355 X65.78 Y29.834
N17360 X66.281 Y30.727
N17365 X66.748 Y31.639
N17370 X67.182 Y32.567
N17375 X67.581 Y33.51
N17380 X67.944 Y34.468
N17385 X68.271 Y35.439
N17390 X68.56 Y36.421
N17395 X68.811 Y37.414
N17400 X69.026 Y38.416
N17405 X69.203 Y39.425
N17410 X69.342 Y40.44
N17415 X69.445 Y41.459
N17420 X69.509 Y42.481
N17425 X69.536 Y43.505
N17430 X69.525 Y44.529
N17435 X69.476 Y45.552
N17440 X69.388 Y46.573
N17445 X69.261 Y47.589
N17450 X69.094 Y48.6
N17455 X68.89 Y49.603
N17460 X68.647 Y50.599
N17465 X68.368 Y51.584
N17470 X68.052 Y52.558
N17475 X67.701 Y53.52
N17480 X67.314 Y54.469
N17485 X66.893 Y55.402
N17490 X66.437 Y56.32
N17495 X65.947 Y57.219
N17500 X65.423 Y58.1
N17505 X64.866 Y58.959
N17510 X64.276 Y59.796
N17515 X63.655 Y60.611
N17520 X63.004 Y61.401
N17525 X62.323 Y62.167
N17530 X61.615 Y62.907
N17535 X60.881 Y63.621
N17540 X60.12 Y64.307
N17545 X59.335 Y64.965
N17550 X58.526 Y65.593
N17555 X57.694 Y66.191
N17560 X56.84 Y66.757
N17565 X55.965 Y67.289
N17570 X55.071 Y67.788
N17575 X54.158 Y68.252
N17580 X53.228 Y68.683
N17585 X52.283 Y69.078
N17590 X51.325 Y69.439
N17595 X50.354 Y69.764
N17600 X49.371 Y70.054
N17605 X48.379 Y70.308
N17610 X47.378 Y70.526
N17615 X46.37 Y70.706
N17620 X45.355 Y70.849
N17625 X44.336 Y70.953
N17630 X43.314 Y71.019
N17635 X42.29 Y71.046
N17640 X41.266 Y71.036
N17645 X40.243 Y70.988
N17650 X39.222 Y70.903
N17655 X38.205 Y70.781
N17660 X37.193 Y70.623
N17665 X36.188 Y70.428
N17670 X35.19 Y70.197
N17675 X34.201 Y69.93
N17680 X33.223 Y69.627
N17685 X32.256 Y69.287
N17690 X31.303 Y68.911
N17695 X30.365 Y68.5
N17700 X29.443 Y68.055
N17705 X28.537 Y67.577
N17710 X27.649 Y67.067
N17715 X26.779 Y66.525
N17720 X25.93 Y65.952
N17725 X25.102 Y65.35
N17730 X24.295 Y64.718
N17735 X23.512 Y64.058
N17740 X22.754 Y63.37
N17745 X22.021 Y62.654
N17750 X21.316 Y61.911
N17755 X20.639 Y61.143
N17760 X19.99 Y60.35
N17765 X19.37 Y59.535
N17770 X18.779 Y58.698
N17775 X18.219 Y57.84
N17780 X17.689 Y56.964
N17785 X17.191 Y56.068
N17790 X16.726 Y55.156
N17795 X16.292 Y54.228
N17800 X15.893 Y53.285
N17805 X15.528 Y52.328
N17810 X15.199 Y51.358
N17815 X14.906 Y50.376
N17820 X14.649 Y49.385
N17825 X14.427 Y48.385
N17830 X14.242 Y47.378
N17835 X14.092 Y46.364
N17840 X13.979 Y45.346
N17845 X13.901 Y44.325
N17850 X13.86 Y43.302
N17855 X13.854 Y42.277
N17860 X13.885 Y41.253
N17865 X13.953 Y40.231
N17870 X14.059 Y39.213
N17875 X14.202 Y38.198
N17880 X14.383 Y37.19
N17885 X14.599 Y36.189
N17890 X14.851 Y35.196
N17895 X15.138 Y34.213
N17900 X15.459 Y33.24
N17905 X15.815 Y32.28
N17910 X16.204 Y31.332
N17915 X16.627 Y30.399
N17920 X17.082 Y29.482
N17925 X17.569 Y28.581
N17930 X18.089 Y27.698
N17935 X18.642 Y26.836
N17940 X19.226 Y25.994
N17945 X19.839 Y25.174
N17950 X20.482 Y24.376
N17955 X21.152 Y23.602
N17960 X21.85 Y22.852
N17965 X22.573 Y22.127
N17970 X23.322 Y21.428
N17975 X24.094 Y20.755
N17980 X24.89 Y20.11
N17985 X25.708 Y19.494
N17990 X26.548 Y18.907
N17995 X27.409 Y18.352
N18000 X28.29 Y17.83
N18005 X29.189 Y17.339
N18010 X30.105 Y16.881
N18015 X31.037 Y16.456
N18020 X31.983 Y16.064
N18025 X32.943 Y15.705
N18030 X33.914 Y15.381
N18035 X34.897 Y15.091
N18040 X35.888 Y14.836
N18045 X36.889 Y14.615
N18050 X37.896 Y14.431
N18055 X38.91 Y14.283
N18060 X39.928 Y14.173
N18065 X40.95 Y14.1
N18070 X41.974 Y14.064
N18075 X42.998
N18080 X44.021 Y14.101
N18085 X45.043 Y14.174
N18090 X46.062 Y14.282
N18095 X47.076 Y14.426
N18100 X48.084 Y14.605
N18105 X49.086 Y14.819
N18110 X50.08 Y15.068
N18115 X51.064 Y15.352
N18120 X52.037 Y15.672
N18125 X52.998 Y16.026
N18130 X53.945 Y16.415
N18135 X54.878 Y16.838
N18140 X55.796 Y17.292
N18145 X56.698 Y17.778
N18150 X57.582 Y18.295
N18155 X58.448 Y18.842
N18160 X59.295 Y19.419
N18165 X60.121 Y20.024
N18170 X60.927 Y20.657
N18175 X61.71 Y21.317
N18180 X62.469 Y22.004
N18185 X63.204 Y22.718
N18190 X63.912 Y23.458
N18195 X64.594 Y24.222
N18200 X65.249 Y25.009
N18205 X65.877 Y25.819
N18210 X66.477 Y26.649
N18215 X67.048 Y27.499
N18220 X67.59 Y28.368
N18225 X68.103 Y29.255
N18230 X68.585 Y30.159
N18235 X69.036 Y31.078
N18240 X69.456 Y32.013
N18245 X69.843 Y32.961
N18250 X70.196 Y33.922
N18255 X70.515 Y34.896
N18260 X70.8 Y35.88
N18265 X71.051 Y36.873
N18270 X71.267 Y37.874
N18275 X71.449 Y38.882
N18280 X71.596 Y39.896
N18285 X71.71 Y40.914
N18290 X71.788 Y41.935
N18295 X71.832 Y42.958
N18300 X71.841 Y43.982
N18305 X71.815 Y45.006
N18310 X71.753 Y46.029
N18315 X71.654 Y47.048
N18320 X71.519 Y48.064
N18325 X71.349 Y49.074
N18330 X71.144 Y50.077
N18335 X70.904 Y51.073
N18340 X70.63 Y52.06
N18345 X70.322 Y53.037
N18350 X69.982 Y54.003
N18355 X69.608 Y54.957
N18360 X69.203 Y55.897
N18365 X68.765 Y56.824
N18370 X68.297 Y57.734
N18375 X67.796 Y58.628
N18380 X67.263 Y59.503
N18385 X66.7 Y60.358
N18390 X66.108 Y61.194
N18395 X65.486 Y62.008
N18400 X64.837 Y62.801
N18405 X64.162 Y63.57
N18410 X63.46 Y64.317
N18415 X62.734 Y65.039
N18420 X61.983 Y65.736
N18425 X61.21 Y66.407
N18430 X60.414 Y67.052
N18435 X59.596 Y67.669
N18440 X58.757 Y68.257
N18445 X57.898 Y68.814
N18450 X57.02 Y69.341
N18455 X56.123 Y69.837
N18460 X55.211 Y70.302
N18465 X54.282 Y70.735
N18470 X53.34 Y71.137
N18475 X52.385 Y71.506
N18480 X51.417 Y71.843
N18485 X50.439 Y72.147
N18490 X49.452 Y72.418
N18495 X48.455 Y72.656
N18500 X47.452 Y72.86
N18505 X46.441 Y73.029
N18510 X45.426 Y73.162
N18515 X44.406 Y73.26
N18520 X43.384 Y73.323
N18525 X42.36 Y73.35
N18530 X41.336 Y73.343
N18535 X40.312 Y73.301
N18540 X39.291 Y73.225
N18545 X38.272 Y73.115
N18550 X37.258 Y72.972
N18555 X36.25 Y72.794
N18560 X35.247 Y72.583
N18565 X34.252 Y72.339
N18570 X33.267 Y72.06
N18575 X32.291 Y71.747
N18580 X31.327 Y71.401
N18585 X30.376 Y71.022
N18590 X29.438 Y70.611
N18595 X28.514 Y70.169
N18600 X27.605 Y69.696
N18605 X26.713 Y69.193
N18610 X25.838 Y68.661
N18615 X24.981 Y68.1
N18620 X24.143 Y67.511
N18625 X23.324 Y66.895
N18630 X22.527 Y66.252
N18635 X21.752 Y65.583
N18640 X21. Y64.887
N18645 X20.273 Y64.165
N18650 X19.571 Y63.42
N18655 X18.894 Y62.651
N18660 X18.243 Y61.86
N18665 X17.619 Y61.047
N18670 X17.023 Y60.215
N18675 X16.454 Y59.363
N18680 X15.913 Y58.493
N18685 X15.401 Y57.606
N18690 X14.918 Y56.703
N18695 X14.466 Y55.784
N18700 X14.044 Y54.85
N18705 X13.654 Y53.903
N18710 X13.297 Y52.943
N18715 X12.973 Y51.971
N18720 X12.682 Y50.989
N18725 X12.424 Y49.998
N18730 X12.199 Y48.999
N18735 X12.007 Y47.993
N18740 X11.848 Y46.981
N18745 X11.722 Y45.964
N18750 X11.629 Y44.944
N18755 X11.57 Y43.922
N18760 X11.544 Y42.898
N18765 X11.552 Y41.908
N18770 X11.553 Y41.865
N18775 X11.649 Y40.066
N18780 X11.664 Y39.834
N18785 X11.736 Y39.136
N18790 X11.77 Y38.903
N18795 X12.107 Y36.811
N18800 X12.15 Y36.578
N18805 X12.243 Y36.113
N18810 X12.292 Y35.881
N18815 X12.863 Y33.788
N18820 X12.927 Y33.556
N18825 X13.142 Y32.858
N18830 X13.226 Y32.625
N18835 X14.044 Y30.533
N18840 X14.141 Y30.3
N18845 X14.347 Y29.835
N18850 X14.451 Y29.603
N18855 X15.66 Y27.278
N18860 X16.113 Y26.542
N18865 X16.238 Y26.347
N18870 X17.164 Y24.952
N18875 X17.324 Y24.72
N18880 X17.74 Y24.121
N18885 X17.821 Y24.022
N18890 X19.556 Y21.93
N18895 X19.6 Y21.877
N18900 X19.761 Y21.697
N18905 X20.297 Y21.168
N18910 X20.995 Y20.488
N18915 X21.925 Y19.583
N18920 X22.157 Y19.369
N18925 X24.25 Y17.726
N18930 X24.482 Y17.559
N18935 X24.947 Y17.233
N18940 X25.18 Y17.075
N18945 X26.807 Y16.057
N18950 X27.459 Y15.652
N18955 X27.505 Y15.627
N18960 X27.97 Y15.397
N18965 X29.838 Y14.489
N18970 X30.527 Y14.175
N18975 X30.76 Y14.08
N18980 X33.085 Y13.241
N18985 X33.499 Y13.094
N18990 X33.782 Y13.017
N18995 X34.247 Y12.903
N19000 X36.339 Y12.392
N19005 X36.572 Y12.335
N19010 X36.804 Y12.289
N19015 X37.037 Y12.252
N19020 X38.432 Y12.065
N19025 X38.664 Y12.035
N19030 X39.362 Y11.95
N19035 X40.059 Y11.876
N19040 X40.292 Y11.86
N19045 X40.757 Y11.836
N19050 X40.989 Y11.826
N19055 X41.687 Y11.807
N19060 X42.384 Y11.793
N19065 X42.617 Y11.79
N19070 X43.082
N19075 X43.314 Y11.791
N19080 X44.012 Y11.822
N19085 X44.244 Y11.837
N19090 X45.407 Y11.931
N19095 X45.639 Y11.95
N19100 X46.337 Y12.024
N19105 X46.569 Y12.052
N19110 X47.034 Y12.117
N19115 X47.267 Y12.15
N19120 X49.591 Y12.588
N19125 X49.749 Y12.629
N19130 X50.289 Y12.773
N19135 X50.521 Y12.839
N19140 X52.614 Y13.47
N19145 X52.846 Y13.546
N19150 X53.544 Y13.815
N19155 X53.776 Y13.912
N19160 X55.869 Y14.795
N19165 X56.101 Y14.911
N19170 X56.615 Y15.187
N19175 X56.799 Y15.286
N19180 X58.426 Y16.187
N19185 X58.659 Y16.322
N19190 X59.094 Y16.582
N19195 X59.124 Y16.601
N19200 X61.449 Y18.234
N19205 X61.708 Y18.442
N19210 X61.914 Y18.608
N19215 X63.849 Y20.302
N19220 X64.471 Y20.922
N19225 X64.546 Y21.
N19230 X66.098 Y22.681
N19235 X66.258 Y22.86
N19240 X66.627 Y23.325
N19245 X67.261 Y24.176
N19250 X67.726 Y24.802
N19255 X67.837 Y24.952
N19260 X68.344 Y25.65
N19265 X68.423 Y25.774
N19270 X69.72 Y27.975
N19275 X69.818 Y28.154
N19280 X70.09 Y28.673
N19285 X70.207 Y28.905
N19290 X71.213 Y31.122
N19295 X71.26 Y31.23
N19300 X71.518 Y31.928
N19305 X71.598 Y32.16
N19310 X72.291 Y34.253
N19315 X72.357 Y34.486
N19320 X72.473 Y34.951
N19325 X72.531 Y35.183
N19330 X72.983 Y37.276
N19335 X73.033 Y37.508
N19340 X73.138 Y38.206
N19345 X73.167 Y38.438
N19350 X73.39 Y40.531
N19355 X73.41 Y40.764
N19360 X73.438 Y41.229
N19365 X73.451 Y41.461
N19370 Y43.786
N19375 X73.433 Y44.484
N19380 X73.417 Y44.716
N19385 X73.193 Y46.809
N19390 X73.167 Y47.042
N19395 X73.086 Y47.739
N19400 X73.073 Y47.802
N19405 X72.533 Y50.297
N19410 X72.431 Y50.762
N19415 X72.376 Y50.973
N19420 X72.141 Y51.692
N19425 X71.603 Y53.32
N19430 X71.369 Y54.017
N19435 X71.267 Y54.25
N19440 X70.847 Y55.18
N19445 X70.214 Y56.575
N19450 X70.102 Y56.807
N19455 X69.987 Y57.04
N19460 X69.865 Y57.272
N19465 X68.632 Y59.365
N19470 X68.491 Y59.598
N19475 X68.017 Y60.295
N19480 X67.958 Y60.379
N19485 X66.811 Y61.923
N19490 X66.268 Y62.62
N19495 X66.098 Y62.813
N19500 X64.703 Y64.325
N19505 X64.556 Y64.481
N19510 X64.006 Y65.054
N19515 X63.866 Y65.178
N19520 X62.272 Y66.573
N19525 X62.146 Y66.681
N19530 X61.681 Y67.07
N19535 X61.449 Y67.26
N19540 X59.116 Y68.898
N19545 X58.891 Y69.044
N19550 X58.324 Y69.363
N19555 X56.225 Y70.526
N19560 X56.101 Y70.591
N19565 X55.869 Y70.699
N19570 X53.776 Y71.582
N19575 X53.544 Y71.679
N19580 X52.846 Y71.948
N19585 X52.614 Y72.024
N19590 X50.521 Y72.655
N19595 X50.289 Y72.721
N19600 X49.802 Y72.851
N19605 X49.591 Y72.906
N19610 X47.267 Y73.344
N19615 X46.569 Y73.461
N19620 X46.337 Y73.489
N19625 X43.547 Y73.712
N19630 X43.314 Y73.728
N19635 X43.082 Y73.724
N19640 X40.292 Y73.65
N19645 X40.059 Y73.637
N19650 X39.327 Y73.549
N19655 X37.037 Y73.242
N19660 X36.804 Y73.198
N19665 X36.276 Y73.084
N19670 X36.107 Y73.046
N19675 X34.015 Y72.535
N19680 X33.782 Y72.476
N19685 X33.085 Y72.25
N19690 X32.809 Y72.154
N19695 X30.76 Y71.415
N19700 X30.527 Y71.322
N19705 X29.809 Y70.991
N19710 X28.202 Y70.21
N19715 X27.505 Y69.868
N19720 X27.435 Y69.829
N19725 X27.272 Y69.728
N19730 X24.947 Y68.274
N19735 X24.834 Y68.201
N19740 X24.482 Y67.942
N19745 X24.25 Y67.768
N19750 X22.729 Y66.573
N19755 X22.157 Y66.104
N19760 X21.925 Y65.911
N19765 X20.297 Y64.327
N19770 X20.218 Y64.248
N19775 X19.6 Y63.612
N19780 X19.544 Y63.551
N19785 X18.002 Y61.69
N19790 X17.631 Y61.225
N19795 X17.508 Y61.06
N19800 X16.075 Y58.9
N19805 X15.929 Y58.668
N19810 X15.648 Y58.186
N19815 X15.531 Y57.97
N19820 X14.444 Y55.877
N19825 X14.324 Y55.645
N19830 X14.253 Y55.477
N19835 X14.02 Y54.9
N19840 X13.221 Y52.855
N19845 X13.09 Y52.514
N19850 X13.051 Y52.39
N19855 X12.732 Y51.227
N19860 X12.393 Y49.98
N19865 X12.227 Y49.367
N19870 X12.183 Y49.134
N19875 X12.068 Y48.437
N19880 X11.73 Y46.344
N19885 X11.698 Y46.112
N19890 X11.662 Y45.647
N19895 X11.636 Y45.182
N19900 X11.524 Y43.089
N19905 Y42.856
N19910 X11.531 Y42.391
N19915 X11.538 Y42.159
N19920 X11.553 Y41.865
N19925 X11.568 Y41.774
N19930 X11.598 Y41.686
N19935 X11.638 Y41.624 Z-5.992
N19940 X11.678 Y41.563 Z-5.979
N19945 X11.716 Y41.504 Z-5.956
N19950 X11.78 Y41.458 Z-5.918
N19955 X11.839 Y41.415 Z-5.868
N19960 X11.892 Y41.377 Z-5.809
N19965 X11.946 Y41.359 Z-5.738
N19970 X11.989 Y41.346 Z-5.66
N19975 X12.021 Y41.335 Z-5.576
N19980 X12.041 Y41.329 Z-5.488
N19985 X12.047 Y41.327 Z-5.397
N19990 G0 Z5.
N19995 X72.078 Y49.944
N20000 Z-4.5
N20005 G1 Z-5.1 F1000.
N20010 X72.077 Y49.951 Z-5.194
N20015 X72.076 Y49.973 Z-5.285
N20020 X72.073 Y50.009 Z-5.372
N20025 X72.069 Y50.058 Z-5.453
N20030 X72.065 Y50.119 Z-5.524
N20035 X72.06 Y50.191 Z-5.585
N20040 X72.054 Y50.271 Z-5.635
N20045 X72.048 Y50.358 Z-5.671
N20050 X72.042 Y50.449 Z-5.693
N20055 X72.035 Y50.543 Z-5.7
N20060 G3 X71.446 Y53.79 I-15.279 J-1.095
N20065 G1 X71.37 Y54.017
N20070 X71.267 Y54.25
N20075 X71.22 Y54.329
N20080 X71.161 Y54.401
N20085 X71.101 Y54.444 Z-5.695
N20090 X71.042 Y54.486 Z-5.682
N20095 X70.985 Y54.527 Z-5.659
N20100 X70.908 Y54.547 Z-5.621
N20105 X70.837 Y54.566 Z-5.571
N20110 X70.775 Y54.582 Z-5.512
N20115 X70.729 Y54.584 Z-5.458
N20120 X70.679 Y54.579 Z-5.377
N20125 X70.642 Y54.575 Z-5.288
N20130 X70.619 Y54.573 Z-5.196
N20135 X70.612 Y54.572 Z-5.1
N20140 G0 Z5.
N20145 X72.076 Y49.945
N20150 Z-4.2
N20155 G1 Z-4.8 F1000.
N20160 X72.075 Y49.952 Z-4.894
N20165 X72.074 Y49.974 Z-4.985
N20170 X72.071 Y50.01 Z-5.072
N20175 X72.068 Y50.059 Z-5.153
N20180 X72.063 Y50.12 Z-5.224
N20185 X72.058 Y50.191 Z-5.285
N20190 X72.053 Y50.271 Z-5.335
N20195 X72.046 Y50.358 Z-5.371
N20200 X72.04 Y50.45 Z-5.393
N20205 X72.033 Y50.543 Z-5.4
N20210 G3 X71.446 Y53.79 I-15.279 J-1.088
N20215 G1 X71.37 Y54.017
N20220 X71.268 Y54.25
N20225 G3 X70.612 Y54.572 I-0.538 J-0.266
N20230 G1 X70.52 Y54.554 Z-5.393
N20235 X70.43 Y54.536 Z-5.371
N20240 X70.345 Y54.519 Z-5.335
N20245 X70.266 Y54.503 Z-5.285
N20250 X70.196 Y54.489 Z-5.224
N20255 X70.136 Y54.477 Z-5.153
N20260 X70.088 Y54.467 Z-5.072
N20265 X70.053 Y54.46 Z-4.985
N20270 X70.031 Y54.456 Z-4.894
N20275 X70.024 Y54.454 Z-4.8
N20280 G0 Z5.
N20285 X16.767 Y59.006
N20290 Z-4.2
N20295 G1 Z-4.8 F1000.
N20300 X16.762 Y59.001 Z-4.894
N20305 X16.747 Y58.985 Z-4.985
N20310 X16.723 Y58.958 Z-5.072
N20315 X16.69 Y58.921 Z-5.153
N20320 X16.65 Y58.876 Z-5.224
N20325 X16.602 Y58.822 Z-5.285
N20330 X16.548 Y58.762 Z-5.335
N20335 X16.49 Y58.698 Z-5.371
N20340 X16.429 Y58.629 Z-5.393
N20345 X16.367 Y58.559 Z-5.4
N20350 G3 X14.444 Y55.877 I11.415 J-10.214
N20355 G1 X14.323 Y55.645
N20360 X14.253 Y55.479
N20365 G3 X15.381 Y55.07 I0.564 J-0.204
N20370 X14.989 Y55.849 I-0.564 J0.204
N20375 X14.233 Y55.413 I-0.172 J-0.575
N20380 G1 X13.535 Y52.472
N20385 G3 X14.703 Y52.195 I0.584 J-0.139
N20390 X13.597 Y52.629 I-0.584 J0.139
N20395 X12.289 Y49.599 I13.329 J-7.548
N20400 G1 X12.227 Y49.367
N20405 X12.183 Y49.134
N20410 X12.178 Y49.042
N20415 X12.187 Y48.95
N20420 X12.213 Y48.881 Z-5.395
N20425 X12.239 Y48.813 Z-5.382
N20430 X12.264 Y48.747 Z-5.359
N20435 X12.317 Y48.688 Z-5.321
N20440 X12.365 Y48.633 Z-5.271
N20445 X12.408 Y48.584 Z-5.212
N20450 X12.457 Y48.556 Z-5.141
N20455 X12.497 Y48.533 Z-5.063
N20460 X12.526 Y48.516 Z-4.979
N20465 X12.543 Y48.506 Z-4.891
N20470 X12.549 Y48.502 Z-4.8
N20475 G0 Z5.
N20480 X72.074 Y49.945
N20485 Z-3.9
N20490 G1 Z-4.5 F1000.
N20495 Y49.953 Z-4.594
N20500 X72.072 Y49.975 Z-4.685
N20505 X72.07 Y50.01 Z-4.772
N20510 X72.066 Y50.06 Z-4.853
N20515 X72.062 Y50.121 Z-4.924
N20520 X72.057 Y50.192 Z-4.985
N20525 X72.051 Y50.272 Z-5.035
N20530 X72.045 Y50.359 Z-5.071
N20535 X72.038 Y50.45 Z-5.093
N20540 X72.032 Y50.544 Z-5.1
N20545 G3 X71.446 Y53.791 I-15.28 J-1.081
N20550 G1 X71.37 Y54.017
N20555 X71.268 Y54.25
N20560 G3 X70.612 Y54.572 I-0.538 J-0.266
N20565 G1 X70.52 Y54.553 Z-5.093
N20570 X70.43 Y54.535 Z-5.071
N20575 X70.345 Y54.518 Z-5.035
N20580 X70.266 Y54.502 Z-4.985
N20585 X70.196 Y54.488 Z-4.924
N20590 X70.136 Y54.476 Z-4.853
N20595 X70.088 Y54.467 Z-4.772
N20600 X70.053 Y54.46 Z-4.685
N20605 X70.031 Y54.455 Z-4.594
N20610 X70.024 Y54.454 Z-4.5
N20615 G0 Z5.
N20620 X39.448 Y12.282
N20625 Z-3.9
N20630 G1 Z-4.5 F1000.
N20635 X39.456 Z-4.594
N20640 X39.478 Y12.281 Z-4.685
N20645 X39.514 Y12.28 Z-4.772
N20650 X39.563 Y12.278 Z-4.853
N20655 X39.624 Y12.276 Z-4.924
N20660 X39.696 Y12.274 Z-4.985
N20665 X39.776 Y12.271 Z-5.035
N20670 X39.863 Y12.268 Z-5.071
N20675 X39.954 Y12.265 Z-5.093
N20680 X40.048 Y12.261 Z-5.1
N20685 G2 X43.314 Y11.789 I-0.531 J-15.209
N20690 G1 X43.284
N20695 X43.285 Y11.787
N20700 X43.377 Y11.798
N20705 X43.466 Y11.822
N20710 X43.53 Y11.86 Z-5.095
N20715 X43.593 Y11.897 Z-5.082
N20720 X43.653 Y11.932 Z-5.059
N20725 X43.703 Y11.994 Z-5.021
N20730 X43.749 Y12.051 Z-4.971
N20735 X43.789 Y12.101 Z-4.912
N20740 X43.809 Y12.155 Z-4.841
N20745 X43.825 Y12.197 Z-4.763
N20750 X43.837 Y12.229 Z-4.679
N20755 X43.844 Y12.248 Z-4.591
N20760 X43.846 Y12.254 Z-4.5
N20765 G0 Z5.
N20770 X24.336 Y18.329
N20775 Z-3.6
N20780 G1 Z-4.2 F1000.
N20785 X24.341 Y18.324 Z-4.294
N20790 X24.356 Y18.308 Z-4.385
N20795 X24.381 Y18.282 Z-4.472
N20800 X24.415 Y18.246 Z-4.553
N20805 X24.457 Y18.202 Z-4.624
N20810 X24.507 Y18.15 Z-4.685
N20815 X24.562 Y18.092 Z-4.735
N20820 X24.622 Y18.029 Z-4.771
N20825 X24.686 Y17.963 Z-4.793
N20830 X24.75 Y17.895 Z-4.8
N20835 G3 X27.272 Y15.767 I11.083 J10.574
N20840 G1 X27.456 Y15.652
N20845 X27.505 Y15.625
N20850 X27.737 Y15.511
N20855 G3 X28.097 Y15.501 I0.192 J0.429
N20860 G2 X31.041 Y16.068 I3.079 J-8.067
N20865 G1 X31.138 Y16.061
N20870 X31.233 Y16.04
N20875 X36.104 Y14.489
N20880 X36.194 Y14.452
N20885 X36.277 Y14.401
N20890 G2 X38.352 Y12.236 I-5.101 J-6.967
N20895 G3 X38.664 Y12.034 I0.391 J0.261
N20900 G1 X39.129 Y11.973
N20905 X39.362 Y11.943
N20910 X40.059 Y11.869
N20915 X40.292 Y11.855
N20920 X40.524 Y11.845
N20925 G3 X40.715 Y13.021 I0.026 J0.599
N20930 G1 X38.995 Y13.512
N20935 G3 X38.254 Y13.099 I-0.165 J-0.577
N20940 X38.667 Y12.358 I0.577 J-0.164
N20945 X41.919 Y11.801 I4.195 J14.732
N20950 G1 X42.384 Y11.789
N20955 X42.617 Y11.786
N20960 X43.082 Y11.785
N20965 X43.314
N20970 X43.779 Y11.809
N20975 G3 X44.318 Y12.302 I-0.051 J0.598
N20980 G1 X44.335 Y12.394 Z-4.793
N20985 X44.351 Y12.484 Z-4.771
N20990 X44.366 Y12.57 Z-4.735
N20995 X44.38 Y12.649 Z-4.685
N21000 X44.393 Y12.72 Z-4.624
N21005 X44.403 Y12.78 Z-4.553
N21010 X44.412 Y12.828 Z-4.472
N21015 X44.418 Y12.864 Z-4.385
N21020 X44.422 Y12.885 Z-4.294
N21025 X44.423 Y12.893 Z-4.2
N21030 G0 Z5.
N21035 X72.072 Y49.946
N21040 Z-3.6
N21045 G1 Z-4.2 F1000.
N21050 Y49.953 Z-4.294
N21055 X72.07 Y49.975 Z-4.385
N21060 X72.068 Y50.011 Z-4.472
N21065 X72.064 Y50.06 Z-4.553
N21070 X72.06 Y50.121 Z-4.624
N21075 X72.055 Y50.192 Z-4.685
N21080 X72.049 Y50.273 Z-4.735
N21085 X72.043 Y50.359 Z-4.771
N21090 X72.037 Y50.451 Z-4.793
N21095 X72.03 Y50.544 Z-4.8
N21100 G3 X71.446 Y53.792 I-15.28 J-1.074
N21105 G1 X71.371 Y54.017
N21110 X71.268 Y54.25
N21115 G3 X70.612 Y54.572 I-0.538 J-0.266
N21120 G1 X70.52 Y54.553 Z-4.793
N21125 X70.431 Y54.535 Z-4.771
N21130 X70.345 Y54.518 Z-4.735
N21135 X70.267 Y54.502 Z-4.685
N21140 X70.196 Y54.488 Z-4.624
N21145 X70.136 Y54.476 Z-4.553
N21150 X70.088 Y54.466 Z-4.472
N21155 X70.053 Y54.459 Z-4.385
N21160 X70.031 Y54.455 Z-4.294
N21165 X70.024 Y54.453 Z-4.2
N21170 G0 Z5.
N21175 X13.895 Y53.15
N21180 Z-3.6
N21185 G1 Z-4.2 F1000.
N21190 X13.892 Y53.144 Z-4.294
N21195 X13.881 Y53.124 Z-4.385
N21200 X13.863 Y53.093 Z-4.472
N21205 X13.839 Y53.05 Z-4.553
N21210 X13.808 Y52.997 Z-4.624
N21215 X13.773 Y52.935 Z-4.685
N21220 X13.734 Y52.865 Z-4.735
N21225 X13.691 Y52.789 Z-4.771
N21230 X13.645 Y52.71 Z-4.793
N21235 X13.599 Y52.628 Z-4.8
N21240 G3 X12.289 Y49.599 I13.322 J-7.56
N21245 G1 X12.226 Y49.367
N21250 X12.182 Y49.134
N21255 X12.16 Y49.002
N21260 X12.156 Y48.91
N21265 X12.165 Y48.818
N21270 X12.191 Y48.749 Z-4.795
N21275 X12.217 Y48.681 Z-4.782
N21280 X12.242 Y48.615 Z-4.759
N21285 X12.295 Y48.556 Z-4.721
N21290 X12.343 Y48.501 Z-4.671
N21295 X12.386 Y48.453 Z-4.612
N21300 X12.436 Y48.424 Z-4.541
N21305 X12.475 Y48.401 Z-4.463
N21310 X12.504 Y48.384 Z-4.379
N21315 X12.522 Y48.374 Z-4.291
N21320 X12.527 Y48.371 Z-4.2
N21325 G0 Z5.
N21330 X72.071 Y49.946
N21335 Z-3.3
N21340 G1 Z-3.9 F1000.
N21345 X72.07 Y49.954 Z-3.994
N21350 X72.069 Y49.976 Z-4.085
N21355 X72.066 Y50.012 Z-4.172
