%
(BASE_BALL_END)
(T3  D=6. CR=3. - ZMIN=-8. - BALL END MILL)
N10 G90 G94 G17 G91.1
N15 G21
N20 G53 G0 Z0.
(CONTOUR1)
N25 T3 M6
N30 S12000 M3
N35 G54
N40 G0 X1.892 Y7.86
N45 G43 Z15. H3
N50 G0 Z0.721
N55 G1 Z-1. F1000.
N60 G3 X2.799 Y8.497 I0.321 J0.507
N65 G1 X2.786 Y8.554
N70 X2.755 Y8.723
N75 X2.729 Y8.892
N80 X2.702 Y9.062
N85 X2.685 Y9.231
N90 X2.669 Y9.4
N95 X2.655 Y9.569
N100 X2.649 Y9.738
N105 X2.644 Y9.907
N110 X2.642 Y10.076
N115 Y14.979
N120 Y19.882
N125 X2.643 Y24.785
N130 Y29.688
N135 X2.644 Y42.368
N140 Y42.537
N145 X2.642 Y42.706
N150 X2.643 Y42.875
N155 X2.659 Y43.89
N160 X2.664 Y44.059
N165 X2.711 Y45.073
N170 X2.72 Y45.242
N175 X2.799 Y46.274
N180 X2.811 Y46.426
N185 X2.921 Y47.44
N190 X2.939 Y47.609
N195 X2.962 Y47.778
N200 X3.103 Y48.793
N205 X3.13 Y48.962
N210 X3.306 Y49.994
N215 X3.335 Y50.145
N220 X3.54 Y51.16
N225 X3.577 Y51.329
N230 X3.815 Y52.343
N235 X3.857 Y52.512
N240 X4.128 Y53.527
N245 X4.151 Y53.613
N250 X4.176 Y53.696
N255 X4.489 Y54.74
N260 X4.534 Y54.879
N265 X4.872 Y55.894
N270 X4.933 Y56.063
N275 X5.244 Y56.908
N280 X5.306 Y57.077
N285 X5.333 Y57.145
N290 X5.715 Y58.091
N295 X5.785 Y58.261
N300 X6.23 Y59.275
N305 X6.309 Y59.444
N310 X6.711 Y60.289
N315 X6.793 Y60.458
N320 X7.314 Y61.473
N325 X7.361 Y61.56
N330 X7.874 Y62.487
N335 X7.971 Y62.656
N340 X8.543 Y63.619
N345 X8.575 Y63.671
N350 X9.113 Y64.516
N355 X9.219 Y64.681
N360 X9.222 Y64.685
N365 X9.797 Y65.531
N370 X9.895 Y65.674
N375 X9.913 Y65.7
N380 X10.571 Y66.604
N385 X10.653 Y66.714
N390 X11.307 Y67.559
N395 X11.415 Y67.695
N400 X12.091 Y68.514
N405 X12.14 Y68.574
N410 X12.26 Y68.711
N415 X12.936 Y69.481
N420 X13.035 Y69.588
N425 X13.667 Y70.264
N430 X13.781 Y70.386
N435 X13.827 Y70.434
N440 X14.625 Y71.238
N445 X14.668 Y71.279
N450 X15.47 Y72.039
N455 X15.562 Y72.124
N460 X16.32 Y72.8
N465 X16.484 Y72.944
N470 X17.328 Y73.651
N475 X17.497 Y73.787
N480 X18.178 Y74.322
N485 X18.342 Y74.451
N490 X18.397 Y74.491
N495 X19.187 Y75.075
N500 X19.313 Y75.167
N505 X19.356 Y75.198
N510 X20.289 Y75.844
N515 X20.369 Y75.897
N520 X21.331 Y76.52
N525 X21.383 Y76.552
N530 X22.228 Y77.063
N535 X22.397 Y77.165
N540 X22.452 Y77.196
N545 X23.41 Y77.737
N550 X23.579 Y77.827
N555 X24.424 Y78.27
N560 X24.593 Y78.356
N565 X25.606 Y78.849
N570 X25.689 Y78.887
N575 X26.62 Y79.304
N580 X26.789 Y79.379
N585 X27.803 Y79.796
N590 X27.972 Y79.863
N595 X28.985 Y80.245
N600 X29.154 Y80.304
N605 X29.999 Y80.593
N610 X30.168 Y80.65
N615 X30.337 Y80.703
N620 X31.182 Y80.963
N625 X31.351 Y81.015
N630 X31.519 Y81.062
N635 X32.364 Y81.294
N640 X32.533 Y81.34
N645 X32.702 Y81.381
N650 X33.574 Y81.592
N655 X33.716 Y81.626
N660 X33.885 Y81.662
N665 X34.729 Y81.839
N670 X34.898 Y81.875
N675 X35.067 Y81.905
N680 X36.081 Y82.086
N685 X36.167 Y82.099
N690 X37.264 Y82.26
N695 X37.321 Y82.268
N700 X37.432 Y82.281
N705 X38.446 Y82.398
N710 X38.615 Y82.416
N715 X39.629 Y82.501
N720 X39.798 Y82.514
N725 X40.811 Y82.569
N730 X40.98 Y82.577
N735 X41.149 Y82.581
N740 X42.163 Y82.605
N745 X42.332 Y82.604
N750 X43.345 Y82.597
N755 X43.514 Y82.592
N760 X44.528 Y82.553
N765 X44.697 Y82.545
N770 X45.711 Y82.475
N775 X45.88 Y82.463
N780 X46.893 Y82.361
N785 X47.062 Y82.344
N790 X47.231 Y82.323
N795 X48.245 Y82.19
N800 X48.414 Y82.164
N805 X49.427 Y81.999
N810 X49.596 Y81.968
N815 X50.664 Y81.761
N820 X50.779 Y81.736
N825 X51.793 Y81.507
N830 X51.961 Y81.466
N835 X52.975 Y81.204
N840 X53.144 Y81.158
N845 X54.158 Y80.863
N850 X54.327 Y80.81
N855 X55.34 Y80.481
N860 X55.509 Y80.422
N865 X56.523 Y80.058
N870 X56.692 Y79.992
N875 X57.537 Y79.659
N880 X57.706 Y79.592
N885 X58.719 Y79.156
N890 X58.888 Y79.08
N895 X59.733 Y78.686
N900 X59.902 Y78.607
N905 X60.018 Y78.549
N910 X60.915 Y78.096
N915 X61.022 Y78.042
N920 X61.955 Y77.534
N925 X62.098 Y77.456
N930 X63.112 Y76.863
N935 X63.121 Y76.858
N940 X63.281 Y76.758
N945 X64.125 Y76.23
N950 X64.199 Y76.182
N955 X65.139 Y75.553
N960 X65.208 Y75.506
N965 X66.154 Y74.829
N970 X66.322 Y74.702
N975 X67.042 Y74.153
N980 X67.166 Y74.057
N985 X68.011 Y73.372
N990 X68.09 Y73.308
N995 X68.18 Y73.23
N1000 X68.873 Y72.631
N1005 X69.025 Y72.5
N1010 X69.066 Y72.462
N1015 X69.869 Y71.724
N1020 X69.981 Y71.617
N1025 X70.714 Y70.901
N1030 X70.843 Y70.772
N1035 X71.559 Y70.028
N1040 X71.656 Y69.926
N1045 X72.421 Y69.081
N1050 X72.567 Y68.912
N1055 X73.142 Y68.236
N1060 X73.248 Y68.111
N1065 X73.284 Y68.067
N1070 X73.96 Y67.221
N1075 X74.09 Y67.052
N1080 X74.724 Y66.207
N1085 X74.769 Y66.146
N1090 X75.439 Y65.192
N1095 X75.445 Y65.185
N1100 X75.551 Y65.023
N1105 X76.108 Y64.178
N1110 X76.12 Y64.159
N1115 X76.213 Y64.009
N1120 X76.733 Y63.164
N1125 X76.796 Y63.057
N1130 X77.317 Y62.149
N1135 X77.411 Y61.98
N1140 X77.863 Y61.135
N1145 X77.952 Y60.966
N1150 X77.979 Y60.913
N1155 X78.455 Y59.951
N1160 X78.485 Y59.889
N1165 X78.535 Y59.782
N1170 X78.921 Y58.937
N1175 X78.992 Y58.782
N1180 X78.998 Y58.768
N1185 X79.07 Y58.599
N1190 X79.425 Y57.753
N1195 X79.494 Y57.584
N1200 X79.885 Y56.57
N1205 X79.947 Y56.401
N1210 X80.302 Y55.386
N1215 X80.344 Y55.259
N1220 X80.624 Y54.372
N1225 X80.678 Y54.203
N1230 X80.682 Y54.191
N1235 X80.726 Y54.034
N1240 X80.966 Y53.188
N1245 X81.013 Y53.019
N1250 X81.02 Y52.995
N1255 X81.267 Y52.005
N1260 X81.31 Y51.836
N1265 X81.347 Y51.667
N1270 X81.568 Y50.652
N1275 X81.6 Y50.483
N1280 X81.788 Y49.469
N1285 X81.816 Y49.3
N1290 X81.972 Y48.285
N1295 X81.995 Y48.116
N1300 X82.12 Y47.102
N1305 X82.138 Y46.933
N1310 X82.232 Y45.919
N1315 X82.246 Y45.749
N1320 X82.308 Y44.735
N1325 X82.318 Y44.566
N1330 X82.323 Y44.397
N1335 X82.354 Y43.383
N1340 X82.356 Y43.213
N1345 Y43.044
N1350 X82.357 Y42.875
N1355 Y42.706
N1360 Y42.537
N1365 X82.358 Y29.181
N1370 X82.359 Y24.109
N1375 Y19.206
N1380 Y14.303
N1385 Y10.076
N1390 X82.357 Y9.907
N1395 X82.352 Y9.738
N1400 X82.347 Y9.569
N1405 X82.333 Y9.4
N1410 X82.317 Y9.231
N1415 X82.299 Y9.062
N1420 X82.273 Y8.892
N1425 X82.246 Y8.723
N1430 X82.215 Y8.554
N1435 X82.139 Y8.216
N1440 X82.093 Y8.047
N1445 X82.033 Y7.84
N1450 X81.994 Y7.709
N1455 X81.933 Y7.54
N1460 X81.864 Y7.349
N1465 X81.805 Y7.202
N1470 X81.695 Y6.949
N1475 X81.658 Y6.864
N1480 X81.572 Y6.695
N1485 X81.486 Y6.525
N1490 X81.392 Y6.356
N1495 X81.292 Y6.187
N1500 X81.189 Y6.018
N1505 X81.02 Y5.77
N1510 X80.958 Y5.68
N1515 X80.851 Y5.54
N1520 X80.697 Y5.342
N1525 X80.682 Y5.323
N1530 X80.551 Y5.173
N1535 X80.402 Y5.004
N1540 X80.344 Y4.94
N1545 X80.238 Y4.835
N1550 X80.069 Y4.666
N1555 X80.006 Y4.606
N1560 X79.837 Y4.457
N1565 X79.689 Y4.328
N1570 X79.668 Y4.311
N1575 X79.499 Y4.18
N1580 X79.472 Y4.159
N1585 X79.33 Y4.049
N1590 X79.243 Y3.989
N1595 X78.992 Y3.819
N1600 X78.823 Y3.715
N1605 X78.654 Y3.615
N1610 X78.485 Y3.52
N1615 X78.317 Y3.434
N1620 X78.148 Y3.348
N1625 X78.07 Y3.313
N1630 X77.81 Y3.2
N1635 X77.673 Y3.144
N1640 X77.472 Y3.072
N1645 X77.303 Y3.011
N1650 X77.187 Y2.975
N1655 X76.965 Y2.911
N1660 X76.796 Y2.864
N1665 X76.537 Y2.806
N1670 X76.458 Y2.788
N1675 X76.289 Y2.757
N1680 X76.12 Y2.73
N1685 X75.951 Y2.703
N1690 X75.782 Y2.685
N1695 X75.613 Y2.669
N1700 X75.445 Y2.655
N1705 X75.276 Y2.649
N1710 X75.107 Y2.644
N1715 X74.938 Y2.641
N1720 X10.064
N1725 X9.895 Y2.644
N1730 X9.726 Y2.649
N1735 X9.557 Y2.655
N1740 X9.388 Y2.669
N1745 X9.219 Y2.685
N1750 X9.05 Y2.703
N1755 X8.881 Y2.73
N1760 X8.712 Y2.757
N1765 X8.543 Y2.788
N1770 X8.374 Y2.826
N1775 X8.205 Y2.864
N1780 X8.036 Y2.911
N1785 X7.815 Y2.975
N1790 X7.699 Y3.011
N1795 X7.53 Y3.072
N1800 X7.328 Y3.144
N1805 X7.192 Y3.2
N1810 X6.931 Y3.313
N1815 X6.854 Y3.348
N1820 X6.685 Y3.434
N1825 X6.516 Y3.52
N1830 X6.347 Y3.615
N1835 X6.178 Y3.715
N1840 X6.009 Y3.819
N1845 X5.758 Y3.989
N1850 X5.671 Y4.049
N1855 X5.53 Y4.159
N1860 X5.502 Y4.18
N1865 X5.333 Y4.311
N1870 X5.313 Y4.328
N1875 X5.164 Y4.457
N1880 X4.995 Y4.606
N1885 X4.932 Y4.666
N1890 X4.763 Y4.835
N1895 X4.658 Y4.94
N1900 X4.599 Y5.004
N1905 X4.45 Y5.173
N1910 X4.32 Y5.323
N1915 X4.304 Y5.342
N1920 X4.151 Y5.54
N1925 X4.043 Y5.68
N1930 X3.982 Y5.77
N1935 X3.813 Y6.018
N1940 X3.71 Y6.187
N1945 X3.61 Y6.356
N1950 X3.515 Y6.525
N1955 X3.429 Y6.695
N1960 X3.344 Y6.864
N1965 X3.306 Y6.949
N1970 X3.197 Y7.202
N1975 X3.137 Y7.349
N1980 X3.068 Y7.54
N1985 X3.008 Y7.709
N1990 X2.968 Y7.84
N1995 X2.908 Y8.047
N2000 X2.862 Y8.216
N2005 X2.799 Y8.497
N2010 X2.753 Y8.733
N2015 X2.701 Y9.057 Z-1.001
N2020 X2.674 Y9.311 Z-1.002
N2025 X2.649 Y9.575 Z-1.003
N2030 X2.635 Y9.891 Z-1.005
N2035 X2.628 Y10.186 Z-1.007
N2040 X2.622 Y10.529 Z-1.01
N2045 X2.615 Y10.872 Z-1.014
N2050 X2.607 Y11.215 Z-1.018
N2055 X2.598 Y11.558 Z-1.022
N2060 X2.588 Y11.901 Z-1.027
N2065 X2.577 Y12.244 Z-1.033
N2070 X2.565 Y12.587 Z-1.039
N2075 X2.553 Y12.93 Z-1.045
N2080 X2.539 Y13.274 Z-1.052
N2085 X2.526 Y13.617 Z-1.059
N2090 X2.511 Y13.96 Z-1.067
N2095 X2.495 Y14.303 Z-1.075
N2100 X2.479 Y14.646 Z-1.084
N2105 X2.462 Y14.989 Z-1.093
N2110 X2.445 Y15.332 Z-1.102
N2115 X2.426 Y15.675 Z-1.111
N2120 X2.408 Y16.018 Z-1.121
N2125 X2.388 Y16.361 Z-1.132
N2130 X2.368 Y16.704 Z-1.142
N2135 X2.347 Y17.047 Z-1.153
N2140 X2.326 Y17.39 Z-1.164
N2145 X2.304 Y17.733 Z-1.176
N2150 X2.282 Y18.076 Z-1.188
N2155 X2.19 Y19.449 Z-1.236
N2160 X2.168 Y19.792 Z-1.248
N2165 X2.145 Y20.135 Z-1.26
N2170 X2.123 Y20.478 Z-1.272
N2175 X2.101 Y20.821 Z-1.284
N2180 X2.08 Y21.164 Z-1.296
N2185 X1.995 Y22.536 Z-1.344
N2190 X1.974 Y22.879 Z-1.356
N2195 X1.953 Y23.222 Z-1.368
N2200 X1.933 Y23.565 Z-1.38
N2205 X1.913 Y23.909 Z-1.392
N2210 X1.893 Y24.252 Z-1.404
N2215 X1.873 Y24.595 Z-1.416
N2220 X1.854 Y24.938 Z-1.428
N2225 X1.663 Y28.368 Z-1.548
N2230 X1.644 Y28.711 Z-1.56
N2235 X1.492 Y31.456 Z-1.656
N2240 X1.473 Y31.799 Z-1.668
N2245 X1.455 Y32.142 Z-1.68
N2250 X1.436 Y32.485 Z-1.692
N2255 X1.418 Y32.828 Z-1.704
N2260 X1.401 Y33.171 Z-1.716
N2265 X1.383 Y33.514 Z-1.728
N2270 X1.366 Y33.857 Z-1.74
N2275 X1.264 Y35.916 Z-1.812
N2280 X1.248 Y36.259 Z-1.823
N2285 X1.231 Y36.602 Z-1.835
N2290 X1.215 Y36.945 Z-1.846
N2295 X1.2 Y37.288 Z-1.857
N2300 X1.185 Y37.631 Z-1.868
N2305 X1.17 Y37.974 Z-1.878
N2310 X1.156 Y38.317 Z-1.888
N2315 X1.142 Y38.66 Z-1.898
N2320 X1.129 Y39.003 Z-1.907
N2325 X1.117 Y39.346 Z-1.916
N2330 X1.105 Y39.689 Z-1.924
N2335 X1.093 Y40.032 Z-1.932
N2340 X1.083 Y40.376 Z-1.94
N2345 X1.073 Y40.719 Z-1.947
N2350 X1.063 Y41.062 Z-1.954
N2355 X1.054 Y41.405 Z-1.961
N2360 X1.046 Y41.748 Z-1.967
N2365 X1.039 Y42.091 Z-1.972
N2370 X1.032 Y42.434 Z-1.977
N2375 Y42.776 Z-1.982
N2380 Y43.12 Z-1.986
N2385 Y43.463 Z-1.99
N2390 X1.034 Y43.806 Z-1.993
N2395 X1.039 Y44.149 Z-1.995
N2400 X1.052 Y44.492 Z-1.997
N2405 X1.066 Y44.834 Z-1.999
N2410 X1.081 Y45.177 Z-2.
N2415 X1.103 Y45.519
N2420 X1.105 Y45.537
N2425 X1.173 Y46.426
N2430 X1.187 Y46.595
N2435 X1.314 Y47.778
N2440 X1.336 Y47.947
N2445 X1.477 Y48.962
N2450 X1.502 Y49.131
N2455 X1.675 Y50.145
N2460 X1.704 Y50.314
N2465 X1.737 Y50.483
N2470 X1.942 Y51.498
N2475 X1.955 Y51.56
N2480 X1.979 Y51.667
N2485 X2.216 Y52.681
N2490 X2.257 Y52.85
N2495 X2.527 Y53.865
N2500 X2.572 Y54.034
N2505 X2.623 Y54.203
N2510 X2.927 Y55.217
N2515 X2.968 Y55.347
N2520 X3.319 Y56.401
N2525 X3.379 Y56.57
N2530 X3.752 Y57.584
N2535 X3.813 Y57.742
N2540 X4.226 Y58.768
N2545 X4.298 Y58.937
N2550 X4.743 Y59.951
N2555 X4.822 Y60.12
N2560 X5.305 Y61.135
N2565 X5.333 Y61.192
N2570 X5.84 Y62.178
N2575 X5.914 Y62.318
N2580 X6.475 Y63.333
N2585 X6.516 Y63.405
N2590 X6.573 Y63.502
N2595 X7.076 Y64.347
N2600 X7.177 Y64.516
N2605 X7.823 Y65.531
N2610 X7.868 Y65.598
N2615 X8.543 Y66.591
N2620 X8.631 Y66.714
N2625 X9.246 Y67.559
N2630 X9.372 Y67.728
N2635 X10.064 Y68.621
N2640 X10.162 Y68.743
N2645 X10.86 Y69.588
N2650 X10.908 Y69.647
N2655 X11.005 Y69.757
N2660 X11.599 Y70.434
N2665 X11.748 Y70.603
N2670 X11.753 Y70.608
N2675 X12.537 Y71.448
N2680 X12.598 Y71.513
N2685 X12.701 Y71.617
N2690 X13.443 Y72.365
N2695 X13.542 Y72.462
N2700 X14.287 Y73.169
N2705 X14.435 Y73.308
N2710 X14.456 Y73.327
N2715 X15.301 Y74.08
N2720 X15.384 Y74.153
N2725 X15.47 Y74.225
N2730 X16.315 Y74.933
N2735 X16.396 Y74.998
N2740 X17.328 Y75.732
N2745 X17.479 Y75.844
N2750 X18.342 Y76.481
N2755 X18.396 Y76.52
N2760 X19.373 Y77.196
N2765 X19.525 Y77.296
N2770 X20.415 Y77.873
N2775 X20.538 Y77.95
N2780 X21.528 Y78.549
N2785 X21.552 Y78.563
N2790 X21.721 Y78.659
N2795 X22.566 Y79.135
N2800 X22.728 Y79.225
N2805 X23.748 Y79.76
N2810 X23.917 Y79.844
N2815 X24.762 Y80.254
N2820 X24.931 Y80.336
N2825 X25.091 Y80.409
N2830 X25.944 Y80.791
N2835 X26.113 Y80.867
N2840 X26.232 Y80.916
N2845 X27.127 Y81.285
N2850 X27.296 Y81.354
N2855 X27.465 Y81.417
N2860 X28.378 Y81.761
N2865 X28.478 Y81.799
N2870 X28.647 Y81.857
N2875 X29.492 Y82.146
N2880 X29.661 Y82.203
N2885 X29.83 Y82.256
N2890 X30.844 Y82.568
N2895 X30.977 Y82.606
N2900 X32.026 Y82.895
N2905 X32.195 Y82.939
N2910 X33.209 Y83.184
N2915 X33.378 Y83.224
N2920 X33.885 Y83.331
N2925 X34.56 Y83.473
N2930 X34.729 Y83.504
N2935 X35.743 Y83.685
N2940 X35.912 Y83.713
N2945 X36.926 Y83.861
N2950 X37.095 Y83.886
N2955 X37.264 Y83.906
N2960 X38.277 Y84.023
N2965 X38.446 Y84.04
N2970 X39.483 Y84.128
N2975 X39.629 Y84.14
N2980 X39.798 Y84.15
N2985 X40.811 Y84.204
N2990 X40.98 Y84.211
N2995 X41.994 Y84.235
N3000 X42.163 Y84.238
N3005 X42.332
N3010 X43.345 Y84.23
N3015 X43.514 Y84.227
N3020 X44.697 Y84.181
N3025 X44.866 Y84.171
N3030 X45.88 Y84.101
N3035 X46.049 Y84.087
N3040 X47.231 Y83.969
N3045 X47.314 Y83.959
N3050 X48.414 Y83.815
N3055 X48.583 Y83.791
N3060 X49.63 Y83.621
N3065 X49.765 Y83.599
N3070 X49.934 Y83.567
N3075 X50.948 Y83.37
N3080 X51.117 Y83.334
N3085 X52.13 Y83.105
N3090 X52.299 Y83.066
N3095 X53.423 Y82.776
N3100 X53.482 Y82.76
N3105 X53.651 Y82.712
N3110 X54.665 Y82.416
N3115 X54.834 Y82.363
N3120 X55.847 Y82.034
N3125 X56.016 Y81.976
N3130 X57.084 Y81.592
N3135 X57.199 Y81.548
N3140 X58.212 Y81.149
N3145 X58.369 Y81.085
N3150 X59.395 Y80.644
N3155 X59.542 Y80.578
N3160 X60.578 Y80.094
N3165 X60.628 Y80.07
N3170 X60.747 Y80.011
N3175 X61.634 Y79.563
N3180 X61.76 Y79.499
N3185 X61.929 Y79.408
N3190 X62.774 Y78.948
N3195 X62.886 Y78.887
N3200 X62.943 Y78.854
N3205 X63.956 Y78.262
N3210 X64.039 Y78.211
N3215 X64.97 Y77.628
N3220 X65.115 Y77.534
N3225 X65.984 Y76.953
N3230 X66.124 Y76.858
N3235 X66.153 Y76.838
N3240 X67.07 Y76.182
N3245 X67.166 Y76.112
N3250 X68.011 Y75.468
N3255 X68.18 Y75.338
N3260 X69.025 Y74.653
N3265 X69.194 Y74.513
N3270 X70.038 Y73.783
N3275 X70.192 Y73.646
N3280 X70.927 Y72.97
N3285 X71.052 Y72.854
N3290 X71.107 Y72.8
N3295 X71.897 Y72.029
N3300 X71.971 Y71.955
N3305 X72.785 Y71.11
N3310 X72.91 Y70.974
N3315 X73.586 Y70.228
N3320 X73.705 Y70.095
N3325 X74.431 Y69.242
N3330 X74.564 Y69.081
N3335 X75.276 Y68.191
N3340 X75.371 Y68.067
N3345 X76.005 Y67.221
N3350 X76.12 Y67.063
N3355 X76.723 Y66.207
N3360 X76.796 Y66.102
N3365 X76.839 Y66.038
N3370 X77.472 Y65.077
N3375 X77.506 Y65.023
N3380 X77.611 Y64.854
N3385 X78.148 Y63.982
N3390 X78.23 Y63.84
N3395 X78.715 Y62.994
N3400 X78.812 Y62.825
N3405 X79.353 Y61.811
N3410 X79.44 Y61.642
N3415 X79.942 Y60.628
N3420 X80.006 Y60.492
N3425 X80.408 Y59.613
N3430 X80.485 Y59.444
N3435 X80.513 Y59.38
N3440 X80.913 Y58.43
N3445 X80.984 Y58.261
N3450 X81.02 Y58.169
N3455 X81.375 Y57.246
N3460 X81.44 Y57.077
N3465 X81.5 Y56.908
N3470 X81.855 Y55.894
N3475 X81.864 Y55.867
N3480 X81.91 Y55.725
N3485 X82.231 Y54.71
N3490 X82.28 Y54.541
N3495 X82.567 Y53.527
N3500 X82.613 Y53.358
N3505 X82.878 Y52.297
N3510 X82.908 Y52.174
N3515 X83.166 Y50.991
N3520 X83.198 Y50.822
N3525 X83.387 Y49.807
N3530 X83.416 Y49.638
N3535 X83.573 Y48.624
N3540 X83.599 Y48.455
N3545 X83.62 Y48.285
N3550 X83.745 Y47.271
N3555 X83.763 Y47.102
N3560 X83.857 Y46.088
N3565 X83.872 Y45.919
N3570 X83.882 Y45.749
N3575 X83.945 Y44.735
N3580 X83.952 Y44.566
N3585 X83.983 Y43.552
N3590 X83.988 Y43.383
N3595 X83.997 Y42.875
N3600 X83.999 Y42.706
N3605 X84. Y42.537
N3610 Y41.523
N3615 Y40.508
N3620 X83.999 Y39.494
N3625 Y38.48
N3630 Y37.465
N3635 Y36.451
N3640 Y35.436
N3645 X83.998 Y33.746
N3650 X83.993 Y10.076
N3655 X83.991 Y9.907
N3660 X83.986 Y9.738
N3665 X83.98 Y9.569
N3670 X83.972 Y9.4
N3675 X83.957 Y9.231
N3680 X83.941 Y9.062
N3685 X83.924 Y8.892
N3690 X83.899 Y8.723
N3695 X83.845 Y8.385
N3700 X83.812 Y8.216
N3705 X83.723 Y7.815
N3710 X83.695 Y7.709
N3715 X83.597 Y7.371
N3720 X83.554 Y7.225
N3725 X83.546 Y7.202
N3730 X83.486 Y7.033
N3735 X83.385 Y6.752
N3740 X83.363 Y6.695
N3745 X83.291 Y6.525
N3750 X83.216 Y6.351
N3755 X83.144 Y6.187
N3760 X83.06 Y6.018
N3765 X82.974 Y5.849
N3770 X82.887 Y5.68
N3775 X82.878 Y5.663
N3780 X82.789 Y5.511
N3785 X82.689 Y5.342
N3790 X82.587 Y5.173
N3795 X82.54 Y5.102
N3800 X82.358 Y4.835
N3805 X82.239 Y4.666
N3810 X81.976 Y4.328
N3815 X81.864 Y4.193
N3820 X81.685 Y3.989
N3825 X81.533 Y3.82
N3830 X81.526 Y3.814
N3835 X81.357 Y3.645
N3840 X81.195 Y3.482
N3845 X81.189 Y3.476
N3850 X81.02 Y3.323
N3855 X80.816 Y3.144
N3860 X80.682 Y3.031
N3865 X80.344 Y2.769
N3870 X80.175 Y2.649
N3875 X79.909 Y2.468
N3880 X79.837 Y2.419
N3885 X79.668 Y2.318
N3890 X79.499 Y2.218
N3895 X79.35 Y2.13
N3900 X79.33 Y2.119
N3905 X79.161 Y2.032
N3910 X78.992 Y1.946
N3915 X78.823 Y1.861
N3920 X78.665 Y1.792
N3925 X78.485 Y1.714
N3930 X78.317 Y1.642
N3935 X78.266 Y1.622
N3940 X78.148 Y1.58
N3945 X77.979 Y1.519
N3950 X77.81 Y1.458
N3955 X77.796 Y1.453
N3960 X77.641 Y1.407
N3965 X77.303 Y1.309
N3970 X77.212 Y1.284
N3975 X77.134 Y1.267
N3980 X76.796 Y1.191
N3985 X76.627 Y1.157
N3990 X76.289 Y1.104
N3995 X76.12 Y1.078
N4000 X75.951 Y1.061
N4005 X75.782 Y1.045
N4010 X75.613 Y1.029
N4015 X75.445 Y1.021
N4020 X75.276 Y1.015
N4025 X75.107 Y1.01
N4030 X74.938 Y1.008
N4035 X10.064
N4040 X9.895 Y1.01
N4045 X9.726 Y1.015
N4050 X9.557 Y1.021
N4055 X9.388 Y1.029
N4060 X9.219 Y1.045
N4065 X9.05 Y1.061
N4070 X8.881 Y1.078
N4075 X8.712 Y1.104
N4080 X8.374 Y1.157
N4085 X8.205 Y1.191
N4090 X7.868 Y1.267
N4095 X7.789 Y1.284
N4100 X7.699 Y1.309
N4105 X7.361 Y1.407
N4110 X7.206 Y1.453
N4115 X7.192 Y1.458
N4120 X7.023 Y1.519
N4125 X6.854 Y1.58
N4130 X6.735 Y1.622
N4135 X6.685 Y1.642
N4140 X6.516 Y1.714
N4145 X6.337 Y1.792
N4150 X6.178 Y1.861
N4155 X6.009 Y1.946
N4160 X5.84 Y2.032
N4165 X5.671 Y2.119
N4170 X5.652 Y2.13
N4175 X5.502 Y2.218
N4180 X5.333 Y2.318
N4185 X5.164 Y2.419
N4190 X5.093 Y2.468
N4195 X4.827 Y2.649
N4200 X4.658 Y2.769
N4205 X4.32 Y3.031
N4210 X4.185 Y3.144
N4215 X3.982 Y3.323
N4220 X3.813 Y3.476
N4225 X3.807 Y3.482
N4230 X3.638 Y3.651
N4235 X3.475 Y3.814
N4240 X3.469 Y3.82
N4245 X3.317 Y3.989
N4250 X3.137 Y4.193
N4255 X3.025 Y4.328
N4260 X2.763 Y4.666
N4265 X2.643 Y4.835
N4270 X2.461 Y5.102
N4275 X2.414 Y5.173
N4280 X2.313 Y5.342
N4285 X2.213 Y5.511
N4290 X2.123 Y5.663
N4295 X2.114 Y5.68
N4300 X2.028 Y5.849
N4305 X1.941 Y6.018
N4310 X1.857 Y6.187
N4315 X1.786 Y6.351
N4320 X1.71 Y6.525
N4325 X1.638 Y6.695
N4330 X1.617 Y6.752
N4335 X1.516 Y7.033
N4340 X1.455 Y7.202
N4345 X1.448 Y7.225
N4350 X1.404 Y7.371
N4355 X1.306 Y7.709
N4360 X1.279 Y7.815
N4365 X1.206 Y8.141
N4370 X1.189 Y8.216
N4375 X1.156 Y8.385
N4380 X1.11 Y8.676
N4385 X1.102 Y8.723
N4390 X1.077 Y8.892
N4395 X1.061 Y9.062
N4400 X1.045 Y9.231
N4405 X1.029 Y9.4
N4410 X1.021 Y9.569
N4415 X1.015 Y9.738
N4420 X1.01 Y9.907
N4425 X1.008 Y10.076
N4430 X1.003 Y35.098
N4435 X1.002 Y36.113
N4440 Y37.127
N4445 Y38.141
N4450 Y39.156
N4455 Y40.17
N4460 Y41.185
N4465 Y42.199
N4470 Y42.368
N4475 Y42.537
N4480 X1.006 Y42.706
N4485 X1.01 Y42.875
N4490 X1.025 Y43.89
N4495 X1.029 Y44.059
N4500 X1.083 Y45.242
N4505 X1.095 Y45.411
N4510 X1.105 Y45.537
N4515 X1.13 Y45.879
N4520 X1.155 Y46.222 Z-2.001
N4525 X1.178 Y46.543 Z-2.002
N4530 X1.211 Y46.871 Z-2.004
N4535 X1.244 Y47.212 Z-2.007
N4540 X1.277 Y47.554 Z-2.01
N4545 X1.307 Y47.864 Z-2.013
N4550 X1.348 Y48.201 Z-2.017
N4555 X1.39 Y48.542 Z-2.021
N4560 X1.43 Y48.883 Z-2.026
N4565 X1.469 Y49.19 Z-2.031
N4570 X1.519 Y49.529 Z-2.037
N4575 X1.568 Y49.869 Z-2.044
N4580 X1.617 Y50.209 Z-2.05
N4585 X1.665 Y50.515 Z-2.057
N4590 X1.723 Y50.854 Z-2.064
N4595 X1.78 Y51.192 Z-2.072
N4600 X1.837 Y51.528 Z-2.081
N4605 X1.895 Y51.837 Z-2.089
N4610 X1.961 Y52.174 Z-2.098
N4615 X2.027 Y52.511 Z-2.107
N4620 X2.089 Y52.832 Z-2.117
N4625 X2.161 Y53.154 Z-2.126
N4630 X2.236 Y53.489 Z-2.137
N4635 X2.31 Y53.824 Z-2.148
N4640 X2.38 Y54.131 Z-2.158
N4645 X2.464 Y54.464 Z-2.169
N4650 X2.549 Y54.797 Z-2.181
N4655 X2.633 Y55.13 Z-2.193
N4660 X2.716 Y55.444 Z-2.204
N4665 X2.808 Y55.766 Z-2.216
N4670 X2.903 Y56.096 Z-2.228
N4675 X2.998 Y56.426 Z-2.24
N4680 X3.091 Y56.73 Z-2.251
N4685 X3.406 Y57.708 Z-2.287
N4690 X3.512 Y58.013 Z-2.298
N4695 X3.857 Y58.983 Z-2.334
N4700 X3.974 Y59.283 Z-2.345
N4705 X4.224 Y59.922 Z-2.369
N4710 X4.344 Y60.225 Z-2.38
N4715 X4.477 Y60.538 Z-2.392
N4720 X4.747 Y61.17 Z-2.416
N4725 X4.877 Y61.467 Z-2.428
N4730 X5.311 Y62.402 Z-2.464
N4735 X5.452 Y62.696 Z-2.475
N4740 X5.914 Y63.616 Z-2.511
N4745 X6.067 Y63.906 Z-2.522
N4750 X6.557 Y64.812 Z-2.558
N4755 X6.721 Y65.098 Z-2.57
N4760 X7.066 Y65.692 Z-2.594
N4765 X7.237 Y65.983 Z-2.606
N4770 X7.415 Y66.269 Z-2.617
N4775 X7.596 Y66.56 Z-2.629
N4780 X7.778 Y66.851 Z-2.641
N4785 X7.959 Y67.135 Z-2.653
N4790 X8.148 Y67.417 Z-2.665
N4795 X8.339 Y67.703 Z-2.677
N4800 X8.53 Y67.988 Z-2.689
N4805 X8.72 Y68.263 Z-2.701
N4810 X8.92 Y68.541 Z-2.713
N4815 X9.121 Y68.82 Z-2.725
N4820 X9.32 Y69.098 Z-2.737
N4825 X9.522 Y69.367 Z-2.748
N4830 X10.148 Y70.183 Z-2.784
N4835 X10.361 Y70.446 Z-2.796
N4840 X10.578 Y70.712 Z-2.808
N4845 X10.796 Y70.978 Z-2.82
N4850 X11.013 Y71.242 Z-2.831
N4855 X11.236 Y71.498 Z-2.843
N4860 X11.462 Y71.756 Z-2.854
N4865 X11.688 Y72.014 Z-2.864
N4870 X11.914 Y72.269 Z-2.874
N4875 X12.148 Y72.519 Z-2.885
N4880 X12.383 Y72.769 Z-2.894
N4885 X12.618 Y73.019 Z-2.904
N4890 X12.854 Y73.265 Z-2.913
N4895 X13.097 Y73.507 Z-2.921
N4900 X13.34 Y73.749 Z-2.929
N4905 X13.584 Y73.991 Z-2.937
N4910 X13.831 Y74.226 Z-2.945
N4915 X14.082 Y74.46 Z-2.952
N4920 X14.334 Y74.693 Z-2.958
N4925 X14.586 Y74.926 Z-2.965
N4930 X14.843 Y75.152 Z-2.97
N4935 X15.103 Y75.376 Z-2.975
N4940 X15.362 Y75.6 Z-2.98
N4945 X15.623 Y75.824 Z-2.985
N4950 X15.889 Y76.039 Z-2.988
N4955 X16.157 Y76.254 Z-2.992
N4960 X16.425 Y76.468 Z-2.994
N4965 X16.694 Y76.681 Z-2.997
N4970 X16.969 Y76.886 Z-2.998
N4975 X17.244 Y77.091 Z-2.999
N4980 X17.52 Y77.295 Z-3.
N4985 X17.644 Y77.38
N4990 X17.666 Y77.397
N4995 X17.835 Y77.515
N5000 X18.68 Y78.1
N5005 X18.844 Y78.211
N5010 X19.693 Y78.761
N5015 X19.862 Y78.87
N5020 X19.889 Y78.887
N5025 X20.031 Y78.973
N5030 X20.876 Y79.484
N5035 X21.008 Y79.563
N5040 X21.045 Y79.584
N5045 X22.059 Y80.156
N5050 X22.212 Y80.24
N5055 X23.241 Y80.779
N5060 X23.41 Y80.863
N5065 X24.424 Y81.355
N5070 X24.572 Y81.423
N5075 X25.606 Y81.887
N5080 X25.707 Y81.93
N5085 X26.789 Y82.376
N5090 X26.945 Y82.437
N5095 X27.972 Y82.824
N5100 X28.141 Y82.886
N5105 X29.154 Y83.233
N5110 X29.301 Y83.283
N5115 X29.323 Y83.29
N5120 X29.492 Y83.342
N5125 X30.506 Y83.655
N5130 X30.675 Y83.703
N5135 X31.688 Y83.982
N5140 X31.857 Y84.028
N5145 X32.026 Y84.069
N5150 X33.04 Y84.314
N5155 X33.209 Y84.352
N5160 X34.223 Y84.564
N5165 X34.391 Y84.599
N5170 X34.56 Y84.63
N5175 X35.574 Y84.81
N5180 X35.743 Y84.838
N5185 X36.926 Y85.011
N5190 X37.095 Y85.032
N5195 X38.108 Y85.149
N5200 X38.277 Y85.168
N5205 X38.446 Y85.182
N5210 X39.46 Y85.268
N5215 X39.629 Y85.28
N5220 X40.811 Y85.344
N5225 X40.98 Y85.349
N5230 X41.994 Y85.373
N5235 X42.163 Y85.376
N5240 X42.332
N5245 X43.345 Y85.368
N5250 X43.514 Y85.365
N5255 X44.697 Y85.32
N5260 X44.861 Y85.312
N5265 X46.049 Y85.23
N5270 X46.217 Y85.214
N5275 X47.231 Y85.113
N5280 X47.4 Y85.095
N5285 X47.569 Y85.073
N5290 X48.583 Y84.94
N5295 X48.752 Y84.916
N5300 X49.934 Y84.724
N5305 X50.103 Y84.693
N5310 X51.117 Y84.496
N5315 X51.269 Y84.466
N5320 X51.286 Y84.463
N5325 X52.468 Y84.195
N5330 X52.637 Y84.154
N5335 X53.651 Y83.892
N5340 X53.82 Y83.847
N5345 X54.017 Y83.79
N5350 X55.002 Y83.503
N5355 X55.165 Y83.452
N5360 X56.205 Y83.114
N5365 X56.354 Y83.063
N5370 X57.368 Y82.699
N5375 X57.537 Y82.638
N5380 X57.617 Y82.606
N5385 X58.55 Y82.239
N5390 X58.719 Y82.172
N5395 X58.888 Y82.1
N5400 X59.902 Y81.664
N5405 X60.059 Y81.592
N5410 X61.084 Y81.114
N5415 X61.144 Y81.085
N5420 X61.253 Y81.03
N5425 X62.149 Y80.578
N5430 X62.267 Y80.518
N5435 X62.436 Y80.427
N5440 X63.403 Y79.901
N5445 X63.45 Y79.875
N5450 X63.619 Y79.777
N5455 X64.463 Y79.283
N5460 X64.562 Y79.225
N5465 X64.632 Y79.182
N5470 X65.646 Y78.547
N5475 X65.815 Y78.435
N5480 X66.659 Y77.87
N5485 X66.828 Y77.753
N5490 X67.673 Y77.15
N5495 X67.842 Y77.028
N5500 X68.73 Y76.351
N5505 X68.856 Y76.255
N5510 X68.946 Y76.182
N5515 X69.779 Y75.506
N5520 X69.869 Y75.432
N5525 X69.981 Y75.337
N5530 X70.763 Y74.66
N5535 X70.883 Y74.556
N5540 X70.953 Y74.491
N5545 X71.728 Y73.779
N5550 X71.87 Y73.646
N5555 X72.735 Y72.8
N5560 X72.741 Y72.795
N5565 X72.9 Y72.631
N5570 X73.586 Y71.918
N5575 X73.71 Y71.786
N5580 X74.475 Y70.941
N5585 X74.6 Y70.799
N5590 X75.342 Y69.926
N5595 X75.445 Y69.802
N5600 X76.156 Y68.912
N5605 X76.286 Y68.743
N5610 X76.965 Y67.838
N5615 X77.043 Y67.728
N5620 X77.641 Y66.879
N5625 X77.756 Y66.714
N5630 X77.867 Y66.545
N5635 X78.424 Y65.7
N5640 X78.485 Y65.604
N5645 X79.051 Y64.685
N5650 X79.154 Y64.516
N5655 X79.161 Y64.504
N5660 X79.736 Y63.502
N5665 X79.831 Y63.333
N5670 X80.372 Y62.318
N5675 X80.459 Y62.149
N5680 X80.961 Y61.135
N5685 X81.02 Y61.011
N5690 X81.505 Y59.951
N5695 X81.526 Y59.904
N5700 X81.578 Y59.782
N5705 X82.005 Y58.768
N5710 X82.033 Y58.701
N5715 X82.073 Y58.599
N5720 X82.464 Y57.584
N5725 X82.528 Y57.415
N5730 X82.883 Y56.401
N5735 X82.942 Y56.232
N5740 X82.996 Y56.063
N5745 X83.317 Y55.048
N5750 X83.367 Y54.879
N5755 X83.654 Y53.865
N5760 X83.701 Y53.696
N5765 X83.997 Y52.512
N5770 X84.036 Y52.343
N5775 X84.257 Y51.329
N5780 X84.293 Y51.16
N5785 X84.324 Y50.991
N5790 X84.513 Y49.976
N5795 X84.541 Y49.807
N5800 X84.698 Y48.793
N5805 X84.724 Y48.624
N5810 X84.736 Y48.529
N5815 X84.871 Y47.44
N5820 X84.89 Y47.271
N5825 X84.999 Y46.088
N5830 X85.012 Y45.919
N5835 X85.085 Y44.735
N5840 X85.091 Y44.566
N5845 X85.122 Y43.552
N5850 X85.126 Y43.383
N5855 X85.132 Y43.044
N5860 X85.134 Y42.875
N5865 X85.136 Y42.706
N5870 Y42.537
N5875 Y39.832
N5880 Y38.818
N5885 Y37.803
N5890 Y36.789
N5895 Y35.774
N5900 Y34.76
N5905 Y33.746
N5910 Y32.731
N5915 Y31.717
N5920 X85.131 Y10.076
N5925 X85.129 Y9.907
N5930 X85.124 Y9.738
N5935 X85.118 Y9.569
N5940 X85.113 Y9.4
N5945 X85.099 Y9.231
N5950 X85.067 Y8.892
N5955 X85.05 Y8.723
N5960 X85.024 Y8.554
N5965 X84.97 Y8.216
N5970 X84.94 Y8.047
N5975 X84.902 Y7.878
N5980 X84.827 Y7.54
N5985 X84.782 Y7.371
N5990 X84.683 Y7.033
N5995 X84.633 Y6.864
N6000 X84.573 Y6.695
N6005 X84.451 Y6.356
N6010 X84.398 Y6.22
N6015 X84.384 Y6.187
N6020 X84.23 Y5.83
N6025 X84.163 Y5.68
N6030 X84.078 Y5.511
N6035 X83.906 Y5.173
N6040 X83.892 Y5.146
N6045 X83.81 Y5.004
N6050 X83.61 Y4.666
N6055 X83.554 Y4.572
N6060 X83.504 Y4.497
N6065 X83.274 Y4.159
N6070 X83.216 Y4.073
N6075 X83.154 Y3.989
N6080 X82.878 Y3.634
N6085 X82.754 Y3.482
N6090 X82.456 Y3.144
N6095 X82.371 Y3.051
N6100 X82.296 Y2.975
N6105 X82.033 Y2.712
N6110 X81.958 Y2.637
N6115 X81.864 Y2.552
N6120 X81.526 Y2.254
N6125 X81.376 Y2.13
N6130 X81.02 Y1.853
N6135 X80.937 Y1.792
N6140 X80.851 Y1.732
N6145 X80.513 Y1.503
N6150 X80.439 Y1.453
N6155 X80.344 Y1.396
N6160 X80.006 Y1.196
N6165 X79.867 Y1.115
N6170 X79.837 Y1.1
N6175 X79.668 Y1.013
N6180 X79.499 Y0.927
N6185 X79.33 Y0.842
N6190 X79.185 Y0.777
N6195 X78.794 Y0.608
N6200 X78.654 Y0.553
N6205 X78.317 Y0.431
N6210 X78.148 Y0.371
N6215 X77.979 Y0.32
N6220 X77.641 Y0.222
N6225 X77.472 Y0.176
N6230 X77.303 Y0.139
N6235 X76.965 Y0.063
N6240 X76.796 Y0.032
N6245 X76.458 Y-0.021
N6250 X76.289 Y-0.048
N6255 X76.12 Y-0.065
N6260 X75.782 Y-0.097
N6265 X75.613 Y-0.111
N6270 X75.445 Y-0.117
N6275 X75.276 Y-0.123
N6280 X75.107 Y-0.128
N6285 X74.938 Y-0.13
N6290 X10.064
N6295 X9.895 Y-0.128
N6300 X9.726 Y-0.123
N6305 X9.557 Y-0.117
N6310 X9.388 Y-0.111
N6315 X9.219 Y-0.097
N6320 X8.881 Y-0.065
N6325 X8.712 Y-0.048
N6330 X8.543 Y-0.021
N6335 X8.205 Y0.032
N6340 X8.036 Y0.063
N6345 X7.699 Y0.139
N6350 X7.53 Y0.176
N6355 X7.361 Y0.222
N6360 X7.023 Y0.32
N6365 X6.854 Y0.371
N6370 X6.685 Y0.431
N6375 X6.347 Y0.553
N6380 X6.207 Y0.608
N6385 X5.817 Y0.777
N6390 X5.671 Y0.842
N6395 X5.502 Y0.927
N6400 X5.333 Y1.013
N6405 X5.164 Y1.1
N6410 X5.135 Y1.115
N6415 X4.995 Y1.196
N6420 X4.658 Y1.396
N6425 X4.563 Y1.453
N6430 X4.489 Y1.503
N6435 X4.151 Y1.732
N6440 X4.065 Y1.792
N6445 X3.982 Y1.853
N6450 X3.626 Y2.13
N6455 X3.475 Y2.254
N6460 X3.137 Y2.552
N6465 X3.044 Y2.637
N6470 X2.968 Y2.712
N6475 X2.705 Y2.975
N6480 X2.63 Y3.051
N6485 X2.546 Y3.144
N6490 X2.247 Y3.482
N6495 X2.123 Y3.634
N6500 X1.848 Y3.989
N6505 X1.786 Y4.073
N6510 X1.727 Y4.159
N6515 X1.498 Y4.497
N6520 X1.448 Y4.572
N6525 X1.391 Y4.666
N6530 X1.191 Y5.004
N6535 X1.11 Y5.146
N6540 X1.096 Y5.173
N6545 X0.941 Y5.476
N6550 X0.923 Y5.511
N6555 X0.838 Y5.68
N6560 X0.772 Y5.83
N6565 X0.617 Y6.187
N6570 X0.603 Y6.22
N6575 X0.55 Y6.356
N6580 X0.428 Y6.695
N6585 X0.368 Y6.864
N6590 X0.318 Y7.033
N6595 X0.22 Y7.371
N6600 X0.175 Y7.54
N6605 X0.096 Y7.891
N6610 X0.061 Y8.047
N6615 X0.031 Y8.216
N6620 X-0.023 Y8.554
N6625 X-0.049 Y8.723
N6630 X-0.066 Y8.892
N6635 X-0.073 Y8.967
N6640 X-0.098 Y9.231
N6645 X-0.111 Y9.4
N6650 X-0.117 Y9.569
N6655 X-0.123 Y9.738
N6660 X-0.128 Y9.907
N6665 X-0.13 Y10.076
N6670 X-0.134 Y31.548
N6675 Y32.562
N6680 Y33.577
N6685 X-0.135 Y34.591
N6690 Y35.605
N6695 Y36.62
N6700 Y37.634
N6705 Y38.649
N6710 Y39.663
N6715 X-0.134 Y42.368
N6720 X-0.135 Y42.537
N6725 X-0.132 Y42.706
N6730 X-0.128 Y42.875
N6735 X-0.113 Y43.89
N6740 X-0.11 Y44.059
N6745 X-0.102 Y44.228
N6750 X-0.056 Y45.242
N6755 X-0.046 Y45.411
N6760 X0.045 Y46.595
N6765 X0.061 Y46.764
N6770 X0.17 Y47.778
N6775 X0.188 Y47.947
N6780 X0.211 Y48.116
N6785 X0.352 Y49.131
N6790 X0.377 Y49.3
N6795 X0.578 Y50.483
N6800 X0.603 Y50.615
N6805 X0.815 Y51.667
N6810 X0.85 Y51.836
N6815 X0.889 Y52.005
N6820 X1.127 Y53.019
N6825 X1.169 Y53.188
N6830 X1.448 Y54.232
N6835 X1.485 Y54.372
N6840 X1.536 Y54.541
N6845 X1.84 Y55.555
N6850 X1.895 Y55.725
N6855 X2.233 Y56.739
N6860 X2.291 Y56.908
N6865 X2.664 Y57.922
N6870 X2.727 Y58.091
N6875 X2.799 Y58.271
N6880 X3.137 Y59.109
N6885 X3.204 Y59.275
N6890 X3.278 Y59.444
N6895 X3.723 Y60.458
N6900 X3.803 Y60.628
N6905 X4.205 Y61.473
N6910 X4.286 Y61.642
N6915 X4.32 Y61.709
N6920 X4.827 Y62.695
N6925 X4.894 Y62.825
N6930 X4.987 Y62.994
N6935 X5.502 Y63.924
N6940 X5.551 Y64.009
N6945 X6.178 Y65.064
N6950 X6.259 Y65.192
N6955 X6.854 Y66.127
N6960 X6.905 Y66.207
N6965 X7.023 Y66.379
N6970 X7.596 Y67.221
N6975 X7.699 Y67.366
N6980 X8.374 Y68.296
N6985 X8.457 Y68.405
N6990 X9.111 Y69.25
N6995 X9.219 Y69.387
N7000 X9.942 Y70.264
N7005 X10.064 Y70.409
N7010 X10.827 Y71.279
N7015 X10.908 Y71.371
N7020 X10.981 Y71.448
N7025 X11.753 Y72.276
N7030 X11.77 Y72.293
N7035 X11.922 Y72.448
N7040 X12.607 Y73.139
N7045 X12.767 Y73.295
N7050 X13.612 Y74.096
N7055 X13.673 Y74.153
N7060 X14.052 Y74.491
N7065 X14.456 Y74.851
N7070 X14.622 Y74.998
N7075 X14.625 Y75.001
N7080 X14.794 Y75.143
N7085 X15.47 Y75.709
N7090 X15.631 Y75.844
N7095 X15.639 Y75.85
N7100 X15.808 Y75.983
N7105 X16.49 Y76.52
N7110 X16.653 Y76.648
N7115 X16.708 Y76.689
N7120 X17.644 Y77.38
N7125 X17.9 Y77.567
N7130 X18.182 Y77.763 Z-3.001
N7135 X18.463 Y77.959 Z-3.002
N7140 X18.743 Y78.155 Z-3.004
N7145 X19.008 Y78.331 Z-3.007
N7150 X19.294 Y78.52 Z-3.01
N7155 X19.581 Y78.709 Z-3.013
N7160 X19.853 Y78.891 Z-3.017
N7165 X20.136 Y79.067 Z-3.021
N7170 X20.427 Y79.249 Z-3.026
N7175 X20.717 Y79.431 Z-3.032
N7180 X20.99 Y79.602 Z-3.037
N7185 X21.282 Y79.774 Z-3.044
N7190 X21.578 Y79.948 Z-3.05
N7195 X21.873 Y80.123 Z-3.057
N7200 X22.149 Y80.285 Z-3.065
N7205 X22.448 Y80.451 Z-3.073
N7210 X22.748 Y80.617 Z-3.081
N7215 X23.048 Y80.784 Z-3.09
N7220 X23.329 Y80.938 Z-3.098
N7225 X23.633 Y81.096 Z-3.108
N7230 X23.937 Y81.255 Z-3.117
N7235 X24.242 Y81.414 Z-3.128
N7240 X24.53 Y81.56 Z-3.137
N7245 X24.837 Y81.709 Z-3.148
N7250 X25.145 Y81.859 Z-3.159
N7255 X25.454 Y82.009 Z-3.171
N7260 X25.746 Y82.146 Z-3.182
N7265 X26.059 Y82.287 Z-3.193
N7270 X26.372 Y82.428 Z-3.205
N7275 X26.685 Y82.569 Z-3.217
N7280 X26.982 Y82.695 Z-3.229
N7285 X27.3 Y82.826 Z-3.241
N7290 X27.617 Y82.957 Z-3.253
N7295 X27.933 Y83.087 Z-3.265
N7300 X28.237 Y83.204 Z-3.276
N7305 X28.88 Y83.446 Z-3.3
N7310 X29.195 Y83.564 Z-3.312
N7315 X29.509 Y83.673 Z-3.323
N7320 X30.159 Y83.895 Z-3.347
N7325 X30.48 Y84.004 Z-3.359
N7330 X30.797 Y84.102 Z-3.371
N7335 X31.453 Y84.303 Z-3.395
N7340 X31.776 Y84.401 Z-3.407
N7345 X32.76 Y84.671 Z-3.442
N7350 X33.082 Y84.757 Z-3.454
N7355 X34.079 Y84.998 Z-3.49
N7360 X34.402 Y85.073 Z-3.501
N7365 X35.41 Y85.283 Z-3.537
N7370 X35.736 Y85.347 Z-3.549
N7375 X36.749 Y85.527 Z-3.585
N7380 X37.078 Y85.579 Z-3.596
N7385 X38.097 Y85.728 Z-3.632
N7390 X38.429 Y85.77 Z-3.644
N7395 X39.452 Y85.887 Z-3.68
N7400 X39.787 Y85.917 Z-3.692
N7405 X40.129 Y85.946 Z-3.704
N7410 X40.471 Y85.974 Z-3.716
N7415 X40.812 Y86.002 Z-3.728
N7420 X41.149 Y86.021 Z-3.739
N7425 X41.492 Y86.038 Z-3.751
N7430 X41.835 Y86.056 Z-3.763
N7435 X42.173 Y86.073 Z-3.775
N7440 X42.515 Y86.08 Z-3.787
N7445 X42.858 Y86.086 Z-3.799
N7450 X43.202 Y86.093 Z-3.811
N7455 X43.541 Y86.098 Z-3.823
N7460 X43.884 Y86.093 Z-3.834
N7465 X44.227 Y86.089 Z-3.845
N7470 X44.57 Y86.084 Z-3.856
N7475 X44.91 Y86.076 Z-3.867
N7480 X45.253 Y86.06 Z-3.877
N7485 X45.596 Y86.043 Z-3.887
N7490 X45.938 Y86.027 Z-3.897
N7495 X46.279 Y86.006 Z-3.906
N7500 X46.621 Y85.979 Z-3.915
N7505 X46.963 Y85.951 Z-3.923
N7510 X47.305 Y85.923 Z-3.932
N7515 X47.645 Y85.89 Z-3.939
N7520 X47.986 Y85.85 Z-3.947
N7525 X48.326 Y85.811 Z-3.954
N7530 X48.667 Y85.771 Z-3.96
N7535 X49.006 Y85.725 Z-3.966
N7540 X49.346 Y85.674 Z-3.972
N7545 X49.685 Y85.623 Z-3.977
N7550 X50.024 Y85.571 Z-3.982
N7555 X50.361 Y85.512 Z-3.986
N7560 X50.699 Y85.449 Z-3.989
N7565 X51.036 Y85.386 Z-3.992
N7570 X51.373 Y85.323 Z-3.995
N7575 X51.708 Y85.251 Z-3.997
N7580 X52.043 Y85.176 Z-3.999
N7585 X52.378 Y85.101 Z-4.
N7590 X52.713 Y85.026
N7595 X52.766 Y85.012
N7600 X52.806 Y85.003
N7605 X53.989 Y84.697
N7610 X54.158 Y84.649
N7615 X55.171 Y84.354
N7620 X55.34 Y84.303
N7625 X56.523 Y83.919
N7630 X56.692 Y83.86
N7635 X57.706 Y83.496
N7640 X57.828 Y83.452
N7645 X57.874 Y83.434
N7650 X58.888 Y83.034
N7655 X59.057 Y82.967
N7660 X59.111 Y82.945
N7665 X60.24 Y82.459
N7670 X60.29 Y82.437
N7675 X60.409 Y82.382
N7680 X61.422 Y81.909
N7685 X61.591 Y81.827
N7690 X62.605 Y81.315
N7695 X62.724 Y81.254
N7700 X63.787 Y80.676
N7705 X63.956 Y80.58
N7710 X64.97 Y79.988
N7715 X65.111 Y79.901
N7720 X65.984 Y79.355
N7725 X66.153 Y79.249
N7730 X66.188 Y79.225
N7735 X67.198 Y78.549
N7740 X67.335 Y78.453
N7745 X68.18 Y77.849
N7750 X68.349 Y77.728
N7755 X68.381 Y77.703
N7760 X69.363 Y76.955
N7765 X69.484 Y76.858
N7770 X70.376 Y76.134
N7775 X70.52 Y76.013
N7780 X71.39 Y75.261
N7785 X71.494 Y75.167
N7790 X72.235 Y74.487
N7795 X72.404 Y74.332
N7800 X72.414 Y74.322
N7805 X72.572 Y74.168
N7810 X73.28 Y73.477
N7815 X73.417 Y73.34
N7820 X74.262 Y72.462
N7825 X74.417 Y72.293
N7830 X75.107 Y71.531
N7835 X75.182 Y71.448
N7840 X75.276 Y71.338
N7845 X75.951 Y70.544
N7850 X76.045 Y70.434
N7855 X76.12 Y70.341
N7860 X76.857 Y69.419
N7865 X76.965 Y69.278
N7870 X77.641 Y68.377
N7875 X77.743 Y68.236
N7880 X78.338 Y67.39
N7885 X78.456 Y67.221
N7890 X78.485 Y67.177
N7895 X79.161 Y66.151
N7900 X79.233 Y66.038
N7905 X79.857 Y65.023
N7910 X79.956 Y64.854
N7915 X80.513 Y63.884
N7920 X80.538 Y63.84
N7925 X80.63 Y63.671
N7930 X81.081 Y62.825
N7935 X81.171 Y62.656
N7940 X81.189 Y62.622
N7945 X81.255 Y62.487
N7950 X81.695 Y61.599
N7955 X81.758 Y61.473
N7960 X81.836 Y61.304
N7965 X82.3 Y60.289
N7970 X82.371 Y60.125
N7975 X82.8 Y59.106
N7980 X82.869 Y58.937
N7985 X83.26 Y57.922
N7990 X83.325 Y57.753
N7995 X83.385 Y57.582
N8000 X83.74 Y56.57
N8005 X83.795 Y56.401
N8010 X84.116 Y55.386
N8015 X84.169 Y55.217
N8020 X84.217 Y55.048
N8025 X84.504 Y54.034
N8030 X84.549 Y53.865
N8035 X84.803 Y52.85
N8040 X84.845 Y52.681
N8045 X84.883 Y52.512
N8050 X85.104 Y51.498
N8055 X85.14 Y51.329
N8060 X85.172 Y51.16
N8065 X85.36 Y50.145
N8070 X85.39 Y49.976
N8075 X85.572 Y48.793
N8080 X85.581 Y48.735
N8085 X85.595 Y48.624
N8090 X85.741 Y47.44
N8095 X85.75 Y47.355
N8100 X85.851 Y46.257
N8105 X85.867 Y46.088
N8110 X85.878 Y45.919
N8115 X85.94 Y44.904
N8120 X85.95 Y44.735
N8125 X85.955 Y44.566
N8130 X85.986 Y43.552
N8135 X85.991 Y43.383
N8140 X85.997 Y42.875
N8145 X85.999 Y42.706
N8150 X86. Y42.537
N8155 Y41.354
N8160 Y40.17
N8165 Y38.987
N8170 Y37.803
N8175 Y36.62
N8180 X85.999 Y35.436
N8185 Y34.084
N8190 X85.995 Y10.076
N8195 X85.993 Y9.907
N8200 X85.983 Y9.569
N8205 X85.978 Y9.4
N8210 X85.967 Y9.231
N8215 X85.919 Y8.719
N8220 X85.899 Y8.554
N8225 X85.872 Y8.385
N8230 X85.819 Y8.047
N8235 X85.788 Y7.878
N8240 X85.75 Y7.708
N8245 X85.675 Y7.371
N8250 X85.632 Y7.202
N8255 X85.581 Y7.025
N8260 X85.485 Y6.695
N8265 X85.431 Y6.525
N8270 X85.248 Y6.018
N8275 X85.243 Y6.005
N8280 X85.18 Y5.849
N8285 X85.033 Y5.511
N8290 X84.96 Y5.342
N8295 X84.905 Y5.231
N8300 X84.704 Y4.835
N8305 X84.614 Y4.666
N8310 X84.567 Y4.586
N8315 X84.398 Y4.301
N8320 X84.314 Y4.159
N8325 X84.23 Y4.027
N8330 X83.974 Y3.651
N8335 X83.892 Y3.532
N8340 X83.854 Y3.482
N8345 X83.592 Y3.144
N8350 X83.554 Y3.095
N8355 X83.458 Y2.975
N8360 X83.385 Y2.891
N8365 X83.161 Y2.637
N8370 X83.047 Y2.508
N8375 X83.01 Y2.468
N8380 X82.878 Y2.335
N8385 X82.673 Y2.13
N8390 X82.54 Y1.998
N8395 X82.5 Y1.961
N8400 X82.371 Y1.846
N8405 X82.117 Y1.622
N8410 X82.033 Y1.549
N8415 X81.914 Y1.453
N8420 X81.526 Y1.153
N8425 X81.477 Y1.115
N8430 X81.357 Y1.032
N8435 X80.982 Y0.777
N8440 X80.851 Y0.691
N8445 X80.71 Y0.608
N8450 X80.424 Y0.439
N8455 X80.344 Y0.392
N8460 X80.175 Y0.302
N8465 X79.781 Y0.101
N8470 X79.668 Y0.045
N8475 X79.499 Y-0.029
N8480 X79.161 Y-0.175
N8485 X79.01 Y-0.237
N8490 X78.992 Y-0.244
N8495 X78.823 Y-0.305
N8500 X78.485 Y-0.426
N8505 X78.317 Y-0.481
N8510 X77.81 Y-0.629
N8515 X77.641 Y-0.671
N8520 X77.134 Y-0.785
N8525 X76.965 Y-0.816
N8530 X76.458 Y-0.896
N8535 X76.329 Y-0.914
N8540 X76.289 Y-0.917
N8545 X75.782 Y-0.965
N8550 X75.613 Y-0.976
N8555 X75.445 Y-0.982
N8560 X75.276 Y-0.987
N8565 X75.107 Y-0.992
N8570 X74.938 Y-0.994
N8575 X10.064
N8580 X9.895 Y-0.992
N8585 X9.726 Y-0.987
N8590 X9.557 Y-0.982
N8595 X9.388 Y-0.976
N8600 X9.219 Y-0.965
N8605 X8.712 Y-0.917
N8610 X8.672 Y-0.914
N8615 X8.543 Y-0.896
N8620 X8.036 Y-0.816
N8625 X7.868 Y-0.785
N8630 X7.361 Y-0.671
N8635 X7.192 Y-0.629
N8640 X6.685 Y-0.481
N8645 X6.516 Y-0.426
N8650 X6.178 Y-0.305
N8655 X6.009 Y-0.244
N8660 X5.992 Y-0.237
N8665 X5.84 Y-0.175
N8670 X5.502 Y-0.029
N8675 X5.333 Y0.045
N8680 X5.221 Y0.101
N8685 X4.827 Y0.302
N8690 X4.658 Y0.392
N8695 X4.577 Y0.439
N8700 X4.291 Y0.608
N8705 X4.151 Y0.691
N8710 X4.019 Y0.777
N8715 X3.644 Y1.032
N8720 X3.525 Y1.115
N8725 X3.475 Y1.153
N8730 X3.087 Y1.453
N8735 X2.968 Y1.549
N8740 X2.884 Y1.622
N8745 X2.63 Y1.846
N8750 X2.501 Y1.961
N8755 X2.461 Y1.998
N8760 X2.328 Y2.13
N8765 X2.123 Y2.335
N8770 X1.992 Y2.468
N8775 X1.955 Y2.508
N8780 X1.841 Y2.637
N8785 X1.617 Y2.891
N8790 X1.543 Y2.975
N8795 X1.448 Y3.095
N8800 X1.279 Y3.313
N8805 X1.147 Y3.482
N8810 X1.11 Y3.532
N8815 X1.027 Y3.651
N8820 X0.772 Y4.027
N8825 X0.687 Y4.159
N8830 X0.603 Y4.301
N8835 X0.434 Y4.586
N8840 X0.387 Y4.666
N8845 X0.298 Y4.835
N8850 X0.096 Y5.231
N8855 X0.042 Y5.342
N8860 X-0.032 Y5.511
N8865 X-0.178 Y5.849
N8870 X-0.242 Y6.005
N8875 X-0.247 Y6.018
N8880 X-0.429 Y6.525
N8885 X-0.484 Y6.695
N8890 X-0.582 Y7.033
N8895 X-0.631 Y7.202
N8900 X-0.673 Y7.371
N8905 X-0.748 Y7.705
N8910 X-0.749 Y7.709
N8915 X-0.786 Y7.878
N8920 X-0.817 Y8.047
N8925 X-0.871 Y8.385
N8930 X-0.898 Y8.554
N8935 X-0.917 Y8.719
N8940 X-0.966 Y9.231
N8945 X-0.976 Y9.4
N8950 X-0.982 Y9.569
N8955 X-0.992 Y9.907
N8960 X-0.994 Y10.076
N8965 X-0.998 Y34.929
N8970 Y36.113
N8975 Y37.296
N8980 Y38.48
N8985 Y39.663
N8990 Y40.846
N8995 Y42.03
N9000 Y42.368
N9005 Y42.537
N9010 X-0.996 Y42.706
N9015 X-0.993 Y42.875
N9020 X-0.977 Y43.89
N9025 X-0.974 Y44.059
N9030 X-0.967 Y44.228
N9035 X-0.917 Y45.311
N9040 X-0.913 Y45.411
N9045 X-0.9 Y45.58
N9050 X-0.822 Y46.595
N9055 X-0.808 Y46.764
N9060 X-0.79 Y46.933
N9065 X-0.681 Y47.947
N9070 X-0.661 Y48.116
N9075 X-0.497 Y49.3
N9080 X-0.471 Y49.469
N9085 X-0.269 Y50.652
N9090 X-0.242 Y50.797
N9095 X-0.032 Y51.836
N9100 X0.002 Y52.005
N9105 X0.042 Y52.174
N9110 X0.279 Y53.188
N9115 X0.32 Y53.358
N9120 X0.636 Y54.541
N9125 X0.685 Y54.71
N9130 X0.989 Y55.725
N9135 X1.04 Y55.894
N9140 X1.097 Y56.063
N9145 X1.435 Y57.077
N9150 X1.448 Y57.116
N9155 X1.495 Y57.246
N9160 X1.868 Y58.261
N9165 X1.932 Y58.43
N9170 X2.341 Y59.444
N9175 X2.409 Y59.613
N9180 X2.461 Y59.734
N9185 X2.928 Y60.797
N9190 X2.968 Y60.884
N9195 X3.49 Y61.98
N9200 X3.574 Y62.149
N9205 X4.096 Y63.164
N9210 X4.151 Y63.267
N9215 X4.749 Y64.347
N9220 X4.827 Y64.481
N9225 X5.35 Y65.361
N9230 X5.45 Y65.531
N9235 X5.502 Y65.613
N9240 X6.096 Y66.545
N9245 X6.178 Y66.674
N9250 X6.205 Y66.714
N9255 X6.896 Y67.728
N9260 X7.017 Y67.897
N9265 X7.631 Y68.743
N9270 X7.699 Y68.836
N9275 X7.757 Y68.912
N9280 X8.411 Y69.757
N9285 X8.543 Y69.926
N9290 X8.712 Y70.131
N9295 X9.241 Y70.772
N9300 X9.381 Y70.941
N9305 X9.388 Y70.949
N9310 X9.529 Y71.11
N9315 X10.122 Y71.786
N9320 X10.233 Y71.912
N9325 X10.272 Y71.955
N9330 X10.43 Y72.124
N9335 X11.077 Y72.818
N9340 X11.222 Y72.97
N9345 X12.061 Y73.815
N9350 X12.091 Y73.845
N9355 X12.237 Y73.984
N9360 X12.951 Y74.66
N9365 X13.105 Y74.804
N9370 X13.949 Y75.557
N9375 X14.083 Y75.675
N9380 X14.118 Y75.704
N9385 X14.963 Y76.412
N9390 X15.093 Y76.52
N9395 X15.132 Y76.551
N9400 X15.977 Y77.216
N9405 X16.146 Y77.348
N9410 X16.169 Y77.365
N9415 X17.131 Y78.075
N9420 X17.159 Y78.096
N9425 X17.321 Y78.211
N9430 X18.173 Y78.8
N9435 X18.299 Y78.887
N9440 X18.342 Y78.915
N9445 X19.356 Y79.572
N9450 X19.525 Y79.676
N9455 X20.455 Y80.24
N9460 X20.538 Y80.29
N9465 X20.707 Y80.386
N9470 X21.647 Y80.916
N9475 X21.721 Y80.957
N9480 X21.89 Y81.046
N9485 X22.734 Y81.489
N9490 X22.903 Y81.577
N9495 X22.934 Y81.592
N9500 X23.979 Y82.099
N9505 X24.086 Y82.151
N9510 X24.255 Y82.228
N9515 X25.269 Y82.682
N9520 X25.438 Y82.754
N9525 X26.451 Y83.171
N9530 X26.62 Y83.238
N9535 X27.636 Y83.621
N9540 X27.803 Y83.683
N9545 X27.972 Y83.741
N9550 X28.985 Y84.088
N9555 X29.108 Y84.128
N9560 X30.205 Y84.466
N9565 X30.337 Y84.506
N9570 X30.506 Y84.553
N9575 X31.519 Y84.832
N9580 X31.688 Y84.876
N9585 X32.871 Y85.162
N9590 X33.04 Y85.199
N9595 X34.054 Y85.412
N9600 X34.223 Y85.447
N9605 X34.391 Y85.477
N9610 X35.405 Y85.658
N9615 X35.574 Y85.686
N9620 X36.757 Y85.86
N9625 X36.926 Y85.882
N9630 X38.108 Y86.019
N9635 X38.277 Y86.035
N9640 X39.46 Y86.135
N9645 X39.629 Y86.146
N9650 X40.642 Y86.2
N9655 X40.811 Y86.209
N9660 X40.98 Y86.214
N9665 X41.994 Y86.237
N9670 X42.163 Y86.241
N9675 X42.332 Y86.24
N9680 X43.345 Y86.232
N9685 X43.514 Y86.23
N9690 X43.683 Y86.224
N9695 X44.697 Y86.185
N9700 X44.866 Y86.177
N9705 X46.049 Y86.096
N9710 X46.217 Y86.082
N9715 X47.4 Y85.964
N9720 X47.569 Y85.945
N9725 X48.752 Y85.79
N9730 X48.921 Y85.764
N9735 X49.934 Y85.6
N9740 X50.103 Y85.572
N9745 X50.272 Y85.54
N9750 X51.286 Y85.344
N9755 X51.448 Y85.312
N9760 X51.455 Y85.31
N9765 X51.624 Y85.272
N9770 X52.637 Y85.043
N9775 X52.766 Y85.012
N9780 X53.088 Y84.93
N9785 X53.42 Y84.845 Z-4.001
N9790 X53.753 Y84.76 Z-4.003
N9795 X54.073 Y84.677 Z-4.004
N9800 X54.395 Y84.585 Z-4.007
N9805 X54.725 Y84.491 Z-4.01
N9810 X55.055 Y84.398 Z-4.013
N9815 X55.366 Y84.308 Z-4.017
N9820 X55.693 Y84.206 Z-4.022
N9825 X56.02 Y84.103 Z-4.027
N9830 X56.348 Y84.001 Z-4.032
N9835 X56.656 Y83.903 Z-4.038
N9840 X56.98 Y83.791 Z-4.044
N9845 X57.305 Y83.68 Z-4.051
N9850 X57.63 Y83.569 Z-4.058
N9855 X57.938 Y83.461 Z-4.065
N9860 X58.257 Y83.341 Z-4.073
N9865 X58.578 Y83.221 Z-4.082
N9870 X58.9 Y83.101 Z-4.091
N9875 X59.203 Y82.985 Z-4.099
N9880 X59.521 Y82.856 Z-4.109
N9885 X59.839 Y82.727 Z-4.119
N9890 X60.157 Y82.598 Z-4.129
N9895 X60.458 Y82.472 Z-4.139
N9900 X60.772 Y82.335 Z-4.15
N9905 X61.086 Y82.197 Z-4.161
N9910 X61.401 Y82.06 Z-4.172
N9915 X61.698 Y81.924 Z-4.183
N9920 X62.009 Y81.778 Z-4.195
N9925 X62.629 Y81.484 Z-4.219
N9930 X62.923 Y81.339 Z-4.231
N9935 X63.84 Y80.871 Z-4.267
N9940 X64.13 Y80.716 Z-4.278
N9945 X64.431 Y80.551 Z-4.29
N9950 X64.731 Y80.385 Z-4.302
N9955 X65.032 Y80.22 Z-4.314
N9960 X65.318 Y80.055 Z-4.326
N9965 X65.613 Y79.88 Z-4.338
N9970 X65.908 Y79.705 Z-4.35
N9975 X66.203 Y79.53 Z-4.362
N9980 X66.484 Y79.355 Z-4.373
N9985 X66.774 Y79.171 Z-4.385
N9990 X67.063 Y78.986 Z-4.397
N9995 X67.352 Y78.803 Z-4.409
N10000 X67.628 Y78.617 Z-4.421
N10005 X67.912 Y78.424 Z-4.433
N10010 X68.196 Y78.231 Z-4.445
N10015 X68.479 Y78.038 Z-4.457
N10020 X68.749 Y77.843 Z-4.468
N10025 X69.579 Y77.239 Z-4.504
N10030 X69.846 Y77.034 Z-4.516
N10035 X70.388 Y76.613 Z-4.54
N10040 X70.658 Y76.403 Z-4.552
N10045 X70.918 Y76.19 Z-4.564
N10050 X71.447 Y75.753 Z-4.587
N10055 X71.71 Y75.534 Z-4.599
N10060 X71.963 Y75.313 Z-4.611
N10065 X72.479 Y74.859 Z-4.635
N10070 X72.733 Y74.635 Z-4.647
N10075 X72.982 Y74.403 Z-4.659
N10080 X73.483 Y73.934 Z-4.683
N10085 X73.732 Y73.7 Z-4.695
N10090 X73.972 Y73.461 Z-4.707
N10095 X74.459 Y72.977 Z-4.731
N10100 X74.698 Y72.737 Z-4.742
N10105 X75.405 Y71.99 Z-4.778
N10110 X75.638 Y71.741 Z-4.79
N10115 X76.093 Y71.229 Z-4.814
N10120 X76.321 Y70.973 Z-4.826
N10125 X76.546 Y70.715 Z-4.837
N10130 X76.764 Y70.453 Z-4.848
N10135 X76.984 Y70.189 Z-4.859
N10140 X77.203 Y69.925 Z-4.87
N10145 X77.418 Y69.661 Z-4.88
N10150 X77.629 Y69.391 Z-4.89
N10155 X77.84 Y69.12 Z-4.899
N10160 X78.05 Y68.849 Z-4.908
N10165 X78.257 Y68.576 Z-4.917
N10170 X78.458 Y68.299 Z-4.926
N10175 X78.66 Y68.021 Z-4.934
N10180 X78.861 Y67.743 Z-4.941
N10185 X79.058 Y67.464 Z-4.949
N10190 X79.25 Y67.179 Z-4.955
N10195 X79.442 Y66.895 Z-4.962
N10200 X79.633 Y66.61 Z-4.968
N10205 X79.82 Y66.323 Z-4.973
N10210 X80.003 Y66.033 Z-4.978
N10215 X80.185 Y65.742 Z-4.983
N10220 X80.367 Y65.451 Z-4.987
N10225 X80.543 Y65.157 Z-4.99
N10230 X80.716 Y64.861 Z-4.993
N10235 X80.888 Y64.564 Z-4.996
N10240 X81.06 Y64.267 Z-4.998
N10245 X81.226 Y63.967 Z-4.999
N10250 X81.388 Y63.664 Z-5.
N10255 X81.531 Y63.396
N10260 X81.745 Y62.994
N10265 X81.831 Y62.825
N10270 X82.333 Y61.811
N10275 X82.371 Y61.734
N10280 X82.414 Y61.642
N10285 X82.878 Y60.627
N10290 X82.953 Y60.458
N10295 X83.385 Y59.434
N10300 X83.452 Y59.275
N10305 X83.518 Y59.106
N10310 X83.908 Y58.091
N10315 X83.971 Y57.922
N10320 X84.327 Y56.908
N10325 X84.386 Y56.739
N10330 X84.398 Y56.702
N10335 X84.44 Y56.57
N10340 X84.761 Y55.555
N10345 X84.814 Y55.386
N10350 X85.149 Y54.203
N10355 X85.193 Y54.034
N10360 X85.49 Y52.85
N10365 X85.528 Y52.681
N10370 X85.75 Y51.662
N10375 X85.786 Y51.498
N10380 X85.817 Y51.329
N10385 X86.006 Y50.314
N10390 X86.037 Y50.145
N10395 X86.063 Y49.976
N10400 X86.22 Y48.962
N10405 X86.245 Y48.793
N10410 X86.257 Y48.7
N10415 X86.391 Y47.609
N10420 X86.411 Y47.44
N10425 X86.52 Y46.257
N10430 X86.534 Y46.088
N10435 X86.607 Y44.904
N10440 X86.616 Y44.735
N10445 X86.652 Y43.552
N10450 X86.656 Y43.383
N10455 X86.657 Y43.213
N10460 X86.658 Y42.706
N10465 X86.659 Y42.537
N10470 X86.661 Y15.317
N10475 Y12.443
N10480 Y10.076
N10485 X86.659 Y9.907
N10490 X86.643 Y9.4
N10495 X86.635 Y9.231
N10500 X86.62 Y9.062
N10505 X86.588 Y8.723
N10510 X86.571 Y8.554
N10515 X86.546 Y8.385
N10520 X86.492 Y8.047
N10525 X86.466 Y7.878
N10530 X86.432 Y7.709
N10535 X86.319 Y7.202
N10540 X86.276 Y7.033
N10545 X86.257 Y6.966
N10550 X86.129 Y6.525
N10555 X86.088 Y6.39
N10560 X86.077 Y6.356
N10565 X86.016 Y6.187
N10570 X85.894 Y5.849
N10575 X85.831 Y5.68
N10580 X85.758 Y5.511
N10585 X85.612 Y5.173
N10590 X85.581 Y5.101
N10595 X85.536 Y5.004
N10600 X85.45 Y4.835
N10605 X85.278 Y4.497
N10610 X85.243 Y4.428
N10615 X85.188 Y4.328
N10620 X85.088 Y4.159
N10625 X84.888 Y3.82
N10630 X84.779 Y3.651
N10635 X84.549 Y3.313
N10640 X84.432 Y3.144
N10645 X84.398 Y3.098
N10650 X84.303 Y2.975
N10655 X84.041 Y2.637
N10660 X83.899 Y2.468
N10665 X83.554 Y2.076
N10670 X83.445 Y1.961
N10675 X83.047 Y1.562
N10680 X82.932 Y1.453
N10685 X82.878 Y1.406
N10690 X82.54 Y1.108
N10695 X82.371 Y0.966
N10700 X82.033 Y0.704
N10705 X81.91 Y0.608
N10710 X81.864 Y0.574
N10715 X81.695 Y0.457
N10720 X81.357 Y0.227
N10725 X81.189 Y0.118
N10730 X81.16 Y0.101
N10735 X80.851 Y-0.082
N10740 X80.682 Y-0.182
N10745 X80.582 Y-0.237
N10750 X80.513 Y-0.273
N10755 X80.175 Y-0.445
N10760 X80.006 Y-0.531
N10765 X79.911 Y-0.575
N10770 X79.837 Y-0.607
N10775 X79.499 Y-0.754
N10780 X79.33 Y-0.826
N10785 X79.161 Y-0.89
N10790 X78.823 Y-1.012
N10795 X78.654 Y-1.073
N10800 X78.625 Y-1.083
N10805 X78.485 Y-1.125
N10810 X77.979 Y-1.273
N10815 X77.81 Y-1.316
N10820 X77.303 Y-1.429
N10825 X77.134 Y-1.463
N10830 X76.965 Y-1.49
N10835 X76.627 Y-1.543
N10840 X76.458 Y-1.569
N10845 X76.289 Y-1.586
N10850 X75.951 Y-1.618
N10855 X75.782 Y-1.634
N10860 X75.613 Y-1.642
N10865 X75.107 Y-1.658
N10870 X74.938 Y-1.66
N10875 X10.064
N10880 X9.895 Y-1.658
N10885 X9.388 Y-1.642
N10890 X9.219 Y-1.634
N10895 X9.05 Y-1.618
N10900 X8.712 Y-1.586
N10905 X8.543 Y-1.569
N10910 X8.374 Y-1.543
N10915 X8.036 Y-1.49
N10920 X7.868 Y-1.463
N10925 X7.699 Y-1.429
N10930 X7.192 Y-1.316
N10935 X7.023 Y-1.273
N10940 X6.516 Y-1.125
N10945 X6.377 Y-1.083
N10950 X6.347 Y-1.073
N10955 X6.178 Y-1.012
N10960 X5.84 Y-0.89
N10965 X5.671 Y-0.826
N10970 X5.502 Y-0.754
N10975 X5.164 Y-0.607
N10980 X5.091 Y-0.575
N10985 X4.995 Y-0.531
N10990 X4.827 Y-0.445
N10995 X4.489 Y-0.273
N11000 X4.419 Y-0.237
N11005 X4.32 Y-0.182
N11010 X4.128 Y-0.068
N11015 X3.842 Y0.101
N11020 X3.813 Y0.118
N11025 X3.644 Y0.227
N11030 X3.306 Y0.457
N11035 X3.137 Y0.574
N11040 X3.092 Y0.608
N11045 X2.968 Y0.704
N11050 X2.63 Y0.966
N11055 X2.461 Y1.108
N11060 X2.123 Y1.406
N11065 X2.07 Y1.453
N11070 X1.955 Y1.562
N11075 X1.556 Y1.961
N11080 X1.448 Y2.076
N11085 X1.103 Y2.468
N11090 X0.961 Y2.637
N11095 X0.699 Y2.975
N11100 X0.603 Y3.098
N11105 X0.569 Y3.144
N11110 X0.452 Y3.313
N11115 X0.223 Y3.651
N11120 X0.114 Y3.82
N11125 X-0.086 Y4.159
N11130 X-0.186 Y4.328
N11135 X-0.242 Y4.428
N11140 X-0.277 Y4.497
N11145 X-0.449 Y4.835
N11150 X-0.535 Y5.004
N11155 X-0.58 Y5.101
N11160 X-0.611 Y5.173
N11165 X-0.757 Y5.511
N11170 X-0.83 Y5.68
N11175 X-0.893 Y5.849
N11180 X-1.015 Y6.187
N11185 X-1.075 Y6.356
N11190 X-1.086 Y6.39
N11195 X-1.128 Y6.525
N11200 X-1.255 Y6.966
N11205 X-1.275 Y7.033
N11210 X-1.317 Y7.202
N11215 X-1.397 Y7.559
N11220 X-1.431 Y7.709
N11225 X-1.464 Y7.878
N11230 X-1.491 Y8.047
N11235 X-1.545 Y8.385
N11240 X-1.569 Y8.554
N11245 X-1.586 Y8.723
N11250 X-1.618 Y9.062
N11255 X-1.634 Y9.231
N11260 X-1.642 Y9.4
N11265 X-1.658 Y9.907
N11270 X-1.66 Y10.076
N11275 X-1.659 Y12.95
N11280 Y15.824
N11285 X-1.657 Y42.368
N11290 X-1.658 Y42.537
N11295 X-1.66 Y42.706
N11300 X-1.659 Y42.875
N11305 X-1.64 Y44.059
N11310 X-1.634 Y44.228
N11315 X-1.58 Y45.411
N11320 X-1.568 Y45.58
N11325 X-1.477 Y46.764
N11330 X-1.46 Y46.933
N11335 X-1.351 Y47.947
N11340 X-1.332 Y48.116
N11345 X-1.31 Y48.285
N11350 X-1.169 Y49.3
N11355 X-1.146 Y49.469
N11360 X-1.118 Y49.638
N11365 X-0.945 Y50.652
N11370 X-0.917 Y50.812
N11375 X-0.916 Y50.822
N11380 X-0.882 Y50.991
N11385 X-0.677 Y52.005
N11390 X-0.642 Y52.174
N11395 X-0.603 Y52.343
N11400 X-0.365 Y53.358
N11405 X-0.324 Y53.527
N11410 X-0.008 Y54.71
N11415 X0.04 Y54.879
N11420 X0.344 Y55.894
N11425 X0.395 Y56.063
N11430 X0.434 Y56.181
N11435 X0.789 Y57.246
N11440 X0.848 Y57.415
N11445 X1.279 Y58.587
N11450 X1.283 Y58.599
N11455 X1.35 Y58.768
N11460 X1.786 Y59.848
N11465 X1.83 Y59.951
N11470 X2.292 Y61.005
N11475 X2.35 Y61.135
N11480 X2.43 Y61.304
N11485 X2.833 Y62.149
N11490 X2.913 Y62.318
N11495 X2.968 Y62.426
N11500 X3.521 Y63.502
N11505 X3.613 Y63.671
N11510 X4.175 Y64.685
N11515 X4.274 Y64.854
N11520 X4.827 Y65.784
N11525 X4.877 Y65.869
N11530 X4.983 Y66.038
N11535 X5.522 Y66.883
N11540 X5.63 Y67.052
N11545 X5.671 Y67.113
N11550 X6.347 Y68.106
N11555 X6.439 Y68.236
N11560 X7.054 Y69.081
N11565 X7.177 Y69.25
N11570 X7.192 Y69.27
N11575 X7.307 Y69.419
N11580 X7.962 Y70.264
N11585 X8.036 Y70.358
N11590 X8.796 Y71.279
N11595 X8.881 Y71.381
N11600 X8.94 Y71.448
N11605 X9.726 Y72.344
N11610 X9.835 Y72.462
N11615 X10.624 Y73.308
N11620 X10.74 Y73.428
N11625 X11.584 Y74.28
N11630 X11.627 Y74.322
N11635 X11.753 Y74.443
N11640 X12.518 Y75.167
N11645 X12.598 Y75.243
N11650 X12.701 Y75.337
N11655 X13.46 Y76.013
N11660 X13.612 Y76.148
N11665 X13.651 Y76.182
N11670 X13.781 Y76.29
N11675 X14.625 Y76.998
N11680 X14.661 Y77.027
N11685 X14.794 Y77.133
N11690 X15.639 Y77.797
N11695 X15.735 Y77.873
N11700 X15.808 Y77.926
N11705 X16.653 Y78.55
N11710 X16.821 Y78.674
N11715 X16.884 Y78.718
N11720 X17.861 Y79.394
N11725 X18.004 Y79.49
N11730 X19.018 Y80.146
N11735 X19.169 Y80.24
N11740 X20.031 Y80.761
N11745 X20.2 Y80.864
N11750 X20.291 Y80.916
N11755 X21.214 Y81.436
N11760 X21.383 Y81.531
N11765 X21.497 Y81.592
N11770 X22.566 Y82.152
N11775 X22.734 Y82.235
N11780 X23.748 Y82.728
N11785 X23.849 Y82.776
N11790 X23.917 Y82.806
N11795 X24.98 Y83.283
N11800 X25.1 Y83.335
N11805 X26.205 Y83.79
N11810 X26.282 Y83.822
N11815 X26.451 Y83.886
N11820 X27.465 Y84.268
N11825 X27.542 Y84.297
N11830 X27.634 Y84.33
N11835 X28.816 Y84.734
N11840 X28.985 Y84.787
N11845 X29.999 Y85.099
N11850 X30.139 Y85.143
N11855 X30.168 Y85.151
N11860 X30.337 Y85.197
N11865 X31.368 Y85.481
N11870 X31.519 Y85.52
N11875 X32.702 Y85.806
N11880 X32.754 Y85.819
N11885 X32.871 Y85.844
N11890 X34.054 Y86.092
N11895 X34.223 Y86.124
N11900 X35.36 Y86.326
N11905 X35.405 Y86.334
N11910 X35.574 Y86.36
N11915 X36.588 Y86.508
N11920 X36.757 Y86.533
N11925 X36.926 Y86.553
N11930 X37.939 Y86.67
N11935 X38.108 Y86.689
N11940 X38.277 Y86.703
N11945 X39.291 Y86.789
N11950 X39.46 Y86.803
N11955 X39.629 Y86.812
N11960 X40.642 Y86.867
N11965 X40.811 Y86.876
N11970 X40.98 Y86.88
N11975 X41.994 Y86.903
N11980 X42.163 Y86.907
N11985 X42.332 Y86.906
N11990 X43.345 Y86.898
N11995 X43.514 Y86.896
N12000 X43.683 Y86.89
N12005 X44.697 Y86.851
N12010 X44.866 Y86.844
N12015 X45.035 Y86.833
N12020 X46.049 Y86.763
N12025 X46.217 Y86.751
N12030 X46.386 Y86.735
N12035 X47.4 Y86.633
N12040 X47.569 Y86.616
N12045 X47.738 Y86.594
N12050 X48.752 Y86.461
N12055 X48.921 Y86.439
N12060 X49.089 Y86.411
N12065 X50.103 Y86.247
N12070 X50.272 Y86.218
N12075 X50.441 Y86.186
N12080 X51.461 Y85.988
N12085 X51.624 Y85.955
N12090 X52.806 Y85.688
N12095 X52.922 Y85.66
N12100 X52.963 Y85.65
N12105 X54.158 Y85.341
N12110 X54.264 Y85.312
N12115 X55.425 Y84.973
N12120 X55.509 Y84.948
N12125 X55.678 Y84.894
N12130 X56.692 Y84.564
N12135 X56.861 Y84.507
N12140 X57.916 Y84.128
N12145 X58.043 Y84.082
N12150 X58.212 Y84.016
N12155 X59.226 Y83.617
N12160 X59.395 Y83.548
N12165 X60.409 Y83.112
N12170 X60.578 Y83.038
N12175 X60.747 Y82.96
N12180 X61.76 Y82.486
N12185 X61.86 Y82.437
N12190 X62.943 Y81.891
N12195 X63.112 Y81.801
N12200 X64.125 Y81.25
N12205 X64.294 Y81.154
N12210 X65.308 Y80.562
N12215 X65.477 Y80.458
N12220 X66.366 Y79.901
N12225 X66.491 Y79.823
N12230 X66.628 Y79.732
N12235 X67.504 Y79.145
N12240 X67.637 Y79.056
N12245 X67.673 Y79.03
N12250 X68.687 Y78.306
N12255 X68.814 Y78.211
N12260 X69.701 Y77.534
N12265 X69.869 Y77.403
N12270 X70.749 Y76.689
N12275 X70.883 Y76.579
N12280 X71.052 Y76.433
N12285 X71.734 Y75.844
N12290 X71.897 Y75.702
N12295 X71.927 Y75.675
N12300 X72.846 Y74.829
N12305 X72.91 Y74.769
N12310 X73.755 Y73.943
N12315 X73.884 Y73.815
N12320 X74.697 Y72.97
N12325 X74.769 Y72.895
N12330 X74.856 Y72.8
N12335 X75.621 Y71.955
N12340 X75.769 Y71.786
N12345 X76.488 Y70.941
N12350 X76.627 Y70.773
N12355 X77.304 Y69.926
N12360 X77.438 Y69.757
N12365 X78.199 Y68.743
N12370 X78.317 Y68.578
N12375 X78.914 Y67.728
N12380 X78.992 Y67.617
N12385 X79.031 Y67.559
N12390 X79.699 Y66.545
N12395 X79.807 Y66.376
N12400 X80.431 Y65.361
N12405 X80.513 Y65.222
N12410 X81.112 Y64.178
N12415 X81.189 Y64.038
N12420 X81.531 Y63.396
N12425 X81.693 Y63.094
N12430 X81.843 Y62.802 Z-5.001
N12435 X81.996 Y62.495 Z-5.003
N12440 X82.149 Y62.188 Z-5.004
N12445 X82.303 Y61.882 Z-5.007
N12450 X82.445 Y61.586 Z-5.01
N12455 X82.59 Y61.275 Z-5.013
N12460 X82.735 Y60.964 Z-5.017
N12465 X82.88 Y60.653 Z-5.022
N12470 X83.014 Y60.354 Z-5.027
N12475 X83.15 Y60.039 Z-5.032
N12480 X83.286 Y59.724 Z-5.038
N12485 X83.423 Y59.409 Z-5.045
N12490 X83.549 Y59.105 Z-5.051
N12495 X83.676 Y58.787 Z-5.058
N12500 X83.803 Y58.468 Z-5.066
N12505 X83.93 Y58.15 Z-5.074
N12510 X84.048 Y57.842 Z-5.082
N12515 X84.166 Y57.52 Z-5.091
N12520 X84.284 Y57.198 Z-5.1
N12525 X84.402 Y56.876 Z-5.11
N12530 X84.511 Y56.565 Z-5.119
N12535 X84.619 Y56.239 Z-5.129
N12540 X84.728 Y55.914 Z-5.14
N12545 X84.837 Y55.588 Z-5.151
N12550 X84.937 Y55.273 Z-5.162
N12555 X85.036 Y54.945 Z-5.173
N12560 X85.135 Y54.616 Z-5.185
N12565 X85.235 Y54.288 Z-5.197
N12570 X85.325 Y53.97 Z-5.208
N12575 X85.594 Y52.976 Z-5.244
N12580 X85.675 Y52.654 Z-5.256
N12585 X85.912 Y51.652 Z-5.292
N12590 X85.983 Y51.327 Z-5.303
N12595 X86.19 Y50.319 Z-5.339
N12600 X86.251 Y49.991 Z-5.351
N12605 X86.427 Y48.977 Z-5.387
N12610 X86.478 Y48.647 Z-5.399
N12615 X86.623 Y47.627 Z-5.435
N12620 X86.663 Y47.295 Z-5.446
N12625 X86.777 Y46.272 Z-5.482
N12630 X86.807 Y45.937 Z-5.494
N12635 X86.889 Y44.911 Z-5.53
N12640 X86.91 Y44.575 Z-5.542
N12645 X86.943 Y43.89 Z-5.566
N12650 X86.96 Y43.547 Z-5.578
N12655 X86.971 Y43.208 Z-5.589
N12660 X86.978 Y42.866 Z-5.601
N12665 X86.986 Y42.524 Z-5.613
N12670 X87.01 Y41.152 Z-5.661
N12675 X87.016 Y40.809 Z-5.673
N12680 X87.022 Y40.466 Z-5.685
N12685 X87.027 Y40.123 Z-5.697
N12690 X87.033 Y39.78 Z-5.709
N12695 X87.039 Y39.436 Z-5.721
N12700 X87.045 Y39.093 Z-5.733
N12705 X87.05 Y38.75 Z-5.745
N12710 X87.056 Y38.407 Z-5.757
N12715 X87.061 Y38.064 Z-5.769
N12720 X87.066 Y37.721 Z-5.781
N12725 X87.077 Y37.035 Z-5.805
N12730 X87.082 Y36.692 Z-5.817
N12735 X87.087 Y36.349 Z-5.829
N12740 X87.092 Y36.006 Z-5.84
N12745 X87.097 Y35.663 Z-5.851
N12750 X87.102 Y35.32 Z-5.862
N12755 X87.107 Y34.977 Z-5.872
N12760 X87.111 Y34.633 Z-5.882
N12765 X87.116 Y34.29 Z-5.892
N12770 X87.12 Y33.947 Z-5.902
N12775 X87.124 Y33.604 Z-5.911
N12780 X87.128 Y33.261 Z-5.92
N12785 X87.131 Y32.918 Z-5.928
N12790 X87.135 Y32.575 Z-5.936
N12795 X87.138 Y32.232 Z-5.943
N12800 X87.141 Y31.889 Z-5.951
N12805 X87.144 Y31.546 Z-5.957
N12810 X87.147 Y31.203 Z-5.964
N12815 X87.15 Y30.86 Z-5.969
N12820 X87.152 Y30.517 Z-5.975
N12825 X87.154 Y30.174 Z-5.98
N12830 X87.156 Y29.831 Z-5.984
N12835 X87.158 Y29.487 Z-5.988
N12840 X87.159 Y29.144 Z-5.991
N12845 X87.16 Y28.801 Z-5.994
N12850 X87.161 Y28.458 Z-5.996
N12855 X87.162 Y28.115 Z-5.998
N12860 Y27.772 Z-5.999
N12865 X87.163 Y27.429 Z-6.
N12870 Y27.226
N12875 X87.161 Y10.076
N12880 X87.159 Y9.907
N12885 X87.154 Y9.738
N12890 X87.149 Y9.569
N12895 X87.143 Y9.4
N12900 X87.136 Y9.231
N12905 X87.121 Y9.062
N12910 X87.089 Y8.723
N12915 X87.073 Y8.554
N12920 X87.052 Y8.385
N12925 X86.971 Y7.878
N12930 X86.943 Y7.709
N12935 X86.933 Y7.659
N12940 X86.906 Y7.54
N12945 X86.83 Y7.202
N12950 X86.792 Y7.033
N12955 X86.764 Y6.92
N12960 X86.747 Y6.864
N12965 X86.595 Y6.338
N12970 X86.547 Y6.187
N12975 X86.486 Y6.018
N12980 X86.364 Y5.68
N12985 X86.302 Y5.511
N12990 X86.257 Y5.405
N12995 X86.083 Y5.004
N13000 X86.009 Y4.835
N13005 X85.925 Y4.666
N13010 X85.75 Y4.322
N13015 X85.666 Y4.159
N13020 X85.581 Y4.012
N13025 X85.368 Y3.651
N13030 X85.266 Y3.482
N13035 X85.243 Y3.447
N13040 X85.153 Y3.313
N13045 X84.905 Y2.949
N13050 X84.804 Y2.806
N13055 X84.736 Y2.719
N13060 X84.542 Y2.468
N13065 X84.41 Y2.299
N13070 X84.398 Y2.284
N13075 X84.267 Y2.13
N13080 X83.969 Y1.792
N13085 X83.892 Y1.705
N13090 X83.813 Y1.622
N13095 X83.723 Y1.532
N13100 X83.385 Y1.194
N13105 X83.303 Y1.115
N13110 X83.216 Y1.038
N13115 X82.878 Y0.74
N13120 X82.724 Y0.608
N13125 X82.709 Y0.596
N13130 X82.54 Y0.465
N13135 X82.289 Y0.27
N13140 X82.202 Y0.203
N13145 X82.06 Y0.101
N13150 X81.695 Y-0.147
N13155 X81.562 Y-0.237
N13160 X81.526 Y-0.26
N13165 X81.357 Y-0.362
N13170 X80.997 Y-0.575
N13175 X80.851 Y-0.66
N13180 X80.688 Y-0.744
N13185 X80.344 Y-0.92
N13190 X80.175 Y-1.004
N13195 X80.006 Y-1.079
N13200 X79.606 Y-1.252
N13205 X79.499 Y-1.297
N13210 X79.33 Y-1.36
N13215 X78.992 Y-1.482
N13220 X78.823 Y-1.543
N13225 X78.677 Y-1.59
N13230 X78.148 Y-1.744
N13235 X78.095 Y-1.759
N13240 X77.979 Y-1.789
N13245 X77.81 Y-1.827
N13250 X77.359 Y-1.928
N13255 X77.303 Y-1.94
N13260 X77.134 Y-1.969
N13265 X76.627 Y-2.049
N13270 X76.458 Y-2.072
N13275 X76.289 Y-2.088
N13280 X75.951 Y-2.12
N13285 X75.782 Y-2.135
N13290 X75.613 Y-2.142
N13295 X75.445 Y-2.147
N13300 X75.276 Y-2.153
N13305 X75.107 Y-2.158
N13310 X74.938 Y-2.16
N13315 X10.064
N13320 X9.895 Y-2.158
N13325 X9.726 Y-2.153
N13330 X9.557 Y-2.147
N13335 X9.388 Y-2.142
N13340 X9.219 Y-2.135
N13345 X9.05 Y-2.12
N13350 X8.712 Y-2.088
N13355 X8.543 Y-2.072
N13360 X8.374 Y-2.049
N13365 X7.868 Y-1.969
N13370 X7.699 Y-1.94
N13375 X7.642 Y-1.928
N13380 X7.192 Y-1.827
N13385 X7.023 Y-1.789
N13390 X6.907 Y-1.759
N13395 X6.854 Y-1.744
N13400 X6.325 Y-1.59
N13405 X6.178 Y-1.543
N13410 X6.009 Y-1.482
N13415 X5.671 Y-1.36
N13420 X5.502 Y-1.297
N13425 X5.396 Y-1.252
N13430 X4.995 Y-1.079
N13435 X4.827 Y-1.004
N13440 X4.658 Y-0.92
N13445 X4.314 Y-0.744
N13450 X4.151 Y-0.66
N13455 X4.004 Y-0.575
N13460 X3.644 Y-0.362
N13465 X3.475 Y-0.26
N13470 X3.439 Y-0.237
N13475 X3.306 Y-0.147
N13480 X2.942 Y0.101
N13485 X2.799 Y0.203
N13490 X2.713 Y0.27
N13495 X2.461 Y0.465
N13500 X2.292 Y0.596
N13505 X2.277 Y0.608
N13510 X2.123 Y0.74
N13515 X1.786 Y1.038
N13520 X1.699 Y1.115
N13525 X1.617 Y1.194
N13530 X1.279 Y1.532
N13535 X1.188 Y1.622
N13540 X1.11 Y1.705
N13545 X1.033 Y1.792
N13550 X0.735 Y2.13
N13555 X0.603 Y2.284
N13560 X0.591 Y2.299
N13565 X0.46 Y2.468
N13570 X0.265 Y2.719
N13575 X0.198 Y2.806
N13580 X0.096 Y2.949
N13585 X-0.151 Y3.313
N13590 X-0.242 Y3.447
N13595 X-0.265 Y3.482
N13600 X-0.366 Y3.651
N13605 X-0.58 Y4.012
N13610 X-0.664 Y4.159
N13615 X-0.749 Y4.322
N13620 X-0.923 Y4.666
N13625 X-1.008 Y4.835
N13630 X-1.082 Y5.004
N13635 X-1.255 Y5.405
N13640 X-1.3 Y5.511
N13645 X-1.363 Y5.68
N13650 X-1.485 Y6.018
N13655 X-1.545 Y6.187
N13660 X-1.593 Y6.338
N13665 X-1.746 Y6.864
N13670 X-1.762 Y6.92
N13675 X-1.791 Y7.033
N13680 X-1.829 Y7.202
N13685 X-1.885 Y7.45
N13690 X-1.905 Y7.54
N13695 X-1.931 Y7.659
N13700 X-1.941 Y7.709
N13705 X-1.97 Y7.878
N13710 X-2.05 Y8.385
N13715 X-2.072 Y8.554
N13720 X-2.1 Y8.851
N13725 X-2.12 Y9.062
N13730 X-2.135 Y9.231
N13735 X-2.142 Y9.4
N13740 X-2.147 Y9.569
N13745 X-2.152 Y9.738
N13750 X-2.158 Y9.907
N13755 X-2.159 Y10.076
N13760 X-2.162 Y31.886
N13765 Y32.731
N13770 Y42.368
N13775 Y42.537
N13780 X-2.161 Y42.706
N13785 X-2.158 Y42.875
N13790 X-2.14 Y44.059
N13795 X-2.134 Y44.228
N13800 X-2.08 Y45.411
N13805 X-2.069 Y45.58
N13810 X-1.978 Y46.764
N13815 X-1.962 Y46.933
N13820 X-1.835 Y48.116
N13825 X-1.814 Y48.285
N13830 X-1.65 Y49.469
N13835 X-1.624 Y49.638
N13840 X-1.423 Y50.822
N13845 X-1.392 Y50.991
N13850 X-1.153 Y52.174
N13855 X-1.116 Y52.343
N13860 X-0.839 Y53.527
N13865 X-0.796 Y53.696
N13870 X-0.525 Y54.71
N13875 X-0.48 Y54.879
N13880 X-0.431 Y55.048
N13885 X-0.127 Y56.063
N13890 X-0.075 Y56.232
N13895 X-0.073 Y56.24
N13900 X-0.019 Y56.401
N13905 X0.319 Y57.415
N13910 X0.378 Y57.584
N13915 X0.813 Y58.768
N13920 X0.88 Y58.937
N13925 X1.289 Y59.951
N13930 X1.358 Y60.12
N13935 X1.804 Y61.135
N13940 X1.878 Y61.304
N13945 X1.955 Y61.466
N13950 X2.461 Y62.531
N13955 X2.525 Y62.656
N13960 X3.046 Y63.671
N13965 X3.136 Y63.84
N13970 X3.698 Y64.854
N13975 X3.793 Y65.023
N13980 X4.396 Y66.038
N13985 X4.489 Y66.191
N13990 X5.164 Y67.252
N13995 X5.256 Y67.39
N14000 X5.946 Y68.405
N14005 X6.009 Y68.493
N14010 X6.685 Y69.423
N14015 X6.806 Y69.588
N14020 X7.53 Y70.522
N14025 X7.592 Y70.603
N14030 X7.699 Y70.733
N14035 X8.427 Y71.617
N14040 X8.543 Y71.753
N14045 X9.314 Y72.631
N14050 X9.388 Y72.716
N14055 X9.467 Y72.8
N14060 X10.256 Y73.646
N14065 X10.402 Y73.797
N14070 X11.258 Y74.66
N14075 X11.415 Y74.811
N14080 X12.149 Y75.506
N14085 X12.26 Y75.611
N14090 X12.33 Y75.675
N14095 X13.274 Y76.516
N14100 X13.279 Y76.52
N14105 X13.443 Y76.659
N14110 X14.287 Y77.366
N14115 X14.456 Y77.502
N14120 X15.357 Y78.211
N14125 X15.47 Y78.298
N14130 X16.497 Y79.056
N14135 X16.653 Y79.165
N14140 X17.497 Y79.75
N14145 X17.666 Y79.866
N14150 X17.721 Y79.901
N14155 X18.765 Y80.578
N14160 X18.849 Y80.63
N14165 X19.881 Y81.254
N14170 X20.031 Y81.343
N14175 X21.073 Y81.93
N14180 X21.214 Y82.008
N14185 X22.228 Y82.539
N14190 X22.357 Y82.606
N14195 X22.397 Y82.627
N14200 X22.566 Y82.709
N14205 X23.41 Y83.119
N14210 X23.579 Y83.201
N14215 X23.748 Y83.278
N14220 X24.762 Y83.732
N14225 X24.894 Y83.79
N14230 X25.944 Y84.223
N14235 X26.113 Y84.292
N14240 X26.126 Y84.297
N14245 X26.282 Y84.356
N14250 X27.296 Y84.738
N14255 X27.465 Y84.8
N14260 X28.647 Y85.204
N14265 X28.816 Y85.258
N14270 X29.83 Y85.57
N14275 X29.999 Y85.622
N14280 X30.098 Y85.65
N14285 X31.182 Y85.947
N14290 X31.33 Y85.988
N14295 X31.351 Y85.993
N14300 X31.519 Y86.034
N14305 X32.533 Y86.279
N14310 X32.702 Y86.319
N14315 X33.885 Y86.567
N14320 X34.054 Y86.601
N14325 X35.236 Y86.811
N14330 X35.362 Y86.833
N14335 X35.405 Y86.84
N14340 X36.588 Y87.013
N14345 X36.757 Y87.036
N14350 X37.939 Y87.173
N14355 X38.108 Y87.19
N14360 X39.291 Y87.29
N14365 X39.46 Y87.304
N14370 X40.642 Y87.367
N14375 X40.811 Y87.375
N14380 X40.98 Y87.379
N14385 X41.994 Y87.403
N14390 X42.163 Y87.406
N14395 X42.332 Y87.405
N14400 X43.345 Y87.397
N14405 X43.514 Y87.396
N14410 X43.683 Y87.39
N14415 X44.697 Y87.351
N14420 X44.866 Y87.345
N14425 X44.94 Y87.34
N14430 X46.217 Y87.252
N14435 X46.386 Y87.237
N14440 X47.569 Y87.118
N14445 X47.738 Y87.098
N14450 X48.921 Y86.943
N14455 X49.089 Y86.917
N14460 X50.272 Y86.725
N14465 X50.441 Y86.695
N14470 X51.624 Y86.465
N14475 X51.793 Y86.429
N14480 X52.806 Y86.2
N14485 X52.975 Y86.161
N14490 X52.995 Y86.157
N14495 X53.144 Y86.119
N14500 X54.158 Y85.857
N14505 X54.306 Y85.819
N14510 X54.327 Y85.813
N14515 X54.496 Y85.764
N14520 X55.509 Y85.469
N14525 X55.678 Y85.419
N14530 X55.847 Y85.364
N14535 X56.861 Y85.035
N14540 X57.03 Y84.977
N14545 X58.043 Y84.613
N14550 X58.212 Y84.552
N14555 X58.381 Y84.487
N14560 X59.395 Y84.087
N14565 X59.564 Y84.019
N14570 X60.578 Y83.583
N14575 X60.747 Y83.51
N14580 X60.873 Y83.452
N14585 X61.96 Y82.945
N14590 X62.098 Y82.877
N14595 X63.112 Y82.365
N14600 X63.281 Y82.278
N14605 X64.294 Y81.727
N14610 X64.463 Y81.634
N14615 X64.534 Y81.592
N14620 X65.477 Y81.041
N14625 X65.646 Y80.942
N14630 X65.687 Y80.916
N14635 X66.659 Y80.307
N14640 X66.767 Y80.24
N14645 X66.828 Y80.199
N14650 X67.842 Y79.52
N14655 X68.011 Y79.403
N14660 X68.969 Y78.718
N14665 X69.025 Y78.678
N14670 X69.194 Y78.549
N14675 X70.082 Y77.873
N14680 X70.207 Y77.772
N14685 X71.125 Y77.027
N14690 X71.221 Y76.947
N14695 X72.106 Y76.182
N14700 X72.235 Y76.07
N14705 X72.297 Y76.013
N14710 X73.079 Y75.294
N14715 X73.216 Y75.167
N14720 X73.248 Y75.137
N14725 X74.093 Y74.311
N14730 X74.252 Y74.153
N14735 X75.107 Y73.265
N14740 X75.223 Y73.139
N14745 X75.988 Y72.293
N14750 X76.12 Y72.144
N14755 X76.856 Y71.279
N14760 X76.965 Y71.15
N14765 X76.997 Y71.11
N14770 X77.673 Y70.264
N14775 X77.808 Y70.095
N14780 X77.81 Y70.093
N14785 X77.935 Y69.926
N14790 X78.569 Y69.081
N14795 X78.654 Y68.966
N14800 X79.33 Y68.005
N14805 X79.406 Y67.897
N14810 X79.499 Y67.757
N14815 X80.075 Y66.883
N14820 X80.175 Y66.73
N14825 X80.185 Y66.714
N14830 X80.289 Y66.545
N14835 X80.851 Y65.632
N14840 X80.912 Y65.531
N14845 X81.526 Y64.46
N14850 X81.59 Y64.347
N14855 X81.972 Y63.631
N14860 X82.131 Y63.333
N14865 X82.202 Y63.2
N14870 X82.221 Y63.164
N14875 X82.305 Y62.994
N14880 X82.723 Y62.149
N14885 X82.807 Y61.98
N14890 X82.878 Y61.828
N14895 X83.35 Y60.797
N14900 X83.385 Y60.72
N14905 X83.424 Y60.628
N14910 X83.892 Y59.517
N14915 X83.922 Y59.444
N14920 X83.988 Y59.275
N14925 X84.398 Y58.209
N14930 X84.441 Y58.091
N14935 X84.856 Y56.908
N14940 X84.905 Y56.756
N14945 X85.243 Y55.688
N14950 X85.285 Y55.555
N14955 X85.333 Y55.386
N14960 X85.62 Y54.372
N14965 X85.666 Y54.203
N14970 X85.962 Y53.019
N14975 X86.002 Y52.85
N14980 X86.26 Y51.667
N14985 X86.294 Y51.498
N14990 X86.514 Y50.314
N14995 X86.543 Y50.145
N15000 X86.725 Y48.962
N15005 X86.749 Y48.793
N15010 X86.894 Y47.609
N15015 X86.913 Y47.44
N15020 X87.022 Y46.257
N15025 X87.035 Y46.088
N15030 X87.107 Y44.904
N15035 X87.116 Y44.735
N15040 X87.152 Y43.552
N15045 X87.156 Y43.383
N15050 X87.16 Y43.044
N15055 X87.162 Y42.875
N15060 X87.163 Y42.706
N15065 X87.164 Y42.537
N15070 X87.163 Y32.731
N15075 Y31.886
N15080 Y27.226
N15085 Y26.883
N15090 Y26.54 Z-6.001
N15095 X87.164 Y26.197 Z-6.003
N15100 Y25.854 Z-6.005
N15105 X87.166 Y25.511 Z-6.007
N15110 X87.167 Y25.167 Z-6.01
N15115 X87.168 Y24.824 Z-6.014
N15120 X87.17 Y24.481 Z-6.018
N15125 X87.172 Y24.138 Z-6.022
N15130 X87.174 Y23.795 Z-6.027
N15135 X87.177 Y23.452 Z-6.033
N15140 X87.179 Y23.109 Z-6.039
N15145 X87.182 Y22.766 Z-6.045
N15150 X87.185 Y22.423 Z-6.052
N15155 X87.188 Y22.08 Z-6.06
N15160 X87.191 Y21.737 Z-6.067
N15165 X87.195 Y21.394 Z-6.075
N15170 X87.199 Y21.051 Z-6.084
N15175 X87.202 Y20.708 Z-6.093
N15180 X87.206 Y20.365 Z-6.102
N15185 X87.211 Y20.021 Z-6.112
N15190 X87.215 Y19.678 Z-6.122
N15195 X87.219 Y19.335 Z-6.132
N15200 X87.224 Y18.992 Z-6.143
N15205 X87.229 Y18.649 Z-6.153
N15210 X87.233 Y18.306 Z-6.165
N15215 X87.238 Y17.963 Z-6.176
N15220 X87.243 Y17.62 Z-6.188
N15225 X87.259 Y16.591 Z-6.224
N15230 X87.264 Y16.248 Z-6.236
N15235 X87.269 Y15.905 Z-6.248
N15240 X87.274 Y15.562 Z-6.26
N15245 X87.279 Y15.218 Z-6.272
N15250 X87.284 Y14.875 Z-6.284
N15255 X87.289 Y14.532 Z-6.296
N15260 X87.294 Y14.189 Z-6.308
N15265 X87.299 Y13.846 Z-6.32
N15270 X87.303 Y13.503 Z-6.332
N15275 X87.308 Y13.16 Z-6.344
N15280 X87.317 Y12.474 Z-6.368
N15285 X87.322 Y12.131 Z-6.38
N15290 X87.327 Y11.788 Z-6.392
N15295 X87.331 Y11.445 Z-6.404
N15300 X87.336 Y11.102 Z-6.416
N15305 X87.34 Y10.759 Z-6.428
N15310 X87.344 Y10.416 Z-6.44
N15315 X87.348 Y10.074 Z-6.451
N15320 X87.346 Y9.735 Z-6.463
N15325 X87.339 Y9.393 Z-6.475
N15330 X87.323 Y9.061 Z-6.487
N15335 X87.295 Y8.719 Z-6.499
N15340 X87.263 Y8.388 Z-6.51
N15345 X87.214 Y8.049 Z-6.522
N15350 X87.165 Y7.716 Z-6.534
N15355 X87.097 Y7.383 Z-6.546
N15360 X87.027 Y7.049 Z-6.558
N15365 X86.945 Y6.724 Z-6.57
N15370 X86.854 Y6.393 Z-6.582
N15375 X86.757 Y6.07 Z-6.593
N15380 X86.646 Y5.748 Z-6.605
N15385 X86.533 Y5.427 Z-6.617
N15390 X86.404 Y5.116 Z-6.629
N15395 X86.272 Y4.8 Z-6.641
N15400 X86.128 Y4.496 Z-6.653
N15405 X85.976 Y4.189 Z-6.665
N15410 X85.819 Y3.891 Z-6.676
N15415 X85.648 Y3.594 Z-6.688
N15420 X85.478 Y3.303 Z-6.7
N15425 X85.289 Y3.017 Z-6.712
N15430 X85.1 Y2.732 Z-6.724
N15435 X84.899 Y2.46 Z-6.736
N15440 X84.692 Y2.186 Z-6.748
N15445 X84.479 Y1.924 Z-6.76
N15450 X84.255 Y1.664 Z-6.772
N15455 X84.03 Y1.41 Z-6.783
N15460 X83.791 Y1.165 Z-6.795
N15465 X83.552 Y0.921 Z-6.807
N15470 X83.301 Y0.691 Z-6.819
N15475 X83.046 Y0.462 Z-6.831
N15480 X82.785 Y0.245 Z-6.842
N15485 X82.516 Y0.031 Z-6.853
N15490 X82.245 Y-0.174 Z-6.863
N15495 X81.964 Y-0.37 Z-6.874
N15500 X81.682 Y-0.563 Z-6.884
N15505 X81.39 Y-0.741 Z-6.894
N15510 X81.096 Y-0.918 Z-6.903
N15515 X80.796 Y-1.081 Z-6.912
N15520 X80.492 Y-1.239 Z-6.921
N15525 X80.184 Y-1.388 Z-6.929
N15530 X79.87 Y-1.526 Z-6.937
N15535 X79.556 Y-1.661 Z-6.944
N15540 X79.234 Y-1.78 Z-6.951
N15545 X78.912 Y-1.898 Z-6.958
N15550 X78.585 Y-1.998 Z-6.964
N15555 X78.256 Y-2.096 Z-6.97
N15560 X77.924 Y-2.181 Z-6.975
N15565 X77.59 Y-2.258 Z-6.98
N15570 X77.254 Y-2.328 Z-6.984
N15575 X76.916 Y-2.383 Z-6.988
N15580 X76.577 Y-2.437 Z-6.991
N15585 X76.236 Y-2.471 Z-6.994
N15590 X75.894 Y-2.504 Z-6.996
N15595 X75.552 Y-2.522 Z-6.998
N15600 X75.209 Y-2.534 Z-6.999
N15605 X74.866 Y-2.539 Z-7.
N15610 X74.687 Y-2.537
N15615 X10.064
N15620 X9.895 Y-2.535
N15625 X9.388 Y-2.519
N15630 X9.219 Y-2.513
N15635 X9.05 Y-2.498
N15640 X8.543 Y-2.451
N15645 X8.405 Y-2.435
N15650 X8.374 Y-2.431
N15655 X8.205 Y-2.404
N15660 X7.868 Y-2.351
N15665 X7.699 Y-2.324
N15670 X7.53 Y-2.289
N15675 X7.023 Y-2.176
N15680 X6.854 Y-2.136
N15685 X6.718 Y-2.097
N15690 X6.347 Y-1.989
N15695 X6.178 Y-1.94
N15700 X6.14 Y-1.928
N15705 X6.009 Y-1.883
N15710 X5.502 Y-1.7
N15715 X5.333 Y-1.636
N15720 X5.227 Y-1.59
N15725 X4.827 Y-1.416
N15730 X4.658 Y-1.342
N15735 X4.489 Y-1.257
N15740 X4.146 Y-1.083
N15745 X3.982 Y-0.998
N15750 X3.835 Y-0.914
N15755 X3.475 Y-0.701
N15760 X3.306 Y-0.6
N15765 X3.267 Y-0.575
N15770 X3.137 Y-0.488
N15775 X2.768 Y-0.237
N15780 X2.63 Y-0.142
N15785 X2.533 Y-0.068
N15790 X2.097 Y0.27
N15795 X1.955 Y0.386
N15800 X1.895 Y0.439
N15805 X1.511 Y0.777
N15810 X1.448 Y0.834
N15815 X1.331 Y0.946
N15820 X0.941 Y1.336
N15825 X0.828 Y1.453
N15830 X0.772 Y1.517
N15835 X0.434 Y1.9
N15840 X0.381 Y1.961
N15845 X0.265 Y2.104
N15850 X-0.073 Y2.539
N15855 X-0.147 Y2.637
N15860 X-0.242 Y2.775
N15865 X-0.493 Y3.144
N15870 X-0.58 Y3.274
N15875 X-0.604 Y3.313
N15880 X-0.705 Y3.482
N15885 X-0.917 Y3.842
N15890 X-1.002 Y3.989
N15895 X-1.086 Y4.155
N15900 X-1.261 Y4.497
N15905 X-1.345 Y4.666
N15910 X-1.42 Y4.835
N15915 X-1.593 Y5.236
N15920 X-1.639 Y5.342
N15925 X-1.703 Y5.511
N15930 X-1.886 Y6.018
N15935 X-1.931 Y6.152
N15940 X-1.942 Y6.187
N15945 X-1.991 Y6.356
N15950 X-2.1 Y6.731
N15955 X-2.138 Y6.864
N15960 X-2.178 Y7.033
N15965 X-2.253 Y7.368
N15970 X-2.291 Y7.54
N15975 X-2.325 Y7.709
N15980 X-2.352 Y7.878
N15985 X-2.405 Y8.216
N15990 X-2.432 Y8.385
N15995 X-2.438 Y8.431
N16000 X-2.451 Y8.554
N16005 X-2.499 Y9.062
N16010 X-2.513 Y9.231
N16015 X-2.519 Y9.4
N16020 X-2.535 Y9.907
N16025 X-2.537 Y10.076
N16030 X-2.536 Y42.368
N16035 Y42.537
N16040 X-2.537 Y42.706
N16045 X-2.536 Y42.875
N16050 X-2.518 Y44.059
N16055 X-2.512 Y44.228
N16060 X-2.457 Y45.411
N16065 X-2.447 Y45.58
N16070 X-2.357 Y46.764
N16075 X-2.342 Y46.933
N16080 X-2.215 Y48.116
N16085 X-2.195 Y48.285
N16090 X-2.172 Y48.455
N16095 X-2.031 Y49.469
N16100 X-2.007 Y49.638
N16105 X-1.978 Y49.807
N16110 X-1.806 Y50.822
N16115 X-1.777 Y50.991
N16120 X-1.762 Y51.063
N16125 X-1.538 Y52.174
N16130 X-1.503 Y52.343
N16135 X-1.464 Y52.512
N16140 X-1.226 Y53.527
N16145 X-1.186 Y53.696
N16150 X-1.141 Y53.865
N16155 X-0.871 Y54.879
N16160 X-0.825 Y55.048
N16165 X-0.749 Y55.302
N16170 X-0.47 Y56.232
N16175 X-0.417 Y56.401
N16180 X-0.023 Y57.584
N16185 X0.037 Y57.753
N16190 X0.434 Y58.831
N16195 X0.473 Y58.937
N16200 X0.541 Y59.106
N16205 X0.95 Y60.12
N16210 X1.02 Y60.289
N16215 X1.466 Y61.304
N16220 X1.54 Y61.473
N16225 X1.617 Y61.635
N16230 X2.103 Y62.656
N16235 X2.123 Y62.699
N16240 X2.187 Y62.825
N16245 X2.709 Y63.84
N16250 X2.798 Y64.009
N16255 X3.36 Y65.023
N16260 X3.454 Y65.192
N16265 X3.475 Y65.227
N16270 X4.057 Y66.207
N16275 X4.151 Y66.363
N16280 X4.159 Y66.376
N16285 X4.266 Y66.545
N16290 X4.827 Y67.424
N16295 X4.914 Y67.559
N16300 X5.605 Y68.574
N16305 X5.671 Y68.67
N16310 X5.724 Y68.743
N16315 X6.347 Y69.601
N16320 X6.461 Y69.757
N16325 X6.516 Y69.83
N16330 X7.246 Y70.772
N16335 X7.361 Y70.917
N16340 X8.077 Y71.786
N16345 X8.205 Y71.94
N16350 X8.218 Y71.955
N16355 X8.374 Y72.133
N16360 X9.05 Y72.903
N16365 X9.109 Y72.97
N16370 X9.219 Y73.088
N16375 X9.897 Y73.815
N16380 X10.056 Y73.984
N16385 X10.064 Y73.992
N16390 X10.223 Y74.153
N16395 X10.908 Y74.844
N16400 X11.065 Y74.998
N16405 X11.957 Y75.844
N16410 X12.091 Y75.967
N16415 X12.936 Y76.72
N16420 X13.093 Y76.858
N16425 X13.949 Y77.576
N16430 X14.102 Y77.703
N16435 X14.118 Y77.717
N16440 X14.287 Y77.85
N16445 X15.132 Y78.514
N16450 X15.176 Y78.549
N16455 X15.301 Y78.642
N16460 X16.146 Y79.266
N16465 X16.315 Y79.39
N16470 X16.32 Y79.394
N16475 X16.484 Y79.507
N16480 X17.328 Y80.092
N16485 X17.497 Y80.206
N16490 X18.511 Y80.863
N16495 X18.593 Y80.916
N16500 X18.68 Y80.969
N16505 X19.71 Y81.592
N16510 X19.862 Y81.681
N16515 X20.904 Y82.268
N16520 X21.045 Y82.345
N16525 X22.059 Y82.877
N16530 X22.189 Y82.945
N16535 X22.228 Y82.964
N16540 X22.397 Y83.046
N16545 X23.41 Y83.539
N16550 X23.579 Y83.616
N16555 X24.593 Y84.07
N16560 X24.724 Y84.128
N16565 X24.762 Y84.144
N16570 X25.944 Y84.631
N16575 X25.954 Y84.635
N16580 X26.113 Y84.696
N16585 X27.127 Y85.078
N16590 X27.296 Y85.141
N16595 X27.301 Y85.143
N16600 X27.465 Y85.199
N16605 X28.478 Y85.545
N16610 X28.647 Y85.601
N16615 X29.83 Y85.965
N16620 X29.905 Y85.988
N16625 X29.999 Y86.014
N16630 X31.182 Y86.339
N16635 X31.351 Y86.382
N16640 X32.533 Y86.668
N16645 X32.702 Y86.705
N16650 X33.885 Y86.953
N16655 X34.054 Y86.984
N16660 X35.236 Y87.195
N16665 X35.405 Y87.221
N16670 X36.588 Y87.395
N16675 X36.757 Y87.416
N16680 X37.939 Y87.553
N16685 X38.108 Y87.569
N16690 X39.291 Y87.669
N16695 X39.406 Y87.679
N16700 X39.46 Y87.682
N16705 X40.642 Y87.745
N16710 X40.811 Y87.753
N16715 X40.98 Y87.757
N16720 X41.994 Y87.78
N16725 X42.163 Y87.784
N16730 X42.332 Y87.783
N16735 X43.345 Y87.775
N16740 X43.514 Y87.773
N16745 X43.683 Y87.768
N16750 X44.866 Y87.722
N16755 X45.035 Y87.712
N16760 X46.217 Y87.631
N16765 X46.386 Y87.616
N16770 X47.569 Y87.498
N16775 X47.738 Y87.479
N16780 X48.921 Y87.324
N16785 X49.089 Y87.3
N16790 X50.272 Y87.108
N16795 X50.441 Y87.079
N16800 X51.709 Y86.833
N16805 X51.793 Y86.816
N16810 X52.975 Y86.549
N16815 X53.144 Y86.509
N16820 X54.327 Y86.203
N16825 X54.496 Y86.158
N16830 X55.678 Y85.813
N16835 X55.847 Y85.761
N16840 X57.03 Y85.377
N16845 X57.199 Y85.317
N16850 X58.212 Y84.953
N16855 X58.381 Y84.892
N16860 X58.55 Y84.826
N16865 X59.564 Y84.426
N16870 X59.733 Y84.357
N16875 X60.747 Y83.921
N16880 X60.915 Y83.848
N16885 X61.041 Y83.79
N16890 X62.128 Y83.283
N16895 X62.267 Y83.214
N16900 X63.281 Y82.703
N16905 X63.45 Y82.616
N16910 X64.463 Y82.065
N16915 X64.632 Y81.972
N16920 X64.704 Y81.93
N16925 X65.646 Y81.38
N16930 X65.815 Y81.281
N16935 X65.858 Y81.254
N16940 X66.939 Y80.578
N16945 X66.997 Y80.54
N16950 X67.166 Y80.427
N16955 X68.011 Y79.861
N16960 X68.18 Y79.746
N16965 X69.194 Y79.021
N16970 X69.363 Y78.895
N16975 X70.261 Y78.211
N16980 X70.376 Y78.121
N16985 X70.474 Y78.042
N16990 X71.39 Y77.298
N16995 X71.51 Y77.196
N17000 X72.404 Y76.424
N17005 X72.487 Y76.351
N17010 X72.572 Y76.272
N17015 X73.417 Y75.496
N17020 X73.584 Y75.337
N17025 X74.431 Y74.509
N17030 X74.449 Y74.491
N17035 X74.6 Y74.336
N17040 X75.276 Y73.634
N17045 X75.426 Y73.477
N17050 X75.445 Y73.457
N17055 X75.58 Y73.308
N17060 X76.289 Y72.524
N17065 X76.344 Y72.462
N17070 X76.458 Y72.329
N17075 X77.208 Y71.448
N17080 X77.303 Y71.332
N17085 X78.021 Y70.434
N17090 X78.148 Y70.272
N17095 X78.823 Y69.372
N17100 X78.915 Y69.25
N17105 X78.992 Y69.141
N17110 X79.668 Y68.181
N17115 X79.747 Y68.067
N17120 X79.837 Y67.93
N17125 X80.415 Y67.052
N17130 X80.513 Y66.902
N17135 X81.189 Y65.804
N17140 X81.25 Y65.7
N17145 X81.864 Y64.629
N17150 X81.927 Y64.516
N17155 X82.469 Y63.502
N17160 X82.54 Y63.368
N17165 X82.558 Y63.333
N17170 X82.642 Y63.164
N17175 X83.145 Y62.149
N17180 X83.216 Y61.997
N17185 X83.687 Y60.966
N17190 X83.723 Y60.889
N17195 X83.763 Y60.797
N17200 X84.23 Y59.688
N17205 X84.261 Y59.613
N17210 X84.327 Y59.444
N17215 X84.736 Y58.382
N17220 X84.782 Y58.261
N17225 X84.905 Y57.909
N17230 X85.197 Y57.077
N17235 X85.243 Y56.94
N17240 X85.628 Y55.725
N17245 X85.677 Y55.555
N17250 X85.964 Y54.541
N17255 X86.012 Y54.372
N17260 X86.055 Y54.203
N17265 X86.309 Y53.188
N17270 X86.351 Y53.019
N17275 X86.389 Y52.85
N17280 X86.61 Y51.836
N17285 X86.646 Y51.667
N17290 X86.678 Y51.498
N17295 X86.867 Y50.483
N17300 X86.898 Y50.314
N17305 X86.925 Y50.145
N17310 X87.102 Y49.
N17315 X87.107 Y48.962
N17320 X87.129 Y48.793
N17325 X87.275 Y47.609
N17330 X87.292 Y47.44
N17335 X87.401 Y46.257
N17340 X87.413 Y46.088
N17345 X87.486 Y44.904
N17350 X87.494 Y44.735
N17355 X87.53 Y43.552
N17360 X87.533 Y43.383
N17365 X87.537 Y42.706
N17370 Y42.537
N17375 X87.538 Y10.076
N17380 X87.537 Y9.907
N17385 X87.521 Y9.4
N17390 X87.514 Y9.231
N17395 X87.5 Y9.062
N17400 X87.452 Y8.554
N17405 X87.439 Y8.431
N17410 X87.433 Y8.385
N17415 X87.407 Y8.216
N17420 X87.353 Y7.878
N17425 X87.326 Y7.709
N17430 X87.293 Y7.54
N17435 X87.179 Y7.033
N17440 X87.139 Y6.864
N17445 X87.102 Y6.731
N17450 X86.993 Y6.356
N17455 X86.944 Y6.187
N17460 X86.933 Y6.152
N17465 X86.887 Y6.018
N17470 X86.705 Y5.511
N17475 X86.64 Y5.342
N17480 X86.595 Y5.236
N17485 X86.421 Y4.835
N17490 X86.347 Y4.666
N17495 X86.262 Y4.497
N17500 X86.088 Y4.155
N17505 X86.003 Y3.989
N17510 X85.919 Y3.842
N17515 X85.706 Y3.482
N17520 X85.606 Y3.313
N17525 X85.581 Y3.274
N17530 X85.494 Y3.144
N17535 X85.243 Y2.775
N17540 X85.148 Y2.637
N17545 X85.074 Y2.539
N17550 X84.736 Y2.104
N17555 X84.62 Y1.961
N17560 X84.567 Y1.9
N17565 X84.23 Y1.517
N17570 X84.173 Y1.453
N17575 X84.061 Y1.336
N17580 X83.671 Y0.946
N17585 X83.554 Y0.834
N17590 X83.49 Y0.777
N17595 X83.107 Y0.439
N17600 X83.047 Y0.386
N17605 X82.904 Y0.27
N17610 X82.468 Y-0.068
N17615 X82.371 Y-0.142
N17620 X82.233 Y-0.237
N17625 X81.864 Y-0.488
N17630 X81.734 Y-0.575
N17635 X81.695 Y-0.6
N17640 X81.526 Y-0.701
N17645 X81.167 Y-0.914
N17650 X81.02 Y-0.998
N17655 X80.855 Y-1.083
N17660 X80.513 Y-1.257
N17665 X80.344 Y-1.342
N17670 X80.175 Y-1.416
N17675 X79.774 Y-1.59
N17680 X79.668 Y-1.636
N17685 X79.499 Y-1.7
N17690 X78.992 Y-1.883
N17695 X78.861 Y-1.928
N17700 X78.823 Y-1.94
N17705 X78.654 Y-1.989
N17710 X78.283 Y-2.097
N17715 X78.148 Y-2.136
N17720 X77.979 Y-2.176
N17725 X77.472 Y-2.289
N17730 X77.303 Y-2.324
N17735 X77.134 Y-2.351
N17740 X76.796 Y-2.404
N17745 X76.627 Y-2.431
N17750 X76.597 Y-2.435
N17755 X76.458 Y-2.451
N17760 X75.951 Y-2.498
N17765 X75.782 Y-2.513
N17770 X75.613 Y-2.519
N17775 X75.107 Y-2.535
N17780 X74.938 Y-2.537
N17785 X74.687
N17790 X74.344 Y-2.539
N17795 X74.001 Z-7.001
N17800 X73.658 Y-2.54 Z-7.003
N17805 X73.314 Y-2.541 Z-7.005
N17810 X72.971 Z-7.007
N17815 X72.628 Y-2.542 Z-7.01
N17820 X72.285 Y-2.544 Z-7.014
N17825 X71.942 Y-2.545 Z-7.018
N17830 X71.599 Y-2.546 Z-7.022
N17835 X71.256 Y-2.548 Z-7.027
N17840 X70.913 Y-2.55 Z-7.033
N17845 X70.57 Y-2.552 Z-7.039
N17850 X70.227 Y-2.554 Z-7.045
N17855 X69.884 Y-2.556 Z-7.052
N17860 X69.541 Y-2.558 Z-7.06
N17865 X69.198 Y-2.56 Z-7.067
N17870 X68.855 Y-2.563 Z-7.075
N17875 X68.511 Y-2.565 Z-7.084
N17880 X68.168 Y-2.568 Z-7.093
N17885 X67.825 Y-2.571 Z-7.102
N17890 X67.482 Y-2.573 Z-7.112
N17895 X67.139 Y-2.576 Z-7.122
N17900 X66.796 Y-2.579 Z-7.132
N17905 X66.453 Y-2.582 Z-7.143
N17910 X66.11 Y-2.585 Z-7.153
N17915 X65.767 Y-2.588 Z-7.165
N17920 X65.424 Y-2.591 Z-7.176
N17925 X65.081 Y-2.594 Z-7.188
N17930 X60.278 Y-2.639 Z-7.356
N17935 X54.789 Y-2.691 Z-7.547
N17940 X51.358 Y-2.723 Z-7.667
N17945 X51.015 Y-2.726 Z-7.679
N17950 X50.672 Y-2.729 Z-7.691
N17955 X50.329 Y-2.732 Z-7.703
N17960 X49.986 Y-2.735 Z-7.715
N17965 X49.643 Y-2.738 Z-7.727
N17970 X49.3 Y-2.741 Z-7.739
N17975 X48.957 Y-2.744 Z-7.751
N17980 X48.614 Y-2.747 Z-7.763
N17985 X48.27 Y-2.749 Z-7.775
N17990 X47.927 Y-2.752 Z-7.787
N17995 X47.584 Y-2.755 Z-7.799
N18000 X47.241 Y-2.757 Z-7.811
N18005 X46.898 Y-2.76 Z-7.823
N18010 X46.555 Y-2.762 Z-7.834
N18015 X46.212 Y-2.765 Z-7.845
N18020 X45.869 Y-2.767 Z-7.856
N18025 X45.526 Y-2.769 Z-7.867
N18030 X45.183 Y-2.771 Z-7.877
N18035 X44.84 Y-2.773 Z-7.887
N18040 X44.497 Y-2.775 Z-7.897
N18045 X44.154 Y-2.776 Z-7.906
N18050 X43.811 Y-2.778 Z-7.915
N18055 X43.468 Y-2.78 Z-7.924
N18060 X43.124 Y-2.781 Z-7.932
N18065 X42.781 Y-2.783 Z-7.94
N18070 X42.438 Y-2.784 Z-7.947
N18075 X42.095 Y-2.785 Z-7.954
N18080 X41.752 Y-2.787 Z-7.96
N18085 X41.409 Y-2.788 Z-7.966
N18090 X41.066 Y-2.789 Z-7.972
N18095 X40.723 Y-2.79 Z-7.977
N18100 X40.38 Y-2.791 Z-7.982
N18105 X40.037 Z-7.986
N18110 X39.694 Y-2.792 Z-7.99
N18115 X39.351 Y-2.793 Z-7.993
N18120 X39.008 Z-7.995
N18125 X38.665 Y-2.794 Z-7.997
N18130 X38.322 Z-7.999
N18135 X37.978 Z-8.
N18140 X37.635
N18145 X37.602 Y-2.793
N18150 X10.064
N18155 X9.895 Y-2.791
N18160 X9.557 Y-2.781
N18165 X9.388 Y-2.775
N18170 X9.321 Y-2.773
N18175 X9.219 Y-2.769
N18180 X9.05 Y-2.755
N18185 X8.543 Y-2.708
N18190 X8.374 Y-2.689
N18195 X8.205 Y-2.663
N18200 X7.699 Y-2.583
N18205 X7.53 Y-2.552
N18210 X7.361 Y-2.514
N18215 X7.009 Y-2.435
N18220 X6.854 Y-2.4
N18225 X6.685 Y-2.354
N18230 X6.178 Y-2.207
N18235 X6.009 Y-2.154
N18240 X5.849 Y-2.097
N18245 X5.379 Y-1.928
N18250 X5.333 Y-1.911
N18255 X5.164 Y-1.842
N18260 X4.658 Y-1.622
N18265 X4.584 Y-1.59
N18270 X4.489 Y-1.544
N18275 X4.32 Y-1.458
N18280 X3.915 Y-1.252
N18285 X3.813 Y-1.197
N18290 X3.644 Y-1.098
N18295 X3.306 Y-0.898
N18300 X3.137 Y-0.796
N18305 X3.059 Y-0.744
N18310 X2.562 Y-0.406
N18315 X2.461 Y-0.335
N18320 X2.333 Y-0.237
N18325 X1.955 Y0.057
N18330 X1.898 Y0.101
N18335 X1.786 Y0.194
N18340 X1.699 Y0.27
N18345 X1.316 Y0.608
N18350 X1.279 Y0.641
N18355 X1.138 Y0.777
N18360 X0.772 Y1.143
N18365 X0.636 Y1.284
N18370 X0.603 Y1.322
N18375 X0.265 Y1.705
N18380 X0.189 Y1.792
N18385 X0.096 Y1.904
N18390 X0.052 Y1.961
N18395 X-0.242 Y2.339
N18400 X-0.34 Y2.468
N18405 X-0.411 Y2.568
N18410 X-0.749 Y3.065
N18415 X-0.8 Y3.144
N18420 X-0.902 Y3.313
N18425 X-1.102 Y3.651
N18430 X-1.201 Y3.82
N18435 X-1.255 Y3.923
N18440 X-1.462 Y4.328
N18445 X-1.548 Y4.497
N18450 X-1.593 Y4.593
N18455 X-1.625 Y4.666
N18460 X-1.845 Y5.173
N18465 X-1.914 Y5.342
N18470 X-1.931 Y5.389
N18475 X-2.1 Y5.858
N18480 X-2.157 Y6.018
N18485 X-2.209 Y6.187
N18490 X-2.356 Y6.695
N18495 X-2.402 Y6.864
N18500 X-2.438 Y7.024
N18505 X-2.502 Y7.312
N18510 X-2.516 Y7.371
N18515 X-2.553 Y7.54
N18520 X-2.584 Y7.709
N18525 X-2.664 Y8.216
N18530 X-2.69 Y8.385
N18535 X-2.708 Y8.554
N18540 X-2.756 Y9.062
N18545 X-2.769 Y9.231
N18550 X-2.775 Y9.4
N18555 X-2.776 Y9.424
N18560 X-2.791 Y9.907
N18565 X-2.792 Y10.076
N18570 X-2.795 Y29.519
N18575 Y31.21
N18580 Y32.9
N18585 Y34.591
N18590 Y36.282
N18595 Y37.972
N18600 Y39.663
N18605 Y41.354
N18610 Y42.368
N18615 X-2.796 Y42.537
N18620 X-2.794 Y42.706
N18625 X-2.791 Y42.875
N18630 X-2.773 Y44.059
N18635 X-2.768 Y44.228
N18640 X-2.713 Y45.411
N18645 X-2.704 Y45.58
N18650 X-2.607 Y46.843
N18655 X-2.599 Y46.933
N18660 X-2.581 Y47.102
N18665 X-2.472 Y48.116
N18670 X-2.453 Y48.285
N18675 X-2.438 Y48.398
N18680 X-2.269 Y49.615
N18685 X-2.266 Y49.638
N18690 X-2.238 Y49.807
N18695 X-2.036 Y50.991
N18700 X-2.003 Y51.16
N18705 X-1.765 Y52.343
N18710 X-1.762 Y52.354
N18715 X-1.726 Y52.512
N18720 X-1.45 Y53.696
N18725 X-1.424 Y53.796
N18730 X-1.136 Y54.879
N18735 X-1.09 Y55.048
N18740 X-1.086 Y55.063
N18745 X-1.041 Y55.217
N18750 X-0.737 Y56.232
N18755 X-0.686 Y56.401
N18760 X-0.63 Y56.57
N18765 X-0.292 Y57.584
N18770 X-0.242 Y57.734
N18775 X-0.235 Y57.753
N18780 X-0.173 Y57.922
N18785 X0.2 Y58.937
N18790 X0.265 Y59.106
N18795 X0.674 Y60.12
N18800 X0.742 Y60.289
N18805 X0.772 Y60.36
N18810 X1.279 Y61.514
N18815 X1.337 Y61.642
N18820 X1.82 Y62.656
N18825 X1.9 Y62.825
N18830 X1.955 Y62.932
N18835 X2.508 Y64.009
N18840 X2.599 Y64.178
N18845 X3.161 Y65.192
N18850 X3.257 Y65.361
N18855 X3.86 Y66.376
N18860 X3.963 Y66.545
N18865 X4.609 Y67.559
N18870 X4.658 Y67.635
N18875 X4.72 Y67.728
N18880 X5.411 Y68.743
N18885 X5.502 Y68.873
N18890 X6.178 Y69.803
N18895 X6.268 Y69.926
N18900 X6.347 Y70.029
N18905 X7.053 Y70.941
N18910 X7.188 Y71.11
N18915 X7.885 Y71.955
N18920 X8.026 Y72.124
N18925 X8.036 Y72.136
N18930 X8.881 Y73.098
N18935 X8.917 Y73.139
N18940 X9.05 Y73.282
N18945 X9.726 Y74.006
N18950 X9.863 Y74.153
N18955 X9.895 Y74.185
N18960 X10.74 Y75.036
N18965 X10.871 Y75.167
N18970 X10.908 Y75.203
N18975 X11.763 Y76.013
N18980 X11.922 Y76.159
N18985 X12.767 Y76.912
N18990 X12.897 Y77.027
N18995 X12.936 Y77.06
N19000 X13.906 Y77.873
N19005 X13.949 Y77.909
N19010 X14.118 Y78.042
N19015 X14.977 Y78.718
N19020 X15.132 Y78.835
N19025 X16.118 Y79.563
N19030 X16.146 Y79.584
N19035 X16.315 Y79.701
N19040 X17.159 Y80.286
N19045 X17.328 Y80.401
N19050 X17.339 Y80.409
N19055 X18.383 Y81.085
N19060 X18.511 Y81.165
N19065 X19.525 Y81.779
N19070 X19.693 Y81.879
N19075 X20.707 Y82.451
N19080 X20.876 Y82.545
N19085 X20.993 Y82.606
N19090 X21.96 Y83.114
N19095 X22.059 Y83.165
N19100 X22.228 Y83.249
N19105 X23.241 Y83.741
N19110 X23.343 Y83.79
N19115 X23.41 Y83.82
N19120 X24.474 Y84.297
N19125 X24.593 Y84.35
N19130 X24.762 Y84.421
N19135 X25.775 Y84.838
N19140 X25.944 Y84.906
N19145 X27.127 Y85.351
N19150 X27.296 Y85.411
N19155 X28.31 Y85.758
N19160 X28.478 Y85.815
N19165 X28.489 Y85.819
N19170 X28.647 Y85.868
N19175 X29.661 Y86.181
N19180 X29.83 Y86.232
N19185 X29.999 Y86.279
N19190 X31.013 Y86.558
N19195 X31.182 Y86.604
N19200 X31.351 Y86.645
N19205 X32.364 Y86.89
N19210 X32.533 Y86.93
N19215 X32.702 Y86.966
N19220 X33.716 Y87.179
N19225 X33.885 Y87.214
N19230 X34.054 Y87.244
N19235 X35.067 Y87.424
N19240 X35.236 Y87.454
N19245 X35.405 Y87.48
N19250 X36.419 Y87.628
N19255 X36.588 Y87.653
N19260 X36.757 Y87.673
N19265 X37.939 Y87.81
N19270 X38.108 Y87.826
N19275 X39.291 Y87.926
N19280 X39.46 Y87.938
N19285 X40.642 Y88.001
N19290 X40.811 Y88.009
N19295 X41.994 Y88.036
N19300 X42.163 Y88.039
N19305 X42.332 Y88.038
N19310 X43.345 Y88.031
N19315 X43.514 Y88.029
N19320 X43.683 Y88.024
N19325 X44.866 Y87.978
N19330 X45.035 Y87.969
N19335 X46.217 Y87.887
N19340 X46.386 Y87.873
N19345 X47.569 Y87.755
N19350 X47.738 Y87.737
N19355 X48.921 Y87.582
N19360 X49.089 Y87.559
N19365 X49.258 Y87.532
N19370 X50.272 Y87.367
N19375 X50.434 Y87.34
N19380 X50.441 Y87.339
N19385 X50.61 Y87.307
N19390 X51.624 Y87.11
N19395 X51.793 Y87.077
N19400 X51.961 Y87.04
N19405 X52.975 Y86.811
N19410 X53.144 Y86.772
N19415 X53.313 Y86.729
N19420 X54.327 Y86.467
N19425 X54.496 Y86.423
N19430 X54.665 Y86.375
N19435 X55.678 Y86.079
N19440 X55.847 Y86.03
N19445 X55.976 Y85.988
N19450 X57.03 Y85.646
N19455 X57.199 Y85.589
N19460 X58.381 Y85.164
N19465 X58.442 Y85.143
N19470 X58.55 Y85.101
N19475 X59.564 Y84.701
N19480 X59.731 Y84.635
N19485 X59.733 Y84.634
N19490 X59.902 Y84.563
N19495 X60.915 Y84.127
N19500 X61.084 Y84.052
N19505 X62.098 Y83.579
N19510 X62.267 Y83.5
N19515 X62.364 Y83.452
N19520 X63.45 Y82.904
N19525 X63.619 Y82.815
N19530 X64.632 Y82.264
N19535 X64.801 Y82.17
N19540 X65.815 Y81.577
N19545 X65.984 Y81.477
N19550 X66.997 Y80.843
N19555 X67.148 Y80.747
N19560 X67.166 Y80.735
N19565 X68.18 Y80.056
N19570 X68.349 Y79.94
N19575 X69.363 Y79.215
N19580 X69.532 Y79.088
N19585 X70.461 Y78.38
N19590 X70.545 Y78.314
N19595 X71.505 Y77.534
N19600 X71.559 Y77.49
N19605 X71.705 Y77.365
N19610 X72.572 Y76.616
N19615 X72.681 Y76.52
N19620 X73.601 Y75.675
N19625 X73.755 Y75.527
N19630 X74.6 Y74.701
N19635 X74.642 Y74.66
N19640 X74.769 Y74.529
N19645 X75.456 Y73.815
N19650 X75.613 Y73.651
N19655 X75.618 Y73.646
N19660 X75.771 Y73.477
N19665 X76.458 Y72.718
N19670 X76.536 Y72.631
N19675 X76.627 Y72.525
N19680 X77.4 Y71.617
N19685 X77.472 Y71.531
N19690 X78.213 Y70.603
N19695 X78.317 Y70.473
N19700 X78.346 Y70.434
N19705 X79.107 Y69.419
N19710 X79.161 Y69.346
N19715 X79.229 Y69.25
N19720 X79.837 Y68.385
N19725 X79.942 Y68.236
N19730 X80.006 Y68.139
N19735 X80.682 Y67.112
N19740 X80.72 Y67.052
N19745 X80.825 Y66.883
N19750 X81.357 Y66.017
N19755 X81.448 Y65.869
N19760 X81.526 Y65.732
N19765 X82.033 Y64.849
N19770 X82.127 Y64.685
N19775 X82.202 Y64.544
N19780 X82.759 Y63.502
N19785 X82.844 Y63.333
N19790 X83.346 Y62.318
N19795 X83.385 Y62.24
N19800 X83.427 Y62.149
N19805 X83.892 Y61.134
N19810 X83.968 Y60.966
N19815 X84.04 Y60.797
N19820 X84.467 Y59.782
N19825 X84.536 Y59.613
N19830 X84.992 Y58.43
N19835 X85.053 Y58.261
N19840 X85.412 Y57.236
N19845 X85.467 Y57.077
N19850 X85.521 Y56.908
N19855 X85.842 Y55.894
N19860 X85.895 Y55.725
N19865 X85.919 Y55.64
N19870 X86.23 Y54.541
N19875 X86.257 Y54.446
N19880 X86.277 Y54.372
N19885 X86.573 Y53.188
N19890 X86.595 Y53.1
N19895 X86.613 Y53.019
N19900 X86.871 Y51.836
N19905 X86.907 Y51.667
N19910 X87.127 Y50.483
N19915 X87.157 Y50.314
N19920 X87.183 Y50.145
N19925 X87.34 Y49.131
N19930 X87.366 Y48.962
N19935 X87.387 Y48.793
N19940 X87.512 Y47.778
N19945 X87.532 Y47.609
N19950 X87.548 Y47.44
N19955 X87.658 Y46.257
N19960 X87.669 Y46.088
N19965 X87.742 Y44.904
N19970 X87.749 Y44.735
N19975 X87.786 Y43.552
N19980 X87.789 Y43.383
N19985 X87.793 Y43.044
N19990 X87.795 Y42.875
N19995 X87.796 Y42.706
N20000 X87.797 Y42.537
N20005 Y40.846
N20010 Y39.156
N20015 Y37.465
N20020 Y35.774
N20025 Y34.084
N20030 Y32.393
N20035 X87.796 Y30.702
N20040 Y29.012
N20045 X87.794 Y10.076
N20050 X87.792 Y9.907
N20055 X87.777 Y9.424
N20060 Y9.4
N20065 X87.771 Y9.231
N20070 X87.757 Y9.062
N20075 X87.709 Y8.554
N20080 X87.692 Y8.385
N20085 X87.666 Y8.216
N20090 X87.586 Y7.709
N20095 X87.555 Y7.54
N20100 X87.517 Y7.371
N20105 X87.439 Y7.024
N20110 X87.403 Y6.864
N20115 X87.358 Y6.695
N20120 X87.21 Y6.187
N20125 X87.158 Y6.018
N20130 X87.102 Y5.858
N20135 X86.933 Y5.389
N20140 X86.915 Y5.342
N20145 X86.846 Y5.173
N20150 X86.627 Y4.666
N20155 X86.595 Y4.593
N20160 X86.549 Y4.497
N20165 X86.463 Y4.328
N20170 X86.257 Y3.923
N20175 X86.202 Y3.82
N20180 X86.103 Y3.651
N20185 X85.903 Y3.313
N20190 X85.802 Y3.144
N20195 X85.75 Y3.065
N20200 X85.412 Y2.568
N20205 X85.341 Y2.468
N20210 X85.243 Y2.339
N20215 X84.949 Y1.961
N20220 X84.905 Y1.904
N20225 X84.812 Y1.792
N20230 X84.736 Y1.705
N20235 X84.398 Y1.322
N20240 X84.365 Y1.284
N20245 X84.23 Y1.143
N20250 X83.863 Y0.777
N20255 X83.723 Y0.641
N20260 X83.686 Y0.608
N20265 X83.302 Y0.27
N20270 X83.216 Y0.194
N20275 X83.104 Y0.101
N20280 X83.047 Y0.057
N20285 X82.668 Y-0.237
N20290 X82.54 Y-0.335
N20295 X82.44 Y-0.406
N20300 X81.942 Y-0.744
N20305 X81.864 Y-0.796
N20310 X81.695 Y-0.898
N20315 X81.357 Y-1.098
N20320 X81.189 Y-1.197
N20325 X81.087 Y-1.252
N20330 X80.682 Y-1.458
N20335 X80.513 Y-1.544
N20340 X80.417 Y-1.59
N20345 X80.344 Y-1.622
N20350 X79.837 Y-1.842
N20355 X79.668 Y-1.911
N20360 X79.622 Y-1.928
N20365 X79.153 Y-2.097
N20370 X78.992 Y-2.154
N20375 X78.823 Y-2.207
N20380 X78.317 Y-2.354
N20385 X78.148 Y-2.4
N20390 X77.993 Y-2.435
N20395 X77.641 Y-2.514
N20400 X77.472 Y-2.552
N20405 X77.303 Y-2.583
N20410 X76.796 Y-2.663
N20415 X76.627 Y-2.689
N20420 X76.458 Y-2.708
N20425 X75.951 Y-2.755
N20430 X75.782 Y-2.769
N20435 X75.68 Y-2.773
N20440 X75.613 Y-2.775
N20445 X75.445 Y-2.781
N20450 X75.107 Y-2.791
N20455 X74.938 Y-2.793
N20460 X37.602
N20465 G3 X37.148 Y-3.785 I0. J-0.6
N20470 G1 X37.198 Y-3.843 Z-7.992
N20475 X37.246 Y-3.898 Z-7.97
N20480 X37.29 Y-3.95 Z-7.934
N20485 X37.329 Y-3.995 Z-7.885
N20490 X37.361 Y-4.031 Z-7.826
N20495 X37.384 Y-4.059 Z-7.758
N20500 X37.399 Y-4.076 Z-7.685
N20505 X37.404 Y-4.081 Z-7.609
N20510 G0 Z5.
N20515 X38.604 Y11.245
N20520 Z0.795
N20525 G1 Z-1. F1000.
N20530 G3 X38.922 Y10.183 I0.379 J-0.465
N20535 G1 X39.629 Y10.111
N20540 X39.798 Y10.096
N20545 X40.811 Y10.028
N20550 X40.98 Y10.021
N20555 X41.825 Y9.992
N20560 X41.994 Y9.988
N20565 X43.008
N20570 X43.176 Y9.992
N20575 X44.021 Y10.021
N20580 X44.19 Y10.028
N20585 X45.204 Y10.096
N20590 X45.373 Y10.111
N20595 X46.217 Y10.197
N20600 X46.386 Y10.215
N20605 X47.4 Y10.353
N20610 X47.569 Y10.38
N20615 X48.414 Y10.524
N20620 X48.583 Y10.554
N20625 X49.596 Y10.762
N20630 X49.765 Y10.801
N20635 X50.61 Y11.005
N20640 X50.779 Y11.048
N20645 X51.624 Y11.282
N20650 X51.793 Y11.329
N20655 X52.806 Y11.647
N20660 X52.975 Y11.705
N20665 X53.82 Y12.002
N20670 X53.989 Y12.066
N20675 X54.834 Y12.395
N20680 X54.953 Y12.443
N20685 X55.847 Y12.827
N20690 X56.016 Y12.903
N20695 X56.861 Y13.3
N20700 X57.03 Y13.383
N20705 X57.874 Y13.815
N20710 X58.043 Y13.907
N20715 X58.756 Y14.303
N20720 X58.888 Y14.377
N20725 X59.733 Y14.883
N20730 X59.888 Y14.979
N20735 X60.747 Y15.535
N20740 X60.915 Y15.652
N20745 X61.649 Y16.162
N20750 X61.76 Y16.244
N20755 X62.436 Y16.749
N20760 X62.556 Y16.839
N20765 X63.399 Y17.515
N20770 X63.45 Y17.557
N20775 X64.188 Y18.191
N20780 X64.294 Y18.284
N20785 X64.97 Y18.905
N20790 X65.11 Y19.037
N20795 X65.815 Y19.729
N20800 X65.963 Y19.882
N20805 X66.606 Y20.558
N20810 X66.659 Y20.617
N20815 X67.358 Y21.404
N20820 X67.504 Y21.579
N20825 X68.06 Y22.249
N20830 X68.18 Y22.404
N20835 X68.714 Y23.094
N20840 X68.838 Y23.263
N20845 X69.363 Y23.99
N20850 X69.444 Y24.109
N20855 X69.898 Y24.785
N20860 X70.011 Y24.954
N20865 X70.545 Y25.81
N20870 X70.64 Y25.968
N20875 X71.128 Y26.814
N20880 X71.22 Y26.983
N20885 X71.58 Y27.659
N20890 X71.67 Y27.828
N20895 X72.085 Y28.674
N20900 X72.167 Y28.843
N20905 X72.572 Y29.746
N20910 X72.621 Y29.857
N20915 X72.967 Y30.702
N20920 X73.036 Y30.871
N20925 X73.411 Y31.886
N20930 X73.417 Y31.903
N20935 X73.755 Y32.919
N20940 X73.8 Y33.069
N20945 X74.05 Y33.915
N20950 X74.093 Y34.07
N20955 X74.315 Y34.929
N20960 X74.358 Y35.098
N20965 X74.585 Y36.113
N20970 X74.6 Y36.186
N20975 X74.777 Y37.127
N20980 X74.807 Y37.296
N20985 X74.962 Y38.31
N20990 X74.983 Y38.48
N20995 X75.083 Y39.325
N21000 X75.101 Y39.494
N21005 X75.187 Y40.508
N21010 X75.197 Y40.677
N21015 X75.239 Y41.523
N21020 X75.246 Y41.692
N21025 X75.263 Y42.706
N21030 X75.262 Y42.875
N21035 X75.248 Y43.721
N21040 X75.244 Y43.89
N21045 X75.192 Y44.904
N21050 X75.18 Y45.073
N21055 X75.107 Y45.936
N21060 X75.093 Y46.088
N21065 X74.972 Y47.102
N21070 X74.949 Y47.271
N21075 X74.819 Y48.116
N21080 X74.792 Y48.285
N21085 X74.6 Y49.308
N21090 X74.565 Y49.469
N21095 X74.377 Y50.314
N21100 X74.337 Y50.483
N21105 X74.093 Y51.424
N21110 X74.074 Y51.498
N21115 X73.774 Y52.512
N21120 X73.755 Y52.575
N21125 X73.417 Y53.591
N21130 X73.379 Y53.696
N21135 X73.066 Y54.541
N21140 X73.001 Y54.71
N21145 X72.655 Y55.555
N21150 X72.583 Y55.725
N21155 X72.203 Y56.57
N21160 X72.125 Y56.739
N21165 X71.71 Y57.584
N21170 X71.624 Y57.753
N21175 X71.173 Y58.599
N21180 X71.078 Y58.768
N21185 X70.687 Y59.444
N21190 X70.589 Y59.613
N21195 X70.038 Y60.497
N21200 X69.953 Y60.628
N21205 X69.499 Y61.304
N21210 X69.385 Y61.473
N21215 X68.775 Y62.318
N21220 X68.687 Y62.436
N21225 X68.123 Y63.164
N21230 X68.011 Y63.304
N21235 X67.426 Y64.009
N21240 X67.335 Y64.116
N21245 X66.659 Y64.877
N21250 X66.523 Y65.023
N21255 X65.88 Y65.7
N21260 X65.815 Y65.765
N21265 X65.139 Y66.43
N21270 X65.018 Y66.545
N21275 X64.282 Y67.221
N21280 X64.125 Y67.357
N21285 X63.45 Y67.937
N21290 X63.291 Y68.067
N21295 X62.605 Y68.616
N21300 X62.439 Y68.743
N21305 X61.76 Y69.25
N21310 X61.591 Y69.372
N21315 X60.795 Y69.926
N21320 X60.747 Y69.96
N21325 X59.902 Y70.506
N21330 X59.747 Y70.603
N21335 X58.888 Y71.118
N21340 X58.719 Y71.212
N21345 X57.989 Y71.617
N21350 X57.874 Y71.679
N21355 X57.004 Y72.124
N21360 X56.861 Y72.195
N21365 X55.931 Y72.631
N21370 X55.847 Y72.668
N21375 X55.002 Y73.03
N21380 X54.834 Y73.099
N21385 X53.989 Y73.429
N21390 X53.864 Y73.477
N21395 X52.901 Y73.815
N21400 X52.806 Y73.847
N21405 X51.793 Y74.165
N21410 X51.624 Y74.212
N21415 X50.779 Y74.446
N21420 X50.61 Y74.49
N21425 X49.765 Y74.693
N21430 X49.596 Y74.732
N21435 X48.583 Y74.941
N21440 X48.414 Y74.971
N21445 X47.569 Y75.115
N21450 X47.4 Y75.141
N21455 X46.386 Y75.279
N21460 X46.217 Y75.297
N21465 X45.373 Y75.383
N21470 X45.204 Y75.398
N21475 X44.19 Y75.467
N21480 X44.021 Y75.473
N21485 X43.068 Y75.506
N21490 X43.008
N21495 X41.994
N21500 X41.933
N21505 X40.98 Y75.473
N21510 X40.811 Y75.467
N21515 X39.798 Y75.398
N21520 X39.629 Y75.383
N21525 X38.784 Y75.297
N21530 X38.615 Y75.279
N21535 X37.601 Y75.141
N21540 X37.432 Y75.115
N21545 X36.588 Y74.971
N21550 X36.419 Y74.941
N21555 X35.405 Y74.733
N21560 X35.236 Y74.693
N21565 X34.391 Y74.49
N21570 X34.223 Y74.447
N21575 X33.378 Y74.213
N21580 X33.209 Y74.165
N21585 X32.195 Y73.847
N21590 X32.1 Y73.815
N21595 X31.137 Y73.477
N21600 X31.013 Y73.429
N21605 X30.168 Y73.1
N21610 X29.999 Y73.03
N21615 X29.154 Y72.668
N21620 X29.07 Y72.631
N21625 X28.141 Y72.195
N21630 X27.997 Y72.124
N21635 X27.127 Y71.679
N21640 X27.012 Y71.617
N21645 X26.282 Y71.212
N21650 X26.113 Y71.118
N21655 X25.254 Y70.603
N21660 X25.1 Y70.506
N21665 X24.255 Y69.96
N21670 X24.206 Y69.926
N21675 X23.41 Y69.373
N21680 X23.241 Y69.25
N21685 X22.562 Y68.743
N21690 X22.397 Y68.616
N21695 X21.71 Y68.067
N21700 X21.552 Y67.938
N21705 X20.876 Y67.358
N21710 X20.719 Y67.221
N21715 X19.983 Y66.545
N21720 X19.862 Y66.43
N21725 X19.187 Y65.766
N21730 X19.121 Y65.7
N21735 X18.478 Y65.023
N21740 X18.342 Y64.878
N21745 X17.666 Y64.117
N21750 X17.575 Y64.009
N21755 X16.99 Y63.304
N21760 X16.878 Y63.164
N21765 X16.315 Y62.436
N21770 X16.226 Y62.318
N21775 X15.616 Y61.473
N21780 X15.502 Y61.304
N21785 X15.048 Y60.628
N21790 X14.963 Y60.498
N21795 X14.412 Y59.613
N21800 X14.314 Y59.444
N21805 X13.923 Y58.768
N21810 X13.828 Y58.599
N21815 X13.377 Y57.753
N21820 X13.291 Y57.584
N21825 X12.876 Y56.739
N21830 X12.797 Y56.57
N21835 X12.418 Y55.725
N21840 X12.346 Y55.555
N21845 X12. Y54.71
N21850 X11.935 Y54.541
N21855 X11.622 Y53.696
N21860 X11.584 Y53.593
N21865 X11.246 Y52.576
N21870 X11.227 Y52.512
N21875 X10.927 Y51.498
N21880 X10.908 Y51.426
N21885 X10.664 Y50.483
N21890 X10.624 Y50.314
N21895 X10.436 Y49.469
N21900 X10.402 Y49.311
N21905 X10.209 Y48.285
N21910 X10.182 Y48.116
N21915 X10.052 Y47.271
N21920 X10.029 Y47.102
N21925 X9.908 Y46.088
N21930 X9.895 Y45.942
N21935 X9.821 Y45.073
N21940 X9.809 Y44.904
N21945 X9.757 Y43.89
N21950 X9.753 Y43.721
N21955 X9.739 Y42.875
N21960 X9.738 Y42.706
