%
(CONTOUR_BASE)
(T1  D=6. CR=0. - ZMIN=-40. - FLAT END MILL)
N10 G90 G94 G17 G91.1
N15 G21
N20 G53 G0 Z0.
(2D CONTOUR5)
N25 T1 M6
N30 S12000 M3
N35 G54
N40 G0 X15.55 Y43.347
N45 G43 Z15. H1
N50 G0 Z5.
N55 G1 Z4. F333.33
N60 Z-2.4
N65 G18 G3 X14.95 Z-3. I-0.6 K0. F1000.
N70 G1 X14.35
N75 G17 G3 X13.75 Y42.747 I0. J-0.6
N80 X71.25 I28.75 J0.
N85 X13.75 I-28.75 J0.
N90 X72.251 I29.25 J0.
N95 X12.75 I-29.75 J0.
N100 X72.251 I29.75 J0.
N105 X71.65 Y43.347 I-0.6 J0.
N110 G1 X71.05
N115 G18 G3 X70.451 Z-2.4 I0. K0.6
N120 G0 Z5.
N125 X15.55
N130 G1 Z1. F333.33
N135 Z-5.4
N140 G3 X14.95 Z-6. I-0.6 K0. F1000.
N145 G1 X14.35
N150 G17 G3 X13.75 Y42.747 I0. J-0.6
N155 X71.25 I28.75 J0.
N160 X13.75 I-28.75 J0.
N165 X72.251 I29.25 J0.
N170 X12.75 I-29.75 J0.
N175 X72.251 I29.75 J0.
N180 X71.65 Y43.347 I-0.6 J0.
N185 G1 X71.05
N190 G18 G3 X70.451 Z-5.4 I0. K0.6
N195 G0 Z5.
N200 X15.55
N205 G1 Z-2. F333.33
N210 Z-8.4
N215 G3 X14.95 Z-9. I-0.6 K0. F1000.
N220 G1 X14.35
N225 G17 G3 X13.75 Y42.747 I0. J-0.6
N230 X71.25 I28.75 J0.
N235 X13.75 I-28.75 J0.
N240 X72.251 I29.25 J0.
N245 X12.75 I-29.75 J0.
N250 X72.251 I29.75 J0.
N255 X71.65 Y43.347 I-0.6 J0.
N260 G1 X71.05
N265 G18 G3 X70.451 Z-8.4 I0. K0.6
N270 G0 Z5.
N275 X15.55
N280 G1 Z-5. F333.33
N285 Z-11.4
N290 G3 X14.95 Z-12. I-0.6 K0. F1000.
N295 G1 X14.35
N300 G17 G3 X13.75 Y42.747 I0. J-0.6
N305 X71.25 I28.75 J0.
N310 X13.75 I-28.75 J0.
N315 X72.251 I29.25 J0.
N320 X12.75 I-29.75 J0.
N325 X72.251 I29.75 J0.
N330 X71.65 Y43.347 I-0.6 J0.
N335 G1 X71.05
N340 G18 G3 X70.451 Z-11.4 I0. K0.6
N345 G0 Z5.
N350 X15.55
N355 G1 Z-8. F333.33
N360 Z-14.4
N365 G3 X14.95 Z-15. I-0.6 K0. F1000.
N370 G1 X14.35
N375 G17 G3 X13.75 Y42.747 I0. J-0.6
N380 X71.25 I28.75 J0.
N385 X13.75 I-28.75 J0.
N390 X72.251 I29.25 J0.
N395 X12.75 I-29.75 J0.
N400 X72.251 I29.75 J0.
N405 X71.65 Y43.347 I-0.6 J0.
N410 G1 X71.05
N415 G18 G3 X70.451 Z-14.4 I0. K0.6
N420 G0 Z5.
N425 X15.55
N430 G1 Z-11. F333.33
N435 Z-17.4
N440 G3 X14.95 Z-18. I-0.6 K0. F1000.
N445 G1 X14.35
N450 G17 G3 X13.75 Y42.747 I0. J-0.6
N455 X71.25 I28.75 J0.
N460 X13.75 I-28.75 J0.
N465 X72.251 I29.25 J0.
N470 X12.75 I-29.75 J0.
N475 X72.251 I29.75 J0.
N480 X71.65 Y43.347 I-0.6 J0.
N485 G1 X71.05
N490 G18 G3 X70.451 Z-17.4 I0. K0.6
N495 G0 Z5.
N500 X15.55
N505 G1 Z-14. F333.33
N510 Z-20.4
N515 G3 X14.95 Z-21. I-0.6 K0. F1000.
N520 G1 X14.35
N525 G17 G3 X13.75 Y42.747 I0. J-0.6
N530 X71.25 I28.75 J0.
N535 X13.75 I-28.75 J0.
N540 X72.251 I29.25 J0.
N545 X12.75 I-29.75 J0.
N550 X72.251 I29.75 J0.
N555 X71.65 Y43.347 I-0.6 J0.
N560 G1 X71.05
N565 G18 G3 X70.451 Z-20.4 I0. K0.6
N570 G0 Z5.
N575 X15.55
N580 G1 Z-17. F333.33
N585 Z-23.4
N590 G3 X14.95 Z-24. I-0.6 K0. F1000.
N595 G1 X14.35
N600 G17 G3 X13.75 Y42.747 I0. J-0.6
N605 X71.25 I28.75 J0.
N610 X13.75 I-28.75 J0.
N615 X72.251 I29.25 J0.
N620 X12.75 I-29.75 J0.
N625 X72.251 I29.75 J0.
N630 X71.65 Y43.347 I-0.6 J0.
N635 G1 X71.05
N640 G18 G3 X70.451 Z-23.4 I0. K0.6
N645 G0 Z5.
N650 X15.55
N655 G1 Z-20. F333.33
N660 Z-26.4
N665 G3 X14.95 Z-27. I-0.6 K0. F1000.
N670 G1 X14.35
N675 G17 G3 X13.75 Y42.747 I0. J-0.6
N680 X71.25 I28.75 J0.
N685 X13.75 I-28.75 J0.
N690 X72.251 I29.25 J0.
N695 X12.75 I-29.75 J0.
N700 X72.251 I29.75 J0.
N705 X71.65 Y43.347 I-0.6 J0.
N710 G1 X71.05
N715 G18 G3 X70.451 Z-26.4 I0. K0.6
N720 G0 Z5.
N725 X15.55
N730 G1 Z-23. F333.33
N735 Z-29.4
N740 G3 X14.95 Z-30. I-0.6 K0. F1000.
N745 G1 X14.35
N750 G17 G3 X13.75 Y42.747 I0. J-0.6
N755 X71.25 I28.75 J0.
N760 X13.75 I-28.75 J0.
N765 X72.251 I29.25 J0.
N770 X12.75 I-29.75 J0.
N775 X72.251 I29.75 J0.
N780 X71.65 Y43.347 I-0.6 J0.
N785 G1 X71.05
N790 G18 G3 X70.451 Z-29.4 I0. K0.6
N795 G0 Z5.
N800 X15.55
N805 G1 Z-26. F333.33
N810 Z-32.4
N815 G3 X14.95 Z-33. I-0.6 K0. F1000.
N820 G1 X14.35
N825 G17 G3 X13.75 Y42.747 I0. J-0.6
N830 X71.25 I28.75 J0.
N835 X13.75 I-28.75 J0.
N840 X72.251 I29.25 J0.
N845 X12.75 I-29.75 J0.
N850 X72.251 I29.75 J0.
N855 X71.65 Y43.347 I-0.6 J0.
N860 G1 X71.05
N865 G18 G3 X70.451 Z-32.4 I0. K0.6
N870 G0 Z5.
N875 X15.55
N880 G1 Z-29. F333.33
N885 Z-35.4
N890 G3 X14.95 Z-36. I-0.6 K0. F1000.
N895 G1 X14.35
N900 G17 G3 X13.75 Y42.747 I0. J-0.6
N905 X71.25 I28.75 J0.
N910 X13.75 I-28.75 J0.
N915 X72.251 I29.25 J0.
N920 X12.75 I-29.75 J0.
N925 X72.251 I29.75 J0.
N930 X71.65 Y43.347 I-0.6 J0.
N935 G1 X71.05
N940 G18 G3 X70.451 Z-35.4 I0. K0.6
N945 G0 Z5.
N950 X15.55
N955 G1 Z-32. F333.33
N960 Z-38.4
N965 G3 X14.95 Z-39. I-0.6 K0. F1000.
N970 G1 X14.35
N975 G17 G3 X13.75 Y42.747 I0. J-0.6
N980 X18.376 Y27.108 I28.75 J0.
N985 G1 Z-37.
N990 G3 X26.861 Y18.623 I24.124 J15.639
N995 G1 Z-39. F333.33
N1000 G3 X58.14 I15.639 J24.124 F1000.
N1005 G1 Z-37.
N1010 G3 X66.625 Y27.108 I-15.639 J24.124
N1015 G1 Z-39. F333.33
N1020 G3 Y58.386 I-24.124 J15.639 F1000.
N1025 G1 Z-37.
N1030 G3 X58.139 Y66.871 I-24.124 J-15.639
N1035 G1 Z-39. F333.33
N1040 G3 X26.861 I-15.639 J-24.124 F1000.
N1045 G1 Z-37.
N1050 G3 X18.376 Y58.386 I15.639 J-24.124
N1055 G1 Z-39. F333.33
N1060 G3 X13.75 Y42.747 I24.124 J-15.639 F1000.
N1065 X18.319 Y27.051 I29.25 J0.
N1070 G1 Z-37.
N1075 G3 X26.699 Y18.461 I24.682 J15.696
N1080 G1 Z-39. F333.33
N1085 G3 X58.697 Y18.065 I16.301 J24.286 F1000.
N1090 G1 Z-37.
N1095 G3 X67.287 Y26.446 I-15.696 J24.682
N1100 G1 Z-39. F333.33
N1105 G3 X72.251 Y42.747 I-24.286 J16.301 F1000.
N1110 X67.347 Y59.109 I-29.75 J0.
N1115 G1 Z-37.
N1120 G3 X58.862 Y67.594 I-24.847 J-16.362
N1125 G1 Z-39. F333.33
N1130 G3 X26.139 I-16.361 J-24.847 F1000.
N1135 G1 Z-37.
N1140 G3 X17.654 Y59.109 I16.362 J-24.847
N1145 G1 Z-39. F333.33
N1150 G3 Y26.386 I24.847 J-16.362 F1000.
N1155 G1 Z-37.
N1160 G3 X26.139 Y17.9 I24.847 J16.361
N1165 G1 Z-39. F333.33
N1170 G3 X58.862 I16.362 J24.847 F1000.
N1175 G1 Z-37.
N1180 G3 X67.347 Y26.386 I-16.362 J24.847
N1185 G1 Z-39. F333.33
N1190 G3 X72.251 Y42.747 I-24.847 J16.362 F1000.
N1195 X71.65 Y43.347 I-0.6 J0.
N1200 G1 X71.05
N1205 G18 G3 X70.451 Z-38.4 I0. K0.6
N1210 G0 Z5.
N1215 X15.55
N1220 G1 Z-35. F333.33
N1225 Z-39.4
N1230 G3 X14.95 Z-40. I-0.6 K0. F1000.
N1235 G1 X14.35
N1240 G17 G3 X13.75 Y42.747 I0. J-0.6
N1245 X18.376 Y27.108 I28.75 J0.
N1250 G1 Z-37.
N1255 G3 X26.861 Y18.623 I24.124 J15.639
N1260 G1 Z-40. F333.33
N1265 G3 X58.14 I15.639 J24.124 F1000.
N1270 G1 Z-37.
N1275 G3 X66.625 Y27.108 I-15.639 J24.124
N1280 G1 Z-40. F333.33
N1285 G3 Y58.386 I-24.124 J15.639 F1000.
N1290 G1 Z-37.
N1295 G3 X58.139 Y66.871 I-24.124 J-15.639
N1300 G1 Z-40. F333.33
N1305 G3 X26.861 I-15.639 J-24.124 F1000.
N1310 G1 Z-37.
N1315 G3 X18.376 Y58.386 I15.639 J-24.124
N1320 G1 Z-40. F333.33
N1325 G3 X13.75 Y42.747 I24.124 J-15.639 F1000.
N1330 X18.319 Y27.051 I29.25 J0.
N1335 G1 Z-37.
N1340 G3 X26.699 Y18.461 I24.682 J15.696
N1345 G1 Z-40. F333.33
N1350 G3 X58.697 Y18.065 I16.301 J24.286 F1000.
N1355 G1 Z-37.
N1360 G3 X67.287 Y26.446 I-15.696 J24.682
N1365 G1 Z-40. F333.33
N1370 G3 X72.251 Y42.747 I-24.286 J16.301 F1000.
N1375 X67.347 Y59.109 I-29.75 J0.
N1380 G1 Z-37.
N1385 G3 X58.862 Y67.594 I-24.847 J-16.362
N1390 G1 Z-40. F333.33
N1395 G3 X26.139 I-16.361 J-24.847 F1000.
N1400 G1 Z-37.
N1405 G3 X17.654 Y59.109 I16.362 J-24.847
N1410 G1 Z-40. F333.33
N1415 G3 Y26.386 I24.847 J-16.362 F1000.
N1420 G1 Z-37.
N1425 G3 X26.139 Y17.9 I24.847 J16.361
N1430 G1 Z-40. F333.33
N1435 G3 X58.862 I16.362 J24.847 F1000.
N1440 G1 Z-37.
N1445 G3 X67.347 Y26.386 I-16.362 J24.847
N1450 G1 Z-40. F333.33
N1455 G3 X72.251 Y42.747 I-24.847 J16.362 F1000.
N1460 X71.65 Y43.347 I-0.6 J0.
N1465 G1 X71.05
N1470 G18 G3 X70.451 Z-39.4 I0. K0.6
N1475 G0 Z15.
N1480 G17
N1485 G53 G0 Z0.
N1490 M30
%
