%
(INSIDE_CLEARING)
(T1  D=6. CR=0. - ZMIN=-19. - FLAT END MILL)
N10 G90 G94 G17 G91.1
N15 G21
N20 G53 G0 Z0.
(ADAPTIVE2)
N25 T1 M6
N30 S12000 M3
N35 G54
N40 G0 X43.302 Y45.482
N45 G43 Z15. H1
N50 G0 Z5.
N55 Z2.5
N60 G3 X41.699 Y40.012 Z2.187 I-0.801 J-2.735 F333.33
N65 X43.302 Y45.482 Z1.875 I0.801 J2.735
N70 X41.699 Y40.012 Z1.562 I-0.801 J-2.735
N75 X43.302 Y45.482 Z1.249 I0.801 J2.735
N80 X41.699 Y40.012 Z0.937 I-0.801 J-2.735
N85 X43.302 Y45.482 Z0.624 I0.801 J2.735
N90 X41.699 Y40.012 Z0.311 I-0.801 J-2.735
N95 X43.302 Y45.482 Z-0.001 I0.801 J2.735
N100 X41.699 Y40.012 Z-0.314 I-0.801 J-2.735
N105 X43.302 Y45.482 Z-0.627 I0.801 J2.735
N110 X41.699 Y40.012 Z-0.939 I-0.801 J-2.735
N115 X43.302 Y45.482 Z-1.252 I0.801 J2.735
N120 X41.699 Y40.012 Z-1.565 I-0.801 J-2.735
N125 X43.302 Y45.482 Z-1.877 I0.801 J2.735
N130 X41.699 Y40.012 Z-2.19 I-0.801 J-2.735
N135 X43.302 Y45.482 Z-2.503 I0.801 J2.735
N140 X41.699 Y40.012 Z-2.815 I-0.801 J-2.735
N145 X45.351 Y42.747 Z-3. I0.801 J2.735
N150 X39.651 I-2.85 J0.
N155 X45.351 I2.85 J0.
N160 G1 X45.354 Y43.003 F1000.
N165 X45.555 Y44.008
N170 X45.587 Y44.154
N175 X45.604 Y44.303
N180 X45.606 Y44.453
N185 X45.596 Y44.608
N190 X45.572 Y44.772
N195 X45.532 Y44.945
N200 X45.476 Y45.124
N205 X45.401 Y45.308
N210 X45.306 Y45.495
N215 X45.191 Y45.684
N220 X45.056 Y45.87
N225 X44.899 Y46.053
N230 X44.721 Y46.23
N235 X44.523 Y46.398
N240 X44.304 Y46.555
N245 X44.066 Y46.698
N250 X43.81 Y46.825
N255 X43.538 Y46.934
N260 X43.25 Y47.023
N265 X42.951 Y47.09
N270 X42.64 Y47.133
N275 X42.322 Y47.152
N280 X41.998 Y47.145
N285 X41.671 Y47.112
N290 X41.344 Y47.052
N295 X41.019 Y46.964
N300 X40.698 Y46.85
N305 X40.385 Y46.709
N310 X40.082 Y46.542
N315 X39.791 Y46.35
N320 X39.515 Y46.134
N325 X39.256 Y45.895
N330 X39.015 Y45.635
N335 X38.796 Y45.355
N340 X38.598 Y45.058
N345 X38.425 Y44.744
N350 X38.277 Y44.417
N355 X38.155 Y44.078
N360 X38.061 Y43.729
N365 X37.995 Y43.374
N370 X37.957 Y43.013
N375 X37.949 Y42.651
N380 X37.97 Y42.288
N385 X38.02 Y41.928
N390 X38.098 Y41.572
N395 X38.206 Y41.224
N400 X38.34 Y40.885
N405 X38.502 Y40.558
N410 X38.689 Y40.244
N415 X38.902 Y39.947
N420 X39.137 Y39.668
N425 X39.394 Y39.408
N430 X39.672 Y39.169
N435 X39.967 Y38.954
N440 X40.279 Y38.763
N445 X40.606 Y38.597
N450 X40.945 Y38.459
N455 X41.294 Y38.347
N460 X41.65 Y38.265
N465 X42.013 Y38.211
N470 X42.378 Y38.186
N475 X42.744 Y38.191
N480 X43.109 Y38.225
N485 X43.47 Y38.288
N490 X43.825 Y38.38
N495 X44.171 Y38.501
N500 X44.506 Y38.648
N505 X44.829 Y38.822
N510 X45.136 Y39.022
N515 X45.426 Y39.245
N520 X45.698 Y39.491
N525 X45.949 Y39.758
N530 X46.178 Y40.045
N535 X46.383 Y40.348
N540 X46.701 Y40.913
N545 X47.022 Y41.606
N550 X47.22 Y42.147
N555 X47.356 Y42.63
N560 X47.443 Y43.078
N565 X47.491 Y43.511
N570 X47.504 Y43.93
N575 X47.484 Y44.337
N580 X47.433 Y44.733
N585 X47.35 Y45.12
N590 X47.237 Y45.499
N595 X47.094 Y45.867
N600 X46.921 Y46.224
N605 X46.719 Y46.569
N610 X46.488 Y46.899
N615 X46.228 Y47.212
N620 X45.941 Y47.507
N625 X45.628 Y47.78
N630 X45.289 Y48.032
N635 X44.926 Y48.258
N640 X44.541 Y48.457
N645 X44.135 Y48.627
N650 X43.712 Y48.766
N655 X43.273 Y48.872
N660 X42.821 Y48.943
N665 X42.36 Y48.978
N670 X41.893 Y48.976
N675 X41.423 Y48.936
N680 X40.954 Y48.857
N685 X40.488 Y48.74
N690 X40.03 Y48.585
N695 X39.583 Y48.393
N700 X39.15 Y48.164
N705 X38.734 Y47.899
N710 X38.338 Y47.6
N715 X37.966 Y47.268
N720 X37.62 Y46.906
N725 X37.303 Y46.516
N730 X37.018 Y46.1
N735 X36.765 Y45.661
N740 X36.548 Y45.201
N745 X36.368 Y44.725
N750 X36.227 Y44.234
N755 X36.125 Y43.732
N760 X36.064 Y43.223
N765 X36.044 Y42.71
N770 X36.065 Y42.196
N775 X36.127 Y41.684
N780 X36.23 Y41.179
N785 X36.374 Y40.683
N790 X36.557 Y40.199
N795 X36.778 Y39.732
N800 X37.037 Y39.283
N805 X37.331 Y38.857
N810 X37.658 Y38.455
N815 X38.017 Y38.08
N820 X38.405 Y37.736
N825 X38.819 Y37.423
N830 X39.257 Y37.145
N835 X39.716 Y36.903
N840 X40.194 Y36.698
N845 X40.686 Y36.532
N850 X41.19 Y36.406
N855 X41.703 Y36.321
N860 X42.221 Y36.278
N865 X42.74 Y36.276
N870 X43.259 Y36.316
N875 X43.772 Y36.397
N880 X44.278 Y36.52
N885 X44.772 Y36.682
N890 X45.251 Y36.884
N895 X45.713 Y37.123
N900 X46.153 Y37.399
N905 X46.571 Y37.71
N910 X47.004 Y38.089
N915 X47.446 Y38.544
N920 X47.86 Y39.045
N925 X48.242 Y39.592
N930 X48.579 Y40.167
N935 X48.862 Y40.754
N940 X49.091 Y41.347
N945 X49.268 Y41.941
N950 X49.393 Y42.534
N955 X49.469 Y43.125
N960 X49.497 Y43.711
N965 X49.479 Y44.292
N970 X49.414 Y44.864
N975 X49.304 Y45.425
N980 X49.15 Y45.973
N985 X48.953 Y46.506
N990 X48.714 Y47.022
N995 X48.433 Y47.518
N1000 X48.113 Y47.991
N1005 X47.754 Y48.439
N1010 X47.358 Y48.859
N1015 X46.927 Y49.249
N1020 X46.462 Y49.605
N1025 X45.966 Y49.926
N1030 X45.442 Y50.208
N1035 X44.892 Y50.45
N1040 X44.32 Y50.648
N1045 X43.728 Y50.8
N1050 X43.122 Y50.906
N1055 X42.505 Y50.963
N1060 X41.88 Y50.97
N1065 X41.253 Y50.927
N1070 X40.627 Y50.833
N1075 X40.007 Y50.688
N1080 X39.396 Y50.493
N1085 X38.8 Y50.248
N1090 X38.222 Y49.954
N1095 X37.667 Y49.613
N1100 X37.139 Y49.227
N1105 X36.641 Y48.798
N1110 X36.177 Y48.328
N1115 X35.751 Y47.821
N1120 X35.365 Y47.279
N1125 X35.023 Y46.706
N1130 X34.728 Y46.106
N1135 X34.481 Y45.483
N1140 X34.284 Y44.84
N1145 X34.139 Y44.182
N1150 X34.047 Y43.513
N1155 X34.01 Y42.838
N1160 X34.026 Y42.162
N1165 X34.097 Y41.488
N1170 X34.222 Y40.821
N1175 X34.4 Y40.165
N1180 X34.63 Y39.526
N1185 X34.911 Y38.906
N1190 X35.242 Y38.311
N1195 X35.619 Y37.743
N1200 X36.041 Y37.208
N1205 X36.504 Y36.708
N1210 X37.007 Y36.246
N1215 X37.545 Y35.826
N1220 X38.115 Y35.451
N1225 X38.713 Y35.122
N1230 X39.336 Y34.843
N1235 X39.98 Y34.614
N1240 X40.64 Y34.438
N1245 X41.313 Y34.315
N1250 X41.993 Y34.247
N1255 X42.676 Y34.233
N1260 X43.358 Y34.275
N1265 X44.035 Y34.37
N1270 X44.702 Y34.52
N1275 X45.355 Y34.723
N1280 X45.99 Y34.978
N1285 X46.614 Y35.289
N1290 X47.233 Y35.662
N1295 X47.837 Y36.096
N1300 X48.422 Y36.592
N1305 X48.976 Y37.144
N1310 X49.49 Y37.746
N1315 X49.956 Y38.39
N1320 X50.368 Y39.067
N1325 X50.723 Y39.772
N1330 X51.017 Y40.497
N1335 X51.25 Y41.237
N1340 X51.422 Y41.987
N1345 X51.532 Y42.743
N1350 X51.58 Y43.498
N1355 X51.568 Y44.251
N1360 X51.496 Y44.995
N1365 X51.365 Y45.729
N1370 X51.176 Y46.447
N1375 X50.931 Y47.147
N1380 X50.63 Y47.824
N1385 X50.275 Y48.476
N1390 X49.869 Y49.098
N1395 X49.412 Y49.688
N1400 X48.908 Y50.241
N1405 X48.359 Y50.754
N1410 X47.767 Y51.223
N1415 X47.136 Y51.646
N1420 X46.47 Y52.019
N1425 X45.771 Y52.34
N1430 X45.044 Y52.605
N1435 X44.295 Y52.811
N1440 X43.526 Y52.958
N1445 X42.744 Y53.043
N1450 X41.953 Y53.066
N1455 X41.158 Y53.024
N1460 X40.365 Y52.918
N1465 X39.579 Y52.749
N1470 X38.806 Y52.515
N1475 X38.05 Y52.219
N1480 X37.317 Y51.861
N1485 X36.612 Y51.444
N1490 X35.94 Y50.97
N1495 X35.306 Y50.442
N1500 X34.715 Y49.862
N1505 X34.17 Y49.235
N1510 X33.676 Y48.564
N1515 X33.236 Y47.854
N1520 X32.854 Y47.109
N1525 X32.532 Y46.334
N1530 X32.272 Y45.534
N1535 X32.078 Y44.714
N1540 X31.949 Y43.88
N1545 X31.888 Y43.036
N1550 X31.895 Y42.19
N1555 X31.97 Y41.346
N1560 X32.112 Y40.509
N1565 X32.321 Y39.686
N1570 X32.596 Y38.882
N1575 X32.935 Y38.102
N1580 X33.335 Y37.351
N1585 X33.795 Y36.634
N1590 X34.311 Y35.956
N1595 X34.881 Y35.321
N1600 X35.499 Y34.734
N1605 X36.163 Y34.198
N1610 X36.868 Y33.717
N1615 X37.609 Y33.294
N1620 X38.383 Y32.932
N1625 X39.183 Y32.633
N1630 X40.004 Y32.399
N1635 X40.842 Y32.231
N1640 X41.691 Y32.132
N1645 X42.545 Y32.101
N1650 X43.399 Y32.138
N1655 X44.247 Y32.244
N1660 X45.086 Y32.418
N1665 X45.915 Y32.661
N1670 X46.73 Y32.973
N1675 X47.528 Y33.354
N1680 X48.305 Y33.806
N1685 X49.058 Y34.328
N1690 X49.779 Y34.918
N1695 X50.457 Y35.573
N1700 X51.087 Y36.285
N1705 X51.659 Y37.049
N1710 X52.168 Y37.857
N1715 X52.61 Y38.701
N1720 X52.982 Y39.575
N1725 X53.281 Y40.473
N1730 X53.506 Y41.387
N1735 X53.656 Y42.311
N1740 X53.731 Y43.24
N1745 X53.732 Y44.167
N1750 X53.658 Y45.088
N1755 X53.511 Y45.997
N1760 X53.292 Y46.889
N1765 X53.002 Y47.76
N1770 X52.644 Y48.604
N1775 X52.219 Y49.417
N1780 X51.729 Y50.195
N1785 X51.177 Y50.932
N1790 X50.567 Y51.624
N1795 X49.901 Y52.267
N1800 X49.182 Y52.857
N1805 X48.415 Y53.389
N1810 X47.605 Y53.86
N1815 X46.755 Y54.267
N1820 X45.872 Y54.605
N1825 X44.96 Y54.873
N1830 X44.024 Y55.068
N1835 X43.072 Y55.188
N1840 X42.109 Y55.231
N1845 X41.141 Y55.196
N1850 X40.175 Y55.083
N1855 X39.216 Y54.893
N1860 X38.273 Y54.624
N1865 X37.35 Y54.28
N1870 X36.454 Y53.861
N1875 X35.592 Y53.37
N1880 X34.77 Y52.81
N1885 X33.992 Y52.183
N1890 X33.266 Y51.494
N1895 X32.595 Y50.747
N1900 X31.984 Y49.946
N1905 X31.439 Y49.097
N1910 X30.963 Y48.205
N1915 X30.559 Y47.276
N1920 X30.23 Y46.315
N1925 X29.979 Y45.33
N1930 X29.807 Y44.326
N1935 X29.717 Y43.31
N1940 X29.708 Y42.29
N1945 X29.781 Y41.27
N1950 X29.936 Y40.259
N1955 X30.172 Y39.262
N1960 X30.487 Y38.288
N1965 X30.88 Y37.342
N1970 X31.347 Y36.43
N1975 X31.885 Y35.559
N1980 X32.492 Y34.733
N1985 X33.162 Y33.959
N1990 X33.893 Y33.241
N1995 X34.678 Y32.583
N2000 X35.514 Y31.991
N2005 X36.394 Y31.467
N2010 X37.313 Y31.015
N2015 X38.265 Y30.638
N2020 X39.245 Y30.338
N2025 X40.245 Y30.118
N2030 X41.26 Y29.977
N2035 X42.282 Y29.919
N2040 X43.306 Y29.942
N2045 X44.325 Y30.047
N2050 X45.332 Y30.232
N2055 X46.322 Y30.497
N2060 X47.288 Y30.838
N2065 X48.224 Y31.253
N2070 X49.126 Y31.739
N2075 X49.988 Y32.292
N2080 X50.807 Y32.907
N2085 X51.578 Y33.582
N2090 X52.295 Y34.313
N2095 X52.957 Y35.095
N2100 X53.559 Y35.924
N2105 X54.098 Y36.794
N2110 X54.573 Y37.702
N2115 X54.981 Y38.641
N2120 X55.319 Y39.608
N2125 X55.586 Y40.597
N2130 X55.78 Y41.603
N2135 X55.899 Y42.62
N2140 X55.943 Y43.643
N2145 X55.911 Y44.667
N2150 X55.801 Y45.686
N2155 X55.614 Y46.693
N2160 X55.353 Y47.683
N2165 X55.017 Y48.651
N2170 X54.609 Y49.59
N2175 X54.133 Y50.497
N2180 X53.589 Y51.365
N2185 X52.983 Y52.191
N2190 X52.317 Y52.969
N2195 X51.594 Y53.695
N2200 X50.82 Y54.366
N2205 X49.999 Y54.978
N2210 X49.135 Y55.528
N2215 X48.233 Y56.013
N2220 X47.297 Y56.429
N2225 X46.333 Y56.775
N2230 X45.346 Y57.048
N2235 X44.341 Y57.249
N2240 X43.325 Y57.377
N2245 X42.302 Y57.431
N2250 X41.278 Y57.413
N2255 X40.258 Y57.322
N2260 X39.246 Y57.16
N2265 X38.249 Y56.925
N2270 X37.272 Y56.618
N2275 X36.319 Y56.242
N2280 X35.396 Y55.799
N2285 X34.505 Y55.293
N2290 X33.652 Y54.727
N2295 X32.84 Y54.103
N2300 X32.072 Y53.424
N2305 X31.355 Y52.693
N2310 X30.691 Y51.913
N2315 X30.085 Y51.087
N2320 X29.536 Y50.222
N2325 X29.049 Y49.321
N2330 X28.623 Y48.39
N2335 X28.262 Y47.431
N2340 X27.968 Y46.45
N2345 X27.744 Y45.451
N2350 X27.591 Y44.438
N2355 X27.507 Y43.417
N2360 X27.493 Y42.393
N2365 X27.547 Y41.37
N2370 X27.67 Y40.353
N2375 X27.864 Y39.347
N2380 X28.128 Y38.358
N2385 X28.46 Y37.389
N2390 X28.857 Y36.444
N2395 X29.316 Y35.529
N2400 X29.836 Y34.646
N2405 X30.414 Y33.801
N2410 X31.05 Y32.997
N2415 X31.74 Y32.241
N2420 X32.48 Y31.533
N2425 X33.267 Y30.877
N2430 X34.096 Y30.275
N2435 X34.963 Y29.73
N2440 X35.865 Y29.245
N2445 X36.799 Y28.824
N2450 X37.76 Y28.469
N2455 X38.743 Y28.181
N2460 X39.743 Y27.96
N2465 X40.755 Y27.805
N2470 X41.776 Y27.719
N2475 X42.8 Y27.702
N2480 X43.823 Y27.758
N2485 X44.84 Y27.883
N2490 X45.845 Y28.077
N2495 X46.836 Y28.338
N2500 X47.807 Y28.663
N2505 X48.755 Y29.051
N2510 X49.676 Y29.5
N2515 X50.564 Y30.01
N2520 X51.416 Y30.578
N2525 X52.23 Y31.2
N2530 X53.003 Y31.872
N2535 X53.731 Y32.592
N2540 X54.413 Y33.357
N2545 X55.045 Y34.163
N2550 X55.623 Y35.008
N2555 X56.146 Y35.889
N2560 X56.612 Y36.802
N2565 X57.019 Y37.741
N2570 X57.368 Y38.704
N2575 X57.656 Y39.687
N2580 X57.883 Y40.686
N2585 X58.045 Y41.697
N2590 X58.14 Y42.717
N2595 X58.169 Y43.741
N2600 X58.133 Y44.765
N2605 X58.031 Y45.784
N2610 X57.865 Y46.795
N2615 X57.635 Y47.793
N2620 X57.34 Y48.774
N2625 X56.981 Y49.733
N2630 X56.559 Y50.667
N2635 X56.079 Y51.571
N2640 X55.542 Y52.444
N2645 X54.952 Y53.28
N2650 X54.31 Y54.079
N2655 X53.617 Y54.833
N2660 X52.877 Y55.541
N2665 X52.092 Y56.2
N2670 X51.267 Y56.807
N2675 X50.406 Y57.361
N2680 X49.512 Y57.86
N2685 X48.588 Y58.302
N2690 X47.637 Y58.684
N2695 X46.664 Y59.003
N2700 X45.672 Y59.26
N2705 X44.666 Y59.453
N2710 X43.65 Y59.584
N2715 X42.628 Y59.652
N2720 X41.604 Y59.658
N2725 X40.581 Y59.602
N2730 X39.564 Y59.482
N2735 X38.557 Y59.297
N2740 X37.563 Y59.049
N2745 X36.586 Y58.74
N2750 X35.63 Y58.372
N2755 X34.698 Y57.948
N2760 X33.793 Y57.468
N2765 X32.919 Y56.935
N2770 X32.079 Y56.348
N2775 X31.277 Y55.711
N2780 X30.516 Y55.026
N2785 X29.797 Y54.296
N2790 X29.124 Y53.524
N2795 X28.498 Y52.713
N2800 X27.921 Y51.867
N2805 X27.396 Y50.987
N2810 X26.927 Y50.077
N2815 X26.512 Y49.14
N2820 X26.155 Y48.18
N2825 X25.857 Y47.2
N2830 X25.616 Y46.205
N2835 X25.436 Y45.197
N2840 X25.315 Y44.179
N2845 X25.256 Y43.157
N2850 X25.259 Y42.132
N2855 X25.324 Y41.11
N2860 X25.449 Y40.094
N2865 X25.634 Y39.086
N2870 X25.878 Y38.091
N2875 X26.18 Y37.113
N2880 X26.54 Y36.154
N2885 X26.958 Y35.219
N2890 X27.431 Y34.31
N2895 X27.957 Y33.431
N2900 X28.534 Y32.585
N2905 X29.16 Y31.774
N2910 X29.833 Y31.002
N2915 X30.549 Y30.27
N2920 X31.309 Y29.583
N2925 X32.108 Y28.943
N2930 X32.945 Y28.351
N2935 X33.814 Y27.81
N2940 X34.714 Y27.321
N2945 X35.642 Y26.886
N2950 X36.593 Y26.507
N2955 X37.565 Y26.184
N2960 X38.555 Y25.92
N2965 X39.559 Y25.716
N2970 X40.573 Y25.572
N2975 X41.594 Y25.488
N2980 X42.618 Y25.465
N2985 X43.641 Y25.501
N2990 X44.661 Y25.597
N2995 X45.673 Y25.754
N3000 X46.675 Y25.97
N3005 X47.661 Y26.246
N3010 X48.63 Y26.578
N3015 X49.578 Y26.965
N3020 X50.503 Y27.406
N3025 X51.401 Y27.899
N3030 X52.27 Y28.441
N3035 X53.106 Y29.033
N3040 X53.907 Y29.671
N3045 X54.669 Y30.355
N3050 X55.393 Y31.08
N3055 X56.075 Y31.844
N3060 X56.713 Y32.645
N3065 X57.306 Y33.48
N3070 X57.852 Y34.347
N3075 X58.35 Y35.242
N3080 X58.795 Y36.165
N3085 X59.189 Y37.11
N3090 X59.529 Y38.076
N3095 X59.816 Y39.06
N3100 X60.048 Y40.057
N3105 X60.224 Y41.066
N3110 X60.344 Y42.083
N3115 X60.408 Y43.106
N3120 X60.412 Y44.13
N3125 X60.358 Y45.153
N3130 X60.246 Y46.171
N3135 X60.078 Y47.181
N3140 X59.852 Y48.181
N3145 X59.571 Y49.166
N3150 X59.235 Y50.133
N3155 X58.846 Y51.08
N3160 X58.402 Y52.004
N3165 X57.906 Y52.9
N3170 X57.361 Y53.767
N3175 X56.768 Y54.602
N3180 X56.13 Y55.403
N3185 X55.447 Y56.167
N3190 X54.724 Y56.892
N3195 X53.961 Y57.576
N3200 X53.16 Y58.215
N3205 X52.325 Y58.807
N3210 X51.457 Y59.352
N3215 X50.561 Y59.847
N3220 X49.638 Y60.293
N3225 X48.693 Y60.686
N3230 X47.727 Y61.026
N3235 X46.743 Y61.313
N3240 X45.745 Y61.544
N3245 X44.736 Y61.719
N3250 X43.719 Y61.838
N3255 X42.697 Y61.902
N3260 X41.672 Y61.91
N3265 X40.649 Y61.863
N3270 X39.63 Y61.761
N3275 X38.618 Y61.603
N3280 X37.616 Y61.39
N3285 X36.628 Y61.122
N3290 X35.655 Y60.8
N3295 X34.702 Y60.425
N3300 X33.77 Y60.001
N3305 X32.861 Y59.527
N3310 X31.98 Y59.006
N3315 X31.127 Y58.439
N3320 X30.305 Y57.827
N3325 X29.519 Y57.171
N3330 X28.769 Y56.473
N3335 X28.059 Y55.735
N3340 X27.388 Y54.961
N3345 X26.759 Y54.153
N3350 X26.173 Y53.312
N3355 X25.633 Y52.442
N3360 X25.139 Y51.545
N3365 X24.693 Y50.623
N3370 X24.299 Y49.677
N3375 X23.955 Y48.712
N3380 X23.664 Y47.73
N3385 X23.424 Y46.735
N3390 X23.237 Y45.727
N3395 X23.103 Y44.712
N3400 X23.022 Y43.691
N3405 X22.994 Y42.667
N3410 X23.022 Y41.643
N3415 X23.104 Y40.622
N3420 X23.241 Y39.607
N3425 X23.431 Y38.601
N3430 X23.673 Y37.605
N3435 X23.967 Y36.624
N3440 X24.311 Y35.659
N3445 X24.706 Y34.714
N3450 X25.149 Y33.791
N3455 X25.641 Y32.892
N3460 X26.18 Y32.022
N3465 X26.765 Y31.181
N3470 X27.393 Y30.371
N3475 X28.062 Y29.596
N3480 X28.771 Y28.856
N3485 X29.517 Y28.154
N3490 X30.298 Y27.492
N3495 X31.114 Y26.872
N3500 X31.961 Y26.297
N3505 X32.838 Y25.768
N3510 X33.741 Y25.285
N3515 X34.669 Y24.85
N3520 X35.617 Y24.464
N3525 X36.585 Y24.127
N3530 X37.569 Y23.842
N3535 X38.566 Y23.607
N3540 X39.574 Y23.427
N3545 X40.59 Y23.3
N3550 X41.612 Y23.228
N3555 X42.636 Y23.208
N3560 X43.66 Y23.242
N3565 X44.68 Y23.329
N3570 X45.695 Y23.468
N3575 X46.701 Y23.66
N3580 X47.696 Y23.903
N3585 X48.677 Y24.198
N3590 X49.641 Y24.545
N3595 X50.586 Y24.94
N3600 X51.51 Y25.383
N3605 X52.41 Y25.872
N3610 X53.284 Y26.405
N3615 X54.131 Y26.982
N3620 X54.947 Y27.601
N3625 X55.732 Y28.259
N3630 X56.481 Y28.957
N3635 X57.195 Y29.692
N3640 X57.87 Y30.462
N3645 X58.506 Y31.265
N3650 X59.103 Y32.097
N3655 X59.657 Y32.958
N3660 X60.169 Y33.846
N3665 X60.637 Y34.757
N3670 X61.059 Y35.69
N3675 X61.433 Y36.644
N3680 X61.759 Y37.615
N3685 X62.037 Y38.601
N3690 X62.265 Y39.599
N3695 X62.444 Y40.608
N3700 X62.573 Y41.624
N3705 X62.651 Y42.645
N3710 X62.679 Y43.669
N3715 X62.656 Y44.693
N3720 X62.58 Y45.715
N3725 X62.453 Y46.731
N3730 X62.274 Y47.74
N3735 X62.045 Y48.738
N3740 X61.766 Y49.724
N3745 X61.439 Y50.694
N3750 X61.064 Y51.647
N3755 X60.641 Y52.58
N3760 X60.173 Y53.491
N3765 X59.659 Y54.377
N3770 X59.101 Y55.236
N3775 X58.499 Y56.065
N3780 X57.858 Y56.864
N3785 X57.177 Y57.629
N3790 X56.46 Y58.361
N3795 X55.708 Y59.055
N3800 X54.921 Y59.712
N3805 X54.104 Y60.329
N3810 X53.256 Y60.904
N3815 X52.38 Y61.435
N3820 X51.479 Y61.921
N3825 X50.554 Y62.362
N3830 X49.609 Y62.758
N3835 X48.646 Y63.106
N3840 X47.667 Y63.407
N3845 X46.674 Y63.659
N3850 X45.671 Y63.863
N3855 X44.658 Y64.017
N3860 X43.639 Y64.12
N3865 X42.616 Y64.173
N3870 X41.592 Y64.175
N3875 X40.568 Y64.129
N3880 X39.549 Y64.033
N3885 X38.535 Y63.888
N3890 X37.529 Y63.694
N3895 X36.534 Y63.451
N3900 X35.551 Y63.161
N3905 X34.585 Y62.822
N3910 X33.636 Y62.437
N3915 X32.707 Y62.006
N3920 X31.799 Y61.531
N3925 X30.915 Y61.014
N3930 X30.056 Y60.455
N3935 X29.225 Y59.856
N3940 X28.424 Y59.218
N3945 X27.654 Y58.543
N3950 X26.918 Y57.831
N3955 X26.217 Y57.083
N3960 X25.554 Y56.303
N3965 X24.928 Y55.493
N3970 X24.34 Y54.653
N3975 X23.793 Y53.787
N3980 X23.288 Y52.897
N3985 X22.824 Y51.983
N3990 X22.405 Y51.049
N3995 X22.031 Y50.095
N4000 X21.704 Y49.125
N4005 X21.423 Y48.139
N4010 X21.19 Y47.142
N4015 X21.004 Y46.135
N4020 X20.865 Y45.12
N4025 X20.773 Y44.1
N4030 X20.73 Y43.076
N4035 X20.734 Y42.052
N4040 X20.787 Y41.029
N4045 X20.889 Y40.01
N4050 X21.04 Y38.997
N4055 X21.239 Y37.992
N4060 X21.485 Y36.998
N4065 X21.778 Y36.016
N4070 X22.115 Y35.049
N4075 X22.497 Y34.099
N4080 X22.924 Y33.167
N4085 X23.393 Y32.257
N4090 X23.905 Y31.37
N4095 X24.459 Y30.509
N4100 X25.054 Y29.675
N4105 X25.688 Y28.87
N4110 X26.358 Y28.095
N4115 X27.064 Y27.353
N4120 X27.803 Y26.644
N4125 X28.574 Y25.97
N4130 X29.377 Y25.333
N4135 X30.208 Y24.735
N4140 X31.067 Y24.177
N4145 X31.951 Y23.66
N4150 X32.859 Y23.187
N4155 X33.789 Y22.756
N4160 X34.737 Y22.369
N4165 X35.703 Y22.027
N4170 X36.683 Y21.73
N4175 X37.676 Y21.479
N4180 X38.679 Y21.274
N4185 X39.692 Y21.117
N4190 X40.71 Y21.009
N4195 X41.733 Y20.949
N4200 X42.757 Y20.938
N4205 X43.781 Y20.974
N4210 X44.801 Y21.058
N4215 X45.817 Y21.189
N4220 X46.826 Y21.366
N4225 X47.826 Y21.59
N4230 X48.814 Y21.86
N4235 X49.788 Y22.175
N4240 X50.747 Y22.537
N4245 X51.687 Y22.942
N4250 X52.608 Y23.391
N4255 X53.508 Y23.88
N4260 X54.384 Y24.41
N4265 X55.236 Y24.979
N4270 X56.062 Y25.585
N4275 X56.859 Y26.228
N4280 X57.627 Y26.906
N4285 X58.363 Y27.619
N4290 X59.065 Y28.364
N4295 X59.733 Y29.141
N4300 X60.365 Y29.947
N4305 X60.96 Y30.781
N4310 X61.518 Y31.639
N4315 X62.038 Y32.522
N4320 X62.518 Y33.427
N4325 X62.958 Y34.352
N4330 X63.357 Y35.295
N4335 X63.712 Y36.256
N4340 X64.023 Y37.232
N4345 X64.29 Y38.221
N4350 X64.512 Y39.221
N4355 X64.689 Y40.23
N4360 X64.821 Y41.245
N4365 X64.909 Y42.266
N4370 X64.95 Y43.289
N4375 X64.946 Y44.314
N4380 X64.896 Y45.337
N4385 X64.8 Y46.356
N4390 X64.656 Y47.371
N4395 X64.466 Y48.377
N4400 X64.231 Y49.374
N4405 X63.951 Y50.359
N4410 X63.627 Y51.331
N4415 X63.261 Y52.287
N4420 X62.852 Y53.227
N4425 X62.401 Y54.146
N4430 X61.91 Y55.045
N4435 X61.378 Y55.921
N4440 X60.806 Y56.77
N4445 X60.196 Y57.593
N4450 X59.55 Y58.388
N4455 X58.869 Y59.153
N4460 X58.154 Y59.887
N4465 X57.408 Y60.588
N4470 X56.631 Y61.256
N4475 X55.826 Y61.888
N4480 X54.993 Y62.484
N4485 X54.133 Y63.042
N4490 X53.249 Y63.559
N4495 X52.343 Y64.036
N4500 X51.416 Y64.472
N4505 X50.47 Y64.866
N4510 X49.508 Y65.217
N4515 X48.532 Y65.527
N4520 X47.543 Y65.793
N4525 X46.543 Y66.016
N4530 X45.534 Y66.194
N4535 X44.519 Y66.327
N4540 X43.498 Y66.414
N4545 X42.475 Y66.456
N4550 X41.45 Y66.452
N4555 X40.427 Y66.403
N4560 X39.407 Y66.31
N4565 X38.392 Y66.172
N4570 X37.384 Y65.991
N4575 X36.385 Y65.766
N4580 X35.396 Y65.498
N4585 X34.42 Y65.187
N4590 X33.459 Y64.832
N4595 X32.515 Y64.435
N4600 X31.589 Y63.997
N4605 X30.683 Y63.52
N4610 X29.798 Y63.004
N4615 X28.937 Y62.45
N4620 X28.099 Y61.86
N4625 X27.288 Y61.235
N4630 X26.504 Y60.575
N4635 X25.75 Y59.882
N4640 X25.027 Y59.157
N4645 X24.336 Y58.4
N4650 X23.68 Y57.614
N4655 X23.058 Y56.801
N4660 X22.471 Y55.961
N4665 X21.92 Y55.098
N4670 X21.407 Y54.211
N4675 X20.931 Y53.304
N4680 X20.495 Y52.377
N4685 X20.099 Y51.433
N4690 X19.744 Y50.472
N4695 X19.431 Y49.496
N4700 X19.162 Y48.508
N4705 X18.935 Y47.509
N4710 X18.751 Y46.502
N4715 X18.61 Y45.487
N4720 X18.512 Y44.468
N4725 X18.457 Y43.445
N4730 X18.446 Y42.421
N4735 X18.478 Y41.397
N4740 X18.553 Y40.375
N4745 X18.673 Y39.358
N4750 X18.837 Y38.347
N4755 X19.045 Y37.344
N4760 X19.296 Y36.351
N4765 X19.588 Y35.369
N4770 X19.922 Y34.401
N4775 X20.296 Y33.447
N4780 X20.709 Y32.51
N4785 X21.162 Y31.591
N4790 X21.654 Y30.693
N4795 X22.184 Y29.816
N4800 X22.751 Y28.963
N4805 X23.355 Y28.136
N4810 X23.994 Y27.336
N4815 X24.666 Y26.563
N4820 X25.371 Y25.819
N4825 X26.105 Y25.105
N4830 X26.87 Y24.423
N4835 X27.662 Y23.774
N4840 X28.481 Y23.159
N4845 X29.325 Y22.579
N4850 X30.194 Y22.036
N4855 X31.085 Y21.532
N4860 X31.998 Y21.067
N4865 X32.929 Y20.641
N4870 X33.878 Y20.254
N4875 X34.842 Y19.908
N4880 X35.82 Y19.603
N4885 X36.809 Y19.339
N4890 X37.809 Y19.116
N4895 X38.817 Y18.937
N4900 X39.833 Y18.8
N4905 X40.853 Y18.708
N4910 X41.876 Y18.66
N4915 X42.9 Y18.656
N4920 X43.924 Y18.696
N4925 X44.945 Y18.778
N4930 X45.961 Y18.903
N4935 X46.972 Y19.07
N4940 X47.975 Y19.279
N4945 X48.968 Y19.529
N4950 X49.95 Y19.821
N4955 X50.918 Y20.154
N4960 X51.872 Y20.528
N4965 X52.808 Y20.943
N4970 X53.727 Y21.396
N4975 X54.626 Y21.887
N4980 X55.504 Y22.414
N4985 X56.36 Y22.977
N4990 X57.192 Y23.574
N4995 X57.999 Y24.205
N5000 X58.78 Y24.867
N5005 X59.534 Y25.562
N5010 X60.257 Y26.286
N5015 X60.95 Y27.041
N5020 X61.61 Y27.824
N5025 X62.238 Y28.633
N5030 X62.833 Y29.467
N5035 X63.394 Y30.324
N5040 X63.92 Y31.203
N5045 X64.41 Y32.102
N5050 X64.864 Y33.021
N5055 X65.281 Y33.956
N5060 X65.659 Y34.908
N5065 X65.998 Y35.875
N5070 X66.296 Y36.855
N5075 X66.553 Y37.846
N5080 X66.77 Y38.847
N5085 X66.946 Y39.856
N5090 X67.081 Y40.872
N5095 X67.175 Y41.891
N5100 X67.228 Y42.914
N5105 X67.24 Y43.939
N5110 X67.21 Y44.962
N5115 X67.138 Y45.984
N5120 X67.024 Y47.002
N5125 X66.867 Y48.014
N5130 X66.668 Y49.019
N5135 X66.427 Y50.015
N5140 X66.146 Y51.
N5145 X65.826 Y51.972
N5150 X65.466 Y52.932
N5155 X65.068 Y53.875
N5160 X64.632 Y54.802
N5165 X64.159 Y55.711
N5170 X63.649 Y56.599
N5175 X63.102 Y57.465
N5180 X62.52 Y58.308
N5185 X61.903 Y59.125
N5190 X61.252 Y59.917
N5195 X60.571 Y60.681
N5200 X59.859 Y61.417
N5205 X59.118 Y62.124
N5210 X58.349 Y62.801
N5215 X57.553 Y63.446
N5220 X56.732 Y64.059
N5225 X55.887 Y64.638
N5230 X55.019 Y65.181
N5235 X54.128 Y65.687
N5240 X53.217 Y66.156
N5245 X52.288 Y66.587
N5250 X51.343 Y66.981
N5255 X50.382 Y67.336
N5260 X49.408 Y67.653
N5265 X48.422 Y67.93
N5270 X47.426 Y68.168
N5275 X46.421 Y68.367
N5280 X45.409 Y68.525
N5285 X44.391 Y68.641
N5290 X43.37 Y68.715
N5295 X42.346 Y68.747
N5300 X41.322 Y68.739
N5305 X40.299 Y68.689
N5310 X39.278 Y68.598
N5315 X38.262 Y68.468
N5320 X37.252 Y68.297
N5325 X36.25 Y68.087
N5330 X35.256 Y67.838
N5335 X34.274 Y67.549
N5340 X33.303 Y67.221
N5345 X32.347 Y66.854
N5350 X31.407 Y66.448
N5355 X30.483 Y66.005
N5360 X29.578 Y65.526
N5365 X28.692 Y65.012
N5370 X27.827 Y64.463
N5375 X26.984 Y63.881
N5380 X26.165 Y63.267
N5385 X25.369 Y62.621
N5390 X24.6 Y61.945
N5395 X23.859 Y61.238
N5400 X23.146 Y60.502
N5405 X22.464 Y59.738
N5410 X21.813 Y58.948
N5415 X21.193 Y58.132
N5420 X20.605 Y57.293
N5425 X20.051 Y56.432
N5430 X19.53 Y55.55
N5435 X19.044 Y54.648
N5440 X18.593 Y53.729
N5445 X18.178 Y52.792
N5450 X17.8 Y51.84
N5455 X17.461 Y50.874
N5460 X17.16 Y49.895
N5465 X16.899 Y48.904
N5470 X16.677 Y47.904
N5475 X16.494 Y46.897
N5480 X16.35 Y45.883
N5485 X16.245 Y44.864
N5490 X16.18 Y43.841
N5495 X16.153 Y42.817
N5500 X16.167 Y41.793
N5505 X16.22 Y40.77
N5510 X16.313 Y39.75
N5515 X16.447 Y38.735
N5520 X16.622 Y37.726
N5525 X16.836 Y36.724
N5530 X17.089 Y35.731
N5535 X17.38 Y34.749
N5540 X17.709 Y33.779
N5545 X18.075 Y32.823
N5550 X18.477 Y31.881
N5555 X18.915 Y30.955
N5560 X19.388 Y30.046
N5565 X19.897 Y29.157
N5570 X20.44 Y28.289
N5575 X21.018 Y27.443
N5580 X21.628 Y26.621
N5585 X22.271 Y25.823
N5590 X22.943 Y25.05
N5595 X23.645 Y24.304
N5600 X24.375 Y23.586
N5605 X25.132 Y22.896
N5610 X25.915 Y22.235
N5615 X26.723 Y21.605
N5620 X27.554 Y21.007
N5625 X28.408 Y20.442
N5630 X29.285 Y19.911
N5635 X30.181 Y19.416
N5640 X31.096 Y18.956
N5645 X32.029 Y18.532
N5650 X32.977 Y18.145
N5655 X33.939 Y17.794
N5660 X34.914 Y17.48
N5665 X35.901 Y17.204
N5670 X36.897 Y16.965
N5675 X37.901 Y16.766
N5680 X38.913 Y16.605
N5685 X39.93 Y16.484
N5690 X40.951 Y16.404
N5695 X41.975 Y16.365
N5700 X42.999
N5705 X44.023 Y16.405
N5710 X45.044 Y16.484
N5715 X46.061 Y16.602
N5720 X47.074 Y16.758
N5725 X48.079 Y16.953
N5730 X49.077 Y17.186
N5735 X50.065 Y17.456
N5740 X51.041 Y17.764
N5745 X52.005 Y18.111
N5750 X52.955 Y18.495
N5755 X53.889 Y18.916
N5760 X54.806 Y19.371
N5765 X55.706 Y19.862
N5770 X56.586 Y20.385
N5775 X57.446 Y20.941
N5780 X58.285 Y21.529
N5785 X59.102 Y22.147
N5790 X59.895 Y22.795
N5795 X60.663 Y23.473
N5800 X61.405 Y24.179
N5805 X62.119 Y24.913
N5810 X62.805 Y25.674
N5815 X63.461 Y26.461
N5820 X64.087 Y27.271
N5825 X64.683 Y28.104
N5830 X65.248 Y28.959
N5835 X65.78 Y29.834
N5840 X66.281 Y30.727
N5845 X66.748 Y31.639
N5850 X67.182 Y32.567
N5855 X67.581 Y33.51
N5860 X67.944 Y34.468
N5865 X68.271 Y35.439
N5870 X68.56 Y36.421
N5875 X68.811 Y37.414
N5880 X69.026 Y38.416
N5885 X69.203 Y39.425
N5890 X69.342 Y40.439
N5895 X69.445 Y41.458
N5900 X69.509 Y42.481
N5905 X69.536 Y43.505
N5910 X69.525 Y44.529
N5915 X69.476 Y45.552
N5920 X69.388 Y46.572
N5925 X69.261 Y47.589
N5930 X69.095 Y48.599
N5935 X68.89 Y49.603
N5940 X68.647 Y50.598
N5945 X68.368 Y51.584
N5950 X68.053 Y52.558
N5955 X67.701 Y53.52
N5960 X67.314 Y54.469
N5965 X66.893 Y55.402
N5970 X66.437 Y56.319
N5975 X65.947 Y57.219
N5980 X65.423 Y58.099
N5985 X64.866 Y58.959
N5990 X64.276 Y59.796
N5995 X63.655 Y60.611
N6000 X63.004 Y61.401
N6005 X62.324 Y62.167
N6010 X61.616 Y62.907
N6015 X60.881 Y63.621
N6020 X60.12 Y64.307
N6025 X59.335 Y64.965
N6030 X58.526 Y65.593
N6035 X57.694 Y66.191
N6040 X56.841 Y66.756
N6045 X55.965 Y67.289
N6050 X55.071 Y67.787
N6055 X54.158 Y68.252
N6060 X53.228 Y68.682
N6065 X52.284 Y69.078
N6070 X51.325 Y69.439
N6075 X50.354 Y69.764
N6080 X49.371 Y70.054
N6085 X48.379 Y70.308
N6090 X47.378 Y70.525
N6095 X46.37 Y70.706
N6100 X45.356 Y70.849
N6105 X44.337 Y70.953
N6110 X43.314 Y71.018
N6115 X42.291 Y71.046
N6120 X41.266 Y71.035
N6125 X40.243 Y70.988
N6130 X39.222 Y70.903
N6135 X38.205 Y70.781
N6140 X37.193 Y70.623
N6145 X36.188 Y70.428
N6150 X35.19 Y70.197
N6155 X34.201 Y69.93
N6160 X33.223 Y69.626
N6165 X32.256 Y69.286
N6170 X31.304 Y68.911
N6175 X30.365 Y68.5
N6180 X29.443 Y68.055
N6185 X28.537 Y67.577
N6190 X27.649 Y67.067
N6195 X26.779 Y66.525
N6200 X25.93 Y65.952
N6205 X25.102 Y65.35
N6210 X24.296 Y64.718
N6215 X23.512 Y64.058
N6220 X22.754 Y63.369
N6225 X22.021 Y62.653
N6230 X21.316 Y61.911
N6235 X20.639 Y61.142
N6240 X19.99 Y60.35
N6245 X19.37 Y59.535
N6250 X18.779 Y58.698
N6255 X18.219 Y57.84
N6260 X17.69 Y56.963
N6265 X17.192 Y56.068
N6270 X16.726 Y55.156
N6275 X16.292 Y54.228
N6280 X15.893 Y53.285
N6285 X15.528 Y52.328
N6290 X15.199 Y51.358
N6295 X14.906 Y50.376
N6300 X14.649 Y49.385
N6305 X14.428 Y48.385
N6310 X14.242 Y47.377
N6315 X14.092 Y46.364
N6320 X13.979 Y45.346
N6325 X13.901 Y44.325
N6330 X13.86 Y43.301
N6335 X13.854 Y42.277
N6340 X13.885 Y41.253
N6345 X13.953 Y40.231
N6350 X14.059 Y39.212
N6355 X14.203 Y38.198
N6360 X14.383 Y37.19
N6365 X14.599 Y36.189
N6370 X14.851 Y35.196
N6375 X15.138 Y34.213
N6380 X15.46 Y33.24
N6385 X15.815 Y32.28
N6390 X16.205 Y31.332
N6395 X16.627 Y30.399
N6400 X17.082 Y29.481
N6405 X17.569 Y28.581
N6410 X18.09 Y27.698
N6415 X18.642 Y26.836
N6420 X19.226 Y25.994
N6425 X19.839 Y25.174
N6430 X20.482 Y24.376
N6435 X21.152 Y23.602
N6440 X21.85 Y22.852
N6445 X22.573 Y22.127
N6450 X23.322 Y21.427
N6455 X24.094 Y20.755
N6460 X24.89 Y20.11
N6465 X25.708 Y19.494
N6470 X26.548 Y18.907
N6475 X27.409 Y18.352
N6480 X28.29 Y17.829
N6485 X29.189 Y17.339
N6490 X30.105 Y16.881
N6495 X31.037 Y16.455
N6500 X31.983 Y16.064
N6505 X32.943 Y15.705
N6510 X33.914 Y15.381
N6515 X34.897 Y15.091
N6520 X35.889 Y14.835
N6525 X36.889 Y14.615
N6530 X37.896 Y14.43
N6535 X38.91 Y14.283
N6540 X39.928 Y14.173
N6545 X40.95 Y14.1
N6550 X41.974 Y14.064
N6555 X42.998
N6560 X44.022 Y14.101
N6565 X45.043 Y14.173
N6570 X46.062 Y14.282
N6575 X47.076 Y14.426
N6580 X48.085 Y14.605
N6585 X49.086 Y14.819
N6590 X50.08 Y15.068
N6595 X51.064 Y15.352
N6600 X52.037 Y15.671
N6605 X52.998 Y16.026
N6610 X53.945 Y16.415
N6615 X54.879 Y16.837
N6620 X55.796 Y17.292
N6625 X56.698 Y17.778
N6630 X57.582 Y18.295
N6635 X58.448 Y18.842
N6640 X59.295 Y19.418
N6645 X60.121 Y20.023
N6650 X60.927 Y20.656
N6655 X61.71 Y21.317
N6660 X62.469 Y22.004
N6665 X63.204 Y22.718
N6670 X63.912 Y23.458
N6675 X64.594 Y24.222
N6680 X65.25 Y25.009
N6685 X65.877 Y25.818
N6690 X66.477 Y26.649
N6695 X67.048 Y27.499
N6700 X67.59 Y28.368
N6705 X68.103 Y29.255
N6710 X68.585 Y30.159
N6715 X69.036 Y31.078
N6720 X69.456 Y32.012
N6725 X69.843 Y32.961
N6730 X70.196 Y33.922
N6735 X70.515 Y34.896
N6740 X70.8 Y35.879
N6745 X71.051 Y36.873
N6750 X71.267 Y37.874
N6755 X71.449 Y38.882
N6760 X71.597 Y39.895
N6765 X71.71 Y40.913
N6770 X71.788 Y41.935
N6775 X71.832 Y42.958
N6780 X71.841 Y43.982
N6785 X71.815 Y45.006
N6790 X71.753 Y46.029
N6795 X71.654 Y47.048
N6800 X71.52 Y48.063
N6805 X71.349 Y49.074
N6810 X71.144 Y50.077
N6815 X70.904 Y51.073
N6820 X70.63 Y52.06
N6825 X70.322 Y53.037
N6830 X69.982 Y54.003
N6835 X69.608 Y54.957
N6840 X69.203 Y55.897
N6845 X68.766 Y56.823
N6850 X68.297 Y57.734
N6855 X67.796 Y58.628
N6860 X67.263 Y59.503
N6865 X66.7 Y60.358
N6870 X66.108 Y61.194
N6875 X65.486 Y62.008
N6880 X64.837 Y62.8
N6885 X64.162 Y63.57
N6890 X63.46 Y64.317
N6895 X62.734 Y65.039
N6900 X61.983 Y65.736
N6905 X61.21 Y66.407
N6910 X60.414 Y67.052
N6915 X59.596 Y67.669
N6920 X58.757 Y68.256
N6925 X57.898 Y68.814
N6930 X57.02 Y69.341
N6935 X56.123 Y69.837
N6940 X55.211 Y70.302
N6945 X54.283 Y70.735
N6950 X53.34 Y71.136
N6955 X52.385 Y71.506
N6960 X51.418 Y71.843
N6965 X50.44 Y72.147
N6970 X49.452 Y72.418
N6975 X48.456 Y72.656
N6980 X47.452 Y72.86
N6985 X46.442 Y73.029
N6990 X45.426 Y73.162
N6995 X44.406 Y73.26
N7000 X43.384 Y73.322
N7005 X42.36 Y73.35
N7010 X41.336 Y73.343
N7015 X40.312 Y73.301
N7020 X39.291 Y73.225
N7025 X38.273 Y73.115
N7030 X37.258 Y72.971
N7035 X36.25 Y72.794
N7040 X35.247 Y72.583
N7045 X34.253 Y72.339
N7050 X33.267 Y72.06
N7055 X32.292 Y71.747
N7060 X31.328 Y71.401
N7065 X30.376 Y71.022
N7070 X29.438 Y70.611
N7075 X28.514 Y70.168
N7080 X27.606 Y69.695
N7085 X26.713 Y69.192
N7090 X25.838 Y68.66
N7095 X24.981 Y68.099
N7100 X24.143 Y67.511
N7105 X23.324 Y66.895
N7110 X22.527 Y66.252
N7115 X21.752 Y65.582
N7120 X21. Y64.887
N7125 X20.273 Y64.165
N7130 X19.571 Y63.419
N7135 X18.894 Y62.651
N7140 X18.244 Y61.859
N7145 X17.62 Y61.047
N7150 X17.023 Y60.215
N7155 X16.454 Y59.363
N7160 X15.913 Y58.493
N7165 X15.401 Y57.606
N7170 X14.918 Y56.702
N7175 X14.466 Y55.784
N7180 X14.044 Y54.85
N7185 X13.654 Y53.903
N7190 X13.297 Y52.943
N7195 X12.973 Y51.971
N7200 X12.682 Y50.989
N7205 X12.424 Y49.998
N7210 X12.199 Y48.999
N7215 X12.007 Y47.993
N7220 X11.848 Y46.981
N7225 X11.722 Y45.964
N7230 X11.629 Y44.944
N7235 X11.57 Y43.922
N7240 X11.544 Y42.898
N7245 X11.552 Y41.905
N7250 X11.553 Y41.862
N7255 X11.649 Y40.066
N7260 X11.664 Y39.834
N7265 X11.736 Y39.136
N7270 X11.77 Y38.903
N7275 X12.107 Y36.811
N7280 X12.15 Y36.578
N7285 X12.243 Y36.113
N7290 X12.292 Y35.881
N7295 X12.863 Y33.788
N7300 X12.927 Y33.556
N7305 X13.142 Y32.858
N7310 X13.226 Y32.625
N7315 X14.044 Y30.533
N7320 X14.141 Y30.3
N7325 X14.347 Y29.835
N7330 X14.451 Y29.603
N7335 X15.66 Y27.278
N7340 X16.113 Y26.542
N7345 X16.238 Y26.347
N7350 X17.164 Y24.952
N7355 X17.324 Y24.72
N7360 X17.74 Y24.121
N7365 X17.821 Y24.022
N7370 X19.6 Y21.876
N7375 X19.759 Y21.697
N7380 X20.297 Y21.168
N7385 X21.925 Y19.583
N7390 X22.157 Y19.369
N7395 X24.25 Y17.726
N7400 X24.482 Y17.559
N7405 X24.947 Y17.233
N7410 X25.18 Y17.075
N7415 X27.455 Y15.652
N7420 X27.505 Y15.624
N7425 X28.435 Y15.171
N7430 X29.838 Y14.489
N7435 X30.527 Y14.175
N7440 X30.76 Y14.08
N7445 X33.317 Y13.157
N7450 X33.496 Y13.094
N7455 X33.782 Y13.017
N7460 X34.247 Y12.903
N7465 X36.572 Y12.335
N7470 X36.804 Y12.288
N7475 X37.037 Y12.252
N7480 X39.129 Y11.972
N7485 X39.362 Y11.941
N7490 X40.059 Y11.86
N7495 X40.292 Y11.847
N7500 X40.989 Y11.826
N7505 X42.384 Y11.789
N7510 X42.617 Y11.784
N7515 X43.082 Y11.778
N7520 X43.314 Y11.776
N7525 X44.012 Y11.82
N7530 X44.244 Y11.837
N7535 X45.639 Y11.949
N7540 X46.337 Y12.01
N7545 X46.569 Y12.039
N7550 X47.267 Y12.15
N7555 X49.591 Y12.588
N7560 X49.749 Y12.629
N7565 X50.289 Y12.773
N7570 X50.521 Y12.839
N7575 X52.614 Y13.47
N7580 X52.846 Y13.546
N7585 X53.544 Y13.815
N7590 X53.776 Y13.912
N7595 X55.869 Y14.795
N7600 X56.101 Y14.911
N7605 X56.615 Y15.187
N7610 X56.799 Y15.286
N7615 X58.426 Y16.187
N7620 X58.659 Y16.322
N7625 X59.094 Y16.582
N7630 X59.124 Y16.601
N7635 X61.449 Y18.234
N7640 X61.708 Y18.442
N7645 X61.914 Y18.608
N7650 X63.849 Y20.302
N7655 X64.471 Y20.922
N7660 X64.546 Y21.
N7665 X66.098 Y22.681
N7670 X66.258 Y22.86
N7675 X66.627 Y23.325
N7680 X67.261 Y24.176
N7685 X67.726 Y24.802
N7690 X67.837 Y24.952
N7695 X68.344 Y25.65
N7700 X68.423 Y25.774
N7705 X69.72 Y27.975
N7710 X69.818 Y28.154
N7715 X70.09 Y28.673
N7720 X70.207 Y28.905
N7725 X71.213 Y31.122
N7730 X71.26 Y31.23
N7735 X71.518 Y31.928
N7740 X71.598 Y32.16
N7745 X72.291 Y34.253
N7750 X72.357 Y34.486
N7755 X72.473 Y34.951
N7760 X72.531 Y35.183
N7765 X72.983 Y37.276
N7770 X73.033 Y37.508
N7775 X73.138 Y38.206
N7780 X73.167 Y38.438
N7785 X73.39 Y40.531
N7790 X73.41 Y40.764
N7795 X73.438 Y41.229
N7800 X73.451 Y41.461
N7805 Y43.786
N7810 X73.433 Y44.484
N7815 X73.417 Y44.716
N7820 X73.193 Y46.809
N7825 X73.167 Y47.042
N7830 X73.086 Y47.739
N7835 X73.073 Y47.802
N7840 X72.433 Y50.762
N7845 X72.376 Y50.98
N7850 X71.988 Y52.157
N7855 X71.372 Y54.017
N7860 X71.269 Y54.25
N7865 X70.214 Y56.575
N7870 X70.102 Y56.807
N7875 X69.987 Y57.04
N7880 X69.865 Y57.272
N7885 X68.632 Y59.365
N7890 X68.491 Y59.598
N7895 X68.017 Y60.295
N7900 X67.958 Y60.379
N7905 X66.811 Y61.923
N7910 X66.268 Y62.62
N7915 X66.098 Y62.813
N7920 X64.703 Y64.325
N7925 X64.556 Y64.481
N7930 X64.006 Y65.054
N7935 X63.866 Y65.178
N7940 X62.272 Y66.573
N7945 X62.146 Y66.681
N7950 X61.681 Y67.07
N7955 X61.449 Y67.26
N7960 X59.117 Y68.898
N7965 X58.891 Y69.045
N7970 X58.324 Y69.363
N7975 X56.225 Y70.526
N7980 X56.101 Y70.591
N7985 X55.869 Y70.699
N7990 X53.776 Y71.582
N7995 X53.544 Y71.679
N8000 X52.846 Y71.948
N8005 X52.614 Y72.024
N8010 X50.521 Y72.655
N8015 X50.289 Y72.721
N8020 X49.802 Y72.851
N8025 X49.591 Y72.906
N8030 X47.267 Y73.344
N8035 X46.569 Y73.461
N8040 X46.337 Y73.489
N8045 X43.547 Y73.713
N8050 X43.314 Y73.728
N8055 X43.082 Y73.724
N8060 X40.292 Y73.65
N8065 X40.059 Y73.637
N8070 X39.327 Y73.549
N8075 X37.037 Y73.242
N8080 X36.804 Y73.198
N8085 X36.276 Y73.084
N8090 X36.107 Y73.046
N8095 X34.015 Y72.535
N8100 X33.782 Y72.476
N8105 X33.085 Y72.25
N8110 X32.809 Y72.154
N8115 X30.76 Y71.415
N8120 X30.527 Y71.322
N8125 X29.809 Y70.991
N8130 X27.737 Y69.983
N8135 X27.505 Y69.87
N8140 X27.432 Y69.829
N8145 X24.947 Y68.274
N8150 X24.834 Y68.201
N8155 X24.482 Y67.942
N8160 X24.25 Y67.768
N8165 X22.729 Y66.573
N8170 X22.157 Y66.104
N8175 X21.925 Y65.911
N8180 X20.297 Y64.327
N8185 X20.218 Y64.248
N8190 X19.6 Y63.612
N8195 X19.544 Y63.551
N8200 X18.002 Y61.69
N8205 X17.631 Y61.225
N8210 X17.508 Y61.06
N8215 X16.075 Y58.9
N8220 X15.929 Y58.668
N8225 X15.648 Y58.186
N8230 X15.531 Y57.97
N8235 X14.323 Y55.645
N8240 X14.253 Y55.479
N8245 X14.02 Y54.9
N8250 X13.221 Y52.855
N8255 X13.09 Y52.517
N8260 X13.049 Y52.39
N8265 X12.225 Y49.367
N8270 X12.181 Y49.134
N8275 X12.03 Y48.204
N8280 X11.73 Y46.344
N8285 X11.698 Y46.112
N8290 X11.662 Y45.647
N8295 X11.636 Y45.182
N8300 X11.524 Y43.089
N8305 Y42.856
N8310 X11.531 Y42.391
N8315 X11.538 Y42.159
N8320 X11.553 Y41.862
N8325 X11.569 Y41.771
N8330 X11.598 Y41.683
N8335 X11.638 Y41.621 Z-2.995
N8340 X11.678 Y41.56 Z-2.982
N8345 X11.716 Y41.501 Z-2.959
N8350 X11.781 Y41.454 Z-2.921
N8355 X11.84 Y41.412 Z-2.871
N8360 X11.892 Y41.374 Z-2.812
N8365 X11.946 Y41.356 Z-2.741
N8370 X11.99 Y41.342 Z-2.663
N8375 X12.021 Y41.332 Z-2.579
N8380 X12.041 Y41.326 Z-2.491
N8385 X12.047 Y41.324 Z-2.4
N8390 G0 Z5.
N8395 X39.245 Y12.457
N8400 Z-1.5
N8405 G1 Z-2.1 F1000.
N8410 X39.252 Y12.455 Z-2.194
N8415 X39.273 Y12.45 Z-2.285
N8420 X39.308 Y12.44 Z-2.372
N8425 X39.355 Y12.427 Z-2.453
N8430 X39.414 Y12.411 Z-2.524
N8435 X39.483 Y12.392 Z-2.585
N8440 X39.561 Y12.371 Z-2.635
N8445 X39.644 Y12.348 Z-2.671
N8450 X39.733 Y12.324 Z-2.693
N8455 X39.823 Y12.299 Z-2.7
N8460 G3 X43.082 Y11.776 I4.04 J14.775
N8465 G1 X43.314 Y11.775
N8470 X43.547 Y11.79
N8475 X43.638 Y11.806
N8480 X43.725 Y11.836
N8485 X43.787 Y11.877 Z-2.695
N8490 X43.847 Y11.918 Z-2.682
N8495 X43.906 Y11.957 Z-2.659
N8500 X43.951 Y12.022 Z-2.621
N8505 X43.994 Y12.081 Z-2.571
N8510 X44.031 Y12.134 Z-2.512
N8515 X44.048 Y12.188 Z-2.441
N8520 X44.061 Y12.232 Z-2.363
N8525 X44.071 Y12.264 Z-2.279
N8530 X44.077 Y12.283 Z-2.191
N8535 X44.079 Y12.29 Z-2.1
N8540 G0 Z5.
N8545 X36.081 Y12.959
N8550 Z-1.2
N8555 G1 Z-1.8 F1000.
N8560 X36.087 Y12.956 Z-1.894
N8565 X36.108 Y12.948 Z-1.985
N8570 X36.142 Y12.935 Z-2.072
N8575 X36.187 Y12.918 Z-2.153
N8580 X36.244 Y12.895 Z-2.224
N8585 X36.311 Y12.869 Z-2.285
N8590 X36.386 Y12.84 Z-2.335
N8595 X36.467 Y12.809 Z-2.371
N8600 X36.552 Y12.776 Z-2.393
N8605 X36.64 Y12.742 Z-2.4
N8610 G3 X39.827 Y11.885 I5.546 J14.279
N8615 G1 X40.059 Y11.857
N8620 X40.292 Y11.845
N8625 X40.524 Y11.838
N8630 G3 X40.915 Y12.907 I0.016 J0.6
N8635 G1 X40.358 Y13.352
N8640 G3 X39.609 Y12.414 I-0.375 J-0.469
N8645 X39.824 Y12.304 I0.375 J0.469
N8650 X43.082 Y11.775 I4.07 J14.767
N8655 G1 X43.314 Y11.773
N8660 X43.547 Y11.789
N8665 X43.638 Y11.805
N8670 X43.725 Y11.835
N8675 X43.787 Y11.877 Z-2.395
N8680 X43.847 Y11.917 Z-2.382
N8685 X43.905 Y11.957 Z-2.359
N8690 X43.951 Y12.021 Z-2.321
N8695 X43.993 Y12.081 Z-2.271
N8700 X44.03 Y12.134 Z-2.212
N8705 X44.047 Y12.188 Z-2.141
N8710 X44.06 Y12.232 Z-2.063
N8715 X44.07 Y12.264 Z-1.979
N8720 X44.076 Y12.283 Z-1.891
N8725 X44.078 Y12.29 Z-1.8
N8730 G0 Z5.
N8735 X39.247 Y12.47
N8740 Z-0.9
N8745 G1 Z-1.5 F1000.
N8750 X39.254 Y12.468 Z-1.594
N8755 X39.276 Y12.462 Z-1.685
N8760 X39.31 Y12.453 Z-1.772
N8765 X39.358 Y12.439 Z-1.853
N8770 X39.417 Y12.423 Z-1.924
N8775 X39.486 Y12.404 Z-1.985
N8780 X39.563 Y12.382 Z-2.035
N8785 X39.647 Y12.359 Z-2.071
N8790 X39.735 Y12.335 Z-2.093
N8795 X39.825 Y12.31 Z-2.1
N8800 G3 X43.082 Y11.774 I4.099 J14.759
N8805 G1 X43.314 Y11.772
N8810 X43.547 Y11.788
N8815 X43.638 Y11.804
N8820 X43.725 Y11.835
N8825 X43.786 Y11.876 Z-2.095
N8830 X43.847 Y11.917 Z-2.082
N8835 X43.905 Y11.956 Z-2.059
N8840 X43.951 Y12.021 Z-2.021
N8845 X43.992 Y12.081 Z-1.971
N8850 X44.03 Y12.134 Z-1.912
N8855 X44.046 Y12.188 Z-1.841
N8860 X44.06 Y12.232 Z-1.763
N8865 X44.069 Y12.264 Z-1.679
N8870 X44.075 Y12.283 Z-1.591
N8875 X44.077 Y12.29 Z-1.5
N8880 G0 Z5.
N8885 X39.249 Y12.477
N8890 Z-0.6
N8895 G1 Z-1.2 F1000.
N8900 X39.256 Y12.475 Z-1.294
N8905 X39.277 Y12.469 Z-1.385
N8910 X39.312 Y12.459 Z-1.472
N8915 X39.359 Y12.446 Z-1.553
N8920 X39.418 Y12.429 Z-1.624
N8925 X39.487 Y12.41 Z-1.685
N8930 X39.564 Y12.388 Z-1.735
N8935 X39.648 Y12.365 Z-1.771
N8940 X39.736 Y12.34 Z-1.793
N8945 X39.827 Y12.315 Z-1.8
N8950 G3 X43.082 Y11.773 I4.129 J14.751
N8955 G1 X43.314 Y11.77
N8960 X43.779 Y11.803
N8965 G3 X43.932 Y12.969 I-0.042 J0.598
N8970 G1 X42.875 Y13.333
N8975 G3 X42.099 Y12.915 I-0.195 J-0.567
N8980 X42.578 Y12.174 I0.581 J-0.149
N8985 X45.872 Y11.968 I2.601 J15.096
N8990 G1 X46.337 Y12.005
N8995 X46.569 Y12.034
N9000 X46.802 Y12.072
N9005 X46.891 Y12.098
N9010 X46.975 Y12.137
N9015 X47.032 Y12.184 Z-1.795
N9020 X47.088 Y12.23 Z-1.782
N9025 X47.142 Y12.275 Z-1.759
N9030 X47.181 Y12.344 Z-1.721
N9035 X47.217 Y12.407 Z-1.671
N9040 X47.249 Y12.463 Z-1.612
N9045 X47.26 Y12.519 Z-1.541
N9050 X47.269 Y12.564 Z-1.463
N9055 X47.276 Y12.597 Z-1.379
N9060 X47.28 Y12.617 Z-1.291
N9065 X47.281 Y12.623 Z-1.2
N9070 G0 Z5.
N9075 X39.25 Y12.483
N9080 Z-0.3
N9085 G1 Z-0.9 F1000.
N9090 X39.257 Y12.481 Z-0.994
N9095 X39.278 Y12.475 Z-1.085
N9100 X39.313 Y12.465 Z-1.172
N9105 X39.36 Y12.452 Z-1.253
N9110 X39.419 Y12.435 Z-1.324
N9115 X39.488 Y12.416 Z-1.385
N9120 X39.565 Y12.394 Z-1.435
N9125 X39.649 Y12.371 Z-1.471
N9130 X39.737 Y12.346 Z-1.493
N9135 X39.828 Y12.32 Z-1.5
N9140 G3 X43.082 Y11.772 I4.158 J14.743
N9145 G1 X43.314 Y11.768
N9150 X43.547 Y11.785
N9155 X43.638 Y11.802
N9160 X43.725 Y11.833
N9165 X43.786 Y11.875 Z-1.495
N9170 X43.846 Y11.916 Z-1.482
N9175 X43.904 Y11.956 Z-1.459
N9180 X43.95 Y12.021 Z-1.421
N9185 X43.991 Y12.08 Z-1.371
N9190 X44.028 Y12.134 Z-1.312
N9195 X44.045 Y12.188 Z-1.241
N9200 X44.058 Y12.232 Z-1.163
N9205 X44.067 Y12.264 Z-1.079
N9210 X44.073 Y12.283 Z-0.991
N9215 X44.075 Y12.29 Z-0.9
N9220 G0 Z5.
N9225 X39.252 Y12.489
N9230 Z0.
N9235 G1 Z-0.6 F1000.
N9240 X39.259 Y12.487 Z-0.694
N9245 X39.28 Y12.481 Z-0.785
N9250 X39.314 Y12.472 Z-0.872
N9255 X39.362 Y12.458 Z-0.953
N9260 X39.421 Y12.441 Z-1.024
N9265 X39.489 Y12.422 Z-1.085
N9270 X39.567 Y12.4 Z-1.135
N9275 X39.65 Y12.376 Z-1.171
N9280 X39.738 Y12.351 Z-1.193
N9285 X39.829 Y12.325 Z-1.2
N9290 G3 X43.082 Y11.771 I4.187 J14.734
N9295 G1 X43.314 Y11.767
N9300 X43.547 Y11.784
N9305 X43.638 Y11.802
N9310 X43.725 Y11.833
N9315 X43.786 Y11.874 Z-1.195
N9320 X43.846 Y11.915 Z-1.182
N9325 X43.904 Y11.955 Z-1.159
N9330 X43.949 Y12.02 Z-1.121
N9335 X43.991 Y12.08 Z-1.071
N9340 X44.028 Y12.133 Z-1.012
N9345 X44.044 Y12.188 Z-0.941
N9350 X44.057 Y12.232 Z-0.863
N9355 X44.066 Y12.264 Z-0.779
N9360 X44.072 Y12.283 Z-0.691
N9365 X44.074 Y12.29 Z-0.6
N9370 G0 Z5.
N9375 X39.252 Y12.491
N9380 Z0.3
N9385 G1 Z-0.3 F1000.
N9390 X39.259 Y12.489 Z-0.394
N9395 X39.28 Y12.483 Z-0.485
N9400 X39.315 Y12.473 Z-0.572
N9405 X39.362 Y12.46 Z-0.653
N9410 X39.421 Y12.443 Z-0.724
N9415 X39.49 Y12.423 Z-0.785
N9420 X39.567 Y12.401 Z-0.835
N9425 X39.651 Y12.378 Z-0.871
N9430 X39.739 Y12.353 Z-0.893
N9435 X39.829 Y12.327 Z-0.9
N9440 G3 X43.082 Y11.77 I4.195 J14.732
N9445 G1 X43.314 Y11.767
N9450 X43.547 Y11.784
N9455 X43.638 Y11.801
N9460 X43.725 Y11.832
N9465 X43.786 Y11.874 Z-0.895
N9470 X43.846 Y11.915 Z-0.882
N9475 X43.904 Y11.955 Z-0.859
N9480 X43.949 Y12.02 Z-0.821
N9485 X43.991 Y12.08 Z-0.771
N9490 X44.027 Y12.133 Z-0.712
N9495 X44.044 Y12.188 Z-0.641
N9500 X44.057 Y12.232 Z-0.563
N9505 X44.066 Y12.264 Z-0.479
N9510 X44.072 Y12.283 Z-0.391
N9515 X44.074 Y12.29 Z-0.3
N9520 G0 Z5.
N9525 X43.219 Y45.505
N9530 Z-0.5
N9535 G3 X41.782 Y39.99 Z-0.813 I-0.719 J-2.758 F333.33
N9540 X43.219 Y45.505 Z-1.125 I0.719 J2.758
N9545 X41.782 Y39.99 Z-1.438 I-0.719 J-2.758
N9550 X43.219 Y45.505 Z-1.751 I0.719 J2.758
N9555 X41.782 Y39.99 Z-2.063 I-0.719 J-2.758
N9560 X43.219 Y45.505 Z-2.376 I0.719 J2.758
N9565 X41.782 Y39.99 Z-2.689 I-0.719 J-2.758
N9570 X43.219 Y45.505 Z-3.001 I0.719 J2.758
N9575 X41.782 Y39.99 Z-3.314 I-0.719 J-2.758
N9580 X43.219 Y45.505 Z-3.627 I0.719 J2.758
N9585 X41.782 Y39.99 Z-3.939 I-0.719 J-2.758
N9590 X43.219 Y45.505 Z-4.252 I0.719 J2.758
N9595 X41.782 Y39.99 Z-4.565 I-0.719 J-2.758
N9600 X43.219 Y45.505 Z-4.877 I0.719 J2.758
N9605 X41.782 Y39.99 Z-5.19 I-0.719 J-2.758
N9610 X43.219 Y45.505 Z-5.503 I0.719 J2.758
N9615 X41.782 Y39.99 Z-5.815 I-0.719 J-2.758
N9620 X45.35 Y42.748 Z-5.997 I0.719 J2.758
N9625 X39.65 I-2.85 J0.
N9630 X45.35 I2.85 J0.
N9635 G1 X45.354 Y43.004 F1000.
N9640 X45.555 Y44.008
N9645 X45.587 Y44.155
N9650 X45.603 Y44.304
N9655 X45.606 Y44.454
N9660 X45.596 Y44.608
N9665 X45.572 Y44.772
N9670 X45.532 Y44.945
N9675 X45.476 Y45.124
N9680 X45.4 Y45.308
N9685 X45.306 Y45.496
N9690 X45.191 Y45.684
N9695 X45.056 Y45.871
N9700 X44.899 Y46.054
N9705 X44.721 Y46.23
N9710 X44.523 Y46.398
N9715 X44.304 Y46.555
N9720 X44.066 Y46.698
N9725 X43.81 Y46.825
N9730 X43.537 Y46.934
N9735 X43.25 Y47.023
N9740 X42.951 Y47.09
N9745 X42.64 Y47.133
N9750 X42.322 Y47.152
N9755 X41.998 Y47.145
N9760 X41.671 Y47.112
N9765 X41.344 Y47.052
N9770 X41.018 Y46.965
N9775 X40.698 Y46.85
N9780 X40.385 Y46.709
N9785 X40.082 Y46.543
N9790 X39.791 Y46.351
N9795 X39.515 Y46.134
N9800 X39.256 Y45.896
N9805 X39.015 Y45.636
N9810 X38.795 Y45.356
N9815 X38.598 Y45.058
N9820 X38.425 Y44.745
N9825 X38.277 Y44.417
N9830 X38.155 Y44.078
N9835 X38.061 Y43.73
N9840 X37.995 Y43.374
N9845 X37.957 Y43.014
N9850 X37.949 Y42.651
N9855 X37.97 Y42.288
N9860 X38.02 Y41.928
N9865 X38.098 Y41.572
N9870 X38.205 Y41.224
N9875 X38.34 Y40.885
N9880 X38.502 Y40.558
N9885 X38.689 Y40.245
N9890 X38.902 Y39.947
N9895 X39.137 Y39.668
N9900 X39.394 Y39.408
N9905 X39.672 Y39.17
N9910 X39.967 Y38.954
N9915 X40.279 Y38.763
N9920 X40.606 Y38.598
N9925 X40.945 Y38.459
N9930 X41.293 Y38.348
N9935 X41.65 Y38.265
N9940 X42.012 Y38.211
N9945 X42.378 Y38.186
N9950 X42.744 Y38.191
N9955 X43.109 Y38.225
N9960 X43.47 Y38.288
N9965 X43.824 Y38.381
N9970 X44.171 Y38.501
N9975 X44.506 Y38.648
N9980 X44.828 Y38.823
N9985 X45.136 Y39.022
N9990 X45.426 Y39.245
N9995 X45.698 Y39.491
N10000 X45.949 Y39.759
N10005 X46.178 Y40.045
N10010 X46.383 Y40.349
N10015 X46.701 Y40.913
N10020 X47.022 Y41.607
N10025 X47.22 Y42.147
N10030 X47.355 Y42.631
N10035 X47.443 Y43.079
N10040 X47.491 Y43.511
N10045 X47.504 Y43.93
N10050 X47.484 Y44.337
N10055 X47.433 Y44.733
N10060 X47.35 Y45.121
N10065 X47.237 Y45.499
N10070 X47.094 Y45.867
N10075 X46.921 Y46.225
N10080 X46.719 Y46.569
N10085 X46.488 Y46.899
N10090 X46.228 Y47.212
N10095 X45.941 Y47.507
N10100 X45.628 Y47.781
N10105 X45.289 Y48.032
N10110 X44.926 Y48.258
N10115 X44.541 Y48.458
N10120 X44.135 Y48.628
N10125 X43.711 Y48.767
N10130 X43.273 Y48.872
N10135 X42.821 Y48.943
N10140 X42.36 Y48.978
N10145 X41.893 Y48.976
N10150 X41.423 Y48.936
N10155 X40.953 Y48.857
N10160 X40.488 Y48.741
N10165 X40.03 Y48.586
N10170 X39.583 Y48.393
N10175 X39.15 Y48.164
N10180 X38.734 Y47.899
N10185 X38.338 Y47.6
N10190 X37.966 Y47.268
N10195 X37.62 Y46.906
N10200 X37.303 Y46.516
N10205 X37.017 Y46.1
N10210 X36.765 Y45.661
N10215 X36.548 Y45.202
N10220 X36.368 Y44.725
N10225 X36.227 Y44.234
N10230 X36.125 Y43.733
N10235 X36.064 Y43.223
N10240 X36.043 Y42.71
N10245 X36.064 Y42.196
N10250 X36.127 Y41.684
N10255 X36.23 Y41.179
N10260 X36.374 Y40.683
N10265 X36.557 Y40.199
N10270 X36.778 Y39.732
N10275 X37.037 Y39.283
N10280 X37.331 Y38.857
N10285 X37.658 Y38.455
N10290 X38.017 Y38.081
N10295 X38.404 Y37.736
N10300 X38.819 Y37.423
N10305 X39.257 Y37.145
N10310 X39.716 Y36.903
N10315 X40.193 Y36.698
N10320 X40.686 Y36.532
N10325 X41.19 Y36.407
N10330 X41.703 Y36.322
N10335 X42.22 Y36.278
N10340 X42.74 Y36.276
N10345 X43.259 Y36.316
N10350 X43.772 Y36.398
N10355 X44.277 Y36.52
N10360 X44.771 Y36.683
N10365 X45.251 Y36.884
N10370 X45.712 Y37.124
N10375 X46.153 Y37.399
N10380 X46.571 Y37.71
N10385 X47.004 Y38.089
N10390 X47.446 Y38.544
N10395 X47.86 Y39.046
N10400 X48.242 Y39.593
N10405 X48.579 Y40.167
N10410 X48.862 Y40.754
N10415 X49.091 Y41.347
N10420 X49.268 Y41.941
N10425 X49.393 Y42.534
N10430 X49.469 Y43.125
N10435 X49.497 Y43.711
N10440 X49.478 Y44.292
N10445 X49.414 Y44.864
N10450 X49.304 Y45.425
N10455 X49.15 Y45.973
N10460 X48.953 Y46.507
N10465 X48.714 Y47.022
N10470 X48.433 Y47.518
N10475 X48.113 Y47.991
N10480 X47.754 Y48.439
N10485 X47.358 Y48.859
N10490 X46.927 Y49.249
N10495 X46.462 Y49.606
N10500 X45.966 Y49.926
N10505 X45.442 Y50.209
N10510 X44.892 Y50.45
N10515 X44.32 Y50.648
N10520 X43.728 Y50.801
N10525 X43.122 Y50.906
N10530 X42.505 Y50.963
N10535 X41.88 Y50.97
N10540 X41.253 Y50.927
N10545 X40.627 Y50.833
N10550 X40.006 Y50.688
N10555 X39.396 Y50.493
N10560 X38.8 Y50.248
N10565 X38.222 Y49.954
N10570 X37.667 Y49.613
N10575 X37.138 Y49.227
N10580 X36.64 Y48.798
N10585 X36.177 Y48.328
N10590 X35.75 Y47.821
N10595 X35.365 Y47.279
N10600 X35.023 Y46.706
N10605 X34.728 Y46.106
N10610 X34.48 Y45.483
N10615 X34.284 Y44.84
N10620 X34.139 Y44.182
N10625 X34.047 Y43.514
N10630 X34.009 Y42.839
N10635 X34.026 Y42.162
N10640 X34.097 Y41.488
N10645 X34.222 Y40.821
N10650 X34.4 Y40.165
N10655 X34.63 Y39.526
N10660 X34.911 Y38.906
N10665 X35.242 Y38.311
N10670 X35.619 Y37.744
N10675 X36.04 Y37.208
N10680 X36.504 Y36.708
N10685 X37.006 Y36.247
N10690 X37.544 Y35.827
N10695 X38.114 Y35.451
N10700 X38.713 Y35.123
N10705 X39.336 Y34.843
N10710 X39.98 Y34.615
N10715 X40.64 Y34.438
N10720 X41.312 Y34.316
N10725 X41.992 Y34.247
N10730 X42.676 Y34.234
N10735 X43.358 Y34.275
N10740 X44.035 Y34.371
N10745 X44.702 Y34.521
N10750 X45.355 Y34.724
N10755 X45.99 Y34.978
N10760 X46.614 Y35.289
N10765 X47.232 Y35.662
N10770 X47.837 Y36.097
N10775 X48.422 Y36.592
N10780 X48.976 Y37.144
N10785 X49.49 Y37.746
N10790 X49.956 Y38.39
N10795 X50.368 Y39.068
N10800 X50.723 Y39.772
N10805 X51.017 Y40.497
N10810 X51.25 Y41.238
N10815 X51.422 Y41.988
N10820 X51.532 Y42.743
N10825 X51.58 Y43.499
N10830 X51.568 Y44.251
N10835 X51.496 Y44.995
N10840 X51.365 Y45.729
N10845 X51.176 Y46.447
N10850 X50.93 Y47.147
N10855 X50.63 Y47.825
N10860 X50.275 Y48.476
N10865 X49.869 Y49.099
N10870 X49.412 Y49.688
N10875 X48.908 Y50.241
N10880 X48.359 Y50.754
N10885 X47.767 Y51.224
N10890 X47.136 Y51.647
N10895 X46.469 Y52.02
N10900 X45.771 Y52.34
N10905 X45.044 Y52.605
N10910 X44.294 Y52.812
N10915 X43.526 Y52.959
N10920 X42.744 Y53.044
N10925 X41.953 Y53.066
N10930 X41.158 Y53.024
N10935 X40.365 Y52.919
N10940 X39.579 Y52.749
N10945 X38.805 Y52.515
N10950 X38.049 Y52.219
N10955 X37.316 Y51.861
N10960 X36.612 Y51.444
N10965 X35.94 Y50.97
N10970 X35.306 Y50.442
N10975 X34.715 Y49.862
N10980 X34.17 Y49.235
N10985 X33.676 Y48.564
N10990 X33.236 Y47.854
N10995 X32.854 Y47.109
N11000 X32.532 Y46.334
N11005 X32.272 Y45.534
N11010 X32.078 Y44.714
N11015 X31.949 Y43.88
N11020 X31.888 Y43.037
N11025 X31.895 Y42.19
N11030 X31.969 Y41.346
N11035 X32.112 Y40.51
N11040 X32.321 Y39.686
N11045 X32.596 Y38.882
N11050 X32.935 Y38.102
N11055 X33.335 Y37.351
N11060 X33.795 Y36.634
N11065 X34.311 Y35.956
N11070 X34.88 Y35.321
N11075 X35.499 Y34.734
N11080 X36.163 Y34.198
N11085 X36.868 Y33.717
N11090 X37.609 Y33.294
N11095 X38.383 Y32.932
N11100 X39.183 Y32.633
N11105 X40.004 Y32.399
N11110 X40.842 Y32.232
N11115 X41.691 Y32.132
N11120 X42.545 Y32.101
N11125 X43.399 Y32.139
N11130 X44.247 Y32.245
N11135 X45.086 Y32.419
N11140 X45.914 Y32.661
N11145 X46.73 Y32.973
N11150 X47.528 Y33.355
N11155 X48.305 Y33.806
N11160 X49.058 Y34.328
N11165 X49.778 Y34.919
N11170 X50.457 Y35.573
N11175 X51.086 Y36.286
N11180 X51.659 Y37.049
N11185 X52.168 Y37.857
N11190 X52.61 Y38.701
N11195 X52.982 Y39.576
N11200 X53.281 Y40.473
N11205 X53.506 Y41.387
N11210 X53.656 Y42.311
N11215 X53.731 Y43.24
N11220 Y44.167
N11225 X53.658 Y45.088
N11230 X53.511 Y45.997
N11235 X53.291 Y46.889
N11240 X53.002 Y47.76
N11245 X52.644 Y48.604
N11250 X52.218 Y49.417
N11255 X51.729 Y50.195
N11260 X51.177 Y50.932
N11265 X50.567 Y51.624
N11270 X49.9 Y52.267
N11275 X49.182 Y52.857
N11280 X48.415 Y53.389
N11285 X47.605 Y53.861
N11290 X46.755 Y54.267
N11295 X45.872 Y54.606
N11300 X44.959 Y54.874
N11305 X44.024 Y55.068
N11310 X43.072 Y55.188
N11315 X42.109 Y55.231
N11320 X41.141 Y55.196
N11325 X40.175 Y55.084
N11330 X39.216 Y54.893
N11335 X38.273 Y54.625
N11340 X37.35 Y54.28
N11345 X36.454 Y53.862
N11350 X35.592 Y53.371
N11355 X34.77 Y52.81
N11360 X33.992 Y52.183
N11365 X33.266 Y51.494
N11370 X32.595 Y50.747
N11375 X31.984 Y49.946
N11380 X31.439 Y49.097
N11385 X30.962 Y48.205
N11390 X30.558 Y47.276
N11395 X30.229 Y46.315
N11400 X29.978 Y45.33
N11405 X29.807 Y44.326
N11410 X29.716 Y43.311
N11415 X29.708 Y42.29
N11420 X29.781 Y41.27
N11425 X29.936 Y40.259
N11430 X30.172 Y39.263
N11435 X30.487 Y38.288
N11440 X30.88 Y37.342
N11445 X31.347 Y36.43
N11450 X31.885 Y35.559
N11455 X32.492 Y34.734
N11460 X33.162 Y33.959
N11465 X33.892 Y33.241
N11470 X34.678 Y32.584
N11475 X35.513 Y31.991
N11480 X36.394 Y31.467
N11485 X37.313 Y31.015
N11490 X38.265 Y30.638
N11495 X39.245 Y30.338
N11500 X40.245 Y30.118
N11505 X41.259 Y29.978
N11510 X42.282 Y29.919
N11515 X43.306 Y29.942
N11520 X44.325 Y30.047
N11525 X45.332 Y30.232
N11530 X46.322 Y30.497
N11535 X47.288 Y30.838
N11540 X48.224 Y31.253
N11545 X49.126 Y31.739
N11550 X49.988 Y32.292
N11555 X50.807 Y32.907
N11560 X51.577 Y33.582
N11565 X52.295 Y34.313
N11570 X52.957 Y35.095
N11575 X53.558 Y35.924
N11580 X54.098 Y36.794
N11585 X54.573 Y37.702
N11590 X54.981 Y38.642
N11595 X55.319 Y39.608
N11600 X55.586 Y40.597
N11605 X55.78 Y41.603
N11610 X55.899 Y42.62
N11615 X55.943 Y43.644
N11620 X55.91 Y44.667
N11625 X55.801 Y45.686
N11630 X55.614 Y46.693
N11635 X55.352 Y47.683
N11640 X55.017 Y48.651
N11645 X54.609 Y49.591
N11650 X54.132 Y50.497
N11655 X53.589 Y51.366
N11660 X52.983 Y52.191
N11665 X52.316 Y52.969
N11670 X51.594 Y53.695
N11675 X50.82 Y54.366
N11680 X49.999 Y54.978
N11685 X49.135 Y55.529
N11690 X48.233 Y56.013
N11695 X47.297 Y56.43
N11700 X46.332 Y56.775
N11705 X45.345 Y57.048
N11710 X44.341 Y57.249
N11715 X43.325 Y57.377
N11720 X42.302 Y57.431
N11725 X41.278 Y57.413
N11730 X40.257 Y57.322
N11735 X39.246 Y57.16
N11740 X38.249 Y56.925
N11745 X37.272 Y56.618
N11750 X36.319 Y56.242
N11755 X35.395 Y55.8
N11760 X34.505 Y55.294
N11765 X33.652 Y54.727
N11770 X32.84 Y54.103
N11775 X32.072 Y53.424
N11780 X31.355 Y52.693
N11785 X30.691 Y51.913
N11790 X30.085 Y51.088
N11795 X29.536 Y50.222
N11800 X29.049 Y49.322
N11805 X28.623 Y48.39
N11810 X28.262 Y47.432
N11815 X27.967 Y46.45
N11820 X27.744 Y45.451
N11825 X27.59 Y44.438
N11830 X27.507 Y43.417
N11835 X27.493 Y42.393
N11840 X27.547 Y41.37
N11845 X27.67 Y40.353
N11850 X27.864 Y39.348
N11855 X28.128 Y38.358
N11860 X28.46 Y37.389
N11865 X28.857 Y36.445
N11870 X29.316 Y35.529
N11875 X29.836 Y34.647
N11880 X30.414 Y33.801
N11885 X31.049 Y32.998
N11890 X31.74 Y32.241
N11895 X32.48 Y31.533
N11900 X33.267 Y30.877
N11905 X34.096 Y30.276
N11910 X34.963 Y29.731
N11915 X35.865 Y29.245
N11920 X36.799 Y28.824
N11925 X37.76 Y28.47
N11930 X38.743 Y28.181
N11935 X39.743 Y27.96
N11940 X40.755 Y27.806
N11945 X41.776 Y27.719
N11950 X42.8 Y27.703
N11955 X43.823 Y27.758
N11960 X44.839 Y27.883
N11965 X45.845 Y28.077
N11970 X46.836 Y28.338
N11975 X47.807 Y28.663
N11980 X48.755 Y29.051
N11985 X49.676 Y29.5
N11990 X50.564 Y30.011
N11995 X51.416 Y30.578
N12000 X52.23 Y31.2
N12005 X53.003 Y31.873
N12010 X53.731 Y32.593
N12015 X54.413 Y33.357
N12020 X55.045 Y34.163
N12025 X55.623 Y35.009
N12030 X56.146 Y35.89
N12035 X56.611 Y36.802
N12040 X57.019 Y37.741
N12045 X57.368 Y38.705
N12050 X57.656 Y39.687
N12055 X57.883 Y40.686
N12060 X58.045 Y41.698
N12065 X58.14 Y42.718
N12070 X58.169 Y43.741
N12075 X58.133 Y44.765
N12080 X58.031 Y45.784
N12085 X57.865 Y46.795
N12090 X57.635 Y47.793
N12095 X57.34 Y48.774
N12100 X56.98 Y49.733
N12105 X56.559 Y50.667
N12110 X56.079 Y51.572
N12115 X55.542 Y52.444
N12120 X54.952 Y53.281
N12125 X54.309 Y54.079
N12130 X53.617 Y54.834
N12135 X52.877 Y55.541
N12140 X52.092 Y56.2
N12145 X51.267 Y56.807
N12150 X50.406 Y57.361
N12155 X49.511 Y57.86
N12160 X48.587 Y58.302
N12165 X47.637 Y58.685
N12170 X46.664 Y59.004
N12175 X45.672 Y59.26
N12180 X44.666 Y59.453
N12185 X43.65 Y59.584
N12190 X42.628 Y59.652
N12195 X41.604 Y59.658
N12200 X40.581 Y59.603
N12205 X39.564 Y59.482
N12210 X38.557 Y59.297
N12215 X37.563 Y59.049
N12220 X36.586 Y58.74
N12225 X35.63 Y58.373
N12230 X34.698 Y57.948
N12235 X33.793 Y57.469
N12240 X32.918 Y56.935
N12245 X32.079 Y56.348
N12250 X31.277 Y55.711
N12255 X30.516 Y55.026
N12260 X29.797 Y54.296
N12265 X29.124 Y53.524
N12270 X28.497 Y52.714
N12275 X27.92 Y51.867
N12280 X27.396 Y50.988
N12285 X26.926 Y50.077
N12290 X26.512 Y49.14
N12295 X26.155 Y48.18
N12300 X25.856 Y47.201
N12305 X25.616 Y46.205
N12310 X25.435 Y45.197
N12315 X25.315 Y44.18
N12320 X25.256 Y43.157
N12325 X25.259 Y42.133
N12330 X25.323 Y41.11
N12335 X25.448 Y40.094
N12340 X25.634 Y39.086
N12345 X25.878 Y38.092
N12350 X26.18 Y37.113
N12355 X26.54 Y36.154
N12360 X26.958 Y35.219
N12365 X27.431 Y34.31
N12370 X27.957 Y33.431
N12375 X28.534 Y32.585
N12380 X29.16 Y31.774
N12385 X29.832 Y31.002
N12390 X30.549 Y30.27
N12395 X31.309 Y29.583
N12400 X32.108 Y28.943
N12405 X32.944 Y28.351
N12410 X33.814 Y27.81
N12415 X34.714 Y27.321
N12420 X35.642 Y26.887
N12425 X36.593 Y26.507
N12430 X37.565 Y26.184
N12435 X38.555 Y25.92
N12440 X39.559 Y25.717
N12445 X40.573 Y25.572
N12450 X41.594 Y25.488
N12455 X42.618 Y25.465
N12460 X43.641 Y25.501
N12465 X44.661 Y25.598
N12470 X45.673 Y25.754
N12475 X46.674 Y25.971
N12480 X47.661 Y26.246
N12485 X48.63 Y26.578
N12490 X49.578 Y26.965
N12495 X50.503 Y27.406
N12500 X51.401 Y27.899
N12505 X52.269 Y28.441
N12510 X53.106 Y29.033
N12515 X53.906 Y29.672
N12520 X54.669 Y30.355
N12525 X55.393 Y31.08
N12530 X56.075 Y31.844
N12535 X56.713 Y32.645
N12540 X57.306 Y33.48
N12545 X57.852 Y34.347
N12550 X58.35 Y35.243
N12555 X58.795 Y36.165
N12560 X59.189 Y37.111
N12565 X59.529 Y38.077
N12570 X59.816 Y39.06
N12575 X60.048 Y40.057
N12580 X60.224 Y41.066
N12585 X60.344 Y42.084
N12590 X60.408 Y43.106
N12595 X60.412 Y44.13
N12600 X60.358 Y45.153
N12605 X60.246 Y46.171
N12610 X60.077 Y47.182
N12615 X59.852 Y48.181
N12620 X59.571 Y49.166
N12625 X59.235 Y50.133
N12630 X58.846 Y51.081
N12635 X58.402 Y52.004
N12640 X57.906 Y52.9
N12645 X57.361 Y53.767
N12650 X56.768 Y54.603
N12655 X56.129 Y55.403
N12660 X55.447 Y56.167
N12665 X54.723 Y56.892
N12670 X53.961 Y57.576
N12675 X53.16 Y58.215
N12680 X52.325 Y58.807
N12685 X51.457 Y59.352
N12690 X50.561 Y59.848
N12695 X49.638 Y60.293
N12700 X48.693 Y60.686
N12705 X47.726 Y61.026
N12710 X46.743 Y61.313
N12715 X45.745 Y61.545
N12720 X44.736 Y61.719
N12725 X43.719 Y61.838
N12730 X42.696 Y61.902
N12735 X41.672 Y61.911
N12740 X40.649 Y61.864
N12745 X39.63 Y61.761
N12750 X38.618 Y61.603
N12755 X37.616 Y61.391
N12760 X36.627 Y61.122
N12765 X35.655 Y60.8
N12770 X34.702 Y60.426
N12775 X33.769 Y60.001
N12780 X32.861 Y59.528
N12785 X31.979 Y59.006
N12790 X31.127 Y58.439
N12795 X30.305 Y57.827
N12800 X29.519 Y57.171
N12805 X28.769 Y56.473
N12810 X28.058 Y55.735
N12815 X27.388 Y54.961
N12820 X26.759 Y54.153
N12825 X26.173 Y53.312
N12830 X25.633 Y52.442
N12835 X25.139 Y51.545
N12840 X24.693 Y50.623
N12845 X24.298 Y49.678
N12850 X23.955 Y48.712
N12855 X23.664 Y47.731
N12860 X23.424 Y46.735
N12865 X23.237 Y45.728
N12870 X23.103 Y44.712
N12875 X23.022 Y43.691
N12880 X22.994 Y42.667
N12885 X23.021 Y41.643
N12890 X23.104 Y40.622
N12895 X23.241 Y39.607
N12900 X23.431 Y38.601
N12905 X23.673 Y37.606
N12910 X23.967 Y36.624
N12915 X24.311 Y35.66
N12920 X24.705 Y34.714
N12925 X25.149 Y33.791
N12930 X25.641 Y32.893
N12935 X26.18 Y32.022
N12940 X26.765 Y31.181
N12945 X27.393 Y30.372
N12950 X28.062 Y29.596
N12955 X28.771 Y28.856
N12960 X29.517 Y28.155
N12965 X30.298 Y27.492
N12970 X31.113 Y26.872
N12975 X31.961 Y26.297
N12980 X32.838 Y25.768
N12985 X33.741 Y25.285
N12990 X34.669 Y24.85
N12995 X35.617 Y24.464
N13000 X36.585 Y24.128
N13005 X37.568 Y23.842
N13010 X38.565 Y23.608
N13015 X39.574 Y23.427
N13020 X40.59 Y23.3
N13025 X41.612 Y23.228
N13030 X42.636 Y23.209
N13035 X43.66 Y23.243
N13040 X44.68 Y23.329
N13045 X45.695 Y23.469
N13050 X46.701 Y23.66
N13055 X47.696 Y23.903
N13060 X48.677 Y24.198
N13065 X49.641 Y24.545
N13070 X50.586 Y24.94
N13075 X51.509 Y25.383
N13080 X52.41 Y25.872
N13085 X53.284 Y26.405
N13090 X54.13 Y26.982
N13095 X54.947 Y27.601
N13100 X55.731 Y28.259
N13105 X56.481 Y28.957
N13110 X57.194 Y29.692
N13115 X57.87 Y30.462
N13120 X58.506 Y31.265
N13125 X59.103 Y32.098
N13130 X59.657 Y32.959
N13135 X60.169 Y33.846
N13140 X60.636 Y34.757
N13145 X61.059 Y35.691
N13150 X61.433 Y36.644
N13155 X61.759 Y37.615
N13160 X62.037 Y38.601
N13165 X62.265 Y39.6
N13170 X62.444 Y40.608
N13175 X62.573 Y41.624
N13180 X62.651 Y42.645
N13185 X62.679 Y43.669
N13190 X62.656 Y44.693
N13195 X62.58 Y45.715
N13200 X62.452 Y46.731
N13205 X62.274 Y47.74
N13210 X62.044 Y48.738
N13215 X61.766 Y49.724
N13220 X61.439 Y50.694
N13225 X61.063 Y51.647
N13230 X60.641 Y52.581
N13235 X60.173 Y53.492
N13240 X59.659 Y54.378
N13245 X59.1 Y55.236
N13250 X58.499 Y56.066
N13255 X57.858 Y56.864
N13260 X57.177 Y57.63
N13265 X56.46 Y58.361
N13270 X55.707 Y59.056
N13275 X54.921 Y59.712
N13280 X54.104 Y60.329
N13285 X53.256 Y60.904
N13290 X52.38 Y61.435
N13295 X51.479 Y61.922
N13300 X50.554 Y62.363
N13305 X49.609 Y62.758
N13310 X48.646 Y63.106
N13315 X47.667 Y63.407
N13320 X46.674 Y63.659
N13325 X45.67 Y63.863
N13330 X44.658 Y64.017
N13335 X43.639 Y64.12
N13340 X42.616 Y64.173
N13345 X41.591 Y64.176
N13350 X40.568 Y64.129
N13355 X39.548 Y64.033
N13360 X38.534 Y63.888
N13365 X37.529 Y63.694
N13370 X36.534 Y63.452
N13375 X35.551 Y63.161
N13380 X34.585 Y62.822
N13385 X33.636 Y62.437
N13390 X32.706 Y62.006
N13395 X31.799 Y61.531
N13400 X30.915 Y61.014
N13405 X30.056 Y60.456
N13410 X29.225 Y59.857
N13415 X28.424 Y59.219
N13420 X27.654 Y58.543
N13425 X26.918 Y57.831
N13430 X26.217 Y57.084
N13435 X25.553 Y56.304
N13440 X24.927 Y55.493
N13445 X24.34 Y54.654
N13450 X23.793 Y53.788
N13455 X23.287 Y52.897
N13460 X22.824 Y51.983
N13465 X22.405 Y51.049
N13470 X22.031 Y50.095
N13475 X21.704 Y49.125
N13480 X21.423 Y48.14
N13485 X21.19 Y47.142
N13490 X21.004 Y46.135
N13495 X20.865 Y45.12
N13500 X20.773 Y44.1
N13505 X20.729 Y43.077
N13510 X20.734 Y42.052
N13515 X20.787 Y41.03
N13520 X20.889 Y40.01
N13525 X21.04 Y38.997
N13530 X21.239 Y37.992
N13535 X21.485 Y36.998
N13540 X21.778 Y36.017
N13545 X22.115 Y35.049
N13550 X22.497 Y34.099
N13555 X22.923 Y33.168
N13560 X23.393 Y32.257
N13565 X23.905 Y31.37
N13570 X24.459 Y30.509
N13575 X25.054 Y29.675
N13580 X25.687 Y28.87
N13585 X26.358 Y28.096
N13590 X27.063 Y27.353
N13595 X27.803 Y26.644
N13600 X28.574 Y25.971
N13605 X29.376 Y25.334
N13610 X30.208 Y24.735
N13615 X31.066 Y24.177
N13620 X31.951 Y23.661
N13625 X32.859 Y23.187
N13630 X33.789 Y22.756
N13635 X34.737 Y22.37
N13640 X35.703 Y22.027
N13645 X36.683 Y21.73
N13650 X37.676 Y21.479
N13655 X38.679 Y21.274
N13660 X39.691 Y21.117
N13665 X40.71 Y21.009
N13670 X41.733 Y20.949
N13675 X42.757 Y20.938
N13680 X43.78 Y20.975
N13685 X44.801 Y21.059
N13690 X45.817 Y21.189
N13695 X46.826 Y21.367
N13700 X47.826 Y21.59
N13705 X48.814 Y21.86
N13710 X49.788 Y22.176
N13715 X50.747 Y22.537
N13720 X51.687 Y22.943
N13725 X52.608 Y23.391
N13730 X53.508 Y23.881
N13735 X54.384 Y24.41
N13740 X55.236 Y24.979
N13745 X56.062 Y25.585
N13750 X56.859 Y26.228
N13755 X57.627 Y26.907
N13760 X58.363 Y27.619
N13765 X59.065 Y28.365
N13770 X59.732 Y29.141
N13775 X60.365 Y29.948
N13780 X60.96 Y30.781
N13785 X61.518 Y31.64
N13790 X62.038 Y32.522
N13795 X62.518 Y33.427
N13800 X62.958 Y34.352
N13805 X63.357 Y35.296
N13810 X63.712 Y36.256
N13815 X64.023 Y37.232
N13820 X64.29 Y38.221
N13825 X64.512 Y39.221
N13830 X64.689 Y40.23
N13835 X64.821 Y41.246
N13840 X64.908 Y42.266
N13845 X64.95 Y43.29
N13850 X64.946 Y44.314
N13855 X64.896 Y45.337
N13860 X64.8 Y46.357
N13865 X64.656 Y47.371
N13870 X64.466 Y48.377
N13875 X64.231 Y49.374
N13880 X63.951 Y50.359
N13885 X63.627 Y51.331
N13890 X63.261 Y52.288
N13895 X62.852 Y53.227
N13900 X62.401 Y54.147
N13905 X61.91 Y55.045
N13910 X61.378 Y55.921
N13915 X60.806 Y56.771
N13920 X60.196 Y57.594
N13925 X59.55 Y58.388
N13930 X58.869 Y59.153
N13935 X58.154 Y59.887
N13940 X57.408 Y60.588
N13945 X56.631 Y61.256
N13950 X55.825 Y61.889
N13955 X54.992 Y62.485
N13960 X54.133 Y63.042
N13965 X53.249 Y63.56
N13970 X52.343 Y64.036
N13975 X51.416 Y64.472
N13980 X50.47 Y64.866
N13985 X49.508 Y65.218
N13990 X48.532 Y65.527
N13995 X47.543 Y65.793
N14000 X46.543 Y66.016
N14005 X45.534 Y66.194
N14010 X44.519 Y66.327
N14015 X43.498 Y66.415
N14020 X42.475 Y66.456
N14025 X41.45 Y66.452
N14030 X40.427 Y66.403
N14035 X39.407 Y66.31
N14040 X38.392 Y66.173
N14045 X37.384 Y65.991
N14050 X36.385 Y65.766
N14055 X35.396 Y65.498
N14060 X34.42 Y65.187
N14065 X33.459 Y64.832
N14070 X32.515 Y64.436
N14075 X31.589 Y63.998
N14080 X30.683 Y63.52
N14085 X29.798 Y63.004
N14090 X28.936 Y62.451
N14095 X28.099 Y61.861
N14100 X27.288 Y61.235
N14105 X26.504 Y60.576
N14110 X25.75 Y59.883
N14115 X25.027 Y59.157
N14120 X24.336 Y58.401
N14125 X23.68 Y57.615
N14130 X23.057 Y56.801
N14135 X22.471 Y55.961
N14140 X21.92 Y55.098
N14145 X21.407 Y54.211
N14150 X20.931 Y53.304
N14155 X20.495 Y52.377
N14160 X20.099 Y51.433
N14165 X19.744 Y50.472
N14170 X19.431 Y49.497
N14175 X19.162 Y48.508
N14180 X18.935 Y47.51
N14185 X18.751 Y46.502
N14190 X18.61 Y45.487
N14195 X18.512 Y44.468
N14200 X18.457 Y43.445
N14205 X18.446 Y42.421
N14210 X18.477 Y41.397
N14215 X18.553 Y40.375
N14220 X18.673 Y39.358
N14225 X18.837 Y38.347
N14230 X19.045 Y37.344
N14235 X19.296 Y36.351
N14240 X19.588 Y35.369
N14245 X19.922 Y34.401
N14250 X20.296 Y33.447
N14255 X20.709 Y32.51
N14260 X21.162 Y31.592
N14265 X21.654 Y30.693
N14270 X22.183 Y29.816
N14275 X22.751 Y28.964
N14280 X23.355 Y28.136
N14285 X23.994 Y27.336
N14290 X24.666 Y26.563
N14295 X25.37 Y25.819
N14300 X26.105 Y25.106
N14305 X26.869 Y24.424
N14310 X27.662 Y23.774
N14315 X28.481 Y23.159
N14320 X29.325 Y22.579
N14325 X30.193 Y22.036
N14330 X31.085 Y21.532
N14335 X31.998 Y21.067
N14340 X32.929 Y20.641
N14345 X33.878 Y20.255
N14350 X34.842 Y19.908
N14355 X35.819 Y19.603
N14360 X36.809 Y19.339
N14365 X37.809 Y19.117
N14370 X38.817 Y18.937
N14375 X39.832 Y18.8
N14380 X40.853 Y18.708
N14385 X41.876 Y18.661
N14390 X42.9 Y18.657
N14395 X43.924 Y18.696
N14400 X44.944 Y18.778
N14405 X45.961 Y18.903
N14410 X46.972 Y19.07
N14415 X47.975 Y19.279
N14420 X48.968 Y19.529
N14425 X49.95 Y19.821
N14430 X50.918 Y20.154
N14435 X51.872 Y20.529
N14440 X52.808 Y20.943
N14445 X53.727 Y21.396
N14450 X54.626 Y21.887
N14455 X55.504 Y22.415
N14460 X56.36 Y22.977
N14465 X57.192 Y23.574
N14470 X57.999 Y24.205
N14475 X58.78 Y24.868
N14480 X59.533 Y25.562
N14485 X60.257 Y26.287
N14490 X60.95 Y27.041
N14495 X61.61 Y27.824
N14500 X62.238 Y28.633
N14505 X62.833 Y29.467
N14510 X63.394 Y30.324
N14515 X63.92 Y31.203
N14520 X64.41 Y32.103
N14525 X64.864 Y33.021
N14530 X65.28 Y33.957
N14535 X65.659 Y34.908
N14540 X65.998 Y35.875
N14545 X66.296 Y36.855
N14550 X66.553 Y37.846
N14555 X66.77 Y38.847
N14560 X66.946 Y39.856
N14565 X67.081 Y40.872
N14570 X67.175 Y41.892
N14575 X67.228 Y42.915
N14580 X67.24 Y43.939
N14585 X67.21 Y44.963
N14590 X67.138 Y45.984
N14595 X67.024 Y47.002
N14600 X66.867 Y48.015
N14605 X66.668 Y49.019
N14610 X66.427 Y50.015
N14615 X66.146 Y51.
N14620 X65.826 Y51.973
N14625 X65.466 Y52.932
N14630 X65.068 Y53.876
N14635 X64.632 Y54.802
N14640 X64.159 Y55.711
N14645 X63.649 Y56.599
N14650 X63.102 Y57.465
N14655 X62.519 Y58.308
N14660 X61.902 Y59.125
N14665 X61.252 Y59.917
N14670 X60.571 Y60.681
N14675 X59.859 Y61.418
N14680 X59.117 Y62.125
N14685 X58.349 Y62.801
N14690 X57.553 Y63.447
N14695 X56.732 Y64.059
N14700 X55.887 Y64.638
N14705 X55.018 Y65.181
N14710 X54.128 Y65.687
N14715 X53.217 Y66.156
N14720 X52.288 Y66.587
N14725 X51.343 Y66.981
N14730 X50.382 Y67.336
N14735 X49.408 Y67.653
N14740 X48.422 Y67.931
N14745 X47.426 Y68.169
N14750 X46.421 Y68.367
N14755 X45.409 Y68.525
N14760 X44.391 Y68.641
N14765 X43.37 Y68.715
N14770 X42.346 Y68.748
N14775 X41.322 Y68.739
N14780 X40.298 Y68.689
N14785 X39.278 Y68.599
N14790 X38.262 Y68.468
N14795 X37.252 Y68.298
N14800 X36.25 Y68.088
N14805 X35.256 Y67.838
N14810 X34.274 Y67.55
N14815 X33.303 Y67.222
N14820 X32.347 Y66.854
N14825 X31.407 Y66.448
N14830 X30.483 Y66.005
N14835 X29.578 Y65.526
N14840 X28.692 Y65.012
N14845 X27.827 Y64.463
N14850 X26.984 Y63.881
N14855 X26.164 Y63.267
N14860 X25.369 Y62.621
N14865 X24.6 Y61.945
N14870 X23.858 Y61.239
N14875 X23.146 Y60.503
N14880 X22.464 Y59.739
N14885 X21.812 Y58.948
N14890 X21.193 Y58.133
N14895 X20.605 Y57.294
N14900 X20.051 Y56.432
N14905 X19.53 Y55.55
N14910 X19.044 Y54.649
N14915 X18.593 Y53.729
N14920 X18.178 Y52.793
N14925 X17.8 Y51.84
N14930 X17.46 Y50.874
N14935 X17.16 Y49.895
N14940 X16.899 Y48.905
N14945 X16.677 Y47.905
N14950 X16.494 Y46.897
N14955 X16.35 Y45.883
N14960 X16.245 Y44.864
N14965 X16.179 Y43.842
N14970 X16.153 Y42.818
N14975 X16.167 Y41.794
N14980 X16.22 Y40.771
N14985 X16.313 Y39.751
N14990 X16.447 Y38.735
N14995 X16.622 Y37.726
N15000 X16.836 Y36.724
N15005 X17.089 Y35.732
N15010 X17.38 Y34.75
N15015 X17.709 Y33.78
N15020 X18.075 Y32.823
N15025 X18.477 Y31.881
N15030 X18.915 Y30.955
N15035 X19.388 Y30.047
N15040 X19.897 Y29.157
N15045 X20.44 Y28.289
N15050 X21.018 Y27.443
N15055 X21.628 Y26.621
N15060 X22.271 Y25.823
N15065 X22.943 Y25.051
N15070 X23.645 Y24.305
N15075 X24.375 Y23.586
N15080 X25.132 Y22.896
N15085 X25.915 Y22.236
N15090 X26.723 Y21.606
N15095 X27.554 Y21.007
N15100 X28.408 Y20.442
N15105 X29.284 Y19.911
N15110 X30.181 Y19.416
N15115 X31.096 Y18.956
N15120 X32.029 Y18.533
N15125 X32.977 Y18.145
N15130 X33.939 Y17.794
N15135 X34.914 Y17.48
N15140 X35.901 Y17.204
N15145 X36.897 Y16.966
N15150 X37.901 Y16.766
N15155 X38.913 Y16.605
N15160 X39.93 Y16.484
N15165 X40.951 Y16.404
N15170 X41.975 Y16.365
N15175 X42.999
N15180 X44.023 Y16.405
N15185 X45.044 Y16.484
N15190 X46.061 Y16.602
N15195 X47.073 Y16.759
N15200 X48.079 Y16.953
N15205 X49.077 Y17.186
N15210 X50.065 Y17.456
N15215 X51.041 Y17.765
N15220 X52.005 Y18.111
N15225 X52.955 Y18.495
N15230 X53.889 Y18.916
N15235 X54.806 Y19.372
N15240 X55.705 Y19.862
N15245 X56.586 Y20.385
N15250 X57.446 Y20.941
N15255 X58.285 Y21.529
N15260 X59.102 Y22.147
N15265 X59.895 Y22.795
N15270 X60.663 Y23.473
N15275 X61.405 Y24.179
N15280 X62.119 Y24.913
N15285 X62.805 Y25.674
N15290 X63.461 Y26.461
N15295 X64.087 Y27.271
N15300 X64.683 Y28.105
N15305 X65.247 Y28.959
N15310 X65.78 Y29.834
N15315 X66.281 Y30.727
N15320 X66.748 Y31.639
N15325 X67.182 Y32.567
N15330 X67.581 Y33.51
N15335 X67.944 Y34.468
N15340 X68.271 Y35.439
N15345 X68.56 Y36.421
N15350 X68.811 Y37.414
N15355 X69.026 Y38.416
N15360 X69.203 Y39.425
N15365 X69.342 Y40.44
N15370 X69.445 Y41.459
N15375 X69.509 Y42.481
N15380 X69.536 Y43.505
N15385 X69.525 Y44.529
N15390 X69.476 Y45.552
N15395 X69.388 Y46.573
N15400 X69.261 Y47.589
N15405 X69.094 Y48.6
N15410 X68.89 Y49.603
N15415 X68.647 Y50.599
N15420 X68.368 Y51.584
N15425 X68.052 Y52.558
N15430 X67.701 Y53.52
N15435 X67.314 Y54.469
N15440 X66.893 Y55.402
N15445 X66.437 Y56.32
N15450 X65.947 Y57.219
N15455 X65.423 Y58.1
N15460 X64.866 Y58.959
N15465 X64.276 Y59.796
N15470 X63.655 Y60.611
N15475 X63.004 Y61.401
N15480 X62.323 Y62.167
N15485 X61.615 Y62.907
N15490 X60.881 Y63.621
N15495 X60.12 Y64.307
N15500 X59.335 Y64.965
N15505 X58.526 Y65.593
N15510 X57.694 Y66.191
N15515 X56.84 Y66.757
N15520 X55.965 Y67.289
N15525 X55.071 Y67.788
N15530 X54.158 Y68.252
N15535 X53.228 Y68.683
N15540 X52.283 Y69.078
N15545 X51.325 Y69.439
N15550 X50.354 Y69.764
N15555 X49.371 Y70.054
N15560 X48.379 Y70.308
N15565 X47.378 Y70.526
N15570 X46.37 Y70.706
N15575 X45.355 Y70.849
N15580 X44.336 Y70.953
N15585 X43.314 Y71.019
N15590 X42.29 Y71.046
N15595 X41.266 Y71.036
N15600 X40.243 Y70.988
N15605 X39.222 Y70.903
N15610 X38.205 Y70.781
N15615 X37.193 Y70.623
N15620 X36.188 Y70.428
N15625 X35.19 Y70.197
N15630 X34.201 Y69.93
N15635 X33.223 Y69.627
N15640 X32.256 Y69.287
N15645 X31.303 Y68.911
N15650 X30.365 Y68.5
N15655 X29.443 Y68.055
N15660 X28.537 Y67.577
N15665 X27.649 Y67.067
N15670 X26.779 Y66.525
N15675 X25.93 Y65.952
N15680 X25.102 Y65.35
N15685 X24.295 Y64.718
N15690 X23.512 Y64.058
N15695 X22.754 Y63.37
N15700 X22.021 Y62.654
N15705 X21.316 Y61.911
N15710 X20.639 Y61.143
N15715 X19.99 Y60.35
N15720 X19.37 Y59.535
N15725 X18.779 Y58.698
N15730 X18.219 Y57.84
N15735 X17.689 Y56.964
N15740 X17.191 Y56.068
N15745 X16.726 Y55.156
N15750 X16.292 Y54.228
N15755 X15.893 Y53.285
N15760 X15.528 Y52.328
N15765 X15.199 Y51.358
N15770 X14.906 Y50.376
N15775 X14.649 Y49.385
N15780 X14.427 Y48.385
N15785 X14.242 Y47.378
N15790 X14.092 Y46.364
N15795 X13.979 Y45.346
N15800 X13.901 Y44.325
N15805 X13.86 Y43.302
N15810 X13.854 Y42.277
N15815 X13.885 Y41.253
N15820 X13.953 Y40.231
N15825 X14.059 Y39.213
N15830 X14.202 Y38.198
N15835 X14.383 Y37.19
N15840 X14.599 Y36.189
N15845 X14.851 Y35.196
N15850 X15.138 Y34.213
N15855 X15.459 Y33.24
N15860 X15.815 Y32.28
N15865 X16.204 Y31.332
N15870 X16.627 Y30.399
N15875 X17.082 Y29.482
N15880 X17.569 Y28.581
N15885 X18.089 Y27.698
N15890 X18.642 Y26.836
N15895 X19.226 Y25.994
N15900 X19.839 Y25.174
N15905 X20.482 Y24.376
N15910 X21.152 Y23.602
N15915 X21.85 Y22.852
N15920 X22.573 Y22.127
N15925 X23.322 Y21.428
N15930 X24.094 Y20.755
N15935 X24.89 Y20.11
N15940 X25.708 Y19.494
N15945 X26.548 Y18.907
N15950 X27.409 Y18.352
N15955 X28.29 Y17.83
N15960 X29.189 Y17.339
N15965 X30.105 Y16.881
N15970 X31.037 Y16.456
N15975 X31.983 Y16.064
N15980 X32.943 Y15.705
N15985 X33.914 Y15.381
N15990 X34.897 Y15.091
N15995 X35.888 Y14.836
N16000 X36.889 Y14.615
N16005 X37.896 Y14.431
N16010 X38.91 Y14.283
N16015 X39.928 Y14.173
N16020 X40.95 Y14.1
N16025 X41.974 Y14.064
N16030 X42.998
N16035 X44.021 Y14.101
N16040 X45.043 Y14.174
N16045 X46.062 Y14.282
N16050 X47.076 Y14.426
N16055 X48.084 Y14.605
N16060 X49.086 Y14.819
N16065 X50.08 Y15.068
N16070 X51.064 Y15.352
N16075 X52.037 Y15.672
N16080 X52.998 Y16.026
N16085 X53.945 Y16.415
N16090 X54.878 Y16.838
N16095 X55.796 Y17.292
N16100 X56.698 Y17.778
N16105 X57.582 Y18.295
N16110 X58.448 Y18.842
N16115 X59.295 Y19.419
N16120 X60.121 Y20.024
N16125 X60.927 Y20.657
N16130 X61.71 Y21.317
N16135 X62.469 Y22.004
N16140 X63.204 Y22.718
N16145 X63.912 Y23.458
N16150 X64.594 Y24.222
N16155 X65.249 Y25.009
N16160 X65.877 Y25.819
N16165 X66.477 Y26.649
N16170 X67.048 Y27.499
N16175 X67.59 Y28.368
N16180 X68.103 Y29.255
N16185 X68.585 Y30.159
N16190 X69.036 Y31.078
N16195 X69.456 Y32.013
N16200 X69.843 Y32.961
N16205 X70.196 Y33.922
N16210 X70.515 Y34.896
N16215 X70.8 Y35.88
N16220 X71.051 Y36.873
N16225 X71.267 Y37.874
N16230 X71.449 Y38.882
N16235 X71.596 Y39.896
N16240 X71.71 Y40.914
N16245 X71.788 Y41.935
N16250 X71.832 Y42.958
N16255 X71.841 Y43.982
N16260 X71.815 Y45.006
N16265 X71.753 Y46.029
N16270 X71.654 Y47.048
N16275 X71.519 Y48.064
N16280 X71.349 Y49.074
N16285 X71.144 Y50.077
N16290 X70.904 Y51.073
N16295 X70.63 Y52.06
N16300 X70.322 Y53.037
N16305 X69.982 Y54.003
N16310 X69.608 Y54.957
N16315 X69.203 Y55.897
N16320 X68.765 Y56.824
N16325 X68.297 Y57.734
N16330 X67.796 Y58.628
N16335 X67.263 Y59.503
N16340 X66.7 Y60.358
N16345 X66.108 Y61.194
N16350 X65.486 Y62.008
N16355 X64.837 Y62.801
N16360 X64.162 Y63.57
N16365 X63.46 Y64.317
N16370 X62.734 Y65.039
N16375 X61.983 Y65.736
N16380 X61.21 Y66.407
N16385 X60.414 Y67.052
N16390 X59.596 Y67.669
N16395 X58.757 Y68.257
N16400 X57.898 Y68.814
N16405 X57.02 Y69.341
N16410 X56.123 Y69.837
N16415 X55.211 Y70.302
N16420 X54.282 Y70.735
N16425 X53.34 Y71.137
N16430 X52.385 Y71.506
N16435 X51.417 Y71.843
N16440 X50.439 Y72.147
N16445 X49.452 Y72.418
N16450 X48.455 Y72.656
N16455 X47.452 Y72.86
N16460 X46.441 Y73.029
N16465 X45.426 Y73.162
N16470 X44.406 Y73.26
N16475 X43.384 Y73.323
N16480 X42.36 Y73.35
N16485 X41.336 Y73.343
N16490 X40.312 Y73.301
N16495 X39.291 Y73.225
N16500 X38.272 Y73.115
N16505 X37.258 Y72.972
N16510 X36.25 Y72.794
N16515 X35.247 Y72.583
N16520 X34.252 Y72.339
N16525 X33.267 Y72.06
N16530 X32.291 Y71.747
N16535 X31.327 Y71.401
N16540 X30.376 Y71.022
N16545 X29.438 Y70.611
N16550 X28.514 Y70.169
N16555 X27.605 Y69.696
N16560 X26.713 Y69.193
N16565 X25.838 Y68.661
N16570 X24.981 Y68.1
N16575 X24.143 Y67.511
N16580 X23.324 Y66.895
N16585 X22.527 Y66.252
N16590 X21.752 Y65.583
N16595 X21. Y64.887
N16600 X20.273 Y64.165
N16605 X19.571 Y63.42
N16610 X18.894 Y62.651
N16615 X18.243 Y61.86
N16620 X17.619 Y61.047
N16625 X17.023 Y60.215
N16630 X16.454 Y59.363
N16635 X15.913 Y58.493
N16640 X15.401 Y57.606
N16645 X14.918 Y56.703
N16650 X14.466 Y55.784
N16655 X14.044 Y54.85
N16660 X13.654 Y53.903
N16665 X13.297 Y52.943
N16670 X12.973 Y51.971
N16675 X12.682 Y50.989
N16680 X12.424 Y49.998
N16685 X12.199 Y48.999
N16690 X12.007 Y47.993
N16695 X11.848 Y46.981
N16700 X11.722 Y45.964
N16705 X11.629 Y44.944
N16710 X11.57 Y43.922
N16715 X11.544 Y42.898
N16720 X11.552 Y41.908
N16725 X11.553 Y41.865
N16730 X11.649 Y40.066
N16735 X11.664 Y39.834
N16740 X11.736 Y39.136
N16745 X11.77 Y38.903
N16750 X12.107 Y36.811
N16755 X12.15 Y36.578
N16760 X12.243 Y36.113
N16765 X12.292 Y35.881
N16770 X12.863 Y33.788
N16775 X12.927 Y33.556
N16780 X13.142 Y32.858
N16785 X13.226 Y32.625
N16790 X14.044 Y30.533
N16795 X14.141 Y30.3
N16800 X14.347 Y29.835
N16805 X14.451 Y29.603
N16810 X15.66 Y27.278
N16815 X16.113 Y26.542
N16820 X16.238 Y26.347
N16825 X17.164 Y24.952
N16830 X17.324 Y24.72
N16835 X17.74 Y24.121
N16840 X17.821 Y24.022
N16845 X19.556 Y21.93
N16850 X19.6 Y21.877
N16855 X19.761 Y21.697
N16860 X20.297 Y21.168
N16865 X20.995 Y20.488
N16870 X21.925 Y19.583
N16875 X22.157 Y19.369
N16880 X24.25 Y17.726
N16885 X24.482 Y17.559
N16890 X24.947 Y17.233
N16895 X25.18 Y17.075
N16900 X26.807 Y16.057
N16905 X27.459 Y15.652
N16910 X27.505 Y15.627
N16915 X27.97 Y15.397
N16920 X29.838 Y14.489
N16925 X30.527 Y14.175
N16930 X30.76 Y14.08
N16935 X33.085 Y13.241
N16940 X33.499 Y13.094
N16945 X33.782 Y13.017
N16950 X34.247 Y12.903
N16955 X36.339 Y12.392
N16960 X36.572 Y12.335
N16965 X36.804 Y12.289
N16970 X37.037 Y12.252
N16975 X38.432 Y12.065
N16980 X38.664 Y12.035
N16985 X39.362 Y11.95
N16990 X40.059 Y11.876
N16995 X40.292 Y11.86
N17000 X40.757 Y11.836
N17005 X40.989 Y11.826
N17010 X41.687 Y11.807
N17015 X42.384 Y11.793
N17020 X42.617 Y11.79
N17025 X43.082
N17030 X43.314 Y11.791
N17035 X44.012 Y11.822
N17040 X44.244 Y11.837
N17045 X45.407 Y11.931
N17050 X45.639 Y11.95
N17055 X46.337 Y12.024
N17060 X46.569 Y12.052
N17065 X47.034 Y12.117
N17070 X47.267 Y12.15
N17075 X49.591 Y12.588
N17080 X49.749 Y12.629
N17085 X50.289 Y12.773
N17090 X50.521 Y12.839
N17095 X52.614 Y13.47
N17100 X52.846 Y13.546
N17105 X53.544 Y13.815
N17110 X53.776 Y13.912
N17115 X55.869 Y14.795
N17120 X56.101 Y14.911
N17125 X56.615 Y15.187
N17130 X56.799 Y15.286
N17135 X58.426 Y16.187
N17140 X58.659 Y16.322
N17145 X59.094 Y16.582
N17150 X59.124 Y16.601
N17155 X61.449 Y18.234
N17160 X61.708 Y18.442
N17165 X61.914 Y18.608
N17170 X63.849 Y20.302
N17175 X64.471 Y20.922
N17180 X64.546 Y21.
N17185 X66.098 Y22.681
N17190 X66.258 Y22.86
N17195 X66.627 Y23.325
N17200 X67.261 Y24.176
N17205 X67.726 Y24.802
N17210 X67.837 Y24.952
N17215 X68.344 Y25.65
N17220 X68.423 Y25.774
N17225 X69.72 Y27.975
N17230 X69.818 Y28.154
N17235 X70.09 Y28.673
N17240 X70.207 Y28.905
N17245 X71.213 Y31.122
N17250 X71.26 Y31.23
N17255 X71.518 Y31.928
N17260 X71.598 Y32.16
N17265 X72.291 Y34.253
N17270 X72.357 Y34.486
N17275 X72.473 Y34.951
N17280 X72.531 Y35.183
N17285 X72.983 Y37.276
N17290 X73.033 Y37.508
N17295 X73.138 Y38.206
N17300 X73.167 Y38.438
N17305 X73.39 Y40.531
N17310 X73.41 Y40.764
N17315 X73.438 Y41.229
N17320 X73.451 Y41.461
N17325 Y43.786
N17330 X73.433 Y44.484
N17335 X73.417 Y44.716
N17340 X73.193 Y46.809
N17345 X73.167 Y47.042
N17350 X73.086 Y47.739
N17355 X73.073 Y47.802
N17360 X72.533 Y50.297
N17365 X72.431 Y50.762
N17370 X72.376 Y50.973
N17375 X72.141 Y51.692
N17380 X71.603 Y53.32
N17385 X71.369 Y54.017
N17390 X71.267 Y54.25
N17395 X70.847 Y55.18
N17400 X70.214 Y56.575
N17405 X70.102 Y56.807
N17410 X69.987 Y57.04
N17415 X69.865 Y57.272
N17420 X68.632 Y59.365
N17425 X68.491 Y59.598
N17430 X68.017 Y60.295
N17435 X67.958 Y60.379
N17440 X66.811 Y61.923
N17445 X66.268 Y62.62
N17450 X66.098 Y62.813
N17455 X64.703 Y64.325
N17460 X64.556 Y64.481
N17465 X64.006 Y65.054
N17470 X63.866 Y65.178
N17475 X62.272 Y66.573
N17480 X62.146 Y66.681
N17485 X61.681 Y67.07
N17490 X61.449 Y67.26
N17495 X59.116 Y68.898
N17500 X58.891 Y69.044
N17505 X58.324 Y69.363
N17510 X56.225 Y70.526
N17515 X56.101 Y70.591
N17520 X55.869 Y70.699
N17525 X53.776 Y71.582
N17530 X53.544 Y71.679
N17535 X52.846 Y71.948
N17540 X52.614 Y72.024
N17545 X50.521 Y72.655
N17550 X50.289 Y72.721
N17555 X49.802 Y72.851
N17560 X49.591 Y72.906
N17565 X47.267 Y73.344
N17570 X46.569 Y73.461
N17575 X46.337 Y73.489
N17580 X43.547 Y73.712
N17585 X43.314 Y73.728
N17590 X43.082 Y73.724
N17595 X40.292 Y73.65
N17600 X40.059 Y73.637
N17605 X39.327 Y73.549
N17610 X37.037 Y73.242
N17615 X36.804 Y73.198
N17620 X36.276 Y73.084
N17625 X36.107 Y73.046
N17630 X34.015 Y72.535
N17635 X33.782 Y72.476
N17640 X33.085 Y72.25
N17645 X32.809 Y72.154
N17650 X30.76 Y71.415
N17655 X30.527 Y71.322
N17660 X29.809 Y70.991
N17665 X28.202 Y70.21
N17670 X27.505 Y69.868
N17675 X27.435 Y69.829
N17680 X27.272 Y69.728
N17685 X24.947 Y68.274
N17690 X24.834 Y68.201
N17695 X24.482 Y67.942
N17700 X24.25 Y67.768
N17705 X22.729 Y66.573
N17710 X22.157 Y66.104
N17715 X21.925 Y65.911
N17720 X20.297 Y64.327
N17725 X20.218 Y64.248
N17730 X19.6 Y63.612
N17735 X19.544 Y63.551
N17740 X18.002 Y61.69
N17745 X17.631 Y61.225
N17750 X17.508 Y61.06
N17755 X16.075 Y58.9
N17760 X15.929 Y58.668
N17765 X15.648 Y58.186
N17770 X15.531 Y57.97
N17775 X14.444 Y55.877
N17780 X14.324 Y55.645
N17785 X14.253 Y55.477
N17790 X14.02 Y54.9
N17795 X13.221 Y52.855
N17800 X13.09 Y52.514
N17805 X13.051 Y52.39
N17810 X12.732 Y51.227
N17815 X12.393 Y49.98
N17820 X12.227 Y49.367
N17825 X12.183 Y49.134
N17830 X12.068 Y48.437
N17835 X11.73 Y46.344
N17840 X11.698 Y46.112
N17845 X11.662 Y45.647
N17850 X11.636 Y45.182
N17855 X11.524 Y43.089
N17860 Y42.856
N17865 X11.531 Y42.391
N17870 X11.538 Y42.159
N17875 X11.553 Y41.865
N17880 X11.568 Y41.774
N17885 X11.598 Y41.686
N17890 X11.638 Y41.624 Z-5.992
N17895 X11.678 Y41.563 Z-5.979
N17900 X11.716 Y41.504 Z-5.956
N17905 X11.78 Y41.458 Z-5.918
N17910 X11.839 Y41.415 Z-5.868
N17915 X11.892 Y41.377 Z-5.809
N17920 X11.946 Y41.359 Z-5.738
N17925 X11.989 Y41.346 Z-5.66
N17930 X12.021 Y41.335 Z-5.576
N17935 X12.041 Y41.329 Z-5.488
N17940 X12.047 Y41.327 Z-5.397
N17945 G0 Z5.
N17950 X72.078 Y49.944
N17955 Z-4.5
N17960 G1 Z-5.1 F1000.
N17965 X72.077 Y49.951 Z-5.194
N17970 X72.076 Y49.973 Z-5.285
N17975 X72.073 Y50.009 Z-5.372
N17980 X72.069 Y50.058 Z-5.453
N17985 X72.065 Y50.119 Z-5.524
N17990 X72.06 Y50.191 Z-5.585
N17995 X72.054 Y50.271 Z-5.635
N18000 X72.048 Y50.358 Z-5.671
N18005 X72.042 Y50.449 Z-5.693
N18010 X72.035 Y50.543 Z-5.7
N18015 G3 X71.446 Y53.79 I-15.279 J-1.095
N18020 G1 X71.37 Y54.017
N18025 X71.267 Y54.25
N18030 X71.22 Y54.329
N18035 X71.161 Y54.401
N18040 X71.101 Y54.444 Z-5.695
N18045 X71.042 Y54.486 Z-5.682
N18050 X70.985 Y54.527 Z-5.659
N18055 X70.908 Y54.547 Z-5.621
N18060 X70.837 Y54.566 Z-5.571
N18065 X70.775 Y54.582 Z-5.512
N18070 X70.729 Y54.584 Z-5.458
N18075 X70.679 Y54.579 Z-5.377
N18080 X70.642 Y54.575 Z-5.288
N18085 X70.619 Y54.573 Z-5.196
N18090 X70.612 Y54.572 Z-5.1
N18095 G0 Z5.
N18100 X72.076 Y49.945
N18105 Z-4.2
N18110 G1 Z-4.8 F1000.
N18115 X72.075 Y49.952 Z-4.894
N18120 X72.074 Y49.974 Z-4.985
N18125 X72.071 Y50.01 Z-5.072
N18130 X72.068 Y50.059 Z-5.153
N18135 X72.063 Y50.12 Z-5.224
N18140 X72.058 Y50.191 Z-5.285
N18145 X72.053 Y50.271 Z-5.335
N18150 X72.046 Y50.358 Z-5.371
N18155 X72.04 Y50.45 Z-5.393
N18160 X72.033 Y50.543 Z-5.4
N18165 G3 X71.446 Y53.79 I-15.279 J-1.088
N18170 G1 X71.37 Y54.017
N18175 X71.268 Y54.25
N18180 G3 X70.612 Y54.572 I-0.538 J-0.266
N18185 G1 X70.52 Y54.554 Z-5.393
N18190 X70.43 Y54.536 Z-5.371
N18195 X70.345 Y54.519 Z-5.335
N18200 X70.266 Y54.503 Z-5.285
N18205 X70.196 Y54.489 Z-5.224
N18210 X70.136 Y54.477 Z-5.153
N18215 X70.088 Y54.467 Z-5.072
N18220 X70.053 Y54.46 Z-4.985
N18225 X70.031 Y54.456 Z-4.894
N18230 X70.024 Y54.454 Z-4.8
N18235 G0 Z5.
N18240 X16.767 Y59.006
N18245 Z-4.2
N18250 G1 Z-4.8 F1000.
N18255 X16.762 Y59.001 Z-4.894
N18260 X16.747 Y58.985 Z-4.985
N18265 X16.723 Y58.958 Z-5.072
N18270 X16.69 Y58.921 Z-5.153
N18275 X16.65 Y58.876 Z-5.224
N18280 X16.602 Y58.822 Z-5.285
N18285 X16.548 Y58.762 Z-5.335
N18290 X16.49 Y58.698 Z-5.371
N18295 X16.429 Y58.629 Z-5.393
N18300 X16.367 Y58.559 Z-5.4
N18305 G3 X14.444 Y55.877 I11.415 J-10.214
N18310 G1 X14.323 Y55.645
N18315 X14.253 Y55.479
N18320 G3 X15.381 Y55.07 I0.564 J-0.204
N18325 X14.989 Y55.849 I-0.564 J0.204
N18330 X14.233 Y55.413 I-0.172 J-0.575
N18335 G1 X13.535 Y52.472
N18340 G3 X14.703 Y52.195 I0.584 J-0.139
N18345 X13.597 Y52.629 I-0.584 J0.139
N18350 X12.289 Y49.599 I13.329 J-7.548
N18355 G1 X12.227 Y49.367
N18360 X12.183 Y49.134
N18365 X12.178 Y49.042
N18370 X12.187 Y48.95
N18375 X12.213 Y48.881 Z-5.395
N18380 X12.239 Y48.813 Z-5.382
N18385 X12.264 Y48.747 Z-5.359
N18390 X12.317 Y48.688 Z-5.321
N18395 X12.365 Y48.633 Z-5.271
N18400 X12.408 Y48.584 Z-5.212
N18405 X12.457 Y48.556 Z-5.141
N18410 X12.497 Y48.533 Z-5.063
N18415 X12.526 Y48.516 Z-4.979
N18420 X12.543 Y48.506 Z-4.891
N18425 X12.549 Y48.502 Z-4.8
N18430 G0 Z5.
N18435 X72.074 Y49.945
N18440 Z-3.9
N18445 G1 Z-4.5 F1000.
N18450 Y49.953 Z-4.594
N18455 X72.072 Y49.975 Z-4.685
N18460 X72.07 Y50.01 Z-4.772
N18465 X72.066 Y50.06 Z-4.853
N18470 X72.062 Y50.121 Z-4.924
N18475 X72.057 Y50.192 Z-4.985
N18480 X72.051 Y50.272 Z-5.035
N18485 X72.045 Y50.359 Z-5.071
N18490 X72.038 Y50.45 Z-5.093
N18495 X72.032 Y50.544 Z-5.1
N18500 G3 X71.446 Y53.791 I-15.28 J-1.081
N18505 G1 X71.37 Y54.017
N18510 X71.268 Y54.25
N18515 G3 X70.612 Y54.572 I-0.538 J-0.266
N18520 G1 X70.52 Y54.553 Z-5.093
N18525 X70.43 Y54.535 Z-5.071
N18530 X70.345 Y54.518 Z-5.035
N18535 X70.266 Y54.502 Z-4.985
N18540 X70.196 Y54.488 Z-4.924
N18545 X70.136 Y54.476 Z-4.853
N18550 X70.088 Y54.467 Z-4.772
N18555 X70.053 Y54.46 Z-4.685
N18560 X70.031 Y54.455 Z-4.594
N18565 X70.024 Y54.454 Z-4.5
N18570 G0 Z5.
N18575 X39.448 Y12.282
N18580 Z-3.9
N18585 G1 Z-4.5 F1000.
N18590 X39.456 Z-4.594
N18595 X39.478 Y12.281 Z-4.685
N18600 X39.514 Y12.28 Z-4.772
N18605 X39.563 Y12.278 Z-4.853
N18610 X39.624 Y12.276 Z-4.924
N18615 X39.696 Y12.274 Z-4.985
N18620 X39.776 Y12.271 Z-5.035
N18625 X39.863 Y12.268 Z-5.071
N18630 X39.954 Y12.265 Z-5.093
N18635 X40.048 Y12.261 Z-5.1
N18640 G2 X43.314 Y11.789 I-0.531 J-15.209
N18645 G1 X43.284
N18650 X43.285 Y11.787
N18655 X43.377 Y11.798
N18660 X43.466 Y11.822
N18665 X43.53 Y11.86 Z-5.095
N18670 X43.593 Y11.897 Z-5.082
N18675 X43.653 Y11.932 Z-5.059
N18680 X43.703 Y11.994 Z-5.021
N18685 X43.749 Y12.051 Z-4.971
N18690 X43.789 Y12.101 Z-4.912
N18695 X43.809 Y12.155 Z-4.841
N18700 X43.825 Y12.197 Z-4.763
N18705 X43.837 Y12.229 Z-4.679
N18710 X43.844 Y12.248 Z-4.591
N18715 X43.846 Y12.254 Z-4.5
N18720 G0 Z5.
N18725 X24.336 Y18.329
N18730 Z-3.6
N18735 G1 Z-4.2 F1000.
N18740 X24.341 Y18.324 Z-4.294
N18745 X24.356 Y18.308 Z-4.385
N18750 X24.381 Y18.282 Z-4.472
N18755 X24.415 Y18.246 Z-4.553
N18760 X24.457 Y18.202 Z-4.624
N18765 X24.507 Y18.15 Z-4.685
N18770 X24.562 Y18.092 Z-4.735
N18775 X24.622 Y18.029 Z-4.771
N18780 X24.686 Y17.963 Z-4.793
N18785 X24.75 Y17.895 Z-4.8
N18790 G3 X27.272 Y15.767 I11.083 J10.574
N18795 G1 X27.456 Y15.652
N18800 X27.505 Y15.625
N18805 X27.737 Y15.511
N18810 G3 X28.097 Y15.501 I0.192 J0.429
N18815 G2 X31.041 Y16.068 I3.079 J-8.067
N18820 G1 X31.138 Y16.061
N18825 X31.233 Y16.04
N18830 X36.104 Y14.489
N18835 X36.194 Y14.452
N18840 X36.277 Y14.401
N18845 G2 X38.352 Y12.236 I-5.101 J-6.967
N18850 G3 X38.664 Y12.034 I0.391 J0.261
N18855 G1 X39.129 Y11.973
N18860 X39.362 Y11.943
N18865 X40.059 Y11.869
N18870 X40.292 Y11.855
N18875 X40.524 Y11.845
N18880 G3 X40.715 Y13.021 I0.026 J0.599
N18885 G1 X38.995 Y13.512
N18890 G3 X38.254 Y13.099 I-0.165 J-0.577
N18895 X38.667 Y12.358 I0.577 J-0.164
N18900 X41.919 Y11.801 I4.195 J14.732
N18905 G1 X42.384 Y11.789
N18910 X42.617 Y11.786
N18915 X43.082 Y11.785
N18920 X43.314
N18925 X43.779 Y11.809
N18930 G3 X44.318 Y12.302 I-0.051 J0.598
N18935 G1 X44.335 Y12.394 Z-4.793
N18940 X44.351 Y12.484 Z-4.771
N18945 X44.366 Y12.57 Z-4.735
N18950 X44.38 Y12.649 Z-4.685
N18955 X44.393 Y12.72 Z-4.624
N18960 X44.403 Y12.78 Z-4.553
N18965 X44.412 Y12.828 Z-4.472
N18970 X44.418 Y12.864 Z-4.385
N18975 X44.422 Y12.885 Z-4.294
N18980 X44.423 Y12.893 Z-4.2
N18985 G0 Z5.
N18990 X72.072 Y49.946
N18995 Z-3.6
N19000 G1 Z-4.2 F1000.
N19005 Y49.953 Z-4.294
N19010 X72.07 Y49.975 Z-4.385
N19015 X72.068 Y50.011 Z-4.472
N19020 X72.064 Y50.06 Z-4.553
N19025 X72.06 Y50.121 Z-4.624
N19030 X72.055 Y50.192 Z-4.685
N19035 X72.049 Y50.273 Z-4.735
N19040 X72.043 Y50.359 Z-4.771
N19045 X72.037 Y50.451 Z-4.793
N19050 X72.03 Y50.544 Z-4.8
N19055 G3 X71.446 Y53.792 I-15.28 J-1.074
N19060 G1 X71.371 Y54.017
N19065 X71.268 Y54.25
N19070 G3 X70.612 Y54.572 I-0.538 J-0.266
N19075 G1 X70.52 Y54.553 Z-4.793
N19080 X70.431 Y54.535 Z-4.771
N19085 X70.345 Y54.518 Z-4.735
N19090 X70.267 Y54.502 Z-4.685
N19095 X70.196 Y54.488 Z-4.624
N19100 X70.136 Y54.476 Z-4.553
N19105 X70.088 Y54.466 Z-4.472
N19110 X70.053 Y54.459 Z-4.385
N19115 X70.031 Y54.455 Z-4.294
N19120 X70.024 Y54.453 Z-4.2
N19125 G0 Z5.
N19130 X13.895 Y53.15
N19135 Z-3.6
N19140 G1 Z-4.2 F1000.
N19145 X13.892 Y53.144 Z-4.294
N19150 X13.881 Y53.124 Z-4.385
N19155 X13.863 Y53.093 Z-4.472
N19160 X13.839 Y53.05 Z-4.553
N19165 X13.808 Y52.997 Z-4.624
N19170 X13.773 Y52.935 Z-4.685
N19175 X13.734 Y52.865 Z-4.735
N19180 X13.691 Y52.789 Z-4.771
N19185 X13.645 Y52.71 Z-4.793
N19190 X13.599 Y52.628 Z-4.8
N19195 G3 X12.289 Y49.599 I13.322 J-7.56
N19200 G1 X12.226 Y49.367
N19205 X12.182 Y49.134
N19210 X12.16 Y49.002
N19215 X12.156 Y48.91
N19220 X12.165 Y48.818
N19225 X12.191 Y48.749 Z-4.795
N19230 X12.217 Y48.681 Z-4.782
N19235 X12.242 Y48.615 Z-4.759
N19240 X12.295 Y48.556 Z-4.721
N19245 X12.343 Y48.501 Z-4.671
N19250 X12.386 Y48.453 Z-4.612
N19255 X12.436 Y48.424 Z-4.541
N19260 X12.475 Y48.401 Z-4.463
N19265 X12.504 Y48.384 Z-4.379
N19270 X12.522 Y48.374 Z-4.291
N19275 X12.527 Y48.371 Z-4.2
N19280 G0 Z5.
N19285 X72.071 Y49.946
N19290 Z-3.3
N19295 G1 Z-3.9 F1000.
N19300 X72.07 Y49.954 Z-3.994
N19305 X72.069 Y49.976 Z-4.085
N19310 X72.066 Y50.012 Z-4.172
N19315 X72.063 Y50.061 Z-4.253
N19320 X72.058 Y50.122 Z-4.324
N19325 X72.053 Y50.193 Z-4.385
N19330 X72.048 Y50.273 Z-4.435
N19335 X72.042 Y50.36 Z-4.471
N19340 X72.035 Y50.451 Z-4.493
N19345 X72.029 Y50.545 Z-4.5
N19350 G3 X71.446 Y53.793 I-15.281 J-1.067
N19355 G1 X71.371 Y54.017
N19360 X71.269 Y54.25
N19365 X71.221 Y54.329
N19370 X71.162 Y54.401
N19375 X71.102 Y54.443 Z-4.495
N19380 X71.043 Y54.486 Z-4.482
N19385 X70.985 Y54.527 Z-4.459
N19390 X70.909 Y54.547 Z-4.421
N19395 X70.838 Y54.565 Z-4.371
N19400 X70.775 Y54.581 Z-4.312
N19405 X70.731 Y54.583 Z-4.259
N19410 X70.68 Y54.578 Z-4.178
N19415 X70.643 Y54.574 Z-4.089
N19420 X70.62 Y54.572 Z-3.996
N19425 X70.613 Y54.571 Z-3.9
N19430 G0 Z5.
N19435 X41.534 Y12.241
N19440 Z-3.
N19445 G1 Z-3.6 F1000.
N19450 X41.541 Y12.24 Z-3.694
N19455 X41.563 Y12.236 Z-3.785
N19460 X41.598 Y12.23 Z-3.872
N19465 X41.647 Y12.221 Z-3.953
N19470 X41.707 Y12.211 Z-4.024
N19475 X41.777 Y12.199 Z-4.085
N19480 X41.857 Y12.185 Z-4.135
N19485 X41.942 Y12.17 Z-4.171
N19490 X42.033 Y12.155 Z-4.193
N19495 X42.125 Y12.139 Z-4.2
N19500 G3 X45.418 Y11.931 I2.605 J15.095
N19505 G1 X45.639 Y11.949
N19510 X46.337 Y12.016
N19515 X46.569 Y12.044
N19520 X47.034 Y12.114
N19525 G3 X47.521 Y12.659 I-0.111 J0.59
N19530 G1 X47.528 Y12.753 Z-4.193
N19535 X47.535 Y12.844 Z-4.171
N19540 X47.541 Y12.931 Z-4.135
N19545 X47.547 Y13.011 Z-4.085
N19550 X47.553 Y13.082 Z-4.024
N19555 X47.557 Y13.143 Z-3.953
N19560 X47.561 Y13.192 Z-3.872
N19565 X47.564 Y13.228 Z-3.785
N19570 X47.565 Y13.25 Z-3.694
N19575 X47.566 Y13.257 Z-3.6
N19580 G0 Z5.
N19585 X72.069 Y49.947
N19590 Z-3.
N19595 G1 Z-3.6 F1000.
N19600 Y49.954 Z-3.694
N19605 X72.067 Y49.976 Z-3.785
N19610 X72.065 Y50.012 Z-3.872
N19615 X72.061 Y50.061 Z-3.953
N19620 X72.057 Y50.122 Z-4.024
N19625 X72.052 Y50.193 Z-4.085
N19630 X72.047 Y50.274 Z-4.135
N19635 X72.041 Y50.36 Z-4.171
N19640 X72.034 Y50.452 Z-4.193
N19645 X72.028 Y50.545 Z-4.2
N19650 G3 X71.446 Y53.794 I-15.281 J-1.062
N19655 G1 X71.372 Y54.017
N19660 X71.269 Y54.25
N19665 G3 X70.613 Y54.571 I-0.537 J-0.267
N19670 G1 X70.521 Y54.552 Z-4.193
N19675 X70.431 Y54.534 Z-4.171
N19680 X70.346 Y54.517 Z-4.135
N19685 X70.267 Y54.501 Z-4.085
N19690 X70.197 Y54.487 Z-4.024
N19695 X70.137 Y54.475 Z-3.953
N19700 X70.089 Y54.465 Z-3.872
N19705 X70.053 Y54.458 Z-3.785
N19710 X70.032 Y54.454 Z-3.694
N19715 X70.025 Y54.452 Z-3.6
N19720 G0 Z5.
N19725 X13.898 Y53.149
N19730 Z-3.
N19735 G1 Z-3.6 F1000.
N19740 X13.894 Y53.142 Z-3.694
N19745 X13.883 Y53.123 Z-3.785
N19750 X13.865 Y53.092 Z-3.872
N19755 X13.841 Y53.049 Z-3.953
N19760 X13.811 Y52.996 Z-4.024
N19765 X13.775 Y52.934 Z-4.085
N19770 X13.736 Y52.864 Z-4.135
N19775 X13.693 Y52.788 Z-4.171
N19780 X13.647 Y52.709 Z-4.193
N19785 X13.601 Y52.627 Z-4.2
N19790 G3 X12.288 Y49.599 I13.316 J-7.571
N19795 G1 X12.225 Y49.367
N19800 X12.181 Y49.134
N19805 X12.177 Y49.042
N19810 X12.186 Y48.95
N19815 X12.213 Y48.881 Z-4.195
N19820 X12.239 Y48.813 Z-4.182
N19825 X12.264 Y48.747 Z-4.159
N19830 X12.316 Y48.688 Z-4.121
N19835 X12.365 Y48.633 Z-4.071
N19840 X12.408 Y48.585 Z-4.012
N19845 X12.457 Y48.556 Z-3.941
N19850 X12.497 Y48.533 Z-3.863
N19855 X12.526 Y48.517 Z-3.779
N19860 X12.543 Y48.507 Z-3.691
N19865 X12.549 Y48.503 Z-3.6
N19870 G0 Z5.
N19875 X35.699 Y12.967
N19880 Z-2.7
N19885 G1 Z-3.3 F1000.
N19890 X35.706 Y12.964 Z-3.394
N19895 X35.726 Y12.956 Z-3.485
N19900 X35.76 Y12.944 Z-3.572
N19905 X35.806 Y12.926 Z-3.653
N19910 X35.863 Y12.905 Z-3.724
N19915 X35.93 Y12.88 Z-3.785
N19920 X36.005 Y12.851 Z-3.835
N19925 X36.087 Y12.821 Z-3.871
N19930 X36.172 Y12.788 Z-3.893
N19935 X36.26 Y12.755 Z-3.9
N19940 G3 X39.456 Y11.931 I5.4 J14.334
N19945 G1 X40.059 Y11.865
N19950 X40.292 Y11.851
N19955 X40.757 Y11.834
N19960 G3 X41.007 Y12.989 I0.022 J0.6
N19965 G1 X39.968 Y13.415
N19970 G3 X39.172 Y13.051 I-0.228 J-0.555
N19975 X39.587 Y12.28 I0.569 J-0.191
N19980 X42.849 Y11.783 I3.923 J14.807
N19985 G1 X43.082 Y11.781
N19990 X43.314
N19995 X43.547 Y11.794
N20000 X43.638 Y11.81
N20005 X43.726 Y11.839
N20010 X43.787 Y11.88 Z-3.895
N20015 X43.848 Y11.92 Z-3.882
N20020 X43.907 Y11.958 Z-3.859
N20025 X43.953 Y12.023 Z-3.821
N20030 X43.996 Y12.082 Z-3.771
N20035 X44.034 Y12.134 Z-3.712
N20040 X44.051 Y12.189 Z-3.641
N20045 X44.065 Y12.232 Z-3.563
N20050 X44.075 Y12.264 Z-3.479
N20055 X44.081 Y12.284 Z-3.391
N20060 X44.083 Y12.29 Z-3.3
N20065 G0 Z5.
N20070 X36.074 Y12.939
N20075 Z-2.1
N20080 G1 Z-2.7 F1000.
N20085 X36.081 Y12.937 Z-2.794
N20090 X36.102 Y12.929 Z-2.885
N20095 X36.135 Y12.916 Z-2.972
N20100 X36.181 Y12.898 Z-3.053
N20105 X36.238 Y12.877 Z-3.124
N20110 X36.305 Y12.851 Z-3.185
N20115 X36.38 Y12.823 Z-3.235
N20120 X36.462 Y12.792 Z-3.271
N20125 X36.547 Y12.759 Z-3.293
N20130 X36.635 Y12.725 Z-3.3
N20135 G3 X39.827 Y11.888 I5.459 J14.312
N20140 G1 X40.059 Y11.862
N20145 X40.292 Y11.849
N20150 X40.524 Y11.841
N20155 G3 X40.828 Y12.969 I0.02 J0.6
N20160 G1 X40.029 Y13.399
N20165 G3 X39.187 Y13.092 I-0.284 J-0.528
N20170 X39.589 Y12.291 I0.558 J-0.222
N20175 X42.849 Y11.782 I3.982 J14.791
N20180 G1 X43.082 Y11.779
N20185 X43.314 Y11.778
N20190 X43.779 Y11.806
N20195 X43.87 Y11.822
N20200 X43.958 Y11.852
N20205 X44.02 Y11.893 Z-3.295
N20210 X44.08 Y11.933 Z-3.282
N20215 X44.139 Y11.972 Z-3.259
N20220 X44.185 Y12.036 Z-3.221
N20225 X44.227 Y12.096 Z-3.171
N20230 X44.265 Y12.148 Z-3.112
N20235 X44.282 Y12.203 Z-3.041
N20240 X44.296 Y12.246 Z-2.963
N20245 X44.305 Y12.278 Z-2.879
N20250 X44.312 Y12.298 Z-2.791
N20255 X44.314 Y12.304 Z-2.7
N20260 G0 Z5.
N20265 X43.384 Y45.457
N20270 Z-3.497
N20275 G3 X41.617 Y40.038 Z-3.81 I-0.884 J-2.71 F333.33
N20280 X43.384 Y45.457 Z-4.122 I0.884 J2.71
N20285 X41.617 Y40.038 Z-4.435 I-0.884 J-2.71
N20290 X43.384 Y45.457 Z-4.748 I0.884 J2.71
N20295 X41.617 Y40.038 Z-5.06 I-0.884 J-2.71
N20300 X43.384 Y45.457 Z-5.373 I0.884 J2.71
N20305 X41.617 Y40.038 Z-5.686 I-0.884 J-2.71
N20310 X43.384 Y45.457 Z-5.998 I0.884 J2.71
N20315 X41.617 Y40.038 Z-6.311 I-0.884 J-2.71
N20320 X43.384 Y45.457 Z-6.624 I0.884 J2.71
N20325 X41.617 Y40.038 Z-6.936 I-0.884 J-2.71
N20330 X43.384 Y45.457 Z-7.249 I0.884 J2.71
N20335 X41.617 Y40.038 Z-7.562 I-0.884 J-2.71
N20340 X43.384 Y45.457 Z-7.874 I0.884 J2.71
N20345 X41.617 Y40.038 Z-8.187 I-0.884 J-2.71
N20350 X43.384 Y45.457 Z-8.5 I0.884 J2.71
N20355 X41.617 Y40.038 Z-8.812 I-0.884 J-2.71
N20360 X45.35 Y42.748 Z-9. I0.884 J2.71
N20365 X39.65 I-2.85 J0.
N20370 X45.35 I2.85 J0.
N20375 G1 X45.354 Y43.004 F1000.
N20380 X45.555 Y44.008
N20385 X45.587 Y44.155
N20390 X45.603 Y44.304
N20395 X45.606 Y44.454
N20400 X45.596 Y44.609
N20405 X45.572 Y44.773
N20410 X45.532 Y44.945
N20415 X45.476 Y45.125
N20420 X45.4 Y45.309
N20425 X45.306 Y45.496
N20430 X45.191 Y45.684
N20435 X45.056 Y45.871
N20440 X44.899 Y46.054
N20445 X44.721 Y46.231
N20450 X44.523 Y46.399
N20455 X44.304 Y46.555
N20460 X44.066 Y46.698
N20465 X43.81 Y46.825
N20470 X43.537 Y46.934
N20475 X43.25 Y47.023
N20480 X42.95 Y47.09
N20485 X42.64 Y47.134
N20490 X42.322 Y47.153
N20495 X41.998 Y47.146
N20500 X41.671 Y47.112
N20505 X41.344 Y47.052
N20510 X41.018 Y46.965
N20515 X40.698 Y46.851
N20520 X40.385 Y46.71
N20525 X40.082 Y46.543
N20530 X39.791 Y46.351
N20535 X39.515 Y46.135
N20540 X39.256 Y45.896
N20545 X39.015 Y45.636
N20550 X38.795 Y45.356
N20555 X38.598 Y45.058
N20560 X38.425 Y44.745
N20565 X38.277 Y44.418
N20570 X38.155 Y44.078
N20575 X38.061 Y43.73
N20580 X37.995 Y43.374
N20585 X37.957 Y43.014
N20590 X37.949 Y42.651
N20595 X37.97 Y42.288
N20600 X38.02 Y41.928
N20605 X38.098 Y41.573
N20610 X38.205 Y41.224
N20615 X38.34 Y40.885
N20620 X38.502 Y40.558
N20625 X38.689 Y40.245
N20630 X38.901 Y39.948
N20635 X39.137 Y39.668
N20640 X39.394 Y39.408
N20645 X39.671 Y39.17
N20650 X39.967 Y38.954
N20655 X40.279 Y38.763
N20660 X40.606 Y38.598
N20665 X40.944 Y38.459
N20670 X41.293 Y38.348
N20675 X41.65 Y38.265
N20680 X42.012 Y38.211
N20685 X42.378 Y38.187
N20690 X42.744 Y38.191
N20695 X43.109 Y38.225
N20700 X43.47 Y38.289
N20705 X43.824 Y38.381
N20710 X44.171 Y38.501
N20715 X44.506 Y38.649
N20720 X44.828 Y38.823
N20725 X45.136 Y39.022
N20730 X45.426 Y39.246
N20735 X45.698 Y39.492
N20740 X45.949 Y39.759
N20745 X46.178 Y40.045
N20750 X46.383 Y40.349
N20755 X46.701 Y40.913
N20760 X47.022 Y41.607
N20765 X47.22 Y42.147
N20770 X47.355 Y42.631
N20775 X47.443 Y43.079
N20780 X47.491 Y43.512
N20785 X47.504 Y43.931
N20790 X47.484 Y44.337
N20795 X47.433 Y44.734
N20800 X47.35 Y45.121
N20805 X47.237 Y45.499
N20810 X47.094 Y45.868
N20815 X46.921 Y46.225
N20820 X46.719 Y46.569
N20825 X46.488 Y46.899
N20830 X46.228 Y47.213
N20835 X45.941 Y47.507
N20840 X45.628 Y47.781
N20845 X45.289 Y48.032
N20850 X44.926 Y48.259
N20855 X44.541 Y48.458
N20860 X44.135 Y48.628
N20865 X43.711 Y48.767
N20870 X43.272 Y48.873
N20875 X42.821 Y48.943
N20880 X42.36 Y48.978
N20885 X41.893 Y48.976
N20890 X41.423 Y48.936
N20895 X40.953 Y48.858
N20900 X40.488 Y48.741
N20905 X40.03 Y48.586
N20910 X39.583 Y48.393
N20915 X39.15 Y48.164
N20920 X38.734 Y47.899
N20925 X38.338 Y47.6
N20930 X37.966 Y47.269
N20935 X37.62 Y46.907
N20940 X37.303 Y46.517
N20945 X37.017 Y46.1
N20950 X36.765 Y45.661
N20955 X36.548 Y45.202
N20960 X36.368 Y44.725
N20965 X36.227 Y44.234
N20970 X36.125 Y43.733
N20975 X36.064 Y43.224
N20980 X36.043 Y42.71
N20985 X36.064 Y42.196
N20990 X36.127 Y41.685
N20995 X36.23 Y41.179
N21000 X36.374 Y40.683
N21005 X36.557 Y40.2
N21010 X36.778 Y39.732
N21015 X37.037 Y39.284
N21020 X37.331 Y38.857
N21025 X37.658 Y38.455
N21030 X38.017 Y38.081
N21035 X38.404 Y37.736
N21040 X38.819 Y37.424
N21045 X39.257 Y37.145
N21050 X39.716 Y36.903
N21055 X40.193 Y36.698
N21060 X40.686 Y36.533
N21065 X41.19 Y36.407
N21070 X41.703 Y36.322
N21075 X42.22 Y36.278
N21080 X42.74 Y36.277
N21085 X43.259 Y36.317
N21090 X43.772 Y36.398
N21095 X44.277 Y36.52
N21100 X44.771 Y36.683
N21105 X45.251 Y36.884
N21110 X45.712 Y37.124
N21115 X46.153 Y37.4
N21120 X46.571 Y37.71
N21125 X47.004 Y38.089
N21130 X47.446 Y38.545
N21135 X47.86 Y39.046
N21140 X48.242 Y39.593
N21145 X48.579 Y40.167
N21150 X48.862 Y40.754
N21155 X49.091 Y41.347
N21160 X49.268 Y41.941
N21165 X49.393 Y42.534
N21170 X49.469 Y43.125
N21175 X49.497 Y43.712
N21180 X49.478 Y44.292
N21185 X49.413 Y44.864
N21190 X49.304 Y45.425
N21195 X49.15 Y45.974
N21200 X48.953 Y46.507
N21205 X48.713 Y47.023
N21210 X48.433 Y47.518
N21215 X48.113 Y47.991
N21220 X47.754 Y48.439
N21225 X47.358 Y48.86
N21230 X46.927 Y49.249
N21235 X46.462 Y49.606
N21240 X45.966 Y49.927
N21245 X45.442 Y50.209
N21250 X44.892 Y50.45
