%
(PROFILE_TUBE_CLEARANCE)
(T1  D=6. CR=0. - ZMIN=-30.2 - FLAT END MILL)
N10 G90 G94 G17 G91.1
N15 G21
N20 G53 G0 Z0.
(2D CONTOUR4)
N25 T1 M6
N30 S12000 M3
N35 G54
N40 G0 X13.1 Y43.347
N45 G43 Z15. H1
N50 G0 Z5.
N55 G1 Z4. F333.33
N60 Z-2.4
N65 G18 G3 X12.5 Z-3. I-0.6 K0. F1000.
N70 G1 X11.9
N75 G17 G3 X11.3 Y42.747 I0. J-0.6
N80 X73.7 I31.2 J0.
N85 X11.3 I-31.2 J0.
N90 X74.701 I31.7 J0.
N95 X10.3 I-32.2 J0.
N100 X43.5 Y10.563 I32.2 J0.
N105 X74.638 Y44.746 I-1. J32.184
N110 X74.002 Y45.307 I-0.599 J-0.037
N115 G1 X73.403 Y45.27
N120 X73.31 Y45.264 Z-2.993
N125 X73.218 Y45.259 Z-2.971
N130 X73.132 Y45.253 Z-2.935
N135 X73.051 Y45.248 Z-2.885
N140 X72.98 Y45.244 Z-2.824
N145 X72.919 Y45.24 Z-2.753
N150 X72.87 Y45.237 Z-2.672
N155 X72.834 Y45.235 Z-2.585
N160 X72.812 Y45.233 Z-2.494
N165 X72.805 Z-2.4
N170 G0 Z5.
N175 X13.1 Y43.347
N180 G1 Z1. F333.33
N185 Z-5.4
N190 G18 G3 X12.5 Z-6. I-0.6 K0. F1000.
N195 G1 X11.9
N200 G17 G3 X11.3 Y42.747 I0. J-0.6
N205 X73.7 I31.2 J0.
N210 X11.3 I-31.2 J0.
N215 X74.701 I31.7 J0.
N220 X10.3 I-32.2 J0.
N225 X43.5 Y10.563 I32.2 J0.
N230 X74.638 Y44.746 I-1. J32.184
N235 X74.002 Y45.307 I-0.599 J-0.037
N240 G1 X73.403 Y45.27
N245 X73.31 Y45.264 Z-5.993
N250 X73.218 Y45.259 Z-5.971
N255 X73.132 Y45.253 Z-5.935
N260 X73.051 Y45.248 Z-5.885
N265 X72.98 Y45.244 Z-5.824
N270 X72.919 Y45.24 Z-5.753
N275 X72.87 Y45.237 Z-5.672
N280 X72.834 Y45.235 Z-5.585
N285 X72.812 Y45.233 Z-5.494
N290 X72.805 Z-5.4
N295 G0 Z5.
N300 X13.1 Y43.347
N305 G1 Z-2. F333.33
N310 Z-8.4
N315 G18 G3 X12.5 Z-9. I-0.6 K0. F1000.
N320 G1 X11.9
N325 G17 G3 X11.3 Y42.747 I0. J-0.6
N330 X73.7 I31.2 J0.
N335 X11.3 I-31.2 J0.
N340 X74.701 I31.7 J0.
N345 X10.3 I-32.2 J0.
N350 X43.5 Y10.563 I32.2 J0.
N355 X74.638 Y44.746 I-1. J32.184
N360 X74.002 Y45.307 I-0.599 J-0.037
N365 G1 X73.403 Y45.27
N370 X73.31 Y45.264 Z-8.993
N375 X73.218 Y45.259 Z-8.971
N380 X73.132 Y45.253 Z-8.935
N385 X73.051 Y45.248 Z-8.885
N390 X72.98 Y45.244 Z-8.824
N395 X72.919 Y45.24 Z-8.753
N400 X72.87 Y45.237 Z-8.672
N405 X72.834 Y45.235 Z-8.585
N410 X72.812 Y45.233 Z-8.494
N415 X72.805 Z-8.4
N420 G0 Z5.
N425 X13.1 Y43.347
N430 G1 Z-5. F333.33
N435 Z-11.4
N440 G18 G3 X12.5 Z-12. I-0.6 K0. F1000.
N445 G1 X11.9
N450 G17 G3 X11.3 Y42.747 I0. J-0.6
N455 X73.7 I31.2 J0.
N460 X11.3 I-31.2 J0.
N465 X74.701 I31.7 J0.
N470 X10.3 I-32.2 J0.
N475 X43.5 Y10.563 I32.2 J0.
N480 X74.638 Y44.746 I-1. J32.184
N485 X74.002 Y45.307 I-0.599 J-0.037
N490 G1 X73.403 Y45.27
N495 X73.31 Y45.264 Z-11.993
N500 X73.218 Y45.259 Z-11.971
N505 X73.132 Y45.253 Z-11.935
N510 X73.051 Y45.248 Z-11.885
N515 X72.98 Y45.244 Z-11.824
N520 X72.919 Y45.24 Z-11.753
N525 X72.87 Y45.237 Z-11.672
N530 X72.834 Y45.235 Z-11.585
N535 X72.812 Y45.233 Z-11.494
N540 X72.805 Z-11.4
N545 G0 Z5.
N550 X13.1 Y43.347
N555 G1 Z-8. F333.33
N560 Z-14.4
N565 G18 G3 X12.5 Z-15. I-0.6 K0. F1000.
N570 G1 X11.9
N575 G17 G3 X11.3 Y42.747 I0. J-0.6
N580 X73.7 I31.2 J0.
N585 X11.3 I-31.2 J0.
N590 X74.701 I31.7 J0.
N595 X10.3 I-32.2 J0.
N600 X43.5 Y10.563 I32.2 J0.
N605 X74.638 Y44.746 I-1. J32.184
N610 X74.002 Y45.307 I-0.599 J-0.037
N615 G1 X73.403 Y45.27
N620 X73.31 Y45.264 Z-14.993
N625 X73.218 Y45.259 Z-14.971
N630 X73.132 Y45.253 Z-14.935
N635 X73.051 Y45.248 Z-14.885
N640 X72.98 Y45.244 Z-14.824
N645 X72.919 Y45.24 Z-14.753
N650 X72.87 Y45.237 Z-14.672
N655 X72.834 Y45.235 Z-14.585
N660 X72.812 Y45.233 Z-14.494
N665 X72.805 Z-14.4
N670 G0 Z5.
N675 X13.1 Y43.347
N680 G1 Z-11. F333.33
N685 Z-17.4
N690 G18 G3 X12.5 Z-18. I-0.6 K0. F1000.
N695 G1 X11.9
N700 G17 G3 X11.3 Y42.747 I0. J-0.6
N705 X73.7 I31.2 J0.
N710 X11.3 I-31.2 J0.
N715 X74.701 I31.7 J0.
N720 X10.3 I-32.2 J0.
N725 X43.5 Y10.563 I32.2 J0.
N730 X74.638 Y44.746 I-1. J32.184
N735 X74.002 Y45.307 I-0.599 J-0.037
N740 G1 X73.403 Y45.27
N745 X73.31 Y45.264 Z-17.993
N750 X73.218 Y45.259 Z-17.971
N755 X73.132 Y45.253 Z-17.935
N760 X73.051 Y45.248 Z-17.885
N765 X72.98 Y45.244 Z-17.824
N770 X72.919 Y45.24 Z-17.753
N775 X72.87 Y45.237 Z-17.672
N780 X72.834 Y45.235 Z-17.585
N785 X72.812 Y45.233 Z-17.494
N790 X72.805 Z-17.4
N795 G0 Z5.
N800 X13.1 Y43.347
N805 G1 Z-14. F333.33
N810 Z-20.4
N815 G18 G3 X12.5 Z-21. I-0.6 K0. F1000.
N820 G1 X11.9
N825 G17 G3 X11.3 Y42.747 I0. J-0.6
N830 X73.7 I31.2 J0.
N835 X11.3 I-31.2 J0.
N840 X74.701 I31.7 J0.
N845 X10.3 I-32.2 J0.
N850 X43.5 Y10.563 I32.2 J0.
N855 X74.638 Y44.746 I-1. J32.184
N860 X74.002 Y45.307 I-0.599 J-0.037
N865 G1 X73.403 Y45.27
N870 X73.31 Y45.264 Z-20.993
N875 X73.218 Y45.259 Z-20.971
N880 X73.132 Y45.253 Z-20.935
N885 X73.051 Y45.248 Z-20.885
N890 X72.98 Y45.244 Z-20.824
N895 X72.919 Y45.24 Z-20.753
N900 X72.87 Y45.237 Z-20.672
N905 X72.834 Y45.235 Z-20.585
N910 X72.812 Y45.233 Z-20.494
N915 X72.805 Z-20.4
N920 G0 Z5.
N925 X13.1 Y43.347
N930 G1 Z-17. F333.33
N935 Z-23.4
N940 G18 G3 X12.5 Z-24. I-0.6 K0. F1000.
N945 G1 X11.9
N950 G17 G3 X11.3 Y42.747 I0. J-0.6
N955 X73.7 I31.2 J0.
N960 X11.3 I-31.2 J0.
N965 X74.701 I31.7 J0.
N970 X10.3 I-32.2 J0.
N975 X43.5 Y10.563 I32.2 J0.
N980 X74.638 Y44.746 I-1. J32.184
N985 X74.002 Y45.307 I-0.599 J-0.037
N990 G1 X73.403 Y45.27
N995 X73.31 Y45.264 Z-23.993
N1000 X73.218 Y45.259 Z-23.971
N1005 X73.132 Y45.253 Z-23.935
N1010 X73.051 Y45.248 Z-23.885
N1015 X72.98 Y45.244 Z-23.824
N1020 X72.919 Y45.24 Z-23.753
N1025 X72.87 Y45.237 Z-23.672
N1030 X72.834 Y45.235 Z-23.585
N1035 X72.812 Y45.233 Z-23.494
N1040 X72.805 Z-23.4
N1045 G0 Z5.
N1050 X13.1 Y43.347
N1055 G1 Z-20. F333.33
N1060 Z-26.4
N1065 G18 G3 X12.5 Z-27. I-0.6 K0. F1000.
N1070 G1 X11.9
N1075 G17 G3 X11.3 Y42.747 I0. J-0.6
N1080 X73.7 I31.2 J0.
N1085 X11.3 I-31.2 J0.
N1090 X74.701 I31.7 J0.
N1095 X10.3 I-32.2 J0.
N1100 X43.5 Y10.563 I32.2 J0.
N1105 X74.638 Y44.746 I-1. J32.184
N1110 X74.002 Y45.307 I-0.599 J-0.037
N1115 G1 X73.403 Y45.27
N1120 X73.31 Y45.264 Z-26.993
N1125 X73.218 Y45.259 Z-26.971
N1130 X73.132 Y45.253 Z-26.935
N1135 X73.051 Y45.248 Z-26.885
N1140 X72.98 Y45.244 Z-26.824
N1145 X72.919 Y45.24 Z-26.753
N1150 X72.87 Y45.237 Z-26.672
N1155 X72.834 Y45.235 Z-26.585
N1160 X72.812 Y45.233 Z-26.494
N1165 X72.805 Z-26.4
N1170 G0 Z5.
N1175 X13.1 Y43.347
N1180 G1 Z-23. F333.33
N1185 Z-28.
N1190 G18 G3 X12.5 Z-28.6 I-0.6 K0. F1000.
N1195 G1 X11.9
N1200 G17 G3 X11.3 Y42.747 I0. J-0.6
N1205 X73.7 I31.2 J0.
N1210 X11.3 I-31.2 J0.
N1215 X74.701 I31.7 J0.
N1220 X10.3 I-32.2 J0.
N1225 X43.5 Y10.563 I32.2 J0.
N1230 X74.638 Y44.746 I-1. J32.184
N1235 X74.002 Y45.307 I-0.599 J-0.037
N1240 G1 X73.403 Y45.27
N1245 X73.31 Y45.264 Z-28.593
N1250 X73.218 Y45.259 Z-28.571
N1255 X73.132 Y45.253 Z-28.535
N1260 X73.051 Y45.248 Z-28.485
N1265 X72.98 Y45.244 Z-28.424
N1270 X72.919 Y45.24 Z-28.353
N1275 X72.87 Y45.237 Z-28.272
N1280 X72.834 Y45.235 Z-28.185
N1285 X72.812 Y45.233 Z-28.094
N1290 X72.805 Z-28.
N1295 G0 Z5.
N1300 X13.1 Y43.347
N1305 G1 Z-24.6 F333.33
N1310 Z-29.6
N1315 G18 G3 X12.5 Z-30.2 I-0.6 K0. F1000.
N1320 G1 X11.9
N1325 G17 G3 X11.3 Y42.747 I0. J-0.6
N1330 X73.7 I31.2 J0.
N1335 X11.3 I-31.2 J0.
N1340 X74.701 I31.7 J0.
N1345 X10.3 I-32.2 J0.
N1350 X43.5 Y10.563 I32.2 J0.
N1355 X74.638 Y44.746 I-1. J32.184
N1360 X74.002 Y45.307 I-0.599 J-0.037
N1365 G1 X73.403 Y45.27
N1370 X73.31 Y45.264 Z-30.193
N1375 X73.218 Y45.259 Z-30.171
N1380 X73.132 Y45.253 Z-30.135
N1385 X73.051 Y45.248 Z-30.085
N1390 X72.98 Y45.244 Z-30.024
N1395 X72.919 Y45.24 Z-29.953
N1400 X72.87 Y45.237 Z-29.872
N1405 X72.834 Y45.235 Z-29.785
N1410 X72.812 Y45.233 Z-29.694
N1415 X72.805 Z-29.6
N1420 G0 Z15.
N1425 G53 Z0.
N1430 M30
%
