%
(THIS_IS_SCREEN)
(T2  D=3. CR=0. - ZMIN=-9.994 - FLAT END MILL)
N10 G90 G94 G17 G91.1
N15 G21
N20 G53 G0 Z0.
(ADAPTIVE1)
N25 T2 M6
N30 S5000 M3
N35 G54
N40 G0 X42.899 Y11.261
N45 G43 Z15. H2
N50 G0 Z5.
N55 Z2.506
N60 G3 X42.102 Y13.997 Z2.35 I-0.399 J1.368 F333.33
N65 X42.899 Y11.261 Z2.193 I0.399 J-1.368
N70 X42.102 Y13.997 Z2.037 I-0.399 J1.368
N75 X42.899 Y11.261 Z1.881 I0.399 J-1.368
N80 X42.102 Y13.997 Z1.724 I-0.399 J1.368
N85 X42.899 Y11.261 Z1.568 I0.399 J-1.368
N90 X42.102 Y13.997 Z1.412 I-0.399 J1.368
N95 X42.899 Y11.261 Z1.255 I0.399 J-1.368
N100 X42.102 Y13.997 Z1.099 I-0.399 J1.368
N105 X42.899 Y11.261 Z0.943 I0.399 J-1.368
N110 X42.102 Y13.997 Z0.786 I-0.399 J1.368
N115 X42.899 Y11.261 Z0.63 I0.399 J-1.368
N120 X42.102 Y13.997 Z0.474 I-0.399 J1.368
N125 X42.899 Y11.261 Z0.317 I0.399 J-1.368
N130 X42.102 Y13.997 Z0.161 I-0.399 J1.368
N135 X42.899 Y11.261 Z0.005 I0.399 J-1.368
N140 X42.102 Y13.997 Z-0.152 I-0.399 J1.368
N145 X42.899 Y11.261 Z-0.308 I0.399 J-1.368
N150 X42.102 Y13.997 Z-0.464 I-0.399 J1.368
N155 X42.899 Y11.261 Z-0.621 I0.399 J-1.368
N160 X42.102 Y13.997 Z-0.777 I-0.399 J1.368
N165 X42.899 Y11.261 Z-0.933 I0.399 J-1.368
N170 X42.102 Y13.997 Z-1.09 I-0.399 J1.368
N175 X42.899 Y11.261 Z-1.246 I0.399 J-1.368
N180 X42.102 Y13.997 Z-1.402 I-0.399 J1.368
N185 X42.899 Y11.261 Z-1.559 I0.399 J-1.368
N190 X42.102 Y13.997 Z-1.715 I-0.399 J1.368
N195 X42.899 Y11.261 Z-1.871 I0.399 J-1.368
N200 X42.102 Y13.997 Z-2.028 I-0.399 J1.368
N205 X42.899 Y11.261 Z-2.184 I0.399 J-1.368
N210 X42.102 Y13.997 Z-2.34 I-0.399 J1.368
N215 X42.899 Y11.261 Z-2.497 I0.399 J-1.368
N220 X42.102 Y13.997 Z-2.653 I-0.399 J1.368
N225 X42.899 Y11.261 Z-2.809 I0.399 J-1.368
N230 X42.102 Y13.997 Z-2.966 I-0.399 J1.368
N235 X42.899 Y11.261 Z-3.122 I0.399 J-1.368
N240 X42.102 Y13.997 Z-3.278 I-0.399 J1.368
N245 X42.899 Y11.261 Z-3.435 I0.399 J-1.368
N250 X42.102 Y13.997 Z-3.591 I-0.399 J1.368
N255 X42.899 Y11.261 Z-3.747 I0.399 J-1.368
N260 X42.102 Y13.997 Z-3.904 I-0.399 J1.368
N265 X42.899 Y11.261 Z-4.06 I0.399 J-1.368
N270 X42.102 Y13.997 Z-4.216 I-0.399 J1.368
N275 X42.899 Y11.261 Z-4.373 I0.399 J-1.368
N280 X42.102 Y13.997 Z-4.529 I-0.399 J1.368
N285 X42.899 Y11.261 Z-4.685 I0.399 J-1.368
N290 X42.102 Y13.997 Z-4.842 I-0.399 J1.368
N295 X42.899 Y11.261 Z-4.998 I0.399 J-1.368
N300 X42.102 Y13.997 Z-5.154 I-0.399 J1.368
N305 X42.899 Y11.261 Z-5.311 I0.399 J-1.368
N310 X42.102 Y13.997 Z-5.467 I-0.399 J1.368
N315 X42.899 Y11.261 Z-5.623 I0.399 J-1.368
N320 X42.102 Y13.997 Z-5.78 I-0.399 J1.368
N325 X42.899 Y11.261 Z-5.936 I0.399 J-1.368
N330 X43.925 Y12.629 Z-6. I-0.399 J1.368
N335 X41.075 I-1.425 J0.
N340 X43.925 I1.425 J0.
N345 S12000
N350 G1 X43.956 Y13.252 F1000.
N355 X43.98 Y13.326
N360 X44.009 Y13.473
N365 X44.006 Y13.623
N370 X43.978 Y13.771
N375 X43.929 Y13.912
N380 X43.862 Y14.047
N385 X43.78 Y14.172
N390 X43.685 Y14.288
N395 X43.578 Y14.393
N400 X43.461 Y14.488
N405 X43.336 Y14.571
N410 X43.205 Y14.642
N415 X43.067 Y14.703
N420 X42.925 Y14.751
N425 X42.778 Y14.789
N430 X42.625 Y14.815
N435 X42.467 Y14.829
N440 X42.306 Y14.83
N445 X42.143 Y14.818
N450 X41.98 Y14.793
N455 X41.817 Y14.754
N460 X41.655 Y14.701
N465 X41.498 Y14.636
N470 X41.344 Y14.557
N475 X41.197 Y14.465
N480 X41.056 Y14.362
N485 X40.923 Y14.246
N490 X40.799 Y14.12
N495 X40.686 Y13.984
N500 X40.583 Y13.838
N505 X40.492 Y13.684
N510 X40.413 Y13.522
N515 X40.348 Y13.355
N520 X40.296 Y13.182
N525 X40.258 Y13.006
N530 X40.234 Y12.826
N535 X40.225 Y12.645
N540 X40.23 Y12.464
N545 X40.25 Y12.283
N550 X40.284 Y12.104
N555 X40.332 Y11.929
N560 X40.395 Y11.757
N565 X40.471 Y11.592
N570 X40.56 Y11.432
N575 X40.662 Y11.281
N580 X40.775 Y11.138
N585 X40.9 Y11.004
N590 X41.035 Y10.881
N595 X41.18 Y10.769
N600 X41.333 Y10.669
N605 X41.494 Y10.582
N610 X41.661 Y10.508
N615 X41.834 Y10.447
N620 X42.011 Y10.401
N625 X42.192 Y10.368
N630 X42.374 Y10.351
N635 X42.557 Y10.348
N640 X42.74 Y10.36
N645 X42.921 Y10.386
N650 X43.1 Y10.427
N655 X43.274 Y10.482
N660 X43.444 Y10.551
N665 X43.608 Y10.634
N670 X43.764 Y10.729
N675 X43.913 Y10.837
N680 X44.052 Y10.956
N685 X44.181 Y11.086
N690 X44.3 Y11.225
N695 X44.406 Y11.374
N700 X44.509 Y11.544
N705 X44.626 Y11.779
N710 X44.786 Y12.18
N715 X44.876 Y12.47
N720 X44.932 Y12.717
N725 X44.963 Y12.942
N730 X44.976 Y13.157
N735 X44.972 Y13.368
N740 X44.952 Y13.57
N745 X44.916 Y13.764
N750 X44.866 Y13.951
N755 X44.8 Y14.136
N760 X44.72 Y14.315
N765 X44.624 Y14.489
N770 X44.515 Y14.655
N775 X44.391 Y14.813
N780 X44.255 Y14.962
N785 X44.105 Y15.101
N790 X43.942 Y15.229
N795 X43.766 Y15.346
N800 X43.579 Y15.449
N805 X43.381 Y15.539
N810 X43.174 Y15.614
N815 X42.958 Y15.672
N820 X42.736 Y15.714
N825 X42.508 Y15.737
N830 X42.276 Y15.743
N835 X42.042 Y15.73
N840 X41.808 Y15.697
N845 X41.574 Y15.646
N850 X41.344 Y15.575
N855 X41.119 Y15.486
N860 X40.9 Y15.378
N865 X40.689 Y15.252
N870 X40.488 Y15.109
N875 X40.298 Y14.949
N880 X40.12 Y14.773
N885 X39.956 Y14.583
N890 X39.808 Y14.38
N895 X39.676 Y14.164
N900 X39.561 Y13.938
N905 X39.464 Y13.703
N910 X39.387 Y13.46
N915 X39.329 Y13.211
N920 X39.291 Y12.957
N925 X39.273 Y12.701
N930 X39.276 Y12.444
N935 X39.3 Y12.188
N940 X39.345 Y11.934
N945 X39.409 Y11.684
N950 X39.494 Y11.44
N955 X39.598 Y11.203
N960 X39.721 Y10.975
N965 X39.861 Y10.758
N970 X40.019 Y10.553
N975 X40.193 Y10.36
N980 X40.382 Y10.183
N985 X40.584 Y10.021
N990 X40.799 Y9.875
N995 X41.025 Y9.748
N1000 X41.261 Y9.638
N1005 X41.505 Y9.548
N1010 X41.755 Y9.478
N1015 X42.01 Y9.429
N1020 X42.268 Y9.399
N1025 X42.528 Y9.391
N1030 X42.787 Y9.404
N1035 X43.045 Y9.437
N1040 X43.299 Y9.491
N1045 X43.549 Y9.565
N1050 X43.791 Y9.659
N1055 X44.025 Y9.772
N1060 X44.25 Y9.904
N1065 X44.463 Y10.053
N1070 X44.665 Y10.22
N1075 X44.865 Y10.414
N1080 X45.074 Y10.653
N1085 X45.269 Y10.916
N1090 X45.449 Y11.203
N1095 X45.604 Y11.504
N1100 X45.732 Y11.808
N1105 X45.832 Y12.112
N1110 X45.905 Y12.415
N1115 X45.952 Y12.714
N1120 X45.975 Y13.011
N1125 X45.974 Y13.304
N1130 X45.95 Y13.593
N1135 X45.903 Y13.876
N1140 X45.833 Y14.153
N1145 X45.743 Y14.422
N1150 X45.631 Y14.682
N1155 X45.498 Y14.933
N1160 X45.346 Y15.172
N1165 X45.174 Y15.4
N1170 X44.984 Y15.614
N1175 X44.776 Y15.813
N1180 X44.551 Y15.996
N1185 X44.31 Y16.162
N1190 X44.054 Y16.31
N1195 X43.784 Y16.437
N1200 X43.503 Y16.543
N1205 X43.212 Y16.628
N1210 X42.912 Y16.689
N1215 X42.606 Y16.726
N1220 X42.296 Y16.738
N1225 X41.984 Y16.726
N1230 X41.671 Y16.688
N1235 X41.36 Y16.625
N1240 X41.054 Y16.536
N1245 X40.753 Y16.423
N1250 X40.461 Y16.285
N1255 X40.18 Y16.123
N1260 X39.911 Y15.938
N1265 X39.657 Y15.731
N1270 X39.419 Y15.503
N1275 X39.199 Y15.256
N1280 X38.999 Y14.992
N1285 X38.82 Y14.711
N1290 X38.664 Y14.416
N1295 X38.557 Y14.167
N1300 X38.526 Y14.078
N1305 X38.507 Y13.985
N1310 X38.5 Y13.891
N1315 Y12.062
N1320 X38.516 Y11.742
N1325 X38.547 Y11.506
N1330 X38.601 Y11.256
N1335 X38.679 Y10.996
N1340 X38.781 Y10.733
N1345 X38.908 Y10.472
N1350 X39.058 Y10.216
N1355 X39.233 Y9.967
N1360 X39.432 Y9.728
N1365 X39.654 Y9.5
N1370 X39.897 Y9.288
N1375 X40.16 Y9.093
N1380 X40.44 Y8.919
N1385 X40.736 Y8.767
N1390 X41.045 Y8.637
N1395 X41.364 Y8.533
N1400 X41.422 Y8.519
N1405 X41.476 Y8.509
N1410 X41.53 Y8.502
N1415 X41.585 Y8.5
N1420 G3 X41.803 Y8.995 I-0.01 J0.3
N1425 G1 X41.73 Y9.08
N1430 X39.071 Y12.196
N1435 X39.029 Y12.246
N1440 G3 X38.5 Y12.062 I-0.228 J-0.195
N1445 G1 Y10.219
N1450 X38.508 Y10.069
N1455 X38.534 Y9.918
N1460 X38.574 Y9.765
N1465 X38.635 Y9.589
N1470 X38.713 Y9.413
N1475 X38.819 Y9.217
N1480 X38.946 Y9.021
N1485 X39.101 Y8.818
N1490 X39.181 Y8.73
N1495 X39.33 Y8.606
N1500 X39.508 Y8.527
N1505 X39.7 Y8.5
N1510 G3 X39.943 Y8.96 I-0.01 J0.3
N1515 G1 X39.86 Y9.092
N1520 X39.066 Y10.35
N1525 X39.054 Y10.369
N1530 G3 X38.5 Y10.219 I-0.254 J-0.16
N1535 G1 Y9.007
N1540 Y8.972
N1545 Y8.943
N1550 X38.508 Y8.793
N1555 X38.562 Y8.676
N1560 X38.65 Y8.582
N1565 X38.763 Y8.521
N1570 X38.891 Y8.5
N1575 G3 X39.187 Y8.618 I-0.017 J0.474
N1580 X38.641 Y9.239 I-0.273 J0.311
N1585 X38.5 Y8.943 I0.273 J-0.311
N1590 G1 X38.501 Y8.801
N1595 X38.504 Y8.77
N1600 X38.51 Y8.74
N1605 X38.52 Y8.709
N1610 X38.534 Y8.678
N1615 X38.545 Y8.659
N1620 X38.574 Y8.619
N1625 X38.59 Y8.599
N1630 X38.61 Y8.579
N1635 X38.643 Y8.553
N1640 X38.676 Y8.533
N1645 X38.711 Y8.518
N1650 X38.738 Y8.509
N1655 X38.764 Y8.504
N1660 X38.818 Y8.5
N1665 X42.784
N1670 X43.163 Y8.519
N1675 X43.439 Y8.555
N1680 X43.724 Y8.616
N1685 X44.012 Y8.702
N1690 X44.3 Y8.815
N1695 X44.588 Y8.954
N1700 X44.876 Y9.124
N1705 X45.156 Y9.32
N1710 X45.427 Y9.546
N1715 X45.693 Y9.805
N1720 X45.945 Y10.094
N1725 X46.178 Y10.409
N1730 X46.386 Y10.744
N1735 X46.423 Y10.814
N1740 X46.465 Y10.916
N1745 X46.492 Y11.024
N1750 X46.5 Y11.135
N1755 G3 X46.032 Y11.372 I-0.3 J-0.01
N1760 G1 X45.912 Y11.29
N1765 X42.653 Y9.066
N1770 X42.625 Y9.048
N1775 G3 X42.784 Y8.5 I0.169 J-0.248
N1780 G1 X44.767
N1785 X44.917 Y8.507
N1790 X45.066 Y8.528
N1795 X45.236 Y8.567
N1800 X45.414 Y8.623
N1805 X45.613 Y8.703
N1810 X45.818 Y8.805
N1815 X46.047 Y8.944
N1820 X46.21 Y9.061
N1825 X46.366 Y9.216
N1830 X46.466 Y9.412
N1835 X46.5 Y9.629
N1840 G3 X46.051 Y9.879 I-0.3 J-0.01
N1845 G1 X45.905 Y9.795
N1850 X44.637 Y9.065
N1855 X44.628 Y9.06
N1860 G3 X44.767 Y8.5 I0.15 J-0.26
N1865 G1 X46.042
N1870 X46.085
N1875 X46.115
N1880 X46.25 Y8.507
N1885 G3 X46.189 Y9.063 I-0.068 J0.274
N1890 G1 X46.131 Y9.064
N1895 G3 X46.115 Y8.5 I-0.006 J-0.282
N1900 G1 X46.184
N1905 X46.237 Y8.504
N1910 X46.263 Y8.51
N1915 X46.29 Y8.518
N1920 X46.326 Y8.533
N1925 X46.358 Y8.553
N1930 X46.391 Y8.579
N1935 X46.411 Y8.599
N1940 X46.428 Y8.619
N1945 X46.456 Y8.659
N1950 X46.467 Y8.679
N1955 X46.481 Y8.709
N1960 X46.491 Y8.74
N1965 X46.497 Y8.771
N1970 X46.5 Y8.801
N1975 Y14.33
N1980 X46.492 Y14.502
N1985 X46.466 Y14.697
N1990 X46.42 Y14.914
N1995 X46.352 Y15.14
N2000 X46.263 Y15.368
N2005 X46.146 Y15.61
N2010 X46.001 Y15.857
N2015 X45.829 Y16.101
N2020 X45.633 Y16.337
N2025 X45.41 Y16.566
N2030 X45.159 Y16.785
N2035 X44.882 Y16.99
N2040 X44.581 Y17.177
N2045 X44.259 Y17.343
N2050 X43.919 Y17.485
N2055 X43.563 Y17.601
N2060 X43.194 Y17.69
N2065 X42.815 Y17.749
N2070 X42.429 Y17.778
N2075 X42.038 Y17.776
N2080 X41.645 Y17.742
N2085 X41.254 Y17.676
N2090 X40.866 Y17.578
N2095 X40.485 Y17.449
N2100 X40.114 Y17.289
N2105 X39.755 Y17.098
N2110 X39.41 Y16.878
N2115 X39.083 Y16.631
N2120 X38.775 Y16.356
N2125 X38.694 Y16.27
N2130 X38.589 Y16.128
N2135 X38.523 Y15.963
N2140 X38.5 Y15.787
N2145 Y13.891
N2150 G3 X38.818 Y13.602 I0.3 J0.01
N2155 G1 X39.124 Y13.62
N2160 X45.877 Y14.021
N2165 X46.218 Y14.041
N2170 G3 X46.5 Y14.33 I-0.018 J0.299
N2175 G1 Y15.889
N2180 X46.493 Y16.039
N2185 X46.469 Y16.187
N2190 X46.433 Y16.334
N2195 X46.377 Y16.502
N2200 X46.304 Y16.672
N2205 X46.204 Y16.862
N2210 X46.083 Y17.054
N2215 X45.931 Y17.256
N2220 X45.743 Y17.468
N2225 X45.534 Y17.67
N2230 X45.284 Y17.874
N2235 X44.995 Y18.074
N2240 X44.672 Y18.261
N2245 X44.326 Y18.425
N2250 X43.952 Y18.568
N2255 X43.548 Y18.686
N2260 X43.121 Y18.774
N2265 X42.675 Y18.829
N2270 X42.218 Y18.849
N2275 X41.752 Y18.831
N2280 X41.283 Y18.775
N2285 X40.815 Y18.681
N2290 X40.351 Y18.549
N2295 X39.896 Y18.378
N2300 X39.454 Y18.17
N2305 X39.026 Y17.925
N2310 X38.805 Y17.774
N2315 X38.642 Y17.618
N2320 X38.537 Y17.419
N2325 X38.5 Y17.196
N2330 Y15.787
N2335 G3 X38.804 Y15.498 I0.3 J0.01
N2340 G1 X39.125 Y15.502
N2345 X45.876 Y15.595
N2350 X46.205 Y15.6
N2355 G3 X46.5 Y15.889 I-0.004 J0.3
N2360 G1 Y17.101
N2365 X46.493 Y17.251
N2370 X46.471 Y17.4
N2375 X46.434 Y17.545
N2380 X46.385 Y17.688
N2385 X46.315 Y17.847
N2390 X46.225 Y18.014
N2395 X46.109 Y18.193
N2400 X45.969 Y18.376
N2405 X45.79 Y18.574
N2410 X45.591 Y18.761
N2415 X45.346 Y18.958
N2420 X45.058 Y19.153
N2425 X44.747 Y19.328
N2430 X44.387 Y19.496
N2435 X43.981 Y19.646
N2440 X43.536 Y19.77
N2445 X43.063 Y19.863
N2450 X42.575 Y19.918
N2455 X42.064 Y19.935
N2460 X41.535 Y19.91
N2465 X40.995 Y19.84
N2470 X40.452 Y19.725
N2475 X39.913 Y19.565
N2480 X39.383 Y19.36
N2485 X39.027 Y19.188
N2490 X38.847 Y19.083
N2495 X38.703 Y18.971
N2500 X38.593 Y18.827
N2505 X38.524 Y18.659
N2510 X38.5 Y18.479
N2515 Y17.196
N2520 G3 X38.796 Y16.907 I0.3 J0.01
N2525 G1 X39.125 Y16.903
N2530 X45.876 Y16.816
N2535 X46.197 Y16.812
N2540 G3 X46.5 Y17.101 I0.004 J0.3
N2545 G1 Y18.299
N2550 X46.493 Y18.449
N2555 X46.464 Y18.596
N2560 X46.422 Y18.74
N2565 X46.365 Y18.884
N2570 X46.286 Y19.044
N2575 X46.19 Y19.206
N2580 X46.065 Y19.383
N2585 X45.915 Y19.562
N2590 X45.731 Y19.748
N2595 X45.506 Y19.943
N2600 X45.255 Y20.127
N2605 X44.946 Y20.317
N2610 X44.593 Y20.497
N2615 X44.211 Y20.655
N2620 X43.772 Y20.796
N2625 X43.285 Y20.911
N2630 X42.756 Y20.991
N2635 X42.196 Y21.03
N2640 X41.621 Y21.024
N2645 X41.031 Y20.971
N2650 X40.423 Y20.866
N2655 X39.819 Y20.711
N2660 X39.359 Y20.553
N2665 X39.031 Y20.41
N2670 X38.87 Y20.324
N2675 X38.718 Y20.213
N2680 X38.6 Y20.066
N2685 X38.526 Y19.893
N2690 X38.5 Y19.707
N2695 Y18.479
N2700 G3 X38.793 Y18.189 I0.3 J0.01
N2705 G1 X39.125 Y18.181
N2710 X45.876 Y18.018
N2715 X46.193 Y18.01
N2720 G3 X46.5 Y18.299 I0.007 J0.3
N2725 G1 Y19.37
N2730 X46.493 Y19.52
N2735 X46.469 Y19.668
N2740 X46.43 Y19.812
N2745 X46.378 Y19.953
N2750 X46.31 Y20.099
N2755 X46.216 Y20.264
N2760 X46.105 Y20.427
N2765 X45.958 Y20.61
N2770 X45.789 Y20.788
N2775 X45.58 Y20.977
N2780 X45.329 Y21.168
N2785 X45.046 Y21.35
N2790 X44.698 Y21.537
N2795 X44.308 Y21.707
N2800 X43.877 Y21.855
N2805 X43.377 Y21.983
N2810 X42.824 Y22.078
N2815 X42.228 Y22.132
N2820 X41.604 Y22.138
N2825 X40.982 Y22.095
N2830 X40.365 Y22.002
N2835 X39.789 Y21.871
N2840 X39.366 Y21.739
N2845 X39.058 Y21.615
N2850 X38.838 Y21.504
N2855 X38.698 Y21.393
N2860 X38.591 Y21.249
N2865 X38.523 Y21.083
N2870 X38.5 Y20.905
N2875 Y19.707
N2880 G3 X38.787 Y19.417 I0.3 J0.01
N2885 G1 X39.125 Y19.402
N2890 X45.876 Y19.095
N2895 X46.187 Y19.08
N2900 G3 X46.5 Y19.37 I0.014 J0.3
N2905 G1 Y20.504
N2910 X46.493 Y20.654
N2915 X46.465 Y20.801
N2920 X46.421 Y20.944
N2925 X46.366 Y21.084
N2930 X46.287 Y21.241
N2935 X46.194 Y21.396
N2940 X46.066 Y21.574
N2945 X45.921 Y21.746
N2950 X45.73 Y21.938
N2955 X45.516 Y22.121
N2960 X45.252 Y22.312
N2965 X44.936 Y22.505
N2970 X44.588 Y22.68
N2975 X44.162 Y22.853
N2980 X43.669 Y23.009
N2985 X43.154 Y23.127
N2990 X42.568 Y23.213
N2995 X41.945 Y23.254
N3000 X41.321 Y23.246
N3005 X40.699 Y23.192
N3010 X40.084 Y23.095
N3015 X39.564 Y22.969
N3020 X39.239 Y22.862
N3025 X38.981 Y22.754
N3030 X38.878 Y22.701
N3035 X38.723 Y22.591
N3040 X38.602 Y22.443
N3045 X38.526 Y22.268
N3050 X38.5 Y22.079
N3055 Y20.905
N3060 G3 X38.784 Y20.616 I0.3 J0.01
N3065 G1 X39.124 Y20.598
N3070 X45.876 Y20.231
N3075 X46.184 Y20.215
N3080 G3 X46.5 Y20.504 I0.016 J0.3
N3085 G1 Y21.56
N3090 X46.493 Y21.71
N3095 X46.469 Y21.858
N3100 X46.429 Y22.002
N3105 X46.376 Y22.143
N3110 X46.308 Y22.289
N3115 X46.213 Y22.453
N3120 X46.102 Y22.616
N3125 X45.954 Y22.798
N3130 X45.785 Y22.975
N3135 X45.568 Y23.169
N3140 X45.318 Y23.358
N3145 X45.015 Y23.551
N3150 X44.647 Y23.747
N3155 X44.255 Y23.916
N3160 X43.784 Y24.076
N3165 X43.236 Y24.213
N3170 X42.63 Y24.315
N3175 X42.008 Y24.369
N3180 X41.384 Y24.375
N3185 X40.762 Y24.337
N3190 X40.143 Y24.255
N3195 X39.642 Y24.147
N3200 X39.297 Y24.043
N3205 X39.039 Y23.942
N3210 X38.894 Y23.872
N3215 X38.733 Y23.763
N3220 X38.607 Y23.614
N3225 X38.528 Y23.436
N3230 X38.5 Y23.243
N3235 Y22.079
N3240 G3 X38.779 Y21.791 I0.3 J0.01
N3245 G1 X39.124 Y21.766
N3250 X45.877 Y21.292
N3255 X46.18 Y21.271
N3260 G3 X46.5 Y21.56 I0.021 J0.299
N3265 G1 Y22.694
N3270 X46.493 Y22.844
N3275 X46.464 Y22.991
N3280 X46.419 Y23.134
N3285 X46.363 Y23.273
N3290 X46.283 Y23.433
N3295 X46.188 Y23.589
N3300 X46.057 Y23.77
N3305 X45.907 Y23.945
N3310 X45.711 Y24.14
N3315 X45.494 Y24.324
N3320 X45.215 Y24.524
N3325 X44.898 Y24.716
N3330 X44.522 Y24.903
N3335 X44.061 Y25.088
N3340 X43.56 Y25.244
N3345 X42.996 Y25.37
N3350 X42.379 Y25.458
N3355 X41.756 Y25.497
N3360 X41.132 Y25.493
N3365 X40.51 Y25.446
N3370 X39.939 Y25.36
N3375 X39.523 Y25.263
N3380 X39.202 Y25.16
N3385 X38.981 Y25.069
N3390 X38.883 Y25.019
N3395 X38.725 Y24.909
N3400 X38.604 Y24.761
N3405 X38.527 Y24.585
N3410 X38.5 Y24.395
N3415 Y23.243
N3420 G3 X38.778 Y22.954 I0.3 J0.01
N3425 G1 X39.124 Y22.928
N3430 X45.877 Y22.428
N3435 X46.178 Y22.405
N3440 G3 X46.5 Y22.694 I0.022 J0.299
N3445 G1 Y23.764
N3450 X46.493 Y23.914
N3455 X46.466 Y24.062
N3460 X46.425 Y24.206
N3465 X46.369 Y24.351
N3470 X46.297 Y24.498
N3475 X46.198 Y24.667
N3480 X46.083 Y24.831
N3485 X45.927 Y25.019
N3490 X45.752 Y25.198
N3495 X45.519 Y25.402
N3500 X45.261 Y25.593
N3505 X44.939 Y25.793
N3510 X44.552 Y25.993
N3515 X44.136 Y26.167
N3520 X43.627 Y26.333
N3525 X43.045 Y26.473
N3530 X42.428 Y26.569
N3535 X41.806 Y26.619
N3540 X41.182 Y26.626
N3545 X40.559 Y26.59
N3550 X40.004 Y26.515
N3555 X39.56 Y26.418
N3560 X39.242 Y26.321
N3565 X39.011 Y26.23
N3570 X38.892 Y26.172
N3575 X38.731 Y26.063
N3580 X38.606 Y25.914
N3585 X38.527 Y25.736
N3590 X38.5 Y25.544
N3595 Y24.395
N3600 G3 X38.775 Y24.107 I0.3 J0.01
N3605 G1 X39.124 Y24.077
N3610 X45.877 Y23.501
N3615 X46.175 Y23.476
N3620 G3 X46.5 Y23.764 I0.025 J0.299
N3625 G1 Y24.821
N3630 X46.493 Y24.97
N3635 X46.471 Y25.119
N3640 X46.434 Y25.264
N3645 X46.384 Y25.405
N3650 X46.318 Y25.55
N3655 X46.226 Y25.716
N3660 X46.118 Y25.879
N3665 X45.971 Y26.066
N3670 X45.804 Y26.246
N3675 X45.586 Y26.447
N3680 X45.342 Y26.638
N3685 X45.034 Y26.841
N3690 X44.671 Y27.041
N3695 X44.259 Y27.226
N3700 X43.757 Y27.405
N3705 X43.182 Y27.559
N3710 X42.568 Y27.672
N3715 X41.948 Y27.738
N3720 X41.324 Y27.759
N3725 X40.701 Y27.737
N3730 X40.133 Y27.675
N3735 X39.659 Y27.584
N3740 X39.324 Y27.492
N3745 X39.071 Y27.4
N3750 X38.858 Y27.302
N3755 X38.71 Y27.191
N3760 X38.597 Y27.045
N3765 X38.525 Y26.875
N3770 X38.5 Y26.691
N3775 Y25.544
N3780 G3 X38.771 Y25.255 I0.3 J0.01
N3785 G1 X39.123 Y25.221
N3790 X45.877 Y24.561
N3795 X46.171 Y24.532
N3800 G3 X46.5 Y24.821 I0.029 J0.299
N3805 G1 Y25.955
N3810 X46.493 Y26.104
N3815 X46.468 Y26.252
N3820 X46.427 Y26.397
N3825 X46.374 Y26.537
N3830 X46.298 Y26.696
N3835 X46.207 Y26.853
N3840 X46.082 Y27.033
N3845 X45.938 Y27.21
N3850 X45.747 Y27.408
N3855 X45.534 Y27.596
N3860 X45.252 Y27.808
N3865 X44.945 Y28.002
N3870 X44.557 Y28.206
N3875 X44.092 Y28.404
N3880 X43.59 Y28.572
N3885 X42.999 Y28.718
N3890 X42.384 Y28.819
N3895 X41.762 Y28.874
N3900 X41.138 Y28.886
N3905 X40.515 Y28.854
N3910 X39.968 Y28.784
N3915 X39.539 Y28.693
N3920 X39.243 Y28.605
N3925 X39.007 Y28.514
N3930 X38.896 Y28.46
N3935 X38.734 Y28.352
N3940 X38.608 Y28.202
N3945 X38.528 Y28.024
N3950 X38.5 Y27.83
N3955 Y26.691
N3960 G3 X38.771 Y26.403 I0.3 J0.01
N3965 G1 X39.123 Y26.368
N3970 X45.878 Y25.696
N3975 X46.171 Y25.667
N3980 G3 X46.5 Y25.955 I0.03 J0.299
N3985 G1 Y27.089
N3990 X46.493 Y27.239
N3995 X46.464 Y27.386
N4000 X46.421 Y27.529
N4005 X46.364 Y27.672
N4010 X46.286 Y27.829
N4015 X46.187 Y27.994
N4020 X46.062 Y28.17
N4025 X45.904 Y28.358
N4030 X45.712 Y28.551
N4035 X45.476 Y28.754
N4040 X45.188 Y28.963
N4045 X44.864 Y29.161
N4050 X44.452 Y29.37
N4055 X43.992 Y29.558
N4060 X43.466 Y29.725
N4065 X42.859 Y29.866
N4070 X42.241 Y29.958
N4075 X41.619 Y30.006
N4080 X40.995 Y30.012
N4085 X40.376 Y29.973
N4090 X39.859 Y29.899
N4095 X39.488 Y29.815
N4100 X39.186 Y29.721
N4105 X38.974 Y29.635
N4110 X38.887 Y29.592
N4115 X38.728 Y29.482
N4120 X38.605 Y29.334
N4125 X38.527 Y29.157
N4130 X38.5 Y28.966
N4135 Y27.83
N4140 G3 X38.77 Y27.542 I0.3 J0.01
N4145 G1 X39.123 Y27.507
N4150 X45.878 Y26.83
N4155 X46.171 Y26.801
N4160 G3 X46.5 Y27.089 I0.03 J0.299
N4165 G1 Y28.159
N4170 X46.493 Y28.309
N4175 X46.469 Y28.457
N4180 X46.43 Y28.602
N4185 X46.374 Y28.75
N4190 X46.305 Y28.897
N4195 X46.209 Y29.068
N4200 X46.094 Y29.235
N4205 X45.941 Y29.425
N4210 X45.763 Y29.614
N4215 X45.53 Y29.823
N4220 X45.273 Y30.019
N4225 X44.94 Y30.234
N4230 X44.568 Y30.432
N4235 X44.122 Y30.627
N4240 X43.592 Y30.808
N4245 X42.988 Y30.963
N4250 X42.373 Y31.068
N4255 X41.752 Y31.129
N4260 X41.128 Y31.147
N4265 X40.508 Y31.121
N4270 X39.977 Y31.055
N4275 X39.559 Y30.969
N4280 X39.249 Y30.879
N4285 X39.022 Y30.792
N4290 X38.9 Y30.734
N4295 X38.736 Y30.625
N4300 X38.609 Y30.475
N4305 X38.528 Y30.296
N4310 X38.5 Y30.102
N4315 Y28.966
N4320 G3 X38.768 Y28.678 I0.3 J0.01
N4325 G1 X39.123 Y28.639
N4330 X45.878 Y27.903
N4335 X46.168 Y27.871
N4340 G3 X46.5 Y28.159 I0.033 J0.298
N4345 G1 Y29.293
N4350 X46.493 Y29.443
N4355 X46.466 Y29.591
N4360 X46.425 Y29.735
N4365 X46.371 Y29.875
N4370 X46.296 Y30.031
N4375 X46.199 Y30.199
N4380 X46.077 Y30.374
N4385 X45.922 Y30.563
N4390 X45.736 Y30.756
N4395 X45.507 Y30.958
N4400 X45.227 Y31.168
N4405 X44.903 Y31.372
N4410 X44.811 Y31.42
N4415 X44.707 Y31.464
N4420 X44.598 Y31.491
N4425 X44.486 Y31.5
N4430 G3 X44.273 Y31. I0.01 J-0.3
N4435 G1 X44.344 Y30.922
N4440 X45.929 Y29.157
N4445 X45.978 Y29.103
N4450 G3 X46.5 Y29.293 I0.223 J0.201
N4455 G1 Y30.349
N4460 X46.493 Y30.499
N4465 X46.473 Y30.648
N4470 X46.438 Y30.794
N4475 X46.388 Y30.939
N4480 X46.325 Y31.083
N4485 X46.3 Y31.131
N4490 X46.189 Y31.283
N4495 X46.042 Y31.401
N4500 X45.869 Y31.475
N4505 X45.683 Y31.5
N4510 G3 X45.436 Y31.045 I0.01 J-0.3
N4515 G1 X45.52 Y30.907
N4520 X45.935 Y30.219
N4525 X45.944 Y30.205
N4530 G3 X46.5 Y30.349 I0.257 J0.155
N4535 G1 Y31.2
N4540 X46.497 Y31.23
N4545 X46.491 Y31.261
N4550 X46.481 Y31.291
N4555 X46.467 Y31.321
N4560 X46.456 Y31.342
N4565 X46.427 Y31.382
N4570 X46.391 Y31.421
N4575 X46.358 Y31.447
N4580 X46.326 Y31.467
N4585 X46.286 Y31.483
N4590 X46.261 Y31.491
N4595 X46.235 Y31.496
N4600 X46.184 Y31.5
N4605 X39.243
N4610 X39.091 Y31.492
N4615 X38.903 Y31.44
N4620 X38.739 Y31.336
N4625 X38.61 Y31.189
N4630 X38.528 Y31.012
N4635 X38.5 Y30.819
N4640 G3 X38.996 Y30.602 I0.3 J0.01
N4645 G1 X39.081 Y30.675
N4650 X39.377 Y30.929
N4655 X39.427 Y30.972
N4660 G3 X39.243 Y31.5 I-0.195 J0.228
N4665 G1 X38.818
N4670 X38.766 Y31.496
N4675 X38.74 Y31.491
N4680 X38.714 Y31.483
N4685 X38.676 Y31.467
N4690 X38.643 Y31.447
N4695 X38.611 Y31.422
N4700 X38.574 Y31.382
N4705 X38.545 Y31.342
N4710 X38.534 Y31.322
N4715 X38.52 Y31.292
N4720 X38.511 Y31.261
N4725 X38.504 Y31.231
N4730 X38.501 Y31.2
N4735 X38.5 Y30.102
N4740 G3 X38.8 Y29.812 I0.3 J0.01
N4745 G1 X38.825 Y29.813
N4750 X38.875 Y29.831 Z-5.995
N4755 X38.923 Y29.848 Z-5.981
N4760 X38.968 Y29.864 Z-5.958
N4765 X39.001 Y29.9 Z-5.921
N4770 X39.028 Y29.93 Z-5.874
N4775 X39.048 Y29.953 Z-5.82
N4780 X39.061 Y29.967 Z-5.762
N4785 X39.065 Y29.971 Z-5.7
N4790 G0 Z5.
N4795 X40.659 Y30.882
N4800 Z-3.
N4805 G1 Z-3.3 F1000.
N4810 X40.652 Y30.886 Z-3.367
N4815 X40.633 Y30.897 Z-3.43
N4820 X40.602 Y30.915 Z-3.487
N4825 X40.561 Y30.939 Z-3.535
N4830 X40.513 Y30.969 Z-3.57
N4835 X40.458 Y31.001 Z-3.592
N4840 X40.401 Y31.035 Z-3.6
N4845 G3 X38.818 Y31.5 I-1.699 J-2.858
N4850 G1 X38.563
N4855 X38.413 Y31.493
N4860 X38.285 Y31.415
N4865 X38.174 Y31.313
N4870 X38.078 Y31.198
N4875 X37.991 Y31.071
N4880 X37.897 Y30.907
N4885 X37.798 Y30.696
N4890 X37.693 Y30.417
N4895 X37.584 Y30.037
N4900 X37.472 Y29.476
N4905 X37.398 Y28.856
N4910 X37.356 Y28.234
N4915 X37.333 Y27.61
N4920 X37.319 Y26.987
N4925 X37.311 Y26.363
N4930 X37.307 Y25.739
N4935 X37.304 Y25.115
N4940 X37.302 Y23.867
N4945 X37.301 Y19.499
N4950 X37.3 Y10.14
N4955 X37.303 Y9.641
N4960 X37.326 Y9.366
N4965 X37.362 Y9.149
N4970 X37.392 Y9.03
N4975 X37.46 Y8.858
N4980 X37.571 Y8.71
N4985 X37.717 Y8.596
N4990 X37.887 Y8.524
N4995 X38.071 Y8.5
N5000 X38.754
N5005 G0 Z5.
N5010 X39.027 Y31.019
N5015 Z-3.
N5020 G1 Z-3.3 F1000.
N5025 X39.024 Y31.026 Z-3.367
N5030 X39.014 Y31.046 Z-3.43
N5035 X38.998 Y31.078 Z-3.487
N5040 X38.977 Y31.12 Z-3.535
N5045 X38.951 Y31.171 Z-3.57
N5050 X38.923 Y31.228 Z-3.592
N5055 X38.893 Y31.288 Z-3.6
N5060 G3 X38.563 Y31.5 I-0.344 J-0.172
N5065 G1 X38.109
N5070 X37.959 Y31.493
N5075 X37.815 Y31.452
N5080 X37.679 Y31.39
N5085 X37.55 Y31.312
N5090 X37.431 Y31.22
N5095 X37.32 Y31.119
N5100 X37.201 Y30.992
N5105 X37.069 Y30.825
N5110 X36.944 Y30.639
N5115 X36.813 Y30.405
N5120 X36.679 Y30.112
N5125 X36.545 Y29.745
N5130 X36.412 Y29.265
N5135 X36.295 Y28.652
N5140 X36.222 Y28.033
N5145 X36.175 Y27.411
N5150 X36.147 Y26.787
N5155 X36.129 Y26.164
N5160 X36.118 Y25.54
N5165 X36.111 Y24.916
N5170 X36.107 Y24.292
N5175 X36.103 Y23.044
N5180 X36.101 Y20.548
N5185 X36.1 Y11.189
N5190 X36.101 Y10.565
N5195 X36.121 Y9.988
N5200 X36.163 Y9.621
N5205 X36.213 Y9.369
N5210 X36.28 Y9.131
N5215 X36.348 Y8.948
N5220 X36.369 Y8.904
N5225 X36.477 Y8.739
N5230 X36.627 Y8.61
N5235 X36.807 Y8.528
N5240 X37.003 Y8.5
N5245 X38.071
N5250 G0 Z5.
N5255 X38.932 Y31.181
N5260 Z-3.
N5265 G1 Z-3.3 F1000.
N5270 X38.926 Y31.185 Z-3.367
N5275 X38.907 Y31.196 Z-3.43
N5280 X38.876 Y31.214 Z-3.487
N5285 X38.835 Y31.238 Z-3.535
N5290 X38.786 Y31.267 Z-3.57
N5295 X38.732 Y31.3 Z-3.592
N5300 X38.674 Y31.334 Z-3.6
N5305 G3 X38.109 Y31.5 I-0.607 J-1.02
N5310 G1 X37.358
N5315 X37.208 Y31.493
N5320 X37.061 Y31.462
N5325 X36.92 Y31.413
N5330 X36.784 Y31.349
N5335 X36.655 Y31.272
N5340 X36.529 Y31.183
N5345 X36.386 Y31.062
N5350 X36.248 Y30.925
N5355 X36.096 Y30.75
N5360 X35.944 Y30.541
N5365 X35.79 Y30.29
N5370 X35.63 Y29.975
N5375 X35.475 Y29.597
N5380 X35.323 Y29.123
N5385 X35.181 Y28.516
N5390 X35.086 Y27.899
N5395 X35.022 Y27.278
N5400 X34.98 Y26.656
N5405 X34.952 Y26.032
N5410 X34.933 Y25.409
N5415 X34.922 Y24.785
N5420 X34.914 Y24.161
N5425 X34.909 Y23.537
N5430 X34.906 Y22.913
N5435 X34.903 Y21.665
N5440 X34.901 Y19.17
N5445 Y11.682
N5450 X34.906 Y11.058
N5455 X34.928 Y10.435
N5460 X34.98 Y9.913
N5465 X35.046 Y9.55
N5470 X35.124 Y9.256
N5475 X35.199 Y9.043
N5480 X35.257 Y8.914
N5485 X35.364 Y8.745
N5490 X35.515 Y8.613
N5495 X35.697 Y8.529
N5500 X35.896 Y8.5
N5505 X37.003
N5510 G0 Z5.
N5515 X38.37 Y31.125
N5520 Z-3.
N5525 G1 Z-3.3 F1000.
N5530 X38.363 Y31.129 Z-3.367
N5535 X38.344 Y31.141 Z-3.43
N5540 X38.313 Y31.159 Z-3.487
N5545 X38.272 Y31.183 Z-3.535
N5550 X38.224 Y31.212 Z-3.57
N5555 X38.169 Y31.245 Z-3.592
N5560 X38.112 Y31.279 Z-3.6
N5565 G3 X37.358 Y31.5 I-0.809 J-1.36
N5570 G1 X36.409
N5575 X36.26 Y31.493
N5580 X36.113 Y31.46
N5585 X35.971 Y31.41
N5590 X35.835 Y31.348
N5595 X35.696 Y31.269
N5600 X35.551 Y31.17
N5605 X35.398 Y31.047
N5610 X35.236 Y30.895
N5615 X35.073 Y30.713
N5620 X34.899 Y30.486
N5625 X34.729 Y30.222
N5630 X34.549 Y29.886
N5635 X34.376 Y29.491
N5640 X34.208 Y29.003
N5645 X34.053 Y28.399
N5650 X33.944 Y27.785
N5655 X33.867 Y27.165
N5660 X33.813 Y26.544
N5665 X33.777 Y25.921
N5670 X33.751 Y25.297
N5675 X33.734 Y24.674
N5680 X33.723 Y24.05
N5685 X33.715 Y23.426
N5690 X33.71 Y22.802
N5695 X33.707 Y22.178
N5700 X33.703 Y20.93
N5705 X33.701 Y18.434
N5710 Y12.819
N5715 X33.702 Y12.195
N5720 X33.708 Y11.571
N5725 X33.728 Y10.947
N5730 X33.774 Y10.325
N5735 X33.847 Y9.819
N5740 X33.929 Y9.458
N5745 X34.018 Y9.172
N5750 X34.103 Y8.963
N5755 X34.141 Y8.887
N5760 X34.25 Y8.728
N5765 X34.399 Y8.604
N5770 X34.576 Y8.527
N5775 X34.767 Y8.5
N5780 X35.896
N5785 G0 Z5.
N5790 X37.421 Y31.125
N5795 Z-3.
N5800 G1 Z-3.3 F1000.
N5805 X37.414 Y31.129 Z-3.367
N5810 X37.395 Y31.141 Z-3.43
N5815 X37.365 Y31.159 Z-3.487
N5820 X37.324 Y31.183 Z-3.535
N5825 X37.275 Y31.212 Z-3.57
N5830 X37.22 Y31.245 Z-3.592
N5835 X37.163 Y31.279 Z-3.6
N5840 G3 X36.409 Y31.5 I-0.809 J-1.36
N5845 G1 X35.418
N5850 X35.268 Y31.493
N5855 X35.121 Y31.461
N5860 X34.979 Y31.414
N5865 X34.841 Y31.354
N5870 X34.701 Y31.279
N5875 X34.541 Y31.176
N5880 X34.385 Y31.057
N5885 X34.207 Y30.897
N5890 X34.039 Y30.719
N5895 X33.846 Y30.48
N5900 X33.67 Y30.221
N5905 X33.471 Y29.871
N5910 X33.29 Y29.484
N5915 X33.105 Y28.988
N5920 X32.935 Y28.387
N5925 X32.811 Y27.776
N5930 X32.72 Y27.159
N5935 X32.655 Y26.538
N5940 X32.608 Y25.916
N5945 X32.575 Y25.293
N5950 X32.551 Y24.669
N5955 X32.535 Y24.046
N5960 X32.524 Y23.422
N5965 X32.516 Y22.798
N5970 X32.511 Y22.174
N5975 X32.508 Y21.55
N5980 X32.504 Y20.302
N5985 X32.501 Y17.806
N5990 Y13.439
N5995 X32.502 Y12.815
N6000 X32.507 Y12.191
N6005 X32.522 Y11.567
N6010 X32.552 Y10.944
N6015 X32.611 Y10.323
N6020 X32.701 Y9.781
N6025 X32.79 Y9.422
N6030 X32.888 Y9.133
N6035 X32.977 Y8.925
N6040 X33.005 Y8.873
N6045 X33.115 Y8.719
N6050 X33.262 Y8.6
N6055 X33.436 Y8.526
N6060 X33.624 Y8.5
N6065 X34.767
N6070 G0 Z5.
N6075 X36.429 Y31.125
N6080 Z-3.
N6085 G1 Z-3.3 F1000.
N6090 X36.423 Y31.129 Z-3.367
N6095 X36.404 Y31.141 Z-3.43
N6100 X36.373 Y31.159 Z-3.487
N6105 X36.332 Y31.183 Z-3.535
N6110 X36.283 Y31.212 Z-3.57
N6115 X36.229 Y31.245 Z-3.592
N6120 X36.171 Y31.279 Z-3.6
N6125 G3 X35.418 Y31.5 I-0.809 J-1.36
N6130 G1 X34.426
N6135 X34.276 Y31.493
N6140 X34.128 Y31.468
N6145 X33.984 Y31.427
N6150 X33.844 Y31.373
N6155 X33.705 Y31.306
N6160 X33.544 Y31.211
N6165 X33.383 Y31.098
N6170 X33.204 Y30.951
N6175 X33.027 Y30.778
N6180 X32.833 Y30.557
N6185 X32.643 Y30.301
N6190 X32.436 Y29.97
N6195 X32.245 Y29.6
N6200 X32.045 Y29.123
N6205 X31.85 Y28.53
N6210 X31.703 Y27.924
N6215 X31.594 Y27.31
N6220 X31.512 Y26.691
N6225 X31.452 Y26.07
N6230 X31.408 Y25.448
N6235 X31.377 Y24.824
N6240 X31.354 Y24.201
N6245 X31.338 Y23.577
N6250 X31.326 Y22.953
N6255 X31.318 Y22.329
N6260 X31.313 Y21.706
N6265 X31.309 Y21.082
N6270 X31.304 Y19.834
N6275 X31.302 Y17.962
N6280 X31.301 Y14.218
N6285 X31.302 Y13.594
N6290 X31.304 Y12.97
N6295 X31.312 Y12.346
N6300 X31.33 Y11.723
N6305 X31.365 Y11.1
N6310 X31.425 Y10.479
N6315 X31.515 Y9.906
N6320 X31.617 Y9.485
N6325 X31.717 Y9.178
N6330 X31.808 Y8.96
N6335 X31.85 Y8.879
N6340 X31.96 Y8.723
N6345 X32.108 Y8.602
N6350 X32.283 Y8.526
N6355 X32.472 Y8.5
N6360 X33.624
N6365 G0 Z5.
N6370 X35.438 Y31.125
N6375 Z-3.
N6380 G1 Z-3.3 F1000.
N6385 X35.431 Y31.129 Z-3.367
N6390 X35.412 Y31.141 Z-3.43
N6395 X35.381 Y31.159 Z-3.487
N6400 X35.341 Y31.183 Z-3.535
N6405 X35.292 Y31.212 Z-3.57
N6410 X35.237 Y31.245 Z-3.592
N6415 X35.18 Y31.279 Z-3.6
N6420 G3 X34.426 Y31.5 I-0.809 J-1.36
N6425 G1 X33.357
N6430 X33.207 Y31.493
N6435 X33.059 Y31.468
N6440 X32.914 Y31.428
N6445 X32.774 Y31.375
N6450 X32.623 Y31.302
N6455 X32.461 Y31.209
N6460 X32.292 Y31.091
N6465 X32.11 Y30.942
N6470 X31.925 Y30.764
N6475 X31.724 Y30.536
N6480 X31.524 Y30.27
N6485 X31.312 Y29.933
N6490 X31.101 Y29.53
N6495 X31.056 Y29.425
N6500 X31.025 Y29.336
N6505 X31.007 Y29.244
N6510 X31. Y29.151
N6515 G3 X31.512 Y28.949 I0.3 J0.01
N6520 G1 X31.575 Y29.012
N6525 X33.495 Y30.925
N6530 X33.558 Y30.988
N6535 G3 X33.357 Y31.5 I-0.212 J0.212
N6540 G1 X32.301
N6545 X32.151 Y31.493
N6550 X32.003 Y31.472
N6555 X31.857 Y31.436
N6560 X31.716 Y31.386
N6565 X31.571 Y31.322
N6570 X31.403 Y31.23
N6575 X31.317 Y31.174
N6580 X31.185 Y31.062
N6585 X31.085 Y30.921
N6590 X31.022 Y30.76
N6595 X31. Y30.588
N6600 G3 X31.456 Y30.342 I0.3 J0.01
N6605 G1 X31.594 Y30.426
N6610 X32.432 Y30.935
N6615 X32.446 Y30.944
N6620 G3 X32.301 Y31.5 I-0.156 J0.256
N6625 G1 X31.735
N6630 X31.664 Y31.499
N6635 X31.593 Y31.489
N6640 X31.38 Y31.447
N6645 X31.345 Y31.437
N6650 X31.31 Y31.422
N6655 X31.249 Y31.387
N6660 X31.187 Y31.342
N6665 X31.168 Y31.322
N6670 X31.12 Y31.261
N6675 X31.083 Y31.2
N6680 X31.067 Y31.164
N6685 X31.056 Y31.129
N6690 X31.013 Y30.916
N6695 X31.001 Y30.845
N6700 X31. Y30.775
N6705 Y9.368
N6710 Y9.226
N6715 X31.001 Y9.156
N6720 X31.013 Y9.085
N6725 X31.056 Y8.872
N6730 X31.067 Y8.837
N6735 X31.082 Y8.801
N6740 X31.119 Y8.739
N6745 X31.168 Y8.678
N6750 X31.186 Y8.659
N6755 X31.248 Y8.614
N6760 X31.31 Y8.578
N6765 X31.345 Y8.563
N6770 X31.38 Y8.553
N6775 X31.593 Y8.511
N6780 X31.664 Y8.501
N6785 X31.876 Y8.5
N6790 X32.472
N6795 G0 Z5.
N6800 X44.343 Y9.118
N6805 Z-3.
N6810 G1 Z-3.3 F1000.
N6815 X44.349 Y9.114 Z-3.367
N6820 X44.368 Y9.103 Z-3.43
N6825 X44.399 Y9.085 Z-3.487
N6830 X44.44 Y9.061 Z-3.535
N6835 X44.489 Y9.031 Z-3.57
N6840 X44.543 Y8.999 Z-3.592
N6845 X44.601 Y8.965 Z-3.6
N6850 G3 X46.184 Y8.5 I1.699 J2.858
N6855 G1 X46.438
N6860 X46.588 Y8.507
N6865 X46.717 Y8.585
N6870 X46.827 Y8.687
N6875 X46.923 Y8.802
N6880 X47.01 Y8.93
N6885 X47.104 Y9.093
N6890 X47.203 Y9.305
N6895 X47.308 Y9.584
N6900 X47.417 Y9.965
N6905 X47.53 Y10.526
N6910 X47.603 Y11.146
N6915 X47.645 Y11.769
N6920 X47.668 Y12.392
N6925 X47.682 Y13.016
N6930 X47.69 Y13.64
N6935 X47.694 Y14.264
N6940 X47.697 Y14.888
N6945 X47.699 Y16.136
N6950 X47.7 Y20.503
N6955 Y29.862
N6960 X47.698 Y30.36
N6965 X47.675 Y30.635
N6970 X47.639 Y30.851
N6975 X47.609 Y30.97
N6980 X47.541 Y31.142
N6985 X47.43 Y31.29
N6990 X47.284 Y31.404
N6995 X47.113 Y31.476
N7000 X46.93 Y31.5
N7005 X46.248
N7010 G0 Z5.
N7015 X45.974 Y8.981
N7020 Z-3.
N7025 G1 Z-3.3 F1000.
N7030 X45.978 Y8.974 Z-3.367
N7035 X45.987 Y8.954 Z-3.43
N7040 X46.003 Y8.922 Z-3.487
N7045 X46.025 Y8.88 Z-3.535
N7050 X46.05 Y8.829 Z-3.57
N7055 X46.078 Y8.772 Z-3.592
N7060 X46.108 Y8.712 Z-3.6
N7065 G3 X46.438 Y8.5 I0.344 J0.172
N7070 G1 X46.892
N7075 X47.042 Y8.507
N7080 X47.186 Y8.548
N7085 X47.323 Y8.61
N7090 X47.451 Y8.688
N7095 X47.57 Y8.78
N7100 X47.682 Y8.882
N7105 X47.8 Y9.008
N7110 X47.933 Y9.176
N7115 X48.058 Y9.362
N7120 X48.188 Y9.596
N7125 X48.323 Y9.889
N7130 X48.457 Y10.256
N7135 X48.589 Y10.737
N7140 X48.706 Y11.35
N7145 X48.78 Y11.969
N7150 X48.826 Y12.591
N7155 X48.854 Y13.215
N7160 X48.872 Y13.838
N7165 X48.883 Y14.462
N7170 X48.89 Y15.086
N7175 X48.894 Y15.71
N7180 X48.898 Y16.958
N7185 X48.9 Y19.454
N7190 Y28.813
N7195 Y29.437
N7200 X48.88 Y30.014
N7205 X48.838 Y30.38
N7210 X48.788 Y30.632
N7215 X48.721 Y30.87
N7220 X48.653 Y31.052
N7225 X48.632 Y31.096
N7230 X48.524 Y31.262
N7235 X48.374 Y31.39
N7240 X48.194 Y31.472
N7245 X47.998 Y31.5
N7250 X46.93
N7255 G0 Z5.
N7260 X46.069 Y8.819
N7265 Z-3.
N7270 G1 Z-3.3 F1000.
N7275 X46.076 Y8.815 Z-3.367
N7280 X46.095 Y8.804 Z-3.43
N7285 X46.125 Y8.786 Z-3.487
N7290 X46.166 Y8.762 Z-3.535
N7295 X46.215 Y8.733 Z-3.57
N7300 X46.27 Y8.7 Z-3.592
N7305 X46.327 Y8.666 Z-3.6
N7310 G3 X46.892 Y8.5 I0.607 J1.02
N7315 G1 X47.643
N7320 X47.793 Y8.507
N7325 X47.94 Y8.538
N7330 X48.082 Y8.587
N7335 X48.217 Y8.651
N7340 X48.346 Y8.728
N7345 X48.472 Y8.818
N7350 X48.615 Y8.938
N7355 X48.754 Y9.075
N7360 X48.905 Y9.251
N7365 X49.057 Y9.459
N7370 X49.212 Y9.711
N7375 X49.372 Y10.026
N7380 X49.527 Y10.404
N7385 X49.678 Y10.878
N7390 X49.82 Y11.486
N7395 X49.915 Y12.103
N7400 X49.979 Y12.723
N7405 X50.021 Y13.346
N7410 X50.049 Y13.969
N7415 X50.068 Y14.593
N7420 X50.079 Y15.217
N7425 X50.087 Y15.84
N7430 X50.092 Y16.464
N7435 X50.095 Y17.088
N7440 X50.098 Y18.336
N7445 X50.1 Y20.832
N7450 Y28.319
N7455 X50.095 Y28.943
N7460 X50.073 Y29.567
N7465 X50.021 Y30.089
N7470 X49.955 Y30.451
N7475 X49.877 Y30.745
N7480 X49.802 Y30.958
N7485 X49.744 Y31.086
N7490 X49.637 Y31.255
N7495 X49.486 Y31.387
N7500 X49.304 Y31.471
N7505 X49.105 Y31.5
N7510 X47.998
N7515 G0 Z5.
N7520 X46.632 Y8.875
N7525 Z-3.
N7530 G1 Z-3.3 F1000.
N7535 X46.638 Y8.871 Z-3.367
N7540 X46.657 Y8.859 Z-3.43
N7545 X46.688 Y8.841 Z-3.487
N7550 X46.729 Y8.817 Z-3.535
N7555 X46.778 Y8.788 Z-3.57
N7560 X46.832 Y8.755 Z-3.592
N7565 X46.89 Y8.721 Z-3.6
N7570 G3 X47.643 Y8.5 I0.809 J1.36
N7575 G1 X48.592
N7580 X48.742 Y8.507
N7585 X48.888 Y8.54
N7590 X49.03 Y8.59
N7595 X49.166 Y8.652
N7600 X49.306 Y8.731
N7605 X49.451 Y8.83
N7610 X49.604 Y8.953
N7615 X49.765 Y9.106
N7620 X49.929 Y9.287
N7625 X50.103 Y9.515
N7630 X50.273 Y9.779
N7635 X50.453 Y10.115
N7640 X50.625 Y10.51
N7645 X50.793 Y10.998
N7650 X50.948 Y11.603
N7655 X51.057 Y12.217
N7660 X51.134 Y12.836
N7665 X51.188 Y13.458
N7670 X51.224 Y14.081
N7675 X51.25 Y14.704
N7680 X51.267 Y15.328
N7685 X51.278 Y15.952
N7690 X51.286 Y16.576
N7695 X51.291 Y17.2
N7700 X51.294 Y17.824
N7705 X51.298 Y19.072
N7710 X51.3 Y21.567
N7715 Y27.183
N7720 X51.299 Y27.807
N7725 X51.293 Y28.431
N7730 X51.273 Y29.054
N7735 X51.227 Y29.677
N7740 X51.154 Y30.182
N7745 X51.072 Y30.543
N7750 X50.983 Y30.828
N7755 X50.898 Y31.038
N7760 X50.86 Y31.114
N7765 X50.751 Y31.273
N7770 X50.602 Y31.396
N7775 X50.425 Y31.473
N7780 X50.234 Y31.5
N7785 X49.105
N7790 G0 Z5.
N7795 X47.581 Y8.875
N7800 Z-3.
N7805 G1 Z-3.3 F1000.
N7810 X47.587 Y8.871 Z-3.367
N7815 X47.606 Y8.859 Z-3.43
N7820 X47.637 Y8.841 Z-3.487
N7825 X47.678 Y8.817 Z-3.535
N7830 X47.727 Y8.788 Z-3.57
N7835 X47.781 Y8.755 Z-3.592
N7840 X47.838 Y8.721 Z-3.6
N7845 G3 X48.592 Y8.5 I0.809 J1.36
N7850 G1 X49.584
N7855 X49.733 Y8.507
N7860 X49.88 Y8.539
N7865 X50.023 Y8.586
N7870 X50.16 Y8.646
N7875 X50.301 Y8.721
N7880 X50.461 Y8.824
N7885 X50.616 Y8.943
N7890 X50.794 Y9.103
N7895 X50.963 Y9.281
N7900 X51.155 Y9.52
N7905 X51.332 Y9.78
N7910 X51.531 Y10.13
N7915 X51.711 Y10.517
N7920 X51.896 Y11.014
N7925 X52.066 Y11.614
N7930 X52.191 Y12.226
N7935 X52.281 Y12.843
N7940 X52.346 Y13.463
N7945 X52.393 Y14.086
N7950 X52.426 Y14.709
N7955 X52.45 Y15.332
N7960 X52.466 Y15.956
N7965 X52.477 Y16.58
N7970 X52.485 Y17.204
N7975 X52.49 Y17.828
N7980 X52.493 Y18.451
N7985 X52.497 Y19.699
N7990 X52.5 Y22.195
N7995 Y26.563
N8000 X52.499 Y27.187
N8005 X52.494 Y27.811
N8010 X52.479 Y28.434
N8015 X52.449 Y29.058
N8020 X52.39 Y29.679
N8025 X52.3 Y30.22
N8030 X52.21 Y30.578
N8035 X52.113 Y30.867
N8040 X52.024 Y31.075
N8045 X51.996 Y31.127
N8050 X51.886 Y31.281
N8055 X51.739 Y31.4
N8060 X51.565 Y31.474
N8065 X51.377 Y31.5
N8070 X50.234
N8075 G0 Z5.
N8080 X48.572 Y8.875
N8085 Z-3.
N8090 G1 Z-3.3 F1000.
N8095 X48.579 Y8.871 Z-3.367
N8100 X48.598 Y8.859 Z-3.43
N8105 X48.628 Y8.841 Z-3.487
N8110 X48.669 Y8.817 Z-3.535
N8115 X48.718 Y8.788 Z-3.57
N8120 X48.773 Y8.755 Z-3.592
N8125 X48.83 Y8.721 Z-3.6
N8130 G3 X49.584 Y8.5 I0.809 J1.36
N8135 G1 X50.575
N8140 X50.725 Y8.507
N8145 X50.873 Y8.532
N8150 X51.017 Y8.573
N8155 X51.157 Y8.627
N8160 X51.297 Y8.694
N8165 X51.458 Y8.789
N8170 X51.619 Y8.902
N8175 X51.797 Y9.05
N8180 X51.975 Y9.222
N8185 X52.168 Y9.444
N8190 X52.358 Y9.7
N8195 X52.565 Y10.031
N8200 X52.757 Y10.402
N8205 X52.957 Y10.878
N8210 X53.151 Y11.471
N8215 X53.298 Y12.078
N8220 X53.407 Y12.692
N8225 X53.489 Y13.311
N8230 X53.549 Y13.932
N8235 X53.593 Y14.554
N8240 X53.624 Y15.177
N8245 X53.647 Y15.801
N8250 X53.663 Y16.425
N8255 X53.675 Y17.048
N8260 X53.683 Y17.672
N8265 X53.688 Y18.296
N8270 X53.692 Y18.92
N8275 X53.697 Y20.168
N8280 X53.699 Y22.04
N8285 X53.7 Y25.784
N8290 X53.699 Y26.408
N8295 X53.696 Y27.031
N8300 X53.688 Y27.655
N8305 X53.671 Y28.279
N8310 X53.636 Y28.902
N8315 X53.576 Y29.523
N8320 X53.485 Y30.096
N8325 X53.384 Y30.516
N8330 X53.284 Y30.823
N8335 X53.192 Y31.041
N8340 X53.151 Y31.122
N8345 X53.041 Y31.278
N8350 X52.893 Y31.398
N8355 X52.718 Y31.474
N8360 X52.529 Y31.5
N8365 X51.377
N8370 G0 Z5.
N8375 X49.564 Y8.875
N8380 Z-3.
N8385 G1 Z-3.3 F1000.
N8390 X49.57 Y8.871 Z-3.367
N8395 X49.589 Y8.859 Z-3.43
N8400 X49.62 Y8.841 Z-3.487
N8405 X49.661 Y8.817 Z-3.535
N8410 X49.71 Y8.788 Z-3.57
N8415 X49.764 Y8.755 Z-3.592
N8420 X49.822 Y8.721 Z-3.6
N8425 G3 X50.575 Y8.5 I0.809 J1.36
N8430 G1 X51.645
N8435 X51.795 Y8.507
N8440 X51.943 Y8.532
N8445 X52.087 Y8.572
N8450 X52.227 Y8.626
N8455 X52.378 Y8.698
N8460 X52.54 Y8.792
N8465 X52.709 Y8.909
N8470 X52.891 Y9.058
N8475 X53.076 Y9.237
N8480 X53.278 Y9.465
N8485 X53.477 Y9.731
N8490 X53.689 Y10.068
N8495 X53.901 Y10.471
N8500 X53.945 Y10.575
N8505 X53.976 Y10.664
N8510 X53.994 Y10.756
N8515 X54. Y10.849
N8520 G3 X53.489 Y11.051 I-0.3 J-0.01
N8525 G1 X53.425 Y10.988
N8530 X51.506 Y9.075
N8535 X51.443 Y9.012
N8540 G3 X51.645 Y8.5 I0.212 J-0.212
N8545 G1 X52.7
N8550 X52.85 Y8.507
N8555 X52.999 Y8.528
N8560 X53.144 Y8.564
N8565 X53.286 Y8.614
N8570 X53.431 Y8.678
N8575 X53.598 Y8.77
N8580 X53.684 Y8.826
N8585 X53.816 Y8.938
N8590 X53.916 Y9.079
N8595 X53.979 Y9.24
N8600 X54. Y9.412
N8605 G3 X53.545 Y9.658 I-0.3 J-0.01
N8610 G1 X53.407 Y9.574
N8615 X52.57 Y9.065
N8620 X52.555 Y9.056
N8625 G3 X52.7 Y8.5 I0.156 J-0.256
N8630 G1 X53.267
N8635 X53.338 Y8.501
N8640 X53.408 Y8.511
N8645 X53.621 Y8.553
N8650 X53.656 Y8.563
N8655 X53.692 Y8.578
N8660 X53.753 Y8.614
N8665 X53.815 Y8.659
N8670 X53.833 Y8.678
N8675 X53.882 Y8.74
N8680 X53.919 Y8.801
N8685 X53.934 Y8.837
N8690 X53.945 Y8.872
N8695 X53.988 Y9.085
N8700 X54. Y9.156
N8705 Y9.226
N8710 Y30.633
N8715 Y30.775
N8720 Y30.845
N8725 X53.988 Y30.916
N8730 X53.945 Y31.129
N8735 X53.934 Y31.164
N8740 X53.918 Y31.2
N8745 X53.881 Y31.261
N8750 X53.833 Y31.322
N8755 X53.814 Y31.342
N8760 X53.753 Y31.387
N8765 X53.692 Y31.422
N8770 X53.656 Y31.437
N8775 X53.621 Y31.447
N8780 X53.408 Y31.489
N8785 X53.338 Y31.499
N8790 X53.125 Y31.5
N8795 X52.529
N8800 G3 X52.239 Y31.201 I0.01 J-0.3
N8805 G1 Y31.2
N8810 X52.24 Y31.176
N8815 X52.258 Y31.126 Z-3.595
N8820 X52.275 Y31.077 Z-3.581
N8825 X52.291 Y31.032 Z-3.558
N8830 X52.327 Y30.999 Z-3.521
N8835 X52.357 Y30.972 Z-3.474
N8840 X52.38 Y30.952 Z-3.42
N8845 X52.394 Y30.94 Z-3.362
N8850 X52.398 Y30.935 Z-3.3
N8855 G0 Z5.
N8860 X42.678 Y14.043
N8865 Z-3.5
N8870 S5000
N8875 G3 X42.323 Y11.215 Z-3.656 I-0.177 J-1.414 F333.33
N8880 X42.678 Y14.043 Z-3.813 I0.177 J1.414
N8885 X42.323 Y11.215 Z-3.969 I-0.177 J-1.414
N8890 X42.678 Y14.043 Z-4.125 I0.177 J1.414
N8895 X42.323 Y11.215 Z-4.282 I-0.177 J-1.414
N8900 X42.678 Y14.043 Z-4.438 I0.177 J1.414
N8905 X42.323 Y11.215 Z-4.594 I-0.177 J-1.414
N8910 X42.678 Y14.043 Z-4.751 I0.177 J1.414
N8915 X42.323 Y11.215 Z-4.907 I-0.177 J-1.414
N8920 X42.678 Y14.043 Z-5.063 I0.177 J1.414
N8925 X42.323 Y11.215 Z-5.22 I-0.177 J-1.414
N8930 X42.678 Y14.043 Z-5.376 I0.177 J1.414
N8935 X42.323 Y11.215 Z-5.532 I-0.177 J-1.414
N8940 X42.678 Y14.043 Z-5.689 I0.177 J1.414
N8945 X42.323 Y11.215 Z-5.845 I-0.177 J-1.414
N8950 X42.678 Y14.043 Z-6.001 I0.177 J1.414
N8955 X42.323 Y11.215 Z-6.158 I-0.177 J-1.414
N8960 X42.678 Y14.043 Z-6.314 I0.177 J1.414
N8965 X42.323 Y11.215 Z-6.47 I-0.177 J-1.414
N8970 X42.678 Y14.043 Z-6.627 I0.177 J1.414
N8975 X42.323 Y11.215 Z-6.783 I-0.177 J-1.414
N8980 X42.678 Y14.043 Z-6.939 I0.177 J1.414
N8985 X42.323 Y11.215 Z-7.096 I-0.177 J-1.414
N8990 X42.678 Y14.043 Z-7.252 I0.177 J1.414
N8995 X42.323 Y11.215 Z-7.408 I-0.177 J-1.414
N9000 X42.678 Y14.043 Z-7.565 I0.177 J1.414
N9005 X42.323 Y11.215 Z-7.721 I-0.177 J-1.414
N9010 X42.678 Y14.043 Z-7.877 I0.177 J1.414
N9015 X42.323 Y11.215 Z-8.034 I-0.177 J-1.414
N9020 X42.678 Y14.043 Z-8.19 I0.177 J1.414
N9025 X42.323 Y11.215 Z-8.346 I-0.177 J-1.414
N9030 X42.678 Y14.043 Z-8.503 I0.177 J1.414
N9035 X42.323 Y11.215 Z-8.659 I-0.177 J-1.414
N9040 X42.678 Y14.043 Z-8.815 I0.177 J1.414
N9045 X42.323 Y11.215 Z-8.972 I-0.177 J-1.414
N9050 X42.678 Y14.043 Z-9.128 I0.177 J1.414
N9055 X42.323 Y11.215 Z-9.284 I-0.177 J-1.414
N9060 X42.678 Y14.043 Z-9.441 I0.177 J1.414
N9065 X42.323 Y11.215 Z-9.597 I-0.177 J-1.414
N9070 X42.678 Y14.043 Z-9.753 I0.177 J1.414
N9075 X42.323 Y11.215 Z-9.91 I-0.177 J-1.414
N9080 X43.925 Y12.629 Z-9.994 I0.177 J1.414
N9085 X41.075 I-1.425 J0.
N9090 X43.925 I1.425 J0.
N9095 S12000
N9100 G1 X43.956 Y13.252 F1000.
N9105 X43.98 Y13.326
N9110 X44.009 Y13.473
N9115 X44.006 Y13.623
N9120 X43.978 Y13.771
N9125 X43.929 Y13.912
N9130 X43.862 Y14.047
N9135 X43.78 Y14.172
N9140 X43.685 Y14.288
N9145 X43.578 Y14.393
N9150 X43.461 Y14.488
N9155 X43.336 Y14.571
N9160 X43.205 Y14.642
N9165 X43.067 Y14.703
N9170 X42.925 Y14.751
N9175 X42.778 Y14.789
N9180 X42.625 Y14.815
N9185 X42.467 Y14.829
N9190 X42.306 Y14.83
N9195 X42.143 Y14.818
N9200 X41.98 Y14.793
N9205 X41.817 Y14.754
N9210 X41.655 Y14.701
N9215 X41.498 Y14.636
N9220 X41.344 Y14.557
N9225 X41.197 Y14.465
N9230 X41.056 Y14.362
N9235 X40.923 Y14.246
N9240 X40.799 Y14.12
N9245 X40.686 Y13.984
N9250 X40.583 Y13.838
N9255 X40.492 Y13.684
N9260 X40.413 Y13.522
N9265 X40.348 Y13.355
N9270 X40.296 Y13.182
N9275 X40.258 Y13.006
N9280 X40.234 Y12.826
N9285 X40.225 Y12.645
N9290 X40.23 Y12.464
N9295 X40.25 Y12.283
N9300 X40.284 Y12.104
N9305 X40.332 Y11.929
N9310 X40.395 Y11.757
N9315 X40.471 Y11.592
N9320 X40.56 Y11.432
N9325 X40.662 Y11.281
N9330 X40.775 Y11.138
N9335 X40.9 Y11.004
N9340 X41.035 Y10.881
N9345 X41.18 Y10.769
N9350 X41.333 Y10.669
N9355 X41.494 Y10.582
N9360 X41.661 Y10.508
N9365 X41.834 Y10.447
N9370 X42.011 Y10.401
N9375 X42.192 Y10.368
N9380 X42.374 Y10.351
N9385 X42.557 Y10.348
N9390 X42.74 Y10.36
N9395 X42.921 Y10.386
N9400 X43.1 Y10.427
N9405 X43.274 Y10.482
N9410 X43.444 Y10.551
N9415 X43.608 Y10.634
N9420 X43.764 Y10.729
N9425 X43.913 Y10.837
N9430 X44.052 Y10.956
N9435 X44.181 Y11.086
N9440 X44.3 Y11.225
N9445 X44.406 Y11.374
N9450 X44.509 Y11.544
N9455 X44.626 Y11.779
N9460 X44.786 Y12.18
N9465 X44.876 Y12.47
N9470 X44.932 Y12.717
N9475 X44.963 Y12.942
N9480 X44.976 Y13.157
N9485 X44.972 Y13.368
N9490 X44.952 Y13.57
N9495 X44.916 Y13.764
N9500 X44.866 Y13.951
N9505 X44.8 Y14.136
N9510 X44.72 Y14.315
N9515 X44.624 Y14.489
N9520 X44.515 Y14.655
N9525 X44.391 Y14.813
N9530 X44.255 Y14.962
N9535 X44.105 Y15.101
N9540 X43.942 Y15.229
N9545 X43.766 Y15.346
N9550 X43.579 Y15.449
N9555 X43.381 Y15.539
N9560 X43.174 Y15.614
N9565 X42.958 Y15.672
N9570 X42.736 Y15.714
N9575 X42.508 Y15.737
N9580 X42.276 Y15.743
N9585 X42.042 Y15.73
N9590 X41.808 Y15.697
N9595 X41.574 Y15.646
N9600 X41.344 Y15.575
N9605 X41.119 Y15.486
N9610 X40.9 Y15.378
N9615 X40.689 Y15.252
N9620 X40.488 Y15.109
N9625 X40.298 Y14.949
N9630 X40.12 Y14.773
N9635 X39.956 Y14.583
N9640 X39.808 Y14.38
N9645 X39.676 Y14.164
N9650 X39.561 Y13.938
N9655 X39.464 Y13.703
N9660 X39.387 Y13.46
N9665 X39.329 Y13.211
N9670 X39.291 Y12.957
N9675 X39.273 Y12.701
N9680 X39.276 Y12.444
N9685 X39.3 Y12.188
N9690 X39.345 Y11.934
N9695 X39.409 Y11.684
N9700 X39.494 Y11.44
N9705 X39.598 Y11.203
N9710 X39.721 Y10.975
N9715 X39.861 Y10.758
N9720 X40.019 Y10.553
N9725 X40.193 Y10.36
N9730 X40.382 Y10.183
N9735 X40.584 Y10.021
N9740 X40.799 Y9.875
N9745 X41.025 Y9.748
N9750 X41.261 Y9.638
N9755 X41.505 Y9.548
N9760 X41.755 Y9.478
N9765 X42.01 Y9.429
N9770 X42.268 Y9.399
N9775 X42.528 Y9.391
N9780 X42.787 Y9.404
N9785 X43.045 Y9.437
N9790 X43.299 Y9.491
N9795 X43.549 Y9.565
N9800 X43.791 Y9.659
N9805 X44.025 Y9.772
N9810 X44.25 Y9.904
N9815 X44.463 Y10.053
N9820 X44.665 Y10.22
N9825 X44.865 Y10.414
N9830 X45.074 Y10.653
N9835 X45.269 Y10.916
N9840 X45.449 Y11.203
N9845 X45.604 Y11.504
N9850 X45.732 Y11.808
N9855 X45.832 Y12.112
N9860 X45.905 Y12.415
N9865 X45.952 Y12.714
N9870 X45.975 Y13.011
N9875 X45.974 Y13.304
N9880 X45.95 Y13.593
N9885 X45.903 Y13.876
N9890 X45.833 Y14.153
N9895 X45.743 Y14.422
N9900 X45.631 Y14.682
N9905 X45.498 Y14.933
N9910 X45.346 Y15.172
N9915 X45.174 Y15.4
N9920 X44.984 Y15.614
N9925 X44.776 Y15.813
N9930 X44.551 Y15.996
N9935 X44.31 Y16.162
N9940 X44.054 Y16.31
N9945 X43.784 Y16.437
N9950 X43.503 Y16.543
N9955 X43.212 Y16.628
N9960 X42.912 Y16.689
N9965 X42.606 Y16.726
N9970 X42.296 Y16.738
N9975 X41.984 Y16.726
N9980 X41.671 Y16.688
N9985 X41.36 Y16.625
N9990 X41.054 Y16.536
N9995 X40.753 Y16.423
N10000 X40.461 Y16.285
N10005 X40.18 Y16.123
N10010 X39.911 Y15.938
N10015 X39.657 Y15.731
N10020 X39.419 Y15.503
N10025 X39.199 Y15.256
N10030 X38.999 Y14.992
N10035 X38.82 Y14.711
N10040 X38.664 Y14.416
N10045 X38.557 Y14.167
N10050 X38.526 Y14.078
N10055 X38.507 Y13.985
N10060 X38.5 Y13.891
N10065 Y12.062
N10070 X38.516 Y11.742
N10075 X38.547 Y11.506
N10080 X38.601 Y11.256
N10085 X38.679 Y10.996
N10090 X38.781 Y10.733
N10095 X38.908 Y10.472
N10100 X39.058 Y10.216
N10105 X39.233 Y9.967
N10110 X39.432 Y9.728
N10115 X39.654 Y9.5
N10120 X39.897 Y9.288
N10125 X40.16 Y9.093
N10130 X40.44 Y8.919
N10135 X40.736 Y8.767
N10140 X41.045 Y8.637
N10145 X41.364 Y8.533
N10150 X41.422 Y8.519
N10155 X41.476 Y8.509
N10160 X41.53 Y8.502
N10165 X41.585 Y8.5
N10170 G3 X41.803 Y8.995 I-0.01 J0.3
N10175 G1 X41.73 Y9.08
N10180 X39.071 Y12.196
N10185 X39.029 Y12.246
N10190 G3 X38.5 Y12.062 I-0.228 J-0.195
N10195 G1 Y10.219
N10200 X38.508 Y10.069
N10205 X38.534 Y9.918
N10210 X38.574 Y9.765
N10215 X38.635 Y9.589
N10220 X38.713 Y9.413
N10225 X38.819 Y9.217
N10230 X38.946 Y9.021
N10235 X39.101 Y8.818
N10240 X39.181 Y8.73
N10245 X39.33 Y8.606
N10250 X39.508 Y8.527
N10255 X39.7 Y8.5
N10260 G3 X39.943 Y8.96 I-0.01 J0.3
N10265 G1 X39.86 Y9.092
N10270 X39.066 Y10.35
N10275 X39.054 Y10.369
N10280 G3 X38.5 Y10.219 I-0.254 J-0.16
N10285 G1 Y9.007
N10290 Y8.972
N10295 Y8.943
N10300 X38.508 Y8.793
N10305 X38.562 Y8.676
N10310 X38.65 Y8.582
N10315 X38.763 Y8.521
N10320 X38.891 Y8.5
N10325 G3 X39.187 Y8.618 I-0.017 J0.474
N10330 X38.641 Y9.239 I-0.273 J0.311
N10335 X38.5 Y8.943 I0.273 J-0.311
N10340 G1 X38.501 Y8.801
N10345 X38.504 Y8.77
N10350 X38.51 Y8.74
N10355 X38.52 Y8.709
N10360 X38.534 Y8.678
N10365 X38.545 Y8.659
N10370 X38.574 Y8.619
N10375 X38.59 Y8.599
N10380 X38.61 Y8.579
N10385 X38.643 Y8.553
N10390 X38.676 Y8.533
N10395 X38.711 Y8.518
N10400 X38.738 Y8.509
N10405 X38.764 Y8.504
N10410 X38.818 Y8.5
N10415 X42.784
N10420 X43.163 Y8.519
N10425 X43.439 Y8.555
N10430 X43.724 Y8.616
N10435 X44.012 Y8.702
N10440 X44.3 Y8.815
N10445 X44.588 Y8.954
N10450 X44.876 Y9.124
N10455 X45.156 Y9.32
N10460 X45.427 Y9.546
N10465 X45.693 Y9.805
N10470 X45.945 Y10.094
N10475 X46.178 Y10.409
N10480 X46.386 Y10.744
N10485 X46.423 Y10.814
N10490 X46.465 Y10.916
N10495 X46.492 Y11.024
N10500 X46.5 Y11.135
N10505 G3 X46.032 Y11.372 I-0.3 J-0.01
N10510 G1 X45.912 Y11.29
N10515 X42.653 Y9.066
N10520 X42.625 Y9.048
N10525 G3 X42.784 Y8.5 I0.169 J-0.248
N10530 G1 X44.767
N10535 X44.917 Y8.507
N10540 X45.066 Y8.528
N10545 X45.236 Y8.567
N10550 X45.414 Y8.623
N10555 X45.613 Y8.703
N10560 X45.818 Y8.805
N10565 X46.047 Y8.944
N10570 X46.21 Y9.061
N10575 X46.366 Y9.216
N10580 X46.466 Y9.412
N10585 X46.5 Y9.629
N10590 G3 X46.051 Y9.879 I-0.3 J-0.01
N10595 G1 X45.905 Y9.795
N10600 X44.637 Y9.065
N10605 X44.628 Y9.06
N10610 G3 X44.767 Y8.5 I0.15 J-0.26
N10615 G1 X46.042
N10620 X46.085
N10625 X46.115
N10630 X46.25 Y8.507
N10635 G3 X46.189 Y9.063 I-0.068 J0.274
N10640 G1 X46.131 Y9.064
N10645 G3 X46.115 Y8.5 I-0.006 J-0.282
N10650 G1 X46.184
N10655 X46.237 Y8.504
N10660 X46.263 Y8.51
N10665 X46.29 Y8.518
N10670 X46.326 Y8.533
N10675 X46.358 Y8.553
N10680 X46.391 Y8.579
N10685 X46.411 Y8.599
N10690 X46.428 Y8.619
N10695 X46.456 Y8.659
N10700 X46.467 Y8.679
N10705 X46.481 Y8.709
N10710 X46.491 Y8.74
N10715 X46.497 Y8.771
N10720 X46.5 Y8.801
N10725 Y14.33
N10730 X46.492 Y14.502
N10735 X46.466 Y14.697
N10740 X46.42 Y14.914
N10745 X46.352 Y15.14
N10750 X46.263 Y15.368
N10755 X46.146 Y15.61
N10760 X46.001 Y15.857
N10765 X45.829 Y16.101
N10770 X45.633 Y16.337
N10775 X45.41 Y16.566
N10780 X45.159 Y16.785
N10785 X44.882 Y16.99
N10790 X44.581 Y17.177
N10795 X44.259 Y17.343
N10800 X43.919 Y17.485
N10805 X43.563 Y17.601
N10810 X43.194 Y17.69
N10815 X42.815 Y17.749
N10820 X42.429 Y17.778
N10825 X42.038 Y17.776
N10830 X41.645 Y17.742
N10835 X41.254 Y17.676
N10840 X40.866 Y17.578
N10845 X40.485 Y17.449
N10850 X40.114 Y17.289
N10855 X39.755 Y17.098
N10860 X39.41 Y16.878
N10865 X39.083 Y16.631
N10870 X38.775 Y16.356
N10875 X38.694 Y16.27
N10880 X38.589 Y16.128
N10885 X38.523 Y15.963
N10890 X38.5 Y15.787
N10895 Y13.891
N10900 G3 X38.818 Y13.602 I0.3 J0.01
N10905 G1 X39.124 Y13.62
N10910 X45.877 Y14.021
N10915 X46.218 Y14.041
N10920 G3 X46.5 Y14.33 I-0.018 J0.299
N10925 G1 Y15.889
N10930 X46.493 Y16.039
N10935 X46.469 Y16.187
N10940 X46.433 Y16.334
N10945 X46.377 Y16.502
N10950 X46.304 Y16.672
N10955 X46.204 Y16.862
N10960 X46.083 Y17.054
N10965 X45.931 Y17.256
N10970 X45.743 Y17.468
N10975 X45.534 Y17.67
N10980 X45.284 Y17.874
N10985 X44.995 Y18.074
N10990 X44.672 Y18.261
N10995 X44.326 Y18.425
N11000 X43.952 Y18.568
N11005 X43.548 Y18.686
N11010 X43.121 Y18.774
N11015 X42.675 Y18.829
N11020 X42.218 Y18.849
N11025 X41.752 Y18.831
N11030 X41.283 Y18.775
N11035 X40.815 Y18.681
N11040 X40.351 Y18.549
N11045 X39.896 Y18.378
N11050 X39.454 Y18.17
N11055 X39.026 Y17.925
N11060 X38.805 Y17.774
N11065 X38.642 Y17.618
N11070 X38.537 Y17.419
N11075 X38.5 Y17.196
N11080 Y15.787
N11085 G3 X38.804 Y15.498 I0.3 J0.01
N11090 G1 X39.125 Y15.502
N11095 X45.876 Y15.595
N11100 X46.205 Y15.6
N11105 G3 X46.5 Y15.889 I-0.004 J0.3
N11110 G1 Y17.101
N11115 X46.493 Y17.251
N11120 X46.471 Y17.4
N11125 X46.434 Y17.545
N11130 X46.385 Y17.688
N11135 X46.315 Y17.847
N11140 X46.225 Y18.014
N11145 X46.109 Y18.193
N11150 X45.969 Y18.376
N11155 X45.79 Y18.574
N11160 X45.591 Y18.761
N11165 X45.346 Y18.958
N11170 X45.058 Y19.153
N11175 X44.747 Y19.328
N11180 X44.387 Y19.496
N11185 X43.981 Y19.646
N11190 X43.536 Y19.77
N11195 X43.063 Y19.863
N11200 X42.575 Y19.918
N11205 X42.064 Y19.935
N11210 X41.535 Y19.91
N11215 X40.995 Y19.84
N11220 X40.452 Y19.725
N11225 X39.913 Y19.565
N11230 X39.383 Y19.36
N11235 X39.027 Y19.188
N11240 X38.847 Y19.083
N11245 X38.703 Y18.971
N11250 X38.593 Y18.827
N11255 X38.524 Y18.659
N11260 X38.5 Y18.479
N11265 Y17.196
N11270 G3 X38.796 Y16.907 I0.3 J0.01
N11275 G1 X39.125 Y16.903
N11280 X45.876 Y16.816
N11285 X46.197 Y16.812
N11290 G3 X46.5 Y17.101 I0.004 J0.3
N11295 G1 Y18.299
N11300 X46.493 Y18.449
N11305 X46.464 Y18.596
N11310 X46.422 Y18.74
N11315 X46.365 Y18.884
N11320 X46.286 Y19.044
N11325 X46.19 Y19.206
N11330 X46.065 Y19.383
N11335 X45.915 Y19.562
N11340 X45.731 Y19.748
N11345 X45.506 Y19.943
N11350 X45.255 Y20.127
N11355 X44.946 Y20.317
N11360 X44.593 Y20.497
N11365 X44.211 Y20.655
N11370 X43.772 Y20.796
N11375 X43.285 Y20.911
N11380 X42.756 Y20.991
N11385 X42.196 Y21.03
N11390 X41.621 Y21.024
N11395 X41.031 Y20.971
N11400 X40.423 Y20.866
N11405 X39.819 Y20.711
N11410 X39.359 Y20.553
N11415 X39.031 Y20.41
N11420 X38.87 Y20.324
N11425 X38.718 Y20.213
N11430 X38.6 Y20.066
N11435 X38.526 Y19.893
N11440 X38.5 Y19.707
N11445 Y18.479
N11450 G3 X38.793 Y18.189 I0.3 J0.01
N11455 G1 X39.125 Y18.181
N11460 X45.876 Y18.018
N11465 X46.193 Y18.01
N11470 G3 X46.5 Y18.299 I0.007 J0.3
N11475 G1 Y19.37
N11480 X46.493 Y19.52
N11485 X46.469 Y19.668
N11490 X46.43 Y19.812
N11495 X46.378 Y19.953
N11500 X46.31 Y20.099
N11505 X46.216 Y20.264
N11510 X46.105 Y20.427
N11515 X45.958 Y20.61
N11520 X45.789 Y20.788
N11525 X45.58 Y20.977
N11530 X45.329 Y21.168
N11535 X45.046 Y21.35
N11540 X44.698 Y21.537
N11545 X44.308 Y21.707
N11550 X43.877 Y21.855
N11555 X43.377 Y21.983
N11560 X42.824 Y22.078
N11565 X42.228 Y22.132
N11570 X41.604 Y22.138
N11575 X40.982 Y22.095
N11580 X40.365 Y22.002
N11585 X39.789 Y21.871
N11590 X39.366 Y21.739
N11595 X39.058 Y21.615
N11600 X38.838 Y21.504
N11605 X38.698 Y21.393
N11610 X38.591 Y21.249
N11615 X38.523 Y21.083
N11620 X38.5 Y20.905
N11625 Y19.707
N11630 G3 X38.787 Y19.417 I0.3 J0.01
N11635 G1 X39.125 Y19.402
N11640 X45.876 Y19.095
N11645 X46.187 Y19.08
N11650 G3 X46.5 Y19.37 I0.014 J0.3
N11655 G1 Y20.504
N11660 X46.493 Y20.654
N11665 X46.465 Y20.801
N11670 X46.421 Y20.944
N11675 X46.366 Y21.084
N11680 X46.287 Y21.241
N11685 X46.194 Y21.396
N11690 X46.066 Y21.574
N11695 X45.921 Y21.746
N11700 X45.73 Y21.938
N11705 X45.516 Y22.121
N11710 X45.252 Y22.312
N11715 X44.936 Y22.505
N11720 X44.588 Y22.68
N11725 X44.162 Y22.853
N11730 X43.669 Y23.009
N11735 X43.154 Y23.127
N11740 X42.568 Y23.213
N11745 X41.945 Y23.254
N11750 X41.321 Y23.246
N11755 X40.699 Y23.192
N11760 X40.084 Y23.095
N11765 X39.564 Y22.969
N11770 X39.239 Y22.862
N11775 X38.981 Y22.754
N11780 X38.878 Y22.701
N11785 X38.723 Y22.591
N11790 X38.602 Y22.443
N11795 X38.526 Y22.268
N11800 X38.5 Y22.079
N11805 Y20.905
N11810 G3 X38.784 Y20.616 I0.3 J0.01
N11815 G1 X39.124 Y20.598
N11820 X45.876 Y20.231
N11825 X46.184 Y20.215
N11830 G3 X46.5 Y20.504 I0.016 J0.3
N11835 G1 Y21.56
N11840 X46.493 Y21.71
N11845 X46.469 Y21.858
N11850 X46.429 Y22.002
N11855 X46.376 Y22.143
N11860 X46.308 Y22.289
N11865 X46.213 Y22.453
N11870 X46.102 Y22.616
N11875 X45.954 Y22.798
N11880 X45.785 Y22.975
N11885 X45.568 Y23.169
N11890 X45.318 Y23.358
N11895 X45.015 Y23.551
N11900 X44.647 Y23.747
N11905 X44.255 Y23.916
N11910 X43.784 Y24.076
N11915 X43.236 Y24.213
N11920 X42.63 Y24.315
N11925 X42.008 Y24.369
N11930 X41.384 Y24.375
N11935 X40.762 Y24.337
N11940 X40.143 Y24.255
N11945 X39.642 Y24.147
N11950 X39.297 Y24.043
N11955 X39.039 Y23.942
N11960 X38.894 Y23.872
N11965 X38.733 Y23.763
N11970 X38.607 Y23.614
N11975 X38.528 Y23.436
N11980 X38.5 Y23.243
N11985 Y22.079
N11990 G3 X38.779 Y21.791 I0.3 J0.01
N11995 G1 X39.124 Y21.766
N12000 X45.877 Y21.292
N12005 X46.18 Y21.271
N12010 G3 X46.5 Y21.56 I0.021 J0.299
N12015 G1 Y22.694
N12020 X46.493 Y22.844
N12025 X46.464 Y22.991
N12030 X46.419 Y23.134
N12035 X46.363 Y23.273
N12040 X46.283 Y23.433
N12045 X46.188 Y23.589
N12050 X46.057 Y23.77
N12055 X45.907 Y23.945
N12060 X45.711 Y24.14
N12065 X45.494 Y24.324
N12070 X45.215 Y24.524
N12075 X44.898 Y24.716
N12080 X44.522 Y24.903
N12085 X44.061 Y25.088
N12090 X43.56 Y25.244
N12095 X42.996 Y25.37
N12100 X42.379 Y25.458
N12105 X41.756 Y25.497
N12110 X41.132 Y25.493
N12115 X40.51 Y25.446
N12120 X39.939 Y25.36
N12125 X39.523 Y25.263
N12130 X39.202 Y25.16
N12135 X38.981 Y25.069
N12140 X38.883 Y25.019
N12145 X38.725 Y24.909
N12150 X38.604 Y24.761
N12155 X38.527 Y24.585
N12160 X38.5 Y24.395
N12165 Y23.243
N12170 G3 X38.778 Y22.954 I0.3 J0.01
N12175 G1 X39.124 Y22.928
N12180 X45.877 Y22.428
N12185 X46.178 Y22.405
N12190 G3 X46.5 Y22.694 I0.022 J0.299
N12195 G1 Y23.764
N12200 X46.493 Y23.914
N12205 X46.466 Y24.062
N12210 X46.425 Y24.206
N12215 X46.369 Y24.351
N12220 X46.297 Y24.498
N12225 X46.198 Y24.667
N12230 X46.083 Y24.831
N12235 X45.927 Y25.019
N12240 X45.752 Y25.198
N12245 X45.519 Y25.402
N12250 X45.261 Y25.593
N12255 X44.939 Y25.793
N12260 X44.552 Y25.993
N12265 X44.136 Y26.167
N12270 X43.627 Y26.333
N12275 X43.045 Y26.473
N12280 X42.428 Y26.569
N12285 X41.806 Y26.619
N12290 X41.182 Y26.626
N12295 X40.559 Y26.59
N12300 X40.004 Y26.515
N12305 X39.56 Y26.418
N12310 X39.242 Y26.321
N12315 X39.011 Y26.23
N12320 X38.892 Y26.172
N12325 X38.731 Y26.063
N12330 X38.606 Y25.914
N12335 X38.527 Y25.736
N12340 X38.5 Y25.544
N12345 Y24.395
N12350 G3 X38.775 Y24.107 I0.3 J0.01
N12355 G1 X39.124 Y24.077
N12360 X45.877 Y23.501
N12365 X46.175 Y23.476
N12370 G3 X46.5 Y23.764 I0.025 J0.299
N12375 G1 Y24.821
N12380 X46.493 Y24.97
N12385 X46.471 Y25.119
N12390 X46.434 Y25.264
N12395 X46.384 Y25.405
N12400 X46.318 Y25.55
N12405 X46.226 Y25.716
N12410 X46.118 Y25.879
N12415 X45.971 Y26.066
N12420 X45.804 Y26.246
N12425 X45.586 Y26.447
N12430 X45.342 Y26.638
N12435 X45.034 Y26.841
N12440 X44.671 Y27.041
N12445 X44.259 Y27.226
N12450 X43.757 Y27.405
N12455 X43.182 Y27.559
N12460 X42.568 Y27.672
N12465 X41.948 Y27.738
N12470 X41.324 Y27.759
N12475 X40.701 Y27.737
N12480 X40.133 Y27.675
N12485 X39.659 Y27.584
N12490 X39.324 Y27.492
N12495 X39.071 Y27.4
N12500 X38.858 Y27.302
N12505 X38.71 Y27.191
N12510 X38.597 Y27.045
N12515 X38.525 Y26.875
N12520 X38.5 Y26.691
N12525 Y25.544
N12530 G3 X38.771 Y25.255 I0.3 J0.01
N12535 G1 X39.123 Y25.221
N12540 X45.877 Y24.561
N12545 X46.171 Y24.532
N12550 G3 X46.5 Y24.821 I0.029 J0.299
N12555 G1 Y25.955
N12560 X46.493 Y26.104
N12565 X46.468 Y26.252
N12570 X46.427 Y26.397
N12575 X46.374 Y26.537
N12580 X46.298 Y26.696
N12585 X46.207 Y26.853
N12590 X46.082 Y27.033
N12595 X45.938 Y27.21
N12600 X45.747 Y27.408
N12605 X45.534 Y27.596
N12610 X45.252 Y27.808
N12615 X44.945 Y28.002
N12620 X44.557 Y28.206
N12625 X44.092 Y28.404
N12630 X43.59 Y28.572
N12635 X42.999 Y28.718
N12640 X42.384 Y28.819
N12645 X41.762 Y28.874
N12650 X41.138 Y28.886
N12655 X40.515 Y28.854
N12660 X39.968 Y28.784
N12665 X39.539 Y28.693
N12670 X39.243 Y28.605
N12675 X39.007 Y28.514
N12680 X38.896 Y28.46
N12685 X38.734 Y28.352
N12690 X38.608 Y28.202
N12695 X38.528 Y28.024
N12700 X38.5 Y27.83
N12705 Y26.691
N12710 G3 X38.771 Y26.403 I0.3 J0.01
N12715 G1 X39.123 Y26.368
N12720 X45.878 Y25.696
N12725 X46.171 Y25.667
N12730 G3 X46.5 Y25.955 I0.03 J0.299
N12735 G1 Y27.089
N12740 X46.493 Y27.239
N12745 X46.464 Y27.386
N12750 X46.421 Y27.529
N12755 X46.364 Y27.672
N12760 X46.286 Y27.829
N12765 X46.187 Y27.994
N12770 X46.062 Y28.17
N12775 X45.904 Y28.358
N12780 X45.712 Y28.551
N12785 X45.476 Y28.754
N12790 X45.188 Y28.963
N12795 X44.864 Y29.161
N12800 X44.452 Y29.37
N12805 X43.992 Y29.558
N12810 X43.466 Y29.725
N12815 X42.859 Y29.866
N12820 X42.241 Y29.958
N12825 X41.619 Y30.006
N12830 X40.995 Y30.012
N12835 X40.376 Y29.973
N12840 X39.859 Y29.899
N12845 X39.488 Y29.815
N12850 X39.186 Y29.721
N12855 X38.974 Y29.635
N12860 X38.887 Y29.592
N12865 X38.728 Y29.482
N12870 X38.605 Y29.334
N12875 X38.527 Y29.157
N12880 X38.5 Y28.966
N12885 Y27.83
N12890 G3 X38.77 Y27.542 I0.3 J0.01
N12895 G1 X39.123 Y27.507
N12900 X45.878 Y26.83
N12905 X46.171 Y26.801
N12910 G3 X46.5 Y27.089 I0.03 J0.299
N12915 G1 Y28.159
N12920 X46.493 Y28.309
N12925 X46.469 Y28.457
N12930 X46.43 Y28.602
N12935 X46.374 Y28.75
N12940 X46.305 Y28.897
N12945 X46.209 Y29.068
N12950 X46.094 Y29.235
N12955 X45.941 Y29.425
N12960 X45.763 Y29.614
N12965 X45.53 Y29.823
N12970 X45.273 Y30.019
N12975 X44.94 Y30.234
N12980 X44.568 Y30.432
N12985 X44.122 Y30.627
N12990 X43.592 Y30.808
N12995 X42.988 Y30.963
N13000 X42.373 Y31.068
N13005 X41.752 Y31.129
N13010 X41.128 Y31.147
N13015 X40.508 Y31.121
N13020 X39.977 Y31.055
N13025 X39.559 Y30.969
N13030 X39.249 Y30.879
N13035 X39.022 Y30.792
N13040 X38.9 Y30.734
N13045 X38.736 Y30.625
N13050 X38.609 Y30.475
N13055 X38.528 Y30.296
N13060 X38.5 Y30.102
N13065 Y28.966
N13070 G3 X38.768 Y28.678 I0.3 J0.01
N13075 G1 X39.123 Y28.639
N13080 X45.878 Y27.903
N13085 X46.168 Y27.871
N13090 G3 X46.5 Y28.159 I0.033 J0.298
N13095 G1 Y29.293
N13100 X46.493 Y29.443
N13105 X46.466 Y29.591
N13110 X46.425 Y29.735
N13115 X46.371 Y29.875
N13120 X46.296 Y30.031
N13125 X46.199 Y30.199
N13130 X46.077 Y30.374
N13135 X45.922 Y30.563
N13140 X45.736 Y30.756
N13145 X45.507 Y30.958
N13150 X45.227 Y31.168
N13155 X44.903 Y31.372
N13160 X44.811 Y31.42
N13165 X44.707 Y31.464
N13170 X44.598 Y31.491
N13175 X44.486 Y31.5
N13180 G3 X44.273 Y31. I0.01 J-0.3
N13185 G1 X44.344 Y30.922
N13190 X45.929 Y29.157
N13195 X45.978 Y29.103
N13200 G3 X46.5 Y29.293 I0.223 J0.201
N13205 G1 Y30.349
N13210 X46.493 Y30.499
N13215 X46.473 Y30.648
N13220 X46.438 Y30.794
N13225 X46.388 Y30.939
N13230 X46.325 Y31.083
N13235 X46.3 Y31.131
N13240 X46.189 Y31.283
N13245 X46.042 Y31.401
N13250 X45.869 Y31.475
N13255 X45.683 Y31.5
N13260 G3 X45.436 Y31.045 I0.01 J-0.3
N13265 G1 X45.52 Y30.907
N13270 X45.935 Y30.219
N13275 X45.944 Y30.205
N13280 G3 X46.5 Y30.349 I0.257 J0.155
N13285 G1 Y31.2
N13290 X46.497 Y31.23
N13295 X46.491 Y31.261
N13300 X46.481 Y31.291
N13305 X46.467 Y31.321
N13310 X46.456 Y31.342
N13315 X46.427 Y31.382
N13320 X46.391 Y31.421
N13325 X46.358 Y31.447
N13330 X46.326 Y31.467
N13335 X46.286 Y31.483
N13340 X46.261 Y31.491
N13345 X46.235 Y31.496
N13350 X46.184 Y31.5
N13355 X39.243
N13360 X39.091 Y31.492
N13365 X38.903 Y31.44
N13370 X38.739 Y31.336
N13375 X38.61 Y31.189
N13380 X38.528 Y31.012
N13385 X38.5 Y30.819
N13390 G3 X38.996 Y30.602 I0.3 J0.01
N13395 G1 X39.081 Y30.675
N13400 X39.377 Y30.929
N13405 X39.427 Y30.972
N13410 G3 X39.243 Y31.5 I-0.195 J0.228
N13415 G1 X38.818
N13420 X38.766 Y31.496
N13425 X38.74 Y31.491
N13430 X38.714 Y31.483
N13435 X38.676 Y31.467
N13440 X38.643 Y31.447
N13445 X38.611 Y31.422
N13450 X38.574 Y31.382
N13455 X38.545 Y31.342
N13460 X38.534 Y31.322
N13465 X38.52 Y31.292
N13470 X38.511 Y31.261
N13475 X38.504 Y31.231
N13480 X38.501 Y31.2
N13485 X38.5 Y30.102
N13490 G3 X38.8 Y29.812 I0.3 J0.01
N13495 X39.065 Y29.971 I0. J0.3
N13500 G1 X39.097 Y30.03 Z-9.986
N13505 X39.126 Y30.086 Z-9.964
N13510 X39.153 Y30.136 Z-9.929
N13515 X39.175 Y30.178 Z-9.881
N13520 X39.192 Y30.21 Z-9.824
N13525 X39.202 Y30.23 Z-9.761
N13530 X39.206 Y30.236 Z-9.694
N13535 G0 Z15.
N13540 G53 Z0.
N13545 M30
%
