%
(635BIT)
(MACHINE)
(  MODEL LASER SNAKE V2)
(  DESCRIPTION 3-AXIS ROUTER)
(T3  D=6.35 CR=0. - ZMIN=-26.2 - FLAT END MILL)
N10 G90 G94 G17 G91.1
N15 G21
(WHEN USING FUSION 360 FOR PERSONAL USE, THE FEEDRATE OF)
(RAPID MOVES IS REDUCED TO MATCH THE FEEDRATE OF CUTTING)
(MOVES, WHICH CAN INCREASE MACHINING TIME. UNRESTRICTED RAPID)
(MOVES ARE AVAILABLE WITH A FUSION 360 SUBSCRIPTION.)
N20 G53 G0 Z0.
(2D CONTOUR2)
N25 T3 M6
N30 S15000 M3
N35 G54
N40 G0 X142.48 Y-560.587
N45 G43 Z15. H3
N50 G1 Z5. F750.
N55 Z-4.365 F100.
N60 X142.475 Y-560.581 Z-4.464 F200.
N65 X142.461 Y-560.562 Z-4.561
N70 X142.438 Y-560.532 Z-4.653
N75 X142.407 Y-560.49 Z-4.738
N80 X142.368 Y-560.438 Z-4.814
N85 X142.323 Y-560.378 Z-4.879
N90 X142.272 Y-560.31 Z-4.931
N95 X142.217 Y-560.236 Z-4.969
N100 X142.159 Y-560.158 Z-4.992
N105 X142.099 Y-560.079 Z-5.
N110 X141.718 Y-559.571
N115 G2 X141.845 Y-558.682 I0.508 J0.381
N120 G1 X191.845 Y-521.182 F750.
N125 G2 X192.734 Y-521.309 I0.381 J-0.508 F200.
N130 G1 X193.115 Y-521.817
N135 X193.175 Y-521.896 Z-4.992
N140 X193.233 Y-521.974 Z-4.969
N145 X193.288 Y-522.048 Z-4.931
N150 X193.339 Y-522.116 Z-4.879
N155 X193.384 Y-522.176 Z-4.814
N160 X193.423 Y-522.228 Z-4.738
N165 X193.454 Y-522.27 Z-4.653
N170 X193.477 Y-522.3 Z-4.561
N175 X193.491 Y-522.319 Z-4.464
N180 X193.496 Y-522.325 Z-4.365
N185 Z5. F750.
N190 X212.48 Y-560.292
N195 Z-4.365 F100.
N200 X212.475 Y-560.286 Z-4.464 F200.
N205 X212.461 Y-560.267 Z-4.561
N210 X212.438 Y-560.237 Z-4.653
N215 X212.407 Y-560.195 Z-4.738
N220 X212.368 Y-560.143 Z-4.814
N225 X212.323 Y-560.083 Z-4.879
N230 X212.272 Y-560.015 Z-4.931
N235 X212.217 Y-559.941 Z-4.969
N240 X212.159 Y-559.863 Z-4.992
N245 X212.099 Y-559.784 Z-5.
N250 X211.718 Y-559.276
N255 G2 X211.845 Y-558.387 I0.508 J0.381
N260 G1 X261.845 Y-520.887 F750.
N265 G2 X262.734 Y-521.014 I0.381 J-0.508 F200.
N270 G1 X263.115 Y-521.522
N275 X263.175 Y-521.601 Z-4.992
N280 X263.233 Y-521.679 Z-4.969
N285 X263.288 Y-521.753 Z-4.931
N290 X263.339 Y-521.821 Z-4.879
N295 X263.384 Y-521.881 Z-4.814
N300 X263.423 Y-521.933 Z-4.738
N305 X263.454 Y-521.975 Z-4.653
N310 X263.477 Y-522.005 Z-4.561
N315 X263.491 Y-522.024 Z-4.464
N320 X263.496 Y-522.03 Z-4.365
N325 Z5. F750.
N330 X257.52 Y-576.562
N335 Z-4.365 F100.
N340 X257.525 Y-576.568 Z-4.464 F200.
N345 X257.539 Y-576.587 Z-4.561
N350 X257.562 Y-576.617 Z-4.653
N355 X257.593 Y-576.659 Z-4.738
N360 X257.632 Y-576.711 Z-4.814
N365 X257.677 Y-576.771 Z-4.879
N370 X257.728 Y-576.839 Z-4.931
N375 X257.783 Y-576.913 Z-4.969
N380 X257.841 Y-576.991 Z-4.992
N385 X257.901 Y-577.07 Z-5.
N390 X258.282 Y-577.578
N395 G2 X258.155 Y-578.467 I-0.508 J-0.381
N400 G1 X208.155 Y-615.967 F750.
N405 G2 X207.266 Y-615.84 I-0.381 J0.508 F200.
N410 G1 X206.885 Y-615.332
N415 X206.825 Y-615.253 Z-4.992
N420 X206.767 Y-615.175 Z-4.969
N425 X206.712 Y-615.101 Z-4.931
N430 X206.661 Y-615.033 Z-4.879
N435 X206.616 Y-614.973 Z-4.814
N440 X206.577 Y-614.921 Z-4.738
N445 X206.546 Y-614.879 Z-4.653
N450 X206.523 Y-614.849 Z-4.561
N455 X206.509 Y-614.83 Z-4.464
N460 X206.504 Y-614.824 Z-4.365
N465 Z5. F750.
N470 X187.52 Y-576.857
N475 Z-4.365 F100.
N480 X187.525 Y-576.863 Z-4.464 F200.
N485 X187.539 Y-576.882 Z-4.561
N490 X187.562 Y-576.912 Z-4.653
N495 X187.593 Y-576.954 Z-4.738
N500 X187.632 Y-577.006 Z-4.814
N505 X187.677 Y-577.066 Z-4.879
N510 X187.728 Y-577.134 Z-4.931
N515 X187.783 Y-577.208 Z-4.969
N520 X187.841 Y-577.286 Z-4.992
N525 X187.901 Y-577.365 Z-5.
N530 X188.282 Y-577.873
N535 G2 X188.155 Y-578.762 I-0.508 J-0.381
N540 G1 X138.155 Y-616.262 F750.
N545 G2 X137.266 Y-616.135 I-0.381 J0.508 F200.
N550 G1 X136.885 Y-615.627
N555 X136.825 Y-615.548 Z-4.992
N560 X136.767 Y-615.47 Z-4.969
N565 X136.712 Y-615.396 Z-4.931
N570 X136.661 Y-615.328 Z-4.879
N575 X136.616 Y-615.268 Z-4.814
N580 X136.577 Y-615.216 Z-4.738
N585 X136.546 Y-615.174 Z-4.653
N590 X136.523 Y-615.144 Z-4.561
N595 X136.509 Y-615.125 Z-4.464
N600 X136.504 Y-615.119 Z-4.365
N605 Z5. F750.
N610 X117.52 Y-576.562
N615 Z-4.365 F100.
N620 X117.525 Y-576.568 Z-4.464 F200.
N625 X117.539 Y-576.587 Z-4.561
N630 X117.562 Y-576.617 Z-4.653
N635 X117.593 Y-576.659 Z-4.738
N640 X117.632 Y-576.711 Z-4.814
N645 X117.677 Y-576.771 Z-4.879
N650 X117.728 Y-576.839 Z-4.931
N655 X117.783 Y-576.913 Z-4.969
N660 X117.841 Y-576.991 Z-4.992
N665 X117.901 Y-577.07 Z-5.
N670 X118.282 Y-577.578
N675 G2 X118.155 Y-578.467 I-0.508 J-0.381
N680 G1 X68.155 Y-615.967 F750.
N685 G2 X67.266 Y-615.84 I-0.381 J0.508 F200.
N690 G1 X66.885 Y-615.332
N695 X66.825 Y-615.253 Z-4.992
N700 X66.767 Y-615.175 Z-4.969
N705 X66.712 Y-615.101 Z-4.931
N710 X66.661 Y-615.033 Z-4.879
N715 X66.616 Y-614.973 Z-4.814
N720 X66.577 Y-614.921 Z-4.738
N725 X66.546 Y-614.879 Z-4.653
N730 X66.523 Y-614.849 Z-4.561
N735 X66.509 Y-614.83 Z-4.464
N740 X66.504 Y-614.824 Z-4.365
N745 Z5. F750.
N750 X47.52 Y-576.857
N755 Z-4.365 F100.
N760 X47.525 Y-576.863 Z-4.464 F200.
N765 X47.539 Y-576.882 Z-4.561
N770 X47.562 Y-576.912 Z-4.653
N775 X47.593 Y-576.954 Z-4.738
N780 X47.632 Y-577.006 Z-4.814
N785 X47.677 Y-577.066 Z-4.879
N790 X47.728 Y-577.134 Z-4.931
N795 X47.783 Y-577.208 Z-4.969
N800 X47.841 Y-577.286 Z-4.992
N805 X47.901 Y-577.365 Z-5.
N810 X48.282 Y-577.873
N815 G2 X48.155 Y-578.762 I-0.508 J-0.381
N820 G1 X-1.845 Y-616.262 F750.
N825 G2 X-2.734 Y-616.135 I-0.381 J0.508 F200.
N830 G1 X-3.115 Y-615.627
N835 X-3.175 Y-615.548 Z-4.992
N840 X-3.233 Y-615.47 Z-4.969
N845 X-3.288 Y-615.396 Z-4.931
N850 X-3.339 Y-615.328 Z-4.879
N855 X-3.384 Y-615.268 Z-4.814
N860 X-3.423 Y-615.216 Z-4.738
N865 X-3.454 Y-615.174 Z-4.653
N870 X-3.477 Y-615.144 Z-4.561
N875 X-3.491 Y-615.125 Z-4.464
N880 X-3.496 Y-615.119 Z-4.365
N885 Z5. F750.
N890 X2.48 Y-560.587
N895 Z-4.365 F100.
N900 X2.475 Y-560.581 Z-4.464 F200.
N905 X2.461 Y-560.562 Z-4.561
N910 X2.438 Y-560.532 Z-4.653
N915 X2.407 Y-560.49 Z-4.738
N920 X2.368 Y-560.438 Z-4.814
N925 X2.323 Y-560.378 Z-4.879
N930 X2.272 Y-560.31 Z-4.931
N935 X2.217 Y-560.236 Z-4.969
N940 X2.159 Y-560.158 Z-4.992
N945 X2.099 Y-560.079 Z-5.
N950 X1.718 Y-559.571
N955 G2 X1.845 Y-558.682 I0.508 J0.381
N960 G1 X51.845 Y-521.182 F750.
N965 G2 X52.734 Y-521.309 I0.381 J-0.508 F200.
N970 G1 X53.115 Y-521.817
N975 X53.175 Y-521.896 Z-4.992
N980 X53.233 Y-521.974 Z-4.969
N985 X53.288 Y-522.048 Z-4.931
N990 X53.339 Y-522.116 Z-4.879
N995 X53.384 Y-522.176 Z-4.814
N1000 X53.423 Y-522.228 Z-4.738
N1005 X53.454 Y-522.27 Z-4.653
N1010 X53.477 Y-522.3 Z-4.561
N1015 X53.491 Y-522.319 Z-4.464
N1020 X53.496 Y-522.325 Z-4.365
N1025 Z5. F750.
N1030 X72.48 Y-560.292
N1035 Z-4.365 F100.
N1040 X72.475 Y-560.286 Z-4.464 F200.
N1045 X72.461 Y-560.267 Z-4.561
N1050 X72.438 Y-560.237 Z-4.653
N1055 X72.407 Y-560.195 Z-4.738
N1060 X72.368 Y-560.143 Z-4.814
N1065 X72.323 Y-560.083 Z-4.879
N1070 X72.272 Y-560.015 Z-4.931
N1075 X72.217 Y-559.941 Z-4.969
N1080 X72.159 Y-559.863 Z-4.992
N1085 X72.099 Y-559.784 Z-5.
N1090 X71.718 Y-559.276
N1095 G2 X71.845 Y-558.387 I0.508 J0.381
N1100 G1 X121.845 Y-520.887 F750.
N1105 G2 X122.734 Y-521.014 I0.381 J-0.508 F200.
N1110 G1 X123.115 Y-521.522
N1115 X123.175 Y-521.601 Z-4.992
N1120 X123.233 Y-521.679 Z-4.969
N1125 X123.288 Y-521.753 Z-4.931
N1130 X123.339 Y-521.821 Z-4.879
N1135 X123.384 Y-521.881 Z-4.814
N1140 X123.423 Y-521.933 Z-4.738
N1145 X123.454 Y-521.975 Z-4.653
N1150 X123.477 Y-522.005 Z-4.561
N1155 X123.491 Y-522.024 Z-4.464
N1160 X123.496 Y-522.03 Z-4.365
N1165 Z5. F750.
N1170 X142.48 Y-560.587
N1175 Z0. F100.
N1180 Z-9.365
N1185 X142.475 Y-560.581 Z-9.464 F200.
N1190 X142.461 Y-560.562 Z-9.561
N1195 X142.438 Y-560.532 Z-9.653
N1200 X142.407 Y-560.49 Z-9.738
N1205 X142.368 Y-560.438 Z-9.814
N1210 X142.323 Y-560.378 Z-9.879
N1215 X142.272 Y-560.31 Z-9.931
N1220 X142.217 Y-560.236 Z-9.969
N1225 X142.159 Y-560.158 Z-9.992
N1230 X142.099 Y-560.079 Z-10.
N1235 X141.718 Y-559.571
N1240 G2 X141.845 Y-558.682 I0.508 J0.381
N1245 G1 X191.845 Y-521.182 F750.
N1250 G2 X192.734 Y-521.309 I0.381 J-0.508 F200.
N1255 G1 X193.115 Y-521.817
N1260 X193.175 Y-521.896 Z-9.992
N1265 X193.233 Y-521.974 Z-9.969
N1270 X193.288 Y-522.048 Z-9.931
N1275 X193.339 Y-522.116 Z-9.879
N1280 X193.384 Y-522.176 Z-9.814
N1285 X193.423 Y-522.228 Z-9.738
N1290 X193.454 Y-522.27 Z-9.653
N1295 X193.477 Y-522.3 Z-9.561
N1300 X193.491 Y-522.319 Z-9.464
N1305 X193.496 Y-522.325 Z-9.365
N1310 Z5. F750.
N1315 X212.48 Y-560.292
N1320 Z0. F100.
N1325 Z-9.365
N1330 X212.475 Y-560.286 Z-9.464 F200.
N1335 X212.461 Y-560.267 Z-9.561
N1340 X212.438 Y-560.237 Z-9.653
N1345 X212.407 Y-560.195 Z-9.738
N1350 X212.368 Y-560.143 Z-9.814
N1355 X212.323 Y-560.083 Z-9.879
N1360 X212.272 Y-560.015 Z-9.931
N1365 X212.217 Y-559.941 Z-9.969
N1370 X212.159 Y-559.863 Z-9.992
N1375 X212.099 Y-559.784 Z-10.
N1380 X211.718 Y-559.276
N1385 G2 X211.845 Y-558.387 I0.508 J0.381
N1390 G1 X261.845 Y-520.887 F750.
N1395 G2 X262.734 Y-521.014 I0.381 J-0.508 F200.
N1400 G1 X263.115 Y-521.522
N1405 X263.175 Y-521.601 Z-9.992
N1410 X263.233 Y-521.679 Z-9.969
N1415 X263.288 Y-521.753 Z-9.931
N1420 X263.339 Y-521.821 Z-9.879
N1425 X263.384 Y-521.881 Z-9.814
N1430 X263.423 Y-521.933 Z-9.738
N1435 X263.454 Y-521.975 Z-9.653
N1440 X263.477 Y-522.005 Z-9.561
N1445 X263.491 Y-522.024 Z-9.464
N1450 X263.496 Y-522.03 Z-9.365
N1455 Z5. F750.
N1460 X257.52 Y-576.562
N1465 Z0. F100.
N1470 Z-9.365
N1475 X257.525 Y-576.568 Z-9.464 F200.
N1480 X257.539 Y-576.587 Z-9.561
N1485 X257.562 Y-576.617 Z-9.653
N1490 X257.593 Y-576.659 Z-9.738
N1495 X257.632 Y-576.711 Z-9.814
N1500 X257.677 Y-576.771 Z-9.879
N1505 X257.728 Y-576.839 Z-9.931
N1510 X257.783 Y-576.913 Z-9.969
N1515 X257.841 Y-576.991 Z-9.992
N1520 X257.901 Y-577.07 Z-10.
N1525 X258.282 Y-577.578
N1530 G2 X258.155 Y-578.467 I-0.508 J-0.381
N1535 G1 X208.155 Y-615.967 F750.
N1540 G2 X207.266 Y-615.84 I-0.381 J0.508 F200.
N1545 G1 X206.885 Y-615.332
N1550 X206.825 Y-615.253 Z-9.992
N1555 X206.767 Y-615.175 Z-9.969
N1560 X206.712 Y-615.101 Z-9.931
N1565 X206.661 Y-615.033 Z-9.879
N1570 X206.616 Y-614.973 Z-9.814
N1575 X206.577 Y-614.921 Z-9.738
N1580 X206.546 Y-614.879 Z-9.653
N1585 X206.523 Y-614.849 Z-9.561
N1590 X206.509 Y-614.83 Z-9.464
N1595 X206.504 Y-614.824 Z-9.365
N1600 Z5. F750.
N1605 X187.52 Y-576.857
N1610 Z0. F100.
N1615 Z-9.365
N1620 X187.525 Y-576.863 Z-9.464 F200.
N1625 X187.539 Y-576.882 Z-9.561
N1630 X187.562 Y-576.912 Z-9.653
N1635 X187.593 Y-576.954 Z-9.738
N1640 X187.632 Y-577.006 Z-9.814
N1645 X187.677 Y-577.066 Z-9.879
N1650 X187.728 Y-577.134 Z-9.931
N1655 X187.783 Y-577.208 Z-9.969
N1660 X187.841 Y-577.286 Z-9.992
N1665 X187.901 Y-577.365 Z-10.
N1670 X188.282 Y-577.873
N1675 G2 X188.155 Y-578.762 I-0.508 J-0.381
N1680 G1 X138.155 Y-616.262 F750.
N1685 G2 X137.266 Y-616.135 I-0.381 J0.508 F200.
N1690 G1 X136.885 Y-615.627
N1695 X136.825 Y-615.548 Z-9.992
N1700 X136.767 Y-615.47 Z-9.969
N1705 X136.712 Y-615.396 Z-9.931
N1710 X136.661 Y-615.328 Z-9.879
N1715 X136.616 Y-615.268 Z-9.814
N1720 X136.577 Y-615.216 Z-9.738
N1725 X136.546 Y-615.174 Z-9.653
N1730 X136.523 Y-615.144 Z-9.561
N1735 X136.509 Y-615.125 Z-9.464
N1740 X136.504 Y-615.119 Z-9.365
N1745 Z5. F750.
N1750 X117.52 Y-576.562
N1755 Z0. F100.
N1760 Z-9.365
N1765 X117.525 Y-576.568 Z-9.464 F200.
N1770 X117.539 Y-576.587 Z-9.561
N1775 X117.562 Y-576.617 Z-9.653
N1780 X117.593 Y-576.659 Z-9.738
N1785 X117.632 Y-576.711 Z-9.814
N1790 X117.677 Y-576.771 Z-9.879
N1795 X117.728 Y-576.839 Z-9.931
N1800 X117.783 Y-576.913 Z-9.969
N1805 X117.841 Y-576.991 Z-9.992
N1810 X117.901 Y-577.07 Z-10.
N1815 X118.282 Y-577.578
N1820 G2 X118.155 Y-578.467 I-0.508 J-0.381
N1825 G1 X68.155 Y-615.967 F750.
N1830 G2 X67.266 Y-615.84 I-0.381 J0.508 F200.
N1835 G1 X66.885 Y-615.332
N1840 X66.825 Y-615.253 Z-9.992
N1845 X66.767 Y-615.175 Z-9.969
N1850 X66.712 Y-615.101 Z-9.931
N1855 X66.661 Y-615.033 Z-9.879
N1860 X66.616 Y-614.973 Z-9.814
N1865 X66.577 Y-614.921 Z-9.738
N1870 X66.546 Y-614.879 Z-9.653
N1875 X66.523 Y-614.849 Z-9.561
N1880 X66.509 Y-614.83 Z-9.464
N1885 X66.504 Y-614.824 Z-9.365
N1890 Z5. F750.
N1895 X47.52 Y-576.857
N1900 Z0. F100.
N1905 Z-9.365
N1910 X47.525 Y-576.863 Z-9.464 F200.
N1915 X47.539 Y-576.882 Z-9.561
N1920 X47.562 Y-576.912 Z-9.653
N1925 X47.593 Y-576.954 Z-9.738
N1930 X47.632 Y-577.006 Z-9.814
N1935 X47.677 Y-577.066 Z-9.879
N1940 X47.728 Y-577.134 Z-9.931
N1945 X47.783 Y-577.208 Z-9.969
N1950 X47.841 Y-577.286 Z-9.992
N1955 X47.901 Y-577.365 Z-10.
N1960 X48.282 Y-577.873
N1965 G2 X48.155 Y-578.762 I-0.508 J-0.381
N1970 G1 X-1.845 Y-616.262 F750.
N1975 G2 X-2.734 Y-616.135 I-0.381 J0.508 F200.
N1980 G1 X-3.115 Y-615.627
N1985 X-3.175 Y-615.548 Z-9.992
N1990 X-3.233 Y-615.47 Z-9.969
N1995 X-3.288 Y-615.396 Z-9.931
N2000 X-3.339 Y-615.328 Z-9.879
N2005 X-3.384 Y-615.268 Z-9.814
N2010 X-3.423 Y-615.216 Z-9.738
N2015 X-3.454 Y-615.174 Z-9.653
N2020 X-3.477 Y-615.144 Z-9.561
N2025 X-3.491 Y-615.125 Z-9.464
N2030 X-3.496 Y-615.119 Z-9.365
N2035 Z5. F750.
N2040 X2.48 Y-560.587
N2045 Z0. F100.
N2050 Z-9.365
N2055 X2.475 Y-560.581 Z-9.464 F200.
N2060 X2.461 Y-560.562 Z-9.561
N2065 X2.438 Y-560.532 Z-9.653
N2070 X2.407 Y-560.49 Z-9.738
N2075 X2.368 Y-560.438 Z-9.814
N2080 X2.323 Y-560.378 Z-9.879
N2085 X2.272 Y-560.31 Z-9.931
N2090 X2.217 Y-560.236 Z-9.969
N2095 X2.159 Y-560.158 Z-9.992
N2100 X2.099 Y-560.079 Z-10.
N2105 X1.718 Y-559.571
N2110 G2 X1.845 Y-558.682 I0.508 J0.381
N2115 G1 X51.845 Y-521.182 F750.
N2120 G2 X52.734 Y-521.309 I0.381 J-0.508 F200.
N2125 G1 X53.115 Y-521.817
N2130 X53.175 Y-521.896 Z-9.992
N2135 X53.233 Y-521.974 Z-9.969
N2140 X53.288 Y-522.048 Z-9.931
N2145 X53.339 Y-522.116 Z-9.879
N2150 X53.384 Y-522.176 Z-9.814
N2155 X53.423 Y-522.228 Z-9.738
N2160 X53.454 Y-522.27 Z-9.653
N2165 X53.477 Y-522.3 Z-9.561
N2170 X53.491 Y-522.319 Z-9.464
N2175 X53.496 Y-522.325 Z-9.365
N2180 Z5. F750.
N2185 X72.48 Y-560.292
N2190 Z0. F100.
N2195 Z-9.365
N2200 X72.475 Y-560.286 Z-9.464 F200.
N2205 X72.461 Y-560.267 Z-9.561
N2210 X72.438 Y-560.237 Z-9.653
N2215 X72.407 Y-560.195 Z-9.738
N2220 X72.368 Y-560.143 Z-9.814
N2225 X72.323 Y-560.083 Z-9.879
N2230 X72.272 Y-560.015 Z-9.931
N2235 X72.217 Y-559.941 Z-9.969
N2240 X72.159 Y-559.863 Z-9.992
N2245 X72.099 Y-559.784 Z-10.
N2250 X71.718 Y-559.276
N2255 G2 X71.845 Y-558.387 I0.508 J0.381
N2260 G1 X121.845 Y-520.887 F750.
N2265 G2 X122.734 Y-521.014 I0.381 J-0.508 F200.
N2270 G1 X123.115 Y-521.522
N2275 X123.175 Y-521.601 Z-9.992
N2280 X123.233 Y-521.679 Z-9.969
N2285 X123.288 Y-521.753 Z-9.931
N2290 X123.339 Y-521.821 Z-9.879
N2295 X123.384 Y-521.881 Z-9.814
N2300 X123.423 Y-521.933 Z-9.738
N2305 X123.454 Y-521.975 Z-9.653
N2310 X123.477 Y-522.005 Z-9.561
N2315 X123.491 Y-522.024 Z-9.464
N2320 X123.496 Y-522.03 Z-9.365
N2325 Z5. F750.
N2330 X142.48 Y-560.587
N2335 Z-5. F100.
N2340 Z-11.865
N2345 X142.475 Y-560.581 Z-11.964 F200.
N2350 X142.461 Y-560.562 Z-12.061
N2355 X142.438 Y-560.532 Z-12.153
N2360 X142.407 Y-560.49 Z-12.238
N2365 X142.368 Y-560.438 Z-12.314
N2370 X142.323 Y-560.378 Z-12.379
N2375 X142.272 Y-560.31 Z-12.431
N2380 X142.217 Y-560.236 Z-12.469
N2385 X142.159 Y-560.158 Z-12.492
N2390 X142.099 Y-560.079 Z-12.5
N2395 X141.718 Y-559.571
N2400 G2 X141.845 Y-558.682 I0.508 J0.381
N2405 G1 X191.845 Y-521.182 F750.
N2410 G2 X192.734 Y-521.309 I0.381 J-0.508 F200.
N2415 G1 X193.115 Y-521.817
N2420 X193.175 Y-521.896 Z-12.492
N2425 X193.233 Y-521.974 Z-12.469
N2430 X193.288 Y-522.048 Z-12.431
N2435 X193.339 Y-522.116 Z-12.379
N2440 X193.384 Y-522.176 Z-12.314
N2445 X193.423 Y-522.228 Z-12.238
N2450 X193.454 Y-522.27 Z-12.153
N2455 X193.477 Y-522.3 Z-12.061
N2460 X193.491 Y-522.319 Z-11.964
N2465 X193.496 Y-522.325 Z-11.865
N2470 Z5. F750.
N2475 X212.48 Y-560.292
N2480 Z-5. F100.
N2485 Z-11.865
N2490 X212.475 Y-560.286 Z-11.964 F200.
N2495 X212.461 Y-560.267 Z-12.061
N2500 X212.438 Y-560.237 Z-12.153
N2505 X212.407 Y-560.195 Z-12.238
N2510 X212.368 Y-560.143 Z-12.314
N2515 X212.323 Y-560.083 Z-12.379
N2520 X212.272 Y-560.015 Z-12.431
N2525 X212.217 Y-559.941 Z-12.469
N2530 X212.159 Y-559.863 Z-12.492
N2535 X212.099 Y-559.784 Z-12.5
N2540 X211.718 Y-559.276
N2545 G2 X211.845 Y-558.387 I0.508 J0.381
N2550 G1 X261.845 Y-520.887 F750.
N2555 G2 X262.734 Y-521.014 I0.381 J-0.508 F200.
N2560 G1 X263.115 Y-521.522
N2565 X263.175 Y-521.601 Z-12.492
N2570 X263.233 Y-521.679 Z-12.469
N2575 X263.288 Y-521.753 Z-12.431
N2580 X263.339 Y-521.821 Z-12.379
N2585 X263.384 Y-521.881 Z-12.314
N2590 X263.423 Y-521.933 Z-12.238
N2595 X263.454 Y-521.975 Z-12.153
N2600 X263.477 Y-522.005 Z-12.061
N2605 X263.491 Y-522.024 Z-11.964
N2610 X263.496 Y-522.03 Z-11.865
N2615 Z5. F750.
N2620 X257.52 Y-576.562
N2625 Z-5. F100.
N2630 Z-11.865
N2635 X257.525 Y-576.568 Z-11.964 F200.
N2640 X257.539 Y-576.587 Z-12.061
N2645 X257.562 Y-576.617 Z-12.153
N2650 X257.593 Y-576.659 Z-12.238
N2655 X257.632 Y-576.711 Z-12.314
N2660 X257.677 Y-576.771 Z-12.379
N2665 X257.728 Y-576.839 Z-12.431
N2670 X257.783 Y-576.913 Z-12.469
N2675 X257.841 Y-576.991 Z-12.492
N2680 X257.901 Y-577.07 Z-12.5
N2685 X258.282 Y-577.578
N2690 G2 X258.155 Y-578.467 I-0.508 J-0.381
N2695 G1 X208.155 Y-615.967 F750.
N2700 G2 X207.266 Y-615.84 I-0.381 J0.508 F200.
N2705 G1 X206.885 Y-615.332
N2710 X206.825 Y-615.253 Z-12.492
N2715 X206.767 Y-615.175 Z-12.469
N2720 X206.712 Y-615.101 Z-12.431
N2725 X206.661 Y-615.033 Z-12.379
N2730 X206.616 Y-614.973 Z-12.314
N2735 X206.577 Y-614.921 Z-12.238
N2740 X206.546 Y-614.879 Z-12.153
N2745 X206.523 Y-614.849 Z-12.061
N2750 X206.509 Y-614.83 Z-11.964
N2755 X206.504 Y-614.824 Z-11.865
N2760 Z5. F750.
N2765 X187.52 Y-576.857
N2770 Z-5. F100.
N2775 Z-11.865
N2780 X187.525 Y-576.863 Z-11.964 F200.
N2785 X187.539 Y-576.882 Z-12.061
N2790 X187.562 Y-576.912 Z-12.153
N2795 X187.593 Y-576.954 Z-12.238
N2800 X187.632 Y-577.006 Z-12.314
N2805 X187.677 Y-577.066 Z-12.379
N2810 X187.728 Y-577.134 Z-12.431
N2815 X187.783 Y-577.208 Z-12.469
N2820 X187.841 Y-577.286 Z-12.492
N2825 X187.901 Y-577.365 Z-12.5
N2830 X188.282 Y-577.873
N2835 G2 X188.155 Y-578.762 I-0.508 J-0.381
N2840 G1 X138.155 Y-616.262 F750.
N2845 G2 X137.266 Y-616.135 I-0.381 J0.508 F200.
N2850 G1 X136.885 Y-615.627
N2855 X136.825 Y-615.548 Z-12.492
N2860 X136.767 Y-615.47 Z-12.469
N2865 X136.712 Y-615.396 Z-12.431
N2870 X136.661 Y-615.328 Z-12.379
N2875 X136.616 Y-615.268 Z-12.314
N2880 X136.577 Y-615.216 Z-12.238
N2885 X136.546 Y-615.174 Z-12.153
N2890 X136.523 Y-615.144 Z-12.061
N2895 X136.509 Y-615.125 Z-11.964
N2900 X136.504 Y-615.119 Z-11.865
N2905 Z5. F750.
N2910 X117.52 Y-576.562
N2915 Z-5. F100.
N2920 Z-11.865
N2925 X117.525 Y-576.568 Z-11.964 F200.
N2930 X117.539 Y-576.587 Z-12.061
N2935 X117.562 Y-576.617 Z-12.153
N2940 X117.593 Y-576.659 Z-12.238
N2945 X117.632 Y-576.711 Z-12.314
N2950 X117.677 Y-576.771 Z-12.379
N2955 X117.728 Y-576.839 Z-12.431
N2960 X117.783 Y-576.913 Z-12.469
N2965 X117.841 Y-576.991 Z-12.492
N2970 X117.901 Y-577.07 Z-12.5
N2975 X118.282 Y-577.578
N2980 G2 X118.155 Y-578.467 I-0.508 J-0.381
N2985 G1 X68.155 Y-615.967 F750.
N2990 G2 X67.266 Y-615.84 I-0.381 J0.508 F200.
N2995 G1 X66.885 Y-615.332
N3000 X66.825 Y-615.253 Z-12.492
N3005 X66.767 Y-615.175 Z-12.469
N3010 X66.712 Y-615.101 Z-12.431
N3015 X66.661 Y-615.033 Z-12.379
N3020 X66.616 Y-614.973 Z-12.314
N3025 X66.577 Y-614.921 Z-12.238
N3030 X66.546 Y-614.879 Z-12.153
N3035 X66.523 Y-614.849 Z-12.061
N3040 X66.509 Y-614.83 Z-11.964
N3045 X66.504 Y-614.824 Z-11.865
N3050 Z5. F750.
N3055 X47.52 Y-576.857
N3060 Z-5. F100.
N3065 Z-11.865
N3070 X47.525 Y-576.863 Z-11.964 F200.
N3075 X47.539 Y-576.882 Z-12.061
N3080 X47.562 Y-576.912 Z-12.153
N3085 X47.593 Y-576.954 Z-12.238
N3090 X47.632 Y-577.006 Z-12.314
N3095 X47.677 Y-577.066 Z-12.379
N3100 X47.728 Y-577.134 Z-12.431
N3105 X47.783 Y-577.208 Z-12.469
N3110 X47.841 Y-577.286 Z-12.492
N3115 X47.901 Y-577.365 Z-12.5
N3120 X48.282 Y-577.873
N3125 G2 X48.155 Y-578.762 I-0.508 J-0.381
N3130 G1 X-1.845 Y-616.262 F750.
N3135 G2 X-2.734 Y-616.135 I-0.381 J0.508 F200.
N3140 G1 X-3.115 Y-615.627
N3145 X-3.175 Y-615.548 Z-12.492
N3150 X-3.233 Y-615.47 Z-12.469
N3155 X-3.288 Y-615.396 Z-12.431
N3160 X-3.339 Y-615.328 Z-12.379
N3165 X-3.384 Y-615.268 Z-12.314
N3170 X-3.423 Y-615.216 Z-12.238
N3175 X-3.454 Y-615.174 Z-12.153
N3180 X-3.477 Y-615.144 Z-12.061
N3185 X-3.491 Y-615.125 Z-11.964
N3190 X-3.496 Y-615.119 Z-11.865
N3195 Z5. F750.
N3200 X2.48 Y-560.587
N3205 Z-5. F100.
N3210 Z-11.865
N3215 X2.475 Y-560.581 Z-11.964 F200.
N3220 X2.461 Y-560.562 Z-12.061
N3225 X2.438 Y-560.532 Z-12.153
N3230 X2.407 Y-560.49 Z-12.238
N3235 X2.368 Y-560.438 Z-12.314
N3240 X2.323 Y-560.378 Z-12.379
N3245 X2.272 Y-560.31 Z-12.431
N3250 X2.217 Y-560.236 Z-12.469
N3255 X2.159 Y-560.158 Z-12.492
N3260 X2.099 Y-560.079 Z-12.5
N3265 X1.718 Y-559.571
N3270 G2 X1.845 Y-558.682 I0.508 J0.381
N3275 G1 X51.845 Y-521.182 F750.
N3280 G2 X52.734 Y-521.309 I0.381 J-0.508 F200.
N3285 G1 X53.115 Y-521.817
N3290 X53.175 Y-521.896 Z-12.492
N3295 X53.233 Y-521.974 Z-12.469
N3300 X53.288 Y-522.048 Z-12.431
N3305 X53.339 Y-522.116 Z-12.379
N3310 X53.384 Y-522.176 Z-12.314
N3315 X53.423 Y-522.228 Z-12.238
N3320 X53.454 Y-522.27 Z-12.153
N3325 X53.477 Y-522.3 Z-12.061
N3330 X53.491 Y-522.319 Z-11.964
N3335 X53.496 Y-522.325 Z-11.865
N3340 Z5. F750.
N3345 X72.48 Y-560.292
N3350 Z-5. F100.
N3355 Z-11.865
N3360 X72.475 Y-560.286 Z-11.964 F200.
N3365 X72.461 Y-560.267 Z-12.061
N3370 X72.438 Y-560.237 Z-12.153
N3375 X72.407 Y-560.195 Z-12.238
N3380 X72.368 Y-560.143 Z-12.314
N3385 X72.323 Y-560.083 Z-12.379
N3390 X72.272 Y-560.015 Z-12.431
N3395 X72.217 Y-559.941 Z-12.469
N3400 X72.159 Y-559.863 Z-12.492
N3405 X72.099 Y-559.784 Z-12.5
N3410 X71.718 Y-559.276
N3415 G2 X71.845 Y-558.387 I0.508 J0.381
N3420 G1 X121.845 Y-520.887 F750.
N3425 G2 X122.734 Y-521.014 I0.381 J-0.508 F200.
N3430 G1 X123.115 Y-521.522
N3435 X123.175 Y-521.601 Z-12.492
N3440 X123.233 Y-521.679 Z-12.469
N3445 X123.288 Y-521.753 Z-12.431
N3450 X123.339 Y-521.821 Z-12.379
N3455 X123.384 Y-521.881 Z-12.314
N3460 X123.423 Y-521.933 Z-12.238
N3465 X123.454 Y-521.975 Z-12.153
N3470 X123.477 Y-522.005 Z-12.061
N3475 X123.491 Y-522.024 Z-11.964
N3480 X123.496 Y-522.03 Z-11.865
N3485 Z15. F750.
(WHEN USING FUSION 360 FOR PERSONAL USE, THE FEEDRATE OF)
(RAPID MOVES IS REDUCED TO MATCH THE FEEDRATE OF CUTTING)
(MOVES, WHICH CAN INCREASE MACHINING TIME. UNRESTRICTED RAPID)
(MOVES ARE AVAILABLE WITH A FUSION 360 SUBSCRIPTION.)
(2D POCKET3)
N3490 G0 X25. Y-568.722
N3495 G1 Z15. F1000.
N3500 Z5.
N3505 Z-4.367
N3510 X25.007 Y-568.748
N3515 X25.026 Y-568.767
N3520 X25.053 Y-568.775
N3525 X25.079 Y-568.767
N3530 X25.098 Y-568.748
N3535 X25.105 Y-568.722
N3540 G2 X28.705 I1.8 J0.
N3545 X21.295 I-3.705 J0.
N3550 X32.515 I5.61 J0.
N3555 X17.485 I-7.515 J0.
N3560 X36.325 I9.42 J0.
N3565 X13.675 I-11.325 J0.
N3570 X36.325 I11.325 J0.
N3575 X35.934 Y-569.1 I-0.378 J0.
N3580 G1 X25. Y-568.722
N3585 Z-8.733
N3590 X25.105
N3595 G2 X28.705 I1.8 J0.
N3600 X21.295 I-3.705 J0.
N3605 X32.515 I5.61 J0.
N3610 X17.485 I-7.515 J0.
N3615 X36.325 I9.42 J0.
N3620 X13.675 I-11.325 J0.
N3625 X36.325 I11.325 J0.
N3630 X35.934 Y-569.1 I-0.378 J0.
N3635 G1 X25. Y-568.722
N3640 Z-13.1
N3645 X25.105
N3650 G2 X28.705 I1.8 J0.
N3655 X21.295 I-3.705 J0.
N3660 X32.515 I5.61 J0.
N3665 X17.485 I-7.515 J0.
N3670 X36.325 I9.42 J0.
N3675 X13.675 I-11.325 J0.
N3680 X36.325 I11.325 J0.
N3685 X35.934 Y-569.1 I-0.378 J0.
N3690 G1 X25. Y-568.722
N3695 Z-17.467
N3700 X25.105
N3705 G2 X28.705 I1.8 J0.
N3710 X21.295 I-3.705 J0.
N3715 X32.515 I5.61 J0.
N3720 X17.485 I-7.515 J0.
N3725 X36.325 I9.42 J0.
N3730 X13.675 I-11.325 J0.
N3735 X36.325 I11.325 J0.
N3740 X35.934 Y-569.1 I-0.378 J0.
N3745 G1 X25. Y-568.722
N3750 Z-21.833
N3755 X25.105
N3760 G2 X28.705 I1.8 J0.
N3765 X21.295 I-3.705 J0.
N3770 X32.515 I5.61 J0.
N3775 X17.485 I-7.515 J0.
N3780 X36.325 I9.42 J0.
N3785 X13.675 I-11.325 J0.
N3790 X36.325 I11.325 J0.
N3795 X35.934 Y-569.1 I-0.378 J0.
N3800 G1 X25. Y-568.722
N3805 Z-26.2
N3810 X25.105
N3815 G2 X28.705 I1.8 J0.
N3820 X21.295 I-3.705 J0.
N3825 X32.515 I5.61 J0.
N3830 X17.485 I-7.515 J0.
N3835 X36.325 I9.42 J0.
N3840 X13.675 I-11.325 J0.
N3845 X36.325 I11.325 J0.
N3850 G1 X36.317 Y-568.82 Z-26.184 F200.
N3855 X36.295 Y-568.915 Z-26.169
N3860 X36.262 Y-568.997 Z-26.124
N3865 X36.218 Y-569.074 Z-26.079
N3870 X36.176 Y-569.13 Z-26.008
N3875 X36.128 Y-569.182 Z-25.938
N3880 X36.059 Y-569.239 Z-25.761
N3885 X36.033 Y-569.256 Z-25.565
N3890 Z5. F1000.
N3895 X165. Y-568.722
N3900 Z-4.367
N3905 X165.007 Y-568.748
N3910 X165.026 Y-568.768
N3915 X165.053 Y-568.775
N3920 X165.079 Y-568.768
N3925 X165.098 Y-568.748
N3930 X165.105 Y-568.722
N3935 G2 X168.705 I1.8 J0.
N3940 X161.295 I-3.705 J0.
N3945 X172.515 I5.61 J0.
N3950 X157.485 I-7.515 J0.
N3955 X176.325 I9.42 J0.
N3960 X153.675 I-11.325 J0.
N3965 X176.325 I11.325 J0.
N3970 X175.934 Y-569.1 I-0.378 J0.
N3975 G1 X165. Y-568.722
N3980 Z-8.733
N3985 X165.105
N3990 G2 X168.705 I1.8 J0.
N3995 X161.295 I-3.705 J0.
N4000 X172.515 I5.61 J0.
N4005 X157.485 I-7.515 J0.
N4010 X176.325 I9.42 J0.
N4015 X153.675 I-11.325 J0.
N4020 X176.325 I11.325 J0.
N4025 X175.934 Y-569.1 I-0.378 J0.
N4030 G1 X165. Y-568.722
N4035 Z-13.1
N4040 X165.105
N4045 G2 X168.705 I1.8 J0.
N4050 X161.295 I-3.705 J0.
N4055 X172.515 I5.61 J0.
N4060 X157.485 I-7.515 J0.
N4065 X176.325 I9.42 J0.
N4070 X153.675 I-11.325 J0.
N4075 X176.325 I11.325 J0.
N4080 X175.934 Y-569.1 I-0.378 J0.
N4085 G1 X165. Y-568.722
N4090 Z-17.467
N4095 X165.105
N4100 G2 X168.705 I1.8 J0.
N4105 X161.295 I-3.705 J0.
N4110 X172.515 I5.61 J0.
N4115 X157.485 I-7.515 J0.
N4120 X176.325 I9.42 J0.
N4125 X153.675 I-11.325 J0.
N4130 X176.325 I11.325 J0.
N4135 X175.934 Y-569.1 I-0.378 J0.
N4140 G1 X165. Y-568.722
N4145 Z-21.833
N4150 X165.105
N4155 G2 X168.705 I1.8 J0.
N4160 X161.295 I-3.705 J0.
N4165 X172.515 I5.61 J0.
N4170 X157.485 I-7.515 J0.
N4175 X176.325 I9.42 J0.
N4180 X153.675 I-11.325 J0.
N4185 X176.325 I11.325 J0.
N4190 X175.934 Y-569.1 I-0.378 J0.
N4195 G1 X165. Y-568.722
N4200 Z-26.2
N4205 X165.105
N4210 G2 X168.705 I1.8 J0.
N4215 X161.295 I-3.705 J0.
N4220 X172.515 I5.61 J0.
N4225 X157.485 I-7.515 J0.
N4230 X176.325 I9.42 J0.
N4235 X153.675 I-11.325 J0.
N4240 X176.325 I11.325 J0.
N4245 G1 X176.317 Y-568.82 Z-26.184 F200.
N4250 X176.294 Y-568.915 Z-26.169
N4255 X176.262 Y-568.997 Z-26.124
N4260 X176.218 Y-569.074 Z-26.079
N4265 X176.176 Y-569.13 Z-26.008
N4270 X176.128 Y-569.182 Z-25.938
N4275 X176.058 Y-569.239 Z-25.761
N4280 X176.033 Y-569.256 Z-25.565
N4285 Z15. F1000.
(WHEN USING FUSION 360 FOR PERSONAL USE, THE FEEDRATE OF)
(RAPID MOVES IS REDUCED TO MATCH THE FEEDRATE OF CUTTING)
(MOVES, WHICH CAN INCREASE MACHINING TIME. UNRESTRICTED RAPID)
(MOVES ARE AVAILABLE WITH A FUSION 360 SUBSCRIPTION.)
(BORE1)
N4290 G0 X15.47 Y-564.667
N4295 G1 Z15. F500.
N4300 Z-10.5
N4305 Z-11.865 F200.
N4310 X15.463 Y-564.663 Z-11.964
N4315 X15.442 Y-564.653 Z-12.061
N4320 X15.408 Y-564.636 Z-12.153
N4325 X15.361 Y-564.613 Z-12.238
N4330 X15.304 Y-564.584 Z-12.314
N4335 X15.236 Y-564.55 Z-12.379
N4340 X15.16 Y-564.512 Z-12.431
N4345 X15.077 Y-564.471 Z-12.469
N4350 X14.991 Y-564.427 Z-12.492
N4355 X14.902 Y-564.383 Z-12.5
N4360 X14.618 Y-564.241
N4365 G2 X14.334 Y-563.389 I0.284 J0.568
N4370 X35.666 Y-574.055 Z-13.291 I10.666 J-5.333 F500.
N4375 X14.334 Y-563.389 Z-14.083 I-10.666 J5.333
N4380 X35.666 Y-574.055 Z-14.874 I10.666 J-5.333
N4385 X14.334 Y-563.389 Z-15.665 I-10.666 J5.333
N4390 X35.666 Y-574.055 Z-16.457 I10.666 J-5.333
N4395 X14.334 Y-563.389 Z-17.248 I-10.666 J5.333
N4400 X35.666 Y-574.055 Z-18.04 I10.666 J-5.333
N4405 X14.334 Y-563.389 Z-18.831 I-10.666 J5.333
N4410 X35.666 Y-574.055 Z-19.622 I10.666 J-5.333
N4415 X14.334 Y-563.389 Z-20.414 I-10.666 J5.333
N4420 X35.666 Y-574.055 Z-21.205 I10.666 J-5.333
N4425 X14.334 Y-563.389 Z-21.996 I-10.666 J5.333
N4430 X35.666 Y-574.055 Z-22.788 I10.666 J-5.333
N4435 X14.334 Y-563.389 Z-23.579 I-10.666 J5.333
N4440 X35.666 Y-574.055 Z-24.37 I10.666 J-5.333
N4445 X14.334 Y-563.389 Z-25.162 I-10.666 J5.333
N4450 X35.666 Y-574.055 Z-25.953 I10.666 J-5.333
N4455 X26.509 Y-580.551 Z-26.2 I-10.666 J5.333
N4460 X23.491 Y-556.893 I-1.509 J11.829
N4465 X26.509 Y-580.551 I1.509 J-11.829
N4470 X25.799 Y-580.002 I-0.08 J0.63 F200.
N4475 G1 X25.759 Y-579.687
N4480 X25.746 Y-579.588 Z-26.192
N4485 X25.734 Y-579.492 Z-26.169
N4490 X25.722 Y-579.401 Z-26.131
N4495 X25.711 Y-579.316 Z-26.079
N4500 X25.702 Y-579.241 Z-26.014
N4505 X25.694 Y-579.177 Z-25.938
N4510 X25.687 Y-579.125 Z-25.853
N4515 X25.682 Y-579.087 Z-25.761
N4520 X25.679 Y-579.064 Z-25.664
N4525 X25.678 Y-579.057 Z-25.565
N4530 Z5. F500.
N4535 X174.53 Y-572.777
N4540 Z-10.5
N4545 Z-11.865 F200.
N4550 X174.537 Y-572.781 Z-11.964
N4555 X174.558 Y-572.791 Z-12.061
N4560 X174.592 Y-572.808 Z-12.153
N4565 X174.639 Y-572.831 Z-12.238
N4570 X174.696 Y-572.86 Z-12.314
N4575 X174.764 Y-572.894 Z-12.379
N4580 X174.84 Y-572.932 Z-12.431
N4585 X174.923 Y-572.973 Z-12.469
N4590 X175.009 Y-573.017 Z-12.492
N4595 X175.098 Y-573.061 Z-12.5
N4600 X175.382 Y-573.203
N4605 G2 X175.666 Y-574.055 I-0.284 J-0.568
N4610 X154.334 Y-563.389 Z-13.291 I-10.666 J5.333 F500.
N4615 X175.666 Y-574.055 Z-14.083 I10.666 J-5.333
N4620 X154.334 Y-563.389 Z-14.874 I-10.666 J5.333
N4625 X175.666 Y-574.055 Z-15.665 I10.666 J-5.333
N4630 X154.334 Y-563.389 Z-16.457 I-10.666 J5.333
N4635 X175.666 Y-574.055 Z-17.248 I10.666 J-5.333
N4640 X154.334 Y-563.389 Z-18.04 I-10.666 J5.333
N4645 X175.666 Y-574.055 Z-18.831 I10.666 J-5.333
N4650 X154.334 Y-563.389 Z-19.622 I-10.666 J5.333
N4655 X175.666 Y-574.055 Z-20.414 I10.666 J-5.333
N4660 X154.334 Y-563.389 Z-21.205 I-10.666 J5.333
N4665 X175.666 Y-574.055 Z-21.996 I10.666 J-5.333
N4670 X154.334 Y-563.389 Z-22.788 I-10.666 J5.333
N4675 X175.666 Y-574.055 Z-23.579 I10.666 J-5.333
N4680 X154.334 Y-563.389 Z-24.37 I-10.666 J5.333
N4685 X175.666 Y-574.055 Z-25.162 I10.666 J-5.333
N4690 X154.334 Y-563.389 Z-25.953 I-10.666 J5.333
N4695 X163.491 Y-556.893 Z-26.2 I10.666 J-5.333
N4700 X166.509 Y-580.551 I1.509 J-11.829
N4705 X163.491 Y-556.893 I-1.509 J11.829
N4710 X164.201 Y-557.442 I0.08 J-0.63 F200.
N4715 G1 X164.241 Y-557.757
N4720 X164.254 Y-557.856 Z-26.192
N4725 X164.266 Y-557.952 Z-26.169
N4730 X164.278 Y-558.043 Z-26.131
N4735 X164.289 Y-558.128 Z-26.079
N4740 X164.298 Y-558.203 Z-26.014
N4745 X164.306 Y-558.267 Z-25.938
N4750 X164.313 Y-558.318 Z-25.853
N4755 X164.318 Y-558.356 Z-25.761
N4760 X164.321 Y-558.379 Z-25.664
N4765 X164.322 Y-558.387 Z-25.565
N4770 Z15. F500.
(WHEN USING FUSION 360 FOR PERSONAL USE, THE FEEDRATE OF)
(RAPID MOVES IS REDUCED TO MATCH THE FEEDRATE OF CUTTING)
(MOVES, WHICH CAN INCREASE MACHINING TIME. UNRESTRICTED RAPID)
(MOVES ARE AVAILABLE WITH A FUSION 360 SUBSCRIPTION.)
(2D CONTOUR3)
N4775 G0 X76.411 Y5.001
N4780 G1 Z15. F1000.
N4785 Z5.
N4790 Z-4.365 F200.
N4795 Y4.993 Z-4.464
N4800 X76.409 Y4.97 Z-4.561
N4805 X76.406 Y4.932 Z-4.653
N4810 X76.402 Y4.88 Z-4.738
N4815 X76.397 Y4.815 Z-4.814
N4820 X76.391 Y4.74 Z-4.879
N4825 X76.384 Y4.655 Z-4.931
N4830 X76.377 Y4.563 Z-4.969
N4835 X76.37 Y4.467 Z-4.992
N4840 X76.362 Y4.368 Z-5.
N4845 X76.313 Y3.735
N4850 G2 X75.631 Y3.151 I-0.633 J0.049
N4855 G3 X66.825 Y-5. I-0.631 J-8.151 F1000.
N4860 G1 Y-636.91
N4865 G3 X80. Y-650.085 I13.175 J0.
N4870 G1 X110.
N4875 G3 X123.175 Y-636.91 I0. J13.175
N4880 G1 Y-21.91
N4885 G3 X121.42 Y-19.07 I-3.175 J0.
N4890 G1 X78.656 Y2.312
N4895 G3 X75.631 Y3.151 I-3.656 J-7.312
N4900 G2 X75.047 Y3.833 I0.049 J0.633 F200.
N4905 G1 X75.096 Y4.466
N4910 X75.104 Y4.565 Z-4.992
N4915 X75.111 Y4.661 Z-4.969
N4920 X75.118 Y4.753 Z-4.931
N4925 X75.125 Y4.838 Z-4.879
N4930 X75.131 Y4.914 Z-4.814
N4935 X75.136 Y4.978 Z-4.738
N4940 X75.14 Y5.03 Z-4.653
N4945 X75.143 Y5.068 Z-4.561
N4950 X75.144 Y5.091 Z-4.464
N4955 X75.145 Y5.099 Z-4.365
N4960 Z5. F1000.
N4965 X76.411 Y5.001
N4970 Z0. F200.
N4975 Z-9.365
N4980 Y4.993 Z-9.464
N4985 X76.409 Y4.97 Z-9.561
N4990 X76.406 Y4.932 Z-9.653
N4995 X76.402 Y4.88 Z-9.738
N5000 X76.397 Y4.815 Z-9.814
N5005 X76.391 Y4.74 Z-9.879
N5010 X76.384 Y4.655 Z-9.931
N5015 X76.377 Y4.563 Z-9.969
N5020 X76.37 Y4.467 Z-9.992
N5025 X76.362 Y4.368 Z-10.
N5030 X76.313 Y3.735
N5035 G2 X75.631 Y3.151 I-0.633 J0.049
N5040 G3 X66.825 Y-5. I-0.631 J-8.151 F1000.
N5045 G1 Y-636.91
N5050 G3 X80. Y-650.085 I13.175 J0.
N5055 G1 X110.
N5060 G3 X123.175 Y-636.91 I0. J13.175
N5065 G1 Y-21.91
N5070 G3 X121.42 Y-19.07 I-3.175 J0.
N5075 G1 X78.656 Y2.312
N5080 G3 X75.631 Y3.151 I-3.656 J-7.312
N5085 G2 X75.047 Y3.833 I0.049 J0.633 F200.
N5090 G1 X75.096 Y4.466
N5095 X75.104 Y4.565 Z-9.992
N5100 X75.111 Y4.661 Z-9.969
N5105 X75.118 Y4.753 Z-9.931
N5110 X75.125 Y4.838 Z-9.879
N5115 X75.131 Y4.914 Z-9.814
N5120 X75.136 Y4.978 Z-9.738
N5125 X75.14 Y5.03 Z-9.653
N5130 X75.143 Y5.068 Z-9.561
N5135 X75.144 Y5.091 Z-9.464
N5140 X75.145 Y5.099 Z-9.365
N5145 Z5. F1000.
N5150 X76.411 Y5.001
N5155 Z-5. F200.
N5160 Z-14.365
N5165 Y4.993 Z-14.464
N5170 X76.409 Y4.97 Z-14.561
N5175 X76.406 Y4.932 Z-14.653
N5180 X76.402 Y4.88 Z-14.738
N5185 X76.397 Y4.815 Z-14.814
N5190 X76.391 Y4.74 Z-14.879
N5195 X76.384 Y4.655 Z-14.931
N5200 X76.377 Y4.563 Z-14.969
N5205 X76.37 Y4.467 Z-14.992
N5210 X76.362 Y4.368 Z-15.
N5215 X76.313 Y3.735
N5220 G2 X75.631 Y3.151 I-0.633 J0.049
N5225 G3 X66.825 Y-5. I-0.631 J-8.151 F1000.
N5230 G1 Y-636.91
N5235 G3 X80. Y-650.085 I13.175 J0.
N5240 G1 X110.
N5245 G3 X123.175 Y-636.91 I0. J13.175
N5250 G1 Y-21.91
N5255 G3 X121.42 Y-19.07 I-3.175 J0.
N5260 G1 X78.656 Y2.312
N5265 G3 X75.631 Y3.151 I-3.656 J-7.312
N5270 G2 X75.047 Y3.833 I0.049 J0.633 F200.
N5275 G1 X75.096 Y4.466
N5280 X75.104 Y4.565 Z-14.992
N5285 X75.111 Y4.661 Z-14.969
N5290 X75.118 Y4.753 Z-14.931
N5295 X75.125 Y4.838 Z-14.879
N5300 X75.131 Y4.914 Z-14.814
N5305 X75.136 Y4.978 Z-14.738
N5310 X75.14 Y5.03 Z-14.653
N5315 X75.143 Y5.068 Z-14.561
N5320 X75.144 Y5.091 Z-14.464
N5325 X75.145 Y5.099 Z-14.365
N5330 Z5. F1000.
N5335 X76.411 Y5.001
N5340 Z-10. F200.
N5345 Z-19.365
N5350 Y4.993 Z-19.464
N5355 X76.409 Y4.97 Z-19.561
N5360 X76.406 Y4.932 Z-19.653
N5365 X76.402 Y4.88 Z-19.738
N5370 X76.397 Y4.815 Z-19.814
N5375 X76.391 Y4.74 Z-19.879
N5380 X76.384 Y4.655 Z-19.931
N5385 X76.377 Y4.563 Z-19.969
N5390 X76.37 Y4.467 Z-19.992
N5395 X76.362 Y4.368 Z-20.
N5400 X76.313 Y3.735
N5405 G2 X75.631 Y3.151 I-0.633 J0.049
N5410 G3 X66.825 Y-5. I-0.631 J-8.151 F1000.
N5415 G1 Y-636.91
N5420 G3 X80. Y-650.085 I13.175 J0.
N5425 G1 X110.
N5430 G3 X123.175 Y-636.91 I0. J13.175
N5435 G1 Y-21.91
N5440 G3 X121.42 Y-19.07 I-3.175 J0.
N5445 G1 X78.656 Y2.312
N5450 G3 X75.631 Y3.151 I-3.656 J-7.312
N5455 G2 X75.047 Y3.833 I0.049 J0.633 F200.
N5460 G1 X75.096 Y4.466
N5465 X75.104 Y4.565 Z-19.992
N5470 X75.111 Y4.661 Z-19.969
N5475 X75.118 Y4.753 Z-19.931
N5480 X75.125 Y4.838 Z-19.879
N5485 X75.131 Y4.914 Z-19.814
N5490 X75.136 Y4.978 Z-19.738
N5495 X75.14 Y5.03 Z-19.653
N5500 X75.143 Y5.068 Z-19.561
N5505 X75.144 Y5.091 Z-19.464
N5510 X75.145 Y5.099 Z-19.365
N5515 Z5. F1000.
N5520 X76.411 Y5.001
N5525 Z-15. F200.
N5530 Z-22.465
N5535 Y4.993 Z-22.564
N5540 X76.409 Y4.97 Z-22.661
N5545 X76.406 Y4.932 Z-22.753
N5550 X76.402 Y4.88 Z-22.838
N5555 X76.397 Y4.815 Z-22.914
N5560 X76.391 Y4.74 Z-22.979
N5565 X76.384 Y4.655 Z-23.031
N5570 X76.377 Y4.563 Z-23.069
N5575 X76.37 Y4.467 Z-23.092
N5580 X76.362 Y4.368 Z-23.1
N5585 X76.313 Y3.735
N5590 G2 X75.631 Y3.151 I-0.633 J0.049
N5595 G3 X66.825 Y-5. I-0.631 J-8.151 F1000.
N5600 G1 Y-636.91
N5605 G3 X80. Y-650.085 I13.175 J0.
N5610 G1 X110.
N5615 G3 X123.175 Y-636.91 I0. J13.175
N5620 G1 Y-21.91
N5625 G3 X121.42 Y-19.07 I-3.175 J0.
N5630 G1 X78.656 Y2.312
N5635 G3 X75.631 Y3.151 I-3.656 J-7.312
N5640 G2 X75.047 Y3.833 I0.049 J0.633 F200.
N5645 G1 X75.096 Y4.466
N5650 X75.104 Y4.565 Z-23.092
N5655 X75.111 Y4.661 Z-23.069
N5660 X75.118 Y4.753 Z-23.031
N5665 X75.125 Y4.838 Z-22.979
N5670 X75.131 Y4.914 Z-22.914
N5675 X75.136 Y4.978 Z-22.838
N5680 X75.14 Y5.03 Z-22.753
N5685 X75.143 Y5.068 Z-22.661
N5690 X75.144 Y5.091 Z-22.564
N5695 X75.145 Y5.099 Z-22.465
N5700 Z5. F1000.
N5705 X76.411 Y5.001
N5710 Z-18.1 F200.
N5715 Z-25.565
N5720 Y4.993 Z-25.664
N5725 X76.409 Y4.97 Z-25.761
N5730 X76.406 Y4.932 Z-25.853
N5735 X76.402 Y4.88 Z-25.938
N5740 X76.397 Y4.815 Z-26.014
N5745 X76.391 Y4.74 Z-26.079
N5750 X76.384 Y4.655 Z-26.131
N5755 X76.377 Y4.563 Z-26.169
N5760 X76.37 Y4.467 Z-26.192
N5765 X76.362 Y4.368 Z-26.2
N5770 X76.313 Y3.735
N5775 G2 X75.631 Y3.151 I-0.633 J0.049
N5780 G3 X66.825 Y-5. I-0.631 J-8.151 F1000.
N5785 G1 Y-636.91
N5790 G3 X80. Y-650.085 I13.175 J0.
N5795 G1 X110.
N5800 G3 X123.175 Y-636.91 I0. J13.175
N5805 G1 Y-21.91
N5810 G3 X121.42 Y-19.07 I-3.175 J0.
N5815 G1 X78.656 Y2.312
N5820 G3 X75.631 Y3.151 I-3.656 J-7.312
N5825 G2 X75.047 Y3.833 I0.049 J0.633 F200.
N5830 G1 X75.096 Y4.466
N5835 X75.104 Y4.565 Z-26.192
N5840 X75.111 Y4.661 Z-26.169
N5845 X75.118 Y4.753 Z-26.131
N5850 X75.125 Y4.838 Z-26.079
N5855 X75.131 Y4.914 Z-26.014
N5860 X75.136 Y4.978 Z-25.938
N5865 X75.14 Y5.03 Z-25.853
N5870 X75.143 Y5.068 Z-25.761
N5875 X75.144 Y5.091 Z-25.664
N5880 X75.145 Y5.099 Z-25.565
N5885 Z5. F1000.
N5890 X-5.08 Y-4.66
N5895 Z-4.365 F200.
N5900 G18 G2 X-4.445 Z-5. I0.635 K0.
N5905 G1 X-3.81
N5910 G17 G2 X-3.175 Y-5.295 I0. J-0.635
N5915 G1 Y-637.205 F1000.
N5920 G3 X10. Y-650.38 I13.175 J0.
N5925 G1 X40.
N5930 G3 X53.175 Y-637.205 I0. J13.175
N5935 G1 Y-22.205
N5940 G3 X51.42 Y-19.365 I-3.175 J0.
N5945 G1 X8.656 Y2.017
N5950 G3 X-3.175 Y-5.295 I-3.656 J-7.312
N5955 G2 X-3.81 Y-5.93 I-0.635 J0. F200.
N5960 G1 X-4.445
N5965 G18 G3 X-5.08 Z-4.365 I0. K0.635
N5970 G1 Z5. F1000.
N5975 Y-4.66
N5980 Z0. F200.
N5985 Z-9.365
N5990 G2 X-4.445 Z-10. I0.635 K0.
N5995 G1 X-3.81
N6000 G17 G2 X-3.175 Y-5.295 I0. J-0.635
N6005 G1 Y-637.205 F1000.
N6010 G3 X10. Y-650.38 I13.175 J0.
N6015 G1 X40.
N6020 G3 X53.175 Y-637.205 I0. J13.175
N6025 G1 Y-22.205
N6030 G3 X51.42 Y-19.365 I-3.175 J0.
N6035 G1 X8.656 Y2.017
N6040 G3 X-3.175 Y-5.295 I-3.656 J-7.312
N6045 G2 X-3.81 Y-5.93 I-0.635 J0. F200.
N6050 G1 X-4.445
N6055 G18 G3 X-5.08 Z-9.365 I0. K0.635
N6060 G1 Z5. F1000.
N6065 Y-4.66
N6070 Z-5. F200.
N6075 Z-14.365
N6080 G2 X-4.445 Z-15. I0.635 K0.
N6085 G1 X-3.81
N6090 G17 G2 X-3.175 Y-5.295 I0. J-0.635
N6095 G1 Y-637.205 F1000.
N6100 G3 X10. Y-650.38 I13.175 J0.
N6105 G1 X40.
N6110 G3 X53.175 Y-637.205 I0. J13.175
N6115 G1 Y-22.205
N6120 G3 X51.42 Y-19.365 I-3.175 J0.
N6125 G1 X8.656 Y2.017
N6130 G3 X-3.175 Y-5.295 I-3.656 J-7.312
N6135 G2 X-3.81 Y-5.93 I-0.635 J0. F200.
N6140 G1 X-4.445
N6145 G18 G3 X-5.08 Z-14.365 I0. K0.635
N6150 G1 Z5. F1000.
N6155 Y-4.66
N6160 Z-10. F200.
N6165 Z-19.365
N6170 G2 X-4.445 Z-20. I0.635 K0.
N6175 G1 X-3.81
N6180 G17 G2 X-3.175 Y-5.295 I0. J-0.635
N6185 G1 Y-637.205 F1000.
N6190 G3 X10. Y-650.38 I13.175 J0.
N6195 G1 X40.
N6200 G3 X53.175 Y-637.205 I0. J13.175
N6205 G1 Y-22.205
N6210 G3 X51.42 Y-19.365 I-3.175 J0.
N6215 G1 X8.656 Y2.017
N6220 G3 X-3.175 Y-5.295 I-3.656 J-7.312
N6225 G2 X-3.81 Y-5.93 I-0.635 J0. F200.
N6230 G1 X-4.445
N6235 G18 G3 X-5.08 Z-19.365 I0. K0.635
N6240 G1 Z5. F1000.
N6245 Y-4.66
N6250 Z-15. F200.
N6255 Z-22.465
N6260 G2 X-4.445 Z-23.1 I0.635 K0.
N6265 G1 X-3.81
N6270 G17 G2 X-3.175 Y-5.295 I0. J-0.635
N6275 G1 Y-637.205 F1000.
N6280 G3 X10. Y-650.38 I13.175 J0.
N6285 G1 X40.
N6290 G3 X53.175 Y-637.205 I0. J13.175
N6295 G1 Y-22.205
N6300 G3 X51.42 Y-19.365 I-3.175 J0.
N6305 G1 X8.656 Y2.017
N6310 G3 X-3.175 Y-5.295 I-3.656 J-7.312
N6315 G2 X-3.81 Y-5.93 I-0.635 J0. F200.
N6320 G1 X-4.445
N6325 G18 G3 X-5.08 Z-22.465 I0. K0.635
N6330 G1 Z5. F1000.
N6335 Y-4.66
N6340 Z-18.1 F200.
N6345 Z-25.565
N6350 G2 X-4.445 Z-26.2 I0.635 K0.
N6355 G1 X-3.81
N6360 G17 G2 X-3.175 Y-5.295 I0. J-0.635
N6365 G1 Y-637.205 F1000.
N6370 G3 X10. Y-650.38 I13.175 J0.
N6375 G1 X40.
N6380 G3 X53.175 Y-637.205 I0. J13.175
N6385 G1 Y-22.205
N6390 G3 X51.42 Y-19.365 I-3.175 J0.
N6395 G1 X8.656 Y2.017
N6400 G3 X-3.175 Y-5.295 I-3.656 J-7.312
N6405 G2 X-3.81 Y-5.93 I-0.635 J0. F200.
N6410 G1 X-4.445
N6415 G18 G3 X-5.08 Z-25.565 I0. K0.635
N6420 G1 Z5. F1000.
N6425 X145.327 Y4.8
N6430 Z-4.365 F200.
N6435 Y4.792 Z-4.464
N6440 X145.328 Y4.769 Z-4.561
N6445 X145.329 Y4.73 Z-4.653
N6450 X145.331 Y4.678 Z-4.738
N6455 X145.333 Y4.614 Z-4.814
N6460 X145.335 Y4.538 Z-4.879
N6465 X145.338 Y4.453 Z-4.931
N6470 X145.341 Y4.361 Z-4.969
N6475 X145.343 Y4.264 Z-4.992
N6480 X145.346 Y4.165 Z-5.
N6485 X145.366 Y3.53
N6490 G17 G2 X144.751 Y2.876 I-0.635 J-0.019
N6495 G3 X136.825 Y-5.295 I0.249 J-8.171 F1000.
N6500 G1 Y-636.91
N6505 Y-637.205
N6510 G3 X150. Y-650.38 I13.175 J0.
N6515 G1 X180.
N6520 G3 X193.175 Y-637.205 I0. J13.175
N6525 G1 Y-22.205
N6530 G3 X191.42 Y-19.365 I-3.175 J0.
N6535 G1 X148.656 Y2.017
N6540 G3 X144.751 Y2.876 I-3.656 J-7.312
N6545 G2 X144.096 Y3.491 I-0.019 J0.635 F200.
N6550 G1 X144.077 Y4.126
N6555 X144.074 Y4.225 Z-4.992
N6560 X144.071 Y4.322 Z-4.969
N6565 X144.068 Y4.414 Z-4.931
N6570 X144.066 Y4.499 Z-4.879
N6575 X144.063 Y4.575 Z-4.814
N6580 X144.061 Y4.64 Z-4.738
N6585 X144.06 Y4.692 Z-4.653
N6590 X144.059 Y4.73 Z-4.561
N6595 X144.058 Y4.753 Z-4.464
N6600 Y4.761 Z-4.365
N6605 Z5. F1000.
N6610 X145.327 Y4.8
N6615 Z0. F200.
N6620 Z-9.365
N6625 Y4.792 Z-9.464
N6630 X145.328 Y4.769 Z-9.561
N6635 X145.329 Y4.73 Z-9.653
N6640 X145.331 Y4.678 Z-9.738
N6645 X145.333 Y4.614 Z-9.814
N6650 X145.335 Y4.538 Z-9.879
N6655 X145.338 Y4.453 Z-9.931
N6660 X145.341 Y4.361 Z-9.969
N6665 X145.343 Y4.264 Z-9.992
N6670 X145.346 Y4.165 Z-10.
N6675 X145.366 Y3.53
N6680 G2 X144.751 Y2.876 I-0.635 J-0.019
N6685 G3 X136.825 Y-5.295 I0.249 J-8.171 F1000.
N6690 G1 Y-636.91
N6695 Y-637.205
N6700 G3 X150. Y-650.38 I13.175 J0.
N6705 G1 X180.
N6710 G3 X193.175 Y-637.205 I0. J13.175
N6715 G1 Y-22.205
N6720 G3 X191.42 Y-19.365 I-3.175 J0.
N6725 G1 X148.656 Y2.017
N6730 G3 X144.751 Y2.876 I-3.656 J-7.312
N6735 G2 X144.096 Y3.491 I-0.019 J0.635 F200.
N6740 G1 X144.077 Y4.126
N6745 X144.074 Y4.225 Z-9.992
N6750 X144.071 Y4.322 Z-9.969
N6755 X144.068 Y4.414 Z-9.931
N6760 X144.066 Y4.499 Z-9.879
N6765 X144.063 Y4.575 Z-9.814
N6770 X144.061 Y4.64 Z-9.738
N6775 X144.06 Y4.692 Z-9.653
N6780 X144.059 Y4.73 Z-9.561
N6785 X144.058 Y4.753 Z-9.464
N6790 Y4.761 Z-9.365
N6795 Z5. F1000.
N6800 X145.327 Y4.8
N6805 Z-5. F200.
N6810 Z-14.365
N6815 Y4.792 Z-14.464
N6820 X145.328 Y4.769 Z-14.561
N6825 X145.329 Y4.73 Z-14.653
N6830 X145.331 Y4.678 Z-14.738
N6835 X145.333 Y4.614 Z-14.814
N6840 X145.335 Y4.538 Z-14.879
N6845 X145.338 Y4.453 Z-14.931
N6850 X145.341 Y4.361 Z-14.969
N6855 X145.343 Y4.264 Z-14.992
N6860 X145.346 Y4.165 Z-15.
N6865 X145.366 Y3.53
N6870 G2 X144.751 Y2.876 I-0.635 J-0.019
N6875 G3 X136.825 Y-5.295 I0.249 J-8.171 F1000.
N6880 G1 Y-636.91
N6885 Y-637.205
N6890 G3 X150. Y-650.38 I13.175 J0.
N6895 G1 X180.
N6900 G3 X193.175 Y-637.205 I0. J13.175
N6905 G1 Y-22.205
N6910 G3 X191.42 Y-19.365 I-3.175 J0.
N6915 G1 X148.656 Y2.017
N6920 G3 X144.751 Y2.876 I-3.656 J-7.312
N6925 G2 X144.096 Y3.491 I-0.019 J0.635 F200.
N6930 G1 X144.077 Y4.126
N6935 X144.074 Y4.225 Z-14.992
N6940 X144.071 Y4.322 Z-14.969
N6945 X144.068 Y4.414 Z-14.931
N6950 X144.066 Y4.499 Z-14.879
N6955 X144.063 Y4.575 Z-14.814
N6960 X144.061 Y4.64 Z-14.738
N6965 X144.06 Y4.692 Z-14.653
N6970 X144.059 Y4.73 Z-14.561
N6975 X144.058 Y4.753 Z-14.464
N6980 Y4.761 Z-14.365
N6985 Z5. F1000.
N6990 X145.327 Y4.8
N6995 Z-10. F200.
N7000 Z-19.365
N7005 Y4.792 Z-19.464
N7010 X145.328 Y4.769 Z-19.561
N7015 X145.329 Y4.73 Z-19.653
N7020 X145.331 Y4.678 Z-19.738
N7025 X145.333 Y4.614 Z-19.814
N7030 X145.335 Y4.538 Z-19.879
N7035 X145.338 Y4.453 Z-19.931
N7040 X145.341 Y4.361 Z-19.969
N7045 X145.343 Y4.264 Z-19.992
N7050 X145.346 Y4.165 Z-20.
N7055 X145.366 Y3.53
N7060 G2 X144.751 Y2.876 I-0.635 J-0.019
N7065 G3 X136.825 Y-5.295 I0.249 J-8.171 F1000.
N7070 G1 Y-636.91
N7075 Y-637.205
N7080 G3 X150. Y-650.38 I13.175 J0.
N7085 G1 X180.
N7090 G3 X193.175 Y-637.205 I0. J13.175
N7095 G1 Y-22.205
N7100 G3 X191.42 Y-19.365 I-3.175 J0.
N7105 G1 X148.656 Y2.017
N7110 G3 X144.751 Y2.876 I-3.656 J-7.312
N7115 G2 X144.096 Y3.491 I-0.019 J0.635 F200.
N7120 G1 X144.077 Y4.126
N7125 X144.074 Y4.225 Z-19.992
N7130 X144.071 Y4.322 Z-19.969
N7135 X144.068 Y4.414 Z-19.931
N7140 X144.066 Y4.499 Z-19.879
N7145 X144.063 Y4.575 Z-19.814
N7150 X144.061 Y4.64 Z-19.738
N7155 X144.06 Y4.692 Z-19.653
N7160 X144.059 Y4.73 Z-19.561
N7165 X144.058 Y4.753 Z-19.464
N7170 Y4.761 Z-19.365
N7175 Z5. F1000.
N7180 X145.327 Y4.8
N7185 Z-15. F200.
N7190 Z-22.465
N7195 Y4.792 Z-22.564
N7200 X145.328 Y4.769 Z-22.661
N7205 X145.329 Y4.73 Z-22.753
N7210 X145.331 Y4.678 Z-22.838
N7215 X145.333 Y4.614 Z-22.914
N7220 X145.335 Y4.538 Z-22.979
N7225 X145.338 Y4.453 Z-23.031
N7230 X145.341 Y4.361 Z-23.069
N7235 X145.343 Y4.264 Z-23.092
N7240 X145.346 Y4.165 Z-23.1
N7245 X145.366 Y3.53
N7250 G2 X144.751 Y2.876 I-0.635 J-0.019
N7255 G3 X136.825 Y-5.295 I0.249 J-8.171 F1000.
N7260 G1 Y-636.91
N7265 Y-637.205
N7270 G3 X150. Y-650.38 I13.175 J0.
N7275 G1 X180.
N7280 G3 X193.175 Y-637.205 I0. J13.175
N7285 G1 Y-22.205
N7290 G3 X191.42 Y-19.365 I-3.175 J0.
N7295 G1 X148.656 Y2.017
N7300 G3 X144.751 Y2.876 I-3.656 J-7.312
N7305 G2 X144.096 Y3.491 I-0.019 J0.635 F200.
N7310 G1 X144.077 Y4.126
N7315 X144.074 Y4.225 Z-23.092
N7320 X144.071 Y4.322 Z-23.069
N7325 X144.068 Y4.414 Z-23.031
N7330 X144.066 Y4.499 Z-22.979
N7335 X144.063 Y4.575 Z-22.914
N7340 X144.061 Y4.64 Z-22.838
N7345 X144.06 Y4.692 Z-22.753
N7350 X144.059 Y4.73 Z-22.661
N7355 X144.058 Y4.753 Z-22.564
N7360 Y4.761 Z-22.465
N7365 Z5. F1000.
N7370 X145.327 Y4.8
N7375 Z-18.1 F200.
N7380 Z-25.565
N7385 Y4.792 Z-25.664
N7390 X145.328 Y4.769 Z-25.761
N7395 X145.329 Y4.73 Z-25.853
N7400 X145.331 Y4.678 Z-25.938
N7405 X145.333 Y4.614 Z-26.014
N7410 X145.335 Y4.538 Z-26.079
N7415 X145.338 Y4.453 Z-26.131
N7420 X145.341 Y4.361 Z-26.169
N7425 X145.343 Y4.264 Z-26.192
N7430 X145.346 Y4.165 Z-26.2
N7435 X145.366 Y3.53
N7440 G2 X144.751 Y2.876 I-0.635 J-0.019
N7445 G3 X136.825 Y-5.295 I0.249 J-8.171 F1000.
N7450 G1 Y-636.91
N7455 Y-637.205
N7460 G3 X150. Y-650.38 I13.175 J0.
N7465 G1 X180.
N7470 G3 X193.175 Y-637.205 I0. J13.175
N7475 G1 Y-22.205
N7480 G3 X191.42 Y-19.365 I-3.175 J0.
N7485 G1 X148.656 Y2.017
N7490 G3 X144.751 Y2.876 I-3.656 J-7.312
N7495 G2 X144.096 Y3.491 I-0.019 J0.635 F200.
N7500 G1 X144.077 Y4.126
N7505 X144.074 Y4.225 Z-26.192
N7510 X144.071 Y4.322 Z-26.169
N7515 X144.068 Y4.414 Z-26.131
N7520 X144.066 Y4.499 Z-26.079
N7525 X144.063 Y4.575 Z-26.014
N7530 X144.061 Y4.64 Z-25.938
N7535 X144.06 Y4.692 Z-25.853
N7540 X144.059 Y4.73 Z-25.761
N7545 X144.058 Y4.753 Z-25.664
N7550 Y4.761 Z-25.565
N7555 Z5. F1000.
N7560 X214.824 Y5.098
N7565 Z-4.365 F200.
N7570 Y5.091 Z-4.464
N7575 X214.826 Y5.067 Z-4.561
N7580 X214.829 Y5.029 Z-4.653
N7585 X214.834 Y4.978 Z-4.738
N7590 X214.839 Y4.913 Z-4.814
N7595 X214.845 Y4.838 Z-4.879
N7600 X214.852 Y4.753 Z-4.931
N7605 X214.859 Y4.661 Z-4.969
N7610 X214.867 Y4.564 Z-4.992
N7615 X214.875 Y4.465 Z-5.
N7620 X214.926 Y3.833
N7625 G2 X214.344 Y3.149 I-0.633 J-0.051
N7630 G3 X206.825 Y-5. I0.656 J-8.149 F1000.
N7635 G1 Y-636.91
N7640 G3 X220. Y-650.085 I13.175 J0.
N7645 G1 X250.
N7650 G3 X263.175 Y-636.91 I0. J13.175
N7655 G1 Y-21.91
N7660 G3 X261.42 Y-19.07 I-3.175 J0.
N7665 G1 X218.656 Y2.312
N7670 G3 X214.344 Y3.149 I-3.656 J-7.312
N7675 G2 X213.66 Y3.731 I-0.051 J0.633 F200.
N7680 G1 X213.609 Y4.364
N7685 X213.601 Y4.463 Z-4.992
N7690 X213.593 Y4.559 Z-4.969
N7695 X213.586 Y4.651 Z-4.931
N7700 X213.579 Y4.736 Z-4.879
N7705 X213.573 Y4.811 Z-4.814
N7710 X213.568 Y4.876 Z-4.738
N7715 X213.563 Y4.927 Z-4.653
N7720 X213.56 Y4.965 Z-4.561
N7725 X213.559 Y4.989 Z-4.464
N7730 X213.558 Y4.996 Z-4.365
N7735 Z5. F1000.
N7740 X214.824 Y5.098
N7745 Z0. F200.
N7750 Z-9.365
N7755 Y5.091 Z-9.464
N7760 X214.826 Y5.067 Z-9.561
N7765 X214.829 Y5.029 Z-9.653
N7770 X214.834 Y4.978 Z-9.738
N7775 X214.839 Y4.913 Z-9.814
N7780 X214.845 Y4.838 Z-9.879
N7785 X214.852 Y4.753 Z-9.931
N7790 X214.859 Y4.661 Z-9.969
N7795 X214.867 Y4.564 Z-9.992
N7800 X214.875 Y4.465 Z-10.
N7805 X214.926 Y3.833
N7810 G2 X214.344 Y3.149 I-0.633 J-0.051
N7815 G3 X206.825 Y-5. I0.656 J-8.149 F1000.
N7820 G1 Y-636.91
N7825 G3 X220. Y-650.085 I13.175 J0.
N7830 G1 X250.
N7835 G3 X263.175 Y-636.91 I0. J13.175
N7840 G1 Y-21.91
N7845 G3 X261.42 Y-19.07 I-3.175 J0.
N7850 G1 X218.656 Y2.312
N7855 G3 X214.344 Y3.149 I-3.656 J-7.312
N7860 G2 X213.66 Y3.731 I-0.051 J0.633 F200.
N7865 G1 X213.609 Y4.364
N7870 X213.601 Y4.463 Z-9.992
N7875 X213.593 Y4.559 Z-9.969
N7880 X213.586 Y4.651 Z-9.931
N7885 X213.579 Y4.736 Z-9.879
N7890 X213.573 Y4.811 Z-9.814
N7895 X213.568 Y4.876 Z-9.738
N7900 X213.563 Y4.927 Z-9.653
N7905 X213.56 Y4.965 Z-9.561
N7910 X213.559 Y4.989 Z-9.464
N7915 X213.558 Y4.996 Z-9.365
N7920 Z5. F1000.
N7925 X214.824 Y5.098
N7930 Z-5. F200.
N7935 Z-14.365
N7940 Y5.091 Z-14.464
N7945 X214.826 Y5.067 Z-14.561
N7950 X214.829 Y5.029 Z-14.653
N7955 X214.834 Y4.978 Z-14.738
N7960 X214.839 Y4.913 Z-14.814
N7965 X214.845 Y4.838 Z-14.879
N7970 X214.852 Y4.753 Z-14.931
N7975 X214.859 Y4.661 Z-14.969
N7980 X214.867 Y4.564 Z-14.992
N7985 X214.875 Y4.465 Z-15.
N7990 X214.926 Y3.833
N7995 G2 X214.344 Y3.149 I-0.633 J-0.051
N8000 G3 X206.825 Y-5. I0.656 J-8.149 F1000.
N8005 G1 Y-636.91
N8010 G3 X220. Y-650.085 I13.175 J0.
N8015 G1 X250.
N8020 G3 X263.175 Y-636.91 I0. J13.175
N8025 G1 Y-21.91
N8030 G3 X261.42 Y-19.07 I-3.175 J0.
N8035 G1 X218.656 Y2.312
N8040 G3 X214.344 Y3.149 I-3.656 J-7.312
N8045 G2 X213.66 Y3.731 I-0.051 J0.633 F200.
N8050 G1 X213.609 Y4.364
N8055 X213.601 Y4.463 Z-14.992
N8060 X213.593 Y4.559 Z-14.969
N8065 X213.586 Y4.651 Z-14.931
N8070 X213.579 Y4.736 Z-14.879
N8075 X213.573 Y4.811 Z-14.814
N8080 X213.568 Y4.876 Z-14.738
N8085 X213.563 Y4.927 Z-14.653
N8090 X213.56 Y4.965 Z-14.561
N8095 X213.559 Y4.989 Z-14.464
N8100 X213.558 Y4.996 Z-14.365
N8105 Z5. F1000.
N8110 X214.824 Y5.098
N8115 Z-10. F200.
N8120 Z-19.365
N8125 Y5.091 Z-19.464
N8130 X214.826 Y5.067 Z-19.561
N8135 X214.829 Y5.029 Z-19.653
N8140 X214.834 Y4.978 Z-19.738
N8145 X214.839 Y4.913 Z-19.814
N8150 X214.845 Y4.838 Z-19.879
N8155 X214.852 Y4.753 Z-19.931
N8160 X214.859 Y4.661 Z-19.969
N8165 X214.867 Y4.564 Z-19.992
N8170 X214.875 Y4.465 Z-20.
N8175 X214.926 Y3.833
N8180 G2 X214.344 Y3.149 I-0.633 J-0.051
N8185 G3 X206.825 Y-5. I0.656 J-8.149 F1000.
N8190 G1 Y-636.91
N8195 G3 X220. Y-650.085 I13.175 J0.
N8200 G1 X250.
N8205 G3 X263.175 Y-636.91 I0. J13.175
N8210 G1 Y-21.91
N8215 G3 X261.42 Y-19.07 I-3.175 J0.
N8220 G1 X218.656 Y2.312
N8225 G3 X214.344 Y3.149 I-3.656 J-7.312
N8230 G2 X213.66 Y3.731 I-0.051 J0.633 F200.
N8235 G1 X213.609 Y4.364
N8240 X213.601 Y4.463 Z-19.992
N8245 X213.593 Y4.559 Z-19.969
N8250 X213.586 Y4.651 Z-19.931
N8255 X213.579 Y4.736 Z-19.879
N8260 X213.573 Y4.811 Z-19.814
N8265 X213.568 Y4.876 Z-19.738
N8270 X213.563 Y4.927 Z-19.653
N8275 X213.56 Y4.965 Z-19.561
N8280 X213.559 Y4.989 Z-19.464
N8285 X213.558 Y4.996 Z-19.365
N8290 Z5. F1000.
N8295 X214.824 Y5.098
N8300 Z-15. F200.
N8305 Z-22.465
N8310 Y5.091 Z-22.564
N8315 X214.826 Y5.067 Z-22.661
N8320 X214.829 Y5.029 Z-22.753
N8325 X214.834 Y4.978 Z-22.838
N8330 X214.839 Y4.913 Z-22.914
N8335 X214.845 Y4.838 Z-22.979
N8340 X214.852 Y4.753 Z-23.031
N8345 X214.859 Y4.661 Z-23.069
N8350 X214.867 Y4.564 Z-23.092
N8355 X214.875 Y4.465 Z-23.1
N8360 X214.926 Y3.833
N8365 G2 X214.344 Y3.149 I-0.633 J-0.051
N8370 G3 X206.825 Y-5. I0.656 J-8.149 F1000.
N8375 G1 Y-636.91
N8380 G3 X220. Y-650.085 I13.175 J0.
N8385 G1 X250.
N8390 G3 X263.175 Y-636.91 I0. J13.175
N8395 G1 Y-21.91
N8400 G3 X261.42 Y-19.07 I-3.175 J0.
N8405 G1 X218.656 Y2.312
N8410 G3 X214.344 Y3.149 I-3.656 J-7.312
N8415 G2 X213.66 Y3.731 I-0.051 J0.633 F200.
N8420 G1 X213.609 Y4.364
N8425 X213.601 Y4.463 Z-23.092
N8430 X213.593 Y4.559 Z-23.069
N8435 X213.586 Y4.651 Z-23.031
N8440 X213.579 Y4.736 Z-22.979
N8445 X213.573 Y4.811 Z-22.914
N8450 X213.568 Y4.876 Z-22.838
N8455 X213.563 Y4.927 Z-22.753
N8460 X213.56 Y4.965 Z-22.661
N8465 X213.559 Y4.989 Z-22.564
N8470 X213.558 Y4.996 Z-22.465
N8475 Z5. F1000.
N8480 X214.824 Y5.098
N8485 Z-18.1 F200.
N8490 Z-25.565
N8495 Y5.091 Z-25.664
N8500 X214.826 Y5.067 Z-25.761
N8505 X214.829 Y5.029 Z-25.853
N8510 X214.834 Y4.978 Z-25.938
N8515 X214.839 Y4.913 Z-26.014
N8520 X214.845 Y4.838 Z-26.079
N8525 X214.852 Y4.753 Z-26.131
N8530 X214.859 Y4.661 Z-26.169
N8535 X214.867 Y4.564 Z-26.192
N8540 X214.875 Y4.465 Z-26.2
N8545 X214.926 Y3.833
N8550 G2 X214.344 Y3.149 I-0.633 J-0.051
N8555 G3 X206.825 Y-5. I0.656 J-8.149 F1000.
N8560 G1 Y-636.91
N8565 G3 X220. Y-650.085 I13.175 J0.
N8570 G1 X250.
N8575 G3 X263.175 Y-636.91 I0. J13.175
N8580 G1 Y-21.91
N8585 G3 X261.42 Y-19.07 I-3.175 J0.
N8590 G1 X218.656 Y2.312
N8595 G3 X214.344 Y3.149 I-3.656 J-7.312
N8600 G2 X213.66 Y3.731 I-0.051 J0.633 F200.
N8605 G1 X213.609 Y4.364
N8610 X213.601 Y4.463 Z-26.192
N8615 X213.593 Y4.559 Z-26.169
N8620 X213.586 Y4.651 Z-26.131
N8625 X213.579 Y4.736 Z-26.079
N8630 X213.573 Y4.811 Z-26.014
N8635 X213.568 Y4.876 Z-25.938
N8640 X213.563 Y4.927 Z-25.853
N8645 X213.56 Y4.965 Z-25.761
N8650 X213.559 Y4.989 Z-25.664
N8655 X213.558 Y4.996 Z-25.565
N8660 Z15. F1000.
N8665 G53 G0 Z0.
N8670 G53 G0 X0. Y0.
N8675 M30
%
