%
(BABY_GYM_635)
(MACHINE)
(  MODEL LASER SNAKE V2)
(  DESCRIPTION 3-AXIS ROUTER)
(T3  D=6.35 CR=0. - ZMIN=-26.2 - FLAT END MILL)
N10 G90 G94 G17 G91.1
N15 G21
(WHEN USING FUSION 360 FOR PERSONAL USE, THE FEEDRATE OF)
(RAPID MOVES IS REDUCED TO MATCH THE FEEDRATE OF CUTTING)
(MOVES, WHICH CAN INCREASE MACHINING TIME. UNRESTRICTED RAPID)
(MOVES ARE AVAILABLE WITH A FUSION 360 SUBSCRIPTION.)
N20 G53 G0 Z0.
(2D POCKET3)
N25 T3 M6
N30 S15000 M3
N35 G54
N40 G0 X25. Y-568.722
N45 G43 Z15. H3
N50 G1 Z5. F1000.
N55 Z-4.367
N60 X25.007 Y-568.748
N65 X25.026 Y-568.767
N70 X25.053 Y-568.775
N75 X25.079 Y-568.767
N80 X25.098 Y-568.748
N85 X25.105 Y-568.722
N90 G2 X28.705 I1.8 J0.
N95 X21.295 I-3.705 J0.
N100 X32.515 I5.61 J0.
N105 X17.485 I-7.515 J0.
N110 X36.325 I9.42 J0.
N115 X13.675 I-11.325 J0.
N120 X36.325 I11.325 J0.
N125 X35.934 Y-569.1 I-0.378 J0.
N130 G1 X25. Y-568.722
N135 Z-8.733
N140 X25.105
N145 G2 X28.705 I1.8 J0.
N150 X21.295 I-3.705 J0.
N155 X32.515 I5.61 J0.
N160 X17.485 I-7.515 J0.
N165 X36.325 I9.42 J0.
N170 X13.675 I-11.325 J0.
N175 X36.325 I11.325 J0.
N180 X35.934 Y-569.1 I-0.378 J0.
N185 G1 X25. Y-568.722
N190 Z-13.1
N195 X25.105
N200 G2 X28.705 I1.8 J0.
N205 X21.295 I-3.705 J0.
N210 X32.515 I5.61 J0.
N215 X17.485 I-7.515 J0.
N220 X36.325 I9.42 J0.
N225 X13.675 I-11.325 J0.
N230 X36.325 I11.325 J0.
N235 X35.934 Y-569.1 I-0.378 J0.
N240 G1 X25. Y-568.722
N245 Z-17.467
N250 X25.105
N255 G2 X28.705 I1.8 J0.
N260 X21.295 I-3.705 J0.
N265 X32.515 I5.61 J0.
N270 X17.485 I-7.515 J0.
N275 X36.325 I9.42 J0.
N280 X13.675 I-11.325 J0.
N285 X36.325 I11.325 J0.
N290 X35.934 Y-569.1 I-0.378 J0.
N295 G1 X25. Y-568.722
N300 Z-21.833
N305 X25.105
N310 G2 X28.705 I1.8 J0.
N315 X21.295 I-3.705 J0.
N320 X32.515 I5.61 J0.
N325 X17.485 I-7.515 J0.
N330 X36.325 I9.42 J0.
N335 X13.675 I-11.325 J0.
N340 X36.325 I11.325 J0.
N345 X35.934 Y-569.1 I-0.378 J0.
N350 G1 X25. Y-568.722
N355 Z-26.2
N360 X25.105
N365 G2 X28.705 I1.8 J0.
N370 X21.295 I-3.705 J0.
N375 X32.515 I5.61 J0.
N380 X17.485 I-7.515 J0.
N385 X36.325 I9.42 J0.
N390 X13.675 I-11.325 J0.
N395 X36.325 I11.325 J0.
N400 G1 X36.317 Y-568.82 Z-26.184 F200.
N405 X36.295 Y-568.915 Z-26.169
N410 X36.262 Y-568.997 Z-26.124
N415 X36.218 Y-569.074 Z-26.079
N420 X36.176 Y-569.13 Z-26.008
N425 X36.128 Y-569.182 Z-25.938
N430 X36.059 Y-569.239 Z-25.761
N435 X36.033 Y-569.256 Z-25.565
N440 Z5. F1000.
N445 X165. Y-568.722
N450 Z-4.367
N455 X165.007 Y-568.748
N460 X165.026 Y-568.768
N465 X165.053 Y-568.775
N470 X165.079 Y-568.768
N475 X165.098 Y-568.748
N480 X165.105 Y-568.722
N485 G2 X168.705 I1.8 J0.
N490 X161.295 I-3.705 J0.
N495 X172.515 I5.61 J0.
N500 X157.485 I-7.515 J0.
N505 X176.325 I9.42 J0.
N510 X153.675 I-11.325 J0.
N515 X176.325 I11.325 J0.
N520 X175.934 Y-569.1 I-0.378 J0.
N525 G1 X165. Y-568.722
N530 Z-8.733
N535 X165.105
N540 G2 X168.705 I1.8 J0.
N545 X161.295 I-3.705 J0.
N550 X172.515 I5.61 J0.
N555 X157.485 I-7.515 J0.
N560 X176.325 I9.42 J0.
N565 X153.675 I-11.325 J0.
N570 X176.325 I11.325 J0.
N575 X175.934 Y-569.1 I-0.378 J0.
N580 G1 X165. Y-568.722
N585 Z-13.1
N590 X165.105
N595 G2 X168.705 I1.8 J0.
N600 X161.295 I-3.705 J0.
N605 X172.515 I5.61 J0.
N610 X157.485 I-7.515 J0.
N615 X176.325 I9.42 J0.
N620 X153.675 I-11.325 J0.
N625 X176.325 I11.325 J0.
N630 X175.934 Y-569.1 I-0.378 J0.
N635 G1 X165. Y-568.722
N640 Z-17.467
N645 X165.105
N650 G2 X168.705 I1.8 J0.
N655 X161.295 I-3.705 J0.
N660 X172.515 I5.61 J0.
N665 X157.485 I-7.515 J0.
N670 X176.325 I9.42 J0.
N675 X153.675 I-11.325 J0.
N680 X176.325 I11.325 J0.
N685 X175.934 Y-569.1 I-0.378 J0.
N690 G1 X165. Y-568.722
N695 Z-21.833
N700 X165.105
N705 G2 X168.705 I1.8 J0.
N710 X161.295 I-3.705 J0.
N715 X172.515 I5.61 J0.
N720 X157.485 I-7.515 J0.
N725 X176.325 I9.42 J0.
N730 X153.675 I-11.325 J0.
N735 X176.325 I11.325 J0.
N740 X175.934 Y-569.1 I-0.378 J0.
N745 G1 X165. Y-568.722
N750 Z-26.2
N755 X165.105
N760 G2 X168.705 I1.8 J0.
N765 X161.295 I-3.705 J0.
N770 X172.515 I5.61 J0.
N775 X157.485 I-7.515 J0.
N780 X176.325 I9.42 J0.
N785 X153.675 I-11.325 J0.
N790 X176.325 I11.325 J0.
N795 G1 X176.317 Y-568.82 Z-26.184 F200.
N800 X176.294 Y-568.915 Z-26.169
N805 X176.262 Y-568.997 Z-26.124
N810 X176.218 Y-569.074 Z-26.079
N815 X176.176 Y-569.13 Z-26.008
N820 X176.128 Y-569.182 Z-25.938
N825 X176.058 Y-569.239 Z-25.761
N830 X176.033 Y-569.256 Z-25.565
N835 Z15. F1000.
(WHEN USING FUSION 360 FOR PERSONAL USE, THE FEEDRATE OF)
(RAPID MOVES IS REDUCED TO MATCH THE FEEDRATE OF CUTTING)
(MOVES, WHICH CAN INCREASE MACHINING TIME. UNRESTRICTED RAPID)
(MOVES ARE AVAILABLE WITH A FUSION 360 SUBSCRIPTION.)
(BORE1)
N840 G0 X15.47 Y-564.667
N845 G1 Z15. F500.
N850 Z-10.5
N855 Z-11.865 F200.
N860 X15.463 Y-564.663 Z-11.964
N865 X15.442 Y-564.653 Z-12.061
N870 X15.408 Y-564.636 Z-12.153
N875 X15.361 Y-564.613 Z-12.238
N880 X15.304 Y-564.584 Z-12.314
N885 X15.236 Y-564.55 Z-12.379
N890 X15.16 Y-564.512 Z-12.431
N895 X15.077 Y-564.471 Z-12.469
N900 X14.991 Y-564.427 Z-12.492
N905 X14.902 Y-564.383 Z-12.5
N910 X14.618 Y-564.241
N915 G2 X14.334 Y-563.389 I0.284 J0.568
N920 X35.666 Y-574.055 Z-13.291 I10.666 J-5.333 F500.
N925 X14.334 Y-563.389 Z-14.083 I-10.666 J5.333
N930 X35.666 Y-574.055 Z-14.874 I10.666 J-5.333
N935 X14.334 Y-563.389 Z-15.665 I-10.666 J5.333
N940 X35.666 Y-574.055 Z-16.457 I10.666 J-5.333
N945 X14.334 Y-563.389 Z-17.248 I-10.666 J5.333
N950 X35.666 Y-574.055 Z-18.04 I10.666 J-5.333
N955 X14.334 Y-563.389 Z-18.831 I-10.666 J5.333
N960 X35.666 Y-574.055 Z-19.622 I10.666 J-5.333
N965 X14.334 Y-563.389 Z-20.414 I-10.666 J5.333
N970 X35.666 Y-574.055 Z-21.205 I10.666 J-5.333
N975 X14.334 Y-563.389 Z-21.996 I-10.666 J5.333
N980 X35.666 Y-574.055 Z-22.788 I10.666 J-5.333
N985 X14.334 Y-563.389 Z-23.579 I-10.666 J5.333
N990 X35.666 Y-574.055 Z-24.37 I10.666 J-5.333
N995 X14.334 Y-563.389 Z-25.162 I-10.666 J5.333
N1000 X35.666 Y-574.055 Z-25.953 I10.666 J-5.333
N1005 X26.509 Y-580.551 Z-26.2 I-10.666 J5.333
N1010 X23.491 Y-556.893 I-1.509 J11.829
N1015 X26.509 Y-580.551 I1.509 J-11.829
N1020 X25.799 Y-580.002 I-0.08 J0.63 F200.
N1025 G1 X25.759 Y-579.687
N1030 X25.746 Y-579.588 Z-26.192
N1035 X25.734 Y-579.492 Z-26.169
N1040 X25.722 Y-579.401 Z-26.131
N1045 X25.711 Y-579.316 Z-26.079
N1050 X25.702 Y-579.241 Z-26.014
N1055 X25.694 Y-579.177 Z-25.938
N1060 X25.687 Y-579.125 Z-25.853
N1065 X25.682 Y-579.087 Z-25.761
N1070 X25.679 Y-579.064 Z-25.664
N1075 X25.678 Y-579.057 Z-25.565
N1080 Z5. F500.
N1085 X174.53 Y-572.777
N1090 Z-10.5
N1095 Z-11.865 F200.
N1100 X174.537 Y-572.781 Z-11.964
N1105 X174.558 Y-572.791 Z-12.061
N1110 X174.592 Y-572.808 Z-12.153
N1115 X174.639 Y-572.831 Z-12.238
N1120 X174.696 Y-572.86 Z-12.314
N1125 X174.764 Y-572.894 Z-12.379
N1130 X174.84 Y-572.932 Z-12.431
N1135 X174.923 Y-572.973 Z-12.469
N1140 X175.009 Y-573.017 Z-12.492
N1145 X175.098 Y-573.061 Z-12.5
N1150 X175.382 Y-573.203
N1155 G2 X175.666 Y-574.055 I-0.284 J-0.568
N1160 X154.334 Y-563.389 Z-13.291 I-10.666 J5.333 F500.
N1165 X175.666 Y-574.055 Z-14.083 I10.666 J-5.333
N1170 X154.334 Y-563.389 Z-14.874 I-10.666 J5.333
N1175 X175.666 Y-574.055 Z-15.665 I10.666 J-5.333
N1180 X154.334 Y-563.389 Z-16.457 I-10.666 J5.333
N1185 X175.666 Y-574.055 Z-17.248 I10.666 J-5.333
N1190 X154.334 Y-563.389 Z-18.04 I-10.666 J5.333
N1195 X175.666 Y-574.055 Z-18.831 I10.666 J-5.333
N1200 X154.334 Y-563.389 Z-19.622 I-10.666 J5.333
N1205 X175.666 Y-574.055 Z-20.414 I10.666 J-5.333
N1210 X154.334 Y-563.389 Z-21.205 I-10.666 J5.333
N1215 X175.666 Y-574.055 Z-21.996 I10.666 J-5.333
N1220 X154.334 Y-563.389 Z-22.788 I-10.666 J5.333
N1225 X175.666 Y-574.055 Z-23.579 I10.666 J-5.333
N1230 X154.334 Y-563.389 Z-24.37 I-10.666 J5.333
N1235 X175.666 Y-574.055 Z-25.162 I10.666 J-5.333
N1240 X154.334 Y-563.389 Z-25.953 I-10.666 J5.333
N1245 X163.491 Y-556.893 Z-26.2 I10.666 J-5.333
N1250 X166.509 Y-580.551 I1.509 J-11.829
N1255 X163.491 Y-556.893 I-1.509 J11.829
N1260 X164.201 Y-557.442 I0.08 J-0.63 F200.
N1265 G1 X164.241 Y-557.757
N1270 X164.254 Y-557.856 Z-26.192
N1275 X164.266 Y-557.952 Z-26.169
N1280 X164.278 Y-558.043 Z-26.131
N1285 X164.289 Y-558.128 Z-26.079
N1290 X164.298 Y-558.203 Z-26.014
N1295 X164.306 Y-558.267 Z-25.938
N1300 X164.313 Y-558.318 Z-25.853
N1305 X164.318 Y-558.356 Z-25.761
N1310 X164.321 Y-558.379 Z-25.664
N1315 X164.322 Y-558.387 Z-25.565
N1320 Z15. F500.
(WHEN USING FUSION 360 FOR PERSONAL USE, THE FEEDRATE OF)
(RAPID MOVES IS REDUCED TO MATCH THE FEEDRATE OF CUTTING)
(MOVES, WHICH CAN INCREASE MACHINING TIME. UNRESTRICTED RAPID)
(MOVES ARE AVAILABLE WITH A FUSION 360 SUBSCRIPTION.)
(2D CONTOUR3)
N1325 G0 X76.411 Y5.001
N1330 G1 Z15. F1000.
N1335 Z5.
N1340 Z-4.365 F200.
N1345 Y4.993 Z-4.464
N1350 X76.409 Y4.97 Z-4.561
N1355 X76.406 Y4.932 Z-4.653
N1360 X76.402 Y4.88 Z-4.738
N1365 X76.397 Y4.815 Z-4.814
N1370 X76.391 Y4.74 Z-4.879
N1375 X76.384 Y4.655 Z-4.931
N1380 X76.377 Y4.563 Z-4.969
N1385 X76.37 Y4.467 Z-4.992
N1390 X76.362 Y4.368 Z-5.
N1395 X76.313 Y3.735
N1400 G2 X75.631 Y3.151 I-0.633 J0.049
N1405 G3 X66.825 Y-5. I-0.631 J-8.151 F1000.
N1410 G1 Y-636.91
N1415 G3 X80. Y-650.085 I13.175 J0.
N1420 G1 X110.
N1425 G3 X123.175 Y-636.91 I0. J13.175
N1430 G1 Y-21.91
N1435 G3 X121.42 Y-19.07 I-3.175 J0.
N1440 G1 X78.656 Y2.312
N1445 G3 X75.631 Y3.151 I-3.656 J-7.312
N1450 G2 X75.047 Y3.833 I0.049 J0.633 F200.
N1455 G1 X75.096 Y4.466
N1460 X75.104 Y4.565 Z-4.992
N1465 X75.111 Y4.661 Z-4.969
N1470 X75.118 Y4.753 Z-4.931
N1475 X75.125 Y4.838 Z-4.879
N1480 X75.131 Y4.914 Z-4.814
N1485 X75.136 Y4.978 Z-4.738
N1490 X75.14 Y5.03 Z-4.653
N1495 X75.143 Y5.068 Z-4.561
N1500 X75.144 Y5.091 Z-4.464
N1505 X75.145 Y5.099 Z-4.365
N1510 Z5. F1000.
N1515 X76.411 Y5.001
N1520 Z0. F200.
N1525 Z-9.365
N1530 Y4.993 Z-9.464
N1535 X76.409 Y4.97 Z-9.561
N1540 X76.406 Y4.932 Z-9.653
N1545 X76.402 Y4.88 Z-9.738
N1550 X76.397 Y4.815 Z-9.814
N1555 X76.391 Y4.74 Z-9.879
N1560 X76.384 Y4.655 Z-9.931
N1565 X76.377 Y4.563 Z-9.969
N1570 X76.37 Y4.467 Z-9.992
N1575 X76.362 Y4.368 Z-10.
N1580 X76.313 Y3.735
N1585 G2 X75.631 Y3.151 I-0.633 J0.049
N1590 G3 X66.825 Y-5. I-0.631 J-8.151 F1000.
N1595 G1 Y-636.91
N1600 G3 X80. Y-650.085 I13.175 J0.
N1605 G1 X110.
N1610 G3 X123.175 Y-636.91 I0. J13.175
N1615 G1 Y-21.91
N1620 G3 X121.42 Y-19.07 I-3.175 J0.
N1625 G1 X78.656 Y2.312
N1630 G3 X75.631 Y3.151 I-3.656 J-7.312
N1635 G2 X75.047 Y3.833 I0.049 J0.633 F200.
N1640 G1 X75.096 Y4.466
N1645 X75.104 Y4.565 Z-9.992
N1650 X75.111 Y4.661 Z-9.969
N1655 X75.118 Y4.753 Z-9.931
N1660 X75.125 Y4.838 Z-9.879
N1665 X75.131 Y4.914 Z-9.814
N1670 X75.136 Y4.978 Z-9.738
N1675 X75.14 Y5.03 Z-9.653
N1680 X75.143 Y5.068 Z-9.561
N1685 X75.144 Y5.091 Z-9.464
N1690 X75.145 Y5.099 Z-9.365
N1695 Z5. F1000.
N1700 X76.411 Y5.001
N1705 Z-5. F200.
N1710 Z-14.365
N1715 Y4.993 Z-14.464
N1720 X76.409 Y4.97 Z-14.561
N1725 X76.406 Y4.932 Z-14.653
N1730 X76.402 Y4.88 Z-14.738
N1735 X76.397 Y4.815 Z-14.814
N1740 X76.391 Y4.74 Z-14.879
N1745 X76.384 Y4.655 Z-14.931
N1750 X76.377 Y4.563 Z-14.969
N1755 X76.37 Y4.467 Z-14.992
N1760 X76.362 Y4.368 Z-15.
N1765 X76.313 Y3.735
N1770 G2 X75.631 Y3.151 I-0.633 J0.049
N1775 G3 X66.825 Y-5. I-0.631 J-8.151 F1000.
N1780 G1 Y-636.91
N1785 G3 X80. Y-650.085 I13.175 J0.
N1790 G1 X110.
N1795 G3 X123.175 Y-636.91 I0. J13.175
N1800 G1 Y-21.91
N1805 G3 X121.42 Y-19.07 I-3.175 J0.
N1810 G1 X78.656 Y2.312
N1815 G3 X75.631 Y3.151 I-3.656 J-7.312
N1820 G2 X75.047 Y3.833 I0.049 J0.633 F200.
N1825 G1 X75.096 Y4.466
N1830 X75.104 Y4.565 Z-14.992
N1835 X75.111 Y4.661 Z-14.969
N1840 X75.118 Y4.753 Z-14.931
N1845 X75.125 Y4.838 Z-14.879
N1850 X75.131 Y4.914 Z-14.814
N1855 X75.136 Y4.978 Z-14.738
N1860 X75.14 Y5.03 Z-14.653
N1865 X75.143 Y5.068 Z-14.561
N1870 X75.144 Y5.091 Z-14.464
N1875 X75.145 Y5.099 Z-14.365
N1880 Z5. F1000.
N1885 X76.411 Y5.001
N1890 Z-10. F200.
N1895 Z-19.365
N1900 Y4.993 Z-19.464
N1905 X76.409 Y4.97 Z-19.561
N1910 X76.406 Y4.932 Z-19.653
N1915 X76.402 Y4.88 Z-19.738
N1920 X76.397 Y4.815 Z-19.814
N1925 X76.391 Y4.74 Z-19.879
N1930 X76.384 Y4.655 Z-19.931
N1935 X76.377 Y4.563 Z-19.969
N1940 X76.37 Y4.467 Z-19.992
N1945 X76.362 Y4.368 Z-20.
N1950 X76.313 Y3.735
N1955 G2 X75.631 Y3.151 I-0.633 J0.049
N1960 G3 X66.825 Y-5. I-0.631 J-8.151 F1000.
N1965 G1 Y-636.91
N1970 G3 X80. Y-650.085 I13.175 J0.
N1975 G1 X110.
N1980 G3 X123.175 Y-636.91 I0. J13.175
N1985 G1 Y-21.91
N1990 G3 X121.42 Y-19.07 I-3.175 J0.
N1995 G1 X78.656 Y2.312
N2000 G3 X75.631 Y3.151 I-3.656 J-7.312
N2005 G2 X75.047 Y3.833 I0.049 J0.633 F200.
N2010 G1 X75.096 Y4.466
N2015 X75.104 Y4.565 Z-19.992
N2020 X75.111 Y4.661 Z-19.969
N2025 X75.118 Y4.753 Z-19.931
N2030 X75.125 Y4.838 Z-19.879
N2035 X75.131 Y4.914 Z-19.814
N2040 X75.136 Y4.978 Z-19.738
N2045 X75.14 Y5.03 Z-19.653
N2050 X75.143 Y5.068 Z-19.561
N2055 X75.144 Y5.091 Z-19.464
N2060 X75.145 Y5.099 Z-19.365
N2065 Z5. F1000.
N2070 X76.411 Y5.001
N2075 Z-15. F200.
N2080 Z-22.465
N2085 Y4.993 Z-22.564
N2090 X76.409 Y4.97 Z-22.661
N2095 X76.406 Y4.932 Z-22.753
N2100 X76.402 Y4.88 Z-22.838
N2105 X76.397 Y4.815 Z-22.914
N2110 X76.391 Y4.74 Z-22.979
N2115 X76.384 Y4.655 Z-23.031
N2120 X76.377 Y4.563 Z-23.069
N2125 X76.37 Y4.467 Z-23.092
N2130 X76.362 Y4.368 Z-23.1
N2135 X76.313 Y3.735
N2140 G2 X75.631 Y3.151 I-0.633 J0.049
N2145 G3 X66.825 Y-5. I-0.631 J-8.151 F1000.
N2150 G1 Y-636.91
N2155 G3 X80. Y-650.085 I13.175 J0.
N2160 G1 X110.
N2165 G3 X123.175 Y-636.91 I0. J13.175
N2170 G1 Y-21.91
N2175 G3 X121.42 Y-19.07 I-3.175 J0.
N2180 G1 X78.656 Y2.312
N2185 G3 X75.631 Y3.151 I-3.656 J-7.312
N2190 G2 X75.047 Y3.833 I0.049 J0.633 F200.
N2195 G1 X75.096 Y4.466
N2200 X75.104 Y4.565 Z-23.092
N2205 X75.111 Y4.661 Z-23.069
N2210 X75.118 Y4.753 Z-23.031
N2215 X75.125 Y4.838 Z-22.979
N2220 X75.131 Y4.914 Z-22.914
N2225 X75.136 Y4.978 Z-22.838
N2230 X75.14 Y5.03 Z-22.753
N2235 X75.143 Y5.068 Z-22.661
N2240 X75.144 Y5.091 Z-22.564
N2245 X75.145 Y5.099 Z-22.465
N2250 Z5. F1000.
N2255 X76.411 Y5.001
N2260 Z-18.1 F200.
N2265 Z-25.565
N2270 Y4.993 Z-25.664
N2275 X76.409 Y4.97 Z-25.761
N2280 X76.406 Y4.932 Z-25.853
N2285 X76.402 Y4.88 Z-25.938
N2290 X76.397 Y4.815 Z-26.014
N2295 X76.391 Y4.74 Z-26.079
N2300 X76.384 Y4.655 Z-26.131
N2305 X76.377 Y4.563 Z-26.169
N2310 X76.37 Y4.467 Z-26.192
N2315 X76.362 Y4.368 Z-26.2
N2320 X76.313 Y3.735
N2325 G2 X75.631 Y3.151 I-0.633 J0.049
N2330 G3 X66.825 Y-5. I-0.631 J-8.151 F1000.
N2335 G1 Y-636.91
N2340 G3 X80. Y-650.085 I13.175 J0.
N2345 G1 X110.
N2350 G3 X123.175 Y-636.91 I0. J13.175
N2355 G1 Y-21.91
N2360 G3 X121.42 Y-19.07 I-3.175 J0.
N2365 G1 X78.656 Y2.312
N2370 G3 X75.631 Y3.151 I-3.656 J-7.312
N2375 G2 X75.047 Y3.833 I0.049 J0.633 F200.
N2380 G1 X75.096 Y4.466
N2385 X75.104 Y4.565 Z-26.192
N2390 X75.111 Y4.661 Z-26.169
N2395 X75.118 Y4.753 Z-26.131
N2400 X75.125 Y4.838 Z-26.079
N2405 X75.131 Y4.914 Z-26.014
N2410 X75.136 Y4.978 Z-25.938
N2415 X75.14 Y5.03 Z-25.853
N2420 X75.143 Y5.068 Z-25.761
N2425 X75.144 Y5.091 Z-25.664
N2430 X75.145 Y5.099 Z-25.565
N2435 Z5. F1000.
N2440 X-5.08 Y-4.66
N2445 Z-4.365 F200.
N2450 G18 G2 X-4.445 Z-5. I0.635 K0.
N2455 G1 X-3.81
N2460 G17 G2 X-3.175 Y-5.295 I0. J-0.635
N2465 G1 Y-637.205 F1000.
N2470 G3 X10. Y-650.38 I13.175 J0.
N2475 G1 X40.
N2480 G3 X53.175 Y-637.205 I0. J13.175
N2485 G1 Y-22.205
N2490 G3 X51.42 Y-19.365 I-3.175 J0.
N2495 G1 X8.656 Y2.017
N2500 G3 X-3.175 Y-5.295 I-3.656 J-7.312
N2505 G2 X-3.81 Y-5.93 I-0.635 J0. F200.
N2510 G1 X-4.445
N2515 G18 G3 X-5.08 Z-4.365 I0. K0.635
N2520 G1 Z5. F1000.
N2525 Y-4.66
N2530 Z0. F200.
N2535 Z-9.365
N2540 G2 X-4.445 Z-10. I0.635 K0.
N2545 G1 X-3.81
N2550 G17 G2 X-3.175 Y-5.295 I0. J-0.635
N2555 G1 Y-637.205 F1000.
N2560 G3 X10. Y-650.38 I13.175 J0.
N2565 G1 X40.
N2570 G3 X53.175 Y-637.205 I0. J13.175
N2575 G1 Y-22.205
N2580 G3 X51.42 Y-19.365 I-3.175 J0.
N2585 G1 X8.656 Y2.017
N2590 G3 X-3.175 Y-5.295 I-3.656 J-7.312
N2595 G2 X-3.81 Y-5.93 I-0.635 J0. F200.
N2600 G1 X-4.445
N2605 G18 G3 X-5.08 Z-9.365 I0. K0.635
N2610 G1 Z5. F1000.
N2615 Y-4.66
N2620 Z-5. F200.
N2625 Z-14.365
N2630 G2 X-4.445 Z-15. I0.635 K0.
N2635 G1 X-3.81
N2640 G17 G2 X-3.175 Y-5.295 I0. J-0.635
N2645 G1 Y-637.205 F1000.
N2650 G3 X10. Y-650.38 I13.175 J0.
N2655 G1 X40.
N2660 G3 X53.175 Y-637.205 I0. J13.175
N2665 G1 Y-22.205
N2670 G3 X51.42 Y-19.365 I-3.175 J0.
N2675 G1 X8.656 Y2.017
N2680 G3 X-3.175 Y-5.295 I-3.656 J-7.312
N2685 G2 X-3.81 Y-5.93 I-0.635 J0. F200.
N2690 G1 X-4.445
N2695 G18 G3 X-5.08 Z-14.365 I0. K0.635
N2700 G1 Z5. F1000.
N2705 Y-4.66
N2710 Z-10. F200.
N2715 Z-19.365
N2720 G2 X-4.445 Z-20. I0.635 K0.
N2725 G1 X-3.81
N2730 G17 G2 X-3.175 Y-5.295 I0. J-0.635
N2735 G1 Y-637.205 F1000.
N2740 G3 X10. Y-650.38 I13.175 J0.
N2745 G1 X40.
N2750 G3 X53.175 Y-637.205 I0. J13.175
N2755 G1 Y-22.205
N2760 G3 X51.42 Y-19.365 I-3.175 J0.
N2765 G1 X8.656 Y2.017
N2770 G3 X-3.175 Y-5.295 I-3.656 J-7.312
N2775 G2 X-3.81 Y-5.93 I-0.635 J0. F200.
N2780 G1 X-4.445
N2785 G18 G3 X-5.08 Z-19.365 I0. K0.635
N2790 G1 Z5. F1000.
N2795 Y-4.66
N2800 Z-15. F200.
N2805 Z-22.465
N2810 G2 X-4.445 Z-23.1 I0.635 K0.
N2815 G1 X-3.81
N2820 G17 G2 X-3.175 Y-5.295 I0. J-0.635
N2825 G1 Y-637.205 F1000.
N2830 G3 X10. Y-650.38 I13.175 J0.
N2835 G1 X40.
N2840 G3 X53.175 Y-637.205 I0. J13.175
N2845 G1 Y-22.205
N2850 G3 X51.42 Y-19.365 I-3.175 J0.
N2855 G1 X8.656 Y2.017
N2860 G3 X-3.175 Y-5.295 I-3.656 J-7.312
N2865 G2 X-3.81 Y-5.93 I-0.635 J0. F200.
N2870 G1 X-4.445
N2875 G18 G3 X-5.08 Z-22.465 I0. K0.635
N2880 G1 Z5. F1000.
N2885 Y-4.66
N2890 Z-18.1 F200.
N2895 Z-25.565
N2900 G2 X-4.445 Z-26.2 I0.635 K0.
N2905 G1 X-3.81
N2910 G17 G2 X-3.175 Y-5.295 I0. J-0.635
N2915 G1 Y-637.205 F1000.
N2920 G3 X10. Y-650.38 I13.175 J0.
N2925 G1 X40.
N2930 G3 X53.175 Y-637.205 I0. J13.175
N2935 G1 Y-22.205
N2940 G3 X51.42 Y-19.365 I-3.175 J0.
N2945 G1 X8.656 Y2.017
N2950 G3 X-3.175 Y-5.295 I-3.656 J-7.312
N2955 G2 X-3.81 Y-5.93 I-0.635 J0. F200.
N2960 G1 X-4.445
N2965 G18 G3 X-5.08 Z-25.565 I0. K0.635
N2970 G1 Z5. F1000.
N2975 X145.327 Y4.8
N2980 Z-4.365 F200.
N2985 Y4.792 Z-4.464
N2990 X145.328 Y4.769 Z-4.561
N2995 X145.329 Y4.73 Z-4.653
N3000 X145.331 Y4.678 Z-4.738
N3005 X145.333 Y4.614 Z-4.814
N3010 X145.335 Y4.538 Z-4.879
N3015 X145.338 Y4.453 Z-4.931
N3020 X145.341 Y4.361 Z-4.969
N3025 X145.343 Y4.264 Z-4.992
N3030 X145.346 Y4.165 Z-5.
N3035 X145.366 Y3.53
N3040 G17 G2 X144.751 Y2.876 I-0.635 J-0.019
N3045 G3 X136.825 Y-5.295 I0.249 J-8.171 F1000.
N3050 G1 Y-636.91
N3055 Y-637.205
N3060 G3 X150. Y-650.38 I13.175 J0.
N3065 G1 X180.
N3070 G3 X193.175 Y-637.205 I0. J13.175
N3075 G1 Y-22.205
N3080 G3 X191.42 Y-19.365 I-3.175 J0.
N3085 G1 X148.656 Y2.017
N3090 G3 X144.751 Y2.876 I-3.656 J-7.312
N3095 G2 X144.096 Y3.491 I-0.019 J0.635 F200.
N3100 G1 X144.077 Y4.126
N3105 X144.074 Y4.225 Z-4.992
N3110 X144.071 Y4.322 Z-4.969
N3115 X144.068 Y4.414 Z-4.931
N3120 X144.066 Y4.499 Z-4.879
N3125 X144.063 Y4.575 Z-4.814
N3130 X144.061 Y4.64 Z-4.738
N3135 X144.06 Y4.692 Z-4.653
N3140 X144.059 Y4.73 Z-4.561
N3145 X144.058 Y4.753 Z-4.464
N3150 Y4.761 Z-4.365
N3155 Z5. F1000.
N3160 X145.327 Y4.8
N3165 Z0. F200.
N3170 Z-9.365
N3175 Y4.792 Z-9.464
N3180 X145.328 Y4.769 Z-9.561
N3185 X145.329 Y4.73 Z-9.653
N3190 X145.331 Y4.678 Z-9.738
N3195 X145.333 Y4.614 Z-9.814
N3200 X145.335 Y4.538 Z-9.879
N3205 X145.338 Y4.453 Z-9.931
N3210 X145.341 Y4.361 Z-9.969
N3215 X145.343 Y4.264 Z-9.992
N3220 X145.346 Y4.165 Z-10.
N3225 X145.366 Y3.53
N3230 G2 X144.751 Y2.876 I-0.635 J-0.019
N3235 G3 X136.825 Y-5.295 I0.249 J-8.171 F1000.
N3240 G1 Y-636.91
N3245 Y-637.205
N3250 G3 X150. Y-650.38 I13.175 J0.
N3255 G1 X180.
N3260 G3 X193.175 Y-637.205 I0. J13.175
N3265 G1 Y-22.205
N3270 G3 X191.42 Y-19.365 I-3.175 J0.
N3275 G1 X148.656 Y2.017
N3280 G3 X144.751 Y2.876 I-3.656 J-7.312
N3285 G2 X144.096 Y3.491 I-0.019 J0.635 F200.
N3290 G1 X144.077 Y4.126
N3295 X144.074 Y4.225 Z-9.992
N3300 X144.071 Y4.322 Z-9.969
N3305 X144.068 Y4.414 Z-9.931
N3310 X144.066 Y4.499 Z-9.879
N3315 X144.063 Y4.575 Z-9.814
N3320 X144.061 Y4.64 Z-9.738
N3325 X144.06 Y4.692 Z-9.653
N3330 X144.059 Y4.73 Z-9.561
N3335 X144.058 Y4.753 Z-9.464
N3340 Y4.761 Z-9.365
N3345 Z5. F1000.
N3350 X145.327 Y4.8
N3355 Z-5. F200.
N3360 Z-14.365
N3365 Y4.792 Z-14.464
N3370 X145.328 Y4.769 Z-14.561
N3375 X145.329 Y4.73 Z-14.653
N3380 X145.331 Y4.678 Z-14.738
N3385 X145.333 Y4.614 Z-14.814
N3390 X145.335 Y4.538 Z-14.879
N3395 X145.338 Y4.453 Z-14.931
N3400 X145.341 Y4.361 Z-14.969
N3405 X145.343 Y4.264 Z-14.992
N3410 X145.346 Y4.165 Z-15.
N3415 X145.366 Y3.53
N3420 G2 X144.751 Y2.876 I-0.635 J-0.019
N3425 G3 X136.825 Y-5.295 I0.249 J-8.171 F1000.
N3430 G1 Y-636.91
N3435 Y-637.205
N3440 G3 X150. Y-650.38 I13.175 J0.
N3445 G1 X180.
N3450 G3 X193.175 Y-637.205 I0. J13.175
N3455 G1 Y-22.205
N3460 G3 X191.42 Y-19.365 I-3.175 J0.
N3465 G1 X148.656 Y2.017
N3470 G3 X144.751 Y2.876 I-3.656 J-7.312
N3475 G2 X144.096 Y3.491 I-0.019 J0.635 F200.
N3480 G1 X144.077 Y4.126
N3485 X144.074 Y4.225 Z-14.992
N3490 X144.071 Y4.322 Z-14.969
N3495 X144.068 Y4.414 Z-14.931
N3500 X144.066 Y4.499 Z-14.879
N3505 X144.063 Y4.575 Z-14.814
N3510 X144.061 Y4.64 Z-14.738
N3515 X144.06 Y4.692 Z-14.653
N3520 X144.059 Y4.73 Z-14.561
N3525 X144.058 Y4.753 Z-14.464
N3530 Y4.761 Z-14.365
N3535 Z5. F1000.
N3540 X145.327 Y4.8
N3545 Z-10. F200.
N3550 Z-19.365
N3555 Y4.792 Z-19.464
N3560 X145.328 Y4.769 Z-19.561
N3565 X145.329 Y4.73 Z-19.653
N3570 X145.331 Y4.678 Z-19.738
N3575 X145.333 Y4.614 Z-19.814
N3580 X145.335 Y4.538 Z-19.879
N3585 X145.338 Y4.453 Z-19.931
N3590 X145.341 Y4.361 Z-19.969
N3595 X145.343 Y4.264 Z-19.992
N3600 X145.346 Y4.165 Z-20.
N3605 X145.366 Y3.53
N3610 G2 X144.751 Y2.876 I-0.635 J-0.019
N3615 G3 X136.825 Y-5.295 I0.249 J-8.171 F1000.
N3620 G1 Y-636.91
N3625 Y-637.205
N3630 G3 X150. Y-650.38 I13.175 J0.
N3635 G1 X180.
N3640 G3 X193.175 Y-637.205 I0. J13.175
N3645 G1 Y-22.205
N3650 G3 X191.42 Y-19.365 I-3.175 J0.
N3655 G1 X148.656 Y2.017
N3660 G3 X144.751 Y2.876 I-3.656 J-7.312
N3665 G2 X144.096 Y3.491 I-0.019 J0.635 F200.
N3670 G1 X144.077 Y4.126
N3675 X144.074 Y4.225 Z-19.992
N3680 X144.071 Y4.322 Z-19.969
N3685 X144.068 Y4.414 Z-19.931
N3690 X144.066 Y4.499 Z-19.879
N3695 X144.063 Y4.575 Z-19.814
N3700 X144.061 Y4.64 Z-19.738
N3705 X144.06 Y4.692 Z-19.653
N3710 X144.059 Y4.73 Z-19.561
N3715 X144.058 Y4.753 Z-19.464
N3720 Y4.761 Z-19.365
N3725 Z5. F1000.
N3730 X145.327 Y4.8
N3735 Z-15. F200.
N3740 Z-22.465
N3745 Y4.792 Z-22.564
N3750 X145.328 Y4.769 Z-22.661
N3755 X145.329 Y4.73 Z-22.753
N3760 X145.331 Y4.678 Z-22.838
N3765 X145.333 Y4.614 Z-22.914
N3770 X145.335 Y4.538 Z-22.979
N3775 X145.338 Y4.453 Z-23.031
N3780 X145.341 Y4.361 Z-23.069
N3785 X145.343 Y4.264 Z-23.092
N3790 X145.346 Y4.165 Z-23.1
N3795 X145.366 Y3.53
N3800 G2 X144.751 Y2.876 I-0.635 J-0.019
N3805 G3 X136.825 Y-5.295 I0.249 J-8.171 F1000.
N3810 G1 Y-636.91
N3815 Y-637.205
N3820 G3 X150. Y-650.38 I13.175 J0.
N3825 G1 X180.
N3830 G3 X193.175 Y-637.205 I0. J13.175
N3835 G1 Y-22.205
N3840 G3 X191.42 Y-19.365 I-3.175 J0.
N3845 G1 X148.656 Y2.017
N3850 G3 X144.751 Y2.876 I-3.656 J-7.312
N3855 G2 X144.096 Y3.491 I-0.019 J0.635 F200.
N3860 G1 X144.077 Y4.126
N3865 X144.074 Y4.225 Z-23.092
N3870 X144.071 Y4.322 Z-23.069
N3875 X144.068 Y4.414 Z-23.031
N3880 X144.066 Y4.499 Z-22.979
N3885 X144.063 Y4.575 Z-22.914
N3890 X144.061 Y4.64 Z-22.838
N3895 X144.06 Y4.692 Z-22.753
N3900 X144.059 Y4.73 Z-22.661
N3905 X144.058 Y4.753 Z-22.564
N3910 Y4.761 Z-22.465
N3915 Z5. F1000.
N3920 X145.327 Y4.8
N3925 Z-18.1 F200.
N3930 Z-25.565
N3935 Y4.792 Z-25.664
N3940 X145.328 Y4.769 Z-25.761
N3945 X145.329 Y4.73 Z-25.853
N3950 X145.331 Y4.678 Z-25.938
N3955 X145.333 Y4.614 Z-26.014
N3960 X145.335 Y4.538 Z-26.079
N3965 X145.338 Y4.453 Z-26.131
N3970 X145.341 Y4.361 Z-26.169
N3975 X145.343 Y4.264 Z-26.192
N3980 X145.346 Y4.165 Z-26.2
N3985 X145.366 Y3.53
N3990 G2 X144.751 Y2.876 I-0.635 J-0.019
N3995 G3 X136.825 Y-5.295 I0.249 J-8.171 F1000.
N4000 G1 Y-636.91
N4005 Y-637.205
N4010 G3 X150. Y-650.38 I13.175 J0.
N4015 G1 X180.
N4020 G3 X193.175 Y-637.205 I0. J13.175
N4025 G1 Y-22.205
N4030 G3 X191.42 Y-19.365 I-3.175 J0.
N4035 G1 X148.656 Y2.017
N4040 G3 X144.751 Y2.876 I-3.656 J-7.312
N4045 G2 X144.096 Y3.491 I-0.019 J0.635 F200.
N4050 G1 X144.077 Y4.126
N4055 X144.074 Y4.225 Z-26.192
N4060 X144.071 Y4.322 Z-26.169
N4065 X144.068 Y4.414 Z-26.131
N4070 X144.066 Y4.499 Z-26.079
N4075 X144.063 Y4.575 Z-26.014
N4080 X144.061 Y4.64 Z-25.938
N4085 X144.06 Y4.692 Z-25.853
N4090 X144.059 Y4.73 Z-25.761
N4095 X144.058 Y4.753 Z-25.664
N4100 Y4.761 Z-25.565
N4105 Z5. F1000.
N4110 X214.824 Y5.098
N4115 Z-4.365 F200.
N4120 Y5.091 Z-4.464
N4125 X214.826 Y5.067 Z-4.561
N4130 X214.829 Y5.029 Z-4.653
N4135 X214.834 Y4.978 Z-4.738
N4140 X214.839 Y4.913 Z-4.814
N4145 X214.845 Y4.838 Z-4.879
N4150 X214.852 Y4.753 Z-4.931
N4155 X214.859 Y4.661 Z-4.969
N4160 X214.867 Y4.564 Z-4.992
N4165 X214.875 Y4.465 Z-5.
N4170 X214.926 Y3.833
N4175 G2 X214.344 Y3.149 I-0.633 J-0.051
N4180 G3 X206.825 Y-5. I0.656 J-8.149 F1000.
N4185 G1 Y-636.91
N4190 G3 X220. Y-650.085 I13.175 J0.
N4195 G1 X250.
N4200 G3 X263.175 Y-636.91 I0. J13.175
N4205 G1 Y-21.91
N4210 G3 X261.42 Y-19.07 I-3.175 J0.
N4215 G1 X218.656 Y2.312
N4220 G3 X214.344 Y3.149 I-3.656 J-7.312
N4225 G2 X213.66 Y3.731 I-0.051 J0.633 F200.
N4230 G1 X213.609 Y4.364
N4235 X213.601 Y4.463 Z-4.992
N4240 X213.593 Y4.559 Z-4.969
N4245 X213.586 Y4.651 Z-4.931
N4250 X213.579 Y4.736 Z-4.879
N4255 X213.573 Y4.811 Z-4.814
N4260 X213.568 Y4.876 Z-4.738
N4265 X213.563 Y4.927 Z-4.653
N4270 X213.56 Y4.965 Z-4.561
N4275 X213.559 Y4.989 Z-4.464
N4280 X213.558 Y4.996 Z-4.365
N4285 Z5. F1000.
N4290 X214.824 Y5.098
N4295 Z0. F200.
N4300 Z-9.365
N4305 Y5.091 Z-9.464
N4310 X214.826 Y5.067 Z-9.561
N4315 X214.829 Y5.029 Z-9.653
N4320 X214.834 Y4.978 Z-9.738
N4325 X214.839 Y4.913 Z-9.814
N4330 X214.845 Y4.838 Z-9.879
N4335 X214.852 Y4.753 Z-9.931
N4340 X214.859 Y4.661 Z-9.969
N4345 X214.867 Y4.564 Z-9.992
N4350 X214.875 Y4.465 Z-10.
N4355 X214.926 Y3.833
N4360 G2 X214.344 Y3.149 I-0.633 J-0.051
N4365 G3 X206.825 Y-5. I0.656 J-8.149 F1000.
N4370 G1 Y-636.91
N4375 G3 X220. Y-650.085 I13.175 J0.
N4380 G1 X250.
N4385 G3 X263.175 Y-636.91 I0. J13.175
N4390 G1 Y-21.91
N4395 G3 X261.42 Y-19.07 I-3.175 J0.
N4400 G1 X218.656 Y2.312
N4405 G3 X214.344 Y3.149 I-3.656 J-7.312
N4410 G2 X213.66 Y3.731 I-0.051 J0.633 F200.
N4415 G1 X213.609 Y4.364
N4420 X213.601 Y4.463 Z-9.992
N4425 X213.593 Y4.559 Z-9.969
N4430 X213.586 Y4.651 Z-9.931
N4435 X213.579 Y4.736 Z-9.879
N4440 X213.573 Y4.811 Z-9.814
N4445 X213.568 Y4.876 Z-9.738
N4450 X213.563 Y4.927 Z-9.653
N4455 X213.56 Y4.965 Z-9.561
N4460 X213.559 Y4.989 Z-9.464
N4465 X213.558 Y4.996 Z-9.365
N4470 Z5. F1000.
N4475 X214.824 Y5.098
N4480 Z-5. F200.
N4485 Z-14.365
N4490 Y5.091 Z-14.464
N4495 X214.826 Y5.067 Z-14.561
N4500 X214.829 Y5.029 Z-14.653
N4505 X214.834 Y4.978 Z-14.738
N4510 X214.839 Y4.913 Z-14.814
N4515 X214.845 Y4.838 Z-14.879
N4520 X214.852 Y4.753 Z-14.931
N4525 X214.859 Y4.661 Z-14.969
N4530 X214.867 Y4.564 Z-14.992
N4535 X214.875 Y4.465 Z-15.
N4540 X214.926 Y3.833
N4545 G2 X214.344 Y3.149 I-0.633 J-0.051
N4550 G3 X206.825 Y-5. I0.656 J-8.149 F1000.
N4555 G1 Y-636.91
N4560 G3 X220. Y-650.085 I13.175 J0.
N4565 G1 X250.
N4570 G3 X263.175 Y-636.91 I0. J13.175
N4575 G1 Y-21.91
N4580 G3 X261.42 Y-19.07 I-3.175 J0.
N4585 G1 X218.656 Y2.312
N4590 G3 X214.344 Y3.149 I-3.656 J-7.312
N4595 G2 X213.66 Y3.731 I-0.051 J0.633 F200.
N4600 G1 X213.609 Y4.364
N4605 X213.601 Y4.463 Z-14.992
N4610 X213.593 Y4.559 Z-14.969
N4615 X213.586 Y4.651 Z-14.931
N4620 X213.579 Y4.736 Z-14.879
N4625 X213.573 Y4.811 Z-14.814
N4630 X213.568 Y4.876 Z-14.738
N4635 X213.563 Y4.927 Z-14.653
N4640 X213.56 Y4.965 Z-14.561
N4645 X213.559 Y4.989 Z-14.464
N4650 X213.558 Y4.996 Z-14.365
N4655 Z5. F1000.
N4660 X214.824 Y5.098
N4665 Z-10. F200.
N4670 Z-19.365
N4675 Y5.091 Z-19.464
N4680 X214.826 Y5.067 Z-19.561
N4685 X214.829 Y5.029 Z-19.653
N4690 X214.834 Y4.978 Z-19.738
N4695 X214.839 Y4.913 Z-19.814
N4700 X214.845 Y4.838 Z-19.879
N4705 X214.852 Y4.753 Z-19.931
N4710 X214.859 Y4.661 Z-19.969
N4715 X214.867 Y4.564 Z-19.992
N4720 X214.875 Y4.465 Z-20.
N4725 X214.926 Y3.833
N4730 G2 X214.344 Y3.149 I-0.633 J-0.051
N4735 G3 X206.825 Y-5. I0.656 J-8.149 F1000.
N4740 G1 Y-636.91
N4745 G3 X220. Y-650.085 I13.175 J0.
N4750 G1 X250.
N4755 G3 X263.175 Y-636.91 I0. J13.175
N4760 G1 Y-21.91
N4765 G3 X261.42 Y-19.07 I-3.175 J0.
N4770 G1 X218.656 Y2.312
N4775 G3 X214.344 Y3.149 I-3.656 J-7.312
N4780 G2 X213.66 Y3.731 I-0.051 J0.633 F200.
N4785 G1 X213.609 Y4.364
N4790 X213.601 Y4.463 Z-19.992
N4795 X213.593 Y4.559 Z-19.969
N4800 X213.586 Y4.651 Z-19.931
N4805 X213.579 Y4.736 Z-19.879
N4810 X213.573 Y4.811 Z-19.814
N4815 X213.568 Y4.876 Z-19.738
N4820 X213.563 Y4.927 Z-19.653
N4825 X213.56 Y4.965 Z-19.561
N4830 X213.559 Y4.989 Z-19.464
N4835 X213.558 Y4.996 Z-19.365
N4840 Z5. F1000.
N4845 X214.824 Y5.098
N4850 Z-15. F200.
N4855 Z-22.465
N4860 Y5.091 Z-22.564
N4865 X214.826 Y5.067 Z-22.661
N4870 X214.829 Y5.029 Z-22.753
N4875 X214.834 Y4.978 Z-22.838
N4880 X214.839 Y4.913 Z-22.914
N4885 X214.845 Y4.838 Z-22.979
N4890 X214.852 Y4.753 Z-23.031
N4895 X214.859 Y4.661 Z-23.069
N4900 X214.867 Y4.564 Z-23.092
N4905 X214.875 Y4.465 Z-23.1
N4910 X214.926 Y3.833
N4915 G2 X214.344 Y3.149 I-0.633 J-0.051
N4920 G3 X206.825 Y-5. I0.656 J-8.149 F1000.
N4925 G1 Y-636.91
N4930 G3 X220. Y-650.085 I13.175 J0.
N4935 G1 X250.
N4940 G3 X263.175 Y-636.91 I0. J13.175
N4945 G1 Y-21.91
N4950 G3 X261.42 Y-19.07 I-3.175 J0.
N4955 G1 X218.656 Y2.312
N4960 G3 X214.344 Y3.149 I-3.656 J-7.312
N4965 G2 X213.66 Y3.731 I-0.051 J0.633 F200.
N4970 G1 X213.609 Y4.364
N4975 X213.601 Y4.463 Z-23.092
N4980 X213.593 Y4.559 Z-23.069
N4985 X213.586 Y4.651 Z-23.031
N4990 X213.579 Y4.736 Z-22.979
N4995 X213.573 Y4.811 Z-22.914
N5000 X213.568 Y4.876 Z-22.838
N5005 X213.563 Y4.927 Z-22.753
N5010 X213.56 Y4.965 Z-22.661
N5015 X213.559 Y4.989 Z-22.564
N5020 X213.558 Y4.996 Z-22.465
N5025 Z5. F1000.
N5030 X214.824 Y5.098
N5035 Z-18.1 F200.
N5040 Z-25.565
N5045 Y5.091 Z-25.664
N5050 X214.826 Y5.067 Z-25.761
N5055 X214.829 Y5.029 Z-25.853
N5060 X214.834 Y4.978 Z-25.938
N5065 X214.839 Y4.913 Z-26.014
N5070 X214.845 Y4.838 Z-26.079
N5075 X214.852 Y4.753 Z-26.131
N5080 X214.859 Y4.661 Z-26.169
N5085 X214.867 Y4.564 Z-26.192
N5090 X214.875 Y4.465 Z-26.2
N5095 X214.926 Y3.833
N5100 G2 X214.344 Y3.149 I-0.633 J-0.051
N5105 G3 X206.825 Y-5. I0.656 J-8.149 F1000.
N5110 G1 Y-636.91
N5115 G3 X220. Y-650.085 I13.175 J0.
N5120 G1 X250.
N5125 G3 X263.175 Y-636.91 I0. J13.175
N5130 G1 Y-21.91
N5135 G3 X261.42 Y-19.07 I-3.175 J0.
N5140 G1 X218.656 Y2.312
N5145 G3 X214.344 Y3.149 I-3.656 J-7.312
N5150 G2 X213.66 Y3.731 I-0.051 J0.633 F200.
N5155 G1 X213.609 Y4.364
N5160 X213.601 Y4.463 Z-26.192
N5165 X213.593 Y4.559 Z-26.169
N5170 X213.586 Y4.651 Z-26.131
N5175 X213.579 Y4.736 Z-26.079
N5180 X213.573 Y4.811 Z-26.014
N5185 X213.568 Y4.876 Z-25.938
N5190 X213.563 Y4.927 Z-25.853
N5195 X213.56 Y4.965 Z-25.761
N5200 X213.559 Y4.989 Z-25.664
N5205 X213.558 Y4.996 Z-25.565
N5210 Z15. F1000.
N5215 G53 G0 Z0.
N5220 G53 G0 X0. Y0.
N5225 M30
%
