%
(BABY_GYM_DRILL_001)
(MACHINE)
(  MODEL LASER SNAKE V2)
(  DESCRIPTION 3-AXIS ROUTER)
(T2  D=6.5 CR=0. TAPER=118DEG - ZMIN=-28.453 - DRILL)
N10 G90 G94 G17 G91.1
N15 G21
N20 G53 G0 Z0.
(DRILL1)
N25 T2 M6
N30 S10000 M3
N35 G54
N40 G0 X235. Y-568.427
N45 G43 Z15. H2
N50 G0 Z5.
N55 G98 G81 X235. Y-568.427 Z-28.453 R5. F100.
N60 X165. Y-568.722
N65 X95. Y-568.427
N70 X25. Y-568.722
N75 G80
N80 G0 Z15.
N85 G53 G0 Z0.
N90 G53 G0 X0. Y0.
N95 M30
%
