%
(BABY_GYM_PROFILE_001)
(MACHINE)
(  MODEL LASER SNAKE V2)
(  DESCRIPTION 3-AXIS ROUTER)
(T1  D=6. CR=0. - ZMIN=-26.2 - FLAT END MILL)
N10 G90 G94 G17 G91.1
N15 G21
(WHEN USING FUSION 360 FOR PERSONAL USE, THE FEEDRATE OF)
(RAPID MOVES IS REDUCED TO MATCH THE FEEDRATE OF CUTTING)
(MOVES, WHICH CAN INCREASE MACHINING TIME. UNRESTRICTED RAPID)
(MOVES ARE AVAILABLE WITH A FUSION 360 SUBSCRIPTION.)
N20 G53 G0 Z0.
(2D POCKET1)
N25 T1 M6
N30 S12000 M3
N35 G54
N40 G0 X25. Y-568.722
N45 G43 Z15. H1
N50 G1 Z5. F1000.
N55 Z-4.167
N60 G2 X24.579 Y-568.661 I-0.18 J0.24
N65 X24.642 Y-568.24 I0.241 J0.179
N70 G1 X34.349 Y-561.091
N75 X52.899 Y-547.179
N80 G2 X53.35 Y-547.548 I0.18 J-0.24
N85 G1 X52.985 Y-548.309
N90 X52.961 Y-548.351
N95 X52.931 Y-548.388
N100 X52.895 Y-548.42
N105 X34.95 Y-561.879
N110 G2 X34.564 Y-561.857 I-0.18 J0.24
N115 G1 X31.694 Y-559.146
N120 G2 X31.72 Y-558.688 I0.206 J0.218
N125 G1 X52.891 Y-542.81
N130 G2 X53.371 Y-543.061 I0.18 J-0.24
N135 G1 X53.013 Y-552.567
N140 G2 X52.893 Y-552.796 I-0.3 J0.011
N145 G1 X36.523 Y-565.074
N150 G2 X36.138 Y-565.053 I-0.18 J0.24
N155 G1 X28.042 Y-557.513
N160 G2 X28.066 Y-557.053 I0.204 J0.22
N165 G1 X52.896 Y-538.431
N170 G2 X53.376 Y-538.677 I0.18 J-0.24
N175 G1 X53.018 Y-556.933
N180 G2 X52.898 Y-557.167 I-0.3 J0.006
N185 G1 X37.065 Y-569.042
N190 G2 X36.015 Y-567.642 I-0.525 J0.7
N195 G1 X43.868 Y-561.748
N200 X43.932 Y-561.704
N205 X52.373 Y-556.467
N210 G2 X53.702 Y-557.322 I0.461 J-0.744
N215 G1 X53.237 Y-560.957
N220 G2 X52.894 Y-561.546 I-0.868 J0.111
N225 G1 X35.573 Y-574.536
N230 X35.525 Y-574.565
N235 X35.473 Y-574.585
N240 X35.419 Y-574.595
N245 X15.805 Y-576.294
N250 X15.75 Y-576.304
N255 X15.698 Y-576.324
N260 X15.651 Y-576.353
N265 X-2.899 Y-590.265
N270 G2 X-3.35 Y-589.896 I-0.18 J0.24
N275 G1 X-2.985 Y-589.135
N280 X-2.961 Y-589.093
N285 X-2.931 Y-589.056
N290 X-2.895 Y-589.024
N295 X15.05 Y-575.565
N300 G2 X15.436 Y-575.587 I0.18 J-0.24
N305 G1 X18.306 Y-578.298
N310 G2 X18.28 Y-578.756 I-0.206 J-0.218
N315 G1 X-2.891 Y-594.634
N320 G2 X-3.371 Y-594.383 I-0.18 J0.24
N325 G1 X-3.013 Y-584.877
N330 G2 X-2.893 Y-584.648 I0.3 J-0.011
N335 G1 X13.477 Y-572.37
N340 G2 X13.862 Y-572.391 I0.18 J-0.24
N345 G1 X21.958 Y-579.931
N350 G2 X21.934 Y-580.391 I-0.204 J-0.22
N355 G1 X-2.896 Y-599.013
N360 G2 X-3.376 Y-598.767 I-0.18 J0.24
N365 G1 X-3.018 Y-580.511
N370 G2 X-2.898 Y-580.277 I0.3 J-0.006
N375 G1 X12.935 Y-568.402
N380 X12.962 Y-568.379
N385 X12.986 Y-568.353
N390 X22.316 Y-557.002
N395 X22.34 Y-556.976
N400 X22.368 Y-556.952
N405 X52.891 Y-534.06
N410 X52.909 Y-534.046 F250.
N415 X52.985 Y-533.99 Z-4.159
N420 X53.058 Y-533.935 Z-4.137
N425 X53.127 Y-533.883 Z-4.101
N430 X53.192 Y-533.835 Z-4.052
N435 X53.249 Y-533.792 Z-3.991
N440 X53.298 Y-533.755 Z-3.919
N445 X53.337 Y-533.725 Z-3.839
N450 X53.366 Y-533.704 Z-3.752
N455 X53.384 Y-533.691 Z-3.661
N460 X53.389 Y-533.686 Z-3.567
N465 Z5.
N470 X25. Y-568.722 F1000.
N475 Z-4.167
N480 G2 X25.474 Y-568.903 I0.18 J-0.24
N485 G1 X27.746 Y-580.192
N490 G2 X27.632 Y-580.492 I-0.294 J-0.059
N495 G1 X-2.891 Y-603.384
N500 G2 X-3.371 Y-603.14 I-0.18 J0.24
N505 G1 X-3.014 Y-576.134
N510 G2 X-2.894 Y-575.898 I0.3 J-0.004
N515 G1 X14.427 Y-562.908
N520 G2 X15.478 Y-564.308 I0.525 J-0.7
N525 G1 X6.875 Y-570.763
N530 X6.817 Y-570.803
N535 X-2.369 Y-576.598
N540 G2 X-3.704 Y-575.748 I-0.467 J0.74
N545 G1 X-3.242 Y-572.117
N550 G2 X-2.899 Y-571.527 I0.868 J-0.11
N555 G1 X52.895 Y-529.682
N560 G2 X53.375 Y-529.925 I0.18 J-0.24
N565 G1 X53.019 Y-565.68
N570 G2 X52.899 Y-565.917 I-0.3 J0.003
N575 G1 X-2.895 Y-607.762
N580 G2 X-3.375 Y-607.519 I-0.18 J0.24
N585 G1 X-3.014 Y-567.386
N590 G2 X-2.894 Y-567.149 I0.3 J-0.003
N595 G1 X52.9 Y-525.303
N600 G2 X53.38 Y-525.546 I0.18 J-0.24
N605 G1 X53.014 Y-570.058
N610 G2 X52.894 Y-570.295 I-0.3 J0.003
N615 G1 X-2.9 Y-612.141
N620 G2 X-3.38 Y-611.898 I-0.18 J0.24
N625 G1 X-3.017 Y-563.008
N630 G2 X-2.897 Y-562.77 I0.3 J-0.002
N635 G1 X52.1 Y-521.522
N640 X52.897 Y-520.924
N645 X52.976 Y-520.874 F250.
N650 X55.628 Y-519.471
N655 X55.711 Y-519.428 Z-4.159
N660 X55.792 Y-519.385 Z-4.137
N665 X55.869 Y-519.344 Z-4.101
N670 X55.94 Y-519.307 Z-4.052
N675 X56.004 Y-519.273 Z-3.991
N680 X56.058 Y-519.245 Z-3.919
N685 X56.101 Y-519.222 Z-3.839
N690 X56.133 Y-519.205 Z-3.752
N695 X56.152 Y-519.194 Z-3.661
N700 X56.159 Y-519.191 Z-3.567
N705 Z5. F1000.
N710 X25. Y-568.722
N715 Z-4.167
N720 X25.054 Y-568.69
N725 X25.113 Y-568.669
N730 X25.176 Y-568.662
N735 X25.238 Y-568.668
N740 X52.776 Y-574.14
N745 G2 X52.897 Y-574.674 I-0.058 J-0.294
N750 G1 X-2.1 Y-615.922
N755 X-2.897 Y-616.52
N760 X-2.976 Y-616.57 F250.
N765 X-5.628 Y-617.972
N770 X-5.711 Y-618.016 Z-4.159
N775 X-5.792 Y-618.059 Z-4.137
N780 X-5.869 Y-618.1 Z-4.101
N785 X-5.94 Y-618.137 Z-4.052
N790 X-6.004 Y-618.171 Z-3.991
N795 X-6.058 Y-618.199 Z-3.919
N800 X-6.101 Y-618.222 Z-3.839
N805 X-6.133 Y-618.239 Z-3.752
N810 X-6.152 Y-618.25 Z-3.661
N815 X-6.159 Y-618.253 Z-3.567
N820 Z5. F1000.
N825 X25. Y-568.722
N830 Z-8.333
N835 X-2.534 Y-589.504
N840 G2 X-2.954 Y-589.445 I-0.181 J0.239
N845 X-2.895 Y-589.024 I0.24 J0.18
N850 G1 X15.05 Y-575.565
N855 G2 X15.467 Y-575.621 I0.18 J-0.24
N860 G1 X15.707 Y-575.928
N865 G2 X15.651 Y-576.353 I-0.236 J-0.185
N870 G1 X-2.899 Y-590.265
N875 G2 X-3.379 Y-590.004 I-0.18 J0.24
N880 G1 X-3.012 Y-584.867
N885 X-3.001 Y-584.804
N890 X-2.976 Y-584.744
N895 X-2.94 Y-584.692
N900 X-2.893 Y-584.648
N905 X13.477 Y-572.37
N910 G2 X13.897 Y-572.43 I0.18 J-0.24
N915 G1 X18.34 Y-578.336
N920 G2 X18.28 Y-578.756 I-0.24 J-0.18
N925 G1 X-2.891 Y-594.634
N930 G2 X-3.371 Y-594.387 I-0.18 J0.24
N935 G1 X-3.018 Y-580.509
N940 G2 X-2.898 Y-580.277 I0.3 J-0.008
N945 G1 X12.935 Y-568.402
N950 G2 X13.355 Y-568.462 I0.18 J-0.24
N955 G1 X21.993 Y-579.971
N960 G2 X21.934 Y-580.391 I-0.24 J-0.18
N965 G1 X-2.896 Y-599.013
N970 G2 X-3.376 Y-598.768 I-0.18 J0.24
N975 G1 X-3.014 Y-576.134
N980 G2 X-2.894 Y-575.898 I0.3 J-0.005
N985 G1 X14.427 Y-562.908
N990 X14.475 Y-562.879
N995 X14.527 Y-562.859
N1000 X14.581 Y-562.849
N1005 X34.195 Y-561.15
N1010 X34.25 Y-561.14
N1015 X34.302 Y-561.12
N1020 X34.349 Y-561.091
N1025 X52.899 Y-547.179
N1030 G2 X53.35 Y-547.548 I0.18 J-0.24
N1035 G1 X52.985 Y-548.309
N1040 X52.961 Y-548.351
N1045 X52.931 Y-548.388
N1050 X52.895 Y-548.42
N1055 X34.95 Y-561.879
N1060 G2 X34.564 Y-561.857 I-0.18 J0.24
N1065 G1 X31.694 Y-559.146
N1070 G2 X31.72 Y-558.688 I0.206 J0.218
N1075 G1 X52.891 Y-542.81
N1080 G2 X53.371 Y-543.061 I0.18 J-0.24
N1085 G1 X53.013 Y-552.567
N1090 G2 X52.893 Y-552.796 I-0.3 J0.011
N1095 G1 X36.523 Y-565.074
N1100 G2 X36.138 Y-565.053 I-0.18 J0.24
N1105 G1 X28.042 Y-557.513
N1110 G2 X28.066 Y-557.053 I0.204 J0.22
N1115 G1 X52.896 Y-538.431
N1120 G2 X53.376 Y-538.677 I0.18 J-0.24
N1125 G1 X53.018 Y-556.933
N1130 G2 X52.898 Y-557.167 I-0.3 J0.006
N1135 G1 X37.065 Y-569.042
N1140 X37.038 Y-569.065
N1145 X37.014 Y-569.091
N1150 X27.684 Y-580.442
N1155 X27.66 Y-580.468
N1160 X27.632 Y-580.492
N1165 X-2.891 Y-603.384
N1170 X-2.909 Y-603.398 F250.
N1175 X-2.985 Y-603.454 Z-8.326
N1180 X-3.058 Y-603.509 Z-8.304
N1185 X-3.127 Y-603.561 Z-8.268
N1190 X-3.192 Y-603.609 Z-8.219
N1195 X-3.249 Y-603.652 Z-8.158
N1200 X-3.298 Y-603.689 Z-8.086
N1205 X-3.337 Y-603.719 Z-8.006
N1210 X-3.366 Y-603.74 Z-7.919
N1215 X-3.384 Y-603.753 Z-7.827
N1220 X-3.389 Y-603.758 Z-7.733
N1225 Z5.
N1230 X25. Y-568.722 F1000.
N1235 Z-8.333
N1240 G2 X24.526 Y-568.541 I-0.18 J0.24
N1245 G1 X22.254 Y-557.252
N1250 G2 X22.368 Y-556.952 I0.294 J0.059
N1255 G1 X52.891 Y-534.06
N1260 G2 X53.371 Y-534.304 I0.18 J-0.24
N1265 G1 X53.014 Y-561.31
N1270 G2 X52.894 Y-561.546 I-0.3 J0.004
N1275 G1 X35.573 Y-574.536
N1280 G2 X34.522 Y-573.136 I-0.525 J0.7
N1285 G1 X43.125 Y-566.681
N1290 X43.183 Y-566.641
N1295 X52.369 Y-560.846
N1300 G2 X53.704 Y-561.696 I0.467 J-0.74
N1305 G1 X53.242 Y-565.327
N1310 G2 X52.899 Y-565.917 I-0.868 J0.11
N1315 G1 X-2.895 Y-607.762
N1320 G2 X-3.375 Y-607.519 I-0.18 J0.24
N1325 G1 X-3.019 Y-571.764
N1330 G2 X-2.899 Y-571.527 I0.3 J-0.003
N1335 G1 X52.895 Y-529.682
N1340 G2 X53.375 Y-529.924 I0.18 J-0.24
N1345 G1 X53.014 Y-570.058
N1350 G2 X52.894 Y-570.295 I-0.3 J0.003
N1355 G1 X-2.9 Y-612.141
N1360 G2 X-3.38 Y-611.898 I-0.18 J0.24
N1365 G1 X-3.014 Y-567.386
N1370 G2 X-2.894 Y-567.149 I0.3 J-0.002
N1375 G1 X52.9 Y-525.303
N1380 G2 X53.38 Y-525.546 I0.18 J-0.24
N1385 G1 X53.017 Y-574.436
N1390 G2 X52.897 Y-574.674 I-0.3 J0.002
N1395 G1 X-2.1 Y-615.922
N1400 X-2.897 Y-616.52
N1405 X-2.976 Y-616.57 F250.
N1410 X-5.628 Y-617.972
N1415 X-5.711 Y-618.016 Z-8.326
N1420 X-5.792 Y-618.059 Z-8.304
N1425 X-5.869 Y-618.1 Z-8.268
N1430 X-5.94 Y-618.137 Z-8.219
N1435 X-6.004 Y-618.171 Z-8.158
N1440 X-6.058 Y-618.199 Z-8.086
N1445 X-6.101 Y-618.222 Z-8.006
N1450 X-6.133 Y-618.239 Z-7.919
N1455 X-6.152 Y-618.25 Z-7.827
N1460 X-6.159 Y-618.253 Z-7.733
N1465 Z5. F1000.
N1470 X25. Y-568.722
N1475 Z-8.333
N1480 X24.946 Y-568.754
N1485 X24.887 Y-568.775
N1490 X24.824 Y-568.782
N1495 X24.762 Y-568.776
N1500 X-2.776 Y-563.304
N1505 G2 X-2.897 Y-562.77 I0.058 J0.294
N1510 G1 X52.1 Y-521.522
N1515 X52.897 Y-520.924
N1520 X52.976 Y-520.874 F250.
N1525 X55.628 Y-519.471
N1530 X55.711 Y-519.428 Z-8.326
N1535 X55.792 Y-519.385 Z-8.304
N1540 X55.869 Y-519.344 Z-8.268
N1545 X55.94 Y-519.307 Z-8.219
N1550 X56.004 Y-519.273 Z-8.158
N1555 X56.058 Y-519.245 Z-8.086
N1560 X56.101 Y-519.222 Z-8.006
N1565 X56.133 Y-519.205 Z-7.919
N1570 X56.152 Y-519.194 Z-7.827
N1575 X56.159 Y-519.191 Z-7.733
N1580 Z5. F1000.
N1585 X25. Y-568.722
N1590 Z-12.5
N1595 X52.534 Y-547.94
N1600 G2 X52.954 Y-547.999 I0.181 J-0.24
N1605 X52.895 Y-548.42 I-0.24 J-0.18
N1610 G1 X34.95 Y-561.879
N1615 G2 X34.533 Y-561.823 I-0.18 J0.24
N1620 G1 X34.293 Y-561.516
N1625 G2 X34.349 Y-561.091 I0.236 J0.185
N1630 G1 X52.899 Y-547.179
N1635 G2 X53.379 Y-547.44 I0.18 J-0.24
N1640 G1 X53.012 Y-552.577
N1645 X53.001 Y-552.64
N1650 X52.976 Y-552.7
N1655 X52.94 Y-552.752
N1660 X52.893 Y-552.796
N1665 X36.523 Y-565.074
N1670 G2 X36.103 Y-565.014 I-0.18 J0.24
N1675 G1 X31.66 Y-559.109
N1680 G2 X31.72 Y-558.688 I0.24 J0.18
N1685 G1 X52.891 Y-542.81
N1690 G2 X53.371 Y-543.057 I0.18 J-0.24
N1695 G1 X53.018 Y-556.935
N1700 G2 X52.898 Y-557.167 I-0.3 J0.008
N1705 G1 X37.065 Y-569.042
N1710 G2 X36.645 Y-568.982 I-0.18 J0.24
N1715 G1 X28.007 Y-557.474
N1720 G2 X28.066 Y-557.053 I0.24 J0.18
N1725 G1 X52.896 Y-538.431
N1730 G2 X53.376 Y-538.676 I0.18 J-0.24
N1735 G1 X53.014 Y-561.31
N1740 G2 X52.894 Y-561.546 I-0.3 J0.005
N1745 G1 X35.573 Y-574.536
N1750 X35.525 Y-574.565
N1755 X35.473 Y-574.585
N1760 X35.419 Y-574.595
N1765 X15.805 Y-576.294
N1770 X15.75 Y-576.304
N1775 X15.698 Y-576.324
N1780 X15.651 Y-576.353
N1785 X-2.899 Y-590.265
N1790 G2 X-3.35 Y-589.896 I-0.18 J0.24
N1795 G1 X-2.985 Y-589.135
N1800 X-2.961 Y-589.093
N1805 X-2.931 Y-589.056
N1810 X-2.895 Y-589.024
N1815 X15.05 Y-575.565
N1820 G2 X15.436 Y-575.587 I0.18 J-0.24
N1825 G1 X18.306 Y-578.298
N1830 G2 X18.28 Y-578.756 I-0.206 J-0.218
N1835 G1 X-2.891 Y-594.634
N1840 G2 X-3.371 Y-594.383 I-0.18 J0.24
N1845 G1 X-3.013 Y-584.877
N1850 G2 X-2.893 Y-584.648 I0.3 J-0.011
N1855 G1 X13.477 Y-572.37
N1860 G2 X13.862 Y-572.391 I0.18 J-0.24
N1865 G1 X21.958 Y-579.931
N1870 G2 X21.934 Y-580.391 I-0.204 J-0.22
N1875 G1 X-2.896 Y-599.013
N1880 G2 X-3.376 Y-598.767 I-0.18 J0.24
N1885 G1 X-3.018 Y-580.511
N1890 G2 X-2.898 Y-580.277 I0.3 J-0.006
N1895 G1 X12.935 Y-568.402
N1900 X12.962 Y-568.379
N1905 X12.986 Y-568.353
N1910 X22.316 Y-557.002
N1915 X22.34 Y-556.976
N1920 X22.368 Y-556.952
N1925 X52.891 Y-534.06
N1930 X52.909 Y-534.046 F250.
N1935 X52.985 Y-533.99 Z-12.493
N1940 X53.058 Y-533.935 Z-12.471
N1945 X53.127 Y-533.883 Z-12.435
N1950 X53.192 Y-533.835 Z-12.385
N1955 X53.249 Y-533.792 Z-12.324
N1960 X53.298 Y-533.755 Z-12.253
N1965 X53.337 Y-533.725 Z-12.172
N1970 X53.366 Y-533.704 Z-12.085
N1975 X53.384 Y-533.691 Z-11.994
N1980 X53.389 Y-533.686 Z-11.9
N1985 Z5.
N1990 X25. Y-568.722 F1000.
N1995 Z-12.5
N2000 G2 X25.474 Y-568.903 I0.18 J-0.24
N2005 G1 X27.746 Y-580.192
N2010 G2 X27.632 Y-580.492 I-0.294 J-0.059
N2015 G1 X-2.891 Y-603.384
N2020 G2 X-3.371 Y-603.14 I-0.18 J0.24
N2025 G1 X-3.014 Y-576.134
N2030 G2 X-2.894 Y-575.898 I0.3 J-0.004
N2035 G1 X14.427 Y-562.908
N2040 G2 X15.478 Y-564.308 I0.525 J-0.7
N2045 G1 X6.875 Y-570.763
N2050 X6.817 Y-570.803
N2055 X-2.369 Y-576.598
N2060 G2 X-3.704 Y-575.748 I-0.467 J0.74
N2065 G1 X-3.242 Y-572.117
N2070 G2 X-2.899 Y-571.527 I0.868 J-0.11
N2075 G1 X52.895 Y-529.682
N2080 G2 X53.375 Y-529.925 I0.18 J-0.24
N2085 G1 X53.019 Y-565.68
N2090 G2 X52.899 Y-565.917 I-0.3 J0.003
N2095 G1 X-2.895 Y-607.762
N2100 G2 X-3.375 Y-607.519 I-0.18 J0.24
N2105 G1 X-3.014 Y-567.386
N2110 G2 X-2.894 Y-567.149 I0.3 J-0.003
N2115 G1 X52.9 Y-525.303
N2120 G2 X53.38 Y-525.546 I0.18 J-0.24
N2125 G1 X53.014 Y-570.058
N2130 G2 X52.894 Y-570.295 I-0.3 J0.003
N2135 G1 X-2.9 Y-612.141
N2140 G2 X-3.38 Y-611.898 I-0.18 J0.24
N2145 G1 X-3.017 Y-563.008
N2150 G2 X-2.897 Y-562.77 I0.3 J-0.002
N2155 G1 X52.1 Y-521.522
N2160 X52.897 Y-520.924
N2165 X52.976 Y-520.874 F250.
N2170 X55.628 Y-519.471
N2175 X55.711 Y-519.428 Z-12.493
N2180 X55.792 Y-519.385 Z-12.471
N2185 X55.869 Y-519.344 Z-12.435
N2190 X55.94 Y-519.307 Z-12.385
N2195 X56.004 Y-519.273 Z-12.324
N2200 X56.058 Y-519.245 Z-12.253
N2205 X56.101 Y-519.222 Z-12.172
N2210 X56.133 Y-519.205 Z-12.085
N2215 X56.152 Y-519.194 Z-11.994
N2220 X56.159 Y-519.191 Z-11.9
N2225 Z5. F1000.
N2230 X25. Y-568.722
N2235 Z-12.5
N2240 X25.054 Y-568.69
N2245 X25.113 Y-568.669
N2250 X25.176 Y-568.662
N2255 X25.238 Y-568.668
N2260 X52.776 Y-574.14
N2265 G2 X52.897 Y-574.674 I-0.058 J-0.294
N2270 G1 X-2.1 Y-615.922
N2275 X-2.897 Y-616.52
N2280 X-2.976 Y-616.57 F250.
N2285 X-5.628 Y-617.972
N2290 X-5.711 Y-618.016 Z-12.493
N2295 X-5.792 Y-618.059 Z-12.471
N2300 X-5.869 Y-618.1 Z-12.435
N2305 X-5.94 Y-618.137 Z-12.385
N2310 X-6.004 Y-618.171 Z-12.324
N2315 X-6.058 Y-618.199 Z-12.253
N2320 X-6.101 Y-618.222 Z-12.172
N2325 X-6.133 Y-618.239 Z-12.085
N2330 X-6.152 Y-618.25 Z-11.994
N2335 X-6.159 Y-618.253 Z-11.9
N2340 Z15. F1000.
N2345 X95. Y-568.427
N2350 Z5.
N2355 Z-4.167
N2360 X67.466 Y-589.209
N2365 G2 X67.046 Y-589.149 I-0.181 J0.239
N2370 X67.106 Y-588.729 I0.24 J0.18
N2375 G1 X122.9 Y-546.884
N2380 G2 X123.35 Y-547.253 I0.18 J-0.24
N2385 G1 X122.985 Y-548.015
N2390 X122.961 Y-548.056
N2395 X122.931 Y-548.093
N2400 X122.895 Y-548.125
N2405 X67.101 Y-589.97
N2410 G2 X66.622 Y-589.709 I-0.18 J0.24
N2415 G1 X66.988 Y-584.572
N2420 X66.999 Y-584.509
N2425 X67.024 Y-584.449
N2430 X67.06 Y-584.397
N2435 X67.107 Y-584.353
N2440 X122.892 Y-542.515
N2445 G2 X123.371 Y-542.766 I0.18 J-0.24
N2450 G1 X123.013 Y-552.272
N2455 G2 X122.893 Y-552.501 I-0.3 J0.011
N2460 G1 X67.109 Y-594.339
N2465 G2 X66.629 Y-594.092 I-0.18 J0.24
N2470 G1 X66.982 Y-580.214
N2475 G2 X67.102 Y-579.982 I0.3 J-0.008
N2480 G1 X122.896 Y-538.136
N2485 G2 X123.376 Y-538.382 I0.18 J-0.24
N2490 G1 X123.018 Y-556.638
N2495 G2 X122.898 Y-556.872 I-0.3 J0.006
N2500 G1 X67.104 Y-598.718
N2505 G2 X66.624 Y-598.473 I-0.18 J0.24
N2510 G1 X66.987 Y-575.839
N2515 G2 X67.107 Y-575.603 I0.3 J-0.005
N2520 G1 X122.891 Y-533.765
N2525 G2 X123.371 Y-534.009 I0.18 J-0.24
N2530 G1 X123.014 Y-561.015
N2535 G2 X122.894 Y-561.251 I-0.3 J0.004
N2540 G1 X67.109 Y-603.089
N2545 G2 X66.629 Y-602.846 I-0.18 J0.24
N2550 G1 X66.982 Y-571.469
N2555 G2 X67.102 Y-571.232 I0.3 J-0.003
N2560 G1 X122.896 Y-529.387
N2565 G2 X123.376 Y-529.63 I0.18 J-0.24
N2570 G1 X123.019 Y-565.385
N2575 G2 X122.899 Y-565.622 I-0.3 J0.003
N2580 G1 X67.105 Y-607.467
N2585 G2 X66.625 Y-607.225 I-0.18 J0.24
N2590 G1 X66.986 Y-567.091
N2595 G2 X67.106 Y-566.854 I0.3 J-0.003
N2600 G1 X122.89 Y-525.016
N2605 G2 X123.37 Y-525.258 I0.18 J-0.24
N2610 G1 X123.014 Y-569.763
N2615 G2 X122.894 Y-570. I-0.3 J0.002
N2620 G1 X67.1 Y-611.846
N2625 G2 X66.62 Y-611.603 I-0.18 J0.24
N2630 G1 X66.982 Y-562.713
N2635 G2 X67.102 Y-562.475 I0.3 J-0.002
N2640 G1 X72.1 Y-558.727
N2645 X122.1 Y-521.227
N2650 X122.897 Y-520.629
N2655 X122.976 Y-520.579 F250.
N2660 X125.628 Y-519.177
N2665 X125.711 Y-519.133 Z-4.159
N2670 X125.792 Y-519.09 Z-4.137
N2675 X125.869 Y-519.049 Z-4.101
N2680 X125.94 Y-519.012 Z-4.052
N2685 X126.004 Y-518.978 Z-3.991
N2690 X126.058 Y-518.95 Z-3.919
N2695 X126.101 Y-518.927 Z-3.839
N2700 X126.133 Y-518.91 Z-3.752
N2705 X126.152 Y-518.9 Z-3.661
N2710 X126.159 Y-518.896 Z-3.567
N2715 Z5. F1000.
N2720 X95. Y-568.427
N2725 Z-4.167
N2730 X95.054 Y-568.395
N2735 X95.113 Y-568.374
N2740 X95.176 Y-568.367
N2745 X95.238 Y-568.373
N2750 X122.776 Y-573.845
N2755 G2 X122.897 Y-574.379 I-0.058 J-0.294
N2760 G1 X67.9 Y-615.627
N2765 X67.103 Y-616.225
N2770 X67.024 Y-616.275 F250.
N2775 X64.372 Y-617.677
N2780 X64.289 Y-617.721 Z-4.159
N2785 X64.208 Y-617.764 Z-4.137
N2790 X64.131 Y-617.805 Z-4.101
N2795 X64.06 Y-617.842 Z-4.052
N2800 X63.996 Y-617.876 Z-3.991
N2805 X63.942 Y-617.904 Z-3.919
N2810 X63.899 Y-617.927 Z-3.839
N2815 X63.867 Y-617.944 Z-3.752
N2820 X63.848 Y-617.955 Z-3.661
N2825 X63.841 Y-617.958 Z-3.567
N2830 Z5. F1000.
N2835 X95. Y-568.427
N2840 Z-8.333
N2845 X67.466 Y-589.209
N2850 G2 X67.046 Y-589.149 I-0.181 J0.239
N2855 X67.106 Y-588.729 I0.24 J0.18
N2860 G1 X122.9 Y-546.884
N2865 G2 X123.35 Y-547.253 I0.18 J-0.24
N2870 G1 X122.985 Y-548.015
N2875 X122.961 Y-548.056
N2880 X122.931 Y-548.093
N2885 X122.895 Y-548.125
N2890 X67.101 Y-589.97
N2895 G2 X66.622 Y-589.709 I-0.18 J0.24
N2900 G1 X66.988 Y-584.572
N2905 X66.999 Y-584.509
N2910 X67.024 Y-584.449
N2915 X67.06 Y-584.397
N2920 X67.107 Y-584.353
N2925 X122.892 Y-542.515
N2930 G2 X123.371 Y-542.766 I0.18 J-0.24
N2935 G1 X123.013 Y-552.272
N2940 G2 X122.893 Y-552.501 I-0.3 J0.011
N2945 G1 X67.109 Y-594.339
N2950 G2 X66.629 Y-594.092 I-0.18 J0.24
N2955 G1 X66.982 Y-580.214
N2960 G2 X67.102 Y-579.982 I0.3 J-0.008
N2965 G1 X122.896 Y-538.136
N2970 G2 X123.376 Y-538.382 I0.18 J-0.24
N2975 G1 X123.018 Y-556.638
N2980 G2 X122.898 Y-556.872 I-0.3 J0.006
N2985 G1 X67.104 Y-598.718
N2990 G2 X66.624 Y-598.473 I-0.18 J0.24
N2995 G1 X66.987 Y-575.839
N3000 G2 X67.107 Y-575.603 I0.3 J-0.005
N3005 G1 X122.891 Y-533.765
N3010 G2 X123.371 Y-534.009 I0.18 J-0.24
N3015 G1 X123.014 Y-561.015
N3020 G2 X122.894 Y-561.251 I-0.3 J0.004
N3025 G1 X67.109 Y-603.089
N3030 G2 X66.629 Y-602.846 I-0.18 J0.24
N3035 G1 X66.982 Y-571.469
N3040 G2 X67.102 Y-571.232 I0.3 J-0.003
N3045 G1 X122.896 Y-529.387
N3050 G2 X123.376 Y-529.63 I0.18 J-0.24
N3055 G1 X123.019 Y-565.385
N3060 G2 X122.899 Y-565.622 I-0.3 J0.003
N3065 G1 X67.105 Y-607.467
N3070 G2 X66.625 Y-607.225 I-0.18 J0.24
N3075 G1 X66.986 Y-567.091
N3080 G2 X67.106 Y-566.854 I0.3 J-0.003
N3085 G1 X122.89 Y-525.016
N3090 G2 X123.37 Y-525.258 I0.18 J-0.24
N3095 G1 X123.014 Y-569.763
N3100 G2 X122.894 Y-570. I-0.3 J0.002
N3105 G1 X67.1 Y-611.846
N3110 G2 X66.62 Y-611.603 I-0.18 J0.24
N3115 G1 X66.982 Y-562.713
N3120 G2 X67.102 Y-562.475 I0.3 J-0.002
N3125 G1 X72.1 Y-558.727
N3130 X122.1 Y-521.227
N3135 X122.897 Y-520.629
N3140 X122.976 Y-520.579 F250.
N3145 X125.628 Y-519.177
N3150 X125.711 Y-519.133 Z-8.326
N3155 X125.792 Y-519.09 Z-8.304
N3160 X125.869 Y-519.049 Z-8.268
N3165 X125.94 Y-519.012 Z-8.219
N3170 X126.004 Y-518.978 Z-8.158
N3175 X126.058 Y-518.95 Z-8.086
N3180 X126.101 Y-518.927 Z-8.006
N3185 X126.133 Y-518.91 Z-7.919
N3190 X126.152 Y-518.9 Z-7.827
N3195 X126.159 Y-518.896 Z-7.733
N3200 Z5. F1000.
N3205 X95. Y-568.427
N3210 Z-8.333
N3215 X95.054 Y-568.395
N3220 X95.113 Y-568.374
N3225 X95.176 Y-568.367
N3230 X95.238 Y-568.373
N3235 X122.776 Y-573.845
N3240 G2 X122.897 Y-574.379 I-0.058 J-0.294
N3245 G1 X67.9 Y-615.627
N3250 X67.103 Y-616.225
N3255 X67.024 Y-616.275 F250.
N3260 X64.372 Y-617.677
N3265 X64.289 Y-617.721 Z-8.326
N3270 X64.208 Y-617.764 Z-8.304
N3275 X64.131 Y-617.805 Z-8.268
N3280 X64.06 Y-617.842 Z-8.219
N3285 X63.996 Y-617.876 Z-8.158
N3290 X63.942 Y-617.904 Z-8.086
N3295 X63.899 Y-617.927 Z-8.006
N3300 X63.867 Y-617.944 Z-7.919
N3305 X63.848 Y-617.955 Z-7.827
N3310 X63.841 Y-617.958 Z-7.733
N3315 Z5. F1000.
N3320 X95. Y-568.427
N3325 Z-12.5
N3330 X67.466 Y-589.209
N3335 G2 X67.046 Y-589.149 I-0.181 J0.239
N3340 X67.106 Y-588.729 I0.24 J0.18
N3345 G1 X122.9 Y-546.884
N3350 G2 X123.35 Y-547.253 I0.18 J-0.24
N3355 G1 X122.985 Y-548.015
N3360 X122.961 Y-548.056
N3365 X122.931 Y-548.093
N3370 X122.895 Y-548.125
N3375 X67.101 Y-589.97
N3380 G2 X66.622 Y-589.709 I-0.18 J0.24
N3385 G1 X66.988 Y-584.572
N3390 X66.999 Y-584.509
N3395 X67.024 Y-584.449
N3400 X67.06 Y-584.397
N3405 X67.107 Y-584.353
N3410 X122.892 Y-542.515
N3415 G2 X123.371 Y-542.766 I0.18 J-0.24
N3420 G1 X123.013 Y-552.272
N3425 G2 X122.893 Y-552.501 I-0.3 J0.011
N3430 G1 X67.109 Y-594.339
N3435 G2 X66.629 Y-594.092 I-0.18 J0.24
N3440 G1 X66.982 Y-580.214
N3445 G2 X67.102 Y-579.982 I0.3 J-0.008
N3450 G1 X122.896 Y-538.136
N3455 G2 X123.376 Y-538.382 I0.18 J-0.24
N3460 G1 X123.018 Y-556.638
N3465 G2 X122.898 Y-556.872 I-0.3 J0.006
N3470 G1 X67.104 Y-598.718
N3475 G2 X66.624 Y-598.473 I-0.18 J0.24
N3480 G1 X66.987 Y-575.839
N3485 G2 X67.107 Y-575.603 I0.3 J-0.005
N3490 G1 X122.891 Y-533.765
N3495 G2 X123.371 Y-534.009 I0.18 J-0.24
N3500 G1 X123.014 Y-561.015
N3505 G2 X122.894 Y-561.251 I-0.3 J0.004
N3510 G1 X67.109 Y-603.089
N3515 G2 X66.629 Y-602.846 I-0.18 J0.24
N3520 G1 X66.982 Y-571.469
N3525 G2 X67.102 Y-571.232 I0.3 J-0.003
N3530 G1 X122.896 Y-529.387
N3535 G2 X123.376 Y-529.63 I0.18 J-0.24
N3540 G1 X123.019 Y-565.385
N3545 G2 X122.899 Y-565.622 I-0.3 J0.003
N3550 G1 X67.105 Y-607.467
N3555 G2 X66.625 Y-607.225 I-0.18 J0.24
N3560 G1 X66.986 Y-567.091
N3565 G2 X67.106 Y-566.854 I0.3 J-0.003
N3570 G1 X122.89 Y-525.016
N3575 G2 X123.37 Y-525.258 I0.18 J-0.24
N3580 G1 X123.014 Y-569.763
N3585 G2 X122.894 Y-570. I-0.3 J0.002
N3590 G1 X67.1 Y-611.846
N3595 G2 X66.62 Y-611.603 I-0.18 J0.24
N3600 G1 X66.982 Y-562.713
N3605 G2 X67.102 Y-562.475 I0.3 J-0.002
N3610 G1 X72.1 Y-558.727
N3615 X122.1 Y-521.227
N3620 X122.897 Y-520.629
N3625 X122.976 Y-520.579 F250.
N3630 X125.628 Y-519.177
N3635 X125.711 Y-519.133 Z-12.493
N3640 X125.792 Y-519.09 Z-12.471
N3645 X125.869 Y-519.049 Z-12.435
N3650 X125.94 Y-519.012 Z-12.385
N3655 X126.004 Y-518.978 Z-12.324
N3660 X126.058 Y-518.95 Z-12.253
N3665 X126.101 Y-518.927 Z-12.172
N3670 X126.133 Y-518.91 Z-12.085
N3675 X126.152 Y-518.9 Z-11.994
N3680 X126.159 Y-518.896 Z-11.9
N3685 Z5. F1000.
N3690 X95. Y-568.427
N3695 Z-12.5
N3700 X95.054 Y-568.395
N3705 X95.113 Y-568.374
N3710 X95.176 Y-568.367
N3715 X95.238 Y-568.373
N3720 X122.776 Y-573.845
N3725 G2 X122.897 Y-574.379 I-0.058 J-0.294
N3730 G1 X67.9 Y-615.627
N3735 X67.103 Y-616.225
N3740 X67.024 Y-616.275 F250.
N3745 X64.372 Y-617.677
N3750 X64.289 Y-617.721 Z-12.493
N3755 X64.208 Y-617.764 Z-12.471
N3760 X64.131 Y-617.805 Z-12.435
N3765 X64.06 Y-617.842 Z-12.385
N3770 X63.996 Y-617.876 Z-12.324
N3775 X63.942 Y-617.904 Z-12.253
N3780 X63.899 Y-617.927 Z-12.172
N3785 X63.867 Y-617.944 Z-12.085
N3790 X63.848 Y-617.955 Z-11.994
N3795 X63.841 Y-617.958 Z-11.9
N3800 Z15. F1000.
N3805 X165. Y-568.722
N3810 Z5.
N3815 Z-4.167
N3820 G2 X164.579 Y-568.66 I-0.18 J0.24
N3825 X164.643 Y-568.24 I0.241 J0.179
N3830 G1 X174.371 Y-561.12
N3835 X192.896 Y-547.233
N3840 G2 X193.343 Y-547.61 I0.18 J-0.24
N3845 G1 X192.982 Y-548.316
N3850 X192.944 Y-548.373
N3855 X192.895 Y-548.42
N3860 X174.95 Y-561.879
N3865 G2 X174.563 Y-561.856 I-0.18 J0.24
N3870 G1 X171.725 Y-559.168
N3875 G2 X171.752 Y-558.71 I0.206 J0.218
N3880 G1 X192.898 Y-542.858
N3885 G2 X193.377 Y-543.109 I0.18 J-0.24
N3890 G1 X193.013 Y-552.568
N3895 G2 X192.893 Y-552.796 I-0.3 J0.012
N3900 G1 X176.523 Y-565.074
N3905 G2 X176.138 Y-565.053 I-0.18 J0.24
N3910 G1 X168.083 Y-557.527
N3915 G2 X168.107 Y-557.067 I0.205 J0.219
N3920 G1 X192.893 Y-538.487
N3925 G2 X193.373 Y-538.733 I0.18 J-0.24
N3930 G1 X193.018 Y-556.933
N3935 G2 X192.898 Y-557.167 I-0.3 J0.006
N3940 G1 X177.065 Y-569.042
N3945 G2 X176.015 Y-567.642 I-0.525 J0.7
N3950 G1 X183.868 Y-561.748
N3955 X183.932 Y-561.705
N3960 X192.373 Y-556.467
N3965 G2 X193.702 Y-557.322 I0.461 J-0.744
N3970 G1 X193.237 Y-560.957
N3975 G2 X192.894 Y-561.546 I-0.868 J0.111
N3980 G1 X175.573 Y-574.536
N3985 X175.525 Y-574.565
N3990 X175.473 Y-574.585
N3995 X175.419 Y-574.595
N4000 X155.805 Y-576.294
N4005 X155.75 Y-576.304
N4010 X155.698 Y-576.324
N4015 X155.651 Y-576.353
N4020 X137.101 Y-590.265
N4025 G2 X136.652 Y-589.892 I-0.18 J0.24
N4030 G1 X137.013 Y-589.165
N4035 X137.037 Y-589.125
N4040 X137.067 Y-589.09
N4045 X137.102 Y-589.059
N4050 X155.069 Y-575.59
N4055 G2 X155.455 Y-575.611 I0.18 J-0.24
N4060 G1 X158.306 Y-578.298
N4065 G2 X158.28 Y-578.756 I-0.206 J-0.218
N4070 G1 X137.109 Y-594.634
N4075 G2 X136.629 Y-594.383 I-0.18 J0.24
N4080 G1 X136.984 Y-584.912
N4085 G2 X137.104 Y-584.683 I0.3 J-0.011
N4090 G1 X153.487 Y-572.402
N4095 G2 X153.871 Y-572.422 I0.18 J-0.24
N4100 G1 X161.958 Y-579.931
N4105 G2 X161.934 Y-580.391 I-0.204 J-0.22
N4110 G1 X137.104 Y-599.013
N4115 G2 X136.624 Y-598.767 I-0.18 J0.24
N4120 G1 X136.989 Y-580.54
N4125 G2 X137.109 Y-580.305 I0.3 J-0.006
N4130 G1 X152.935 Y-568.442
N4135 X152.962 Y-568.419
N4140 X152.986 Y-568.393
N4145 X162.405 Y-556.979
N4150 X162.429 Y-556.953
N4155 X162.456 Y-556.93
N4160 X192.898 Y-534.109
N4165 X192.917 Y-534.095 F250.
N4170 X192.992 Y-534.039 Z-4.159
N4175 X193.065 Y-533.984 Z-4.137
N4180 X193.135 Y-533.932 Z-4.101
N4185 X193.199 Y-533.884 Z-4.052
N4190 X193.256 Y-533.841 Z-3.991
N4195 X193.305 Y-533.804 Z-3.919
N4200 X193.344 Y-533.774 Z-3.839
N4205 X193.373 Y-533.753 Z-3.752
N4210 X193.391 Y-533.74 Z-3.661
N4215 X193.397 Y-533.735 Z-3.567
N4220 Z5.
N4225 X165. Y-568.722 F1000.
N4230 Z-4.167
N4235 G2 X165.474 Y-568.903 I0.18 J-0.24
N4240 G1 X167.746 Y-580.192
N4245 G2 X167.632 Y-580.492 I-0.294 J-0.059
N4250 G1 X137.109 Y-603.384
N4255 G2 X136.629 Y-603.14 I-0.18 J0.24
N4260 G1 X136.984 Y-576.171
N4265 G2 X137.104 Y-575.935 I0.3 J-0.004
N4270 G1 X154.38 Y-562.984
N4275 G2 X155.43 Y-564.384 I0.525 J-0.7
N4280 G1 X146.85 Y-570.819
N4285 X146.792 Y-570.86
N4290 X137.629 Y-576.635
N4295 G2 X136.294 Y-575.785 I-0.467 J0.74
N4300 G1 X136.759 Y-572.117
N4305 G2 X137.102 Y-571.527 I0.868 J-0.11
N4310 G1 X192.896 Y-529.682
N4315 G2 X193.376 Y-529.925 I0.18 J-0.24
N4320 G1 X193.019 Y-565.68
N4325 G2 X192.899 Y-565.917 I-0.3 J0.003
N4330 G1 X137.105 Y-607.762
N4335 G2 X136.625 Y-607.52 I-0.18 J0.24
N4340 G1 X136.986 Y-567.386
N4345 G2 X137.106 Y-567.149 I0.3 J-0.003
N4350 G1 X192.89 Y-525.31
N4355 G2 X193.37 Y-525.553 I0.18 J-0.24
N4360 G1 X193.014 Y-570.058
N4365 G2 X192.894 Y-570.295 I-0.3 J0.002
N4370 G1 X137.1 Y-612.141
N4375 G2 X136.62 Y-611.898 I-0.18 J0.24
N4380 G1 X136.983 Y-563.008
N4385 G2 X137.103 Y-562.77 I0.3 J-0.002
N4390 G1 X142.1 Y-559.022
N4395 X192.1 Y-521.522
N4400 X192.897 Y-520.924
N4405 X192.976 Y-520.874 F250.
N4410 X195.628 Y-519.471
N4415 X195.711 Y-519.428 Z-4.159
N4420 X195.792 Y-519.385 Z-4.137
N4425 X195.869 Y-519.344 Z-4.101
N4430 X195.94 Y-519.307 Z-4.052
N4435 X196.004 Y-519.273 Z-3.991
N4440 X196.058 Y-519.245 Z-3.919
N4445 X196.101 Y-519.222 Z-3.839
N4450 X196.133 Y-519.205 Z-3.752
N4455 X196.152 Y-519.194 Z-3.661
N4460 X196.159 Y-519.191 Z-3.567
N4465 Z5. F1000.
N4470 X165. Y-568.722
N4475 Z-4.167
N4480 X165.054 Y-568.69
N4485 X165.113 Y-568.669
N4490 X165.176 Y-568.662
N4495 X165.238 Y-568.668
N4500 X192.776 Y-574.14
N4505 G2 X192.897 Y-574.674 I-0.058 J-0.294
N4510 G1 X137.9 Y-615.922
N4515 X137.103 Y-616.52
N4520 X137.024 Y-616.57 F250.
N4525 X134.372 Y-617.972
N4530 X134.289 Y-618.016 Z-4.159
N4535 X134.208 Y-618.059 Z-4.137
N4540 X134.131 Y-618.1 Z-4.101
N4545 X134.06 Y-618.137 Z-4.052
N4550 X133.996 Y-618.171 Z-3.991
N4555 X133.942 Y-618.199 Z-3.919
N4560 X133.899 Y-618.222 Z-3.839
N4565 X133.867 Y-618.239 Z-3.752
N4570 X133.848 Y-618.25 Z-3.661
N4575 X133.841 Y-618.253 Z-3.567
N4580 Z5. F1000.
N4585 X165. Y-568.722
N4590 Z-8.333
N4595 X137.463 Y-589.538
N4600 G2 X137.042 Y-589.479 I-0.181 J0.239
N4605 X137.102 Y-589.059 I0.24 J0.18
N4610 G1 X155.069 Y-575.59
N4615 G2 X155.485 Y-575.645 I0.18 J-0.24
N4620 G1 X155.707 Y-575.928
N4625 G2 X155.651 Y-576.353 I-0.236 J-0.185
N4630 G1 X137.101 Y-590.265
N4635 G2 X136.622 Y-590.004 I-0.18 J0.24
N4640 G1 X136.984 Y-584.902
N4645 X136.996 Y-584.839
N4650 X137.02 Y-584.78
N4655 X137.057 Y-584.727
N4660 X137.104 Y-584.683
N4665 X153.487 Y-572.402
N4670 G2 X153.906 Y-572.461 I0.18 J-0.24
N4675 G1 X158.339 Y-578.335
N4680 G2 X158.28 Y-578.756 I-0.239 J-0.181
N4685 G1 X137.109 Y-594.634
N4690 G2 X136.629 Y-594.386 I-0.18 J0.24
N4695 G1 X136.989 Y-580.538
N4700 G2 X137.109 Y-580.305 I0.3 J-0.008
N4705 G1 X152.935 Y-568.442
N4710 G2 X153.354 Y-568.501 I0.18 J-0.24
N4715 G1 X161.993 Y-579.97
N4720 G2 X161.934 Y-580.391 I-0.24 J-0.18
N4725 G1 X137.104 Y-599.013
N4730 G2 X136.624 Y-598.768 I-0.18 J0.24
N4735 G1 X136.984 Y-576.17
N4740 G2 X137.104 Y-575.935 I0.3 J-0.005
N4745 G1 X154.38 Y-562.984
N4750 X154.427 Y-562.955
N4755 X154.479 Y-562.935
N4760 X154.533 Y-562.925
N4765 X174.218 Y-561.179
N4770 X174.272 Y-561.169
N4775 X174.324 Y-561.149
N4780 X174.371 Y-561.12
N4785 X192.896 Y-547.233
N4790 G2 X193.343 Y-547.61 I0.18 J-0.24
N4795 G1 X192.982 Y-548.316
N4800 X192.944 Y-548.373
N4805 X192.895 Y-548.42
N4810 X174.95 Y-561.879
N4815 G2 X174.563 Y-561.856 I-0.18 J0.24
N4820 G1 X171.725 Y-559.168
N4825 G2 X171.752 Y-558.71 I0.206 J0.218
N4830 G1 X192.898 Y-542.858
N4835 G2 X193.377 Y-543.109 I0.18 J-0.24
N4840 G1 X193.013 Y-552.568
N4845 G2 X192.893 Y-552.796 I-0.3 J0.012
N4850 G1 X176.523 Y-565.074
N4855 G2 X176.138 Y-565.053 I-0.18 J0.24
N4860 G1 X168.083 Y-557.527
N4865 G2 X168.107 Y-557.067 I0.205 J0.219
N4870 G1 X192.893 Y-538.487
N4875 G2 X193.373 Y-538.733 I0.18 J-0.24
N4880 G1 X193.018 Y-556.933
N4885 G2 X192.898 Y-557.167 I-0.3 J0.006
N4890 G1 X177.065 Y-569.042
N4895 X177.038 Y-569.065
N4900 X177.014 Y-569.091
N4905 X167.684 Y-580.442
N4910 X167.66 Y-580.468
N4915 X167.632 Y-580.492
N4920 X137.109 Y-603.384
N4925 X137.091 Y-603.398 F250.
N4930 X137.016 Y-603.454 Z-8.326
N4935 X136.942 Y-603.509 Z-8.304
N4940 X136.873 Y-603.561 Z-8.268
N4945 X136.808 Y-603.61 Z-8.219
N4950 X136.751 Y-603.653 Z-8.158
N4955 X136.702 Y-603.689 Z-8.086
N4960 X136.663 Y-603.719 Z-8.006
N4965 X136.634 Y-603.74 Z-7.919
N4970 X136.617 Y-603.754 Z-7.827
N4975 X136.611 Y-603.758 Z-7.733
N4980 Z5.
N4985 X165. Y-568.722 F1000.
N4990 Z-8.333
N4995 G2 X164.525 Y-568.539 I-0.18 J0.24
N5000 G1 X162.342 Y-557.227
N5005 G2 X162.456 Y-556.93 I0.295 J0.057
N5010 G1 X192.898 Y-534.109
N5015 G2 X193.378 Y-534.353 I0.18 J-0.24
N5020 G1 X193.014 Y-561.31
N5025 G2 X192.894 Y-561.546 I-0.3 J0.004
N5030 G1 X175.573 Y-574.536
N5035 G2 X174.522 Y-573.136 I-0.525 J0.7
N5040 G1 X183.125 Y-566.681
N5045 X183.183 Y-566.641
N5050 X192.369 Y-560.846
N5055 G2 X193.704 Y-561.696 I0.467 J-0.74
N5060 G1 X193.242 Y-565.327
N5065 G2 X192.899 Y-565.917 I-0.868 J0.11
N5070 G1 X137.105 Y-607.762
N5075 G2 X136.625 Y-607.519 I-0.18 J0.24
N5080 G1 X136.982 Y-571.764
N5085 G2 X137.102 Y-571.527 I0.3 J-0.003
N5090 G1 X192.896 Y-529.682
N5095 G2 X193.376 Y-529.924 I0.18 J-0.24
N5100 G1 X193.014 Y-570.058
N5105 G2 X192.894 Y-570.295 I-0.3 J0.003
N5110 G1 X137.1 Y-612.141
N5115 G2 X136.62 Y-611.898 I-0.18 J0.24
N5120 G1 X136.986 Y-567.386
N5125 G2 X137.106 Y-567.149 I0.3 J-0.003
N5130 G1 X192.89 Y-525.31
N5135 G2 X193.37 Y-525.553 I0.18 J-0.24
N5140 G1 X193.017 Y-574.436
N5145 G2 X192.897 Y-574.674 I-0.3 J0.002
N5150 G1 X137.9 Y-615.922
N5155 X137.103 Y-616.52
N5160 X137.024 Y-616.57 F250.
N5165 X134.372 Y-617.972
N5170 X134.289 Y-618.016 Z-8.326
N5175 X134.208 Y-618.059 Z-8.304
N5180 X134.131 Y-618.1 Z-8.268
N5185 X134.06 Y-618.137 Z-8.219
N5190 X133.996 Y-618.171 Z-8.158
N5195 X133.942 Y-618.199 Z-8.086
N5200 X133.899 Y-618.222 Z-8.006
N5205 X133.867 Y-618.239 Z-7.919
N5210 X133.848 Y-618.25 Z-7.827
N5215 X133.841 Y-618.253 Z-7.733
N5220 Z5. F1000.
N5225 X165. Y-568.722
N5230 Z-8.333
N5235 X164.946 Y-568.754
N5240 X164.887 Y-568.775
N5245 X164.824 Y-568.782
N5250 X164.762 Y-568.776
N5255 X137.224 Y-563.304
N5260 G2 X137.103 Y-562.77 I0.058 J0.294
N5265 G1 X142.1 Y-559.022
N5270 X192.1 Y-521.522
N5275 X192.897 Y-520.924
N5280 X192.976 Y-520.874 F250.
N5285 X195.628 Y-519.471
N5290 X195.711 Y-519.428 Z-8.326
N5295 X195.792 Y-519.385 Z-8.304
N5300 X195.869 Y-519.344 Z-8.268
N5305 X195.94 Y-519.307 Z-8.219
N5310 X196.004 Y-519.273 Z-8.158
N5315 X196.058 Y-519.245 Z-8.086
N5320 X196.101 Y-519.222 Z-8.006
N5325 X196.133 Y-519.205 Z-7.919
N5330 X196.152 Y-519.194 Z-7.827
N5335 X196.159 Y-519.191 Z-7.733
N5340 Z5. F1000.
N5345 X165. Y-568.722
N5350 Z-12.5
N5355 X192.534 Y-547.94
N5360 G2 X192.954 Y-547.999 I0.181 J-0.239
N5365 X192.895 Y-548.42 I-0.24 J-0.18
N5370 G1 X174.95 Y-561.879
N5375 G2 X174.533 Y-561.824 I-0.18 J0.24
N5380 G1 X174.315 Y-561.545
N5385 G2 X174.371 Y-561.12 I0.236 J0.185
N5390 G1 X192.896 Y-547.233
N5395 G2 X193.375 Y-547.495 I0.18 J-0.24
N5400 G1 X193.012 Y-552.577
N5405 X193.001 Y-552.64
N5410 X192.976 Y-552.7
N5415 X192.94 Y-552.752
N5420 X192.893 Y-552.796
N5425 X176.523 Y-565.074
N5430 G2 X176.103 Y-565.014 I-0.18 J0.24
N5435 G1 X171.692 Y-559.13
N5440 G2 X171.752 Y-558.71 I0.24 J0.18
N5445 G1 X192.898 Y-542.858
N5450 G2 X193.378 Y-543.106 I0.18 J-0.24
N5455 G1 X193.018 Y-556.935
N5460 G2 X192.898 Y-557.167 I-0.3 J0.008
N5465 G1 X177.065 Y-569.042
N5470 G2 X176.645 Y-568.982 I-0.18 J0.24
N5475 G1 X168.047 Y-557.487
N5480 G2 X168.107 Y-557.067 I0.24 J0.18
N5485 G1 X192.893 Y-538.487
N5490 G2 X193.373 Y-538.732 I0.18 J-0.24
N5495 G1 X193.014 Y-561.31
N5500 G2 X192.894 Y-561.546 I-0.3 J0.005
N5505 G1 X175.573 Y-574.536
N5510 X175.525 Y-574.565
N5515 X175.473 Y-574.585
N5520 X175.419 Y-574.595
N5525 X155.805 Y-576.294
N5530 X155.75 Y-576.304
N5535 X155.698 Y-576.324
N5540 X155.651 Y-576.353
N5545 X137.101 Y-590.265
N5550 G2 X136.652 Y-589.892 I-0.18 J0.24
N5555 G1 X137.013 Y-589.165
N5560 X137.037 Y-589.125
N5565 X137.067 Y-589.09
N5570 X137.102 Y-589.059
N5575 X155.069 Y-575.59
N5580 G2 X155.455 Y-575.611 I0.18 J-0.24
N5585 G1 X158.306 Y-578.298
N5590 G2 X158.28 Y-578.756 I-0.206 J-0.218
N5595 G1 X137.109 Y-594.634
N5600 G2 X136.629 Y-594.383 I-0.18 J0.24
N5605 G1 X136.984 Y-584.912
N5610 G2 X137.104 Y-584.683 I0.3 J-0.011
N5615 G1 X153.487 Y-572.402
N5620 G2 X153.871 Y-572.422 I0.18 J-0.24
N5625 G1 X161.958 Y-579.931
N5630 G2 X161.934 Y-580.391 I-0.204 J-0.22
N5635 G1 X137.104 Y-599.013
N5640 G2 X136.624 Y-598.767 I-0.18 J0.24
N5645 G1 X136.989 Y-580.54
N5650 G2 X137.109 Y-580.305 I0.3 J-0.006
N5655 G1 X152.935 Y-568.442
N5660 X152.962 Y-568.419
N5665 X152.986 Y-568.393
N5670 X162.405 Y-556.979
N5675 X162.429 Y-556.953
N5680 X162.456 Y-556.93
N5685 X192.898 Y-534.109
N5690 X192.917 Y-534.095 F250.
N5695 X192.992 Y-534.039 Z-12.493
N5700 X193.065 Y-533.984 Z-12.471
N5705 X193.135 Y-533.932 Z-12.435
N5710 X193.199 Y-533.884 Z-12.385
N5715 X193.256 Y-533.841 Z-12.324
N5720 X193.305 Y-533.804 Z-12.253
N5725 X193.344 Y-533.774 Z-12.172
N5730 X193.373 Y-533.753 Z-12.085
N5735 X193.391 Y-533.74 Z-11.994
N5740 X193.397 Y-533.735 Z-11.9
N5745 Z5.
N5750 X165. Y-568.722 F1000.
N5755 Z-12.5
N5760 G2 X165.474 Y-568.903 I0.18 J-0.24
N5765 G1 X167.746 Y-580.192
N5770 G2 X167.632 Y-580.492 I-0.294 J-0.059
N5775 G1 X137.109 Y-603.384
N5780 G2 X136.629 Y-603.14 I-0.18 J0.24
N5785 G1 X136.984 Y-576.171
N5790 G2 X137.104 Y-575.935 I0.3 J-0.004
N5795 G1 X154.38 Y-562.984
N5800 G2 X155.43 Y-564.384 I0.525 J-0.7
N5805 G1 X146.85 Y-570.819
N5810 X146.792 Y-570.86
N5815 X137.629 Y-576.635
N5820 G2 X136.294 Y-575.785 I-0.467 J0.74
N5825 G1 X136.759 Y-572.117
N5830 G2 X137.102 Y-571.527 I0.868 J-0.11
N5835 G1 X192.896 Y-529.682
N5840 G2 X193.376 Y-529.925 I0.18 J-0.24
N5845 G1 X193.019 Y-565.68
N5850 G2 X192.899 Y-565.917 I-0.3 J0.003
N5855 G1 X137.105 Y-607.762
N5860 G2 X136.625 Y-607.52 I-0.18 J0.24
N5865 G1 X136.986 Y-567.386
N5870 G2 X137.106 Y-567.149 I0.3 J-0.003
N5875 G1 X192.89 Y-525.31
N5880 G2 X193.37 Y-525.553 I0.18 J-0.24
N5885 G1 X193.014 Y-570.058
N5890 G2 X192.894 Y-570.295 I-0.3 J0.002
N5895 G1 X137.1 Y-612.141
N5900 G2 X136.62 Y-611.898 I-0.18 J0.24
N5905 G1 X136.983 Y-563.008
N5910 G2 X137.103 Y-562.77 I0.3 J-0.002
N5915 G1 X142.1 Y-559.022
N5920 X192.1 Y-521.522
N5925 X192.897 Y-520.924
N5930 X192.976 Y-520.874 F250.
N5935 X195.628 Y-519.471
N5940 X195.711 Y-519.428 Z-12.493
N5945 X195.792 Y-519.385 Z-12.471
N5950 X195.869 Y-519.344 Z-12.435
N5955 X195.94 Y-519.307 Z-12.385
N5960 X196.004 Y-519.273 Z-12.324
N5965 X196.058 Y-519.245 Z-12.253
N5970 X196.101 Y-519.222 Z-12.172
N5975 X196.133 Y-519.205 Z-12.085
N5980 X196.152 Y-519.194 Z-11.994
N5985 X196.159 Y-519.191 Z-11.9
N5990 Z5. F1000.
N5995 X165. Y-568.722
N6000 Z-12.5
N6005 X165.054 Y-568.69
N6010 X165.113 Y-568.669
N6015 X165.176 Y-568.662
N6020 X165.238 Y-568.668
N6025 X192.776 Y-574.14
N6030 G2 X192.897 Y-574.674 I-0.058 J-0.294
N6035 G1 X137.9 Y-615.922
N6040 X137.103 Y-616.52
N6045 X137.024 Y-616.57 F250.
N6050 X134.372 Y-617.972
N6055 X134.289 Y-618.016 Z-12.493
N6060 X134.208 Y-618.059 Z-12.471
N6065 X134.131 Y-618.1 Z-12.435
N6070 X134.06 Y-618.137 Z-12.385
N6075 X133.996 Y-618.171 Z-12.324
N6080 X133.942 Y-618.199 Z-12.253
N6085 X133.899 Y-618.222 Z-12.172
N6090 X133.867 Y-618.239 Z-12.085
N6095 X133.848 Y-618.25 Z-11.994
N6100 X133.841 Y-618.253 Z-11.9
N6105 Z15. F1000.
N6110 X235. Y-568.427
N6115 Z5.
N6120 Z-4.167
N6125 X207.466 Y-589.209
N6130 G2 X207.046 Y-589.149 I-0.181 J0.239
N6135 X207.106 Y-588.729 I0.24 J0.18
N6140 G1 X262.9 Y-546.884
N6145 G2 X263.35 Y-547.253 I0.18 J-0.24
N6150 G1 X262.985 Y-548.015
N6155 X262.961 Y-548.056
N6160 X262.931 Y-548.093
N6165 X262.895 Y-548.125
N6170 X207.101 Y-589.97
N6175 G2 X206.622 Y-589.709 I-0.18 J0.24
N6180 G1 X206.988 Y-584.572
N6185 X206.999 Y-584.509
N6190 X207.024 Y-584.449
N6195 X207.06 Y-584.397
N6200 X207.107 Y-584.353
N6205 X262.892 Y-542.515
N6210 G2 X263.371 Y-542.766 I0.18 J-0.24
N6215 G1 X263.013 Y-552.272
N6220 G2 X262.893 Y-552.501 I-0.3 J0.011
N6225 G1 X207.109 Y-594.339
N6230 G2 X206.629 Y-594.092 I-0.18 J0.24
N6235 G1 X206.982 Y-580.214
N6240 G2 X207.102 Y-579.982 I0.3 J-0.008
N6245 G1 X262.896 Y-538.136
N6250 G2 X263.376 Y-538.382 I0.18 J-0.24
N6255 G1 X263.018 Y-556.638
N6260 G2 X262.898 Y-556.872 I-0.3 J0.006
N6265 G1 X207.104 Y-598.718
N6270 G2 X206.624 Y-598.473 I-0.18 J0.24
N6275 G1 X206.987 Y-575.839
N6280 G2 X207.107 Y-575.603 I0.3 J-0.005
N6285 G1 X262.891 Y-533.765
N6290 G2 X263.371 Y-534.009 I0.18 J-0.24
N6295 G1 X263.014 Y-561.015
N6300 G2 X262.894 Y-561.251 I-0.3 J0.004
N6305 G1 X207.109 Y-603.089
N6310 G2 X206.629 Y-602.846 I-0.18 J0.24
N6315 G1 X206.982 Y-571.469
N6320 G2 X207.102 Y-571.232 I0.3 J-0.003
N6325 G1 X262.896 Y-529.387
N6330 G2 X263.376 Y-529.63 I0.18 J-0.24
N6335 G1 X263.019 Y-565.385
N6340 G2 X262.899 Y-565.622 I-0.3 J0.003
N6345 G1 X207.105 Y-607.467
N6350 G2 X206.625 Y-607.225 I-0.18 J0.24
N6355 G1 X206.986 Y-567.091
N6360 G2 X207.106 Y-566.854 I0.3 J-0.003
N6365 G1 X262.89 Y-525.016
N6370 G2 X263.37 Y-525.258 I0.18 J-0.24
N6375 G1 X263.014 Y-569.763
N6380 G2 X262.894 Y-570. I-0.3 J0.002
N6385 G1 X207.1 Y-611.846
N6390 G2 X206.62 Y-611.603 I-0.18 J0.24
N6395 G1 X206.982 Y-562.713
N6400 G2 X207.102 Y-562.475 I0.3 J-0.002
N6405 G1 X212.1 Y-558.727
N6410 X262.1 Y-521.227
N6415 X262.897 Y-520.629
N6420 X262.976 Y-520.579 F250.
N6425 X265.628 Y-519.177
N6430 X265.711 Y-519.133 Z-4.159
N6435 X265.792 Y-519.09 Z-4.137
N6440 X265.869 Y-519.049 Z-4.101
N6445 X265.94 Y-519.012 Z-4.052
N6450 X266.004 Y-518.978 Z-3.991
N6455 X266.058 Y-518.95 Z-3.919
N6460 X266.101 Y-518.927 Z-3.839
N6465 X266.133 Y-518.91 Z-3.752
N6470 X266.152 Y-518.9 Z-3.661
N6475 X266.159 Y-518.896 Z-3.567
N6480 Z5. F1000.
N6485 X235. Y-568.427
N6490 Z-4.167
N6495 X235.054 Y-568.395
N6500 X235.113 Y-568.374
N6505 X235.176 Y-568.367
N6510 X235.238 Y-568.373
N6515 X262.776 Y-573.845
N6520 G2 X262.897 Y-574.379 I-0.058 J-0.294
N6525 G1 X207.9 Y-615.627
N6530 X207.103 Y-616.225
N6535 X207.024 Y-616.275 F250.
N6540 X204.372 Y-617.677
N6545 X204.289 Y-617.721 Z-4.159
N6550 X204.208 Y-617.764 Z-4.137
N6555 X204.131 Y-617.805 Z-4.101
N6560 X204.06 Y-617.842 Z-4.052
N6565 X203.996 Y-617.876 Z-3.991
N6570 X203.942 Y-617.904 Z-3.919
N6575 X203.899 Y-617.927 Z-3.839
N6580 X203.867 Y-617.944 Z-3.752
N6585 X203.848 Y-617.955 Z-3.661
N6590 X203.841 Y-617.958 Z-3.567
N6595 Z5. F1000.
N6600 X235. Y-568.427
N6605 Z-8.333
N6610 X207.466 Y-589.209
N6615 G2 X207.046 Y-589.149 I-0.181 J0.239
N6620 X207.106 Y-588.729 I0.24 J0.18
N6625 G1 X262.9 Y-546.884
N6630 G2 X263.35 Y-547.253 I0.18 J-0.24
N6635 G1 X262.985 Y-548.015
N6640 X262.961 Y-548.056
N6645 X262.931 Y-548.093
N6650 X262.895 Y-548.125
N6655 X207.101 Y-589.97
N6660 G2 X206.622 Y-589.709 I-0.18 J0.24
N6665 G1 X206.988 Y-584.572
N6670 X206.999 Y-584.509
N6675 X207.024 Y-584.449
N6680 X207.06 Y-584.397
N6685 X207.107 Y-584.353
N6690 X262.892 Y-542.515
N6695 G2 X263.371 Y-542.766 I0.18 J-0.24
N6700 G1 X263.013 Y-552.272
N6705 G2 X262.893 Y-552.501 I-0.3 J0.011
N6710 G1 X207.109 Y-594.339
N6715 G2 X206.629 Y-594.092 I-0.18 J0.24
N6720 G1 X206.982 Y-580.214
N6725 G2 X207.102 Y-579.982 I0.3 J-0.008
N6730 G1 X262.896 Y-538.136
N6735 G2 X263.376 Y-538.382 I0.18 J-0.24
N6740 G1 X263.018 Y-556.638
N6745 G2 X262.898 Y-556.872 I-0.3 J0.006
N6750 G1 X207.104 Y-598.718
N6755 G2 X206.624 Y-598.473 I-0.18 J0.24
N6760 G1 X206.987 Y-575.839
N6765 G2 X207.107 Y-575.603 I0.3 J-0.005
N6770 G1 X262.891 Y-533.765
N6775 G2 X263.371 Y-534.009 I0.18 J-0.24
N6780 G1 X263.014 Y-561.015
N6785 G2 X262.894 Y-561.251 I-0.3 J0.004
N6790 G1 X207.109 Y-603.089
N6795 G2 X206.629 Y-602.846 I-0.18 J0.24
N6800 G1 X206.982 Y-571.469
N6805 G2 X207.102 Y-571.232 I0.3 J-0.003
N6810 G1 X262.896 Y-529.387
N6815 G2 X263.376 Y-529.63 I0.18 J-0.24
N6820 G1 X263.019 Y-565.385
N6825 G2 X262.899 Y-565.622 I-0.3 J0.003
N6830 G1 X207.105 Y-607.467
N6835 G2 X206.625 Y-607.225 I-0.18 J0.24
N6840 G1 X206.986 Y-567.091
N6845 G2 X207.106 Y-566.854 I0.3 J-0.003
N6850 G1 X262.89 Y-525.016
N6855 G2 X263.37 Y-525.258 I0.18 J-0.24
N6860 G1 X263.014 Y-569.763
N6865 G2 X262.894 Y-570. I-0.3 J0.002
N6870 G1 X207.1 Y-611.846
N6875 G2 X206.62 Y-611.603 I-0.18 J0.24
N6880 G1 X206.982 Y-562.713
N6885 G2 X207.102 Y-562.475 I0.3 J-0.002
N6890 G1 X212.1 Y-558.727
N6895 X262.1 Y-521.227
N6900 X262.897 Y-520.629
N6905 X262.976 Y-520.579 F250.
N6910 X265.628 Y-519.177
N6915 X265.711 Y-519.133 Z-8.326
N6920 X265.792 Y-519.09 Z-8.304
N6925 X265.869 Y-519.049 Z-8.268
N6930 X265.94 Y-519.012 Z-8.219
N6935 X266.004 Y-518.978 Z-8.158
N6940 X266.058 Y-518.95 Z-8.086
N6945 X266.101 Y-518.927 Z-8.006
N6950 X266.133 Y-518.91 Z-7.919
N6955 X266.152 Y-518.9 Z-7.827
N6960 X266.159 Y-518.896 Z-7.733
N6965 Z5. F1000.
N6970 X235. Y-568.427
N6975 Z-8.333
N6980 X235.054 Y-568.395
N6985 X235.113 Y-568.374
N6990 X235.176 Y-568.367
N6995 X235.238 Y-568.373
N7000 X262.776 Y-573.845
N7005 G2 X262.897 Y-574.379 I-0.058 J-0.294
N7010 G1 X207.9 Y-615.627
N7015 X207.103 Y-616.225
N7020 X207.024 Y-616.275 F250.
N7025 X204.372 Y-617.677
N7030 X204.289 Y-617.721 Z-8.326
N7035 X204.208 Y-617.764 Z-8.304
N7040 X204.131 Y-617.805 Z-8.268
N7045 X204.06 Y-617.842 Z-8.219
N7050 X203.996 Y-617.876 Z-8.158
N7055 X203.942 Y-617.904 Z-8.086
N7060 X203.899 Y-617.927 Z-8.006
N7065 X203.867 Y-617.944 Z-7.919
N7070 X203.848 Y-617.955 Z-7.827
N7075 X203.841 Y-617.958 Z-7.733
N7080 Z5. F1000.
N7085 X235. Y-568.427
N7090 Z-12.5
N7095 X207.466 Y-589.209
N7100 G2 X207.046 Y-589.149 I-0.181 J0.239
N7105 X207.106 Y-588.729 I0.24 J0.18
N7110 G1 X262.9 Y-546.884
N7115 G2 X263.35 Y-547.253 I0.18 J-0.24
N7120 G1 X262.985 Y-548.015
N7125 X262.961 Y-548.056
N7130 X262.931 Y-548.093
N7135 X262.895 Y-548.125
N7140 X207.101 Y-589.97
N7145 G2 X206.622 Y-589.709 I-0.18 J0.24
N7150 G1 X206.988 Y-584.572
N7155 X206.999 Y-584.509
N7160 X207.024 Y-584.449
N7165 X207.06 Y-584.397
N7170 X207.107 Y-584.353
N7175 X262.892 Y-542.515
N7180 G2 X263.371 Y-542.766 I0.18 J-0.24
N7185 G1 X263.013 Y-552.272
N7190 G2 X262.893 Y-552.501 I-0.3 J0.011
N7195 G1 X207.109 Y-594.339
N7200 G2 X206.629 Y-594.092 I-0.18 J0.24
N7205 G1 X206.982 Y-580.214
N7210 G2 X207.102 Y-579.982 I0.3 J-0.008
N7215 G1 X262.896 Y-538.136
N7220 G2 X263.376 Y-538.382 I0.18 J-0.24
N7225 G1 X263.018 Y-556.638
N7230 G2 X262.898 Y-556.872 I-0.3 J0.006
N7235 G1 X207.104 Y-598.718
N7240 G2 X206.624 Y-598.473 I-0.18 J0.24
N7245 G1 X206.987 Y-575.839
N7250 G2 X207.107 Y-575.603 I0.3 J-0.005
N7255 G1 X262.891 Y-533.765
N7260 G2 X263.371 Y-534.009 I0.18 J-0.24
N7265 G1 X263.014 Y-561.015
N7270 G2 X262.894 Y-561.251 I-0.3 J0.004
N7275 G1 X207.109 Y-603.089
N7280 G2 X206.629 Y-602.846 I-0.18 J0.24
N7285 G1 X206.982 Y-571.469
N7290 G2 X207.102 Y-571.232 I0.3 J-0.003
N7295 G1 X262.896 Y-529.387
N7300 G2 X263.376 Y-529.63 I0.18 J-0.24
N7305 G1 X263.019 Y-565.385
N7310 G2 X262.899 Y-565.622 I-0.3 J0.003
N7315 G1 X207.105 Y-607.467
N7320 G2 X206.625 Y-607.225 I-0.18 J0.24
N7325 G1 X206.986 Y-567.091
N7330 G2 X207.106 Y-566.854 I0.3 J-0.003
N7335 G1 X262.89 Y-525.016
N7340 G2 X263.37 Y-525.258 I0.18 J-0.24
N7345 G1 X263.014 Y-569.763
N7350 G2 X262.894 Y-570. I-0.3 J0.002
N7355 G1 X207.1 Y-611.846
N7360 G2 X206.62 Y-611.603 I-0.18 J0.24
N7365 G1 X206.982 Y-562.713
N7370 G2 X207.102 Y-562.475 I0.3 J-0.002
N7375 G1 X212.1 Y-558.727
N7380 X262.1 Y-521.227
N7385 X262.897 Y-520.629
N7390 X262.976 Y-520.579 F250.
N7395 X265.628 Y-519.177
N7400 X265.711 Y-519.133 Z-12.493
N7405 X265.792 Y-519.09 Z-12.471
N7410 X265.869 Y-519.049 Z-12.435
N7415 X265.94 Y-519.012 Z-12.385
N7420 X266.004 Y-518.978 Z-12.324
N7425 X266.058 Y-518.95 Z-12.253
N7430 X266.101 Y-518.927 Z-12.172
N7435 X266.133 Y-518.91 Z-12.085
N7440 X266.152 Y-518.9 Z-11.994
N7445 X266.159 Y-518.896 Z-11.9
N7450 Z5. F1000.
N7455 X235. Y-568.427
N7460 Z-12.5
N7465 X235.054 Y-568.395
N7470 X235.113 Y-568.374
N7475 X235.176 Y-568.367
N7480 X235.238 Y-568.373
N7485 X262.776 Y-573.845
N7490 G2 X262.897 Y-574.379 I-0.058 J-0.294
N7495 G1 X207.9 Y-615.627
N7500 X207.103 Y-616.225
N7505 X207.024 Y-616.275 F250.
N7510 X204.372 Y-617.677
N7515 X204.289 Y-617.721 Z-12.493
N7520 X204.208 Y-617.764 Z-12.471
N7525 X204.131 Y-617.805 Z-12.435
N7530 X204.06 Y-617.842 Z-12.385
N7535 X203.996 Y-617.876 Z-12.324
N7540 X203.942 Y-617.904 Z-12.253
N7545 X203.899 Y-617.927 Z-12.172
N7550 X203.867 Y-617.944 Z-12.085
N7555 X203.848 Y-617.955 Z-11.994
N7560 X203.841 Y-617.958 Z-11.9
N7565 Z15. F1000.
N7570 X165. Y-568.722
N7575 Z5.
N7580 Z-4.167
N7585 G2 X165.3 Y-568.422 I0.3 J0.
N7590 G1 X165.4
N7595 G2 X165.7 Y-568.722 I0. J-0.3
N7600 X164.3 I-0.7 J0.
N7605 X169.3 I2.5 J0.
N7610 X160.7 I-4.3 J0.
N7615 X172.9 I6.1 J0.
N7620 X157.1 I-7.9 J0.
N7625 X176.5 I9.7 J0.
N7630 X153.5 I-11.5 J0.
N7635 X176.5 I11.5 J0.
N7640 X176.108 Y-569.008 I-0.3 J0.
N7645 G1 X168.704 Y-566.643
N7650 X168.645 Y-566.617
N7655 G3 X168.332 Y-566.625 I-0.15 J-0.26
N7660 G1 X165.163 Y-568.674
N7665 X165.112 Y-568.7
N7670 X165.057 Y-568.717
N7675 X165. Y-568.722
N7680 Z-8.333
N7685 X165.032 Y-568.719
N7690 X165.062 Y-568.711
N7695 X165.463 Y-568.559
N7700 G2 X165.7 Y-568.722 I0.062 J-0.163
N7705 X164.3 I-0.7 J0.
N7710 X169.3 I2.5 J0.
N7715 X160.7 I-4.3 J0.
N7720 X172.9 I6.1 J0.
N7725 X157.1 I-7.9 J0.
N7730 X176.5 I9.7 J0.
N7735 X153.5 I-11.5 J0.
N7740 X176.5 I11.5 J0.
N7745 X176.108 Y-569.008 I-0.3 J0.
N7750 G1 X168.704 Y-566.643
N7755 X168.645 Y-566.617
N7760 G3 X168.332 Y-566.625 I-0.15 J-0.26
N7765 G1 X165.163 Y-568.674
N7770 X165.112 Y-568.7
N7775 X165.057 Y-568.717
N7780 X165. Y-568.722
N7785 Z-12.5
N7790 X165.032 Y-568.719
N7795 X165.062 Y-568.711
N7800 X165.463 Y-568.559
N7805 G2 X165.7 Y-568.722 I0.062 J-0.163
N7810 X164.3 I-0.7 J0.
N7815 X169.3 I2.5 J0.
N7820 X160.7 I-4.3 J0.
N7825 X172.9 I6.1 J0.
N7830 X157.1 I-7.9 J0.
N7835 X176.5 I9.7 J0.
N7840 X153.5 I-11.5 J0.
N7845 X176.5 I11.5 J0.
N7850 G1 X176.492 Y-568.814 Z-12.485 F250.
N7855 X176.471 Y-568.904 Z-12.471
N7860 X176.44 Y-568.982 Z-12.428
N7865 X176.399 Y-569.055 Z-12.385
N7870 X176.359 Y-569.108 Z-12.319
N7875 X176.314 Y-569.156 Z-12.253
N7880 X176.248 Y-569.21 Z-12.085
N7885 X176.224 Y-569.227 Z-11.9
N7890 Z5. F1000.
N7895 X25. Y-568.722
N7900 Z-4.167
N7905 G2 X25.3 Y-568.422 I0.3 J0.
N7910 G1 X25.4
N7915 G2 X25.7 Y-568.722 I0. J-0.3
N7920 X24.3 I-0.7 J0.
N7925 X29.3 I2.5 J0.
N7930 X20.7 I-4.3 J0.
N7935 X32.9 I6.1 J0.
N7940 X17.1 I-7.9 J0.
N7945 X36.5 I9.7 J0.
N7950 X13.5 I-11.5 J0.
N7955 X36.5 I11.5 J0.
N7960 X36.109 Y-569.008 I-0.3 J0.
N7965 G1 X28.704 Y-566.643
N7970 X28.645 Y-566.617
N7975 G3 X28.332 Y-566.625 I-0.15 J-0.26
N7980 G1 X25.163 Y-568.674
N7985 X25.112 Y-568.7
N7990 X25.057 Y-568.717
N7995 X25. Y-568.722
N8000 Z-8.333
N8005 G2 Y-569.322 I0. J-0.3
N8010 X24.82 Y-568.782 I0. J0.3
N8015 G1 X25.22 Y-568.482
N8020 G2 X25.7 Y-568.722 I0.18 J-0.24
N8025 X24.3 I-0.7 J0.
N8030 X29.3 I2.5 J0.
N8035 X20.7 I-4.3 J0.
N8040 X32.9 I6.1 J0.
N8045 X17.1 I-7.9 J0.
N8050 X36.5 I9.7 J0.
N8055 X13.5 I-11.5 J0.
N8060 X36.5 I11.5 J0.
N8065 X36.109 Y-569.008 I-0.3 J0.
N8070 G1 X28.704 Y-566.643
N8075 X28.645 Y-566.617
N8080 G3 X28.332 Y-566.625 I-0.15 J-0.26
N8085 G1 X25.163 Y-568.674
N8090 X25.112 Y-568.7
N8095 X25.057 Y-568.717
N8100 X25. Y-568.722
N8105 Z-12.5
N8110 G2 Y-569.322 I0. J-0.3
N8115 X24.82 Y-568.782 I0. J0.3
N8120 G1 X25.22 Y-568.482
N8125 G2 X25.7 Y-568.722 I0.18 J-0.24
N8130 X24.3 I-0.7 J0.
N8135 X29.3 I2.5 J0.
N8140 X20.7 I-4.3 J0.
N8145 X32.9 I6.1 J0.
N8150 X17.1 I-7.9 J0.
N8155 X36.5 I9.7 J0.
N8160 X13.5 I-11.5 J0.
N8165 X36.5 I11.5 J0.
N8170 G1 X36.493 Y-568.814 Z-12.485 F250.
N8175 X36.471 Y-568.904 Z-12.471
N8180 X36.441 Y-568.982 Z-12.428
N8185 X36.399 Y-569.055 Z-12.385
N8190 X36.359 Y-569.108 Z-12.319
N8195 X36.314 Y-569.156 Z-12.253
N8200 X36.248 Y-569.21 Z-12.085
N8205 X36.224 Y-569.227 Z-11.9
N8210 Z15. F1000.
(WHEN USING FUSION 360 FOR PERSONAL USE, THE FEEDRATE OF)
(RAPID MOVES IS REDUCED TO MATCH THE FEEDRATE OF CUTTING)
(MOVES, WHICH CAN INCREASE MACHINING TIME. UNRESTRICTED RAPID)
(MOVES ARE AVAILABLE WITH A FUSION 360 SUBSCRIPTION.)
(2D CONTOUR2)
N8215 G0 X142.34 Y-560.342
N8220 G1 Z15. F750.
N8225 Z5.
N8230 Z-4.4 F100.
N8235 X142.336 Y-560.336 Z-4.494 F200.
N8240 X142.322 Y-560.318 Z-4.585
N8245 X142.301 Y-560.29 Z-4.672
N8250 X142.271 Y-560.25 Z-4.753
N8255 X142.235 Y-560.201 Z-4.824
N8260 X142.192 Y-560.144 Z-4.885
N8265 X142.143 Y-560.08 Z-4.935
N8270 X142.091 Y-560.01 Z-4.971
N8275 X142.036 Y-559.937 Z-4.993
N8280 X141.98 Y-559.862 Z-5.
N8285 X141.62 Y-559.382
N8290 G2 X141.74 Y-558.542 I0.48 J0.36
N8295 G1 X191.74 Y-521.042 F750.
N8300 G2 X192.58 Y-521.162 I0.36 J-0.48 F200.
N8305 G1 X192.94 Y-521.642
N8310 X192.996 Y-521.717 Z-4.993
N8315 X193.051 Y-521.79 Z-4.971
N8320 X193.103 Y-521.86 Z-4.935
N8325 X193.152 Y-521.924 Z-4.885
N8330 X193.195 Y-521.981 Z-4.824
N8335 X193.231 Y-522.03 Z-4.753
N8340 X193.261 Y-522.07 Z-4.672
N8345 X193.282 Y-522.099 Z-4.585
N8350 X193.296 Y-522.116 Z-4.494
N8355 X193.3 Y-522.122 Z-4.4
N8360 Z5. F750.
N8365 X212.34 Y-560.047
N8370 Z-4.4 F100.
N8375 X212.336 Y-560.041 Z-4.494 F200.
N8380 X212.322 Y-560.024 Z-4.585
N8385 X212.301 Y-559.995 Z-4.672
N8390 X212.271 Y-559.955 Z-4.753
N8395 X212.235 Y-559.906 Z-4.824
N8400 X212.192 Y-559.849 Z-4.885
N8405 X212.143 Y-559.785 Z-4.935
N8410 X212.091 Y-559.715 Z-4.971
N8415 X212.036 Y-559.642 Z-4.993
N8420 X211.98 Y-559.567 Z-5.
N8425 X211.62 Y-559.087
N8430 G2 X211.74 Y-558.247 I0.48 J0.36
N8435 G1 X261.74 Y-520.747 F750.
N8440 G2 X262.58 Y-520.867 I0.36 J-0.48 F200.
N8445 G1 X262.94 Y-521.347
N8450 X262.996 Y-521.422 Z-4.993
N8455 X263.051 Y-521.495 Z-4.971
N8460 X263.103 Y-521.565 Z-4.935
N8465 X263.152 Y-521.629 Z-4.885
N8470 X263.195 Y-521.686 Z-4.824
N8475 X263.231 Y-521.735 Z-4.753
N8480 X263.261 Y-521.775 Z-4.672
N8485 X263.282 Y-521.804 Z-4.585
N8490 X263.296 Y-521.821 Z-4.494
N8495 X263.3 Y-521.827 Z-4.4
N8500 Z5. F750.
N8505 X257.66 Y-576.807
N8510 Z-4.4 F100.
N8515 X257.664 Y-576.813 Z-4.494 F200.
N8520 X257.678 Y-576.83 Z-4.585
N8525 X257.699 Y-576.859 Z-4.672
N8530 X257.729 Y-576.899 Z-4.753
N8535 X257.765 Y-576.948 Z-4.824
N8540 X257.808 Y-577.005 Z-4.885
N8545 X257.857 Y-577.069 Z-4.935
N8550 X257.909 Y-577.139 Z-4.971
N8555 X257.964 Y-577.212 Z-4.993
N8560 X258.02 Y-577.287 Z-5.
N8565 X258.38 Y-577.767
N8570 G2 X258.26 Y-578.607 I-0.48 J-0.36
N8575 G1 X208.26 Y-616.107 F750.
N8580 G2 X207.42 Y-615.987 I-0.36 J0.48 F200.
N8585 G1 X207.06 Y-615.507
N8590 X207.004 Y-615.432 Z-4.993
N8595 X206.949 Y-615.359 Z-4.971
N8600 X206.897 Y-615.289 Z-4.935
N8605 X206.848 Y-615.225 Z-4.885
N8610 X206.805 Y-615.168 Z-4.824
N8615 X206.769 Y-615.119 Z-4.753
N8620 X206.739 Y-615.079 Z-4.672
N8625 X206.718 Y-615.05 Z-4.585
N8630 X206.704 Y-615.033 Z-4.494
N8635 X206.7 Y-615.027 Z-4.4
N8640 Z5. F750.
N8645 X187.66 Y-577.102
N8650 Z-4.4 F100.
N8655 X187.664 Y-577.108 Z-4.494 F200.
N8660 X187.678 Y-577.125 Z-4.585
N8665 X187.699 Y-577.154 Z-4.672
N8670 X187.729 Y-577.194 Z-4.753
N8675 X187.765 Y-577.243 Z-4.824
N8680 X187.808 Y-577.3 Z-4.885
N8685 X187.857 Y-577.364 Z-4.935
N8690 X187.909 Y-577.434 Z-4.971
N8695 X187.964 Y-577.507 Z-4.993
N8700 X188.02 Y-577.582 Z-5.
N8705 X188.38 Y-578.062
N8710 G2 X188.26 Y-578.902 I-0.48 J-0.36
N8715 G1 X138.26 Y-616.402 F750.
N8720 G2 X137.42 Y-616.282 I-0.36 J0.48 F200.
N8725 G1 X137.06 Y-615.802
N8730 X137.004 Y-615.727 Z-4.993
N8735 X136.949 Y-615.654 Z-4.971
N8740 X136.897 Y-615.584 Z-4.935
N8745 X136.848 Y-615.52 Z-4.885
N8750 X136.805 Y-615.463 Z-4.824
N8755 X136.769 Y-615.414 Z-4.753
N8760 X136.739 Y-615.374 Z-4.672
N8765 X136.718 Y-615.346 Z-4.585
N8770 X136.704 Y-615.328 Z-4.494
N8775 X136.7 Y-615.322 Z-4.4
N8780 Z5. F750.
N8785 X117.66 Y-576.807
N8790 Z-4.4 F100.
N8795 X117.664 Y-576.813 Z-4.494 F200.
N8800 X117.678 Y-576.83 Z-4.585
N8805 X117.699 Y-576.859 Z-4.672
N8810 X117.729 Y-576.899 Z-4.753
N8815 X117.765 Y-576.948 Z-4.824
N8820 X117.808 Y-577.005 Z-4.885
N8825 X117.857 Y-577.069 Z-4.935
N8830 X117.909 Y-577.139 Z-4.971
N8835 X117.964 Y-577.212 Z-4.993
N8840 X118.02 Y-577.287 Z-5.
N8845 X118.38 Y-577.767
N8850 G2 X118.26 Y-578.607 I-0.48 J-0.36
N8855 G1 X68.26 Y-616.107 F750.
N8860 G2 X67.42 Y-615.987 I-0.36 J0.48 F200.
N8865 G1 X67.06 Y-615.507
N8870 X67.004 Y-615.432 Z-4.993
N8875 X66.949 Y-615.359 Z-4.971
N8880 X66.897 Y-615.289 Z-4.935
N8885 X66.848 Y-615.225 Z-4.885
N8890 X66.805 Y-615.168 Z-4.824
N8895 X66.769 Y-615.119 Z-4.753
N8900 X66.739 Y-615.079 Z-4.672
N8905 X66.718 Y-615.05 Z-4.585
N8910 X66.704 Y-615.033 Z-4.494
N8915 X66.7 Y-615.027 Z-4.4
N8920 Z5. F750.
N8925 X47.66 Y-577.102
N8930 Z-4.4 F100.
N8935 X47.664 Y-577.108 Z-4.494 F200.
N8940 X47.678 Y-577.125 Z-4.585
N8945 X47.699 Y-577.154 Z-4.672
N8950 X47.729 Y-577.194 Z-4.753
N8955 X47.765 Y-577.243 Z-4.824
N8960 X47.808 Y-577.3 Z-4.885
N8965 X47.857 Y-577.364 Z-4.935
N8970 X47.909 Y-577.434 Z-4.971
N8975 X47.964 Y-577.507 Z-4.993
N8980 X48.02 Y-577.582 Z-5.
N8985 X48.38 Y-578.062
N8990 G2 X48.26 Y-578.902 I-0.48 J-0.36
N8995 G1 X-1.74 Y-616.402 F750.
N9000 G2 X-2.58 Y-616.282 I-0.36 J0.48 F200.
N9005 G1 X-2.94 Y-615.802
N9010 X-2.996 Y-615.727 Z-4.993
N9015 X-3.051 Y-615.654 Z-4.971
N9020 X-3.103 Y-615.584 Z-4.935
N9025 X-3.152 Y-615.52 Z-4.885
N9030 X-3.195 Y-615.463 Z-4.824
N9035 X-3.231 Y-615.414 Z-4.753
N9040 X-3.261 Y-615.374 Z-4.672
N9045 X-3.282 Y-615.346 Z-4.585
N9050 X-3.296 Y-615.328 Z-4.494
N9055 X-3.3 Y-615.322 Z-4.4
N9060 Z5. F750.
N9065 X2.34 Y-560.342
N9070 Z-4.4 F100.
N9075 X2.336 Y-560.336 Z-4.494 F200.
N9080 X2.322 Y-560.318 Z-4.585
N9085 X2.301 Y-560.29 Z-4.672
N9090 X2.271 Y-560.25 Z-4.753
N9095 X2.235 Y-560.201 Z-4.824
N9100 X2.192 Y-560.144 Z-4.885
N9105 X2.143 Y-560.08 Z-4.935
N9110 X2.091 Y-560.01 Z-4.971
N9115 X2.036 Y-559.937 Z-4.993
N9120 X1.98 Y-559.862 Z-5.
N9125 X1.62 Y-559.382
N9130 G2 X1.74 Y-558.542 I0.48 J0.36
N9135 G1 X51.74 Y-521.042 F750.
N9140 G2 X52.58 Y-521.162 I0.36 J-0.48 F200.
N9145 G1 X52.94 Y-521.642
N9150 X52.996 Y-521.717 Z-4.993
N9155 X53.051 Y-521.79 Z-4.971
N9160 X53.103 Y-521.86 Z-4.935
N9165 X53.152 Y-521.924 Z-4.885
N9170 X53.195 Y-521.981 Z-4.824
N9175 X53.231 Y-522.03 Z-4.753
N9180 X53.261 Y-522.07 Z-4.672
N9185 X53.282 Y-522.099 Z-4.585
N9190 X53.296 Y-522.116 Z-4.494
N9195 X53.3 Y-522.122 Z-4.4
N9200 Z5. F750.
N9205 X72.34 Y-560.047
N9210 Z-4.4 F100.
N9215 X72.336 Y-560.041 Z-4.494 F200.
N9220 X72.322 Y-560.024 Z-4.585
N9225 X72.301 Y-559.995 Z-4.672
N9230 X72.271 Y-559.955 Z-4.753
N9235 X72.235 Y-559.906 Z-4.824
N9240 X72.192 Y-559.849 Z-4.885
N9245 X72.143 Y-559.785 Z-4.935
N9250 X72.091 Y-559.715 Z-4.971
N9255 X72.036 Y-559.642 Z-4.993
N9260 X71.98 Y-559.567 Z-5.
N9265 X71.62 Y-559.087
N9270 G2 X71.74 Y-558.247 I0.48 J0.36
N9275 G1 X121.74 Y-520.747 F750.
N9280 G2 X122.58 Y-520.867 I0.36 J-0.48 F200.
N9285 G1 X122.94 Y-521.347
N9290 X122.996 Y-521.422 Z-4.993
N9295 X123.051 Y-521.495 Z-4.971
N9300 X123.103 Y-521.565 Z-4.935
N9305 X123.152 Y-521.629 Z-4.885
N9310 X123.195 Y-521.686 Z-4.824
N9315 X123.231 Y-521.735 Z-4.753
N9320 X123.261 Y-521.775 Z-4.672
N9325 X123.282 Y-521.804 Z-4.585
N9330 X123.296 Y-521.821 Z-4.494
N9335 X123.3 Y-521.827 Z-4.4
N9340 Z5. F750.
N9345 X142.34 Y-560.342
N9350 Z0. F100.
N9355 Z-9.4
N9360 X142.336 Y-560.336 Z-9.494 F200.
N9365 X142.322 Y-560.318 Z-9.585
N9370 X142.301 Y-560.29 Z-9.672
N9375 X142.271 Y-560.25 Z-9.753
N9380 X142.235 Y-560.201 Z-9.824
N9385 X142.192 Y-560.144 Z-9.885
N9390 X142.143 Y-560.08 Z-9.935
N9395 X142.091 Y-560.01 Z-9.971
N9400 X142.036 Y-559.937 Z-9.993
N9405 X141.98 Y-559.862 Z-10.
N9410 X141.62 Y-559.382
N9415 G2 X141.74 Y-558.542 I0.48 J0.36
N9420 G1 X191.74 Y-521.042 F750.
N9425 G2 X192.58 Y-521.162 I0.36 J-0.48 F200.
N9430 G1 X192.94 Y-521.642
N9435 X192.996 Y-521.717 Z-9.993
N9440 X193.051 Y-521.79 Z-9.971
N9445 X193.103 Y-521.86 Z-9.935
N9450 X193.152 Y-521.924 Z-9.885
N9455 X193.195 Y-521.981 Z-9.824
N9460 X193.231 Y-522.03 Z-9.753
N9465 X193.261 Y-522.07 Z-9.672
N9470 X193.282 Y-522.099 Z-9.585
N9475 X193.296 Y-522.116 Z-9.494
N9480 X193.3 Y-522.122 Z-9.4
N9485 Z5. F750.
N9490 X212.34 Y-560.047
N9495 Z0. F100.
N9500 Z-9.4
N9505 X212.336 Y-560.041 Z-9.494 F200.
N9510 X212.322 Y-560.024 Z-9.585
N9515 X212.301 Y-559.995 Z-9.672
N9520 X212.271 Y-559.955 Z-9.753
N9525 X212.235 Y-559.906 Z-9.824
N9530 X212.192 Y-559.849 Z-9.885
N9535 X212.143 Y-559.785 Z-9.935
N9540 X212.091 Y-559.715 Z-9.971
N9545 X212.036 Y-559.642 Z-9.993
N9550 X211.98 Y-559.567 Z-10.
N9555 X211.62 Y-559.087
N9560 G2 X211.74 Y-558.247 I0.48 J0.36
N9565 G1 X261.74 Y-520.747 F750.
N9570 G2 X262.58 Y-520.867 I0.36 J-0.48 F200.
N9575 G1 X262.94 Y-521.347
N9580 X262.996 Y-521.422 Z-9.993
N9585 X263.051 Y-521.495 Z-9.971
N9590 X263.103 Y-521.565 Z-9.935
N9595 X263.152 Y-521.629 Z-9.885
N9600 X263.195 Y-521.686 Z-9.824
N9605 X263.231 Y-521.735 Z-9.753
N9610 X263.261 Y-521.775 Z-9.672
N9615 X263.282 Y-521.804 Z-9.585
N9620 X263.296 Y-521.821 Z-9.494
N9625 X263.3 Y-521.827 Z-9.4
N9630 Z5. F750.
N9635 X257.66 Y-576.807
N9640 Z0. F100.
N9645 Z-9.4
N9650 X257.664 Y-576.813 Z-9.494 F200.
N9655 X257.678 Y-576.83 Z-9.585
N9660 X257.699 Y-576.859 Z-9.672
N9665 X257.729 Y-576.899 Z-9.753
N9670 X257.765 Y-576.948 Z-9.824
N9675 X257.808 Y-577.005 Z-9.885
N9680 X257.857 Y-577.069 Z-9.935
N9685 X257.909 Y-577.139 Z-9.971
N9690 X257.964 Y-577.212 Z-9.993
N9695 X258.02 Y-577.287 Z-10.
N9700 X258.38 Y-577.767
N9705 G2 X258.26 Y-578.607 I-0.48 J-0.36
N9710 G1 X208.26 Y-616.107 F750.
N9715 G2 X207.42 Y-615.987 I-0.36 J0.48 F200.
N9720 G1 X207.06 Y-615.507
N9725 X207.004 Y-615.432 Z-9.993
N9730 X206.949 Y-615.359 Z-9.971
N9735 X206.897 Y-615.289 Z-9.935
N9740 X206.848 Y-615.225 Z-9.885
N9745 X206.805 Y-615.168 Z-9.824
N9750 X206.769 Y-615.119 Z-9.753
N9755 X206.739 Y-615.079 Z-9.672
N9760 X206.718 Y-615.05 Z-9.585
N9765 X206.704 Y-615.033 Z-9.494
N9770 X206.7 Y-615.027 Z-9.4
N9775 Z5. F750.
N9780 X187.66 Y-577.102
N9785 Z0. F100.
N9790 Z-9.4
N9795 X187.664 Y-577.108 Z-9.494 F200.
N9800 X187.678 Y-577.125 Z-9.585
N9805 X187.699 Y-577.154 Z-9.672
N9810 X187.729 Y-577.194 Z-9.753
N9815 X187.765 Y-577.243 Z-9.824
N9820 X187.808 Y-577.3 Z-9.885
N9825 X187.857 Y-577.364 Z-9.935
N9830 X187.909 Y-577.434 Z-9.971
N9835 X187.964 Y-577.507 Z-9.993
N9840 X188.02 Y-577.582 Z-10.
N9845 X188.38 Y-578.062
N9850 G2 X188.26 Y-578.902 I-0.48 J-0.36
N9855 G1 X138.26 Y-616.402 F750.
N9860 G2 X137.42 Y-616.282 I-0.36 J0.48 F200.
N9865 G1 X137.06 Y-615.802
N9870 X137.004 Y-615.727 Z-9.993
N9875 X136.949 Y-615.654 Z-9.971
N9880 X136.897 Y-615.584 Z-9.935
N9885 X136.848 Y-615.52 Z-9.885
N9890 X136.805 Y-615.463 Z-9.824
N9895 X136.769 Y-615.414 Z-9.753
N9900 X136.739 Y-615.374 Z-9.672
N9905 X136.718 Y-615.346 Z-9.585
N9910 X136.704 Y-615.328 Z-9.494
N9915 X136.7 Y-615.322 Z-9.4
N9920 Z5. F750.
N9925 X117.66 Y-576.807
N9930 Z0. F100.
N9935 Z-9.4
N9940 X117.664 Y-576.813 Z-9.494 F200.
N9945 X117.678 Y-576.83 Z-9.585
N9950 X117.699 Y-576.859 Z-9.672
N9955 X117.729 Y-576.899 Z-9.753
N9960 X117.765 Y-576.948 Z-9.824
N9965 X117.808 Y-577.005 Z-9.885
N9970 X117.857 Y-577.069 Z-9.935
N9975 X117.909 Y-577.139 Z-9.971
N9980 X117.964 Y-577.212 Z-9.993
N9985 X118.02 Y-577.287 Z-10.
N9990 X118.38 Y-577.767
N9995 G2 X118.26 Y-578.607 I-0.48 J-0.36
N10000 G1 X68.26 Y-616.107 F750.
N10005 G2 X67.42 Y-615.987 I-0.36 J0.48 F200.
N10010 G1 X67.06 Y-615.507
N10015 X67.004 Y-615.432 Z-9.993
N10020 X66.949 Y-615.359 Z-9.971
N10025 X66.897 Y-615.289 Z-9.935
N10030 X66.848 Y-615.225 Z-9.885
N10035 X66.805 Y-615.168 Z-9.824
N10040 X66.769 Y-615.119 Z-9.753
N10045 X66.739 Y-615.079 Z-9.672
N10050 X66.718 Y-615.05 Z-9.585
N10055 X66.704 Y-615.033 Z-9.494
N10060 X66.7 Y-615.027 Z-9.4
N10065 Z5. F750.
N10070 X47.66 Y-577.102
N10075 Z0. F100.
N10080 Z-9.4
N10085 X47.664 Y-577.108 Z-9.494 F200.
N10090 X47.678 Y-577.125 Z-9.585
N10095 X47.699 Y-577.154 Z-9.672
N10100 X47.729 Y-577.194 Z-9.753
N10105 X47.765 Y-577.243 Z-9.824
N10110 X47.808 Y-577.3 Z-9.885
N10115 X47.857 Y-577.364 Z-9.935
N10120 X47.909 Y-577.434 Z-9.971
N10125 X47.964 Y-577.507 Z-9.993
N10130 X48.02 Y-577.582 Z-10.
N10135 X48.38 Y-578.062
N10140 G2 X48.26 Y-578.902 I-0.48 J-0.36
N10145 G1 X-1.74 Y-616.402 F750.
N10150 G2 X-2.58 Y-616.282 I-0.36 J0.48 F200.
N10155 G1 X-2.94 Y-615.802
N10160 X-2.996 Y-615.727 Z-9.993
N10165 X-3.051 Y-615.654 Z-9.971
N10170 X-3.103 Y-615.584 Z-9.935
N10175 X-3.152 Y-615.52 Z-9.885
N10180 X-3.195 Y-615.463 Z-9.824
N10185 X-3.231 Y-615.414 Z-9.753
N10190 X-3.261 Y-615.374 Z-9.672
N10195 X-3.282 Y-615.346 Z-9.585
N10200 X-3.296 Y-615.328 Z-9.494
N10205 X-3.3 Y-615.322 Z-9.4
N10210 Z5. F750.
N10215 X2.34 Y-560.342
N10220 Z0. F100.
N10225 Z-9.4
N10230 X2.336 Y-560.336 Z-9.494 F200.
N10235 X2.322 Y-560.318 Z-9.585
N10240 X2.301 Y-560.29 Z-9.672
N10245 X2.271 Y-560.25 Z-9.753
N10250 X2.235 Y-560.201 Z-9.824
N10255 X2.192 Y-560.144 Z-9.885
N10260 X2.143 Y-560.08 Z-9.935
N10265 X2.091 Y-560.01 Z-9.971
N10270 X2.036 Y-559.937 Z-9.993
N10275 X1.98 Y-559.862 Z-10.
N10280 X1.62 Y-559.382
N10285 G2 X1.74 Y-558.542 I0.48 J0.36
N10290 G1 X51.74 Y-521.042 F750.
N10295 G2 X52.58 Y-521.162 I0.36 J-0.48 F200.
N10300 G1 X52.94 Y-521.642
N10305 X52.996 Y-521.717 Z-9.993
N10310 X53.051 Y-521.79 Z-9.971
N10315 X53.103 Y-521.86 Z-9.935
N10320 X53.152 Y-521.924 Z-9.885
N10325 X53.195 Y-521.981 Z-9.824
N10330 X53.231 Y-522.03 Z-9.753
N10335 X53.261 Y-522.07 Z-9.672
N10340 X53.282 Y-522.099 Z-9.585
N10345 X53.296 Y-522.116 Z-9.494
N10350 X53.3 Y-522.122 Z-9.4
N10355 Z5. F750.
N10360 X72.34 Y-560.047
N10365 Z0. F100.
N10370 Z-9.4
N10375 X72.336 Y-560.041 Z-9.494 F200.
N10380 X72.322 Y-560.024 Z-9.585
N10385 X72.301 Y-559.995 Z-9.672
N10390 X72.271 Y-559.955 Z-9.753
N10395 X72.235 Y-559.906 Z-9.824
N10400 X72.192 Y-559.849 Z-9.885
N10405 X72.143 Y-559.785 Z-9.935
N10410 X72.091 Y-559.715 Z-9.971
N10415 X72.036 Y-559.642 Z-9.993
N10420 X71.98 Y-559.567 Z-10.
N10425 X71.62 Y-559.087
N10430 G2 X71.74 Y-558.247 I0.48 J0.36
N10435 G1 X121.74 Y-520.747 F750.
N10440 G2 X122.58 Y-520.867 I0.36 J-0.48 F200.
N10445 G1 X122.94 Y-521.347
N10450 X122.996 Y-521.422 Z-9.993
N10455 X123.051 Y-521.495 Z-9.971
N10460 X123.103 Y-521.565 Z-9.935
N10465 X123.152 Y-521.629 Z-9.885
N10470 X123.195 Y-521.686 Z-9.824
N10475 X123.231 Y-521.735 Z-9.753
N10480 X123.261 Y-521.775 Z-9.672
N10485 X123.282 Y-521.804 Z-9.585
N10490 X123.296 Y-521.821 Z-9.494
N10495 X123.3 Y-521.827 Z-9.4
N10500 Z5. F750.
N10505 X142.34 Y-560.342
N10510 Z-5. F100.
N10515 Z-11.9
N10520 X142.336 Y-560.336 Z-11.994 F200.
N10525 X142.322 Y-560.318 Z-12.085
N10530 X142.301 Y-560.29 Z-12.172
N10535 X142.271 Y-560.25 Z-12.253
N10540 X142.235 Y-560.201 Z-12.324
N10545 X142.192 Y-560.144 Z-12.385
N10550 X142.143 Y-560.08 Z-12.435
N10555 X142.091 Y-560.01 Z-12.471
N10560 X142.036 Y-559.937 Z-12.493
N10565 X141.98 Y-559.862 Z-12.5
N10570 X141.62 Y-559.382
N10575 G2 X141.74 Y-558.542 I0.48 J0.36
N10580 G1 X191.74 Y-521.042 F750.
N10585 G2 X192.58 Y-521.162 I0.36 J-0.48 F200.
N10590 G1 X192.94 Y-521.642
N10595 X192.996 Y-521.717 Z-12.493
N10600 X193.051 Y-521.79 Z-12.471
N10605 X193.103 Y-521.86 Z-12.435
N10610 X193.152 Y-521.924 Z-12.385
N10615 X193.195 Y-521.981 Z-12.324
N10620 X193.231 Y-522.03 Z-12.253
N10625 X193.261 Y-522.07 Z-12.172
N10630 X193.282 Y-522.099 Z-12.085
N10635 X193.296 Y-522.116 Z-11.994
N10640 X193.3 Y-522.122 Z-11.9
N10645 Z5. F750.
N10650 X212.34 Y-560.047
N10655 Z-5. F100.
N10660 Z-11.9
N10665 X212.336 Y-560.041 Z-11.994 F200.
N10670 X212.322 Y-560.024 Z-12.085
N10675 X212.301 Y-559.995 Z-12.172
N10680 X212.271 Y-559.955 Z-12.253
N10685 X212.235 Y-559.906 Z-12.324
N10690 X212.192 Y-559.849 Z-12.385
N10695 X212.143 Y-559.785 Z-12.435
N10700 X212.091 Y-559.715 Z-12.471
N10705 X212.036 Y-559.642 Z-12.493
N10710 X211.98 Y-559.567 Z-12.5
N10715 X211.62 Y-559.087
N10720 G2 X211.74 Y-558.247 I0.48 J0.36
N10725 G1 X261.74 Y-520.747 F750.
N10730 G2 X262.58 Y-520.867 I0.36 J-0.48 F200.
N10735 G1 X262.94 Y-521.347
N10740 X262.996 Y-521.422 Z-12.493
N10745 X263.051 Y-521.495 Z-12.471
N10750 X263.103 Y-521.565 Z-12.435
N10755 X263.152 Y-521.629 Z-12.385
N10760 X263.195 Y-521.686 Z-12.324
N10765 X263.231 Y-521.735 Z-12.253
N10770 X263.261 Y-521.775 Z-12.172
N10775 X263.282 Y-521.804 Z-12.085
N10780 X263.296 Y-521.821 Z-11.994
N10785 X263.3 Y-521.827 Z-11.9
N10790 Z5. F750.
N10795 X257.66 Y-576.807
N10800 Z-5. F100.
N10805 Z-11.9
N10810 X257.664 Y-576.813 Z-11.994 F200.
N10815 X257.678 Y-576.83 Z-12.085
N10820 X257.699 Y-576.859 Z-12.172
N10825 X257.729 Y-576.899 Z-12.253
N10830 X257.765 Y-576.948 Z-12.324
N10835 X257.808 Y-577.005 Z-12.385
N10840 X257.857 Y-577.069 Z-12.435
N10845 X257.909 Y-577.139 Z-12.471
N10850 X257.964 Y-577.212 Z-12.493
N10855 X258.02 Y-577.287 Z-12.5
N10860 X258.38 Y-577.767
N10865 G2 X258.26 Y-578.607 I-0.48 J-0.36
N10870 G1 X208.26 Y-616.107 F750.
N10875 G2 X207.42 Y-615.987 I-0.36 J0.48 F200.
N10880 G1 X207.06 Y-615.507
N10885 X207.004 Y-615.432 Z-12.493
N10890 X206.949 Y-615.359 Z-12.471
N10895 X206.897 Y-615.289 Z-12.435
N10900 X206.848 Y-615.225 Z-12.385
N10905 X206.805 Y-615.168 Z-12.324
N10910 X206.769 Y-615.119 Z-12.253
N10915 X206.739 Y-615.079 Z-12.172
N10920 X206.718 Y-615.05 Z-12.085
N10925 X206.704 Y-615.033 Z-11.994
N10930 X206.7 Y-615.027 Z-11.9
N10935 Z5. F750.
N10940 X187.66 Y-577.102
N10945 Z-5. F100.
N10950 Z-11.9
N10955 X187.664 Y-577.108 Z-11.994 F200.
N10960 X187.678 Y-577.125 Z-12.085
N10965 X187.699 Y-577.154 Z-12.172
N10970 X187.729 Y-577.194 Z-12.253
N10975 X187.765 Y-577.243 Z-12.324
N10980 X187.808 Y-577.3 Z-12.385
N10985 X187.857 Y-577.364 Z-12.435
N10990 X187.909 Y-577.434 Z-12.471
N10995 X187.964 Y-577.507 Z-12.493
N11000 X188.02 Y-577.582 Z-12.5
N11005 X188.38 Y-578.062
N11010 G2 X188.26 Y-578.902 I-0.48 J-0.36
N11015 G1 X138.26 Y-616.402 F750.
N11020 G2 X137.42 Y-616.282 I-0.36 J0.48 F200.
N11025 G1 X137.06 Y-615.802
N11030 X137.004 Y-615.727 Z-12.493
N11035 X136.949 Y-615.654 Z-12.471
N11040 X136.897 Y-615.584 Z-12.435
N11045 X136.848 Y-615.52 Z-12.385
N11050 X136.805 Y-615.463 Z-12.324
N11055 X136.769 Y-615.414 Z-12.253
N11060 X136.739 Y-615.374 Z-12.172
N11065 X136.718 Y-615.346 Z-12.085
N11070 X136.704 Y-615.328 Z-11.994
N11075 X136.7 Y-615.322 Z-11.9
N11080 Z5. F750.
N11085 X117.66 Y-576.807
N11090 Z-5. F100.
N11095 Z-11.9
N11100 X117.664 Y-576.813 Z-11.994 F200.
N11105 X117.678 Y-576.83 Z-12.085
N11110 X117.699 Y-576.859 Z-12.172
N11115 X117.729 Y-576.899 Z-12.253
N11120 X117.765 Y-576.948 Z-12.324
N11125 X117.808 Y-577.005 Z-12.385
N11130 X117.857 Y-577.069 Z-12.435
N11135 X117.909 Y-577.139 Z-12.471
N11140 X117.964 Y-577.212 Z-12.493
N11145 X118.02 Y-577.287 Z-12.5
N11150 X118.38 Y-577.767
N11155 G2 X118.26 Y-578.607 I-0.48 J-0.36
N11160 G1 X68.26 Y-616.107 F750.
N11165 G2 X67.42 Y-615.987 I-0.36 J0.48 F200.
N11170 G1 X67.06 Y-615.507
N11175 X67.004 Y-615.432 Z-12.493
N11180 X66.949 Y-615.359 Z-12.471
N11185 X66.897 Y-615.289 Z-12.435
N11190 X66.848 Y-615.225 Z-12.385
N11195 X66.805 Y-615.168 Z-12.324
N11200 X66.769 Y-615.119 Z-12.253
N11205 X66.739 Y-615.079 Z-12.172
N11210 X66.718 Y-615.05 Z-12.085
N11215 X66.704 Y-615.033 Z-11.994
N11220 X66.7 Y-615.027 Z-11.9
N11225 Z5. F750.
N11230 X47.66 Y-577.102
N11235 Z-5. F100.
N11240 Z-11.9
N11245 X47.664 Y-577.108 Z-11.994 F200.
N11250 X47.678 Y-577.125 Z-12.085
N11255 X47.699 Y-577.154 Z-12.172
N11260 X47.729 Y-577.194 Z-12.253
N11265 X47.765 Y-577.243 Z-12.324
N11270 X47.808 Y-577.3 Z-12.385
N11275 X47.857 Y-577.364 Z-12.435
N11280 X47.909 Y-577.434 Z-12.471
N11285 X47.964 Y-577.507 Z-12.493
N11290 X48.02 Y-577.582 Z-12.5
N11295 X48.38 Y-578.062
N11300 G2 X48.26 Y-578.902 I-0.48 J-0.36
N11305 G1 X-1.74 Y-616.402 F750.
N11310 G2 X-2.58 Y-616.282 I-0.36 J0.48 F200.
N11315 G1 X-2.94 Y-615.802
N11320 X-2.996 Y-615.727 Z-12.493
N11325 X-3.051 Y-615.654 Z-12.471
N11330 X-3.103 Y-615.584 Z-12.435
N11335 X-3.152 Y-615.52 Z-12.385
N11340 X-3.195 Y-615.463 Z-12.324
N11345 X-3.231 Y-615.414 Z-12.253
N11350 X-3.261 Y-615.374 Z-12.172
N11355 X-3.282 Y-615.346 Z-12.085
N11360 X-3.296 Y-615.328 Z-11.994
N11365 X-3.3 Y-615.322 Z-11.9
N11370 Z5. F750.
N11375 X2.34 Y-560.342
N11380 Z-5. F100.
N11385 Z-11.9
N11390 X2.336 Y-560.336 Z-11.994 F200.
N11395 X2.322 Y-560.318 Z-12.085
N11400 X2.301 Y-560.29 Z-12.172
N11405 X2.271 Y-560.25 Z-12.253
N11410 X2.235 Y-560.201 Z-12.324
N11415 X2.192 Y-560.144 Z-12.385
N11420 X2.143 Y-560.08 Z-12.435
N11425 X2.091 Y-560.01 Z-12.471
N11430 X2.036 Y-559.937 Z-12.493
N11435 X1.98 Y-559.862 Z-12.5
N11440 X1.62 Y-559.382
N11445 G2 X1.74 Y-558.542 I0.48 J0.36
N11450 G1 X51.74 Y-521.042 F750.
N11455 G2 X52.58 Y-521.162 I0.36 J-0.48 F200.
N11460 G1 X52.94 Y-521.642
N11465 X52.996 Y-521.717 Z-12.493
N11470 X53.051 Y-521.79 Z-12.471
N11475 X53.103 Y-521.86 Z-12.435
N11480 X53.152 Y-521.924 Z-12.385
N11485 X53.195 Y-521.981 Z-12.324
N11490 X53.231 Y-522.03 Z-12.253
N11495 X53.261 Y-522.07 Z-12.172
N11500 X53.282 Y-522.099 Z-12.085
N11505 X53.296 Y-522.116 Z-11.994
N11510 X53.3 Y-522.122 Z-11.9
N11515 Z5. F750.
N11520 X72.34 Y-560.047
N11525 Z-5. F100.
N11530 Z-11.9
N11535 X72.336 Y-560.041 Z-11.994 F200.
N11540 X72.322 Y-560.024 Z-12.085
N11545 X72.301 Y-559.995 Z-12.172
N11550 X72.271 Y-559.955 Z-12.253
N11555 X72.235 Y-559.906 Z-12.324
N11560 X72.192 Y-559.849 Z-12.385
N11565 X72.143 Y-559.785 Z-12.435
N11570 X72.091 Y-559.715 Z-12.471
N11575 X72.036 Y-559.642 Z-12.493
N11580 X71.98 Y-559.567 Z-12.5
N11585 X71.62 Y-559.087
N11590 G2 X71.74 Y-558.247 I0.48 J0.36
N11595 G1 X121.74 Y-520.747 F750.
N11600 G2 X122.58 Y-520.867 I0.36 J-0.48 F200.
N11605 G1 X122.94 Y-521.347
N11610 X122.996 Y-521.422 Z-12.493
N11615 X123.051 Y-521.495 Z-12.471
N11620 X123.103 Y-521.565 Z-12.435
N11625 X123.152 Y-521.629 Z-12.385
N11630 X123.195 Y-521.686 Z-12.324
N11635 X123.231 Y-521.735 Z-12.253
N11640 X123.261 Y-521.775 Z-12.172
N11645 X123.282 Y-521.804 Z-12.085
N11650 X123.296 Y-521.821 Z-11.994
N11655 X123.3 Y-521.827 Z-11.9
N11660 Z15. F750.
(WHEN USING FUSION 360 FOR PERSONAL USE, THE FEEDRATE OF)
(RAPID MOVES IS REDUCED TO MATCH THE FEEDRATE OF CUTTING)
(MOVES, WHICH CAN INCREASE MACHINING TIME. UNRESTRICTED RAPID)
(MOVES ARE AVAILABLE WITH A FUSION 360 SUBSCRIPTION.)
(2D POCKET3)
N11665 G0 X25. Y-568.722
N11670 G1 Z15. F750.
N11675 Z5.
N11680 Z-4.367
N11685 G2 X25.3 Y-568.422 I0.3 J0.
N11690 G1 X25.4
N11695 G2 X25.7 Y-568.722 I0. J-0.3
N11700 X24.3 I-0.7 J0.
N11705 X29.3 I2.5 J0.
N11710 X20.7 I-4.3 J0.
N11715 X32.9 I6.1 J0.
N11720 X17.1 I-7.9 J0.
N11725 X36.5 I9.7 J0.
N11730 X13.5 I-11.5 J0.
N11735 X36.5 I11.5 J0.
N11740 X36.103 Y-569.106 I-0.384 J0.
N11745 G1 X25. Y-568.722
N11750 Z-8.733
N11755 X25.032 Y-568.719
N11760 X25.062 Y-568.711
N11765 X25.463 Y-568.558
N11770 G2 X25.7 Y-568.722 I0.062 J-0.164
N11775 X24.3 I-0.7 J0.
N11780 X29.3 I2.5 J0.
N11785 X20.7 I-4.3 J0.
N11790 X32.9 I6.1 J0.
N11795 X17.1 I-7.9 J0.
N11800 X36.5 I9.7 J0.
N11805 X13.5 I-11.5 J0.
N11810 X36.5 I11.5 J0.
N11815 X36.103 Y-569.106 I-0.384 J0.
N11820 G1 X25. Y-568.722
N11825 Z-13.1
N11830 X25.032 Y-568.719
N11835 X25.062 Y-568.711
N11840 X25.463 Y-568.558
N11845 G2 X25.7 Y-568.722 I0.062 J-0.164
N11850 X24.3 I-0.7 J0.
N11855 X29.3 I2.5 J0.
N11860 X20.7 I-4.3 J0.
N11865 X32.9 I6.1 J0.
N11870 X17.1 I-7.9 J0.
N11875 X36.5 I9.7 J0.
N11880 X13.5 I-11.5 J0.
N11885 X36.5 I11.5 J0.
N11890 X36.103 Y-569.106 I-0.384 J0.
N11895 G1 X25. Y-568.722
N11900 Z-17.467
N11905 X25.032 Y-568.719
N11910 X25.062 Y-568.711
N11915 X25.463 Y-568.558
N11920 G2 X25.7 Y-568.722 I0.062 J-0.164
N11925 X24.3 I-0.7 J0.
N11930 X29.3 I2.5 J0.
N11935 X20.7 I-4.3 J0.
N11940 X32.9 I6.1 J0.
N11945 X17.1 I-7.9 J0.
N11950 X36.5 I9.7 J0.
N11955 X13.5 I-11.5 J0.
N11960 X36.5 I11.5 J0.
N11965 X36.103 Y-569.106 I-0.384 J0.
N11970 G1 X25. Y-568.722
N11975 Z-21.833
N11980 X25.032 Y-568.719
N11985 X25.062 Y-568.711
N11990 X25.463 Y-568.558
N11995 G2 X25.7 Y-568.722 I0.062 J-0.164
N12000 X24.3 I-0.7 J0.
N12005 X29.3 I2.5 J0.
N12010 X20.7 I-4.3 J0.
N12015 X32.9 I6.1 J0.
N12020 X17.1 I-7.9 J0.
N12025 X36.5 I9.7 J0.
N12030 X13.5 I-11.5 J0.
N12035 X36.5 I11.5 J0.
N12040 X36.103 Y-569.106 I-0.384 J0.
N12045 G1 X25. Y-568.722
N12050 Z-26.2
N12055 X25.032 Y-568.719
N12060 X25.062 Y-568.711
N12065 X25.463 Y-568.558
N12070 G2 X25.7 Y-568.722 I0.062 J-0.164
N12075 X24.3 I-0.7 J0.
N12080 X29.3 I2.5 J0.
N12085 X20.7 I-4.3 J0.
N12090 X32.9 I6.1 J0.
N12095 X17.1 I-7.9 J0.
N12100 X36.5 I9.7 J0.
N12105 X13.5 I-11.5 J0.
N12110 X36.5 I11.5 J0.
N12115 G1 X36.493 Y-568.814 Z-26.185 F220.
N12120 X36.471 Y-568.904 Z-26.171
N12125 X36.441 Y-568.982 Z-26.128
N12130 X36.399 Y-569.055 Z-26.085
N12135 X36.359 Y-569.108 Z-26.019
N12140 X36.314 Y-569.156 Z-25.953
N12145 X36.248 Y-569.21 Z-25.785
N12150 X36.224 Y-569.227 Z-25.6
N12155 Z5. F750.
N12160 X165. Y-568.722
N12165 Z-4.367
N12170 G2 X165.3 Y-568.422 I0.3 J0.
N12175 G1 X165.4
N12180 G2 X165.7 Y-568.722 I0. J-0.3
N12185 X164.3 I-0.7 J0.
N12190 X169.3 I2.5 J0.
N12195 X160.7 I-4.3 J0.
N12200 X172.9 I6.1 J0.
N12205 X157.1 I-7.9 J0.
N12210 X176.5 I9.7 J0.
N12215 X153.5 I-11.5 J0.
N12220 X176.5 I11.5 J0.
N12225 X176.103 Y-569.106 I-0.384 J0.
N12230 G1 X165. Y-568.722
N12235 Z-8.733
N12240 X165.032 Y-568.719
N12245 X165.062 Y-568.711
N12250 X165.463 Y-568.559
N12255 G2 X165.7 Y-568.722 I0.062 J-0.163
N12260 X164.3 I-0.7 J0.
N12265 X169.3 I2.5 J0.
N12270 X160.7 I-4.3 J0.
N12275 X172.9 I6.1 J0.
N12280 X157.1 I-7.9 J0.
N12285 X176.5 I9.7 J0.
N12290 X153.5 I-11.5 J0.
N12295 X176.5 I11.5 J0.
N12300 X176.103 Y-569.106 I-0.384 J0.
N12305 G1 X165. Y-568.722
N12310 Z-13.1
N12315 X165.032 Y-568.719
N12320 X165.062 Y-568.711
N12325 X165.463 Y-568.559
N12330 G2 X165.7 Y-568.722 I0.062 J-0.163
N12335 X164.3 I-0.7 J0.
N12340 X169.3 I2.5 J0.
N12345 X160.7 I-4.3 J0.
N12350 X172.9 I6.1 J0.
N12355 X157.1 I-7.9 J0.
N12360 X176.5 I9.7 J0.
N12365 X153.5 I-11.5 J0.
N12370 X176.5 I11.5 J0.
N12375 X176.103 Y-569.106 I-0.384 J0.
N12380 G1 X165. Y-568.722
N12385 Z-17.467
N12390 X165.032 Y-568.719
N12395 X165.062 Y-568.711
N12400 X165.463 Y-568.559
N12405 G2 X165.7 Y-568.722 I0.062 J-0.163
N12410 X164.3 I-0.7 J0.
N12415 X169.3 I2.5 J0.
N12420 X160.7 I-4.3 J0.
N12425 X172.9 I6.1 J0.
N12430 X157.1 I-7.9 J0.
N12435 X176.5 I9.7 J0.
N12440 X153.5 I-11.5 J0.
N12445 X176.5 I11.5 J0.
N12450 X176.103 Y-569.106 I-0.384 J0.
N12455 G1 X165. Y-568.722
N12460 Z-21.833
N12465 X165.032 Y-568.719
N12470 X165.062 Y-568.711
N12475 X165.463 Y-568.559
N12480 G2 X165.7 Y-568.722 I0.062 J-0.163
N12485 X164.3 I-0.7 J0.
N12490 X169.3 I2.5 J0.
N12495 X160.7 I-4.3 J0.
N12500 X172.9 I6.1 J0.
N12505 X157.1 I-7.9 J0.
N12510 X176.5 I9.7 J0.
N12515 X153.5 I-11.5 J0.
N12520 X176.5 I11.5 J0.
N12525 X176.103 Y-569.106 I-0.384 J0.
N12530 G1 X165. Y-568.722
N12535 Z-26.2
N12540 X165.032 Y-568.719
N12545 X165.062 Y-568.711
N12550 X165.463 Y-568.559
N12555 G2 X165.7 Y-568.722 I0.062 J-0.163
N12560 X164.3 I-0.7 J0.
N12565 X169.3 I2.5 J0.
N12570 X160.7 I-4.3 J0.
N12575 X172.9 I6.1 J0.
N12580 X157.1 I-7.9 J0.
N12585 X176.5 I9.7 J0.
N12590 X153.5 I-11.5 J0.
N12595 X176.5 I11.5 J0.
N12600 G1 X176.492 Y-568.814 Z-26.185 F220.
N12605 X176.471 Y-568.904 Z-26.171
N12610 X176.44 Y-568.982 Z-26.128
N12615 X176.399 Y-569.055 Z-26.085
N12620 X176.359 Y-569.108 Z-26.019
N12625 X176.314 Y-569.156 Z-25.953
N12630 X176.248 Y-569.21 Z-25.785
N12635 X176.224 Y-569.227 Z-25.6
N12640 Z15. F750.
(WHEN USING FUSION 360 FOR PERSONAL USE, THE FEEDRATE OF)
(RAPID MOVES IS REDUCED TO MATCH THE FEEDRATE OF CUTTING)
(MOVES, WHICH CAN INCREASE MACHINING TIME. UNRESTRICTED RAPID)
(MOVES ARE AVAILABLE WITH A FUSION 360 SUBSCRIPTION.)
(BORE1)
N12645 G0 X15.251 Y-564.518
N12650 G1 Z15. F500.
N12655 Z-10.5
N12660 Z-11.9
N12665 X15.244 Y-564.515 Z-11.994
N12670 X15.224 Y-564.505 Z-12.085
N12675 X15.192 Y-564.489 Z-12.172
N12680 X15.148 Y-564.467 Z-12.253
N12685 X15.094 Y-564.44 Z-12.324
N12690 X15.03 Y-564.407 Z-12.385
N12695 X14.958 Y-564.372 Z-12.435
N12700 X14.88 Y-564.333 Z-12.471
N12705 X14.798 Y-564.292 Z-12.493
N12710 X14.714 Y-564.25 Z-12.5
N12715 X14.446 Y-564.116
N12720 G2 X14.177 Y-563.311 I0.268 J0.537
N12725 X35.823 Y-574.133 Z-13.291 I10.823 J-5.411
N12730 X14.177 Y-563.311 Z-14.083 I-10.823 J5.411
N12735 X35.823 Y-574.133 Z-14.874 I10.823 J-5.411
N12740 X14.177 Y-563.311 Z-15.665 I-10.823 J5.411
N12745 X35.823 Y-574.133 Z-16.457 I10.823 J-5.411
N12750 X14.177 Y-563.311 Z-17.248 I-10.823 J5.411
N12755 X35.823 Y-574.133 Z-18.04 I10.823 J-5.411
N12760 X14.177 Y-563.311 Z-18.831 I-10.823 J5.411
N12765 X35.823 Y-574.133 Z-19.622 I10.823 J-5.411
N12770 X14.177 Y-563.311 Z-20.414 I-10.823 J5.411
N12775 X35.823 Y-574.133 Z-21.205 I10.823 J-5.411
N12780 X14.177 Y-563.311 Z-21.996 I-10.823 J5.411
N12785 X35.823 Y-574.133 Z-22.788 I10.823 J-5.411
N12790 X14.177 Y-563.311 Z-23.579 I-10.823 J5.411
N12795 X35.823 Y-574.133 Z-24.37 I10.823 J-5.411
N12800 X14.177 Y-563.311 Z-25.162 I-10.823 J5.411
N12805 X35.823 Y-574.133 Z-25.953 I10.823 J-5.411
N12810 X26.531 Y-580.725 Z-26.2 I-10.823 J5.411
N12815 X23.469 Y-556.719 I-1.531 J12.003
N12820 X26.531 Y-580.725 I1.531 J-12.003
N12825 X25.86 Y-580.205 I-0.076 J0.595
N12830 G1 X25.822 Y-579.908
N12835 X25.81 Y-579.815 Z-26.193
N12840 X25.799 Y-579.724 Z-26.171
N12845 X25.788 Y-579.638 Z-26.135
N12850 X25.778 Y-579.558 Z-26.085
N12855 X25.769 Y-579.487 Z-26.024
N12860 X25.761 Y-579.426 Z-25.953
N12865 X25.755 Y-579.377 Z-25.872
N12870 X25.75 Y-579.342 Z-25.785
N12875 X25.747 Y-579.32 Z-25.694
N12880 X25.746 Y-579.313 Z-25.6
N12885 Z5.
N12890 X174.749 Y-572.926
N12895 Z-10.5
N12900 Z-11.9
N12905 X174.756 Y-572.929 Z-11.994
N12910 X174.776 Y-572.939 Z-12.085
N12915 X174.808 Y-572.955 Z-12.172
N12920 X174.852 Y-572.977 Z-12.253
N12925 X174.906 Y-573.004 Z-12.324
N12930 X174.97 Y-573.036 Z-12.385
N12935 X175.042 Y-573.072 Z-12.435
N12940 X175.12 Y-573.111 Z-12.471
N12945 X175.202 Y-573.152 Z-12.493
N12950 X175.286 Y-573.194 Z-12.5
N12955 X175.554 Y-573.328
N12960 G2 X175.823 Y-574.133 I-0.268 J-0.537
N12965 X154.177 Y-563.311 Z-13.291 I-10.823 J5.411
N12970 X175.823 Y-574.133 Z-14.083 I10.823 J-5.411
N12975 X154.177 Y-563.311 Z-14.874 I-10.823 J5.411
N12980 X175.823 Y-574.133 Z-15.665 I10.823 J-5.411
N12985 X154.177 Y-563.311 Z-16.457 I-10.823 J5.411
N12990 X175.823 Y-574.133 Z-17.248 I10.823 J-5.411
N12995 X154.177 Y-563.311 Z-18.04 I-10.823 J5.411
N13000 X175.823 Y-574.133 Z-18.831 I10.823 J-5.411
N13005 X154.177 Y-563.311 Z-19.622 I-10.823 J5.411
N13010 X175.823 Y-574.133 Z-20.414 I10.823 J-5.411
N13015 X154.177 Y-563.311 Z-21.205 I-10.823 J5.411
N13020 X175.823 Y-574.133 Z-21.996 I10.823 J-5.411
N13025 X154.177 Y-563.311 Z-22.788 I-10.823 J5.411
N13030 X175.823 Y-574.133 Z-23.579 I10.823 J-5.411
N13035 X154.177 Y-563.311 Z-24.37 I-10.823 J5.411
N13040 X175.823 Y-574.133 Z-25.162 I10.823 J-5.411
N13045 X154.177 Y-563.311 Z-25.953 I-10.823 J5.411
N13050 X163.469 Y-556.719 Z-26.2 I10.823 J-5.411
N13055 X166.531 Y-580.725 I1.531 J-12.003
N13060 X163.469 Y-556.719 I-1.531 J12.003
N13065 X164.14 Y-557.238 I0.076 J-0.595
N13070 G1 X164.178 Y-557.536
N13075 X164.19 Y-557.629 Z-26.193
N13080 X164.201 Y-557.72 Z-26.171
N13085 X164.212 Y-557.806 Z-26.135
N13090 X164.222 Y-557.886 Z-26.085
N13095 X164.231 Y-557.957 Z-26.024
N13100 X164.239 Y-558.018 Z-25.953
N13105 X164.245 Y-558.066 Z-25.872
N13110 X164.25 Y-558.102 Z-25.785
N13115 X164.253 Y-558.124 Z-25.694
N13120 X164.254 Y-558.131 Z-25.6
N13125 Z15.
(WHEN USING FUSION 360 FOR PERSONAL USE, THE FEEDRATE OF)
(RAPID MOVES IS REDUCED TO MATCH THE FEEDRATE OF CUTTING)
(MOVES, WHICH CAN INCREASE MACHINING TIME. UNRESTRICTED RAPID)
(MOVES ARE AVAILABLE WITH A FUSION 360 SUBSCRIPTION.)
(2D CONTOUR3)
N13130 G0 X76.355 Y4.724
N13135 G1 Z15. F1000.
N13140 Z5.
N13145 Z-4.4 F100.
N13150 X76.354 Y4.717 Z-4.494 F250.
N13155 X76.352 Y4.695 Z-4.585
N13160 X76.35 Y4.659 Z-4.672
N13165 X76.346 Y4.61 Z-4.753
N13170 X76.341 Y4.549 Z-4.824
N13175 X76.336 Y4.478 Z-4.885
N13180 X76.329 Y4.398 Z-4.935
N13185 X76.323 Y4.311 Z-4.971
N13190 X76.316 Y4.22 Z-4.993
N13195 X76.308 Y4.126 Z-5.
N13200 X76.262 Y3.528
N13205 G2 X75.618 Y2.976 I-0.598 J0.046
N13210 G3 X67. Y-5. I-0.618 J-7.976 F1000.
N13215 G1 Y-636.91
N13220 G3 X80. Y-649.91 I13. J0.
N13225 G1 X110.
N13230 G3 X123. Y-636.91 I0. J13.
N13235 G1 Y-21.91
N13240 G3 X121.342 Y-19.227 I-3. J0.
N13245 G1 X78.578 Y2.155
N13250 G3 X75.618 Y2.976 I-3.578 J-7.155
N13255 G2 X75.066 Y3.621 I0.046 J0.598 F250.
N13260 G1 X75.112 Y4.219
N13265 X75.119 Y4.312 Z-4.993
N13270 X75.126 Y4.404 Z-4.971
N13275 X75.133 Y4.49 Z-4.935
N13280 X75.139 Y4.57 Z-4.885
N13285 X75.145 Y4.642 Z-4.824
N13290 X75.149 Y4.703 Z-4.753
N13295 X75.153 Y4.752 Z-4.672
N13300 X75.156 Y4.788 Z-4.585
N13305 X75.158 Y4.81 Z-4.494
N13310 Y4.817 Z-4.4
N13315 Z5. F1000.
N13320 X76.355 Y4.724
N13325 Z0. F100.
N13330 Z-9.4
N13335 X76.354 Y4.717 Z-9.494 F250.
N13340 X76.352 Y4.695 Z-9.585
N13345 X76.35 Y4.659 Z-9.672
N13350 X76.346 Y4.61 Z-9.753
N13355 X76.341 Y4.549 Z-9.824
N13360 X76.336 Y4.478 Z-9.885
N13365 X76.329 Y4.398 Z-9.935
N13370 X76.323 Y4.311 Z-9.971
N13375 X76.316 Y4.22 Z-9.993
N13380 X76.308 Y4.126 Z-10.
N13385 X76.262 Y3.528
N13390 G2 X75.618 Y2.976 I-0.598 J0.046
N13395 G3 X67. Y-5. I-0.618 J-7.976 F1000.
N13400 G1 Y-636.91
N13405 G3 X80. Y-649.91 I13. J0.
N13410 G1 X110.
N13415 G3 X123. Y-636.91 I0. J13.
N13420 G1 Y-21.91
N13425 G3 X121.342 Y-19.227 I-3. J0.
N13430 G1 X78.578 Y2.155
N13435 G3 X75.618 Y2.976 I-3.578 J-7.155
N13440 G2 X75.066 Y3.621 I0.046 J0.598 F250.
N13445 G1 X75.112 Y4.219
N13450 X75.119 Y4.312 Z-9.993
N13455 X75.126 Y4.404 Z-9.971
N13460 X75.133 Y4.49 Z-9.935
N13465 X75.139 Y4.57 Z-9.885
N13470 X75.145 Y4.642 Z-9.824
N13475 X75.149 Y4.703 Z-9.753
N13480 X75.153 Y4.752 Z-9.672
N13485 X75.156 Y4.788 Z-9.585
N13490 X75.158 Y4.81 Z-9.494
N13495 Y4.817 Z-9.4
N13500 Z5. F1000.
N13505 X76.355 Y4.724
N13510 Z-5. F100.
N13515 Z-14.4
N13520 X76.354 Y4.717 Z-14.494 F250.
N13525 X76.352 Y4.695 Z-14.585
N13530 X76.35 Y4.659 Z-14.672
N13535 X76.346 Y4.61 Z-14.753
N13540 X76.341 Y4.549 Z-14.824
N13545 X76.336 Y4.478 Z-14.885
N13550 X76.329 Y4.398 Z-14.935
N13555 X76.323 Y4.311 Z-14.971
N13560 X76.316 Y4.22 Z-14.993
N13565 X76.308 Y4.126 Z-15.
N13570 X76.262 Y3.528
N13575 G2 X75.618 Y2.976 I-0.598 J0.046
N13580 G3 X67. Y-5. I-0.618 J-7.976 F1000.
N13585 G1 Y-636.91
N13590 G3 X80. Y-649.91 I13. J0.
N13595 G1 X110.
N13600 G3 X123. Y-636.91 I0. J13.
N13605 G1 Y-21.91
N13610 G3 X121.342 Y-19.227 I-3. J0.
N13615 G1 X78.578 Y2.155
N13620 G3 X75.618 Y2.976 I-3.578 J-7.155
N13625 G2 X75.066 Y3.621 I0.046 J0.598 F250.
N13630 G1 X75.112 Y4.219
N13635 X75.119 Y4.312 Z-14.993
N13640 X75.126 Y4.404 Z-14.971
N13645 X75.133 Y4.49 Z-14.935
N13650 X75.139 Y4.57 Z-14.885
N13655 X75.145 Y4.642 Z-14.824
N13660 X75.149 Y4.703 Z-14.753
N13665 X75.153 Y4.752 Z-14.672
N13670 X75.156 Y4.788 Z-14.585
N13675 X75.158 Y4.81 Z-14.494
N13680 Y4.817 Z-14.4
N13685 Z5. F1000.
N13690 X76.355 Y4.724
N13695 Z-10. F100.
N13700 Z-19.4
N13705 X76.354 Y4.717 Z-19.494 F250.
N13710 X76.352 Y4.695 Z-19.585
N13715 X76.35 Y4.659 Z-19.672
N13720 X76.346 Y4.61 Z-19.753
N13725 X76.341 Y4.549 Z-19.824
N13730 X76.336 Y4.478 Z-19.885
N13735 X76.329 Y4.398 Z-19.935
N13740 X76.323 Y4.311 Z-19.971
N13745 X76.316 Y4.22 Z-19.993
N13750 X76.308 Y4.126 Z-20.
N13755 X76.262 Y3.528
N13760 G2 X75.618 Y2.976 I-0.598 J0.046
N13765 G3 X67. Y-5. I-0.618 J-7.976 F1000.
N13770 G1 Y-636.91
N13775 G3 X80. Y-649.91 I13. J0.
N13780 G1 X110.
N13785 G3 X123. Y-636.91 I0. J13.
N13790 G1 Y-21.91
N13795 G3 X121.342 Y-19.227 I-3. J0.
N13800 G1 X78.578 Y2.155
N13805 G3 X75.618 Y2.976 I-3.578 J-7.155
N13810 G2 X75.066 Y3.621 I0.046 J0.598 F250.
N13815 G1 X75.112 Y4.219
N13820 X75.119 Y4.312 Z-19.993
N13825 X75.126 Y4.404 Z-19.971
N13830 X75.133 Y4.49 Z-19.935
N13835 X75.139 Y4.57 Z-19.885
N13840 X75.145 Y4.642 Z-19.824
N13845 X75.149 Y4.703 Z-19.753
N13850 X75.153 Y4.752 Z-19.672
N13855 X75.156 Y4.788 Z-19.585
N13860 X75.158 Y4.81 Z-19.494
N13865 Y4.817 Z-19.4
N13870 Z5. F1000.
N13875 X76.355 Y4.724
N13880 Z-15. F100.
N13885 Z-22.5
N13890 X76.354 Y4.717 Z-22.594 F250.
N13895 X76.352 Y4.695 Z-22.685
N13900 X76.35 Y4.659 Z-22.772
N13905 X76.346 Y4.61 Z-22.853
N13910 X76.341 Y4.549 Z-22.924
N13915 X76.336 Y4.478 Z-22.985
N13920 X76.329 Y4.398 Z-23.035
N13925 X76.323 Y4.311 Z-23.071
N13930 X76.316 Y4.22 Z-23.093
N13935 X76.308 Y4.126 Z-23.1
N13940 X76.262 Y3.528
N13945 G2 X75.618 Y2.976 I-0.598 J0.046
N13950 G3 X67. Y-5. I-0.618 J-7.976 F1000.
N13955 G1 Y-636.91
N13960 G3 X80. Y-649.91 I13. J0.
N13965 G1 X110.
N13970 G3 X123. Y-636.91 I0. J13.
N13975 G1 Y-21.91
N13980 G3 X121.342 Y-19.227 I-3. J0.
N13985 G1 X78.578 Y2.155
N13990 G3 X75.618 Y2.976 I-3.578 J-7.155
N13995 G2 X75.066 Y3.621 I0.046 J0.598 F250.
N14000 G1 X75.112 Y4.219
N14005 X75.119 Y4.312 Z-23.093
N14010 X75.126 Y4.404 Z-23.071
N14015 X75.133 Y4.49 Z-23.035
N14020 X75.139 Y4.57 Z-22.985
N14025 X75.145 Y4.642 Z-22.924
N14030 X75.149 Y4.703 Z-22.853
N14035 X75.153 Y4.752 Z-22.772
N14040 X75.156 Y4.788 Z-22.685
N14045 X75.158 Y4.81 Z-22.594
N14050 Y4.817 Z-22.5
N14055 Z5. F1000.
N14060 X76.355 Y4.724
N14065 Z-18.1 F100.
N14070 Z-25.6
N14075 X76.354 Y4.717 Z-25.694 F250.
N14080 X76.352 Y4.695 Z-25.785
N14085 X76.35 Y4.659 Z-25.872
N14090 X76.346 Y4.61 Z-25.953
N14095 X76.341 Y4.549 Z-26.024
N14100 X76.336 Y4.478 Z-26.085
N14105 X76.329 Y4.398 Z-26.135
N14110 X76.323 Y4.311 Z-26.171
N14115 X76.316 Y4.22 Z-26.193
N14120 X76.308 Y4.126 Z-26.2
N14125 X76.262 Y3.528
N14130 G2 X75.618 Y2.976 I-0.598 J0.046
N14135 G3 X67. Y-5. I-0.618 J-7.976 F1000.
N14140 G1 Y-636.91
N14145 G3 X80. Y-649.91 I13. J0.
N14150 G1 X110.
N14155 G3 X123. Y-636.91 I0. J13.
N14160 G1 Y-21.91
N14165 G3 X121.342 Y-19.227 I-3. J0.
N14170 G1 X78.578 Y2.155
N14175 G3 X75.618 Y2.976 I-3.578 J-7.155
N14180 G2 X75.066 Y3.621 I0.046 J0.598 F250.
N14185 G1 X75.112 Y4.219
N14190 X75.119 Y4.312 Z-26.193
N14195 X75.126 Y4.404 Z-26.171
N14200 X75.133 Y4.49 Z-26.135
N14205 X75.139 Y4.57 Z-26.085
N14210 X75.145 Y4.642 Z-26.024
N14215 X75.149 Y4.703 Z-25.953
N14220 X75.153 Y4.752 Z-25.872
N14225 X75.156 Y4.788 Z-25.785
N14230 X75.158 Y4.81 Z-25.694
N14235 Y4.817 Z-25.6
N14240 Z5. F1000.
N14245 X-4.8 Y-4.695
N14250 Z-4.4 F100.
N14255 G18 G2 X-4.2 Z-5. I0.6 K0. F250.
N14260 G1 X-3.6
N14265 G17 G2 X-3. Y-5.295 I0. J-0.6
N14270 G1 Y-637.205 F1000.
N14275 G3 X10. Y-650.205 I13. J0.
N14280 G1 X40.
N14285 G3 X53. Y-637.205 I0. J13.
N14290 G1 Y-22.205
N14295 G3 X51.342 Y-19.522 I-3. J0.
N14300 G1 X8.578 Y1.86
N14305 G3 X-3. Y-5.295 I-3.578 J-7.155
N14310 G2 X-3.6 Y-5.895 I-0.6 J0. F250.
N14315 G1 X-4.2
N14320 G18 G3 X-4.8 Z-4.4 I0. K0.6
N14325 G1 Z5. F1000.
N14330 Y-4.695
N14335 Z0. F100.
N14340 Z-9.4
N14345 G2 X-4.2 Z-10. I0.6 K0. F250.
N14350 G1 X-3.6
N14355 G17 G2 X-3. Y-5.295 I0. J-0.6
N14360 G1 Y-637.205 F1000.
N14365 G3 X10. Y-650.205 I13. J0.
N14370 G1 X40.
N14375 G3 X53. Y-637.205 I0. J13.
N14380 G1 Y-22.205
N14385 G3 X51.342 Y-19.522 I-3. J0.
N14390 G1 X8.578 Y1.86
N14395 G3 X-3. Y-5.295 I-3.578 J-7.155
N14400 G2 X-3.6 Y-5.895 I-0.6 J0. F250.
N14405 G1 X-4.2
N14410 G18 G3 X-4.8 Z-9.4 I0. K0.6
N14415 G1 Z5. F1000.
N14420 Y-4.695
N14425 Z-5. F100.
N14430 Z-14.4
N14435 G2 X-4.2 Z-15. I0.6 K0. F250.
N14440 G1 X-3.6
N14445 G17 G2 X-3. Y-5.295 I0. J-0.6
N14450 G1 Y-637.205 F1000.
N14455 G3 X10. Y-650.205 I13. J0.
N14460 G1 X40.
N14465 G3 X53. Y-637.205 I0. J13.
N14470 G1 Y-22.205
N14475 G3 X51.342 Y-19.522 I-3. J0.
N14480 G1 X8.578 Y1.86
N14485 G3 X-3. Y-5.295 I-3.578 J-7.155
N14490 G2 X-3.6 Y-5.895 I-0.6 J0. F250.
N14495 G1 X-4.2
N14500 G18 G3 X-4.8 Z-14.4 I0. K0.6
N14505 G1 Z5. F1000.
N14510 Y-4.695
N14515 Z-10. F100.
N14520 Z-19.4
N14525 G2 X-4.2 Z-20. I0.6 K0. F250.
N14530 G1 X-3.6
N14535 G17 G2 X-3. Y-5.295 I0. J-0.6
N14540 G1 Y-637.205 F1000.
N14545 G3 X10. Y-650.205 I13. J0.
N14550 G1 X40.
N14555 G3 X53. Y-637.205 I0. J13.
N14560 G1 Y-22.205
N14565 G3 X51.342 Y-19.522 I-3. J0.
N14570 G1 X8.578 Y1.86
N14575 G3 X-3. Y-5.295 I-3.578 J-7.155
N14580 G2 X-3.6 Y-5.895 I-0.6 J0. F250.
N14585 G1 X-4.2
N14590 G18 G3 X-4.8 Z-19.4 I0. K0.6
N14595 G1 Z5. F1000.
N14600 Y-4.695
N14605 Z-15. F100.
N14610 Z-22.5
N14615 G2 X-4.2 Z-23.1 I0.6 K0. F250.
N14620 G1 X-3.6
N14625 G17 G2 X-3. Y-5.295 I0. J-0.6
N14630 G1 Y-637.205 F1000.
N14635 G3 X10. Y-650.205 I13. J0.
N14640 G1 X40.
N14645 G3 X53. Y-637.205 I0. J13.
N14650 G1 Y-22.205
N14655 G3 X51.342 Y-19.522 I-3. J0.
N14660 G1 X8.578 Y1.86
N14665 G3 X-3. Y-5.295 I-3.578 J-7.155
N14670 G2 X-3.6 Y-5.895 I-0.6 J0. F250.
N14675 G1 X-4.2
N14680 G18 G3 X-4.8 Z-22.5 I0. K0.6
N14685 G1 Z5. F1000.
N14690 Y-4.695
N14695 Z-18.1 F100.
N14700 Z-25.6
N14705 G2 X-4.2 Z-26.2 I0.6 K0. F250.
N14710 G1 X-3.6
N14715 G17 G2 X-3. Y-5.295 I0. J-0.6
N14720 G1 Y-637.205 F1000.
N14725 G3 X10. Y-650.205 I13. J0.
N14730 G1 X40.
N14735 G3 X53. Y-637.205 I0. J13.
N14740 G1 Y-22.205
N14745 G3 X51.342 Y-19.522 I-3. J0.
N14750 G1 X8.578 Y1.86
N14755 G3 X-3. Y-5.295 I-3.578 J-7.155
N14760 G2 X-3.6 Y-5.895 I-0.6 J0. F250.
N14765 G1 X-4.2
N14770 G18 G3 X-4.8 Z-25.6 I0. K0.6
N14775 G1 Z5. F1000.
N14780 X145.301 Y4.519
N14785 Z-4.4 F100.
N14790 Y4.511 Z-4.494 F250.
N14795 X145.302 Y4.489 Z-4.585
N14800 X145.303 Y4.453 Z-4.672
N14805 X145.304 Y4.404 Z-4.753
N14810 X145.306 Y4.343 Z-4.824
N14815 X145.308 Y4.271 Z-4.885
N14820 X145.311 Y4.191 Z-4.935
N14825 X145.313 Y4.104 Z-4.971
N14830 X145.316 Y4.013 Z-4.993
N14835 X145.319 Y3.919 Z-5.
N14840 X145.337 Y3.319
N14845 G17 G2 X144.756 Y2.701 I-0.6 J-0.018
N14850 G3 X137. Y-5.295 I0.244 J-7.996 F1000.
N14855 G1 Y-636.91
N14860 Y-637.205
N14865 G3 X150. Y-650.205 I13. J0.
N14870 G1 X180.
N14875 G3 X193. Y-637.205 I0. J13.
N14880 G1 Y-22.205
N14885 G3 X191.342 Y-19.522 I-3. J0.
N14890 G1 X148.578 Y1.86
N14895 G3 X144.756 Y2.701 I-3.578 J-7.155
N14900 G2 X144.138 Y3.283 I-0.018 J0.6 F250.
N14905 G1 X144.12 Y3.882
N14910 X144.117 Y3.976 Z-4.993
N14915 X144.114 Y4.068 Z-4.971
N14920 X144.111 Y4.155 Z-4.935
N14925 X144.109 Y4.235 Z-4.885
N14930 X144.107 Y4.306 Z-4.824
N14935 X144.105 Y4.367 Z-4.753
N14940 X144.103 Y4.417 Z-4.672
N14945 X144.102 Y4.453 Z-4.585
N14950 X144.101 Y4.475 Z-4.494
N14955 Y4.482 Z-4.4
N14960 Z5. F1000.
N14965 X145.301 Y4.519
N14970 Z0. F100.
N14975 Z-9.4
N14980 Y4.511 Z-9.494 F250.
N14985 X145.302 Y4.489 Z-9.585
N14990 X145.303 Y4.453 Z-9.672
N14995 X145.304 Y4.404 Z-9.753
N15000 X145.306 Y4.343 Z-9.824
N15005 X145.308 Y4.271 Z-9.885
N15010 X145.311 Y4.191 Z-9.935
N15015 X145.313 Y4.104 Z-9.971
N15020 X145.316 Y4.013 Z-9.993
N15025 X145.319 Y3.919 Z-10.
N15030 X145.337 Y3.319
N15035 G2 X144.756 Y2.701 I-0.6 J-0.018
N15040 G3 X137. Y-5.295 I0.244 J-7.996 F1000.
N15045 G1 Y-636.91
N15050 Y-637.205
N15055 G3 X150. Y-650.205 I13. J0.
N15060 G1 X180.
N15065 G3 X193. Y-637.205 I0. J13.
N15070 G1 Y-22.205
N15075 G3 X191.342 Y-19.522 I-3. J0.
N15080 G1 X148.578 Y1.86
N15085 G3 X144.756 Y2.701 I-3.578 J-7.155
N15090 G2 X144.138 Y3.283 I-0.018 J0.6 F250.
N15095 G1 X144.12 Y3.882
N15100 X144.117 Y3.976 Z-9.993
N15105 X144.114 Y4.068 Z-9.971
N15110 X144.111 Y4.155 Z-9.935
N15115 X144.109 Y4.235 Z-9.885
N15120 X144.107 Y4.306 Z-9.824
N15125 X144.105 Y4.367 Z-9.753
N15130 X144.103 Y4.417 Z-9.672
N15135 X144.102 Y4.453 Z-9.585
N15140 X144.101 Y4.475 Z-9.494
N15145 Y4.482 Z-9.4
N15150 Z5. F1000.
N15155 X145.301 Y4.519
N15160 Z-5. F100.
N15165 Z-14.4
N15170 Y4.511 Z-14.494 F250.
N15175 X145.302 Y4.489 Z-14.585
N15180 X145.303 Y4.453 Z-14.672
N15185 X145.304 Y4.404 Z-14.753
N15190 X145.306 Y4.343 Z-14.824
N15195 X145.308 Y4.271 Z-14.885
N15200 X145.311 Y4.191 Z-14.935
N15205 X145.313 Y4.104 Z-14.971
N15210 X145.316 Y4.013 Z-14.993
N15215 X145.319 Y3.919 Z-15.
N15220 X145.337 Y3.319
N15225 G2 X144.756 Y2.701 I-0.6 J-0.018
N15230 G3 X137. Y-5.295 I0.244 J-7.996 F1000.
N15235 G1 Y-636.91
N15240 Y-637.205
N15245 G3 X150. Y-650.205 I13. J0.
N15250 G1 X180.
N15255 G3 X193. Y-637.205 I0. J13.
N15260 G1 Y-22.205
N15265 G3 X191.342 Y-19.522 I-3. J0.
N15270 G1 X148.578 Y1.86
N15275 G3 X144.756 Y2.701 I-3.578 J-7.155
N15280 G2 X144.138 Y3.283 I-0.018 J0.6 F250.
N15285 G1 X144.12 Y3.882
N15290 X144.117 Y3.976 Z-14.993
N15295 X144.114 Y4.068 Z-14.971
N15300 X144.111 Y4.155 Z-14.935
N15305 X144.109 Y4.235 Z-14.885
N15310 X144.107 Y4.306 Z-14.824
N15315 X144.105 Y4.367 Z-14.753
N15320 X144.103 Y4.417 Z-14.672
N15325 X144.102 Y4.453 Z-14.585
N15330 X144.101 Y4.475 Z-14.494
N15335 Y4.482 Z-14.4
N15340 Z5. F1000.
N15345 X145.301 Y4.519
N15350 Z-10. F100.
N15355 Z-19.4
N15360 Y4.511 Z-19.494 F250.
N15365 X145.302 Y4.489 Z-19.585
N15370 X145.303 Y4.453 Z-19.672
N15375 X145.304 Y4.404 Z-19.753
N15380 X145.306 Y4.343 Z-19.824
N15385 X145.308 Y4.271 Z-19.885
N15390 X145.311 Y4.191 Z-19.935
N15395 X145.313 Y4.104 Z-19.971
N15400 X145.316 Y4.013 Z-19.993
N15405 X145.319 Y3.919 Z-20.
N15410 X145.337 Y3.319
N15415 G2 X144.756 Y2.701 I-0.6 J-0.018
N15420 G3 X137. Y-5.295 I0.244 J-7.996 F1000.
N15425 G1 Y-636.91
N15430 Y-637.205
N15435 G3 X150. Y-650.205 I13. J0.
N15440 G1 X180.
N15445 G3 X193. Y-637.205 I0. J13.
N15450 G1 Y-22.205
N15455 G3 X191.342 Y-19.522 I-3. J0.
N15460 G1 X148.578 Y1.86
N15465 G3 X144.756 Y2.701 I-3.578 J-7.155
N15470 G2 X144.138 Y3.283 I-0.018 J0.6 F250.
N15475 G1 X144.12 Y3.882
N15480 X144.117 Y3.976 Z-19.993
N15485 X144.114 Y4.068 Z-19.971
N15490 X144.111 Y4.155 Z-19.935
N15495 X144.109 Y4.235 Z-19.885
N15500 X144.107 Y4.306 Z-19.824
N15505 X144.105 Y4.367 Z-19.753
N15510 X144.103 Y4.417 Z-19.672
N15515 X144.102 Y4.453 Z-19.585
N15520 X144.101 Y4.475 Z-19.494
N15525 Y4.482 Z-19.4
N15530 Z5. F1000.
N15535 X145.301 Y4.519
N15540 Z-15. F100.
N15545 Z-22.5
N15550 Y4.511 Z-22.594 F250.
N15555 X145.302 Y4.489 Z-22.685
N15560 X145.303 Y4.453 Z-22.772
N15565 X145.304 Y4.404 Z-22.853
N15570 X145.306 Y4.343 Z-22.924
N15575 X145.308 Y4.271 Z-22.985
N15580 X145.311 Y4.191 Z-23.035
N15585 X145.313 Y4.104 Z-23.071
N15590 X145.316 Y4.013 Z-23.093
N15595 X145.319 Y3.919 Z-23.1
N15600 X145.337 Y3.319
N15605 G2 X144.756 Y2.701 I-0.6 J-0.018
N15610 G3 X137. Y-5.295 I0.244 J-7.996 F1000.
N15615 G1 Y-636.91
N15620 Y-637.205
N15625 G3 X150. Y-650.205 I13. J0.
N15630 G1 X180.
N15635 G3 X193. Y-637.205 I0. J13.
N15640 G1 Y-22.205
N15645 G3 X191.342 Y-19.522 I-3. J0.
N15650 G1 X148.578 Y1.86
N15655 G3 X144.756 Y2.701 I-3.578 J-7.155
N15660 G2 X144.138 Y3.283 I-0.018 J0.6 F250.
N15665 G1 X144.12 Y3.882
N15670 X144.117 Y3.976 Z-23.093
N15675 X144.114 Y4.068 Z-23.071
N15680 X144.111 Y4.155 Z-23.035
N15685 X144.109 Y4.235 Z-22.985
N15690 X144.107 Y4.306 Z-22.924
N15695 X144.105 Y4.367 Z-22.853
N15700 X144.103 Y4.417 Z-22.772
N15705 X144.102 Y4.453 Z-22.685
N15710 X144.101 Y4.475 Z-22.594
N15715 Y4.482 Z-22.5
N15720 Z5. F1000.
N15725 X145.301 Y4.519
N15730 Z-18.1 F100.
N15735 Z-25.6
N15740 Y4.511 Z-25.694 F250.
N15745 X145.302 Y4.489 Z-25.785
N15750 X145.303 Y4.453 Z-25.872
N15755 X145.304 Y4.404 Z-25.953
N15760 X145.306 Y4.343 Z-26.024
N15765 X145.308 Y4.271 Z-26.085
N15770 X145.311 Y4.191 Z-26.135
N15775 X145.313 Y4.104 Z-26.171
N15780 X145.316 Y4.013 Z-26.193
N15785 X145.319 Y3.919 Z-26.2
N15790 X145.337 Y3.319
N15795 G2 X144.756 Y2.701 I-0.6 J-0.018
N15800 G3 X137. Y-5.295 I0.244 J-7.996 F1000.
N15805 G1 Y-636.91
N15810 Y-637.205
N15815 G3 X150. Y-650.205 I13. J0.
N15820 G1 X180.
N15825 G3 X193. Y-637.205 I0. J13.
N15830 G1 Y-22.205
N15835 G3 X191.342 Y-19.522 I-3. J0.
N15840 G1 X148.578 Y1.86
N15845 G3 X144.756 Y2.701 I-3.578 J-7.155
N15850 G2 X144.138 Y3.283 I-0.018 J0.6 F250.
N15855 G1 X144.12 Y3.882
N15860 X144.117 Y3.976 Z-26.193
N15865 X144.114 Y4.068 Z-26.171
N15870 X144.111 Y4.155 Z-26.135
N15875 X144.109 Y4.235 Z-26.085
N15880 X144.107 Y4.306 Z-26.024
N15885 X144.105 Y4.367 Z-25.953
N15890 X144.103 Y4.417 Z-25.872
N15895 X144.102 Y4.453 Z-25.785
N15900 X144.101 Y4.475 Z-25.694
N15905 Y4.482 Z-25.6
N15910 Z5. F1000.
N15915 X214.811 Y4.817
N15920 Z-4.4 F100.
N15925 X214.812 Y4.809 Z-4.494 F250.
N15930 X214.814 Y4.787 Z-4.585
N15935 X214.817 Y4.751 Z-4.672
N15940 X214.821 Y4.702 Z-4.753
N15945 X214.825 Y4.641 Z-4.824
N15950 X214.831 Y4.57 Z-4.885
N15955 X214.838 Y4.49 Z-4.935
N15960 X214.845 Y4.403 Z-4.971
N15965 X214.852 Y4.312 Z-4.993
N15970 X214.86 Y4.218 Z-5.
N15975 X214.908 Y3.62
N15980 G2 X214.358 Y2.974 I-0.598 J-0.048
N15985 G3 X207. Y-5. I0.642 J-7.974 F1000.
N15990 G1 Y-636.91
N15995 G3 X220. Y-649.91 I13. J0.
N16000 G1 X250.
N16005 G3 X263. Y-636.91 I0. J13.
N16010 G1 Y-21.91
N16015 G3 X261.342 Y-19.227 I-3. J0.
N16020 G1 X218.578 Y2.155
N16025 G3 X214.358 Y2.974 I-3.578 J-7.155
N16030 G2 X213.712 Y3.524 I-0.048 J0.598 F250.
N16035 G1 X213.663 Y4.122
N16040 X213.656 Y4.216 Z-4.993
N16045 X213.649 Y4.307 Z-4.971
N16050 X213.642 Y4.394 Z-4.935
N16055 X213.635 Y4.474 Z-4.885
N16060 X213.629 Y4.545 Z-4.824
N16065 X213.624 Y4.606 Z-4.753
N16070 X213.62 Y4.655 Z-4.672
N16075 X213.618 Y4.691 Z-4.585
N16080 X213.616 Y4.713 Z-4.494
N16085 X213.615 Y4.72 Z-4.4
N16090 Z5. F1000.
N16095 X214.811 Y4.817
N16100 Z0. F100.
N16105 Z-9.4
N16110 X214.812 Y4.809 Z-9.494 F250.
N16115 X214.814 Y4.787 Z-9.585
N16120 X214.817 Y4.751 Z-9.672
N16125 X214.821 Y4.702 Z-9.753
N16130 X214.825 Y4.641 Z-9.824
N16135 X214.831 Y4.57 Z-9.885
N16140 X214.838 Y4.49 Z-9.935
N16145 X214.845 Y4.403 Z-9.971
N16150 X214.852 Y4.312 Z-9.993
N16155 X214.86 Y4.218 Z-10.
N16160 X214.908 Y3.62
N16165 G2 X214.358 Y2.974 I-0.598 J-0.048
N16170 G3 X207. Y-5. I0.642 J-7.974 F1000.
N16175 G1 Y-636.91
N16180 G3 X220. Y-649.91 I13. J0.
N16185 G1 X250.
N16190 G3 X263. Y-636.91 I0. J13.
N16195 G1 Y-21.91
N16200 G3 X261.342 Y-19.227 I-3. J0.
N16205 G1 X218.578 Y2.155
N16210 G3 X214.358 Y2.974 I-3.578 J-7.155
N16215 G2 X213.712 Y3.524 I-0.048 J0.598 F250.
N16220 G1 X213.663 Y4.122
N16225 X213.656 Y4.216 Z-9.993
N16230 X213.649 Y4.307 Z-9.971
N16235 X213.642 Y4.394 Z-9.935
N16240 X213.635 Y4.474 Z-9.885
N16245 X213.629 Y4.545 Z-9.824
N16250 X213.624 Y4.606 Z-9.753
N16255 X213.62 Y4.655 Z-9.672
N16260 X213.618 Y4.691 Z-9.585
N16265 X213.616 Y4.713 Z-9.494
N16270 X213.615 Y4.72 Z-9.4
N16275 Z5. F1000.
N16280 X214.811 Y4.817
N16285 Z-5. F100.
N16290 Z-14.4
N16295 X214.812 Y4.809 Z-14.494 F250.
N16300 X214.814 Y4.787 Z-14.585
N16305 X214.817 Y4.751 Z-14.672
N16310 X214.821 Y4.702 Z-14.753
N16315 X214.825 Y4.641 Z-14.824
N16320 X214.831 Y4.57 Z-14.885
N16325 X214.838 Y4.49 Z-14.935
N16330 X214.845 Y4.403 Z-14.971
N16335 X214.852 Y4.312 Z-14.993
N16340 X214.86 Y4.218 Z-15.
N16345 X214.908 Y3.62
N16350 G2 X214.358 Y2.974 I-0.598 J-0.048
N16355 G3 X207. Y-5. I0.642 J-7.974 F1000.
N16360 G1 Y-636.91
N16365 G3 X220. Y-649.91 I13. J0.
N16370 G1 X250.
N16375 G3 X263. Y-636.91 I0. J13.
N16380 G1 Y-21.91
N16385 G3 X261.342 Y-19.227 I-3. J0.
N16390 G1 X218.578 Y2.155
N16395 G3 X214.358 Y2.974 I-3.578 J-7.155
N16400 G2 X213.712 Y3.524 I-0.048 J0.598 F250.
N16405 G1 X213.663 Y4.122
N16410 X213.656 Y4.216 Z-14.993
N16415 X213.649 Y4.307 Z-14.971
N16420 X213.642 Y4.394 Z-14.935
N16425 X213.635 Y4.474 Z-14.885
N16430 X213.629 Y4.545 Z-14.824
