%
(CONTOUR)
(MACHINE)
(  MODEL LASER SNAKE V2)
(  DESCRIPTION 3-AXIS ROUTER)
(T3  D=6.35 CR=0. - ZMIN=-26.2 - FLAT END MILL)
N10 G90 G94 G17 G91.1
N15 G21
(WHEN USING FUSION 360 FOR PERSONAL USE, THE FEEDRATE OF)
(RAPID MOVES IS REDUCED TO MATCH THE FEEDRATE OF CUTTING)
(MOVES, WHICH CAN INCREASE MACHINING TIME. UNRESTRICTED RAPID)
(MOVES ARE AVAILABLE WITH A FUSION 360 SUBSCRIPTION.)
N20 G53 G0 Z0.
(2D CONTOUR3)
N25 T3 M6
N30 S15000 M3
N35 G54
N40 G0 X76.411 Y5.001
N45 G43 Z15. H3
N50 G1 Z5. F1000.
N55 Z-4.365 F200.
N60 Y4.993 Z-4.464
N65 X76.409 Y4.97 Z-4.561
N70 X76.406 Y4.932 Z-4.653
N75 X76.402 Y4.88 Z-4.738
N80 X76.397 Y4.815 Z-4.814
N85 X76.391 Y4.74 Z-4.879
N90 X76.384 Y4.655 Z-4.931
N95 X76.377 Y4.563 Z-4.969
N100 X76.37 Y4.467 Z-4.992
N105 X76.362 Y4.368 Z-5.
N110 X76.313 Y3.735
N115 G2 X75.631 Y3.151 I-0.633 J0.049
N120 G3 X66.825 Y-5. I-0.631 J-8.151 F1000.
N125 G1 Y-636.91
N130 G3 X80. Y-650.085 I13.175 J0.
N135 G1 X110.
N140 G3 X123.175 Y-636.91 I0. J13.175
N145 G1 Y-21.91
N150 G3 X121.42 Y-19.07 I-3.175 J0.
N155 G1 X78.656 Y2.312
N160 G3 X75.631 Y3.151 I-3.656 J-7.312
N165 G2 X75.047 Y3.833 I0.049 J0.633 F200.
N170 G1 X75.096 Y4.466
N175 X75.104 Y4.565 Z-4.992
N180 X75.111 Y4.661 Z-4.969
N185 X75.118 Y4.753 Z-4.931
N190 X75.125 Y4.838 Z-4.879
N195 X75.131 Y4.914 Z-4.814
N200 X75.136 Y4.978 Z-4.738
N205 X75.14 Y5.03 Z-4.653
N210 X75.143 Y5.068 Z-4.561
N215 X75.144 Y5.091 Z-4.464
N220 X75.145 Y5.099 Z-4.365
N225 Z5. F1000.
N230 X76.411 Y5.001
N235 Z0. F200.
N240 Z-9.365
N245 Y4.993 Z-9.464
N250 X76.409 Y4.97 Z-9.561
N255 X76.406 Y4.932 Z-9.653
N260 X76.402 Y4.88 Z-9.738
N265 X76.397 Y4.815 Z-9.814
N270 X76.391 Y4.74 Z-9.879
N275 X76.384 Y4.655 Z-9.931
N280 X76.377 Y4.563 Z-9.969
N285 X76.37 Y4.467 Z-9.992
N290 X76.362 Y4.368 Z-10.
N295 X76.313 Y3.735
N300 G2 X75.631 Y3.151 I-0.633 J0.049
N305 G3 X66.825 Y-5. I-0.631 J-8.151 F1000.
N310 G1 Y-636.91
N315 G3 X80. Y-650.085 I13.175 J0.
N320 G1 X110.
N325 G3 X123.175 Y-636.91 I0. J13.175
N330 G1 Y-21.91
N335 G3 X121.42 Y-19.07 I-3.175 J0.
N340 G1 X78.656 Y2.312
N345 G3 X75.631 Y3.151 I-3.656 J-7.312
N350 G2 X75.047 Y3.833 I0.049 J0.633 F200.
N355 G1 X75.096 Y4.466
N360 X75.104 Y4.565 Z-9.992
N365 X75.111 Y4.661 Z-9.969
N370 X75.118 Y4.753 Z-9.931
N375 X75.125 Y4.838 Z-9.879
N380 X75.131 Y4.914 Z-9.814
N385 X75.136 Y4.978 Z-9.738
N390 X75.14 Y5.03 Z-9.653
N395 X75.143 Y5.068 Z-9.561
N400 X75.144 Y5.091 Z-9.464
N405 X75.145 Y5.099 Z-9.365
N410 Z5. F1000.
N415 X76.411 Y5.001
N420 Z-5. F200.
N425 Z-14.365
N430 Y4.993 Z-14.464
N435 X76.409 Y4.97 Z-14.561
N440 X76.406 Y4.932 Z-14.653
N445 X76.402 Y4.88 Z-14.738
N450 X76.397 Y4.815 Z-14.814
N455 X76.391 Y4.74 Z-14.879
N460 X76.384 Y4.655 Z-14.931
N465 X76.377 Y4.563 Z-14.969
N470 X76.37 Y4.467 Z-14.992
N475 X76.362 Y4.368 Z-15.
N480 X76.313 Y3.735
N485 G2 X75.631 Y3.151 I-0.633 J0.049
N490 G3 X66.825 Y-5. I-0.631 J-8.151 F1000.
N495 G1 Y-636.91
N500 G3 X80. Y-650.085 I13.175 J0.
N505 G1 X110.
N510 G3 X123.175 Y-636.91 I0. J13.175
N515 G1 Y-21.91
N520 G3 X121.42 Y-19.07 I-3.175 J0.
N525 G1 X78.656 Y2.312
N530 G3 X75.631 Y3.151 I-3.656 J-7.312
N535 G2 X75.047 Y3.833 I0.049 J0.633 F200.
N540 G1 X75.096 Y4.466
N545 X75.104 Y4.565 Z-14.992
N550 X75.111 Y4.661 Z-14.969
N555 X75.118 Y4.753 Z-14.931
N560 X75.125 Y4.838 Z-14.879
N565 X75.131 Y4.914 Z-14.814
N570 X75.136 Y4.978 Z-14.738
N575 X75.14 Y5.03 Z-14.653
N580 X75.143 Y5.068 Z-14.561
N585 X75.144 Y5.091 Z-14.464
N590 X75.145 Y5.099 Z-14.365
N595 Z5. F1000.
N600 X76.411 Y5.001
N605 Z-10. F200.
N610 Z-19.365
N615 Y4.993 Z-19.464
N620 X76.409 Y4.97 Z-19.561
N625 X76.406 Y4.932 Z-19.653
N630 X76.402 Y4.88 Z-19.738
N635 X76.397 Y4.815 Z-19.814
N640 X76.391 Y4.74 Z-19.879
N645 X76.384 Y4.655 Z-19.931
N650 X76.377 Y4.563 Z-19.969
N655 X76.37 Y4.467 Z-19.992
N660 X76.362 Y4.368 Z-20.
N665 X76.313 Y3.735
N670 G2 X75.631 Y3.151 I-0.633 J0.049
N675 G3 X66.825 Y-5. I-0.631 J-8.151 F1000.
N680 G1 Y-636.91
N685 G3 X80. Y-650.085 I13.175 J0.
N690 G1 X110.
N695 G3 X123.175 Y-636.91 I0. J13.175
N700 G1 Y-21.91
N705 G3 X121.42 Y-19.07 I-3.175 J0.
N710 G1 X78.656 Y2.312
N715 G3 X75.631 Y3.151 I-3.656 J-7.312
N720 G2 X75.047 Y3.833 I0.049 J0.633 F200.
N725 G1 X75.096 Y4.466
N730 X75.104 Y4.565 Z-19.992
N735 X75.111 Y4.661 Z-19.969
N740 X75.118 Y4.753 Z-19.931
N745 X75.125 Y4.838 Z-19.879
N750 X75.131 Y4.914 Z-19.814
N755 X75.136 Y4.978 Z-19.738
N760 X75.14 Y5.03 Z-19.653
N765 X75.143 Y5.068 Z-19.561
N770 X75.144 Y5.091 Z-19.464
N775 X75.145 Y5.099 Z-19.365
N780 Z5. F1000.
N785 X76.411 Y5.001
N790 Z-15. F200.
N795 Z-22.465
N800 Y4.993 Z-22.564
N805 X76.409 Y4.97 Z-22.661
N810 X76.406 Y4.932 Z-22.753
N815 X76.402 Y4.88 Z-22.838
N820 X76.397 Y4.815 Z-22.914
N825 X76.391 Y4.74 Z-22.979
N830 X76.384 Y4.655 Z-23.031
N835 X76.377 Y4.563 Z-23.069
N840 X76.37 Y4.467 Z-23.092
N845 X76.362 Y4.368 Z-23.1
N850 X76.313 Y3.735
N855 G2 X75.631 Y3.151 I-0.633 J0.049
N860 G3 X66.825 Y-5. I-0.631 J-8.151 F1000.
N865 G1 Y-636.91
N870 G3 X80. Y-650.085 I13.175 J0.
N875 G1 X110.
N880 G3 X123.175 Y-636.91 I0. J13.175
N885 G1 Y-21.91
N890 G3 X121.42 Y-19.07 I-3.175 J0.
N895 G1 X78.656 Y2.312
N900 G3 X75.631 Y3.151 I-3.656 J-7.312
N905 G2 X75.047 Y3.833 I0.049 J0.633 F200.
N910 G1 X75.096 Y4.466
N915 X75.104 Y4.565 Z-23.092
N920 X75.111 Y4.661 Z-23.069
N925 X75.118 Y4.753 Z-23.031
N930 X75.125 Y4.838 Z-22.979
N935 X75.131 Y4.914 Z-22.914
N940 X75.136 Y4.978 Z-22.838
N945 X75.14 Y5.03 Z-22.753
N950 X75.143 Y5.068 Z-22.661
N955 X75.144 Y5.091 Z-22.564
N960 X75.145 Y5.099 Z-22.465
N965 Z5. F1000.
N970 X76.411 Y5.001
N975 Z-18.1 F200.
N980 Z-25.565
N985 Y4.993 Z-25.664
N990 X76.409 Y4.97 Z-25.761
N995 X76.406 Y4.932 Z-25.853
N1000 X76.402 Y4.88 Z-25.938
N1005 X76.397 Y4.815 Z-26.014
N1010 X76.391 Y4.74 Z-26.079
N1015 X76.384 Y4.655 Z-26.131
N1020 X76.377 Y4.563 Z-26.169
N1025 X76.37 Y4.467 Z-26.192
N1030 X76.362 Y4.368 Z-26.2
N1035 X76.313 Y3.735
N1040 G2 X75.631 Y3.151 I-0.633 J0.049
N1045 G3 X66.825 Y-5. I-0.631 J-8.151 F1000.
N1050 G1 Y-636.91
N1055 G3 X80. Y-650.085 I13.175 J0.
N1060 G1 X110.
N1065 G3 X123.175 Y-636.91 I0. J13.175
N1070 G1 Y-21.91
N1075 G3 X121.42 Y-19.07 I-3.175 J0.
N1080 G1 X78.656 Y2.312
N1085 G3 X75.631 Y3.151 I-3.656 J-7.312
N1090 G2 X75.047 Y3.833 I0.049 J0.633 F200.
N1095 G1 X75.096 Y4.466
N1100 X75.104 Y4.565 Z-26.192
N1105 X75.111 Y4.661 Z-26.169
N1110 X75.118 Y4.753 Z-26.131
N1115 X75.125 Y4.838 Z-26.079
N1120 X75.131 Y4.914 Z-26.014
N1125 X75.136 Y4.978 Z-25.938
N1130 X75.14 Y5.03 Z-25.853
N1135 X75.143 Y5.068 Z-25.761
N1140 X75.144 Y5.091 Z-25.664
N1145 X75.145 Y5.099 Z-25.565
N1150 Z5. F1000.
N1155 X-5.08 Y-4.66
N1160 Z-4.365 F200.
N1165 G18 G2 X-4.445 Z-5. I0.635 K0.
N1170 G1 X-3.81
N1175 G17 G2 X-3.175 Y-5.295 I0. J-0.635
N1180 G1 Y-637.205 F1000.
N1185 G3 X10. Y-650.38 I13.175 J0.
N1190 G1 X40.
N1195 G3 X53.175 Y-637.205 I0. J13.175
N1200 G1 Y-22.205
N1205 G3 X51.42 Y-19.365 I-3.175 J0.
N1210 G1 X8.656 Y2.017
N1215 G3 X-3.175 Y-5.295 I-3.656 J-7.312
N1220 G2 X-3.81 Y-5.93 I-0.635 J0. F200.
N1225 G1 X-4.445
N1230 G18 G3 X-5.08 Z-4.365 I0. K0.635
N1235 G1 Z5. F1000.
N1240 Y-4.66
N1245 Z0. F200.
N1250 Z-9.365
N1255 G2 X-4.445 Z-10. I0.635 K0.
N1260 G1 X-3.81
N1265 G17 G2 X-3.175 Y-5.295 I0. J-0.635
N1270 G1 Y-637.205 F1000.
N1275 G3 X10. Y-650.38 I13.175 J0.
N1280 G1 X40.
N1285 G3 X53.175 Y-637.205 I0. J13.175
N1290 G1 Y-22.205
N1295 G3 X51.42 Y-19.365 I-3.175 J0.
N1300 G1 X8.656 Y2.017
N1305 G3 X-3.175 Y-5.295 I-3.656 J-7.312
N1310 G2 X-3.81 Y-5.93 I-0.635 J0. F200.
N1315 G1 X-4.445
N1320 G18 G3 X-5.08 Z-9.365 I0. K0.635
N1325 G1 Z5. F1000.
N1330 Y-4.66
N1335 Z-5. F200.
N1340 Z-14.365
N1345 G2 X-4.445 Z-15. I0.635 K0.
N1350 G1 X-3.81
N1355 G17 G2 X-3.175 Y-5.295 I0. J-0.635
N1360 G1 Y-637.205 F1000.
N1365 G3 X10. Y-650.38 I13.175 J0.
N1370 G1 X40.
N1375 G3 X53.175 Y-637.205 I0. J13.175
N1380 G1 Y-22.205
N1385 G3 X51.42 Y-19.365 I-3.175 J0.
N1390 G1 X8.656 Y2.017
N1395 G3 X-3.175 Y-5.295 I-3.656 J-7.312
N1400 G2 X-3.81 Y-5.93 I-0.635 J0. F200.
N1405 G1 X-4.445
N1410 G18 G3 X-5.08 Z-14.365 I0. K0.635
N1415 G1 Z5. F1000.
N1420 Y-4.66
N1425 Z-10. F200.
N1430 Z-19.365
N1435 G2 X-4.445 Z-20. I0.635 K0.
N1440 G1 X-3.81
N1445 G17 G2 X-3.175 Y-5.295 I0. J-0.635
N1450 G1 Y-637.205 F1000.
N1455 G3 X10. Y-650.38 I13.175 J0.
N1460 G1 X40.
N1465 G3 X53.175 Y-637.205 I0. J13.175
N1470 G1 Y-22.205
N1475 G3 X51.42 Y-19.365 I-3.175 J0.
N1480 G1 X8.656 Y2.017
N1485 G3 X-3.175 Y-5.295 I-3.656 J-7.312
N1490 G2 X-3.81 Y-5.93 I-0.635 J0. F200.
N1495 G1 X-4.445
N1500 G18 G3 X-5.08 Z-19.365 I0. K0.635
N1505 G1 Z5. F1000.
N1510 Y-4.66
N1515 Z-15. F200.
N1520 Z-22.465
N1525 G2 X-4.445 Z-23.1 I0.635 K0.
N1530 G1 X-3.81
N1535 G17 G2 X-3.175 Y-5.295 I0. J-0.635
N1540 G1 Y-637.205 F1000.
N1545 G3 X10. Y-650.38 I13.175 J0.
N1550 G1 X40.
N1555 G3 X53.175 Y-637.205 I0. J13.175
N1560 G1 Y-22.205
N1565 G3 X51.42 Y-19.365 I-3.175 J0.
N1570 G1 X8.656 Y2.017
N1575 G3 X-3.175 Y-5.295 I-3.656 J-7.312
N1580 G2 X-3.81 Y-5.93 I-0.635 J0. F200.
N1585 G1 X-4.445
N1590 G18 G3 X-5.08 Z-22.465 I0. K0.635
N1595 G1 Z5. F1000.
N1600 Y-4.66
N1605 Z-18.1 F200.
N1610 Z-25.565
N1615 G2 X-4.445 Z-26.2 I0.635 K0.
N1620 G1 X-3.81
N1625 G17 G2 X-3.175 Y-5.295 I0. J-0.635
N1630 G1 Y-637.205 F1000.
N1635 G3 X10. Y-650.38 I13.175 J0.
N1640 G1 X40.
N1645 G3 X53.175 Y-637.205 I0. J13.175
N1650 G1 Y-22.205
N1655 G3 X51.42 Y-19.365 I-3.175 J0.
N1660 G1 X8.656 Y2.017
N1665 G3 X-3.175 Y-5.295 I-3.656 J-7.312
N1670 G2 X-3.81 Y-5.93 I-0.635 J0. F200.
N1675 G1 X-4.445
N1680 G18 G3 X-5.08 Z-25.565 I0. K0.635
N1685 G1 Z5. F1000.
N1690 X145.327 Y4.8
N1695 Z-4.365 F200.
N1700 Y4.792 Z-4.464
N1705 X145.328 Y4.769 Z-4.561
N1710 X145.329 Y4.73 Z-4.653
N1715 X145.331 Y4.678 Z-4.738
N1720 X145.333 Y4.614 Z-4.814
N1725 X145.335 Y4.538 Z-4.879
N1730 X145.338 Y4.453 Z-4.931
N1735 X145.341 Y4.361 Z-4.969
N1740 X145.343 Y4.264 Z-4.992
N1745 X145.346 Y4.165 Z-5.
N1750 X145.366 Y3.53
N1755 G17 G2 X144.751 Y2.876 I-0.635 J-0.019
N1760 G3 X136.825 Y-5.295 I0.249 J-8.171 F1000.
N1765 G1 Y-636.91
N1770 Y-637.205
N1775 G3 X150. Y-650.38 I13.175 J0.
N1780 G1 X180.
N1785 G3 X193.175 Y-637.205 I0. J13.175
N1790 G1 Y-22.205
N1795 G3 X191.42 Y-19.365 I-3.175 J0.
N1800 G1 X148.656 Y2.017
N1805 G3 X144.751 Y2.876 I-3.656 J-7.312
N1810 G2 X144.096 Y3.491 I-0.019 J0.635 F200.
N1815 G1 X144.077 Y4.126
N1820 X144.074 Y4.225 Z-4.992
N1825 X144.071 Y4.322 Z-4.969
N1830 X144.068 Y4.414 Z-4.931
N1835 X144.066 Y4.499 Z-4.879
N1840 X144.063 Y4.575 Z-4.814
N1845 X144.061 Y4.64 Z-4.738
N1850 X144.06 Y4.692 Z-4.653
N1855 X144.059 Y4.73 Z-4.561
N1860 X144.058 Y4.753 Z-4.464
N1865 Y4.761 Z-4.365
N1870 Z5. F1000.
N1875 X145.327 Y4.8
N1880 Z0. F200.
N1885 Z-9.365
N1890 Y4.792 Z-9.464
N1895 X145.328 Y4.769 Z-9.561
N1900 X145.329 Y4.73 Z-9.653
N1905 X145.331 Y4.678 Z-9.738
N1910 X145.333 Y4.614 Z-9.814
N1915 X145.335 Y4.538 Z-9.879
N1920 X145.338 Y4.453 Z-9.931
N1925 X145.341 Y4.361 Z-9.969
N1930 X145.343 Y4.264 Z-9.992
N1935 X145.346 Y4.165 Z-10.
N1940 X145.366 Y3.53
N1945 G2 X144.751 Y2.876 I-0.635 J-0.019
N1950 G3 X136.825 Y-5.295 I0.249 J-8.171 F1000.
N1955 G1 Y-636.91
N1960 Y-637.205
N1965 G3 X150. Y-650.38 I13.175 J0.
N1970 G1 X180.
N1975 G3 X193.175 Y-637.205 I0. J13.175
N1980 G1 Y-22.205
N1985 G3 X191.42 Y-19.365 I-3.175 J0.
N1990 G1 X148.656 Y2.017
N1995 G3 X144.751 Y2.876 I-3.656 J-7.312
N2000 G2 X144.096 Y3.491 I-0.019 J0.635 F200.
N2005 G1 X144.077 Y4.126
N2010 X144.074 Y4.225 Z-9.992
N2015 X144.071 Y4.322 Z-9.969
N2020 X144.068 Y4.414 Z-9.931
N2025 X144.066 Y4.499 Z-9.879
N2030 X144.063 Y4.575 Z-9.814
N2035 X144.061 Y4.64 Z-9.738
N2040 X144.06 Y4.692 Z-9.653
N2045 X144.059 Y4.73 Z-9.561
N2050 X144.058 Y4.753 Z-9.464
N2055 Y4.761 Z-9.365
N2060 Z5. F1000.
N2065 X145.327 Y4.8
N2070 Z-5. F200.
N2075 Z-14.365
N2080 Y4.792 Z-14.464
N2085 X145.328 Y4.769 Z-14.561
N2090 X145.329 Y4.73 Z-14.653
N2095 X145.331 Y4.678 Z-14.738
N2100 X145.333 Y4.614 Z-14.814
N2105 X145.335 Y4.538 Z-14.879
N2110 X145.338 Y4.453 Z-14.931
N2115 X145.341 Y4.361 Z-14.969
N2120 X145.343 Y4.264 Z-14.992
N2125 X145.346 Y4.165 Z-15.
N2130 X145.366 Y3.53
N2135 G2 X144.751 Y2.876 I-0.635 J-0.019
N2140 G3 X136.825 Y-5.295 I0.249 J-8.171 F1000.
N2145 G1 Y-636.91
N2150 Y-637.205
N2155 G3 X150. Y-650.38 I13.175 J0.
N2160 G1 X180.
N2165 G3 X193.175 Y-637.205 I0. J13.175
N2170 G1 Y-22.205
N2175 G3 X191.42 Y-19.365 I-3.175 J0.
N2180 G1 X148.656 Y2.017
N2185 G3 X144.751 Y2.876 I-3.656 J-7.312
N2190 G2 X144.096 Y3.491 I-0.019 J0.635 F200.
N2195 G1 X144.077 Y4.126
N2200 X144.074 Y4.225 Z-14.992
N2205 X144.071 Y4.322 Z-14.969
N2210 X144.068 Y4.414 Z-14.931
N2215 X144.066 Y4.499 Z-14.879
N2220 X144.063 Y4.575 Z-14.814
N2225 X144.061 Y4.64 Z-14.738
N2230 X144.06 Y4.692 Z-14.653
N2235 X144.059 Y4.73 Z-14.561
N2240 X144.058 Y4.753 Z-14.464
N2245 Y4.761 Z-14.365
N2250 Z5. F1000.
N2255 X145.327 Y4.8
N2260 Z-10. F200.
N2265 Z-19.365
N2270 Y4.792 Z-19.464
N2275 X145.328 Y4.769 Z-19.561
N2280 X145.329 Y4.73 Z-19.653
N2285 X145.331 Y4.678 Z-19.738
N2290 X145.333 Y4.614 Z-19.814
N2295 X145.335 Y4.538 Z-19.879
N2300 X145.338 Y4.453 Z-19.931
N2305 X145.341 Y4.361 Z-19.969
N2310 X145.343 Y4.264 Z-19.992
N2315 X145.346 Y4.165 Z-20.
N2320 X145.366 Y3.53
N2325 G2 X144.751 Y2.876 I-0.635 J-0.019
N2330 G3 X136.825 Y-5.295 I0.249 J-8.171 F1000.
N2335 G1 Y-636.91
N2340 Y-637.205
N2345 G3 X150. Y-650.38 I13.175 J0.
N2350 G1 X180.
N2355 G3 X193.175 Y-637.205 I0. J13.175
N2360 G1 Y-22.205
N2365 G3 X191.42 Y-19.365 I-3.175 J0.
N2370 G1 X148.656 Y2.017
N2375 G3 X144.751 Y2.876 I-3.656 J-7.312
N2380 G2 X144.096 Y3.491 I-0.019 J0.635 F200.
N2385 G1 X144.077 Y4.126
N2390 X144.074 Y4.225 Z-19.992
N2395 X144.071 Y4.322 Z-19.969
N2400 X144.068 Y4.414 Z-19.931
N2405 X144.066 Y4.499 Z-19.879
N2410 X144.063 Y4.575 Z-19.814
N2415 X144.061 Y4.64 Z-19.738
N2420 X144.06 Y4.692 Z-19.653
N2425 X144.059 Y4.73 Z-19.561
N2430 X144.058 Y4.753 Z-19.464
N2435 Y4.761 Z-19.365
N2440 Z5. F1000.
N2445 X145.327 Y4.8
N2450 Z-15. F200.
N2455 Z-22.465
N2460 Y4.792 Z-22.564
N2465 X145.328 Y4.769 Z-22.661
N2470 X145.329 Y4.73 Z-22.753
N2475 X145.331 Y4.678 Z-22.838
N2480 X145.333 Y4.614 Z-22.914
N2485 X145.335 Y4.538 Z-22.979
N2490 X145.338 Y4.453 Z-23.031
N2495 X145.341 Y4.361 Z-23.069
N2500 X145.343 Y4.264 Z-23.092
N2505 X145.346 Y4.165 Z-23.1
N2510 X145.366 Y3.53
N2515 G2 X144.751 Y2.876 I-0.635 J-0.019
N2520 G3 X136.825 Y-5.295 I0.249 J-8.171 F1000.
N2525 G1 Y-636.91
N2530 Y-637.205
N2535 G3 X150. Y-650.38 I13.175 J0.
N2540 G1 X180.
N2545 G3 X193.175 Y-637.205 I0. J13.175
N2550 G1 Y-22.205
N2555 G3 X191.42 Y-19.365 I-3.175 J0.
N2560 G1 X148.656 Y2.017
N2565 G3 X144.751 Y2.876 I-3.656 J-7.312
N2570 G2 X144.096 Y3.491 I-0.019 J0.635 F200.
N2575 G1 X144.077 Y4.126
N2580 X144.074 Y4.225 Z-23.092
N2585 X144.071 Y4.322 Z-23.069
N2590 X144.068 Y4.414 Z-23.031
N2595 X144.066 Y4.499 Z-22.979
N2600 X144.063 Y4.575 Z-22.914
N2605 X144.061 Y4.64 Z-22.838
N2610 X144.06 Y4.692 Z-22.753
N2615 X144.059 Y4.73 Z-22.661
N2620 X144.058 Y4.753 Z-22.564
N2625 Y4.761 Z-22.465
N2630 Z5. F1000.
N2635 X145.327 Y4.8
N2640 Z-18.1 F200.
N2645 Z-25.565
N2650 Y4.792 Z-25.664
N2655 X145.328 Y4.769 Z-25.761
N2660 X145.329 Y4.73 Z-25.853
N2665 X145.331 Y4.678 Z-25.938
N2670 X145.333 Y4.614 Z-26.014
N2675 X145.335 Y4.538 Z-26.079
N2680 X145.338 Y4.453 Z-26.131
N2685 X145.341 Y4.361 Z-26.169
N2690 X145.343 Y4.264 Z-26.192
N2695 X145.346 Y4.165 Z-26.2
N2700 X145.366 Y3.53
N2705 G2 X144.751 Y2.876 I-0.635 J-0.019
N2710 G3 X136.825 Y-5.295 I0.249 J-8.171 F1000.
N2715 G1 Y-636.91
N2720 Y-637.205
N2725 G3 X150. Y-650.38 I13.175 J0.
N2730 G1 X180.
N2735 G3 X193.175 Y-637.205 I0. J13.175
N2740 G1 Y-22.205
N2745 G3 X191.42 Y-19.365 I-3.175 J0.
N2750 G1 X148.656 Y2.017
N2755 G3 X144.751 Y2.876 I-3.656 J-7.312
N2760 G2 X144.096 Y3.491 I-0.019 J0.635 F200.
N2765 G1 X144.077 Y4.126
N2770 X144.074 Y4.225 Z-26.192
N2775 X144.071 Y4.322 Z-26.169
N2780 X144.068 Y4.414 Z-26.131
N2785 X144.066 Y4.499 Z-26.079
N2790 X144.063 Y4.575 Z-26.014
N2795 X144.061 Y4.64 Z-25.938
N2800 X144.06 Y4.692 Z-25.853
N2805 X144.059 Y4.73 Z-25.761
N2810 X144.058 Y4.753 Z-25.664
N2815 Y4.761 Z-25.565
N2820 Z5. F1000.
N2825 X214.824 Y5.098
N2830 Z-4.365 F200.
N2835 Y5.091 Z-4.464
N2840 X214.826 Y5.067 Z-4.561
N2845 X214.829 Y5.029 Z-4.653
N2850 X214.834 Y4.978 Z-4.738
N2855 X214.839 Y4.913 Z-4.814
N2860 X214.845 Y4.838 Z-4.879
N2865 X214.852 Y4.753 Z-4.931
N2870 X214.859 Y4.661 Z-4.969
N2875 X214.867 Y4.564 Z-4.992
N2880 X214.875 Y4.465 Z-5.
N2885 X214.926 Y3.833
N2890 G2 X214.344 Y3.149 I-0.633 J-0.051
N2895 G3 X206.825 Y-5. I0.656 J-8.149 F1000.
N2900 G1 Y-636.91
N2905 G3 X220. Y-650.085 I13.175 J0.
N2910 G1 X250.
N2915 G3 X263.175 Y-636.91 I0. J13.175
N2920 G1 Y-21.91
N2925 G3 X261.42 Y-19.07 I-3.175 J0.
N2930 G1 X218.656 Y2.312
N2935 G3 X214.344 Y3.149 I-3.656 J-7.312
N2940 G2 X213.66 Y3.731 I-0.051 J0.633 F200.
N2945 G1 X213.609 Y4.364
N2950 X213.601 Y4.463 Z-4.992
N2955 X213.593 Y4.559 Z-4.969
N2960 X213.586 Y4.651 Z-4.931
N2965 X213.579 Y4.736 Z-4.879
N2970 X213.573 Y4.811 Z-4.814
N2975 X213.568 Y4.876 Z-4.738
N2980 X213.563 Y4.927 Z-4.653
N2985 X213.56 Y4.965 Z-4.561
N2990 X213.559 Y4.989 Z-4.464
N2995 X213.558 Y4.996 Z-4.365
N3000 Z5. F1000.
N3005 X214.824 Y5.098
N3010 Z0. F200.
N3015 Z-9.365
N3020 Y5.091 Z-9.464
N3025 X214.826 Y5.067 Z-9.561
N3030 X214.829 Y5.029 Z-9.653
N3035 X214.834 Y4.978 Z-9.738
N3040 X214.839 Y4.913 Z-9.814
N3045 X214.845 Y4.838 Z-9.879
N3050 X214.852 Y4.753 Z-9.931
N3055 X214.859 Y4.661 Z-9.969
N3060 X214.867 Y4.564 Z-9.992
N3065 X214.875 Y4.465 Z-10.
N3070 X214.926 Y3.833
N3075 G2 X214.344 Y3.149 I-0.633 J-0.051
N3080 G3 X206.825 Y-5. I0.656 J-8.149 F1000.
N3085 G1 Y-636.91
N3090 G3 X220. Y-650.085 I13.175 J0.
N3095 G1 X250.
N3100 G3 X263.175 Y-636.91 I0. J13.175
N3105 G1 Y-21.91
N3110 G3 X261.42 Y-19.07 I-3.175 J0.
N3115 G1 X218.656 Y2.312
N3120 G3 X214.344 Y3.149 I-3.656 J-7.312
N3125 G2 X213.66 Y3.731 I-0.051 J0.633 F200.
N3130 G1 X213.609 Y4.364
N3135 X213.601 Y4.463 Z-9.992
N3140 X213.593 Y4.559 Z-9.969
N3145 X213.586 Y4.651 Z-9.931
N3150 X213.579 Y4.736 Z-9.879
N3155 X213.573 Y4.811 Z-9.814
N3160 X213.568 Y4.876 Z-9.738
N3165 X213.563 Y4.927 Z-9.653
N3170 X213.56 Y4.965 Z-9.561
N3175 X213.559 Y4.989 Z-9.464
N3180 X213.558 Y4.996 Z-9.365
N3185 Z5. F1000.
N3190 X214.824 Y5.098
N3195 Z-5. F200.
N3200 Z-14.365
N3205 Y5.091 Z-14.464
N3210 X214.826 Y5.067 Z-14.561
N3215 X214.829 Y5.029 Z-14.653
N3220 X214.834 Y4.978 Z-14.738
N3225 X214.839 Y4.913 Z-14.814
N3230 X214.845 Y4.838 Z-14.879
N3235 X214.852 Y4.753 Z-14.931
N3240 X214.859 Y4.661 Z-14.969
N3245 X214.867 Y4.564 Z-14.992
N3250 X214.875 Y4.465 Z-15.
N3255 X214.926 Y3.833
N3260 G2 X214.344 Y3.149 I-0.633 J-0.051
N3265 G3 X206.825 Y-5. I0.656 J-8.149 F1000.
N3270 G1 Y-636.91
N3275 G3 X220. Y-650.085 I13.175 J0.
N3280 G1 X250.
N3285 G3 X263.175 Y-636.91 I0. J13.175
N3290 G1 Y-21.91
N3295 G3 X261.42 Y-19.07 I-3.175 J0.
N3300 G1 X218.656 Y2.312
N3305 G3 X214.344 Y3.149 I-3.656 J-7.312
N3310 G2 X213.66 Y3.731 I-0.051 J0.633 F200.
N3315 G1 X213.609 Y4.364
N3320 X213.601 Y4.463 Z-14.992
N3325 X213.593 Y4.559 Z-14.969
N3330 X213.586 Y4.651 Z-14.931
N3335 X213.579 Y4.736 Z-14.879
N3340 X213.573 Y4.811 Z-14.814
N3345 X213.568 Y4.876 Z-14.738
N3350 X213.563 Y4.927 Z-14.653
N3355 X213.56 Y4.965 Z-14.561
N3360 X213.559 Y4.989 Z-14.464
N3365 X213.558 Y4.996 Z-14.365
N3370 Z5. F1000.
N3375 X214.824 Y5.098
N3380 Z-10. F200.
N3385 Z-19.365
N3390 Y5.091 Z-19.464
N3395 X214.826 Y5.067 Z-19.561
N3400 X214.829 Y5.029 Z-19.653
N3405 X214.834 Y4.978 Z-19.738
N3410 X214.839 Y4.913 Z-19.814
N3415 X214.845 Y4.838 Z-19.879
N3420 X214.852 Y4.753 Z-19.931
N3425 X214.859 Y4.661 Z-19.969
N3430 X214.867 Y4.564 Z-19.992
N3435 X214.875 Y4.465 Z-20.
N3440 X214.926 Y3.833
N3445 G2 X214.344 Y3.149 I-0.633 J-0.051
N3450 G3 X206.825 Y-5. I0.656 J-8.149 F1000.
N3455 G1 Y-636.91
N3460 G3 X220. Y-650.085 I13.175 J0.
N3465 G1 X250.
N3470 G3 X263.175 Y-636.91 I0. J13.175
N3475 G1 Y-21.91
N3480 G3 X261.42 Y-19.07 I-3.175 J0.
N3485 G1 X218.656 Y2.312
N3490 G3 X214.344 Y3.149 I-3.656 J-7.312
N3495 G2 X213.66 Y3.731 I-0.051 J0.633 F200.
N3500 G1 X213.609 Y4.364
N3505 X213.601 Y4.463 Z-19.992
N3510 X213.593 Y4.559 Z-19.969
N3515 X213.586 Y4.651 Z-19.931
N3520 X213.579 Y4.736 Z-19.879
N3525 X213.573 Y4.811 Z-19.814
N3530 X213.568 Y4.876 Z-19.738
N3535 X213.563 Y4.927 Z-19.653
N3540 X213.56 Y4.965 Z-19.561
N3545 X213.559 Y4.989 Z-19.464
N3550 X213.558 Y4.996 Z-19.365
N3555 Z5. F1000.
N3560 X214.824 Y5.098
N3565 Z-15. F200.
N3570 Z-22.465
N3575 Y5.091 Z-22.564
N3580 X214.826 Y5.067 Z-22.661
N3585 X214.829 Y5.029 Z-22.753
N3590 X214.834 Y4.978 Z-22.838
N3595 X214.839 Y4.913 Z-22.914
N3600 X214.845 Y4.838 Z-22.979
N3605 X214.852 Y4.753 Z-23.031
N3610 X214.859 Y4.661 Z-23.069
N3615 X214.867 Y4.564 Z-23.092
N3620 X214.875 Y4.465 Z-23.1
N3625 X214.926 Y3.833
N3630 G2 X214.344 Y3.149 I-0.633 J-0.051
N3635 G3 X206.825 Y-5. I0.656 J-8.149 F1000.
N3640 G1 Y-636.91
N3645 G3 X220. Y-650.085 I13.175 J0.
N3650 G1 X250.
N3655 G3 X263.175 Y-636.91 I0. J13.175
N3660 G1 Y-21.91
N3665 G3 X261.42 Y-19.07 I-3.175 J0.
N3670 G1 X218.656 Y2.312
N3675 G3 X214.344 Y3.149 I-3.656 J-7.312
N3680 G2 X213.66 Y3.731 I-0.051 J0.633 F200.
N3685 G1 X213.609 Y4.364
N3690 X213.601 Y4.463 Z-23.092
N3695 X213.593 Y4.559 Z-23.069
N3700 X213.586 Y4.651 Z-23.031
N3705 X213.579 Y4.736 Z-22.979
N3710 X213.573 Y4.811 Z-22.914
N3715 X213.568 Y4.876 Z-22.838
N3720 X213.563 Y4.927 Z-22.753
N3725 X213.56 Y4.965 Z-22.661
N3730 X213.559 Y4.989 Z-22.564
N3735 X213.558 Y4.996 Z-22.465
N3740 Z5. F1000.
N3745 X214.824 Y5.098
N3750 Z-18.1 F200.
N3755 Z-25.565
N3760 Y5.091 Z-25.664
N3765 X214.826 Y5.067 Z-25.761
N3770 X214.829 Y5.029 Z-25.853
N3775 X214.834 Y4.978 Z-25.938
N3780 X214.839 Y4.913 Z-26.014
N3785 X214.845 Y4.838 Z-26.079
N3790 X214.852 Y4.753 Z-26.131
N3795 X214.859 Y4.661 Z-26.169
N3800 X214.867 Y4.564 Z-26.192
N3805 X214.875 Y4.465 Z-26.2
N3810 X214.926 Y3.833
N3815 G2 X214.344 Y3.149 I-0.633 J-0.051
N3820 G3 X206.825 Y-5. I0.656 J-8.149 F1000.
N3825 G1 Y-636.91
N3830 G3 X220. Y-650.085 I13.175 J0.
N3835 G1 X250.
N3840 G3 X263.175 Y-636.91 I0. J13.175
N3845 G1 Y-21.91
N3850 G3 X261.42 Y-19.07 I-3.175 J0.
N3855 G1 X218.656 Y2.312
N3860 G3 X214.344 Y3.149 I-3.656 J-7.312
N3865 G2 X213.66 Y3.731 I-0.051 J0.633 F200.
N3870 G1 X213.609 Y4.364
N3875 X213.601 Y4.463 Z-26.192
N3880 X213.593 Y4.559 Z-26.169
N3885 X213.586 Y4.651 Z-26.131
N3890 X213.579 Y4.736 Z-26.079
N3895 X213.573 Y4.811 Z-26.014
N3900 X213.568 Y4.876 Z-25.938
N3905 X213.563 Y4.927 Z-25.853
N3910 X213.56 Y4.965 Z-25.761
N3915 X213.559 Y4.989 Z-25.664
N3920 X213.558 Y4.996 Z-25.565
N3925 Z15. F1000.
N3930 G53 G0 Z0.
N3935 G53 G0 X0. Y0.
N3940 M30
%
