%
(EXTRADEPTH)
(MACHINE)
(  MODEL LASER SNAKE V2)
(  DESCRIPTION 3-AXIS ROUTER)
(T3  D=6.35 CR=0. - ZMIN=-13.5 - FLAT END MILL)
N10 G90 G94 G17 G91.1
N15 G21
(WHEN USING FUSION 360 FOR PERSONAL USE, THE FEEDRATE OF)
(RAPID MOVES IS REDUCED TO MATCH THE FEEDRATE OF CUTTING)
(MOVES, WHICH CAN INCREASE MACHINING TIME. UNRESTRICTED RAPID)
(MOVES ARE AVAILABLE WITH A FUSION 360 SUBSCRIPTION.)
N20 G53 G0 Z0.
(2D POCKET5)
N25 T3 M6
N30 S15000 M3
N35 G54
N40 G0 X25. Y-568.722
N45 G43 Z15. H3
N50 G1 Z5. F1000.
N55 Z-13.5
N60 G2 X25.281 Y-568.764 I0.12 J-0.16
N65 X25.236 Y-569.045 I-0.161 J-0.118
N70 G1 X15.544 Y-575.955
N75 X-3.074 Y-589.919
N80 G2 X-4.021 Y-588.656 I-0.474 J0.631
N85 G1 X5.244 Y-581.705
N90 X5.288 Y-581.674
N95 X15.07 Y-575.324
N100 G2 X16.016 Y-575.389 I0.43 J-0.662
N105 G1 X17.851 Y-576.975
N110 G2 X17.808 Y-578.203 I-0.516 J-0.597
N115 G1 X-3.072 Y-593.864
N120 G2 X-4.186 Y-592.38 I-0.556 J0.742
N125 G1 X6.201 Y-584.587
N130 X6.255 Y-584.549
N135 X17.252 Y-577.461
N140 G2 X18.065 Y-577.367 I0.502 J-0.78
N145 G1 X21.214 Y-578.487
N150 G2 X21.459 Y-580.103 I-0.311 J-0.874
N155 G1 X-3.068 Y-598.498
N160 G2 X-4.181 Y-597.014 I-0.557 J0.742
N165 G1 X8.037 Y-587.849
N170 X8.082 Y-587.816
N175 X20.903 Y-579.361
N180 G2 X21.331 Y-579.211 I0.511 J-0.774
N185 G1 X26.596 Y-578.743
N190 G2 X27.235 Y-580.409 I0.082 J-0.924
N195 G1 X-3.074 Y-603.14
N200 X-3.094 Y-603.155 F200.
N205 Z5.
N210 X25. Y-568.722 F1000.
N215 Z-13.5
N220 X52.825 Y-547.494
N225 G2 X53.106 Y-547.533 I0.121 J-0.159
N230 X53.066 Y-547.813 I-0.16 J-0.121
N235 G1 X34.607 Y-561.658
N240 G2 X33.659 Y-560.396 I-0.474 J0.631
N245 G1 X42.845 Y-553.504
N250 X42.889 Y-553.473
N255 X52.593 Y-547.182
N260 G2 X53.805 Y-547.946 I0.429 J-0.662
N265 G1 X53.377 Y-551.229
N270 G2 X53.068 Y-551.759 I-0.783 J0.102
N275 G1 X36.11 Y-564.477
N280 G2 X34.997 Y-562.993 I-0.556 J0.742
N285 G1 X43.409 Y-556.68
N290 X43.476 Y-556.634
N295 X52.511 Y-551.017
N300 G2 X53.921 Y-551.92 I0.49 J-0.788
N305 G1 X53.436 Y-555.767
N310 G2 X53.072 Y-556.393 I-0.92 J0.116
N315 G1 X36.915 Y-568.511
N320 G2 X35.802 Y-567.027 I-0.556 J0.742
N325 G1 X43.81 Y-561.016
N330 X43.88 Y-560.968
N335 X52.516 Y-555.651
N340 G2 X53.922 Y-556.558 I0.486 J-0.79
N345 G1 X53.43 Y-560.41
N350 G2 X53.066 Y-561.035 I-0.92 J0.117
N355 G1 X35.615 Y-574.124
N360 G2 X34.501 Y-572.64 I-0.556 J0.742
N365 G1 X43.162 Y-566.14
N370 X43.227 Y-566.095
N375 X52.51 Y-560.293
N380 G2 X53.922 Y-561.196 I0.492 J-0.786
N385 G1 X53.434 Y-565.044
N390 G2 X53.071 Y-565.669 I-0.92 J0.117
N395 G1 X-3.07 Y-607.774
N400 X-3.09 Y-607.789 F200.
N405 Z5.
N410 X25. Y-568.722 F1000.
N415 Z-13.5
N420 X25.04 Y-568.699
N425 X25.083 Y-568.685
N430 X25.129 Y-568.682
N435 X52.964 Y-569.944
N440 G2 X53.075 Y-570.303 I-0.009 J-0.2
N445 G1 X-3.066 Y-612.409
N450 X-3.085 Y-612.424 F200.
N455 Z5. F1000.
N460 X25. Y-568.722
N465 Z-13.5
N470 X25.037 Y-568.7
N475 X25.077 Y-568.687
N480 X25.119 Y-568.682
N485 X25.162 Y-568.686
N490 X52.988 Y-574.598
N495 G2 X53.066 Y-574.953 I-0.042 J-0.196
N500 G1 X-1.905 Y-616.182
N505 X-3.071 Y-617.057
N510 Z5.
N515 X25. Y-568.722
N520 Z-13.5
N525 G2 X24.718 Y-568.68 I-0.12 J0.16
N530 X24.764 Y-568.399 I0.162 J0.118
N535 G1 X34.478 Y-561.518
N540 X53.069 Y-547.581
N545 G2 X54.016 Y-548.844 I0.473 J-0.631
N550 G1 X44.764 Y-555.782
N555 X44.72 Y-555.812
N560 X34.951 Y-562.149
N565 G2 X34.004 Y-562.083 I-0.43 J0.662
N570 G1 X32.147 Y-560.468
N575 G2 X32.192 Y-559.241 I0.518 J0.596
N580 G1 X53.072 Y-543.58
N585 G2 X54.186 Y-545.064 I0.556 J-0.742
N590 G1 X43.799 Y-552.857
N595 X43.745 Y-552.895
N600 X32.748 Y-559.983
N605 G2 X31.935 Y-560.077 I-0.502 J0.78
N610 G1 X28.827 Y-558.971
N615 G2 X28.582 Y-557.355 I0.311 J0.874
N620 G1 X53.074 Y-538.995
N625 G2 X54.187 Y-540.479 I0.556 J-0.742
N630 G1 X41.987 Y-549.627
N635 X41.941 Y-549.659
N640 X29.138 Y-558.097
N645 G2 X28.707 Y-558.247 I-0.51 J0.774
N650 G1 X23.401 Y-558.702
N655 G2 X22.765 Y-557.035 I-0.079 J0.924
N660 G1 X53.074 Y-534.304
N665 X53.094 Y-534.289 F200.
N670 Z5.
N675 X25. Y-568.722 F1000.
N680 Z-13.5
N685 X-2.83 Y-589.985
N690 G2 X-3.11 Y-589.946 I-0.121 J0.159
N695 X-3.071 Y-589.666 I0.159 J0.121
N700 G1 X15.412 Y-575.81
N705 G2 X16.359 Y-577.073 I0.473 J-0.632
N710 G1 X7.162 Y-583.97
N715 X7.117 Y-584.001
N720 X-2.598 Y-590.297
N725 G2 X-3.809 Y-589.533 I-0.429 J0.662
N730 G1 X-3.377 Y-586.215
N735 G2 X-3.068 Y-585.685 I0.783 J-0.102
N740 G1 X13.89 Y-572.967
N745 G2 X15.003 Y-574.451 I0.556 J-0.742
N750 G1 X6.591 Y-580.764
N755 X6.524 Y-580.81
N760 X-2.511 Y-586.427
N765 G2 X-3.921 Y-585.521 I-0.49 J0.788
N770 G1 X-3.429 Y-581.704
N775 G2 X-3.066 Y-581.08 I0.92 J-0.118
N780 G1 X13.094 Y-568.966
N785 G2 X14.207 Y-570.45 I0.556 J-0.742
N790 G1 X6.197 Y-576.459
N795 X6.127 Y-576.507
N800 X-2.51 Y-581.822
N805 G2 X-3.916 Y-580.917 I-0.486 J0.79
N810 G1 X-3.43 Y-577.036
N815 G2 X-3.066 Y-576.409 I0.92 J-0.115
N820 G1 X14.385 Y-563.32
N825 G2 X15.499 Y-564.804 I0.557 J-0.742
N830 G1 X6.838 Y-571.304
N835 X6.773 Y-571.349
N840 X-2.51 Y-577.151
N845 G2 X-3.922 Y-576.248 I-0.492 J0.786
N850 G1 X-3.434 Y-572.4
N855 G2 X-3.071 Y-571.775 I0.92 J-0.117
N860 G1 X53.07 Y-529.67
N865 X53.09 Y-529.655 F200.
N870 Z5.
N875 X25. Y-568.722 F1000.
N880 Z-13.5
N885 X24.96 Y-568.745
N890 X24.917 Y-568.759
N895 X24.871 Y-568.762
N900 X-2.964 Y-567.5
N905 G2 X-3.075 Y-567.141 I0.009 J0.2
N910 G1 X53.066 Y-525.035
N915 X53.085 Y-525.021 F200.
N920 Z5. F1000.
N925 X25. Y-568.722
N930 Z-13.5
N935 X24.963 Y-568.744
N940 X24.923 Y-568.757
N945 X24.881 Y-568.762
N950 X24.838 Y-568.758
N955 X-2.988 Y-562.846
N960 G2 X-3.066 Y-562.491 I0.042 J0.196
N965 G1 X51.905 Y-521.262
N970 X53.071 Y-520.387
N975 Z15.
N980 X165. Y-568.722
N985 Z5.
N990 Z-13.5
N995 G2 X165.281 Y-568.764 I0.12 J-0.16
N1000 X165.236 Y-569.045 I-0.161 J-0.118
N1005 G1 X155.544 Y-575.955
N1010 X136.926 Y-589.919
N1015 G2 X135.979 Y-588.656 I-0.474 J0.631
N1020 G1 X145.244 Y-581.705
N1025 X145.288 Y-581.674
N1030 X155.07 Y-575.324
N1035 G2 X156.016 Y-575.389 I0.43 J-0.662
N1040 G1 X157.851 Y-576.975
N1045 G2 X157.809 Y-578.203 I-0.516 J-0.597
N1050 G1 X136.928 Y-593.864
N1055 G2 X135.814 Y-592.38 I-0.557 J0.742
N1060 G1 X146.201 Y-584.587
N1065 X146.255 Y-584.55
N1070 X157.252 Y-577.461
N1075 G2 X158.065 Y-577.367 I0.503 J-0.78
N1080 G1 X161.214 Y-578.487
N1085 G2 X161.459 Y-580.103 I-0.311 J-0.874
N1090 G1 X136.932 Y-598.498
N1095 G2 X135.819 Y-597.014 I-0.557 J0.742
N1100 G1 X148.037 Y-587.849
N1105 X148.083 Y-587.816
N1110 X160.903 Y-579.361
N1115 G2 X161.331 Y-579.211 I0.511 J-0.774
N1120 G1 X166.596 Y-578.743
N1125 G2 X167.235 Y-580.409 I0.082 J-0.924
N1130 G1 X136.926 Y-603.14
N1135 X136.906 Y-603.155 F200.
N1140 Z5.
N1145 X165. Y-568.722 F1000.
N1150 Z-13.5
N1155 X192.825 Y-547.494
N1160 G2 X193.106 Y-547.533 I0.121 J-0.159
N1165 X193.066 Y-547.813 I-0.16 J-0.121
N1170 G1 X174.607 Y-561.658
N1175 G2 X173.659 Y-560.396 I-0.474 J0.631
N1180 G1 X182.845 Y-553.504
N1185 X182.889 Y-553.473
N1190 X192.593 Y-547.182
N1195 G2 X193.805 Y-547.946 I0.429 J-0.662
N1200 G1 X193.377 Y-551.229
N1205 G2 X193.068 Y-551.759 I-0.783 J0.102
N1210 G1 X176.11 Y-564.477
N1215 G2 X174.997 Y-562.993 I-0.557 J0.742
N1220 G1 X183.409 Y-556.68
N1225 X183.476 Y-556.634
N1230 X192.511 Y-551.017
N1235 G2 X193.921 Y-551.92 I0.49 J-0.788
N1240 G1 X193.436 Y-555.767
N1245 G2 X193.072 Y-556.393 I-0.92 J0.116
N1250 G1 X176.915 Y-568.511
N1255 G2 X175.802 Y-567.027 I-0.557 J0.742
N1260 G1 X183.81 Y-561.016
N1265 X183.88 Y-560.968
N1270 X192.516 Y-555.651
N1275 G2 X193.922 Y-556.558 I0.486 J-0.79
N1280 G1 X193.43 Y-560.41
N1285 G2 X193.066 Y-561.035 I-0.92 J0.117
N1290 G1 X175.615 Y-574.124
N1295 G2 X174.501 Y-572.64 I-0.557 J0.742
N1300 G1 X183.162 Y-566.14
N1305 X183.228 Y-566.095
N1310 X192.51 Y-560.293
N1315 G2 X193.922 Y-561.196 I0.492 J-0.786
N1320 G1 X193.434 Y-565.044
N1325 G2 X193.071 Y-565.669 I-0.92 J0.117
N1330 G1 X136.93 Y-607.774
N1335 X136.911 Y-607.789 F200.
N1340 Z5.
N1345 X165. Y-568.722 F1000.
N1350 Z-13.5
N1355 X165.04 Y-568.699
N1360 X165.083 Y-568.685
N1365 X165.129 Y-568.682
N1370 X192.964 Y-569.944
N1375 G2 X193.075 Y-570.303 I-0.009 J-0.2
N1380 G1 X136.935 Y-612.409
N1385 X136.915 Y-612.424 F200.
N1390 Z5. F1000.
N1395 X165. Y-568.722
N1400 Z-13.5
N1405 X165.037 Y-568.7
N1410 X165.077 Y-568.687
N1415 X165.119 Y-568.682
N1420 X165.162 Y-568.686
N1425 X192.988 Y-574.598
N1430 G2 X193.066 Y-574.953 I-0.042 J-0.196
N1435 G1 X138.095 Y-616.182
N1440 X136.929 Y-617.057
N1445 Z5.
N1450 X165. Y-568.722
N1455 Z-13.5
N1460 G2 X164.718 Y-568.68 I-0.12 J0.16
N1465 X164.764 Y-568.399 I0.162 J0.118
N1470 G1 X174.478 Y-561.518
N1475 X193.069 Y-547.581
N1480 G2 X194.016 Y-548.844 I0.473 J-0.632
N1485 G1 X184.765 Y-555.781
N1490 X184.721 Y-555.812
N1495 X174.951 Y-562.149
N1500 G2 X174.003 Y-562.081 I-0.43 J0.662
N1505 G1 X172.178 Y-560.488
N1510 G2 X172.223 Y-559.262 I0.519 J0.595
N1515 G1 X193.068 Y-543.636
N1520 G2 X194.181 Y-545.12 I0.556 J-0.742
N1525 G1 X183.813 Y-552.896
N1530 X183.759 Y-552.933
N1535 X172.78 Y-560.004
N1540 G2 X171.964 Y-560.097 I-0.502 J0.78
N1545 G1 X168.825 Y-558.97
N1550 G2 X168.582 Y-557.355 I0.314 J0.873
N1555 G1 X193.074 Y-538.995
N1560 G2 X194.187 Y-540.479 I0.556 J-0.742
N1565 G1 X181.987 Y-549.627
N1570 X181.941 Y-549.659
N1575 X169.139 Y-558.097
N1580 G2 X168.705 Y-558.247 I-0.51 J0.774
N1585 G1 X163.489 Y-558.678
N1590 G2 X162.856 Y-557.011 I-0.076 J0.924
N1595 G1 X193.071 Y-534.361
N1600 X193.09 Y-534.346 F200.
N1605 Z5.
N1610 X165. Y-568.722 F1000.
N1615 Z-13.5
N1620 X137.171 Y-589.984
N1625 G2 X136.89 Y-589.946 I-0.121 J0.159
N1630 X136.929 Y-589.666 I0.159 J0.121
N1635 G1 X155.412 Y-575.81
N1640 G2 X156.359 Y-577.073 I0.473 J-0.632
N1645 G1 X147.162 Y-583.97
N1650 X147.118 Y-584.001
N1655 X137.403 Y-590.297
N1660 G2 X136.191 Y-589.533 I-0.429 J0.662
N1665 G1 X136.619 Y-586.25
N1670 G2 X136.928 Y-585.721 I0.783 J-0.102
N1675 G1 X153.899 Y-572.999
N1680 G2 X155.012 Y-574.483 I0.556 J-0.742
N1685 G1 X146.593 Y-580.798
N1690 X146.526 Y-580.844
N1695 X137.485 Y-586.463
N1700 G2 X136.075 Y-585.557 I-0.49 J0.788
N1705 G1 X136.571 Y-581.704
N1710 G2 X136.934 Y-581.08 I0.92 J-0.118
N1715 G1 X153.094 Y-568.966
N1720 G2 X154.207 Y-570.45 I0.556 J-0.742
N1725 G1 X146.198 Y-576.459
N1730 X146.127 Y-576.507
N1735 X137.491 Y-581.822
N1740 G2 X136.084 Y-580.917 I-0.486 J0.79
N1745 G1 X136.567 Y-577.073
N1750 G2 X136.931 Y-576.446 I0.92 J-0.115
N1755 G1 X154.336 Y-563.398
N1760 G2 X155.449 Y-564.882 I0.556 J-0.742
N1765 G1 X146.811 Y-571.362
N1770 X146.746 Y-571.406
N1775 X137.487 Y-577.188
N1780 G2 X136.076 Y-576.285 I-0.491 J0.787
N1785 G1 X136.566 Y-572.401
N1790 G2 X136.93 Y-571.775 I0.92 J-0.116
N1795 G1 X193.07 Y-529.67
N1800 X193.09 Y-529.655 F200.
N1805 Z5.
N1810 X165. Y-568.722 F1000.
N1815 Z-13.5
N1820 X164.96 Y-568.745
N1825 X164.917 Y-568.759
N1830 X164.871 Y-568.762
N1835 X137.036 Y-567.5
N1840 G2 X136.926 Y-567.141 I0.009 J0.2
N1845 G1 X193.066 Y-525.035
N1850 X193.086 Y-525.02 F200.
N1855 Z5. F1000.
N1860 X165. Y-568.722
N1865 Z-13.5
N1870 X164.963 Y-568.744
N1875 X164.923 Y-568.757
N1880 X164.881 Y-568.762
N1885 X164.838 Y-568.758
N1890 X137.012 Y-562.846
N1895 G2 X136.934 Y-562.49 I0.042 J0.196
N1900 G1 X141.905 Y-558.762
N1905 X191.905 Y-521.262
N1910 X193.071 Y-520.387
N1915 Z15.
N1920 G53 G0 Z0.
N1925 G53 G0 X0. Y0.
N1930 M30
%
