%
(HOLE_JIG)
(T1  D=3.175 CR=0. - ZMIN=-18. - FLAT END MILL)
N10 G90 G94 G17 G91.1
N15 G21
(WHEN USING FUSION 360 FOR PERSONAL USE, THE FEEDRATE OF)
(RAPID MOVES IS REDUCED TO MATCH THE FEEDRATE OF CUTTING)
(MOVES, WHICH CAN INCREASE MACHINING TIME. UNRESTRICTED RAPID)
(MOVES ARE AVAILABLE WITH A FUSION 360 SUBSCRIPTION.)
N20 G53 G0 Z0.
(2D POCKET1)
N25 T1 M6
N30 S15000 M3
N35 G54
N40 M8
N45 G0 X0.273 Y0.
N50 G43 Z15. H1
N55 G1 Z5. F250.
N60 Z-3.25 F150.
N65 G2 X1.633 I0.68 J0. F250.
N70 X-1.633 I-1.633 J0.
N75 X3.537 I2.585 J0.
N80 X-3.537 I-3.537 J0.
N85 X5.443 I4.49 J0.
N90 X-5.443 I-5.443 J0.
N95 X7.347 I6.395 J0.
N100 X-7.347 I-7.347 J0.
N105 X9.252 I8.3 J0.
N110 X-9.252 I-9.252 J0.
N115 X11.158 I10.205 J0.
N120 X-11.158 I-11.158 J0.
N125 X13.063 I12.11 J0.
N130 X-13.063 I-13.063 J0.
N135 X13.063 I13.063 J0.
N140 X12.734 Y-0.267 I-0.273 J0.
N145 G1 X11.483 Y-0.006
N150 X11.427 Y0.
N155 X0.273
N160 Z-6.5 F150.
N165 G2 X1.633 I0.68 J0. F250.
N170 X-1.633 I-1.633 J0.
N175 X3.537 I2.585 J0.
N180 X-3.537 I-3.537 J0.
N185 X5.443 I4.49 J0.
N190 X-5.443 I-5.443 J0.
N195 X7.347 I6.395 J0.
N200 X-7.347 I-7.347 J0.
N205 X9.252 I8.3 J0.
N210 X-9.252 I-9.252 J0.
N215 X11.158 I10.205 J0.
N220 X-11.158 I-11.158 J0.
N225 X13.063 I12.11 J0.
N230 X-13.063 I-13.063 J0.
N235 X13.063 I13.063 J0.
N240 X12.734 Y-0.267 I-0.273 J0.
N245 G1 X11.483 Y-0.006
N250 X11.427 Y0.
N255 X0.273
N260 Z-9.75 F150.
N265 G2 X1.633 I0.68 J0. F250.
N270 X-1.633 I-1.633 J0.
N275 X3.537 I2.585 J0.
N280 X-3.537 I-3.537 J0.
N285 X5.443 I4.49 J0.
N290 X-5.443 I-5.443 J0.
N295 X7.347 I6.395 J0.
N300 X-7.347 I-7.347 J0.
N305 X9.252 I8.3 J0.
N310 X-9.252 I-9.252 J0.
N315 X11.158 I10.205 J0.
N320 X-11.158 I-11.158 J0.
N325 X13.063 I12.11 J0.
N330 X-13.063 I-13.063 J0.
N335 X13.063 I13.063 J0.
N340 X12.734 Y-0.267 I-0.273 J0.
N345 G1 X11.483 Y-0.006
N350 X11.427 Y0.
N355 X0.273
N360 Z-13. F150.
N365 G2 X1.633 I0.68 J0. F250.
N370 X-1.633 I-1.633 J0.
N375 X3.537 I2.585 J0.
N380 X-3.537 I-3.537 J0.
N385 X5.443 I4.49 J0.
N390 X-5.443 I-5.443 J0.
N395 X7.347 I6.395 J0.
N400 X-7.347 I-7.347 J0.
N405 X9.252 I8.3 J0.
N410 X-9.252 I-9.252 J0.
N415 X11.158 I10.205 J0.
N420 X-11.158 I-11.158 J0.
N425 X13.063 I12.11 J0.
N430 X-13.063 I-13.063 J0.
N435 X13.063 I13.063 J0.
N440 G1 Z15.
(WHEN USING FUSION 360 FOR PERSONAL USE, THE FEEDRATE OF)
(RAPID MOVES IS REDUCED TO MATCH THE FEEDRATE OF CUTTING)
(MOVES, WHICH CAN INCREASE MACHINING TIME. UNRESTRICTED RAPID)
(MOVES ARE AVAILABLE WITH A FUSION 360 SUBSCRIPTION.)
(2D POCKET1 2)
N445 G0 X1.513 Y0.
N450 G1 Z15. F250.
N455 Z5.
N460 Z-3.6 F150.
N465 G2 X-1.513 I-1.513 J0. F250.
N470 X1.513 I1.513 J0.
N475 G1 Z-7.2 F150.
N480 G2 X-1.513 I-1.513 J0. F250.
N485 X1.513 I1.513 J0.
N490 G1 Z-10.8 F150.
N495 G2 X-1.513 I-1.513 J0. F250.
N500 X1.513 I1.513 J0.
N505 G1 Z-14.4 F150.
N510 G2 X-1.513 I-1.513 J0. F250.
N515 X1.513 I1.513 J0.
N520 G1 Z-18. F150.
N525 G2 X-1.513 I-1.513 J0. F250.
N530 X1.513 I1.513 J0.
N535 G1 Z15.
(WHEN USING FUSION 360 FOR PERSONAL USE, THE FEEDRATE OF)
(RAPID MOVES IS REDUCED TO MATCH THE FEEDRATE OF CUTTING)
(MOVES, WHICH CAN INCREASE MACHINING TIME. UNRESTRICTED RAPID)
(MOVES ARE AVAILABLE WITH A FUSION 360 SUBSCRIPTION.)
(BORE1)
N540 G0 X12.769 Y0.317
N545 G1 Z15. F400.
N550 Z2.
N555 Z0.317 F250.
N560 G18 G2 X13.086 Z0. I0.318 K0.
N565 G1 X13.245
N570 G17 G2 X13.563 Y0. I0. J-0.317
N575 X-13.563 Z-0.529 I-13.563 J0. F400.
N580 X13.563 Z-1.058 I13.563 J0.
N585 X-13.563 Z-1.587 I-13.563 J0.
N590 X13.563 Z-2.116 I13.563 J0.
N595 X-13.563 Z-2.645 I-13.563 J0.
N600 X13.563 Z-3.174 I13.563 J0.
N605 X-13.563 Z-3.703 I-13.563 J0.
N610 X13.563 Z-4.232 I13.563 J0.
N615 X-13.563 Z-4.761 I-13.563 J0.
N620 X13.563 Z-5.29 I13.563 J0.
N625 X-13.563 Z-5.82 I-13.563 J0.
N630 X13.563 Z-6.349 I13.563 J0.
N635 X-13.563 Z-6.878 I-13.563 J0.
N640 X13.563 Z-7.407 I13.563 J0.
N645 X-13.563 Z-7.936 I-13.563 J0.
N650 X13.563 Z-8.465 I13.563 J0.
N655 X-13.563 Z-8.994 I-13.563 J0.
N660 X13.563 Z-9.523 I13.563 J0.
N665 X-13.563 Z-10.052 I-13.563 J0.
N670 X13.563 Z-10.581 I13.563 J0.
N675 X-13.563 Z-11.11 I-13.563 J0.
N680 X13.563 Z-11.639 I13.563 J0.
N685 X-13.563 Z-12.168 I-13.563 J0.
N690 X13.563 Z-12.697 I13.563 J0.
N695 X-3.057 Y-13.214 Z-13. I-13.563 J0.
N700 X3.057 Y13.214 I3.057 J13.214
N705 X-3.057 Y-13.214 I-3.057 J-13.214
N710 X-3.294 Y-12.833 I0.072 J0.309 F250.
N715 G1 X-3.259 Y-12.678
N720 X-3.243 Y-12.609 Z-12.992
N725 X-3.228 Y-12.544 Z-12.969
N730 X-3.214 Y-12.485 Z-12.931
N735 X-3.203 Y-12.436 Z-12.88
N740 X-3.194 Y-12.399 Z-12.82
N745 X-3.189 Y-12.376 Z-12.753
N750 X-3.187 Y-12.369 Z-12.682
N755 Z15. F400.
(WHEN USING FUSION 360 FOR PERSONAL USE, THE FEEDRATE OF)
(RAPID MOVES IS REDUCED TO MATCH THE FEEDRATE OF CUTTING)
(MOVES, WHICH CAN INCREASE MACHINING TIME. UNRESTRICTED RAPID)
(MOVES ARE AVAILABLE WITH A FUSION 360 SUBSCRIPTION.)
(BORE1 2)
N760 G0 X1.219 Y0.317
N765 G1 Z15. F400.
N770 Z-11.
N775 Z-12.682 F250.
N780 G18 G2 X1.536 Z-13. I0.317 K0.
N785 G1 X1.695
N790 G17 G2 X2.013 Y0. I0. J-0.317
N795 X-2.013 Z-13.126 I-2.013 J0. F400.
N800 X2.013 Z-13.251 I2.013 J0.
N805 X-2.013 Z-13.377 I-2.013 J0.
N810 X2.013 Z-13.503 I2.013 J0.
N815 X-2.013 Z-13.629 I-2.013 J0.
N820 X2.013 Z-13.754 I2.013 J0.
N825 X-2.013 Z-13.88 I-2.013 J0.
N830 X2.013 Z-14.006 I2.013 J0.
N835 X-2.013 Z-14.131 I-2.013 J0.
N840 X2.013 Z-14.257 I2.013 J0.
N845 X-2.013 Z-14.383 I-2.013 J0.
N850 X2.013 Z-14.509 I2.013 J0.
N855 X-2.013 Z-14.634 I-2.013 J0.
N860 X2.013 Z-14.76 I2.013 J0.
N865 X-2.013 Z-14.886 I-2.013 J0.
N870 X2.013 Z-15.011 I2.013 J0.
N875 X-2.013 Z-15.137 I-2.013 J0.
N880 X2.013 Z-15.263 I2.013 J0.
N885 X-2.013 Z-15.389 I-2.013 J0.
N890 X2.013 Z-15.514 I2.013 J0.
N895 X-2.013 Z-15.64 I-2.013 J0.
N900 X2.013 Z-15.766 I2.013 J0.
N905 X-2.013 Z-15.891 I-2.013 J0.
N910 X2.012 Z-16.017 I2.013 J0.
N915 X-2.012 Z-16.143 I-2.012 J0.
N920 X2.012 Z-16.269 I2.012 J0.
N925 X-2.012 Z-16.394 I-2.012 J0.
N930 X2.012 Z-16.52 I2.012 J0.
N935 X-2.012 Z-16.646 I-2.012 J0.
N940 X2.012 Z-16.771 I2.012 J0.
N945 X-2.012 Z-16.897 I-2.012 J0.
N950 X2.012 Z-17.023 I2.012 J0.
N955 X-2.012 Z-17.149 I-2.012 J0.
N960 X2.012 Z-17.274 I2.012 J0.
N965 X-2.012 Z-17.4 I-2.012 J0.
N970 X2.012 Z-17.526 I2.012 J0.
N975 X-2.012 Z-17.651 I-2.012 J0.
N980 X2.012 Z-17.777 I2.012 J0.
N985 X-2.012 Z-17.903 I-2.012 J0.
N990 X1.52 Y1.319 Z-18. I2.012 J0.
N995 X-1.52 Y-1.319 I-1.52 J-1.319
N1000 X1.52 Y1.319 I1.52 J1.319
N1005 X1.488 Y0.871 I-0.24 J-0.208 F250.
N1010 G1 X1.369 Y0.767
N1015 X1.315 Y0.72 Z-17.992
N1020 X1.265 Y0.676 Z-17.969
N1025 X1.219 Y0.637 Z-17.931
N1030 X1.181 Y0.604 Z-17.88
N1035 X1.152 Y0.579 Z-17.82
N1040 X1.135 Y0.564 Z-17.753
N1045 X1.129 Y0.559 Z-17.683
N1050 Z15. F400.
(WHEN USING FUSION 360 FOR PERSONAL USE, THE FEEDRATE OF)
(RAPID MOVES IS REDUCED TO MATCH THE FEEDRATE OF CUTTING)
(MOVES, WHICH CAN INCREASE MACHINING TIME. UNRESTRICTED RAPID)
(MOVES ARE AVAILABLE WITH A FUSION 360 SUBSCRIPTION.)
(2D CONTOUR1)
N1055 G0 X-34.588 Y1.
N1060 G1 Z15. F750.
N1065 Z5.
N1070 Z-3. F150.
N1075 G18 G2 X-33.588 Z-4. I1. K0. F250.
N1080 G1 X-32.588
N1085 G17 G2 X-31.587 Y0. I0. J-1.
N1090 G1 Y-15. F750.
N1095 G3 X-15. Y-31.587 I16.587 J0.
N1100 G1 X15.
N1105 G3 X31.587 Y-15. I0. J16.587
N1110 G1 Y15.
N1115 G3 X15. Y31.587 I-16.587 J0.
N1120 G1 X-15.
N1125 G3 X-31.587 Y15. I0. J-16.587
N1130 G1 Y0.
N1135 G2 X-32.588 Y-1. I-1. J0. F250.
N1140 G1 X-33.588
N1145 G18 G3 X-34.588 Z-3. I0. K1.
N1150 G1 Z5. F750.
N1155 Y1.
N1160 Z1. F150.
N1165 Z-7.
N1170 G2 X-33.588 Z-8. I1. K0. F250.
N1175 G1 X-32.588
N1180 G17 G2 X-31.587 Y0. I0. J-1.
N1185 G1 Y-15. F750.
N1190 G3 X-15. Y-31.587 I16.587 J0.
N1195 G1 X15.
N1200 G3 X31.587 Y-15. I0. J16.587
N1205 G1 Y15.
N1210 G3 X15. Y31.587 I-16.587 J0.
N1215 G1 X-15.
N1220 G3 X-31.587 Y15. I0. J-16.587
N1225 G1 Y0.
N1230 G2 X-32.588 Y-1. I-1. J0. F250.
N1235 G1 X-33.588
N1240 G18 G3 X-34.588 Z-7. I0. K1.
N1245 G1 Z5. F750.
N1250 Y1.
N1255 Z-3. F150.
N1260 Z-11.
N1265 G2 X-33.588 Z-12. I1. K0. F250.
N1270 G1 X-32.588
N1275 G17 G2 X-31.587 Y0. I0. J-1.
N1280 G1 Y-15. F750.
N1285 G3 X-15. Y-31.587 I16.587 J0.
N1290 G1 X15.
N1295 G3 X31.587 Y-15. I0. J16.587
N1300 G1 Y15.
N1305 G3 X15. Y31.587 I-16.587 J0.
N1310 G1 X-15.
N1315 G3 X-31.587 Y15. I0. J-16.587
N1320 G1 Y0.
N1325 G2 X-32.588 Y-1. I-1. J0. F250.
N1330 G1 X-33.588
N1335 G18 G3 X-34.588 Z-11. I0. K1.
N1340 G1 Z5. F750.
N1345 Y1.
N1350 Z-7. F150.
N1355 Z-15.
N1360 G2 X-33.588 Z-16. I1. K0. F250.
N1365 G1 X-32.588
N1370 G17 G2 X-31.587 Y0. I0. J-1.
N1375 G1 Y-15. F750.
N1380 G3 X-15. Y-31.587 I16.587 J0.
N1385 G1 X15.
N1390 G3 X31.587 Y-15. I0. J16.587
N1395 G1 Y15.
N1400 G3 X15. Y31.587 I-16.587 J0.
N1405 G1 X-15.
N1410 G3 X-31.587 Y15. I0. J-16.587
N1415 G1 Y0.
N1420 G2 X-32.588 Y-1. I-1. J0. F250.
N1425 G1 X-33.588
N1430 G18 G3 X-34.588 Z-15. I0. K1.
N1435 G1 Z5. F750.
N1440 Y1.
N1445 Z-11. F150.
N1450 Z-17.
N1455 G2 X-33.588 Z-18. I1. K0. F250.
N1460 G1 X-32.588
N1465 G17 G2 X-31.587 Y0. I0. J-1.
N1470 G1 Y-15. F750.
N1475 G3 X-15. Y-31.587 I16.587 J0.
N1480 G1 X15.
N1485 G3 X31.587 Y-15. I0. J16.587
N1490 G1 Y15.
N1495 G3 X15. Y31.587 I-16.587 J0.
N1500 G1 X-15.
N1505 G3 X-31.587 Y15. I0. J-16.587
N1510 G1 Y0.
N1515 G2 X-32.588 Y-1. I-1. J0. F250.
N1520 G1 X-33.588
N1525 G18 G3 X-34.588 Z-17. I0. K1.
N1530 G1 Z15. F750.
N1535 G17
N1540 M9
N1545 G53 G0 Z0.
N1550 G53 G0 X0. Y0.
N1555 M30
%
