%
(POCKET_CONVENTIONAL_1)
(MACHINE)
(  MODEL LASER SNAKE V2)
(  DESCRIPTION 3-AXIS ROUTER)
(T1  D=3.175 CR=0. - ZMIN=-3. - FLAT END MILL)
N10 G90 G94 G17 G91.1
N15 G21
(WHEN USING FUSION 360 FOR PERSONAL USE, THE FEEDRATE OF)
(RAPID MOVES IS REDUCED TO MATCH THE FEEDRATE OF CUTTING)
(MOVES, WHICH CAN INCREASE MACHINING TIME. UNRESTRICTED RAPID)
(MOVES ARE AVAILABLE WITH A FUSION 360 SUBSCRIPTION.)
N20 G53 G0 Z0.
(2D POCKET 2 - CONVENTIONAL)
N25 T1 M6
N30 S15000 M3
N35 G54
N40 G0 X0.793 Y1.
N45 G43 Z15. H1
N50 G1 Z5. F750.
N55 Z2.5 F150.
N60 Z-2.
N65 G19 G2 Y0. Z-3. J-1. K0.
N70 G17 G2 X-0.793 I-0.793 J0. F750.
N75 X2.697 I1.745 J0.
N80 X-2.697 I-2.697 J0.
N85 X4.602 I3.65 J0.
N90 X-4.602 I-4.602 J0.
N95 X6.508 I5.555 J0.
N100 X-6.508 I-6.508 J0.
N105 X8.413 I7.46 J0.
N110 X-8.413 I-8.413 J0.
N115 X8.413 I8.413 J0.
N120 X8.379 Y-0.256 Z-2.966 I-1. J0. F150.
N125 X8.29 Y-0.479 Z-2.866 I-0.967 J0.256
N130 X8.173 Y-0.65 Z-2.707 I-0.878 J0.479
N135 X8.06 Y-0.762 Z-2.5 I-0.76 J0.65
N140 G1 X7.981 Y-0.823 Z-2.259
N145 X7.953 Y-0.841 Z-2.
N150 Z15. F750.
N155 X0.553 Y51.
N160 Z5.
N165 Z2.5 F150.
N170 Z-2.
N175 G19 G2 Y50. Z-3. J-1. K0.
N180 G17 G2 X-0.553 I-0.553 J0. F750.
N185 X2.457 I1.505 J0.
N190 X-2.457 I-2.457 J0.
N195 X4.363 I3.41 J0.
N200 X-4.363 I-4.363 J0.
N205 X6.267 I5.315 J0.
N210 X0. Y43.732 I-6.267 J0.
N215 X-6.267 Y50. I0. J6.268
N220 X8.172 I7.22 J0.
N225 X-8.172 I-8.172 J0.
N230 X10.078 I9.125 J0.
N235 X-10.078 I-10.078 J0.
N240 X11.983 I11.03 J0.
N245 X-11.983 I-11.983 J0.
N250 X13.887 I12.935 J0.
N255 X-13.887 I-13.887 J0.
N260 X15.792 I14.84 J0.
N265 X-15.792 I-15.792 J0.
N270 X17.698 I16.745 J0.
N275 X-17.698 I-17.698 J0.
N280 X19.603 I18.65 J0.
N285 X-19.603 I-19.603 J0.
N290 X21.507 I20.555 J0.
N295 X-21.507 I-21.507 J0.
N300 X23.413 I22.46 J0.
N305 X-23.413 I-23.413 J0.
N310 X23.413 I23.413 J0.
N315 X23.379 Y49.744 Z-2.966 I-1. J0. F150.
N320 X23.29 Y49.521 Z-2.866 I-0.967 J0.256
N325 X23.173 Y49.35 Z-2.707 I-0.878 J0.479
N330 X23.06 Y49.238 Z-2.5 I-0.76 J0.65
N335 G1 X22.981 Y49.177 Z-2.259
N340 X22.953 Y49.159 Z-2.
N345 Z15. F750.
N350 X0.282 Y129.
N355 Z5.
N360 Z2.5 F150.
N365 Z-2.
N370 G19 G3 Y130. Z-3. J1. K0.
N375 G17 G2 X1.622 I0.67 J0. F750.
N380 X0. Y128.378 I-1.622 J0.
N385 X-1.622 Y130. I0. J1.622
N390 X3.527 I2.575 J0.
N395 X-3.527 I-3.527 J0.
N400 X5.432 I4.48 J0.
N405 X-5.432 I-5.432 J0.
N410 X7.338 I6.385 J0.
N415 X-7.338 I-7.338 J0.
N420 X9.243 I8.29 J0.
N425 X0. Y120.757 I-9.243 J0.
N430 X-9.243 Y130. I0. J9.243
N435 X11.148 I10.195 J0.
N440 X0. Y118.853 I-11.148 J0.
N445 X-11.148 Y130. I0. J11.147
N450 X13.052 I12.1 J0.
N455 X0. Y116.948 I-13.052 J0.
N460 X-13.052 Y130. I0. J13.052
N465 X14.958 I14.005 J0.
N470 X0. Y115.043 I-14.958 J0.
N475 X-14.958 Y130. I0. J14.957
N480 X16.862 I15.91 J0.
N485 X0. Y113.137 I-16.862 J0.
N490 X-16.862 Y130. I0. J16.863
N495 X18.767 I17.815 J0.
N500 X0. Y111.232 I-18.767 J0.
N505 X-18.767 Y130. I0. J18.768
N510 X20.673 I19.72 J0.
N515 X0. Y109.327 I-20.673 J0.
N520 X-20.673 Y130. I0. J20.673
N525 X22.577 I21.625 J0.
N530 X0. Y107.423 I-22.577 J0.
N535 X-22.577 Y130. I0. J22.577
N540 X24.483 I23.53 J0.
N545 X0. Y105.518 I-24.483 J0.
N550 X-24.483 Y130. I0. J24.482
N555 X26.388 I25.435 J0.
N560 X0. Y103.613 I-26.388 J0.
N565 X-26.388 Y130. I0. J26.387
N570 X28.292 I27.34 J0.
N575 X0. Y101.707 I-28.292 J0.
N580 X-28.292 Y130. I0. J28.293
N585 X30.198 I29.245 J0.
N590 X0. Y99.802 I-30.198 J0.
N595 X-30.198 Y130. I0. J30.198
N600 X32.103 I31.15 J0.
N605 X0. Y97.897 I-32.103 J0.
N610 X-32.103 Y130. I0. J32.103
N615 X34.007 I33.055 J0.
N620 X0. Y95.993 I-34.007 J0.
N625 X-34.007 Y130. I0. J34.007
N630 X35.912 I34.96 J0.
N635 X-35.912 I-35.912 J0.
N640 X35.912 I35.912 J0.
N645 X35.879 Y129.744 Z-2.966 I-1. J0. F150.
N650 X35.79 Y129.521 Z-2.866 I-0.967 J0.256
N655 X35.673 Y129.35 Z-2.707 I-0.878 J0.479
N660 X35.56 Y129.238 Z-2.5 I-0.76 J0.65
N665 G1 X35.481 Y129.177 Z-2.259
N670 X35.453 Y129.159 Z-2.
N675 Z15. F750.
N680 X0.788 Y231.
N685 Z5.
N690 Z2.5 F150.
N695 Z-2.
N700 G19 G2 Y230. Z-3. J-1. K0.
N705 G17 G2 X0. Y229.212 I-0.788 J0. F750.
N710 X-0.788 Y230. I0. J0.788
N715 X2.693 I1.74 J0.
N720 X0. Y227.307 I-2.693 J0.
N725 X-2.693 Y230. I0. J2.693
N730 X4.597 I3.645 J0.
N735 X0. Y225.402 I-4.597 J0.
N740 X-4.597 Y230. I0. J4.598
N745 X6.503 I5.55 J0.
N750 X0. Y223.497 I-6.503 J0.
N755 X-6.503 Y230. I0. J6.503
N760 X8.408 I7.455 J0.
N765 X0. Y221.592 I-8.408 J0.
N770 X-8.408 Y230. I0. J8.408
N775 X10.313 I9.36 J0.
N780 X0. Y219.688 I-10.312 J0.
N785 X-10.313 Y230. I0. J10.313
N790 X12.217 I11.265 J0.
N795 X0. Y217.783 I-12.217 J0.
N800 X-12.217 Y230. I0. J12.217
N805 X14.123 I13.17 J0.
N810 X0. Y215.878 I-14.123 J0.
N815 X-14.123 Y230. I0. J14.122
N820 X16.028 I15.075 J0.
N825 X0. Y213.973 I-16.028 J0.
N830 X-16.028 Y230. I0. J16.027
N835 X17.933 I16.98 J0.
N840 X0. Y212.068 I-17.933 J0.
N845 X-17.933 Y230. I0. J17.932
N850 X19.837 I18.885 J0.
N855 X0. Y210.163 I-19.837 J0.
N860 X-19.837 Y230. I0. J19.837
N865 X21.743 I20.79 J0.
N870 X0. Y208.258 I-21.743 J0.
N875 X-21.743 Y230. I0. J21.742
N880 X23.647 I22.695 J0.
N885 X0. Y206.352 I-23.647 J0.
N890 X-23.647 Y230. I0. J23.648
N895 X25.552 I24.6 J0.
N900 X0. Y204.447 I-25.552 J0.
N905 X-25.552 Y230. I0. J25.553
N910 X27.458 I26.505 J0.
N915 X0. Y202.542 I-27.458 J0.
N920 X-27.458 Y230. I0. J27.458
N925 X29.362 I28.41 J0.
N930 X0. Y200.637 I-29.362 J0.
N935 X-29.362 Y230. I0. J29.363
N940 X31.267 I30.315 J0.
N945 X0. Y198.732 I-31.267 J0.
N950 X-31.267 Y230. I0. J31.268
N955 X33.173 I32.22 J0.
N960 X0. Y196.827 I-33.173 J0.
N965 X-33.173 Y230. I0. J33.173
N970 X35.077 I34.125 J0.
N975 X0. Y194.923 I-35.077 J0.
N980 X-35.077 Y230. I0. J35.077
N985 X36.982 I36.03 J0.
N990 X0. Y193.018 I-36.982 J0.
N995 X-36.982 Y230. I0. J36.982
N1000 X38.888 I37.935 J0.
N1005 X0. Y191.113 I-38.888 J0.
N1010 X-38.888 Y230. I0. J38.887
N1015 X40.792 I39.84 J0.
N1020 X0. Y189.208 I-40.792 J0.
N1025 X-40.792 Y230. I0. J40.792
N1030 X42.697 I41.745 J0.
N1035 X0. Y187.303 I-42.697 J0.
N1040 X-42.697 Y230. I0. J42.697
N1045 X44.603 I43.65 J0.
N1050 X0. Y185.398 I-44.603 J0.
N1055 X-44.603 Y230. I0. J44.602
N1060 X46.507 I45.555 J0.
N1065 X0. Y183.492 I-46.507 J0.
N1070 X-46.507 Y230. I0. J46.508
N1075 X48.412 I47.46 J0.
N1080 X-48.412 I-48.412 J0.
N1085 X48.412 I48.412 J0.
N1090 X48.379 Y229.744 Z-2.966 I-1. J0. F150.
N1095 X48.29 Y229.521 Z-2.866 I-0.967 J0.256
N1100 X48.173 Y229.35 Z-2.707 I-0.878 J0.479
N1105 X48.06 Y229.238 Z-2.5 I-0.76 J0.65
N1110 G1 X47.981 Y229.177 Z-2.259
N1115 X47.953 Y229.159 Z-2.
N1120 Z15. F750.
N1125 G53 G0 Z0.
N1130 G53 G0 X0. Y0.
N1135 M30
%
