%
(POCKET_BORE_CLIMB_1)
(MACHINE)
(  MODEL LASER SNAKE V2)
(  DESCRIPTION 3-AXIS ROUTER)
(T1  D=3.175 CR=0. - ZMIN=-3. - FLAT END MILL)
N10 G90 G94 G17 G91.1
N15 G21
(WHEN USING FUSION 360 FOR PERSONAL USE, THE FEEDRATE OF)
(RAPID MOVES IS REDUCED TO MATCH THE FEEDRATE OF CUTTING)
(MOVES, WHICH CAN INCREASE MACHINING TIME. UNRESTRICTED RAPID)
(MOVES ARE AVAILABLE WITH A FUSION 360 SUBSCRIPTION.)
N20 G53 G0 Z0.
(2D POCKET - CLIMB)
N25 T1 M6
N30 S15000 M3
N35 G54
N40 G0 X0.043 Y1.
N45 G43 Z15. H1
N50 G1 Z5. F750.
N55 Z2.5 F150.
N60 Z-2.
N65 G19 G2 Y0. Z-3. J-1. K0.
N70 G1 X0.037 Y-0.021 F750.
N75 X0.021 Y-0.037
N80 X0. Y-0.043
N85 X-0.021 Y-0.037
N90 X-0.037 Y-0.021
N95 X-0.043 Y0.
N100 G17 G2 X1.947 I0.995 J0.
N105 X-1.947 I-1.947 J0.
N110 X3.852 I2.9 J0.
N115 X-3.852 I-3.852 J0.
N120 X5.758 I4.805 J0.
N125 X-5.758 I-5.758 J0.
N130 X7.662 I6.71 J0.
N135 X-7.662 I-7.662 J0.
N140 X7.662 I7.662 J0.
N145 X7.629 Y-0.256 Z-2.966 I-1. J0. F150.
N150 X7.54 Y-0.479 Z-2.866 I-0.967 J0.256
N155 X7.423 Y-0.65 Z-2.707 I-0.878 J0.479
N160 X7.31 Y-0.762 Z-2.5 I-0.76 J0.65
N165 G1 X7.231 Y-0.823 Z-2.259
N170 X7.203 Y-0.841 Z-2.
N175 Z15. F750.
N180 X0.198 Y49.
N185 Z5.
N190 Z2.5 F150.
N195 Z-2.
N200 G19 G3 Y50. Z-3. J1. K0.
N205 G17 G2 X1.707 I0.755 J0. F750.
N210 X-1.707 I-1.707 J0.
N215 X3.612 I2.66 J0.
N220 X-3.612 I-3.612 J0.
N225 X5.517 I4.565 J0.
N230 X0. Y44.482 I-5.517 J0.
N235 X-5.517 Y50. I0. J5.518
N240 X7.423 I6.47 J0.
N245 X0. Y42.577 I-7.423 J0.
N250 X-7.423 Y50. I0. J7.423
N255 X9.328 I8.375 J0.
N260 X-9.328 I-9.328 J0.
N265 X11.233 I10.28 J0.
N270 X-11.233 I-11.233 J0.
N275 X13.137 I12.185 J0.
N280 X-13.137 I-13.137 J0.
N285 X15.042 I14.09 J0.
N290 X-15.042 I-15.042 J0.
N295 X16.948 I15.995 J0.
N300 X-16.948 I-16.948 J0.
N305 X18.853 I17.9 J0.
N310 X-18.853 I-18.853 J0.
N315 X20.757 I19.805 J0.
N320 X-20.757 I-20.757 J0.
N325 X22.663 I21.71 J0.
N330 X-22.663 I-22.663 J0.
N335 X22.663 I22.663 J0.
N340 X22.629 Y49.744 Z-2.966 I-1. J0. F150.
N345 X22.54 Y49.521 Z-2.866 I-0.967 J0.256
N350 X22.423 Y49.35 Z-2.707 I-0.878 J0.479
N355 X22.31 Y49.238 Z-2.5 I-0.76 J0.65
N360 G1 X22.231 Y49.177 Z-2.259
N365 X22.203 Y49.159 Z-2.
N370 Z15. F750.
N375 X0.873 Y131.
N380 Z5.
N385 Z2.5 F150.
N390 Z-2.
N395 G19 G2 Y130. Z-3. J-1. K0.
N400 G17 G2 X0. Y129.128 I-0.873 J0. F750.
N405 X-0.873 Y130. I0. J0.872
N410 X2.777 I1.825 J0.
N415 X-2.777 I-2.777 J0.
N420 X4.682 I3.73 J0.
N425 X-4.682 I-4.682 J0.
N430 X6.588 I5.635 J0.
N435 X-6.588 I-6.588 J0.
N440 X8.493 I7.54 J0.
N445 X0. Y121.507 I-8.493 J0.
N450 X-8.493 Y130. I0. J8.493
N455 X10.398 I9.445 J0.
N460 X0. Y119.603 I-10.398 J0.
N465 X-10.398 Y130. I0. J10.397
N470 X12.302 I11.35 J0.
N475 X0. Y117.698 I-12.302 J0.
N480 X-12.302 Y130. I0. J12.302
N485 X14.208 I13.255 J0.
N490 X0. Y115.793 I-14.208 J0.
N495 X-14.208 Y130. I0. J14.207
N500 X16.112 I15.16 J0.
N505 X0. Y113.887 I-16.112 J0.
N510 X-16.112 Y130. I0. J16.113
N515 X18.017 I17.065 J0.
N520 X0. Y111.982 I-18.017 J0.
N525 X-18.017 Y130. I0. J18.018
N530 X19.923 I18.97 J0.
N535 X0. Y110.077 I-19.923 J0.
N540 X-19.923 Y130. I0. J19.923
N545 X21.827 I20.875 J0.
N550 X0. Y108.173 I-21.827 J0.
N555 X-21.827 Y130. I0. J21.827
N560 X23.733 I22.78 J0.
N565 X0. Y106.268 I-23.733 J0.
N570 X-23.733 Y130. I0. J23.732
N575 X25.638 I24.685 J0.
N580 X0. Y104.363 I-25.638 J0.
N585 X-25.638 Y130. I0. J25.637
N590 X27.542 I26.59 J0.
N595 X0. Y102.457 I-27.542 J0.
N600 X-27.542 Y130. I0. J27.543
N605 X29.448 I28.495 J0.
N610 X0. Y100.552 I-29.448 J0.
N615 X-29.448 Y130. I0. J29.448
N620 X31.353 I30.4 J0.
N625 X0. Y98.647 I-31.353 J0.
N630 X-31.353 Y130. I0. J31.353
N635 X33.257 I32.305 J0.
N640 X0. Y96.743 I-33.257 J0.
N645 X-33.257 Y130. I0. J33.257
N650 X35.162 I34.21 J0.
N655 X-35.162 I-35.162 J0.
N660 X35.162 I35.162 J0.
N665 X35.129 Y129.744 Z-2.966 I-1. J0. F150.
N670 X35.04 Y129.521 Z-2.866 I-0.967 J0.256
N675 X34.923 Y129.35 Z-2.707 I-0.878 J0.479
N680 X34.81 Y129.238 Z-2.5 I-0.76 J0.65
N685 G1 X34.731 Y129.177 Z-2.259
N690 X34.703 Y129.159 Z-2.
N695 Z15. F750.
N700 X0.038 Y231.
N705 Z5.
N710 Z2.5 F150.
N715 Z-2.
N720 G19 G2 Y230. Z-3. J-1. K0.
N725 G1 X0.032 Y229.981 F750.
N730 X0.019 Y229.968
N735 X0. Y229.962
N740 X-0.019 Y229.968
N745 X-0.032 Y229.981
N750 X-0.038 Y230.
N755 G17 G2 X1.942 I0.99 J0.
N760 X0. Y228.057 I-1.942 J0.
N765 X-1.942 Y230. I0. J1.943
N770 X3.848 I2.895 J0.
N775 X0. Y226.152 I-3.848 J0.
N780 X-3.848 Y230. I0. J3.848
N785 X5.753 I4.8 J0.
N790 X0. Y224.247 I-5.753 J0.
N795 X-5.753 Y230. I0. J5.753
N800 X7.657 I6.705 J0.
N805 X0. Y222.342 I-7.657 J0.
N810 X-7.657 Y230. I0. J7.658
N815 X9.563 I8.61 J0.
N820 X0. Y220.438 I-9.562 J0.
N825 X-9.563 Y230. I0. J9.563
N830 X11.467 I10.515 J0.
N835 X0. Y218.533 I-11.467 J0.
N840 X-11.467 Y230. I0. J11.467
N845 X13.373 I12.42 J0.
N850 X0. Y216.628 I-13.373 J0.
N855 X-13.373 Y230. I0. J13.372
N860 X15.278 I14.325 J0.
N865 X0. Y214.723 I-15.278 J0.
N870 X-15.278 Y230. I0. J15.277
N875 X17.183 I16.23 J0.
N880 X0. Y212.818 I-17.183 J0.
N885 X-17.183 Y230. I0. J17.182
N890 X19.087 I18.135 J0.
N895 X0. Y210.913 I-19.087 J0.
N900 X-19.087 Y230. I0. J19.087
N905 X20.993 I20.04 J0.
N910 X0. Y209.008 I-20.993 J0.
N915 X-20.993 Y230. I0. J20.992
N920 X22.897 I21.945 J0.
N925 X0. Y207.102 I-22.897 J0.
N930 X-22.897 Y230. I0. J22.898
N935 X24.802 I23.85 J0.
N940 X0. Y205.197 I-24.802 J0.
N945 X-24.802 Y230. I0. J24.803
N950 X26.708 I25.755 J0.
N955 X0. Y203.292 I-26.708 J0.
N960 X-26.708 Y230. I0. J26.708
N965 X28.612 I27.66 J0.
N970 X0. Y201.387 I-28.612 J0.
N975 X-28.612 Y230. I0. J28.613
N980 X30.517 I29.565 J0.
N985 X0. Y199.482 I-30.517 J0.
N990 X-30.517 Y230. I0. J30.518
N995 X32.423 I31.47 J0.
N1000 X0. Y197.577 I-32.423 J0.
N1005 X-32.423 Y230. I0. J32.423
N1010 X34.327 I33.375 J0.
N1015 X0. Y195.673 I-34.327 J0.
N1020 X-34.327 Y230. I0. J34.327
N1025 X36.232 I35.28 J0.
N1030 X0. Y193.768 I-36.232 J0.
N1035 X-36.232 Y230. I0. J36.232
N1040 X38.138 I37.185 J0.
N1045 X0. Y191.863 I-38.138 J0.
N1050 X-38.138 Y230. I0. J38.137
N1055 X40.042 I39.09 J0.
N1060 X0. Y189.958 I-40.042 J0.
N1065 X-40.042 Y230. I0. J40.042
N1070 X41.947 I40.995 J0.
N1075 X0. Y188.053 I-41.947 J0.
N1080 X-41.947 Y230. I0. J41.947
N1085 X43.853 I42.9 J0.
N1090 X0. Y186.148 I-43.853 J0.
N1095 X-43.853 Y230. I0. J43.852
N1100 X45.757 I44.805 J0.
N1105 X0. Y184.242 I-45.757 J0.
N1110 X-45.757 Y230. I0. J45.758
N1115 X47.662 I46.71 J0.
N1120 X-47.662 I-47.662 J0.
N1125 X47.662 I47.662 J0.
N1130 X47.629 Y229.744 Z-2.966 I-1. J0. F150.
N1135 X47.54 Y229.521 Z-2.866 I-0.967 J0.256
N1140 X47.423 Y229.35 Z-2.707 I-0.878 J0.479
N1145 X47.31 Y229.238 Z-2.5 I-0.76 J0.65
N1150 G1 X47.231 Y229.177 Z-2.259
N1155 X47.203 Y229.159 Z-2.
N1160 Z15. F750.
(WHEN USING FUSION 360 FOR PERSONAL USE, THE FEEDRATE OF)
(RAPID MOVES IS REDUCED TO MATCH THE FEEDRATE OF CUTTING)
(MOVES, WHICH CAN INCREASE MACHINING TIME. UNRESTRICTED RAPID)
(MOVES ARE AVAILABLE WITH A FUSION 360 SUBSCRIPTION.)
(BORE - CLIMB)
N1165 G0 X45.412 Y229.
N1170 G1 Z15. F500.
N1175 Z2.
N1180 Z1. F150.
N1185 G18 G2 X46.412 Z0. I1. K0.
N1190 G1 X47.412
N1195 G17 G3 X48.412 Y230. I0. J1.
N1200 X-48.413 Z-1.746 I-48.412 J0. F500.
N1205 X30.645 Y192.521 Z-3. I48.413 J0.
N1210 X-30.645 Y267.479 I-30.645 J37.479
N1215 X30.645 Y192.521 I30.645 J-37.479
N1220 X30.786 Y193.928 I-0.633 J0.774 F150.
N1225 G1 X30.153 Y194.703
N1230 X30.077 Y194.796 Z-2.993
N1235 X30.002 Y194.888 Z-2.971
N1240 X29.929 Y194.977 Z-2.935
N1245 X29.859 Y195.062 Z-2.885
N1250 X29.794 Y195.142 Z-2.823
N1255 X29.733 Y195.216 Z-2.749
N1260 X29.679 Y195.282 Z-2.663
N1265 X29.632 Y195.34 Z-2.568
N1270 X29.593 Y195.388 Z-2.465
N1275 X29.561 Y195.426 Z-2.355
N1280 X29.538 Y195.454 Z-2.239
N1285 X29.525 Y195.471 Z-2.121
N1290 X29.52 Y195.477 Z-2.
N1295 Z5. F500.
N1300 X32.912 Y129.
N1305 Z2.
N1310 Z1. F150.
N1315 G18 G2 X33.912 Z0. I1. K0.
N1320 G1 X34.912
N1325 G17 G3 X35.912 Y130. I0. J1.
N1330 X-35.913 Z-1.31 I-35.912 J0. F500.
N1335 X35.913 Z-2.619 I35.913 J0.
N1340 X21.931 Y158.439 Z-3. I-35.913 J0.
N1345 X-21.931 Y101.561 I-21.931 J-28.439
N1350 X21.931 Y158.439 I21.931 J28.439
N1355 X20.528 Y158.257 I-0.611 J-0.792 F150.
N1360 G1 X19.917 Y157.465
N1365 X19.844 Y157.37 Z-2.993
N1370 X19.771 Y157.276 Z-2.971
N1375 X19.701 Y157.185 Z-2.935
N1380 X19.634 Y157.097 Z-2.885
N1385 X19.571 Y157.016 Z-2.823
N1390 X19.513 Y156.94 Z-2.749
N1395 X19.46 Y156.873 Z-2.663
N1400 X19.415 Y156.814 Z-2.568
N1405 X19.377 Y156.764 Z-2.465
N1410 X19.346 Y156.725 Z-2.355
N1415 X19.325 Y156.697 Z-2.239
N1420 X19.311 Y156.679 Z-2.121
N1425 X19.307 Y156.674 Z-2.
N1430 Z5. F500.
N1435 X20.413 Y49.
N1440 Z2.
N1445 Z1. F150.
N1450 G18 G2 X21.413 Z0. I1. K0.
N1455 G1 X22.413
N1460 G17 G3 X23.413 Y50. I0. J1.
N1465 X-23.413 Z-0.873 I-23.413 J0. F500.
N1470 X23.413 Z-1.746 I23.413 J0.
N1475 X-23.413 Z-2.619 I-23.413 J0.
N1480 X-4.65 Y27.054 Z-3. I23.413 J0.
N1485 X4.65 Y72.946 I4.65 J22.946
N1490 X-4.65 Y27.054 I-4.65 J-22.946
N1495 X-3.472 Y27.835 I0.199 J0.98 F150.
N1500 G1 X-3.273 Y28.816
N1505 X-3.249 Y28.934 Z-2.993
N1510 X-3.226 Y29.05 Z-2.971
N1515 X-3.203 Y29.163 Z-2.935
N1520 X-3.181 Y29.271 Z-2.885
N1525 X-3.16 Y29.372 Z-2.823
N1530 X-3.141 Y29.465 Z-2.749
N1535 X-3.124 Y29.549 Z-2.663
N1540 X-3.11 Y29.622 Z-2.568
N1545 X-3.097 Y29.683 Z-2.465
N1550 X-3.087 Y29.732 Z-2.355
N1555 X-3.08 Y29.767 Z-2.239
N1560 X-3.076 Y29.788 Z-2.121
N1565 X-3.074 Y29.796 Z-2.
N1570 Z5. F500.
N1575 X5.412 Y-1.
N1580 Z2.
N1585 Z1. F150.
N1590 G18 G2 X6.412 Z0. I1. K0.
N1595 G1 X7.412
N1600 G17 G3 X8.413 Y0. I0. J1.
N1605 X-8.413 Z-0.349 I-8.413 J0. F500.
N1610 X8.413 Z-0.698 I8.413 J0.
N1615 X-8.413 Z-1.048 I-8.413 J0.
N1620 X8.413 Z-1.397 I8.413 J0.
N1625 X-8.413 Z-1.746 I-8.413 J0.
N1630 X8.413 Z-2.095 I8.413 J0.
N1635 X-8.413 Z-2.444 I-8.413 J0.
N1640 X8.413 Z-2.794 I8.413 J0.
N1645 X-2.369 Y8.072 Z-3. I-8.413 J0.
N1650 X2.369 Y-8.072 I2.369 J-8.072
N1655 X-2.369 Y8.072 I-2.369 J8.072
N1660 X-3.047 Y6.831 I0.282 J-0.96 F150.
N1665 G1 X-2.765 Y5.871
N1670 X-2.732 Y5.756 Z-2.993
N1675 X-2.698 Y5.642 Z-2.971
N1680 X-2.666 Y5.531 Z-2.935
N1685 X-2.635 Y5.425 Z-2.885
N1690 X-2.606 Y5.326 Z-2.823
N1695 X-2.579 Y5.235 Z-2.749
N1700 X-2.555 Y5.153 Z-2.663
N1705 X-2.534 Y5.082 Z-2.568
N1710 X-2.516 Y5.022 Z-2.465
N1715 X-2.502 Y4.974 Z-2.355
N1720 X-2.492 Y4.94 Z-2.239
N1725 X-2.486 Y4.919 Z-2.121
N1730 X-2.484 Y4.912 Z-2.
N1735 Z15. F500.
N1740 G53 G0 Z0.
N1745 G53 G0 X0. Y0.
N1750 M30
%
