%
(POCKET_CLIMB_1)
(MACHINE)
(  MODEL LASER SNAKE V2)
(  DESCRIPTION 3-AXIS ROUTER)
(T1  D=3.175 CR=0. - ZMIN=-3. - FLAT END MILL)
N10 G90 G94 G17 G91.1
N15 G21
(WHEN USING FUSION 360 FOR PERSONAL USE, THE FEEDRATE OF)
(RAPID MOVES IS REDUCED TO MATCH THE FEEDRATE OF CUTTING)
(MOVES, WHICH CAN INCREASE MACHINING TIME. UNRESTRICTED RAPID)
(MOVES ARE AVAILABLE WITH A FUSION 360 SUBSCRIPTION.)
N20 G53 G0 Z0.
(2D POCKET - CLIMB 2)
N25 T1 M6
N30 S15000 M3
N35 G54
N40 G0 X0.793 Y-1.
N45 G43 Z15. H1
N50 G1 Z5. F750.
N55 Z2.5 F150.
N60 Z-2.
N65 G19 G3 Y0. Z-3. J1. K0.
N70 G17 G3 X-0.793 I-0.793 J0. F750.
N75 X2.697 I1.745 J0.
N80 X-2.697 I-2.697 J0.
N85 X4.602 I3.65 J0.
N90 X-4.602 I-4.602 J0.
N95 X6.508 I5.555 J0.
N100 X-6.508 I-6.508 J0.
N105 X8.413 I7.46 J0.
N110 X-8.413 I-8.413 J0.
N115 X8.413 I8.413 J0.
N120 X8.379 Y0.256 Z-2.966 I-1. J0. F150.
N125 X8.29 Y0.479 Z-2.866 I-0.967 J-0.256
N130 X8.173 Y0.65 Z-2.707 I-0.878 J-0.479
N135 X8.06 Y0.762 Z-2.5 I-0.76 J-0.65
N140 G1 X7.981 Y0.823 Z-2.259
N145 X7.953 Y0.841 Z-2.
N150 Z15. F750.
N155 X0.553 Y49.
N160 Z5.
N165 Z2.5 F150.
N170 Z-2.
N175 G19 G3 Y50. Z-3. J1. K0.
N180 G17 G3 X-0.553 I-0.553 J0. F750.
N185 X2.457 I1.505 J0.
N190 X-2.457 I-2.457 J0.
N195 X4.363 I3.41 J0.
N200 X-4.363 I-4.363 J0.
N205 X6.267 I5.315 J0.
N210 X-6.267 I-6.267 J0.
N215 X8.172 I7.22 J0.
N220 X-8.172 I-8.172 J0.
N225 X10.078 I9.125 J0.
N230 X-10.078 I-10.078 J0.
N235 X11.983 I11.03 J0.
N240 X-11.983 I-11.983 J0.
N245 X13.887 I12.935 J0.
N250 X-13.887 I-13.887 J0.
N255 X15.792 I14.84 J0.
N260 X-15.792 I-15.792 J0.
N265 X17.698 I16.745 J0.
N270 X-17.698 I-17.698 J0.
N275 X19.603 I18.65 J0.
N280 X-19.603 I-19.603 J0.
N285 X21.507 I20.555 J0.
N290 X-21.507 I-21.507 J0.
N295 X23.413 I22.46 J0.
N300 X-23.413 I-23.413 J0.
N305 X23.413 I23.413 J0.
N310 X23.379 Y50.256 Z-2.966 I-1. J0. F150.
N315 X23.29 Y50.479 Z-2.866 I-0.967 J-0.256
N320 X23.173 Y50.65 Z-2.707 I-0.878 J-0.479
N325 X23.06 Y50.762 Z-2.5 I-0.76 J-0.65
N330 G1 X22.981 Y50.823 Z-2.259
N335 X22.953 Y50.841 Z-2.
N340 Z15. F750.
N345 X0.282 Y131.
N350 Z5.
N355 Z2.5 F150.
N360 Z-2.
N365 G19 G2 Y130. Z-3. J-1. K0.
N370 G17 G3 X1.622 I0.67 J0. F750.
N375 X-1.622 I-1.622 J0.
N380 X3.527 I2.575 J0.
N385 X-3.527 I-3.527 J0.
N390 X5.432 I4.48 J0.
N395 X-5.432 I-5.432 J0.
N400 X7.338 I6.385 J0.
N405 X-7.338 I-7.338 J0.
N410 X9.243 I8.29 J0.
N415 X-9.243 I-9.243 J0.
N420 X11.148 I10.195 J0.
N425 X-11.148 I-11.148 J0.
N430 X13.052 I12.1 J0.
N435 X-13.052 I-13.052 J0.
N440 X14.958 I14.005 J0.
N445 X-14.958 I-14.958 J0.
N450 X16.862 I15.91 J0.
N455 X-16.862 I-16.862 J0.
N460 X18.767 I17.815 J0.
N465 X-18.767 I-18.767 J0.
N470 X20.673 I19.72 J0.
N475 X-20.673 I-20.673 J0.
N480 X22.577 I21.625 J0.
N485 X-22.577 I-22.577 J0.
N490 X24.483 I23.53 J0.
N495 X-24.483 I-24.483 J0.
N500 X26.388 I25.435 J0.
N505 X-26.388 I-26.388 J0.
N510 X28.292 I27.34 J0.
N515 X-28.292 I-28.292 J0.
N520 X30.198 I29.245 J0.
N525 X-30.198 I-30.198 J0.
N530 X32.103 I31.15 J0.
N535 X-32.103 I-32.103 J0.
N540 X34.007 I33.055 J0.
N545 X-34.007 I-34.007 J0.
N550 X35.912 I34.96 J0.
N555 X-35.912 I-35.912 J0.
N560 X35.912 I35.912 J0.
N565 X35.879 Y130.256 Z-2.966 I-1. J0. F150.
N570 X35.79 Y130.479 Z-2.866 I-0.967 J-0.256
N575 X35.673 Y130.65 Z-2.707 I-0.878 J-0.479
N580 X35.56 Y130.762 Z-2.5 I-0.76 J-0.65
N585 G1 X35.481 Y130.823 Z-2.259
N590 X35.453 Y130.841 Z-2.
N595 Z15. F750.
N600 X0.788 Y229.
N605 Z5.
N610 Z2.5 F150.
N615 Z-2.
N620 G19 G3 Y230. Z-3. J1. K0.
N625 G17 G3 X-0.788 I-0.788 J0. F750.
N630 X2.693 I1.74 J0.
N635 X-2.693 I-2.693 J0.
N640 X4.597 I3.645 J0.
N645 X-4.597 I-4.597 J0.
N650 X6.503 I5.55 J0.
N655 X-6.503 I-6.503 J0.
N660 X8.408 I7.455 J0.
N665 X-8.408 I-8.408 J0.
N670 X10.313 I9.36 J0.
N675 X-10.313 I-10.313 J0.
N680 X12.217 I11.265 J0.
N685 X-12.217 I-12.217 J0.
N690 X14.123 I13.17 J0.
N695 X-14.123 I-14.123 J0.
N700 X16.028 I15.075 J0.
N705 X-16.028 I-16.028 J0.
N710 X17.933 I16.98 J0.
N715 X-17.933 I-17.933 J0.
N720 X19.837 I18.885 J0.
N725 X-19.837 I-19.837 J0.
N730 X21.743 I20.79 J0.
N735 X-21.743 I-21.743 J0.
N740 X23.647 I22.695 J0.
N745 X-23.647 I-23.647 J0.
N750 X25.552 I24.6 J0.
N755 X-25.552 I-25.552 J0.
N760 X27.458 I26.505 J0.
N765 X-27.458 I-27.458 J0.
N770 X29.362 I28.41 J0.
N775 X-29.362 I-29.362 J0.
N780 X31.267 I30.315 J0.
N785 X-31.267 I-31.267 J0.
N790 X33.173 I32.22 J0.
N795 X-33.173 I-33.173 J0.
N800 X35.077 I34.125 J0.
N805 X-35.077 I-35.077 J0.
N810 X36.982 I36.03 J0.
N815 X-36.982 I-36.982 J0.
N820 X38.888 I37.935 J0.
N825 X-38.888 I-38.888 J0.
N830 X40.792 I39.84 J0.
N835 X-40.792 I-40.792 J0.
N840 X42.697 I41.745 J0.
N845 X-42.697 I-42.697 J0.
N850 X44.603 I43.65 J0.
N855 X-44.603 I-44.603 J0.
N860 X46.507 I45.555 J0.
N865 X-46.507 I-46.507 J0.
N870 X48.412 I47.46 J0.
N875 X-48.412 I-48.412 J0.
N880 X48.412 I48.412 J0.
N885 X48.379 Y230.256 Z-2.966 I-1. J0. F150.
N890 X48.29 Y230.479 Z-2.866 I-0.967 J-0.256
N895 X48.173 Y230.65 Z-2.707 I-0.878 J-0.479
N900 X48.06 Y230.762 Z-2.5 I-0.76 J-0.65
N905 G1 X47.981 Y230.823 Z-2.259
N910 X47.953 Y230.841 Z-2.
N915 Z15. F750.
N920 G53 G0 Z0.
N925 G53 G0 X0. Y0.
N930 M30
%
