%
(X_SLOT_TESTS)
(MACHINE)
(  MODEL LASER SNAKE V2)
(  DESCRIPTION 3-AXIS ROUTER)
(T1  D=3.175 CR=0. - ZMIN=-3. - FLAT END MILL)
N10 G90 G94 G17 G91.1
N15 G21
(WHEN USING FUSION 360 FOR PERSONAL USE, THE FEEDRATE OF)
(RAPID MOVES IS REDUCED TO MATCH THE FEEDRATE OF CUTTING)
(MOVES, WHICH CAN INCREASE MACHINING TIME. UNRESTRICTED RAPID)
(MOVES ARE AVAILABLE WITH A FUSION 360 SUBSCRIPTION.)
N20 G53 G0 Z0.
(X SLOT)
N25 T1 M6
N30 S15000 M3
N35 G54
N40 G0 X1.587 Y1.587
N45 G43 Z15. H1
N50 G1 Z5. F500.
N55 Z2.5 F150.
N60 Z-3.
N65 Y41.588 F500.
N70 Z5.
N75 X104.762 Y30.
N80 Z2.5 F150.
N85 Z-3.
N90 Y40. F500.
N95 Z5.
N100 X204.762 Y30.
N105 Z2.5 F150.
N110 Z-3.
N115 Y40. F500.
N120 Z5.
N125 X304.763
N130 Z2.5 F150.
N135 Z-3.
N140 Y30. F500.
N145 Z5.
N150 X404.763 Y40.
N155 Z2.5 F150.
N160 Z-3.
N165 Y30. F500.
N170 Z5.
N175 X504.763 Y40.
N180 Z2.5 F150.
N185 Z-3.
N190 Y30. F500.
N195 Z5.
N200 X604.763 Y40.
N205 Z2.5 F150.
N210 Z-3.
N215 Y30. F500.
N220 Z5.
N225 X704.763 Y40.
N230 Z2.5 F150.
N235 Z-3.
N240 Y30. F500.
N245 Z5.
N250 X804.763 Y40.
N255 Z2.5 F150.
N260 Z-3.
N265 Y30. F500.
N270 Z5.
N275 X904.763 Y40.
N280 Z2.5 F150.
N285 Z-3.
N290 Y30. F500.
N295 Z5.
N300 X1004.76 Y40.
N305 Z2.5 F150.
N310 Z-3.
N315 Y30. F500.
N320 Z15.
(WHEN USING FUSION 360 FOR PERSONAL USE, THE FEEDRATE OF)
(RAPID MOVES IS REDUCED TO MATCH THE FEEDRATE OF CUTTING)
(MOVES, WHICH CAN INCREASE MACHINING TIME. UNRESTRICTED RAPID)
(MOVES ARE AVAILABLE WITH A FUSION 360 SUBSCRIPTION.)
(X SLOT CONTINUOUS)
N325 G0 X1.587 Y20.
N330 G1 Z15. F500.
N335 Z5.
N340 Z2.5 F150.
N345 Z-3.
N350 X104.762 F500.
N355 Y30.
N360 Z5.
N365 X101.587 Y20.
N370 Z2.5 F150.
N375 Z-3.
N380 X204.762 F500.
N385 Y30.
N390 Z5.
N395 X201.587 Y20.
N400 Z2.5 F150.
N405 Z-3.
N410 X304.763 F500.
N415 Y30.
N420 Z5.
N425 X301.587 Y20.
N430 Z2.5 F150.
N435 Z-3.
N440 X404.763 F500.
N445 Y30.
N450 Z5.
N455 X401.587 Y20.
N460 Z2.5 F150.
N465 Z-3.
N470 X504.763 F500.
N475 Y30.
N480 Z5.
N485 X501.587 Y20.
N490 Z2.5 F150.
N495 Z-3.
N500 X604.763 F500.
N505 Y30.
N510 Z5.
N515 X601.587 Y20.
N520 Z2.5 F150.
N525 Z-3.
N530 X704.763 F500.
N535 Y30.
N540 Z5.
N545 X701.587 Y20.
N550 Z2.5 F150.
N555 Z-3.
N560 X804.763 F500.
N565 Y30.
N570 Z5.
N575 X801.587 Y20.
N580 Z2.5 F150.
N585 Z-3.
N590 X904.763 F500.
N595 Y30.
N600 Z5.
N605 X901.587 Y20.
N610 Z2.5 F150.
N615 Z-3.
N620 X1004.758 F500.
N625 Y30.
N630 X1004.76 Y30.003
N635 Z15.
N640 G53 G0 Z0.
N645 G53 G0 X0. Y0.
N650 M30
%
