%
(Y-SLOT_LONG_1200)
(MACHINE)
(  MODEL LASER SNAKE V2)
(  DESCRIPTION 3-AXIS ROUTER)
(T1  D=3.175 CR=0. - ZMIN=-3. - FLAT END MILL)
N10 G90 G94 G17 G91.1
N15 G21
(WHEN USING FUSION 360 FOR PERSONAL USE, THE FEEDRATE OF)
(RAPID MOVES IS REDUCED TO MATCH THE FEEDRATE OF CUTTING)
(MOVES, WHICH CAN INCREASE MACHINING TIME. UNRESTRICTED RAPID)
(MOVES ARE AVAILABLE WITH A FUSION 360 SUBSCRIPTION.)
N20 G53 G0 Z0.
(SLOT3)
N25 T1 M6
N30 S15000 M3
N35 G54
N40 G0 X20. Y3.051
N45 G43 Z15. H1
N50 G1 Z5. F1200.
N55 Z2.5 F150.
N60 Z-3.
N65 Y104.762 F1200.
N70 X30.
N75 Z5.
N80 X20. Y103.051
N85 Z2.5 F150.
N90 Z-3.
N95 Y204.762 F1200.
N100 X30.
N105 Z5.
N110 X20. Y203.051
N115 Z2.5 F150.
N120 Z-3.
N125 Y304.763 F1200.
N130 X30.
N135 Z5.
N140 X20. Y303.051
N145 Z2.5 F150.
N150 Z-3.
N155 Y404.763 F1200.
N160 X30.
N165 Z5.
N170 X20. Y403.051
N175 Z2.5 F150.
N180 Z-3.
N185 Y504.763 F1200.
N190 X30.
N195 Z5.
N200 X20. Y503.051
N205 Z2.5 F150.
N210 Z-3.
N215 Y604.763 F1200.
N220 X30.
N225 Z5.
N230 X20. Y603.051
N235 Z2.5 F150.
N240 Z-3.
N245 Y704.763 F1200.
N250 X30.
N255 Z5.
N260 X20. Y703.051
N265 Z2.5 F150.
N270 Z-3.
N275 Y804.763 F1200.
N280 X30.
N285 Z5.
N290 X20. Y803.051
N295 Z2.5 F150.
N300 Z-3.
N305 Y904.763 F1200.
N310 X30.
N315 Z5.
N320 X20. Y903.051
N325 Z2.5 F150.
N330 Z-3.
N335 Y1004.76 F1200.
N340 Y1004.761
N345 X20.001 Y1004.763
N350 X30.
N355 X30.003 Y1004.76
N360 Z5.
N365 X20. Y1003.05
N370 Z2.5 F150.
N375 Z-3.
N380 Y1104.76 F1200.
N385 Y1104.761
N390 X20.001 Y1104.762
N395 X30.
N400 X30.003 Y1104.76
N405 Z5.
N410 X20. Y1103.05
N415 Z2.5 F150.
N420 Z-3.
N425 Y1204.76 F1200.
N430 Y1204.761
N435 X20.001 Y1204.762
N440 X30.
N445 X30.003 Y1204.76
N450 Z5.
N455 X20. Y1203.05
N460 Z2.5 F150.
N465 Z-3.
N470 Y1304.76 F1200.
N475 Y1304.761
N480 X20.001 Y1304.762
N485 X30.
N490 X30.003 Y1304.76
N495 Z5.
N500 X20. Y1303.05
N505 Z2.5 F150.
N510 Z-3.
N515 Y1404.76 F1200.
N520 Y1404.761
N525 X20.001 Y1404.762
N530 X30.
N535 X30.003 Y1404.76
N540 Z5.
N545 X20. Y1403.05
N550 Z2.5 F150.
N555 Z-3.
N560 Y1504.76 F1200.
N565 Y1504.761
N570 X20.001 Y1504.762
N575 X30.
N580 X30.003 Y1504.76
N585 Z5.
N590 X20. Y1503.05
N595 Z2.5 F150.
N600 Z-3.
N605 Y1604.76 F1200.
N610 Y1604.761
N615 X20.001 Y1604.762
N620 X30.
N625 X30.003 Y1604.76
N630 Z5.
N635 X20. Y1603.05
N640 Z2.5 F150.
N645 Z-3.
N650 Y1704.76 F1200.
N655 Y1704.761
N660 X20.001 Y1704.762
N665 X30.
N670 X30.003 Y1704.76
N675 Z5.
N680 X20. Y1703.05
N685 Z2.5 F150.
N690 Z-3.
N695 Y1804.76 F1200.
N700 Y1804.761
N705 X20.001 Y1804.762
N710 X30.
N715 X30.003 Y1804.76
N720 Z5.
N725 X20. Y1803.05
N730 Z2.5 F150.
N735 Z-3.
N740 Y1904.76 F1200.
N745 Y1904.761
N750 X20.001 Y1904.762
N755 X30.
N760 X30.003 Y1904.76
N765 Z5.
N770 X20. Y1903.05
N775 Z2.5 F150.
N780 Z-3.
N785 Y2004.76 F1200.
N790 Y2004.761
N795 X20.001 Y2004.762
N800 X30.
N805 X30.003 Y2004.76
N810 Z15.
N815 G53 G0 Z0.
N820 G53 G0 X0. Y0.
N825 M30
%
