%
(Y_SLOT_TEST)
(MACHINE)
(  MODEL LASER SNAKE V2)
(  DESCRIPTION 3-AXIS ROUTER)
(T1  D=3.175 CR=0. - ZMIN=-3. - FLAT END MILL)
N10 G90 G94 G17 G91.1
N15 G21
(WHEN USING FUSION 360 FOR PERSONAL USE, THE FEEDRATE OF)
(RAPID MOVES IS REDUCED TO MATCH THE FEEDRATE OF CUTTING)
(MOVES, WHICH CAN INCREASE MACHINING TIME. UNRESTRICTED RAPID)
(MOVES ARE AVAILABLE WITH A FUSION 360 SUBSCRIPTION.)
N20 G53 G0 Z0.
(Y SLOT)
N25 T1 M6
N30 S15000 M3
N35 G54
N40 G0 X30. Y104.762
N45 G43 Z15. H1
N50 G1 Z5. F500.
N55 Z2.5 F150.
N60 Z-3.
N65 X40. F500.
N70 Z5.
N75 X30. Y204.762
N80 Z2.5 F150.
N85 Z-3.
N90 X40. F500.
N95 Z5.
N100 X30. Y304.763
N105 Z2.5 F150.
N110 Z-3.
N115 X40. F500.
N120 Z5.
N125 X30. Y404.763
N130 Z2.5 F150.
N135 Z-3.
N140 X40. F500.
N145 Z5.
N150 X30. Y504.763
N155 Z2.5 F150.
N160 Z-3.
N165 X40. F500.
N170 Z5.
N175 X30. Y604.763
N180 Z2.5 F150.
N185 Z-3.
N190 X40. F500.
N195 Z5.
N200 X30. Y704.763
N205 Z2.5 F150.
N210 Z-3.
N215 X40. F500.
N220 Z5.
N225 X30. Y804.763
N230 Z2.5 F150.
N235 Z-3.
N240 X40. F500.
N245 Z5.
N250 X30. Y904.763
N255 Z2.5 F150.
N260 Z-3.
N265 X40. F500.
N270 Z5.
N275 X30. Y1004.76
N280 Z2.5 F150.
N285 Z-3.
N290 X40. F500.
N295 Z5.
N300 X30. Y1104.76
N305 Z2.5 F150.
N310 Z-3.
N315 X40. F500.
N320 Z5.
N325 Y1204.76
N330 Z2.5 F150.
N335 Z-3.
N340 X30. F500.
N345 Z5.
N350 Y1304.76
N355 Z2.5 F150.
N360 Z-3.
N365 X40. F500.
N370 Z5.
N375 X30. Y1404.76
N380 Z2.5 F150.
N385 Z-3.
N390 X40. F500.
N395 Z5.
N400 X30. Y1504.76
N405 Z2.5 F150.
N410 Z-3.
N415 X40. F500.
N420 Z5.
N425 X30. Y1604.76
N430 Z2.5 F150.
N435 Z-3.
N440 X40. F500.
N445 Z5.
N450 X30. Y1704.76
N455 Z2.5 F150.
N460 Z-3.
N465 X40. F500.
N470 Z5.
N475 X30. Y1804.76
N480 Z2.5 F150.
N485 Z-3.
N490 X40. F500.
N495 Z5.
N500 X30. Y1904.76
N505 Z2.5 F150.
N510 Z-3.
N515 X40. F500.
N520 Z5.
N525 X30. Y2004.76
N530 Z2.5 F150.
N535 Z-3.
N540 X40. F500.
N545 Z5.
N550 X1.587 Y1.587
N555 Z2.5 F150.
N560 Z-3.
N565 X41.588 F500.
N570 Z15.
(WHEN USING FUSION 360 FOR PERSONAL USE, THE FEEDRATE OF)
(RAPID MOVES IS REDUCED TO MATCH THE FEEDRATE OF CUTTING)
(MOVES, WHICH CAN INCREASE MACHINING TIME. UNRESTRICTED RAPID)
(MOVES ARE AVAILABLE WITH A FUSION 360 SUBSCRIPTION.)
(Y SLOT CONTINUOUS)
N575 G0 X19.28 Y1.587
N580 G1 Z15. F500.
N585 Z5.
N590 Z2.5 F150.
N595 Z-3.
N600 Y104.762 F500.
N605 X30.
N610 Z5.
N615 X19.28 Y101.587
N620 Z2.5 F150.
N625 Z-3.
N630 Y204.762 F500.
N635 X30.
N640 Z5.
N645 X19.28 Y201.587
N650 Z2.5 F150.
N655 Z-3.
N660 Y304.763 F500.
N665 X30.
N670 Z5.
N675 X19.28 Y301.587
N680 Z2.5 F150.
N685 Z-3.
N690 Y404.763 F500.
N695 X30.
N700 Z5.
N705 X19.28 Y401.587
N710 Z2.5 F150.
N715 Z-3.
N720 Y504.763 F500.
N725 X30.
N730 Z5.
N735 X19.28 Y501.587
N740 Z2.5 F150.
N745 Z-3.
N750 Y604.763 F500.
N755 X30.
N760 Z5.
N765 X19.28 Y601.587
N770 Z2.5 F150.
N775 Z-3.
N780 Y704.763 F500.
N785 X30.
N790 Z5.
N795 X19.28 Y701.587
N800 Z2.5 F150.
N805 Z-3.
N810 Y804.763 F500.
N815 X30.
N820 Z5.
N825 X19.28 Y801.587
N830 Z2.5 F150.
N835 Z-3.
N840 Y904.763 F500.
N845 X30.
N850 Z5.
N855 X19.28 Y901.587
N860 Z2.5 F150.
N865 Z-3.
N870 Y1004.76 F500.
N875 Y1004.761
N880 X19.281 Y1004.763
N885 X30.
N890 X30.003 Y1004.76
N895 Z5.
N900 X19.28 Y1001.59
N905 Z2.5 F150.
N910 Z-3.
N915 Y1104.76 F500.
N920 Y1104.761
N925 X19.281 Y1104.762
N930 X30.
N935 X30.003 Y1104.76
N940 Z5.
N945 X19.28 Y1101.59
N950 Z2.5 F150.
N955 Z-3.
N960 Y1204.76 F500.
N965 Y1204.761
N970 X19.281 Y1204.762
N975 X30.
N980 X30.003 Y1204.76
N985 Z5.
N990 X19.28 Y1201.59
N995 Z2.5 F150.
N1000 Z-3.
N1005 Y1304.76 F500.
N1010 Y1304.761
N1015 X19.281 Y1304.762
N1020 X30.
N1025 X30.003 Y1304.76
N1030 Z5.
N1035 X19.28 Y1301.59
N1040 Z2.5 F150.
N1045 Z-3.
N1050 Y1404.76 F500.
N1055 Y1404.761
N1060 X19.281 Y1404.762
N1065 X30.
N1070 X30.003 Y1404.76
N1075 Z5.
N1080 X19.28 Y1401.59
N1085 Z2.5 F150.
N1090 Z-3.
N1095 Y1504.76 F500.
N1100 Y1504.761
N1105 X19.281 Y1504.762
N1110 X30.
N1115 X30.003 Y1504.76
N1120 Z5.
N1125 X19.28 Y1501.59
N1130 Z2.5 F150.
N1135 Z-3.
N1140 Y1604.76 F500.
N1145 Y1604.761
N1150 X19.281 Y1604.762
N1155 X30.
N1160 X30.003 Y1604.76
N1165 Z5.
N1170 X19.28 Y1601.59
N1175 Z2.5 F150.
N1180 Z-3.
N1185 Y1704.76 F500.
N1190 Y1704.761
N1195 X19.281 Y1704.762
N1200 X30.
N1205 X30.003 Y1704.76
N1210 Z5.
N1215 X19.28 Y1701.59
N1220 Z2.5 F150.
N1225 Z-3.
N1230 Y1804.76 F500.
N1235 Y1804.761
N1240 X19.281 Y1804.762
N1245 X30.
N1250 X30.003 Y1804.76
N1255 Z5.
N1260 X19.28 Y1801.59
N1265 Z2.5 F150.
N1270 Z-3.
N1275 Y1904.76 F500.
N1280 Y1904.761
N1285 X19.281 Y1904.762
N1290 X30.
N1295 X30.003 Y1904.76
N1300 Z5.
N1305 X19.28 Y1901.59
N1310 Z2.5 F150.
N1315 Z-3.
N1320 Y2004.76 F500.
N1325 Y2004.761
N1330 X19.281 Y2004.762
N1335 X30.
N1340 X30.003 Y2004.76
N1345 Z15.
N1350 G53 G0 Z0.
N1355 G53 G0 X0. Y0.
N1360 M30
%
