%
(Y_SLOT_1000)
(MACHINE)
(  MODEL LASER SNAKE V2)
(  DESCRIPTION 3-AXIS ROUTER)
(T1  D=3.175 CR=0. - ZMIN=-3. - FLAT END MILL)
N10 G90 G94 G17 G91.1
N15 G21
(WHEN USING FUSION 360 FOR PERSONAL USE, THE FEEDRATE OF)
(RAPID MOVES IS REDUCED TO MATCH THE FEEDRATE OF CUTTING)
(MOVES, WHICH CAN INCREASE MACHINING TIME. UNRESTRICTED RAPID)
(MOVES ARE AVAILABLE WITH A FUSION 360 SUBSCRIPTION.)
N20 G53 G0 Z0.
(Y SLOT)
N25 T1 M6
N30 S15000 M3
N35 G54
N40 G0 X30. Y104.762
N45 G43 Z15. H1
N50 G1 Z5. F1000.
N55 Z2.5 F150.
N60 Z-3.
N65 X40. F1000.
N70 Z5.
N75 X30. Y204.762
N80 Z2.5 F150.
N85 Z-3.
N90 X40. F1000.
N95 Z5.
N100 X30. Y304.763
N105 Z2.5 F150.
N110 Z-3.
N115 X40. F1000.
N120 Z5.
N125 X30. Y404.763
N130 Z2.5 F150.
N135 Z-3.
N140 X40. F1000.
N145 Z5.
N150 X30. Y504.763
N155 Z2.5 F150.
N160 Z-3.
N165 X40. F1000.
N170 Z5.
N175 X30. Y604.763
N180 Z2.5 F150.
N185 Z-3.
N190 X40. F1000.
N195 Z5.
N200 X30. Y704.763
N205 Z2.5 F150.
N210 Z-3.
N215 X40. F1000.
N220 Z5.
N225 X30. Y804.763
N230 Z2.5 F150.
N235 Z-3.
N240 X40. F1000.
N245 Z5.
N250 X30. Y904.763
N255 Z2.5 F150.
N260 Z-3.
N265 X40. F1000.
N270 Z5.
N275 X30. Y1004.76
N280 Z2.5 F150.
N285 Z-3.
N290 X40. F1000.
N295 Z5.
N300 X30. Y1104.76
N305 Z2.5 F150.
N310 Z-3.
N315 X40. F1000.
N320 Z5.
N325 Y1204.76
N330 Z2.5 F150.
N335 Z-3.
N340 X30. F1000.
N345 Z5.
N350 Y1304.76
N355 Z2.5 F150.
N360 Z-3.
N365 X40. F1000.
N370 Z5.
N375 X30. Y1404.76
N380 Z2.5 F150.
N385 Z-3.
N390 X40. F1000.
N395 Z5.
N400 X30. Y1504.76
N405 Z2.5 F150.
N410 Z-3.
N415 X40. F1000.
N420 Z5.
N425 X30. Y1604.76
N430 Z2.5 F150.
N435 Z-3.
N440 X40. F1000.
N445 Z5.
N450 X30. Y1704.76
N455 Z2.5 F150.
N460 Z-3.
N465 X40. F1000.
N470 Z5.
N475 X30. Y1804.76
N480 Z2.5 F150.
N485 Z-3.
N490 X40. F1000.
N495 Z5.
N500 X30. Y1904.76
N505 Z2.5 F150.
N510 Z-3.
N515 X40. F1000.
N520 Z5.
N525 X30. Y2004.76
N530 Z2.5 F150.
N535 Z-3.
N540 X40. F1000.
N545 Z5.
N550 X1.587 Y1.587
N555 Z2.5 F150.
N560 Z-3.
N565 X41.588 F1000.
N570 Z15.
N575 G53 G0 Z0.
N580 G53 G0 X0. Y0.
N585 M30
%
