%
(1001)
(T5  D=19.05 CR=9.525 - ZMIN=-106. - BALL END MILL)
N10 G90 G94 G17 G91.1
N15 G21
N20 G53 G0 Z0.
(2D CONTOUR1)
N25 M9
N30 T5 M6
N35 S24000 M3
N40 G54
N45 G0 X301.905 Y1970.24
N50 G43 Z21. H5
N55 G1 Z-18.095 F333.33
N60 G19 G2 Y1968.335 Z-20. J-1.905 K0.
N65 G1 Y1966.43 F1000.
N70 G17 G2 X300. Y1964.525 I-1.905 J0.
N75 G1 X260.754 F4000.
N80 G3 X251.229 Y1955. I0. J-9.525
N85 G1 Y1904.926
N90 X247.599 Y1902.682
N95 G3 X247.093 Y1902.346 I5.009 J-8.102
N100 G1 X242.235 Y1898.896
N105 G3 X241.874 Y1898.626 I5.515 J-7.766
N110 G1 X236.503 Y1894.417
N115 G3 X236.239 Y1894.202 I5.876 J-7.496
N120 G1 X230.369 Y1889.252
N125 G3 X230.155 Y1889.066 I6.14 J-7.282
N130 G1 X223.812 Y1883.386
N135 X223.638 Y1883.226
N140 X216.86 Y1876.846
N145 X216.706 Y1876.698
N150 X209.544 Y1869.648
N155 X209.408 Y1869.512
N160 X201.925 Y1861.842
N165 X201.79 Y1861.7
N170 X194.057 Y1853.44
N175 X193.935 Y1853.307
N180 X186.031 Y1844.537
N185 X185.903 Y1844.392
N190 X177.909 Y1835.152
N195 X177.78 Y1835.
N200 X169.778 Y1825.35
N205 X169.647 Y1825.189
N210 X161.716 Y1815.189
N215 X161.586 Y1815.021
N220 X153.8 Y1804.741
N225 X153.66 Y1804.551
N230 X146.088 Y1794.021
N235 X145.949 Y1793.822
N240 X138.647 Y1783.102
N245 G3 X138.509 Y1782.894 I7.872 J-5.362
N250 G1 X131.522 Y1772.034
N255 G3 X131.384 Y1771.814 I8.01 J-5.154
N260 G1 X124.741 Y1760.844
N265 G3 X124.605 Y1760.61 I8.148 J-4.934
N270 G1 X118.324 Y1749.541
N275 G3 X118.198 Y1749.311 I8.284 J-4.701
N280 G1 X112.286 Y1738.191
N285 G3 X112.164 Y1737.954 I8.41 J-4.471
N290 G1 X106.616 Y1726.774
N295 G3 X106.505 Y1726.544 I8.532 J-4.234
N300 G1 X101.312 Y1715.334
N305 X101.211 Y1715.107
N310 X96.352 Y1703.857
N315 X96.263 Y1703.643
N320 X91.717 Y1692.373
N325 X91.637 Y1692.168
N330 X87.376 Y1680.858
N335 X87.308 Y1680.672
N340 X83.303 Y1669.332
N345 X83.245 Y1669.161
N350 X79.467 Y1657.781
N355 X79.418 Y1657.626
N360 X75.839 Y1646.196
N365 X75.797 Y1646.057
N370 X72.39 Y1634.567
N375 X72.355 Y1634.444
N380 X69.096 Y1622.884
N385 X69.066 Y1622.774
N390 X65.935 Y1611.134
N395 X62.888 Y1599.319
N400 X59.935 Y1587.412
N405 X57.064 Y1575.393
N410 X54.263 Y1563.263
N415 X51.522 Y1550.985
N420 X48.835 Y1538.575
N425 X46.197 Y1525.995
N430 X43.607 Y1513.235
N435 X41.065 Y1500.273
N440 X38.575 Y1487.11
N445 X36.141 Y1473.712
N450 X33.771 Y1460.082
N455 X31.471 Y1446.207
N460 X29.25 Y1432.068
N465 X27.118 Y1417.665
N470 X25.084 Y1402.999
N475 X23.155 Y1388.059
N480 X21.341 Y1372.848
N485 X19.648 Y1357.387
N490 X18.081 Y1341.675
N495 X16.645 Y1325.724
N500 X15.34 Y1309.567
N505 X14.165 Y1293.233
N510 X13.117 Y1276.744
N515 X12.192 Y1260.13
N520 X11.382 Y1243.431
N525 X10.681 Y1226.689
N530 X10.078 Y1209.943
N535 X9.565 Y1193.222
N540 X9.131 Y1176.578
N545 X8.767 Y1160.03
N550 X8.462 Y1143.617
N555 X8.207 Y1127.37
N560 X7.993 Y1111.307
N565 X7.812 Y1095.459
N570 X7.657 Y1079.834
N575 X7.524 Y1064.422
N580 X7.409 Y1049.242
N585 X7.309 Y1034.283
N590 X7.225 Y1019.514
N595 X7.158 Y1004.934
N600 X7.108 Y990.504
N605 X7.08 Y976.208
N610 X7.078 Y962.013
N615 X7.105 Y947.889
N620 X7.168 Y933.805
N625 X7.272 Y919.73
N630 X7.424 Y905.634
N635 X7.63 Y891.49
N640 X7.897 Y877.273
N645 X8.231 Y862.963
N650 X8.639 Y848.54
N655 X9.127 Y833.993
N660 X9.701 Y819.31
N665 X10.366 Y804.485
N670 X11.127 Y789.516
N675 X11.989 Y774.403
N680 X12.955 Y759.147
N685 X14.029 Y743.756
N690 X15.212 Y728.238
N695 X16.506 Y712.606
N700 X17.912 Y696.873
N705 X19.427 Y681.059
N710 X21.051 Y665.182
N715 X22.78 Y649.264
N720 X24.609 Y633.33
N725 X26.534 Y617.405
N730 X28.548 Y601.515
N735 X30.647 Y585.686
N740 X32.822 Y569.945
N745 X35.068 Y554.315
N750 X37.38 Y538.821
N755 X39.751 Y523.485
N760 X42.176 Y508.324
N765 X44.653 Y493.356
N770 X47.177 Y478.592
N775 X49.749 Y464.039
N780 X52.367 Y449.7
N785 X55.036 Y435.574
N790 X57.757 Y421.653
N795 X60.536 Y407.928
N800 X63.38 Y394.383
N805 X66.296 Y381.002
N810 X69.289 Y367.77
N815 X72.368 Y354.67
N820 X75.538 Y341.686
N825 X78.805 Y328.805
N830 X82.173 Y316.016
N835 X85.646 Y303.311
N840 X89.224 Y290.691
N845 X92.906 Y278.159
N850 X96.688 Y265.724
N855 X100.564 Y253.403
N860 X104.527 Y241.217
N865 X108.568 Y229.189
N870 X112.675 Y217.348
N875 X116.84 Y205.72
N880 X121.049 Y194.336
N885 X121.086 Y194.24
N890 X125.296 Y183.224
N895 X125.334 Y183.126
N900 X129.564 Y172.413
N905 X129.606 Y172.308
N910 X133.849 Y161.926
N915 X133.895 Y161.815
N920 X138.141 Y151.786
N925 X138.191 Y151.67
N930 X142.433 Y142.012
N935 X142.489 Y141.886
N940 X146.722 Y132.615
N945 X146.785 Y132.482
N950 X151.003 Y123.609
N955 X151.073 Y123.464
N960 X155.275 Y114.996
N965 X155.353 Y114.841
N970 X159.536 Y106.784
N975 X159.625 Y106.618
N980 X163.788 Y98.973
N985 X163.889 Y98.792
N990 X168.032 Y91.563
N995 X168.146 Y91.37
N1000 X172.267 Y84.556
N1005 G3 X180.417 Y79.96 I8.15 J4.929
N1010 G1 X240.475
N1015 Y20.
N1020 G3 X250. Y10.475 I9.525 J0.
N1025 G1 X350.
N1030 G3 X359.525 Y20. I0. J9.525
N1035 G1 Y79.96
N1040 X419.583
N1045 G3 X427.733 Y84.556 I0. J9.525
N1050 G1 X431.854 Y91.37
N1055 X431.968 Y91.563
N1060 X436.111 Y98.792
N1065 X436.212 Y98.973
N1070 X440.375 Y106.618
N1075 X440.464 Y106.784
N1080 X444.647 Y114.841
N1085 X444.725 Y114.996
N1090 X448.927 Y123.464
N1095 X448.997 Y123.609
N1100 X453.215 Y132.482
N1105 X453.278 Y132.615
N1110 X457.511 Y141.886
N1115 X457.567 Y142.012
N1120 X461.809 Y151.67
N1125 X461.859 Y151.786
N1130 X466.105 Y161.815
N1135 X466.151 Y161.926
N1140 X470.394 Y172.308
N1145 X470.436 Y172.413
N1150 X474.666 Y183.126
N1155 X474.704 Y183.224
N1160 X478.914 Y194.24
N1165 X478.951 Y194.336
N1170 X483.127 Y205.628
N1175 X487.293 Y217.258
N1180 X491.402 Y229.101
N1185 X495.444 Y241.129
N1190 X499.408 Y253.316
N1195 X503.285 Y265.637
N1200 X507.068 Y278.072
N1205 X510.751 Y290.604
N1210 X514.33 Y303.225
N1215 X517.804 Y315.93
N1220 X521.174 Y328.721
N1225 X524.442 Y341.603
N1230 X527.613 Y354.59
N1235 X530.693 Y367.693
N1240 X533.688 Y380.928
N1245 X536.605 Y394.312
N1250 X539.45 Y407.862
N1255 X542.23 Y421.59
N1260 X544.953 Y435.514
N1265 X547.622 Y449.643
N1270 X550.242 Y463.985
N1275 X552.814 Y478.54
N1280 X555.339 Y493.306
N1285 X557.815 Y508.274
N1290 X560.241 Y523.435
N1295 X562.612 Y538.772
N1300 X564.924 Y554.264
N1305 X567.171 Y569.893
N1310 X569.346 Y585.634
N1315 X571.444 Y601.461
N1320 X573.459 Y617.35
N1325 X575.384 Y633.273
N1330 X577.214 Y649.206
N1335 X578.943 Y665.122
N1340 X580.567 Y680.999
N1345 X582.083 Y696.812
N1350 X583.488 Y712.544
N1355 X584.783 Y728.176
N1360 X585.966 Y743.695
N1365 X587.041 Y759.086
N1370 X588.008 Y774.343
N1375 X588.87 Y789.458
N1380 X589.632 Y804.428
N1385 X590.296 Y819.255
N1390 X590.871 Y833.94
N1395 X591.359 Y848.49
N1400 X591.767 Y862.915
N1405 X592.101 Y877.23
N1410 X592.369 Y891.45
N1415 X592.575 Y905.599
N1420 X592.727 Y919.698
N1425 X592.832 Y933.777
N1430 X592.895 Y947.865
N1435 X592.922 Y961.993
N1440 X592.92 Y976.19
N1445 X592.892 Y990.49
N1450 X592.842 Y1004.923
N1455 X592.775 Y1019.504
N1460 X592.691 Y1034.274
N1465 X592.591 Y1049.234
N1470 X592.476 Y1064.412
N1475 X592.343 Y1079.822
N1480 X592.189 Y1095.444
N1485 X592.007 Y1111.289
N1490 X591.794 Y1127.346
N1495 X591.539 Y1143.59
N1500 X591.234 Y1159.997
N1505 X590.87 Y1176.54
N1510 X590.437 Y1193.178
N1515 X589.924 Y1209.892
N1520 X589.322 Y1226.632
N1525 X588.621 Y1243.369
N1530 X587.812 Y1260.061
N1535 X586.887 Y1276.67
N1540 X585.841 Y1293.154
N1545 X584.666 Y1309.483
N1550 X583.363 Y1325.636
N1555 X581.928 Y1341.584
N1560 X580.362 Y1357.295
N1565 X578.669 Y1372.757
N1570 X576.856 Y1387.968
N1575 X574.929 Y1402.909
N1580 X572.894 Y1417.579
N1585 X570.762 Y1431.984
N1590 X568.542 Y1446.128
N1595 X566.242 Y1460.007
N1600 X563.871 Y1473.642
N1605 X561.438 Y1487.042
N1610 X558.947 Y1500.21
N1615 X556.405 Y1513.173
N1620 X553.815 Y1525.935
N1625 X551.177 Y1538.515
N1630 X548.491 Y1550.925
N1635 X545.752 Y1563.195
N1640 X542.952 Y1575.323
N1645 X540.083 Y1587.333
N1650 X537.134 Y1599.232
N1655 X534.09 Y1611.038
N1660 X530.934 Y1622.774
N1665 X530.904 Y1622.884
N1670 X527.646 Y1634.444
N1675 X527.61 Y1634.568
N1680 X524.203 Y1646.058
N1685 X524.161 Y1646.196
N1690 X520.582 Y1657.626
N1695 X520.532 Y1657.78
N1700 X516.755 Y1669.16
N1705 X516.697 Y1669.331
N1710 X512.693 Y1680.671
N1715 X512.624 Y1680.858
N1720 X508.363 Y1692.168
N1725 X508.283 Y1692.373
N1730 X503.737 Y1703.643
N1735 X503.648 Y1703.857
N1740 X498.789 Y1715.107
N1745 X498.688 Y1715.334
N1750 X493.495 Y1726.544
N1755 G3 X493.384 Y1726.774 I-8.643 J-4.004
N1760 G1 X487.836 Y1737.954
N1765 G3 X487.714 Y1738.191 I-8.532 J-4.234
N1770 G1 X481.802 Y1749.311
N1775 G3 X481.676 Y1749.541 I-8.41 J-4.471
N1780 G1 X475.395 Y1760.61
N1785 G3 X475.259 Y1760.844 I-8.284 J-4.7
N1790 G1 X468.616 Y1771.814
N1795 G3 X468.478 Y1772.034 I-8.148 J-4.934
N1800 G1 X461.491 Y1782.894
N1805 G3 X461.353 Y1783.102 I-8.01 J-5.154
N1810 G1 X454.051 Y1793.822
N1815 X453.912 Y1794.021
N1820 X446.34 Y1804.551
N1825 X446.2 Y1804.741
N1830 X438.414 Y1815.021
N1835 X438.284 Y1815.189
N1840 X430.353 Y1825.189
N1845 X430.222 Y1825.35
N1850 X422.22 Y1835.
N1855 X422.091 Y1835.152
N1860 X414.097 Y1844.392
N1865 X413.969 Y1844.537
N1870 X406.065 Y1853.307
N1875 X405.943 Y1853.44
N1880 X398.21 Y1861.7
N1885 X398.075 Y1861.842
N1890 X390.592 Y1869.512
N1895 X390.456 Y1869.648
N1900 X383.294 Y1876.698
N1905 X383.14 Y1876.846
N1910 X376.362 Y1883.226
N1915 X376.188 Y1883.386
N1920 X369.845 Y1889.066
N1925 G3 X369.631 Y1889.252 I-6.354 J-7.096
N1930 G1 X363.761 Y1894.202
N1935 G3 X363.497 Y1894.417 I-6.14 J-7.281
N1940 G1 X358.126 Y1898.626
N1945 G3 X357.765 Y1898.896 I-5.876 J-7.496
N1950 G1 X352.907 Y1902.346
N1955 G3 X352.401 Y1902.682 I-5.515 J-7.766
N1960 G1 X348.771 Y1904.926
N1965 Y1955.
N1970 G3 X339.246 Y1964.525 I-9.525 J0.
N1975 G1 X300.
N1980 G2 X298.095 Y1966.43 I0. J1.905 F1000.
N1985 G1 Y1968.335
N1990 G19 G3 Y1970.24 Z-18.095 J0. K1.905
N1995 G0 Z8.409
N2000 X301.905
N2005 G1 Z-38.095 F333.33
N2010 G2 Y1968.335 Z-40. J-1.905 K0.
N2015 G1 Y1966.43 F1000.
N2020 G17 G2 X300. Y1964.525 I-1.905 J0.
N2025 G1 X260.754 F4000.
N2030 G3 X251.229 Y1955. I0. J-9.525
N2035 G1 Y1904.926
N2040 X247.599 Y1902.682
N2045 G3 X247.093 Y1902.346 I5.009 J-8.102
N2050 G1 X242.235 Y1898.896
N2055 G3 X241.874 Y1898.626 I5.515 J-7.766
N2060 G1 X236.503 Y1894.417
N2065 G3 X236.239 Y1894.202 I5.876 J-7.496
N2070 G1 X230.369 Y1889.252
N2075 G3 X230.155 Y1889.066 I6.14 J-7.282
N2080 G1 X223.812 Y1883.386
N2085 X223.638 Y1883.226
N2090 X216.86 Y1876.846
N2095 X216.706 Y1876.698
N2100 X209.544 Y1869.648
N2105 X209.408 Y1869.512
N2110 X201.925 Y1861.842
N2115 X201.79 Y1861.7
N2120 X194.057 Y1853.44
N2125 X193.935 Y1853.307
N2130 X186.031 Y1844.537
N2135 X185.903 Y1844.392
N2140 X177.909 Y1835.152
N2145 X177.78 Y1835.
N2150 X169.778 Y1825.35
N2155 X169.647 Y1825.189
N2160 X161.716 Y1815.189
N2165 X161.586 Y1815.021
N2170 X153.8 Y1804.741
N2175 X153.66 Y1804.551
N2180 X146.088 Y1794.021
N2185 X145.949 Y1793.822
N2190 X138.647 Y1783.102
N2195 G3 X138.509 Y1782.894 I7.872 J-5.362
N2200 G1 X131.522 Y1772.034
N2205 G3 X131.384 Y1771.814 I8.01 J-5.154
N2210 G1 X124.741 Y1760.844
N2215 G3 X124.605 Y1760.61 I8.148 J-4.934
N2220 G1 X118.324 Y1749.541
N2225 G3 X118.198 Y1749.311 I8.284 J-4.701
N2230 G1 X112.286 Y1738.191
N2235 G3 X112.164 Y1737.954 I8.41 J-4.471
N2240 G1 X106.616 Y1726.774
N2245 G3 X106.505 Y1726.544 I8.532 J-4.234
N2250 G1 X101.312 Y1715.334
N2255 X101.211 Y1715.107
N2260 X96.352 Y1703.857
N2265 X96.263 Y1703.643
N2270 X91.717 Y1692.373
N2275 X91.637 Y1692.168
N2280 X87.376 Y1680.858
N2285 X87.308 Y1680.672
N2290 X83.303 Y1669.332
N2295 X83.245 Y1669.161
N2300 X79.467 Y1657.781
N2305 X79.418 Y1657.626
N2310 X75.839 Y1646.196
N2315 X75.797 Y1646.057
N2320 X72.39 Y1634.567
N2325 X72.355 Y1634.444
N2330 X69.096 Y1622.884
N2335 X69.066 Y1622.774
N2340 X65.935 Y1611.134
N2345 X62.888 Y1599.319
N2350 X59.935 Y1587.412
N2355 X57.064 Y1575.393
N2360 X54.263 Y1563.263
N2365 X51.522 Y1550.985
N2370 X48.835 Y1538.575
N2375 X46.197 Y1525.995
N2380 X43.607 Y1513.235
N2385 X41.065 Y1500.273
N2390 X38.575 Y1487.11
N2395 X36.141 Y1473.712
N2400 X33.771 Y1460.082
N2405 X31.471 Y1446.207
N2410 X29.25 Y1432.068
N2415 X27.118 Y1417.665
N2420 X25.084 Y1402.999
N2425 X23.155 Y1388.059
N2430 X21.341 Y1372.848
N2435 X19.648 Y1357.387
N2440 X18.081 Y1341.675
N2445 X16.645 Y1325.724
N2450 X15.34 Y1309.567
N2455 X14.165 Y1293.233
N2460 X13.117 Y1276.744
N2465 X12.192 Y1260.13
N2470 X11.382 Y1243.431
N2475 X10.681 Y1226.689
N2480 X10.078 Y1209.943
N2485 X9.565 Y1193.222
N2490 X9.131 Y1176.578
N2495 X8.767 Y1160.03
N2500 X8.462 Y1143.617
N2505 X8.207 Y1127.37
N2510 X7.993 Y1111.307
N2515 X7.812 Y1095.459
N2520 X7.657 Y1079.834
N2525 X7.524 Y1064.422
N2530 X7.409 Y1049.242
N2535 X7.309 Y1034.283
N2540 X7.225 Y1019.514
N2545 X7.158 Y1004.934
N2550 X7.108 Y990.504
N2555 X7.08 Y976.208
N2560 X7.078 Y962.013
N2565 X7.105 Y947.889
N2570 X7.168 Y933.805
N2575 X7.272 Y919.73
N2580 X7.424 Y905.634
N2585 X7.63 Y891.49
N2590 X7.897 Y877.273
N2595 X8.231 Y862.963
N2600 X8.639 Y848.54
N2605 X9.127 Y833.993
N2610 X9.701 Y819.31
N2615 X10.366 Y804.485
N2620 X11.127 Y789.516
N2625 X11.989 Y774.403
N2630 X12.955 Y759.147
N2635 X14.029 Y743.756
N2640 X15.212 Y728.238
N2645 X16.506 Y712.606
N2650 X17.912 Y696.873
N2655 X19.427 Y681.059
N2660 X21.051 Y665.182
N2665 X22.78 Y649.264
N2670 X24.609 Y633.33
N2675 X26.534 Y617.405
N2680 X28.548 Y601.515
N2685 X30.647 Y585.686
N2690 X32.822 Y569.945
N2695 X35.068 Y554.315
N2700 X37.38 Y538.821
N2705 X39.751 Y523.485
N2710 X42.176 Y508.324
N2715 X44.653 Y493.356
N2720 X47.177 Y478.592
N2725 X49.749 Y464.039
N2730 X52.367 Y449.7
N2735 X55.036 Y435.574
N2740 X57.757 Y421.653
N2745 X60.536 Y407.928
N2750 X63.38 Y394.383
N2755 X66.296 Y381.002
N2760 X69.289 Y367.77
N2765 X72.368 Y354.67
N2770 X75.538 Y341.686
N2775 X78.805 Y328.805
N2780 X82.173 Y316.016
N2785 X85.646 Y303.311
N2790 X89.224 Y290.691
N2795 X92.906 Y278.159
N2800 X96.688 Y265.724
N2805 X100.564 Y253.403
N2810 X104.527 Y241.217
N2815 X108.568 Y229.189
N2820 X112.675 Y217.348
N2825 X116.84 Y205.72
N2830 X121.049 Y194.336
N2835 X121.086 Y194.24
N2840 X125.296 Y183.224
N2845 X125.334 Y183.126
N2850 X129.564 Y172.413
N2855 X129.606 Y172.308
N2860 X133.849 Y161.926
N2865 X133.895 Y161.815
N2870 X138.141 Y151.786
N2875 X138.191 Y151.67
N2880 X142.433 Y142.012
N2885 X142.489 Y141.886
N2890 X146.722 Y132.615
N2895 X146.785 Y132.482
N2900 X151.003 Y123.609
N2905 X151.073 Y123.464
N2910 X155.275 Y114.996
N2915 X155.353 Y114.841
N2920 X159.536 Y106.784
N2925 X159.625 Y106.618
N2930 X163.788 Y98.973
N2935 X163.889 Y98.792
N2940 X168.032 Y91.563
N2945 X168.146 Y91.37
N2950 X172.267 Y84.556
N2955 G3 X180.417 Y79.96 I8.15 J4.929
N2960 G1 X240.475
N2965 Y20.
N2970 G3 X250. Y10.475 I9.525 J0.
N2975 G1 X350.
N2980 G3 X359.525 Y20. I0. J9.525
N2985 G1 Y79.96
N2990 X419.583
N2995 G3 X427.733 Y84.556 I0. J9.525
N3000 G1 X431.854 Y91.37
N3005 X431.968 Y91.563
N3010 X436.111 Y98.792
N3015 X436.212 Y98.973
N3020 X440.375 Y106.618
N3025 X440.464 Y106.784
N3030 X444.647 Y114.841
N3035 X444.725 Y114.996
N3040 X448.927 Y123.464
N3045 X448.997 Y123.609
N3050 X453.215 Y132.482
N3055 X453.278 Y132.615
N3060 X457.511 Y141.886
N3065 X457.567 Y142.012
N3070 X461.809 Y151.67
N3075 X461.859 Y151.786
N3080 X466.105 Y161.815
N3085 X466.151 Y161.926
N3090 X470.394 Y172.308
N3095 X470.436 Y172.413
N3100 X474.666 Y183.126
N3105 X474.704 Y183.224
N3110 X478.914 Y194.24
N3115 X478.951 Y194.336
N3120 X483.127 Y205.628
N3125 X487.293 Y217.258
N3130 X491.402 Y229.101
N3135 X495.444 Y241.129
N3140 X499.408 Y253.316
N3145 X503.285 Y265.637
N3150 X507.068 Y278.072
N3155 X510.751 Y290.604
N3160 X514.33 Y303.225
N3165 X517.804 Y315.93
N3170 X521.174 Y328.721
N3175 X524.442 Y341.603
N3180 X527.613 Y354.59
N3185 X530.693 Y367.693
N3190 X533.688 Y380.928
N3195 X536.605 Y394.312
N3200 X539.45 Y407.862
N3205 X542.23 Y421.59
N3210 X544.953 Y435.514
N3215 X547.622 Y449.643
N3220 X550.242 Y463.985
N3225 X552.814 Y478.54
N3230 X555.339 Y493.306
N3235 X557.815 Y508.274
N3240 X560.241 Y523.435
N3245 X562.612 Y538.772
N3250 X564.924 Y554.264
N3255 X567.171 Y569.893
N3260 X569.346 Y585.634
N3265 X571.444 Y601.461
N3270 X573.459 Y617.35
N3275 X575.384 Y633.273
N3280 X577.214 Y649.206
N3285 X578.943 Y665.122
N3290 X580.567 Y680.999
N3295 X582.083 Y696.812
N3300 X583.488 Y712.544
N3305 X584.783 Y728.176
N3310 X585.966 Y743.695
N3315 X587.041 Y759.086
N3320 X588.008 Y774.343
N3325 X588.87 Y789.458
N3330 X589.632 Y804.428
N3335 X590.296 Y819.255
N3340 X590.871 Y833.94
N3345 X591.359 Y848.49
N3350 X591.767 Y862.915
N3355 X592.101 Y877.23
N3360 X592.369 Y891.45
N3365 X592.575 Y905.599
N3370 X592.727 Y919.698
N3375 X592.832 Y933.777
N3380 X592.895 Y947.865
N3385 X592.922 Y961.993
N3390 X592.92 Y976.19
N3395 X592.892 Y990.49
N3400 X592.842 Y1004.923
N3405 X592.775 Y1019.504
N3410 X592.691 Y1034.274
N3415 X592.591 Y1049.234
N3420 X592.476 Y1064.412
N3425 X592.343 Y1079.822
N3430 X592.189 Y1095.444
N3435 X592.007 Y1111.289
N3440 X591.794 Y1127.346
N3445 X591.539 Y1143.59
N3450 X591.234 Y1159.997
N3455 X590.87 Y1176.54
N3460 X590.437 Y1193.178
N3465 X589.924 Y1209.892
N3470 X589.322 Y1226.632
N3475 X588.621 Y1243.369
N3480 X587.812 Y1260.061
N3485 X586.887 Y1276.67
N3490 X585.841 Y1293.154
N3495 X584.666 Y1309.483
N3500 X583.363 Y1325.636
N3505 X581.928 Y1341.584
N3510 X580.362 Y1357.295
N3515 X578.669 Y1372.757
N3520 X576.856 Y1387.968
N3525 X574.929 Y1402.909
N3530 X572.894 Y1417.579
N3535 X570.762 Y1431.984
N3540 X568.542 Y1446.128
N3545 X566.242 Y1460.007
N3550 X563.871 Y1473.642
N3555 X561.438 Y1487.042
N3560 X558.947 Y1500.21
N3565 X556.405 Y1513.173
N3570 X553.815 Y1525.935
N3575 X551.177 Y1538.515
N3580 X548.491 Y1550.925
N3585 X545.752 Y1563.195
N3590 X542.952 Y1575.323
N3595 X540.083 Y1587.333
N3600 X537.134 Y1599.232
N3605 X534.09 Y1611.038
N3610 X530.934 Y1622.774
N3615 X530.904 Y1622.884
N3620 X527.646 Y1634.444
N3625 X527.61 Y1634.568
N3630 X524.203 Y1646.058
N3635 X524.161 Y1646.196
N3640 X520.582 Y1657.626
N3645 X520.532 Y1657.78
N3650 X516.755 Y1669.16
N3655 X516.697 Y1669.331
N3660 X512.693 Y1680.671
N3665 X512.624 Y1680.858
N3670 X508.363 Y1692.168
N3675 X508.283 Y1692.373
N3680 X503.737 Y1703.643
N3685 X503.648 Y1703.857
N3690 X498.789 Y1715.107
N3695 X498.688 Y1715.334
N3700 X493.495 Y1726.544
N3705 G3 X493.384 Y1726.774 I-8.643 J-4.004
N3710 G1 X487.836 Y1737.954
N3715 G3 X487.714 Y1738.191 I-8.532 J-4.234
N3720 G1 X481.802 Y1749.311
N3725 G3 X481.676 Y1749.541 I-8.41 J-4.471
N3730 G1 X475.395 Y1760.61
N3735 G3 X475.259 Y1760.844 I-8.284 J-4.7
N3740 G1 X468.616 Y1771.814
N3745 G3 X468.478 Y1772.034 I-8.148 J-4.934
N3750 G1 X461.491 Y1782.894
N3755 G3 X461.353 Y1783.102 I-8.01 J-5.154
N3760 G1 X454.051 Y1793.822
N3765 X453.912 Y1794.021
N3770 X446.34 Y1804.551
N3775 X446.2 Y1804.741
N3780 X438.414 Y1815.021
N3785 X438.284 Y1815.189
N3790 X430.353 Y1825.189
N3795 X430.222 Y1825.35
N3800 X422.22 Y1835.
N3805 X422.091 Y1835.152
N3810 X414.097 Y1844.392
N3815 X413.969 Y1844.537
N3820 X406.065 Y1853.307
N3825 X405.943 Y1853.44
N3830 X398.21 Y1861.7
N3835 X398.075 Y1861.842
N3840 X390.592 Y1869.512
N3845 X390.456 Y1869.648
N3850 X383.294 Y1876.698
N3855 X383.14 Y1876.846
N3860 X376.362 Y1883.226
N3865 X376.188 Y1883.386
N3870 X369.845 Y1889.066
N3875 G3 X369.631 Y1889.252 I-6.354 J-7.096
N3880 G1 X363.761 Y1894.202
N3885 G3 X363.497 Y1894.417 I-6.14 J-7.281
N3890 G1 X358.126 Y1898.626
N3895 G3 X357.765 Y1898.896 I-5.876 J-7.496
N3900 G1 X352.907 Y1902.346
N3905 G3 X352.401 Y1902.682 I-5.515 J-7.766
N3910 G1 X348.771 Y1904.926
N3915 Y1955.
N3920 G3 X339.246 Y1964.525 I-9.525 J0.
N3925 G1 X300.
N3930 G2 X298.095 Y1966.43 I0. J1.905 F1000.
N3935 G1 Y1968.335
N3940 G19 G3 Y1970.24 Z-38.095 J0. K1.905
N3945 G0 Z5.
N3950 X301.905
N3955 G1 Z-11.591 F333.33
N3960 Z-58.095
N3965 G2 Y1968.335 Z-60. J-1.905 K0.
N3970 G1 Y1966.43 F1000.
N3975 G17 G2 X300. Y1964.525 I-1.905 J0.
N3980 G1 X260.754 F4000.
N3985 G3 X251.229 Y1955. I0. J-9.525
N3990 G1 Y1904.926
N3995 X247.599 Y1902.682
N4000 G3 X247.093 Y1902.346 I5.009 J-8.102
N4005 G1 X242.235 Y1898.896
N4010 G3 X241.874 Y1898.626 I5.515 J-7.766
N4015 G1 X236.503 Y1894.417
N4020 G3 X236.239 Y1894.202 I5.876 J-7.496
N4025 G1 X230.369 Y1889.252
N4030 G3 X230.155 Y1889.066 I6.14 J-7.282
N4035 G1 X223.812 Y1883.386
N4040 X223.638 Y1883.226
N4045 X216.86 Y1876.846
N4050 X216.706 Y1876.698
N4055 X209.544 Y1869.648
N4060 X209.408 Y1869.512
N4065 X201.925 Y1861.842
N4070 X201.79 Y1861.7
N4075 X194.057 Y1853.44
N4080 X193.935 Y1853.307
N4085 X186.031 Y1844.537
N4090 X185.903 Y1844.392
N4095 X177.909 Y1835.152
N4100 X177.78 Y1835.
N4105 X169.778 Y1825.35
N4110 X169.647 Y1825.189
N4115 X161.716 Y1815.189
N4120 X161.586 Y1815.021
N4125 X153.8 Y1804.741
N4130 X153.66 Y1804.551
N4135 X146.088 Y1794.021
N4140 X145.949 Y1793.822
N4145 X138.647 Y1783.102
N4150 G3 X138.509 Y1782.894 I7.872 J-5.362
N4155 G1 X131.522 Y1772.034
N4160 G3 X131.384 Y1771.814 I8.01 J-5.154
N4165 G1 X124.741 Y1760.844
N4170 G3 X124.605 Y1760.61 I8.148 J-4.934
N4175 G1 X118.324 Y1749.541
N4180 G3 X118.198 Y1749.311 I8.284 J-4.701
N4185 G1 X112.286 Y1738.191
N4190 G3 X112.164 Y1737.954 I8.41 J-4.471
N4195 G1 X106.616 Y1726.774
N4200 G3 X106.505 Y1726.544 I8.532 J-4.234
N4205 G1 X101.312 Y1715.334
N4210 X101.211 Y1715.107
N4215 X96.352 Y1703.857
N4220 X96.263 Y1703.643
N4225 X91.717 Y1692.373
N4230 X91.637 Y1692.168
N4235 X87.376 Y1680.858
N4240 X87.308 Y1680.672
N4245 X83.303 Y1669.332
N4250 X83.245 Y1669.161
N4255 X79.467 Y1657.781
N4260 X79.418 Y1657.626
N4265 X75.839 Y1646.196
N4270 X75.797 Y1646.057
N4275 X72.39 Y1634.567
N4280 X72.355 Y1634.444
N4285 X69.096 Y1622.884
N4290 X69.066 Y1622.774
N4295 X65.935 Y1611.134
N4300 X62.888 Y1599.319
N4305 X59.935 Y1587.412
N4310 X57.064 Y1575.393
N4315 X54.263 Y1563.263
N4320 X51.522 Y1550.985
N4325 X48.835 Y1538.575
N4330 X46.197 Y1525.995
N4335 X43.607 Y1513.235
N4340 X41.065 Y1500.273
N4345 X38.575 Y1487.11
N4350 X36.141 Y1473.712
N4355 X33.771 Y1460.082
N4360 X31.471 Y1446.207
N4365 X29.25 Y1432.068
N4370 X27.118 Y1417.665
N4375 X25.084 Y1402.999
N4380 X23.155 Y1388.059
N4385 X21.341 Y1372.848
N4390 X19.648 Y1357.387
N4395 X18.081 Y1341.675
N4400 X16.645 Y1325.724
N4405 X15.34 Y1309.567
N4410 X14.165 Y1293.233
N4415 X13.117 Y1276.744
N4420 X12.192 Y1260.13
N4425 X11.382 Y1243.431
N4430 X10.681 Y1226.689
N4435 X10.078 Y1209.943
N4440 X9.565 Y1193.222
N4445 X9.131 Y1176.578
N4450 X8.767 Y1160.03
N4455 X8.462 Y1143.617
N4460 X8.207 Y1127.37
N4465 X7.993 Y1111.307
N4470 X7.812 Y1095.459
N4475 X7.657 Y1079.834
N4480 X7.524 Y1064.422
N4485 X7.409 Y1049.242
N4490 X7.309 Y1034.283
N4495 X7.225 Y1019.514
N4500 X7.158 Y1004.934
N4505 X7.108 Y990.504
N4510 X7.08 Y976.208
N4515 X7.078 Y962.013
N4520 X7.105 Y947.889
N4525 X7.168 Y933.805
N4530 X7.272 Y919.73
N4535 X7.424 Y905.634
N4540 X7.63 Y891.49
N4545 X7.897 Y877.273
N4550 X8.231 Y862.963
N4555 X8.639 Y848.54
N4560 X9.127 Y833.993
N4565 X9.701 Y819.31
N4570 X10.366 Y804.485
N4575 X11.127 Y789.516
N4580 X11.989 Y774.403
N4585 X12.955 Y759.147
N4590 X14.029 Y743.756
N4595 X15.212 Y728.238
N4600 X16.506 Y712.606
N4605 X17.912 Y696.873
N4610 X19.427 Y681.059
N4615 X21.051 Y665.182
N4620 X22.78 Y649.264
N4625 X24.609 Y633.33
N4630 X26.534 Y617.405
N4635 X28.548 Y601.515
N4640 X30.647 Y585.686
N4645 X32.822 Y569.945
N4650 X35.068 Y554.315
N4655 X37.38 Y538.821
N4660 X39.751 Y523.485
N4665 X42.176 Y508.324
N4670 X44.653 Y493.356
N4675 X47.177 Y478.592
N4680 X49.749 Y464.039
N4685 X52.367 Y449.7
N4690 X55.036 Y435.574
N4695 X57.757 Y421.653
N4700 X60.536 Y407.928
N4705 X63.38 Y394.383
N4710 X66.296 Y381.002
N4715 X69.289 Y367.77
N4720 X72.368 Y354.67
N4725 X75.538 Y341.686
N4730 X78.805 Y328.805
N4735 X82.173 Y316.016
N4740 X85.646 Y303.311
N4745 X89.224 Y290.691
N4750 X92.906 Y278.159
N4755 X96.688 Y265.724
N4760 X100.564 Y253.403
N4765 X104.527 Y241.217
N4770 X108.568 Y229.189
N4775 X112.675 Y217.348
N4780 X116.84 Y205.72
N4785 X121.049 Y194.336
N4790 X121.086 Y194.24
N4795 X125.296 Y183.224
N4800 X125.334 Y183.126
N4805 X129.564 Y172.413
N4810 X129.606 Y172.308
N4815 X133.849 Y161.926
N4820 X133.895 Y161.815
N4825 X138.141 Y151.786
N4830 X138.191 Y151.67
N4835 X142.433 Y142.012
N4840 X142.489 Y141.886
N4845 X146.722 Y132.615
N4850 X146.785 Y132.482
N4855 X151.003 Y123.609
N4860 X151.073 Y123.464
N4865 X155.275 Y114.996
N4870 X155.353 Y114.841
N4875 X159.536 Y106.784
N4880 X159.625 Y106.618
N4885 X163.788 Y98.973
N4890 X163.889 Y98.792
N4895 X168.032 Y91.563
N4900 X168.146 Y91.37
N4905 X172.267 Y84.556
N4910 G3 X180.417 Y79.96 I8.15 J4.929
N4915 G1 X240.475
N4920 Y20.
N4925 G3 X250. Y10.475 I9.525 J0.
N4930 G1 X350.
N4935 G3 X359.525 Y20. I0. J9.525
N4940 G1 Y79.96
N4945 X419.583
N4950 G3 X427.733 Y84.556 I0. J9.525
N4955 G1 X431.854 Y91.37
N4960 X431.968 Y91.563
N4965 X436.111 Y98.792
N4970 X436.212 Y98.973
N4975 X440.375 Y106.618
N4980 X440.464 Y106.784
N4985 X444.647 Y114.841
N4990 X444.725 Y114.996
N4995 X448.927 Y123.464
N5000 X448.997 Y123.609
N5005 X453.215 Y132.482
N5010 X453.278 Y132.615
N5015 X457.511 Y141.886
N5020 X457.567 Y142.012
N5025 X461.809 Y151.67
N5030 X461.859 Y151.786
N5035 X466.105 Y161.815
N5040 X466.151 Y161.926
N5045 X470.394 Y172.308
N5050 X470.436 Y172.413
N5055 X474.666 Y183.126
N5060 X474.704 Y183.224
N5065 X478.914 Y194.24
N5070 X478.951 Y194.336
N5075 X483.127 Y205.628
N5080 X487.293 Y217.258
N5085 X491.402 Y229.101
N5090 X495.444 Y241.129
N5095 X499.408 Y253.316
N5100 X503.285 Y265.637
N5105 X507.068 Y278.072
N5110 X510.751 Y290.604
N5115 X514.33 Y303.225
N5120 X517.804 Y315.93
N5125 X521.174 Y328.721
N5130 X524.442 Y341.603
N5135 X527.613 Y354.59
N5140 X530.693 Y367.693
N5145 X533.688 Y380.928
N5150 X536.605 Y394.312
N5155 X539.45 Y407.862
N5160 X542.23 Y421.59
N5165 X544.953 Y435.514
N5170 X547.622 Y449.643
N5175 X550.242 Y463.985
N5180 X552.814 Y478.54
N5185 X555.339 Y493.306
N5190 X557.815 Y508.274
N5195 X560.241 Y523.435
N5200 X562.612 Y538.772
N5205 X564.924 Y554.264
N5210 X567.171 Y569.893
N5215 X569.346 Y585.634
N5220 X571.444 Y601.461
N5225 X573.459 Y617.35
N5230 X575.384 Y633.273
N5235 X577.214 Y649.206
N5240 X578.943 Y665.122
N5245 X580.567 Y680.999
N5250 X582.083 Y696.812
N5255 X583.488 Y712.544
N5260 X584.783 Y728.176
N5265 X585.966 Y743.695
N5270 X587.041 Y759.086
N5275 X588.008 Y774.343
N5280 X588.87 Y789.458
N5285 X589.632 Y804.428
N5290 X590.296 Y819.255
N5295 X590.871 Y833.94
N5300 X591.359 Y848.49
N5305 X591.767 Y862.915
N5310 X592.101 Y877.23
N5315 X592.369 Y891.45
N5320 X592.575 Y905.599
N5325 X592.727 Y919.698
N5330 X592.832 Y933.777
N5335 X592.895 Y947.865
N5340 X592.922 Y961.993
N5345 X592.92 Y976.19
N5350 X592.892 Y990.49
N5355 X592.842 Y1004.923
N5360 X592.775 Y1019.504
N5365 X592.691 Y1034.274
N5370 X592.591 Y1049.234
N5375 X592.476 Y1064.412
N5380 X592.343 Y1079.822
N5385 X592.189 Y1095.444
N5390 X592.007 Y1111.289
N5395 X591.794 Y1127.346
N5400 X591.539 Y1143.59
N5405 X591.234 Y1159.997
N5410 X590.87 Y1176.54
N5415 X590.437 Y1193.178
N5420 X589.924 Y1209.892
N5425 X589.322 Y1226.632
N5430 X588.621 Y1243.369
N5435 X587.812 Y1260.061
N5440 X586.887 Y1276.67
N5445 X585.841 Y1293.154
N5450 X584.666 Y1309.483
N5455 X583.363 Y1325.636
N5460 X581.928 Y1341.584
N5465 X580.362 Y1357.295
N5470 X578.669 Y1372.757
N5475 X576.856 Y1387.968
N5480 X574.929 Y1402.909
N5485 X572.894 Y1417.579
N5490 X570.762 Y1431.984
N5495 X568.542 Y1446.128
N5500 X566.242 Y1460.007
N5505 X563.871 Y1473.642
N5510 X561.438 Y1487.042
N5515 X558.947 Y1500.21
N5520 X556.405 Y1513.173
N5525 X553.815 Y1525.935
N5530 X551.177 Y1538.515
N5535 X548.491 Y1550.925
N5540 X545.752 Y1563.195
N5545 X542.952 Y1575.323
N5550 X540.083 Y1587.333
N5555 X537.134 Y1599.232
N5560 X534.09 Y1611.038
N5565 X530.934 Y1622.774
N5570 X530.904 Y1622.884
N5575 X527.646 Y1634.444
N5580 X527.61 Y1634.568
N5585 X524.203 Y1646.058
N5590 X524.161 Y1646.196
N5595 X520.582 Y1657.626
N5600 X520.532 Y1657.78
N5605 X516.755 Y1669.16
N5610 X516.697 Y1669.331
N5615 X512.693 Y1680.671
N5620 X512.624 Y1680.858
N5625 X508.363 Y1692.168
N5630 X508.283 Y1692.373
N5635 X503.737 Y1703.643
N5640 X503.648 Y1703.857
N5645 X498.789 Y1715.107
N5650 X498.688 Y1715.334
N5655 X493.495 Y1726.544
N5660 G3 X493.384 Y1726.774 I-8.643 J-4.004
N5665 G1 X487.836 Y1737.954
N5670 G3 X487.714 Y1738.191 I-8.532 J-4.234
N5675 G1 X481.802 Y1749.311
N5680 G3 X481.676 Y1749.541 I-8.41 J-4.471
N5685 G1 X475.395 Y1760.61
N5690 G3 X475.259 Y1760.844 I-8.284 J-4.7
N5695 G1 X468.616 Y1771.814
N5700 G3 X468.478 Y1772.034 I-8.148 J-4.934
N5705 G1 X461.491 Y1782.894
N5710 G3 X461.353 Y1783.102 I-8.01 J-5.154
N5715 G1 X454.051 Y1793.822
N5720 X453.912 Y1794.021
N5725 X446.34 Y1804.551
N5730 X446.2 Y1804.741
N5735 X438.414 Y1815.021
N5740 X438.284 Y1815.189
N5745 X430.353 Y1825.189
N5750 X430.222 Y1825.35
N5755 X422.22 Y1835.
N5760 X422.091 Y1835.152
N5765 X414.097 Y1844.392
N5770 X413.969 Y1844.537
N5775 X406.065 Y1853.307
N5780 X405.943 Y1853.44
N5785 X398.21 Y1861.7
N5790 X398.075 Y1861.842
N5795 X390.592 Y1869.512
N5800 X390.456 Y1869.648
N5805 X383.294 Y1876.698
N5810 X383.14 Y1876.846
N5815 X376.362 Y1883.226
N5820 X376.188 Y1883.386
N5825 X369.845 Y1889.066
N5830 G3 X369.631 Y1889.252 I-6.354 J-7.096
N5835 G1 X363.761 Y1894.202
N5840 G3 X363.497 Y1894.417 I-6.14 J-7.281
N5845 G1 X358.126 Y1898.626
N5850 G3 X357.765 Y1898.896 I-5.876 J-7.496
N5855 G1 X352.907 Y1902.346
N5860 G3 X352.401 Y1902.682 I-5.515 J-7.766
N5865 G1 X348.771 Y1904.926
N5870 Y1955.
N5875 G3 X339.246 Y1964.525 I-9.525 J0.
N5880 G1 X300.
N5885 G2 X298.095 Y1966.43 I0. J1.905 F1000.
N5890 G1 Y1968.335
N5895 G19 G3 Y1970.24 Z-58.095 J0. K1.905
N5900 G0 Z5.
N5905 X301.905
N5910 G1 Z-31.591 F333.33
N5915 Z-78.095
N5920 G2 Y1968.335 Z-80. J-1.905 K0.
N5925 G1 Y1966.43 F1000.
N5930 G17 G2 X300. Y1964.525 I-1.905 J0.
N5935 G1 X260.754 F4000.
N5940 G3 X251.229 Y1955. I0. J-9.525
N5945 G1 Y1904.926
N5950 X247.599 Y1902.682
N5955 G3 X247.093 Y1902.346 I5.009 J-8.102
N5960 G1 X242.235 Y1898.896
N5965 G3 X241.874 Y1898.626 I5.515 J-7.766
N5970 G1 X236.503 Y1894.417
N5975 G3 X236.239 Y1894.202 I5.876 J-7.496
N5980 G1 X230.369 Y1889.252
N5985 G3 X230.155 Y1889.066 I6.14 J-7.282
N5990 G1 X223.812 Y1883.386
N5995 X223.638 Y1883.226
N6000 X216.86 Y1876.846
N6005 X216.706 Y1876.698
N6010 X209.544 Y1869.648
N6015 X209.408 Y1869.512
N6020 X201.925 Y1861.842
N6025 X201.79 Y1861.7
N6030 X194.057 Y1853.44
N6035 X193.935 Y1853.307
N6040 X186.031 Y1844.537
N6045 X185.903 Y1844.392
N6050 X177.909 Y1835.152
N6055 X177.78 Y1835.
N6060 X169.778 Y1825.35
N6065 X169.647 Y1825.189
N6070 X161.716 Y1815.189
N6075 X161.586 Y1815.021
N6080 X153.8 Y1804.741
N6085 X153.66 Y1804.551
N6090 X146.088 Y1794.021
N6095 X145.949 Y1793.822
N6100 X138.647 Y1783.102
N6105 G3 X138.509 Y1782.894 I7.872 J-5.362
N6110 G1 X131.522 Y1772.034
N6115 G3 X131.384 Y1771.814 I8.01 J-5.154
N6120 G1 X124.741 Y1760.844
N6125 G3 X124.605 Y1760.61 I8.148 J-4.934
N6130 G1 X118.324 Y1749.541
N6135 G3 X118.198 Y1749.311 I8.284 J-4.701
N6140 G1 X112.286 Y1738.191
N6145 G3 X112.164 Y1737.954 I8.41 J-4.471
N6150 G1 X106.616 Y1726.774
N6155 G3 X106.505 Y1726.544 I8.532 J-4.234
N6160 G1 X101.312 Y1715.334
N6165 X101.211 Y1715.107
N6170 X96.352 Y1703.857
N6175 X96.263 Y1703.643
N6180 X91.717 Y1692.373
N6185 X91.637 Y1692.168
N6190 X87.376 Y1680.858
N6195 X87.308 Y1680.672
N6200 X83.303 Y1669.332
N6205 X83.245 Y1669.161
N6210 X79.467 Y1657.781
N6215 X79.418 Y1657.626
N6220 X75.839 Y1646.196
N6225 X75.797 Y1646.057
N6230 X72.39 Y1634.567
N6235 X72.355 Y1634.444
N6240 X69.096 Y1622.884
N6245 X69.066 Y1622.774
N6250 X65.935 Y1611.134
N6255 X62.888 Y1599.319
N6260 X59.935 Y1587.412
N6265 X57.064 Y1575.393
N6270 X54.263 Y1563.263
N6275 X51.522 Y1550.985
N6280 X48.835 Y1538.575
N6285 X46.197 Y1525.995
N6290 X43.607 Y1513.235
N6295 X41.065 Y1500.273
N6300 X38.575 Y1487.11
N6305 X36.141 Y1473.712
N6310 X33.771 Y1460.082
N6315 X31.471 Y1446.207
N6320 X29.25 Y1432.068
N6325 X27.118 Y1417.665
N6330 X25.084 Y1402.999
N6335 X23.155 Y1388.059
N6340 X21.341 Y1372.848
N6345 X19.648 Y1357.387
N6350 X18.081 Y1341.675
N6355 X16.645 Y1325.724
N6360 X15.34 Y1309.567
N6365 X14.165 Y1293.233
N6370 X13.117 Y1276.744
N6375 X12.192 Y1260.13
N6380 X11.382 Y1243.431
N6385 X10.681 Y1226.689
N6390 X10.078 Y1209.943
N6395 X9.565 Y1193.222
N6400 X9.131 Y1176.578
N6405 X8.767 Y1160.03
N6410 X8.462 Y1143.617
N6415 X8.207 Y1127.37
N6420 X7.993 Y1111.307
N6425 X7.812 Y1095.459
N6430 X7.657 Y1079.834
N6435 X7.524 Y1064.422
N6440 X7.409 Y1049.242
N6445 X7.309 Y1034.283
N6450 X7.225 Y1019.514
N6455 X7.158 Y1004.934
N6460 X7.108 Y990.504
N6465 X7.08 Y976.208
N6470 X7.078 Y962.013
N6475 X7.105 Y947.889
N6480 X7.168 Y933.805
N6485 X7.272 Y919.73
N6490 X7.424 Y905.634
N6495 X7.63 Y891.49
N6500 X7.897 Y877.273
N6505 X8.231 Y862.963
N6510 X8.639 Y848.54
N6515 X9.127 Y833.993
N6520 X9.701 Y819.31
N6525 X10.366 Y804.485
N6530 X11.127 Y789.516
N6535 X11.989 Y774.403
N6540 X12.955 Y759.147
N6545 X14.029 Y743.756
N6550 X15.212 Y728.238
N6555 X16.506 Y712.606
N6560 X17.912 Y696.873
N6565 X19.427 Y681.059
N6570 X21.051 Y665.182
N6575 X22.78 Y649.264
N6580 X24.609 Y633.33
N6585 X26.534 Y617.405
N6590 X28.548 Y601.515
N6595 X30.647 Y585.686
N6600 X32.822 Y569.945
N6605 X35.068 Y554.315
N6610 X37.38 Y538.821
N6615 X39.751 Y523.485
N6620 X42.176 Y508.324
N6625 X44.653 Y493.356
N6630 X47.177 Y478.592
N6635 X49.749 Y464.039
N6640 X52.367 Y449.7
N6645 X55.036 Y435.574
N6650 X57.757 Y421.653
N6655 X60.536 Y407.928
N6660 X63.38 Y394.383
N6665 X66.296 Y381.002
N6670 X69.289 Y367.77
N6675 X72.368 Y354.67
N6680 X75.538 Y341.686
N6685 X78.805 Y328.805
N6690 X82.173 Y316.016
N6695 X85.646 Y303.311
N6700 X89.224 Y290.691
N6705 X92.906 Y278.159
N6710 X96.688 Y265.724
N6715 X100.564 Y253.403
N6720 X104.527 Y241.217
N6725 X108.568 Y229.189
N6730 X112.675 Y217.348
N6735 X116.84 Y205.72
N6740 X121.049 Y194.336
N6745 X121.086 Y194.24
N6750 X125.296 Y183.224
N6755 X125.334 Y183.126
N6760 X129.564 Y172.413
N6765 X129.606 Y172.308
N6770 X133.849 Y161.926
N6775 X133.895 Y161.815
N6780 X138.141 Y151.786
N6785 X138.191 Y151.67
N6790 X142.433 Y142.012
N6795 X142.489 Y141.886
N6800 X146.722 Y132.615
N6805 X146.785 Y132.482
N6810 X151.003 Y123.609
N6815 X151.073 Y123.464
N6820 X155.275 Y114.996
N6825 X155.353 Y114.841
N6830 X159.536 Y106.784
N6835 X159.625 Y106.618
N6840 X163.788 Y98.973
N6845 X163.889 Y98.792
N6850 X168.032 Y91.563
N6855 X168.146 Y91.37
N6860 X172.267 Y84.556
N6865 G3 X180.417 Y79.96 I8.15 J4.929
N6870 G1 X240.475
N6875 Y20.
N6880 G3 X250. Y10.475 I9.525 J0.
N6885 G1 X350.
N6890 G3 X359.525 Y20. I0. J9.525
N6895 G1 Y79.96
N6900 X419.583
N6905 G3 X427.733 Y84.556 I0. J9.525
N6910 G1 X431.854 Y91.37
N6915 X431.968 Y91.563
N6920 X436.111 Y98.792
N6925 X436.212 Y98.973
N6930 X440.375 Y106.618
N6935 X440.464 Y106.784
N6940 X444.647 Y114.841
N6945 X444.725 Y114.996
N6950 X448.927 Y123.464
N6955 X448.997 Y123.609
N6960 X453.215 Y132.482
N6965 X453.278 Y132.615
N6970 X457.511 Y141.886
N6975 X457.567 Y142.012
N6980 X461.809 Y151.67
N6985 X461.859 Y151.786
N6990 X466.105 Y161.815
N6995 X466.151 Y161.926
N7000 X470.394 Y172.308
N7005 X470.436 Y172.413
N7010 X474.666 Y183.126
N7015 X474.704 Y183.224
N7020 X478.914 Y194.24
N7025 X478.951 Y194.336
N7030 X483.127 Y205.628
N7035 X487.293 Y217.258
N7040 X491.402 Y229.101
N7045 X495.444 Y241.129
N7050 X499.408 Y253.316
N7055 X503.285 Y265.637
N7060 X507.068 Y278.072
N7065 X510.751 Y290.604
N7070 X514.33 Y303.225
N7075 X517.804 Y315.93
N7080 X521.174 Y328.721
N7085 X524.442 Y341.603
N7090 X527.613 Y354.59
N7095 X530.693 Y367.693
N7100 X533.688 Y380.928
N7105 X536.605 Y394.312
N7110 X539.45 Y407.862
N7115 X542.23 Y421.59
N7120 X544.953 Y435.514
N7125 X547.622 Y449.643
N7130 X550.242 Y463.985
N7135 X552.814 Y478.54
N7140 X555.339 Y493.306
N7145 X557.815 Y508.274
N7150 X560.241 Y523.435
N7155 X562.612 Y538.772
N7160 X564.924 Y554.264
N7165 X567.171 Y569.893
N7170 X569.346 Y585.634
N7175 X571.444 Y601.461
N7180 X573.459 Y617.35
N7185 X575.384 Y633.273
N7190 X577.214 Y649.206
N7195 X578.943 Y665.122
N7200 X580.567 Y680.999
N7205 X582.083 Y696.812
N7210 X583.488 Y712.544
N7215 X584.783 Y728.176
N7220 X585.966 Y743.695
N7225 X587.041 Y759.086
N7230 X588.008 Y774.343
N7235 X588.87 Y789.458
N7240 X589.632 Y804.428
N7245 X590.296 Y819.255
N7250 X590.871 Y833.94
N7255 X591.359 Y848.49
N7260 X591.767 Y862.915
N7265 X592.101 Y877.23
N7270 X592.369 Y891.45
N7275 X592.575 Y905.599
N7280 X592.727 Y919.698
N7285 X592.832 Y933.777
N7290 X592.895 Y947.865
N7295 X592.922 Y961.993
N7300 X592.92 Y976.19
N7305 X592.892 Y990.49
N7310 X592.842 Y1004.923
N7315 X592.775 Y1019.504
N7320 X592.691 Y1034.274
N7325 X592.591 Y1049.234
N7330 X592.476 Y1064.412
N7335 X592.343 Y1079.822
N7340 X592.189 Y1095.444
N7345 X592.007 Y1111.289
N7350 X591.794 Y1127.346
N7355 X591.539 Y1143.59
N7360 X591.234 Y1159.997
N7365 X590.87 Y1176.54
N7370 X590.437 Y1193.178
N7375 X589.924 Y1209.892
N7380 X589.322 Y1226.632
N7385 X588.621 Y1243.369
N7390 X587.812 Y1260.061
N7395 X586.887 Y1276.67
N7400 X585.841 Y1293.154
N7405 X584.666 Y1309.483
N7410 X583.363 Y1325.636
N7415 X581.928 Y1341.584
N7420 X580.362 Y1357.295
N7425 X578.669 Y1372.757
N7430 X576.856 Y1387.968
N7435 X574.929 Y1402.909
N7440 X572.894 Y1417.579
N7445 X570.762 Y1431.984
N7450 X568.542 Y1446.128
N7455 X566.242 Y1460.007
N7460 X563.871 Y1473.642
N7465 X561.438 Y1487.042
N7470 X558.947 Y1500.21
N7475 X556.405 Y1513.173
N7480 X553.815 Y1525.935
N7485 X551.177 Y1538.515
N7490 X548.491 Y1550.925
N7495 X545.752 Y1563.195
N7500 X542.952 Y1575.323
N7505 X540.083 Y1587.333
N7510 X537.134 Y1599.232
N7515 X534.09 Y1611.038
N7520 X530.934 Y1622.774
N7525 X530.904 Y1622.884
N7530 X527.646 Y1634.444
N7535 X527.61 Y1634.568
N7540 X524.203 Y1646.058
N7545 X524.161 Y1646.196
N7550 X520.582 Y1657.626
N7555 X520.532 Y1657.78
N7560 X516.755 Y1669.16
N7565 X516.697 Y1669.331
N7570 X512.693 Y1680.671
N7575 X512.624 Y1680.858
N7580 X508.363 Y1692.168
N7585 X508.283 Y1692.373
N7590 X503.737 Y1703.643
N7595 X503.648 Y1703.857
N7600 X498.789 Y1715.107
N7605 X498.688 Y1715.334
N7610 X493.495 Y1726.544
N7615 G3 X493.384 Y1726.774 I-8.643 J-4.004
N7620 G1 X487.836 Y1737.954
N7625 G3 X487.714 Y1738.191 I-8.532 J-4.234
N7630 G1 X481.802 Y1749.311
N7635 G3 X481.676 Y1749.541 I-8.41 J-4.471
N7640 G1 X475.395 Y1760.61
N7645 G3 X475.259 Y1760.844 I-8.284 J-4.7
N7650 G1 X468.616 Y1771.814
N7655 G3 X468.478 Y1772.034 I-8.148 J-4.934
N7660 G1 X461.491 Y1782.894
N7665 G3 X461.353 Y1783.102 I-8.01 J-5.154
N7670 G1 X454.051 Y1793.822
N7675 X453.912 Y1794.021
N7680 X446.34 Y1804.551
N7685 X446.2 Y1804.741
N7690 X438.414 Y1815.021
N7695 X438.284 Y1815.189
N7700 X430.353 Y1825.189
N7705 X430.222 Y1825.35
N7710 X422.22 Y1835.
N7715 X422.091 Y1835.152
N7720 X414.097 Y1844.392
N7725 X413.969 Y1844.537
N7730 X406.065 Y1853.307
N7735 X405.943 Y1853.44
N7740 X398.21 Y1861.7
N7745 X398.075 Y1861.842
N7750 X390.592 Y1869.512
N7755 X390.456 Y1869.648
N7760 X383.294 Y1876.698
N7765 X383.14 Y1876.846
N7770 X376.362 Y1883.226
N7775 X376.188 Y1883.386
N7780 X369.845 Y1889.066
N7785 G3 X369.631 Y1889.252 I-6.354 J-7.096
N7790 G1 X363.761 Y1894.202
N7795 G3 X363.497 Y1894.417 I-6.14 J-7.281
N7800 G1 X358.126 Y1898.626
N7805 G3 X357.765 Y1898.896 I-5.876 J-7.496
N7810 G1 X352.907 Y1902.346
N7815 G3 X352.401 Y1902.682 I-5.515 J-7.766
N7820 G1 X348.771 Y1904.926
N7825 Y1955.
N7830 G3 X339.246 Y1964.525 I-9.525 J0.
N7835 G1 X300.
N7840 G2 X298.095 Y1966.43 I0. J1.905 F1000.
N7845 G1 Y1968.335
N7850 G19 G3 Y1970.24 Z-78.095 J0. K1.905
N7855 G0 Z5.
N7860 X301.905
N7865 G1 Z-51.591 F333.33
N7870 Z-90.095
N7875 G2 Y1968.335 Z-92. J-1.905 K0.
N7880 G1 Y1966.43 F1000.
N7885 G17 G2 X300. Y1964.525 I-1.905 J0.
N7890 G1 X260.754 F4000.
N7895 G3 X251.229 Y1955. I0. J-9.525
N7900 G1 Y1904.926
N7905 X247.599 Y1902.682
N7910 G3 X247.093 Y1902.346 I5.009 J-8.102
N7915 G1 X242.235 Y1898.896
N7920 G3 X241.874 Y1898.626 I5.515 J-7.766
N7925 G1 X236.503 Y1894.417
N7930 G3 X236.239 Y1894.202 I5.876 J-7.496
N7935 G1 X230.369 Y1889.252
N7940 G3 X230.155 Y1889.066 I6.14 J-7.282
N7945 G1 X223.812 Y1883.386
N7950 X223.638 Y1883.226
N7955 X216.86 Y1876.846
N7960 X216.706 Y1876.698
N7965 X209.544 Y1869.648
N7970 X209.408 Y1869.512
N7975 X201.925 Y1861.842
N7980 X201.79 Y1861.7
N7985 X194.057 Y1853.44
N7990 X193.935 Y1853.307
N7995 X186.031 Y1844.537
N8000 X185.903 Y1844.392
N8005 X177.909 Y1835.152
N8010 X177.78 Y1835.
N8015 X169.778 Y1825.35
N8020 X169.647 Y1825.189
N8025 X161.716 Y1815.189
N8030 X161.586 Y1815.021
N8035 X153.8 Y1804.741
N8040 X153.66 Y1804.551
N8045 X146.088 Y1794.021
N8050 X145.949 Y1793.822
N8055 X138.647 Y1783.102
N8060 G3 X138.509 Y1782.894 I7.872 J-5.362
N8065 G1 X131.522 Y1772.034
N8070 G3 X131.384 Y1771.814 I8.01 J-5.154
N8075 G1 X124.741 Y1760.844
N8080 G3 X124.605 Y1760.61 I8.148 J-4.934
N8085 G1 X118.324 Y1749.541
N8090 G3 X118.198 Y1749.311 I8.284 J-4.701
N8095 G1 X112.286 Y1738.191
N8100 G3 X112.164 Y1737.954 I8.41 J-4.471
N8105 G1 X106.616 Y1726.774
N8110 G3 X106.505 Y1726.544 I8.532 J-4.234
N8115 G1 X101.312 Y1715.334
N8120 X101.211 Y1715.107
N8125 X96.352 Y1703.857
N8130 X96.263 Y1703.643
N8135 X91.717 Y1692.373
N8140 X91.637 Y1692.168
N8145 X87.376 Y1680.858
N8150 X87.308 Y1680.672
N8155 X83.303 Y1669.332
N8160 X83.245 Y1669.161
N8165 X79.467 Y1657.781
N8170 X79.418 Y1657.626
N8175 X75.839 Y1646.196
N8180 X75.797 Y1646.057
N8185 X72.39 Y1634.567
N8190 X72.355 Y1634.444
N8195 X69.096 Y1622.884
N8200 X69.066 Y1622.774
N8205 X65.935 Y1611.134
N8210 X62.888 Y1599.319
N8215 X59.935 Y1587.412
N8220 X57.064 Y1575.393
N8225 X54.263 Y1563.263
N8230 X51.522 Y1550.985
N8235 X48.835 Y1538.575
N8240 X46.197 Y1525.995
N8245 X43.607 Y1513.235
N8250 X41.065 Y1500.273
N8255 X38.575 Y1487.11
N8260 X36.141 Y1473.712
N8265 X33.771 Y1460.082
N8270 X31.471 Y1446.207
N8275 X29.25 Y1432.068
N8280 X27.118 Y1417.665
N8285 X25.084 Y1402.999
N8290 X23.155 Y1388.059
N8295 X21.341 Y1372.848
N8300 X19.648 Y1357.387
N8305 X18.081 Y1341.675
N8310 X16.645 Y1325.724
N8315 X15.34 Y1309.567
N8320 X14.165 Y1293.233
N8325 X13.117 Y1276.744
N8330 X12.192 Y1260.13
N8335 X11.382 Y1243.431
N8340 X10.681 Y1226.689
N8345 X10.078 Y1209.943
N8350 X9.565 Y1193.222
N8355 X9.131 Y1176.578
N8360 X8.767 Y1160.03
N8365 X8.462 Y1143.617
N8370 X8.207 Y1127.37
N8375 X7.993 Y1111.307
N8380 X7.812 Y1095.459
N8385 X7.657 Y1079.834
N8390 X7.524 Y1064.422
N8395 X7.409 Y1049.242
N8400 X7.309 Y1034.283
N8405 X7.225 Y1019.514
N8410 X7.158 Y1004.934
N8415 X7.108 Y990.504
N8420 X7.08 Y976.208
N8425 X7.078 Y962.013
N8430 X7.105 Y947.889
N8435 X7.168 Y933.805
N8440 X7.272 Y919.73
N8445 X7.424 Y905.634
N8450 X7.63 Y891.49
N8455 X7.897 Y877.273
N8460 X8.231 Y862.963
N8465 X8.639 Y848.54
N8470 X9.127 Y833.993
N8475 X9.701 Y819.31
N8480 X10.366 Y804.485
N8485 X11.127 Y789.516
N8490 X11.989 Y774.403
N8495 X12.955 Y759.147
N8500 X14.029 Y743.756
N8505 X15.212 Y728.238
N8510 X16.506 Y712.606
N8515 X17.912 Y696.873
N8520 X19.427 Y681.059
N8525 X21.051 Y665.182
N8530 X22.78 Y649.264
N8535 X24.609 Y633.33
N8540 X26.534 Y617.405
N8545 X28.548 Y601.515
N8550 X30.647 Y585.686
N8555 X32.822 Y569.945
N8560 X35.068 Y554.315
N8565 X37.38 Y538.821
N8570 X39.751 Y523.485
N8575 X42.176 Y508.324
N8580 X44.653 Y493.356
N8585 X47.177 Y478.592
N8590 X49.749 Y464.039
N8595 X52.367 Y449.7
N8600 X55.036 Y435.574
N8605 X57.757 Y421.653
N8610 X60.536 Y407.928
N8615 X63.38 Y394.383
N8620 X66.296 Y381.002
N8625 X69.289 Y367.77
N8630 X72.368 Y354.67
N8635 X75.538 Y341.686
N8640 X78.805 Y328.805
N8645 X82.173 Y316.016
N8650 X85.646 Y303.311
N8655 X89.224 Y290.691
N8660 X92.906 Y278.159
N8665 X96.688 Y265.724
N8670 X100.564 Y253.403
N8675 X104.527 Y241.217
N8680 X108.568 Y229.189
N8685 X112.675 Y217.348
N8690 X116.84 Y205.72
N8695 X121.049 Y194.336
N8700 X121.086 Y194.24
N8705 X125.296 Y183.224
N8710 X125.334 Y183.126
N8715 X129.564 Y172.413
N8720 X129.606 Y172.308
N8725 X133.849 Y161.926
N8730 X133.895 Y161.815
N8735 X138.141 Y151.786
N8740 X138.191 Y151.67
N8745 X142.433 Y142.012
N8750 X142.489 Y141.886
N8755 X146.722 Y132.615
N8760 X146.785 Y132.482
N8765 X151.003 Y123.609
N8770 X151.073 Y123.464
N8775 X155.275 Y114.996
N8780 X155.353 Y114.841
N8785 X159.536 Y106.784
N8790 X159.625 Y106.618
N8795 X163.788 Y98.973
N8800 X163.889 Y98.792
N8805 X168.032 Y91.563
N8810 X168.146 Y91.37
N8815 X172.267 Y84.556
N8820 G3 X180.417 Y79.96 I8.15 J4.929
N8825 G1 X240.475
N8830 Y20.
N8835 G3 X250. Y10.475 I9.525 J0.
N8840 G1 X350.
N8845 G3 X359.525 Y20. I0. J9.525
N8850 G1 Y79.96
N8855 X419.583
N8860 G3 X427.733 Y84.556 I0. J9.525
N8865 G1 X431.854 Y91.37
N8870 X431.968 Y91.563
N8875 X436.111 Y98.792
N8880 X436.212 Y98.973
N8885 X440.375 Y106.618
N8890 X440.464 Y106.784
N8895 X444.647 Y114.841
N8900 X444.725 Y114.996
N8905 X448.927 Y123.464
N8910 X448.997 Y123.609
N8915 X453.215 Y132.482
N8920 X453.278 Y132.615
N8925 X457.511 Y141.886
N8930 X457.567 Y142.012
N8935 X461.809 Y151.67
N8940 X461.859 Y151.786
N8945 X466.105 Y161.815
N8950 X466.151 Y161.926
N8955 X470.394 Y172.308
N8960 X470.436 Y172.413
N8965 X474.666 Y183.126
N8970 X474.704 Y183.224
N8975 X478.914 Y194.24
N8980 X478.951 Y194.336
N8985 X483.127 Y205.628
N8990 X487.293 Y217.258
N8995 X491.402 Y229.101
N9000 X495.444 Y241.129
N9005 X499.408 Y253.316
N9010 X503.285 Y265.637
N9015 X507.068 Y278.072
N9020 X510.751 Y290.604
N9025 X514.33 Y303.225
N9030 X517.804 Y315.93
N9035 X521.174 Y328.721
N9040 X524.442 Y341.603
N9045 X527.613 Y354.59
N9050 X530.693 Y367.693
N9055 X533.688 Y380.928
N9060 X536.605 Y394.312
N9065 X539.45 Y407.862
N9070 X542.23 Y421.59
N9075 X544.953 Y435.514
N9080 X547.622 Y449.643
N9085 X550.242 Y463.985
N9090 X552.814 Y478.54
N9095 X555.339 Y493.306
N9100 X557.815 Y508.274
N9105 X560.241 Y523.435
N9110 X562.612 Y538.772
N9115 X564.924 Y554.264
N9120 X567.171 Y569.893
N9125 X569.346 Y585.634
N9130 X571.444 Y601.461
N9135 X573.459 Y617.35
N9140 X575.384 Y633.273
N9145 X577.214 Y649.206
N9150 X578.943 Y665.122
N9155 X580.567 Y680.999
N9160 X582.083 Y696.812
N9165 X583.488 Y712.544
N9170 X584.783 Y728.176
N9175 X585.966 Y743.695
N9180 X587.041 Y759.086
N9185 X588.008 Y774.343
N9190 X588.87 Y789.458
N9195 X589.632 Y804.428
N9200 X590.296 Y819.255
N9205 X590.871 Y833.94
N9210 X591.359 Y848.49
N9215 X591.767 Y862.915
N9220 X592.101 Y877.23
N9225 X592.369 Y891.45
N9230 X592.575 Y905.599
N9235 X592.727 Y919.698
N9240 X592.832 Y933.777
N9245 X592.895 Y947.865
N9250 X592.922 Y961.993
N9255 X592.92 Y976.19
N9260 X592.892 Y990.49
N9265 X592.842 Y1004.923
N9270 X592.775 Y1019.504
N9275 X592.691 Y1034.274
N9280 X592.591 Y1049.234
N9285 X592.476 Y1064.412
N9290 X592.343 Y1079.822
N9295 X592.189 Y1095.444
N9300 X592.007 Y1111.289
N9305 X591.794 Y1127.346
N9310 X591.539 Y1143.59
N9315 X591.234 Y1159.997
N9320 X590.87 Y1176.54
N9325 X590.437 Y1193.178
N9330 X589.924 Y1209.892
N9335 X589.322 Y1226.632
N9340 X588.621 Y1243.369
N9345 X587.812 Y1260.061
N9350 X586.887 Y1276.67
N9355 X585.841 Y1293.154
N9360 X584.666 Y1309.483
N9365 X583.363 Y1325.636
N9370 X581.928 Y1341.584
N9375 X580.362 Y1357.295
N9380 X578.669 Y1372.757
N9385 X576.856 Y1387.968
N9390 X574.929 Y1402.909
N9395 X572.894 Y1417.579
N9400 X570.762 Y1431.984
N9405 X568.542 Y1446.128
N9410 X566.242 Y1460.007
N9415 X563.871 Y1473.642
N9420 X561.438 Y1487.042
N9425 X558.947 Y1500.21
N9430 X556.405 Y1513.173
N9435 X553.815 Y1525.935
N9440 X551.177 Y1538.515
N9445 X548.491 Y1550.925
N9450 X545.752 Y1563.195
N9455 X542.952 Y1575.323
N9460 X540.083 Y1587.333
N9465 X537.134 Y1599.232
N9470 X534.09 Y1611.038
N9475 X530.934 Y1622.774
N9480 X530.904 Y1622.884
N9485 X527.646 Y1634.444
N9490 X527.61 Y1634.568
N9495 X524.203 Y1646.058
N9500 X524.161 Y1646.196
N9505 X520.582 Y1657.626
N9510 X520.532 Y1657.78
N9515 X516.755 Y1669.16
N9520 X516.697 Y1669.331
N9525 X512.693 Y1680.671
N9530 X512.624 Y1680.858
N9535 X508.363 Y1692.168
N9540 X508.283 Y1692.373
N9545 X503.737 Y1703.643
N9550 X503.648 Y1703.857
N9555 X498.789 Y1715.107
N9560 X498.688 Y1715.334
N9565 X493.495 Y1726.544
N9570 G3 X493.384 Y1726.774 I-8.643 J-4.004
N9575 G1 X487.836 Y1737.954
N9580 G3 X487.714 Y1738.191 I-8.532 J-4.234
N9585 G1 X481.802 Y1749.311
N9590 G3 X481.676 Y1749.541 I-8.41 J-4.471
N9595 G1 X475.395 Y1760.61
N9600 G3 X475.259 Y1760.844 I-8.284 J-4.7
N9605 G1 X468.616 Y1771.814
N9610 G3 X468.478 Y1772.034 I-8.148 J-4.934
N9615 G1 X461.491 Y1782.894
N9620 G3 X461.353 Y1783.102 I-8.01 J-5.154
N9625 G1 X454.051 Y1793.822
N9630 X453.912 Y1794.021
N9635 X446.34 Y1804.551
N9640 X446.2 Y1804.741
N9645 X438.414 Y1815.021
N9650 X438.284 Y1815.189
N9655 X430.353 Y1825.189
N9660 X430.222 Y1825.35
N9665 X422.22 Y1835.
N9670 X422.091 Y1835.152
N9675 X414.097 Y1844.392
N9680 X413.969 Y1844.537
N9685 X406.065 Y1853.307
N9690 X405.943 Y1853.44
N9695 X398.21 Y1861.7
N9700 X398.075 Y1861.842
N9705 X390.592 Y1869.512
N9710 X390.456 Y1869.648
N9715 X383.294 Y1876.698
N9720 X383.14 Y1876.846
N9725 X376.362 Y1883.226
N9730 X376.188 Y1883.386
N9735 X369.845 Y1889.066
N9740 G3 X369.631 Y1889.252 I-6.354 J-7.096
N9745 G1 X363.761 Y1894.202
N9750 G3 X363.497 Y1894.417 I-6.14 J-7.281
N9755 G1 X358.126 Y1898.626
N9760 G3 X357.765 Y1898.896 I-5.876 J-7.496
N9765 G1 X352.907 Y1902.346
N9770 G3 X352.401 Y1902.682 I-5.515 J-7.766
N9775 G1 X348.771 Y1904.926
N9780 Y1955.
N9785 G3 X339.246 Y1964.525 I-9.525 J0.
N9790 G1 X300.
N9795 G2 X298.095 Y1966.43 I0. J1.905 F1000.
N9800 G1 Y1968.335
N9805 G19 G3 Y1970.24 Z-90.095 J0. K1.905
N9810 G0 Z5.
N9815 X301.905
N9820 G1 Z-63.591 F333.33
N9825 Z-102.095
N9830 G2 Y1968.335 Z-104. J-1.905 K0.
N9835 G1 Y1966.43 F1000.
N9840 G17 G2 X300. Y1964.525 I-1.905 J0.
N9845 G1 X260.754 F4000.
N9850 G3 X251.229 Y1955. I0. J-9.525
N9855 G1 Y1904.926
N9860 X247.599 Y1902.682
N9865 G3 X247.093 Y1902.346 I5.009 J-8.102
N9870 G1 X242.235 Y1898.896
N9875 G3 X241.874 Y1898.626 I5.515 J-7.766
N9880 G1 X236.503 Y1894.417
N9885 G3 X236.239 Y1894.202 I5.876 J-7.496
N9890 G1 X230.369 Y1889.252
N9895 G3 X230.155 Y1889.066 I6.14 J-7.282
N9900 G1 X223.812 Y1883.386
N9905 X223.638 Y1883.226
N9910 X216.86 Y1876.846
N9915 X216.706 Y1876.698
N9920 X209.544 Y1869.648
N9925 X209.408 Y1869.512
N9930 X201.925 Y1861.842
N9935 X201.79 Y1861.7
N9940 X194.057 Y1853.44
N9945 X193.935 Y1853.307
N9950 X186.031 Y1844.537
N9955 X185.903 Y1844.392
N9960 X177.909 Y1835.152
N9965 X177.78 Y1835.
N9970 X169.778 Y1825.35
N9975 X169.647 Y1825.189
N9980 X161.716 Y1815.189
N9985 X161.586 Y1815.021
N9990 X153.8 Y1804.741
N9995 X153.66 Y1804.551
N10000 X146.088 Y1794.021
N10005 X145.949 Y1793.822
N10010 X138.647 Y1783.102
N10015 G3 X138.509 Y1782.894 I7.872 J-5.362
N10020 G1 X138.336 Y1782.625
N10025 Z-99.
N10030 X131.522 Y1772.034
N10035 G3 X131.384 Y1771.814 I8.01 J-5.154
N10040 G1 X124.741 Y1760.844
N10045 G3 X124.605 Y1760.61 I8.148 J-4.934
N10050 G1 X118.324 Y1749.541
N10055 G3 X118.198 Y1749.311 I8.284 J-4.701
N10060 G1 X112.286 Y1738.191
N10065 G3 X112.164 Y1737.954 I8.41 J-4.471
N10070 G1 X106.616 Y1726.774
N10075 G3 X106.505 Y1726.544 I8.532 J-4.234
N10080 G1 X104.58 Y1722.389
N10085 Z-104. F333.33
N10090 X101.312 Y1715.334 F4000.
N10095 X101.211 Y1715.107
N10100 X96.352 Y1703.857
N10105 X96.263 Y1703.643
N10110 X91.717 Y1692.373
N10115 X91.637 Y1692.168
N10120 X87.376 Y1680.858
N10125 X87.308 Y1680.672
N10130 X83.303 Y1669.332
N10135 X83.245 Y1669.161
N10140 X79.467 Y1657.781
N10145 X79.418 Y1657.626
N10150 X75.839 Y1646.196
N10155 X75.797 Y1646.057
N10160 X72.39 Y1634.567
N10165 X72.355 Y1634.444
N10170 X69.096 Y1622.884
N10175 X69.066 Y1622.774
N10180 X65.935 Y1611.134
N10185 X62.888 Y1599.319
N10190 X59.935 Y1587.412
N10195 X57.064 Y1575.393
N10200 X54.263 Y1563.263
N10205 X51.522 Y1550.985
N10210 X48.835 Y1538.575
N10215 X46.197 Y1525.995
N10220 X43.607 Y1513.235
N10225 X41.065 Y1500.273
N10230 X38.575 Y1487.11
N10235 X36.141 Y1473.712
N10240 X33.771 Y1460.082
N10245 X31.471 Y1446.207
N10250 X29.25 Y1432.068
N10255 X27.118 Y1417.665
N10260 X25.084 Y1402.999
N10265 X23.155 Y1388.059
N10270 X22.78 Y1384.911
N10275 Z-99.
N10280 X21.341 Y1372.848
N10285 X19.648 Y1357.387
N10290 X18.081 Y1341.675
N10295 X16.645 Y1325.724
N10300 X15.876 Y1316.207
N10305 Z-104. F333.33
N10310 X15.34 Y1309.567 F4000.
N10315 X14.165 Y1293.233
N10320 X13.117 Y1276.744
N10325 X12.192 Y1260.13
N10330 X11.382 Y1243.431
N10335 X10.681 Y1226.689
N10340 X10.078 Y1209.943
N10345 X9.565 Y1193.222
N10350 X9.131 Y1176.578
N10355 X8.767 Y1160.03
N10360 X8.462 Y1143.617
N10365 X8.207 Y1127.37
N10370 X7.993 Y1111.307
N10375 X7.812 Y1095.459
N10380 X7.657 Y1079.834
N10385 X7.524 Y1064.422
N10390 X7.409 Y1049.242
N10395 X7.309 Y1034.283
N10400 X7.225 Y1019.514
N10405 X7.158 Y1004.934
N10410 X7.108 Y990.504
N10415 X7.08 Y976.208
N10420 X7.078 Y962.013
N10425 X7.105 Y947.889
N10430 X7.168 Y933.805
N10435 X7.272 Y919.73
N10440 X7.424 Y905.634
N10445 X7.63 Y891.49
N10450 X7.897 Y877.273
N10455 X8.231 Y862.963
N10460 X8.639 Y848.54
N10465 X9.127 Y833.993
N10470 X9.701 Y819.31
N10475 X10.366 Y804.485
N10480 X11.127 Y789.516
N10485 X11.989 Y774.403
N10490 X12.955 Y759.147
N10495 X14.029 Y743.756
N10500 X15.212 Y728.238
N10505 X16.506 Y712.606
N10510 X17.912 Y696.873
N10515 X19.427 Y681.059
N10520 X21.051 Y665.182
N10525 X22.78 Y649.264
N10530 X24.609 Y633.33
N10535 X26.534 Y617.405
N10540 X27.1 Y612.94
N10545 Z-99.
N10550 X28.548 Y601.515
N10555 X30.647 Y585.686
N10560 X32.822 Y569.945
N10565 X35.068 Y554.315
N10570 X36.527 Y544.536
N10575 Z-104. F333.33
N10580 X37.38 Y538.821 F4000.
N10585 X39.751 Y523.485
N10590 X42.176 Y508.324
N10595 X44.653 Y493.356
N10600 X47.177 Y478.592
N10605 X49.749 Y464.039
N10610 X52.367 Y449.7
N10615 X55.036 Y435.574
N10620 X57.757 Y421.653
N10625 X60.536 Y407.928
N10630 X63.38 Y394.383
N10635 X66.296 Y381.002
N10640 X69.289 Y367.77
N10645 X72.368 Y354.67
N10650 X75.538 Y341.686
N10655 X78.805 Y328.805
N10660 X82.173 Y316.016
N10665 X85.646 Y303.311
N10670 X89.224 Y290.691
N10675 X89.516 Y289.699
N10680 Z-99.
N10685 X92.906 Y278.159
N10690 X96.688 Y265.724
N10695 X100.564 Y253.403
N10700 X104.527 Y241.217
N10705 X108.568 Y229.189
N10710 X110.408 Y223.886
N10715 Z-104. F333.33
N10720 X112.675 Y217.348 F4000.
N10725 X116.84 Y205.72
N10730 X121.049 Y194.336
N10735 X121.086 Y194.24
N10740 X125.296 Y183.224
N10745 X125.334 Y183.126
N10750 X129.564 Y172.413
N10755 X129.606 Y172.308
N10760 X133.849 Y161.926
N10765 X133.895 Y161.815
N10770 X138.141 Y151.786
N10775 X138.191 Y151.67
N10780 X142.433 Y142.012
N10785 X142.489 Y141.886
N10790 X146.722 Y132.615
N10795 X146.785 Y132.482
N10800 X151.003 Y123.609
N10805 X151.073 Y123.464
N10810 X155.275 Y114.996
N10815 X155.353 Y114.841
N10820 X159.536 Y106.784
N10825 X159.625 Y106.618
N10830 X163.788 Y98.973
N10835 X163.889 Y98.792
N10840 X168.032 Y91.563
N10845 X168.146 Y91.37
N10850 X172.267 Y84.556
N10855 G3 X180.417 Y79.96 I8.15 J4.929
N10860 G1 X240.475
N10865 Y20.
N10870 G3 X250. Y10.475 I9.525 J0.
N10875 G1 X350.
N10880 G3 X359.525 Y20. I0. J9.525
N10885 G1 Y79.96
N10890 X419.583
N10895 G3 X427.733 Y84.556 I0. J9.525
N10900 G1 X431.854 Y91.37
N10905 X431.968 Y91.563
N10910 X436.111 Y98.792
N10915 X436.212 Y98.973
N10920 X440.375 Y106.618
N10925 X440.464 Y106.784
N10930 X444.647 Y114.841
N10935 X444.725 Y114.996
N10940 X448.927 Y123.464
N10945 X448.997 Y123.609
N10950 X453.215 Y132.482
N10955 X453.278 Y132.615
N10960 X457.511 Y141.886
N10965 X457.567 Y142.012
N10970 X461.809 Y151.67
N10975 X461.859 Y151.786
N10980 X466.105 Y161.815
N10985 X466.151 Y161.926
N10990 X467.079 Y164.195
N10995 Z-99.
N11000 X470.394 Y172.308
N11005 X470.436 Y172.413
N11010 X474.666 Y183.126
N11015 X474.704 Y183.224
N11020 X478.914 Y194.24
N11025 X478.951 Y194.336
N11030 X483.127 Y205.628
N11035 X487.293 Y217.258
N11040 X491.315 Y228.852
N11045 Z-104. F333.33
N11050 X491.402 Y229.101 F4000.
N11055 X495.444 Y241.129
N11060 X499.408 Y253.316
N11065 X503.285 Y265.637
N11070 X507.068 Y278.072
N11075 X510.751 Y290.604
N11080 X514.33 Y303.225
N11085 X517.804 Y315.93
N11090 X521.174 Y328.721
N11095 X524.442 Y341.603
N11100 X527.613 Y354.59
N11105 X530.693 Y367.693
N11110 X533.688 Y380.928
N11115 X536.605 Y394.312
N11120 X539.45 Y407.862
N11125 X542.23 Y421.59
N11130 X544.953 Y435.514
N11135 X547.622 Y449.643
N11140 X550.242 Y463.985
N11145 X552.814 Y478.54
N11150 X555.339 Y493.306
N11155 X557.815 Y508.274
N11160 X560.241 Y523.435
N11165 X562.612 Y538.772
N11170 X564.924 Y554.264
N11175 X566.249 Y563.479
N11180 Z-99.
N11185 X567.171 Y569.893
N11190 X569.346 Y585.634
N11195 X571.444 Y601.461
N11200 X573.459 Y617.35
N11205 X575.223 Y631.944
N11210 Z-104. F333.33
N11215 X575.384 Y633.273 F4000.
N11220 X577.214 Y649.206
N11225 X578.943 Y665.122
N11230 X580.567 Y680.999
N11235 X582.083 Y696.812
N11240 X583.488 Y712.544
N11245 X584.783 Y728.176
N11250 X585.966 Y743.695
N11255 X587.041 Y759.086
N11260 X588.008 Y774.343
N11265 X588.87 Y789.458
N11270 X589.632 Y804.428
N11275 X590.296 Y819.255
N11280 X590.871 Y833.94
N11285 X591.359 Y848.49
N11290 X591.767 Y862.915
N11295 X592.101 Y877.23
N11300 X592.369 Y891.45
N11305 X592.575 Y905.599
N11310 X592.727 Y919.698
N11315 X592.832 Y933.777
N11320 X592.895 Y947.865
N11325 X592.922 Y961.993
N11330 X592.92 Y976.19
N11335 X592.892 Y990.49
N11340 X592.842 Y1004.923
N11345 X592.775 Y1019.504
N11350 X592.691 Y1034.274
N11355 X592.591 Y1049.234
N11360 X592.476 Y1064.412
N11365 X592.343 Y1079.822
N11370 X592.189 Y1095.444
N11375 X592.007 Y1111.289
N11380 X591.794 Y1127.346
N11385 X591.539 Y1143.59
N11390 X591.234 Y1159.997
N11395 X590.974 Y1171.811
N11400 Z-99.
N11405 X590.87 Y1176.54
N11410 X590.437 Y1193.178
N11415 X589.924 Y1209.892
N11420 X589.322 Y1226.632
N11425 X588.727 Y1240.825
N11430 Z-104. F333.33
N11435 X588.621 Y1243.369 F4000.
N11440 X587.812 Y1260.061
N11445 X586.887 Y1276.67
N11450 X585.841 Y1293.154
N11455 X584.666 Y1309.483
N11460 X583.363 Y1325.636
N11465 X581.928 Y1341.584
N11470 X580.362 Y1357.295
N11475 X578.669 Y1372.757
N11480 X576.856 Y1387.968
N11485 X574.929 Y1402.909
N11490 X572.894 Y1417.579
N11495 X570.762 Y1431.984
N11500 X568.542 Y1446.128
N11505 X566.242 Y1460.007
N11510 X563.871 Y1473.642
N11515 X561.438 Y1487.042
N11520 X558.947 Y1500.21
N11525 X556.405 Y1513.173
N11530 X553.815 Y1525.935
N11535 X551.177 Y1538.515
N11540 X548.491 Y1550.925
N11545 X545.752 Y1563.195
N11550 X542.952 Y1575.323
N11555 X540.083 Y1587.333
N11560 X537.134 Y1599.232
N11565 X534.09 Y1611.038
N11570 X530.934 Y1622.774
N11575 X530.904 Y1622.884
N11580 X527.646 Y1634.444
N11585 X527.61 Y1634.568
N11590 X525.801 Y1640.668
N11595 Z-99.
N11600 X524.203 Y1646.058
N11605 X524.161 Y1646.196
N11610 X520.582 Y1657.626
N11615 X520.532 Y1657.78
N11620 X516.755 Y1669.16
N11625 X516.697 Y1669.331
N11630 X512.693 Y1680.671
N11635 X512.624 Y1680.858
N11640 X508.363 Y1692.168
N11645 X508.283 Y1692.373
N11650 X503.737 Y1703.643
N11655 X503.648 Y1703.857
N11660 X502.817 Y1705.781
N11665 Z-104. F333.33
N11670 X498.789 Y1715.107 F4000.
N11675 X498.688 Y1715.334
N11680 X493.495 Y1726.544
N11685 G3 X493.384 Y1726.774 I-8.643 J-4.004
N11690 G1 X487.836 Y1737.954
N11695 G3 X487.714 Y1738.191 I-8.532 J-4.234
N11700 G1 X481.802 Y1749.311
N11705 G3 X481.676 Y1749.541 I-8.41 J-4.471
N11710 G1 X475.395 Y1760.61
N11715 G3 X475.259 Y1760.844 I-8.284 J-4.7
N11720 G1 X468.616 Y1771.814
N11725 G3 X468.478 Y1772.034 I-8.148 J-4.934
N11730 G1 X461.491 Y1782.894
N11735 G3 X461.353 Y1783.102 I-8.01 J-5.154
N11740 G1 X454.051 Y1793.822
N11745 X453.912 Y1794.021
N11750 X446.34 Y1804.551
N11755 X446.2 Y1804.741
N11760 X438.414 Y1815.021
N11765 X438.284 Y1815.189
N11770 X430.353 Y1825.189
N11775 X430.222 Y1825.35
N11780 X422.22 Y1835.
N11785 X422.091 Y1835.152
N11790 X414.097 Y1844.392
N11795 X413.969 Y1844.537
N11800 X406.065 Y1853.307
N11805 X405.943 Y1853.44
N11810 X398.21 Y1861.7
N11815 X398.075 Y1861.842
N11820 X390.592 Y1869.512
N11825 X390.456 Y1869.648
N11830 X383.294 Y1876.698
N11835 X383.14 Y1876.846
N11840 X376.362 Y1883.226
N11845 X376.188 Y1883.386
N11850 X369.845 Y1889.066
N11855 G3 X369.631 Y1889.252 I-6.354 J-7.096
N11860 G1 X363.761 Y1894.202
N11865 G3 X363.497 Y1894.417 I-6.14 J-7.281
N11870 G1 X358.126 Y1898.626
N11875 G3 X357.765 Y1898.896 I-5.876 J-7.496
N11880 G1 X352.907 Y1902.346
N11885 G3 X352.401 Y1902.682 I-5.515 J-7.766
N11890 G1 X348.771 Y1904.926
N11895 Y1955.
N11900 G3 X339.246 Y1964.525 I-9.525 J0.
N11905 G1 X300.
N11910 G2 X298.095 Y1966.43 I0. J1.905 F1000.
N11915 G1 Y1968.335
N11920 G19 G3 Y1970.24 Z-102.095 J0. K1.905
N11925 G0 Z10.
N11930 G17
(DRILL1)
N11935 G0 Z15.
N11940 X300. Y50.
N11945 Z5.
N11950 G98 G83 X300. Y50. Z-106. R5. Q4.762 F333.33
N11955 Y1925.
N11960 G80
N11965 G0 Z15.
N11970 G53 Z0.
N11975 M30
%
