%
(1001)
(T1  D=6. CR=0. - ZMIN=-21.5 - FLAT END MILL)
N10 G90 G94 G17 G91.1
N15 G21
N20 G53 G0 Z0.
(2D POCKET1)
N25 M9
N30 T1 M6
N35 S22000 M3
N40 G54
N45 M8
N50 G0 X243.52 Y-133.95
N55 G43 Z15. H1
N60 G0 Z5.
N65 G1 Z2.5 F500.
N70 Z-1.9 F333.33
N75 X243.537 Y-133.974 Z-2.085
N80 X243.593 Y-134.038 Z-2.253
N85 X243.642 Y-134.082 Z-2.319
N90 X243.697 Y-134.12 Z-2.385
N95 X243.77 Y-134.159 Z-2.428
N100 X243.849 Y-134.188 Z-2.471
N105 X243.939 Y-134.207 Z-2.485
N110 X244.032 Y-134.212 Z-2.5
N115 G3 X245.363 Y-132.805 I-0.038 J1.369 F1500.
N120 X243.956 Y-131.474 I-1.369 J-0.038
N125 G1 X125.002 Y-134.776
N130 G3 X123.671 Y-136.183 I0.038 J-1.369
N135 X125.078 Y-137.514 I1.369 J0.038
N140 G1 X244.032 Y-134.212
N145 G2 X245.751 Y-135.067 I0.057 J-2.041
N150 G3 X247.669 Y-134.978 I0.93 J0.663
N155 X243.876 Y-128.595 I-3.675 J2.135
N160 G1 X124.922 Y-131.897
N165 G3 X120.792 Y-136.263 I0.118 J-4.248
N170 X125.158 Y-140.393 I4.248 J0.118
N175 G1 X244.112 Y-137.091
N180 G3 X247.669 Y-134.978 I-0.118 J4.248
N185 G2 X251.07 Y-132.943 I3.54 J-2.056
N190 G3 X253.324 Y-129.684 I-0.084 J2.467
N195 X243.721 Y-122.997 I-9.33 J-3.159
N200 G1 X124.767 Y-126.299
N205 G3 X115.194 Y-136.418 I0.273 J-9.846
N210 X125.314 Y-145.991 I9.846 J0.273
N215 G1 X244.268 Y-142.689
N220 G3 X253.324 Y-129.684 I-0.273 J9.846
N225 G2 X254.237 Y-125.367 I4.099 J1.388
N230 G3 X253.951 Y-120.964 I-2.246 J2.065
N235 X243.564 Y-117.349 I-9.957 J-11.879
N240 G1 X124.61 Y-120.651
N245 G3 X109.546 Y-136.575 I0.43 J-15.494
N250 X125.47 Y-151.639 I15.494 J0.43
N255 G1 X244.425 Y-148.337
N260 G3 X253.951 Y-120.964 I-0.431 J15.494
N265 G1 X253.875 Y-120.91 Z-2.485 F500.
N270 X253.793 Y-120.868 Z-2.471
N275 X253.713 Y-120.842 Z-2.428
N280 X253.631 Y-120.827 Z-2.385
N285 X253.565 Y-120.824 Z-2.319
N290 X253.499 Y-120.827 Z-2.253
N295 X253.415 Y-120.843 Z-2.085
N300 X253.387 Y-120.851 Z-1.9
N305 G0 Z5.
N310 X244.529 Y133.922
N315 G1 Z2.5 F333.33
N320 Z-1.9
N325 X244.513 Y133.947 Z-2.085
N330 X244.461 Y134.014 Z-2.253
N335 X244.414 Y134.06 Z-2.319
N340 X244.362 Y134.102 Z-2.385
N345 X244.29 Y134.145 Z-2.428
N350 X244.214 Y134.178 Z-2.471
N355 X244.124 Y134.202 Z-2.485
N360 X244.032 Y134.212 Z-2.5
N365 X125.078 Y137.514 F1500.
N370 G3 X123.671 Y136.183 I-0.038 J-1.368
N375 X125.002 Y134.776 I1.369 J-0.038
N380 G1 X243.956 Y131.474
N385 G3 X244.032 Y134.212 I0.038 J1.369
N390 G2 X241.912 Y135.711 I0.065 J2.34
N395 G3 X239.792 Y137.211 I-2.185 J-0.84
N400 G1 X125.158 Y140.393
N405 G3 X120.792 Y136.263 I-0.118 J-4.248
N410 X124.922 Y131.897 I4.248 J-0.118
N415 G1 X243.876 Y128.595
N420 G3 X244.112 Y137.091 I0.118 J4.248
N425 G1 X239.792 Y137.211
N430 G2 X235.671 Y140.127 I0.126 J4.548
N435 G3 X231.551 Y143.042 I-4.247 J-1.633
N440 G1 X125.313 Y145.991
N445 G3 X115.194 Y136.418 I-0.273 J-9.846
N450 X124.767 Y126.299 I9.846 J-0.273
N455 G1 X243.721 Y122.997
N460 G3 X244.268 Y142.689 I0.273 J9.846
N465 G1 X231.551 Y143.042
N470 G2 X227.393 Y145.984 I0.127 J4.589
N475 G3 X223.236 Y148.925 I-4.285 J-1.647
N480 G1 X125.47 Y151.639
N485 G3 X124.61 Y120.651 I-0.43 J-15.494
N490 G1 X243.564 Y117.349
N495 G3 X244.425 Y148.337 I0.43 J15.494
N500 G1 X223.236 Y148.925
N505 X223.143 Y148.921 Z-2.485 F500.
N510 X223.052 Y148.902 Z-2.471
N515 X222.974 Y148.873 Z-2.428
N520 X222.9 Y148.834 Z-2.385
N525 X222.846 Y148.796 Z-2.319
N530 X222.796 Y148.752 Z-2.253
N535 X222.74 Y148.687 Z-2.085
N540 X222.723 Y148.664 Z-1.9
N545 G0 Z15.
(2D POCKET2)
N550 G0 Z16.
N555 X243.282 Y-134.216
N560 G1 Z-10.75 F333.33
N565 G3 X244.596 Y-132.826 I-0.038 J1.352 F1500.
N570 X243.207 Y-131.512 I-1.352 J-0.038
N575 G1 X125.753 Y-134.772
N580 G3 X124.438 Y-136.162 I0.037 J-1.352
N585 X125.828 Y-137.476 I1.352 J0.038
N590 G1 X243.282 Y-134.216
N595 G2 X245.007 Y-135.074 I0.057 J-2.05
N600 G3 X246.931 Y-134.977 I0.931 J0.666
N605 X243.126 Y-128.616 I-3.687 J2.113
N610 G1 X125.672 Y-131.876
N615 G3 X121.542 Y-136.242 I0.118 J-4.248
N620 X125.908 Y-140.372 I4.248 J0.118
N625 G1 X243.363 Y-137.112
N630 G3 X246.931 Y-134.977 I-0.119 J4.248
N635 X246.761 Y-134.678 I-0.174 J0.099
N640 G1 X243.284 Y-134.616
N645 G2 X243.282 Y-134.216 I0.004 J0.2
N650 G1 Z-21.5 F333.33
N655 G3 X244.596 Y-132.826 I-0.038 J1.352 F1500.
N660 X243.207 Y-131.512 I-1.352 J-0.038
N665 G1 X125.753 Y-134.772
N670 G3 X124.438 Y-136.162 I0.037 J-1.352
N675 X125.828 Y-137.476 I1.352 J0.038
N680 G1 X243.282 Y-134.216
N685 G2 X245.007 Y-135.074 I0.057 J-2.05
N690 G3 X246.931 Y-134.977 I0.931 J0.666
N695 X243.126 Y-128.616 I-3.687 J2.113
N700 G1 X125.672 Y-131.876
N705 G3 X121.542 Y-136.242 I0.118 J-4.248
N710 X125.908 Y-140.372 I4.248 J0.118
N715 G1 X243.363 Y-137.112
N720 G3 X246.931 Y-134.977 I-0.119 J4.248
N725 G1 X246.971 Y-134.893 Z-21.485 F500.
N730 X246.997 Y-134.805 Z-21.471
N735 X247.009 Y-134.722 Z-21.428
N740 Y-134.638 Z-21.385
N745 X247.001 Y-134.573 Z-21.319
N750 X246.986 Y-134.508 Z-21.253
N755 X246.956 Y-134.428 Z-21.085
N760 X246.943 Y-134.402 Z-20.9
N765 G0 Z16.
N770 X243.282 Y134.216
N775 G1 Z-10.75 F333.33
N780 X125.827 Y137.476 F1500.
N785 G3 X124.438 Y136.161 I-0.038 J-1.352
N790 X125.753 Y134.772 I1.352 J-0.038
N795 G1 X243.207 Y131.512
N800 G3 X243.282 Y134.216 I0.038 J1.352
N805 G2 X241.15 Y135.724 I0.065 J2.353
N810 G3 X239.018 Y137.233 I-2.197 J-0.845
N815 G1 X125.908 Y140.372
N820 G3 X121.542 Y136.242 I-0.118 J-4.248
N825 X125.672 Y131.876 I4.248 J-0.118
N830 G1 X243.126 Y128.616
N835 G3 X243.363 Y137.112 I0.118 J4.248
N840 G1 X239.018 Y137.233
N845 G3 X238.845 Y136.791 I-0.007 J-0.252
N850 G1 X239.65 Y136.095
N855 X243.067 Y134.097
N860 X243.265 Y134.057
N865 X243.298 Y134.058
N870 X243.328 Y134.072
N875 X243.349 Y134.096
N880 X243.359 Y134.128
N885 X243.356 Y134.16
N890 X243.34 Y134.189
N895 X243.313 Y134.208
N900 X243.282 Y134.216
N905 Z-21.5 F333.33
N910 X125.827 Y137.476 F1500.
N915 G3 X124.438 Y136.161 I-0.038 J-1.352
N920 X125.753 Y134.772 I1.352 J-0.038
N925 G1 X243.207 Y131.512
N930 G3 X243.282 Y134.216 I0.038 J1.352
N935 G2 X241.15 Y135.724 I0.065 J2.353
N940 G3 X239.018 Y137.233 I-2.197 J-0.845
N945 G1 X125.908 Y140.372
N950 G3 X121.542 Y136.242 I-0.118 J-4.248
N955 X125.672 Y131.876 I4.248 J-0.118
N960 G1 X243.126 Y128.616
N965 G3 X243.363 Y137.112 I0.118 J4.248
N970 G1 X239.018 Y137.233
N975 X238.925 Y137.228 Z-21.485 F500.
N980 X238.834 Y137.209 Z-21.471
N985 X238.756 Y137.181 Z-21.428
N990 X238.682 Y137.141 Z-21.385
N995 X238.628 Y137.103 Z-21.319
N1000 X238.578 Y137.059 Z-21.253
N1005 X238.522 Y136.995 Z-21.085
N1010 X238.505 Y136.971 Z-20.9
N1015 G0 Z16.
N1020 M9
N1025 G53 Z0.
N1030 M30
%
