%
(1001)
(T1  D=6. CR=0. - ZMIN=-1. - FLAT END MILL)
N10 G90 G94 G17 G91.1
N15 G21
N20 G53 G0 Z0.
(POCKET FOR RULER)
N25 M9
N30 T1 M6
N35 S22000 M3
N40 G54
N45 G0 X43.936 Y41.385
N50 G43 Z15. H1
N55 G0 Z5.
N60 G1 Z2.5 F500.
N65 Z-0.4 F100.
N70 X43.92 Y41.361 Z-0.585
N75 X43.866 Y41.295 Z-0.753
N80 X43.817 Y41.25 Z-0.819
N85 X43.764 Y41.21 Z-0.885
N90 X43.692 Y41.169 Z-0.928
N95 X43.614 Y41.138 Z-0.971
N100 X43.524 Y41.117 Z-0.985
N105 X43.431 Y41.109 Z-1.
N110 X41.422 F1000.
N115 G2 X41.109 Y41.422 I0. J0.313
N120 G1 Y50.093
N125 X41.116 Y50.131
N130 X41.134 Y50.165
N135 X41.163 Y50.191
N140 X41.199 Y50.207
N145 X41.237 Y50.21
N150 X41.275 Y50.2
N155 X41.307 Y50.179
N160 X41.331 Y50.148
N165 G3 X50.148 Y41.331 I18.669 J9.852
N170 G1 X50.179 Y41.307
N175 X50.2 Y41.275
N180 X50.21 Y41.237
N185 X50.207 Y41.199
N190 X50.191 Y41.163
N195 X50.165 Y41.134
N200 X50.131 Y41.116
N205 X50.093 Y41.109
N210 X43.431
N215 G3 X40.863 Y39.397 I0. J-2.782
N220 G2 X38.295 Y37.685 I-2.568 J1.07
N225 G1 X38.004
N230 G2 X37.685 Y38.004 I0. J0.319
N235 G1 Y1061.996
N240 G2 X38.004 Y1062.315 I0.319 J0.
N245 G1 X41.996
N250 G2 X42.315 Y1061.996 I0. J-0.319
N255 G1 X42.27 Y60.
N260 G3 X60. Y42.27 I17.73 J0.
N265 G1 X1061.996 Y42.315
N270 G2 X1062.315 Y41.996 I0. J-0.319
N275 G1 Y38.004
N280 G2 X1061.996 Y37.685 I-0.319 J0.
N285 G1 X38.295
N290 G3 X35.641 Y36.309 I0. J-3.247
N295 G2 X32.792 Y37.212 I-1.281 J0.903
N300 G1 Y1066.889
N305 G2 X33.111 Y1067.208 I0.319 J0.
N310 G1 X46.889
N315 G2 X47.208 Y1066.889 I0. J-0.319
N320 G1 X47.163 Y60.
N325 G3 X60. Y47.163 I12.837 J0.
N330 G1 X1066.889 Y47.208
N335 G2 X1067.208 Y46.889 I0. J-0.319
N340 G1 Y33.111
N345 G2 X1066.889 Y32.792 I-0.319 J0.
N350 G1 X33.111
N355 G2 X32.792 Y33.111 I0. J0.319
N360 G1 Y37.212
N365 G3 X30.345 Y40.882 I-3.976 J0.
N370 G2 X27.898 Y44.552 I1.529 J3.67
N375 G1 Y1071.782
N380 G2 X28.218 Y1072.102 I0.319 J0.
N385 G1 X51.782
N390 G2 X52.102 Y1071.782 I0. J-0.319
N395 G1 X52.057 Y60.
N400 G3 X60. Y52.057 I7.943 J0.
N405 G1 X1071.782 Y52.102
N410 G2 X1072.102 Y51.782 I0. J-0.319
N415 G1 Y28.218
N420 G2 X1071.782 Y27.898 I-0.319 J0.
N425 G1 X28.218
N430 G2 X27.898 Y28.218 I0. J0.319
N435 G1 Y44.552
N440 G3 X25.449 Y48.226 I-3.98 J0.
N445 G2 X23. Y51.9 I1.531 J3.674
N450 G1 Y1077.
N455 X57.
N460 Y60.
N465 G3 X60. Y57. I3. J0.
N470 G1 X1077.
N475 Y23.
N480 X23.
N485 Y51.9
N490 X23.007 Y51.992 Z-0.985 F500.
N495 X23.028 Y52.082 Z-0.971
N500 X23.059 Y52.16 Z-0.928
N505 X23.101 Y52.232 Z-0.885
N510 X23.14 Y52.285 Z-0.819
N515 X23.186 Y52.334 Z-0.753
N520 X23.252 Y52.388 Z-0.585
N525 X23.276 Y52.404 Z-0.4
N530 G0 Z15.
N535 G53 Z0.
N540 M30
%
