%
(3_X_SLOTS)
(T1  D=6. CR=0. - ZMIN=-2. - FLAT END MILL)
N10 G90 G94 G17 G91.1
N15 G21
N20 G53 G0 Z0.
(SLOT3)
N25 M9
N30 T1 M6
N35 S22000 M3
N40 G54
N45 G0 X80. Y88.
N50 G43 Z15. H1
N55 G0 Z5.
N60 G1 Z2.5 F100.
N65 Z-2.
N70 Y102. F1000.
N75 G0 Z5.
N80 X180. Y88.
N85 G1 Z2.5 F100.
N90 Z-2.
N95 Y102. F1000.
N100 G0 Z5.
N105 X280. Y88.
N110 G1 Z2.5 F100.
N115 Z-2.
N120 Y102. F1000.
N125 G0 Z5.
N130 X380. Y88.
N135 G1 Z2.5 F100.
N140 Z-2.
N145 Y102. F1000.
N150 G0 Z5.
N155 X480. Y88.
N160 G1 Z2.5 F100.
N165 Z-2.
N170 Y102. F1000.
N175 G0 Z5.
N180 X580. Y88.
N185 G1 Z2.5 F100.
N190 Z-2.
N195 Y102. F1000.
N200 G0 Z5.
N205 X680. Y88.
N210 G1 Z2.5 F100.
N215 Z-2.
N220 Y102. F1000.
N225 G0 Z5.
N230 X780. Y88.
N235 G1 Z2.5 F100.
N240 Z-2.
N245 Y102. F1000.
N250 G0 Z5.
N255 X880. Y88.
N260 G1 Z2.5 F100.
N265 Z-2.
N270 Y102. F1000.
N275 G0 Z5.
N280 X980. Y88.
N285 G1 Z2.5 F100.
N290 Z-2.
N295 Y102. F1000.
N300 G0 Z5.
N305 X1080. Y88.
N310 G1 Z2.5 F100.
N315 Z-2.
N320 Y102. F1000.
N325 G0 Z15.
(SLOT3 2)
N330 G0 X80. Y109.
N335 Z15.
N340 Z5.
N345 G1 Z2.5 F100.
N350 Z-2.
N355 Y123. F1000.
N360 G0 Z5.
N365 X180. Y109.
N370 G1 Z2.5 F100.
N375 Z-2.
N380 Y123. F1000.
N385 G0 Z5.
N390 X280. Y109.
N395 G1 Z2.5 F100.
N400 Z-2.
N405 Y123. F1000.
N410 G0 Z5.
N415 X380. Y109.
N420 G1 Z2.5 F100.
N425 Z-2.
N430 Y123. F1000.
N435 G0 Z5.
N440 X480. Y109.
N445 G1 Z2.5 F100.
N450 Z-2.
N455 Y123. F1000.
N460 G0 Z5.
N465 X580. Y109.
N470 G1 Z2.5 F100.
N475 Z-2.
N480 Y123. F1000.
N485 G0 Z5.
N490 X680. Y109.
N495 G1 Z2.5 F100.
N500 Z-2.
N505 Y123. F1000.
N510 G0 Z5.
N515 X780. Y109.
N520 G1 Z2.5 F100.
N525 Z-2.
N530 Y123. F1000.
N535 G0 Z5.
N540 X880. Y109.
N545 G1 Z2.5 F100.
N550 Z-2.
N555 Y123. F1000.
N560 G0 Z5.
N565 X980. Y109.
N570 G1 Z2.5 F100.
N575 Z-2.
N580 Y123. F1000.
N585 G0 Z5.
N590 X1080. Y109.
N595 G1 Z2.5 F100.
N600 Z-2.
N605 Y123. F1000.
N610 G0 Z15.
(SLOT3 3)
N615 G0 X80. Y130.
N620 Z15.
N625 Z5.
N630 G1 Z2.5 F100.
N635 Z-2.
N640 Y144. F1000.
N645 G0 Z5.
N650 X180. Y130.
N655 G1 Z2.5 F100.
N660 Z-2.
N665 Y144. F1000.
N670 G0 Z5.
N675 X280. Y130.
N680 G1 Z2.5 F100.
N685 Z-2.
N690 Y144. F1000.
N695 G0 Z5.
N700 X380. Y130.
N705 G1 Z2.5 F100.
N710 Z-2.
N715 Y144. F1000.
N720 G0 Z5.
N725 X480. Y130.
N730 G1 Z2.5 F100.
N735 Z-2.
N740 Y144. F1000.
N745 G0 Z5.
N750 X580. Y130.
N755 G1 Z2.5 F100.
N760 Z-2.
N765 Y144. F1000.
N770 G0 Z5.
N775 X680. Y130.
N780 G1 Z2.5 F100.
N785 Z-2.
N790 Y144. F1000.
N795 G0 Z5.
N800 X780. Y130.
N805 G1 Z2.5 F100.
N810 Z-2.
N815 Y144. F1000.
N820 G0 Z5.
N825 X880. Y130.
N830 G1 Z2.5 F100.
N835 Z-2.
N840 Y144. F1000.
N845 G0 Z5.
N850 X980. Y130.
N855 G1 Z2.5 F100.
N860 Z-2.
N865 Y144. F1000.
N870 G0 Z5.
N875 X1080. Y130.
N880 G1 Z2.5 F100.
N885 Z-2.
N890 Y144. F1000.
N895 G0 Z15.
(SLOT3 4)
N900 G0 X80. Y151.
N905 Z15.
N910 Z5.
N915 G1 Z2.5 F100.
N920 Z-2.
N925 Y165. F1000.
N930 G0 Z5.
N935 X180. Y151.
N940 G1 Z2.5 F100.
N945 Z-2.
N950 Y165. F1000.
N955 G0 Z5.
N960 X280. Y151.
N965 G1 Z2.5 F100.
N970 Z-2.
N975 Y165. F1000.
N980 G0 Z5.
N985 X380. Y151.
N990 G1 Z2.5 F100.
N995 Z-2.
N1000 Y165. F1000.
N1005 G0 Z5.
N1010 X480. Y151.
N1015 G1 Z2.5 F100.
N1020 Z-2.
N1025 Y165. F1000.
N1030 G0 Z5.
N1035 X580. Y151.
N1040 G1 Z2.5 F100.
N1045 Z-2.
N1050 Y165. F1000.
N1055 G0 Z5.
N1060 X680. Y151.
N1065 G1 Z2.5 F100.
N1070 Z-2.
N1075 Y165. F1000.
N1080 G0 Z5.
N1085 X780. Y151.
N1090 G1 Z2.5 F100.
N1095 Z-2.
N1100 Y165. F1000.
N1105 G0 Z5.
N1110 X880. Y151.
N1115 G1 Z2.5 F100.
N1120 Z-2.
N1125 Y165. F1000.
N1130 G0 Z5.
N1135 X980. Y151.
N1140 G1 Z2.5 F100.
N1145 Z-2.
N1150 Y165. F1000.
N1155 G0 Z5.
N1160 X1080. Y151.
N1165 G1 Z2.5 F100.
N1170 Z-2.
N1175 Y165. F1000.
N1180 G0 Z15.
N1185 G53 Z0.
N1190 M30
%
