%
(Y_DRILL)
(T4  D=6. CR=0. TAPER=118DEG - ZMIN=-8. - DRILL)
N10 G90 G94 G17 G91.1
N15 G21
N20 G53 G0 Z0.
(DRILL3)
N25 M9
N30 T4 M6
N35 S12000 M3
N40 G54
N45 G0 X80. Y1080.
N50 G43 Z15. H4
N55 G0 Z5.
N60 G98 G81 X80. Y1080. Z-8. R5. F100.
N65 Y980.
N70 Y880.
N75 Y780.
N80 Y680.
N85 Y580.
N90 Y480.
N95 Y380.
N100 Y280.
N105 Y180.
N110 Y80.
N115 G80
N120 G0 Z15.
(DRILL3 2)
N125 G0 X101. Y1080.
N130 Z15.
N135 Z5.
N140 G81 X101. Y1080. Z-8. R5. F100.
N145 Y980.
N150 Y880.
N155 Y780.
N160 Y680.
N165 Y580.
N170 Y480.
N175 Y380.
N180 Y280.
N185 Y180.
N190 Y80.
N195 G80
N200 G0 Z15.
(DRILL3 3)
N205 G0 X122. Y1080.
N210 Z15.
N215 Z5.
N220 G81 X122. Y1080. Z-8. R5. F100.
N225 Y980.
N230 Y880.
N235 Y780.
N240 Y680.
N245 Y580.
N250 Y480.
N255 Y380.
N260 Y280.
N265 Y180.
N270 Y80.
N275 G80
N280 G0 Z15.
(DRILL3 4)
N285 G0 X143. Y1080.
N290 Z15.
N295 Z5.
N300 G81 X143. Y1080. Z-8. R5. F100.
N305 Y980.
N310 Y880.
N315 Y780.
N320 Y680.
N325 Y580.
N330 Y480.
N335 Y380.
N340 Y280.
N345 Y180.
N350 Y80.
N355 G80
N360 G0 Z15.
N365 G53 Z0.
N370 M30
%
