%
(2_Y_SLOTS)
(T1  D=6. CR=0. - ZMIN=-2. - FLAT END MILL)
N10 G90 G94 G17 G91.1
N15 G21
N20 G53 G0 Z0.
(SLOT1)
N25 M9
N30 T1 M6
N35 S22000 M3
N40 G54
N45 G0 X80. Y80.
N50 G43 Z15. H1
N55 G0 Z5.
N60 G1 Z2.5 F100.
N65 Z-2.
N70 X94. F1000.
N75 G0 Z5.
N80 X80. Y180.
N85 G1 Z2.5 F100.
N90 Z-2.
N95 X94. F1000.
N100 G0 Z5.
N105 X80. Y280.
N110 G1 Z2.5 F100.
N115 Z-2.
N120 X94. F1000.
N125 G0 Z5.
N130 X80. Y380.
N135 G1 Z2.5 F100.
N140 Z-2.
N145 X94. F1000.
N150 G0 Z5.
N155 X80. Y480.
N160 G1 Z2.5 F100.
N165 Z-2.
N170 X94. F1000.
N175 G0 Z5.
N180 X80. Y580.
N185 G1 Z2.5 F100.
N190 Z-2.
N195 X94. F1000.
N200 G0 Z5.
N205 X80. Y680.
N210 G1 Z2.5 F100.
N215 Z-2.
N220 X94. F1000.
N225 G0 Z5.
N230 X80. Y780.
N235 G1 Z2.5 F100.
N240 Z-2.
N245 X94. F1000.
N250 G0 Z5.
N255 X80. Y880.
N260 G1 Z2.5 F100.
N265 Z-2.
N270 X94. F1000.
N275 G0 Z5.
N280 X80. Y980.
N285 G1 Z2.5 F100.
N290 Z-2.
N295 X94. F1000.
N300 G0 Z5.
N305 X80. Y1080.
N310 G1 Z2.5 F100.
N315 Z-2.
N320 X94. F1000.
N325 G0 Z15.
(SLOT2)
N330 G0 X101. Y80.
N335 Z15.
N340 Z5.
N345 G1 Z2.5 F100.
N350 Z-2.
N355 X115. F1000.
N360 G0 Z5.
N365 X101. Y180.
N370 G1 Z2.5 F100.
N375 Z-2.
N380 X115. F1000.
N385 G0 Z5.
N390 X101. Y280.
N395 G1 Z2.5 F100.
N400 Z-2.
N405 X115. F1000.
N410 G0 Z5.
N415 X101. Y380.
N420 G1 Z2.5 F100.
N425 Z-2.
N430 X115. F1000.
N435 G0 Z5.
N440 X101. Y480.
N445 G1 Z2.5 F100.
N450 Z-2.
N455 X115. F1000.
N460 G0 Z5.
N465 X101. Y580.
N470 G1 Z2.5 F100.
N475 Z-2.
N480 X115. F1000.
N485 G0 Z5.
N490 X101. Y680.
N495 G1 Z2.5 F100.
N500 Z-2.
N505 X115. F1000.
N510 G0 Z5.
N515 X101. Y780.
N520 G1 Z2.5 F100.
N525 Z-2.
N530 X115. F1000.
N535 G0 Z5.
N540 X101. Y880.
N545 G1 Z2.5 F100.
N550 Z-2.
N555 X115. F1000.
N560 G0 Z5.
N565 X101. Y980.
N570 G1 Z2.5 F100.
N575 Z-2.
N580 X115. F1000.
N585 G0 Z5.
N590 X101. Y1080.
N595 G1 Z2.5 F100.
N600 Z-2.
N605 X115. F1000.
N610 G0 Z15.
(SLOT2 2)
N615 G0 X122. Y80.
N620 Z15.
N625 Z5.
N630 G1 Z2.5 F100.
N635 Z-2.
N640 X136. F1000.
N645 G0 Z5.
N650 X122. Y180.
N655 G1 Z2.5 F100.
N660 Z-2.
N665 X136. F1000.
N670 G0 Z5.
N675 X122. Y280.
N680 G1 Z2.5 F100.
N685 Z-2.
N690 X136. F1000.
N695 G0 Z5.
N700 X122. Y380.
N705 G1 Z2.5 F100.
N710 Z-2.
N715 X136. F1000.
N720 G0 Z5.
N725 X122. Y480.
N730 G1 Z2.5 F100.
N735 Z-2.
N740 X136. F1000.
N745 G0 Z5.
N750 X122. Y580.
N755 G1 Z2.5 F100.
N760 Z-2.
N765 X136. F1000.
N770 G0 Z5.
N775 X122. Y680.
N780 G1 Z2.5 F100.
N785 Z-2.
N790 X136. F1000.
N795 G0 Z5.
N800 X122. Y780.
N805 G1 Z2.5 F100.
N810 Z-2.
N815 X136. F1000.
N820 G0 Z5.
N825 X122. Y880.
N830 G1 Z2.5 F100.
N835 Z-2.
N840 X136. F1000.
N845 G0 Z5.
N850 X122. Y980.
N855 G1 Z2.5 F100.
N860 Z-2.
N865 X136. F1000.
N870 G0 Z5.
N875 X122. Y1080.
N880 G1 Z2.5 F100.
N885 Z-2.
N890 X136. F1000.
N895 G0 Z15.
(SLOT2 3)
N900 G0 X143. Y80.
N905 Z15.
N910 Z5.
N915 G1 Z2.5 F100.
N920 Z-2.
N925 X157. F1000.
N930 G0 Z5.
N935 X143. Y180.
N940 G1 Z2.5 F100.
N945 Z-2.
N950 X157. F1000.
N955 G0 Z5.
N960 X143. Y280.
N965 G1 Z2.5 F100.
N970 Z-2.
N975 X157. F1000.
N980 G0 Z5.
N985 X143. Y380.
N990 G1 Z2.5 F100.
N995 Z-2.
N1000 X157. F1000.
N1005 G0 Z5.
N1010 X143. Y480.
N1015 G1 Z2.5 F100.
N1020 Z-2.
N1025 X157. F1000.
N1030 G0 Z5.
N1035 X143. Y580.
N1040 G1 Z2.5 F100.
N1045 Z-2.
N1050 X157. F1000.
N1055 G0 Z5.
N1060 X143. Y680.
N1065 G1 Z2.5 F100.
N1070 Z-2.
N1075 X157. F1000.
N1080 G0 Z5.
N1085 X143. Y780.
N1090 G1 Z2.5 F100.
N1095 Z-2.
N1100 X157. F1000.
N1105 G0 Z5.
N1110 X143. Y880.
N1115 G1 Z2.5 F100.
N1120 Z-2.
N1125 X157. F1000.
N1130 G0 Z5.
N1135 X143. Y980.
N1140 G1 Z2.5 F100.
N1145 Z-2.
N1150 X157. F1000.
N1155 G0 Z5.
N1160 X143. Y1080.
N1165 G1 Z2.5 F100.
N1170 Z-2.
N1175 X157. F1000.
N1180 G0 Z15.
N1185 G53 Z0.
N1190 M30
%
