%
(Z_DRILL)
(T1  D=6. CR=0. - ZMIN=-8. - FLAT END MILL)
N10 G90 G94 G17 G91.1
N15 G21
N20 G53 G0 Z0.
(DRILL5)
N25 M9
N30 T1 M6
N35 S22000 M3
N40 G54
N45 G0 X0. Y0.
N50 G43 Z15. H1
N55 G0 Z5.
N60 Z2.
N65 G1 Z-1. F100.
N70 G0 Z5.
N75 X160. Y100.
N80 Z2.
N85 G1 Z-2. F100.
N90 G0 Z5.
N95 X140.
N100 Z2.
N105 G1 Z-2. F100.
N110 G0 Z5.
N115 X120.
N120 Z2.
N125 G1 Z-2. F100.
N130 G0 Z5.
N135 X100.
N140 Z2.
N145 G1 Z-2. F100.
N150 G0 Z5.
N155 Y120.
N160 Z2.
N165 G1 Z-2. F100.
N170 G0 Z-1.5
N175 G1 Z-4. F100.
N180 G0 Z5.
N185 X120.
N190 Z2.
N195 G1 Z-2. F100.
N200 G0 Z-1.5
N205 G1 Z-4. F100.
N210 G0 Z5.
N215 X140.
N220 Z2.
N225 G1 Z-2. F100.
N230 G0 Z-1.5
N235 G1 Z-4. F100.
N240 G0 Z5.
N245 X160.
N250 Z2.
N255 G1 Z-2. F100.
N260 G0 Z-1.5
N265 G1 Z-4. F100.
N270 G0 Z5.
N275 Y140.
N280 Z2.
N285 G1 Z-2. F100.
N290 G0 Z-1.5
N295 G1 Z-4. F100.
N300 G0 Z-3.5
N305 G1 Z-6. F100.
N310 G0 Z5.
N315 X140.
N320 Z2.
N325 G1 Z-2. F100.
N330 G0 Z-1.5
N335 G1 Z-4. F100.
N340 G0 Z-3.5
N345 G1 Z-6. F100.
N350 G0 Z5.
N355 X120.
N360 Z2.
N365 G1 Z-2. F100.
N370 G0 Z-1.5
N375 G1 Z-4. F100.
N380 G0 Z-3.5
N385 G1 Z-6. F100.
N390 G0 Z5.
N395 X100.
N400 Z2.
N405 G1 Z-2. F100.
N410 G0 Z-1.5
N415 G1 Z-4. F100.
N420 G0 Z-3.5
N425 G1 Z-6. F100.
N430 G0 Z5.
N435 Y160.
N440 Z2.
N445 G1 Z-2. F100.
N450 G0 Z-1.5
N455 G1 Z-4. F100.
N460 G0 Z-3.5
N465 G1 Z-6. F100.
N470 G0 Z-5.5
N475 G1 Z-8. F100.
N480 G0 Z5.
N485 X120.
N490 Z2.
N495 G1 Z-2. F100.
N500 G0 Z-1.5
N505 G1 Z-4. F100.
N510 G0 Z-3.5
N515 G1 Z-6. F100.
N520 G0 Z-5.5
N525 G1 Z-8. F100.
N530 G0 Z5.
N535 X140.
N540 Z2.
N545 G1 Z-2. F100.
N550 G0 Z-1.5
N555 G1 Z-4. F100.
N560 G0 Z-3.5
N565 G1 Z-6. F100.
N570 G0 Z-5.5
N575 G1 Z-8. F100.
N580 G0 Z5.
N585 X160.
N590 Z2.
N595 G1 Z-2. F100.
N600 G0 Z-1.5
N605 G1 Z-4. F100.
N610 G0 Z-3.5
N615 G1 Z-6. F100.
N620 G0 Z-5.5
N625 G1 Z-8. F100.
N630 G0 Z5.
N635 Z15.
N640 G53 Z0.
N645 M30
%
