%
(BUTTONS_DRILL_V1)
(MACHINE)
(  MODEL LASER SNAKE V2)
(  DESCRIPTION 3-AXIS ROUTER)
(T3  D=6. CR=0. TAPER=118DEG - ZMIN=-13.803 - DRILL)
N10 G90 G94 G17 G91.1
N15 G21
N20 G53 G0 Z0.
(DRILL2)
N25 T3 M6
N30 S10000 M3
N35 G54
N40 G0 X35. Y103.75
N45 G43 Z15. H3
N50 G0 Z5.
N55 Z2.
N60 G1 Z-3. F150.
N65 G0 Z-2.
N70 G1 Z-6. F150.
N75 G0 Z-5.
N80 G1 Z-9. F150.
N85 G0 Z-8.
N90 G1 Z-12. F150.
N95 G0 Z-11.
N100 G1 Z-13.803 F150.
N105 G0 Z5.
N110 Y68.75
N115 Z2.
N120 G1 Z-3. F150.
N125 G0 Z-2.
N130 G1 Z-6. F150.
N135 G0 Z-5.
N140 G1 Z-9. F150.
N145 G0 Z-8.
N150 G1 Z-12. F150.
N155 G0 Z-11.
N160 G1 Z-13.803 F150.
N165 G0 Z5.
N170 Y33.75
N175 Z2.
N180 G1 Z-3. F150.
N185 G0 Z-2.
N190 G1 Z-6. F150.
N195 G0 Z-5.
N200 G1 Z-9. F150.
N205 G0 Z-8.
N210 G1 Z-12. F150.
N215 G0 Z-11.
N220 G1 Z-13.803 F150.
N225 G0 Z5.
N230 Z15.
N235 G53 G0 Z0.
N240 G53 G0 X0. Y0.
N245 M30
%
