%
(BUTTONS_DRILL_AFTPOCKET_V1)
(MACHINE)
(  MODEL LASER SNAKE V2)
(  DESCRIPTION 3-AXIS ROUTER)
(T3  D=6. CR=0. TAPER=118DEG - ZMIN=-13.803 - DRILL)
N10 G90 G94 G17 G91.1
N15 G21
N20 G53 G0 Z0.
(DRILL1)
N25 T3 M6
N30 S10000 M3
N35 G54
N40 G0 X35. Y103.75
N45 G43 Z15. H3
N50 G0 Z5.
N55 Z-4.
N60 Z-7.
N65 G1 Z-11. F150.
N70 G0 Z-10.
N75 G1 Z-13. F150.
N80 G0 Z-12.
N85 G1 Z-13.803 F150.
N90 G0 Z5.
N95 Y68.75
N100 Z-4.
N105 Z-7.
N110 G1 Z-11. F150.
N115 G0 Z-10.
N120 G1 Z-13. F150.
N125 G0 Z-12.
N130 G1 Z-13.803 F150.
N135 G0 Z5.
N140 Y33.75
N145 Z-4.
N150 Z-7.
N155 G1 Z-11. F150.
N160 G0 Z-10.
N165 G1 Z-13. F150.
N170 G0 Z-12.
N175 G1 Z-13.803 F150.
N180 G0 Z5.
N185 Z15.
N190 G53 G0 Z0.
N195 G53 G0 X0. Y0.
N200 M30
%
