%
(BUTTON_FACE_V1)
(MACHINE)
(  MODEL LASER SNAKE V2)
(  DESCRIPTION 3-AXIS ROUTER)
(T1  D=25. CR=0. - ZMIN=-7. - FLAT END MILL)
N10 G90 G94 G17 G91.1
N15 G21
(WHEN USING FUSION 360 FOR PERSONAL USE, THE FEEDRATE OF)
(RAPID MOVES IS REDUCED TO MATCH THE FEEDRATE OF CUTTING)
(MOVES, WHICH CAN INCREASE MACHINING TIME. UNRESTRICTED RAPID)
(MOVES ARE AVAILABLE WITH A FUSION 360 SUBSCRIPTION.)
N20 G53 G0 Z0.
(FACE1)
N25 T1 M6
N30 S18000 M3
N35 G54
N40 G0 X86.25 Y2.225
N45 G43 Z15. H1
N50 G1 Z5. F700.
N55 Z2. F150.
N60 G18 G3 X83.75 Z-0.5 I-2.5 K0. F500.
N65 G1 X75.
N70 X-5. F700.
N75 G17 G2 Y16.8 I0. J7.287
N80 G1 X75.
N85 G3 Y31.375 I0. J7.288
N90 G1 X-5.
N95 G2 Y45.95 I0. J7.287
N100 G1 X75.
N105 G3 Y60.525 I0. J7.287
N110 G1 X-5.
N115 G2 Y75.1 I0. J7.287
N120 G1 X75.
N125 G3 Y89.675 I0. J7.287
N130 G1 X-5.
N135 G2 Y104.25 I0. J7.287
N140 G1 X75.
N145 G3 Y118.825 I0. J7.287
N150 G1 X-5.
N155 G2 Y133.4 I0. J7.288
N160 G1 X75.
N165 G3 Y147.975 I0. J7.288
N170 G1 X-5.
N175 G18 G3 X-7.5 Z2. I0. K2.5 F500.
N180 G1 Z5. F700.
N185 X-16.25 Y2.225
N190 Z0. F150.
N195 G2 X-13.75 Z-2.5 I2.5 K0. F500.
N200 G1 X-5.
N205 X75. F700.
N210 G17 G3 Y16.8 I0. J7.287
N215 G1 X-5.
N220 G2 Y31.375 I0. J7.288
N225 G1 X75.
N230 G3 Y45.95 I0. J7.287
N235 G1 X-5.
N240 G2 Y60.525 I0. J7.287
N245 G1 X75.
N250 G3 Y75.1 I0. J7.287
N255 G1 X-5.
N260 G2 Y89.675 I0. J7.287
N265 G1 X75.
N270 G3 Y104.25 I0. J7.287
N275 G1 X-5.
N280 G2 Y118.825 I0. J7.287
N285 G1 X75.
N290 G3 Y133.4 I0. J7.288
N295 G1 X-5.
N300 G2 Y147.975 I0. J7.288
N305 G1 X75.
N310 G18 G2 X77.5 Z0. I0. K2.5 F500.
N315 G1 Z5. F700.
N320 X86.25 Y2.225
N325 Z-2. F150.
N330 G3 X83.75 Z-4.5 I-2.5 K0. F500.
N335 G1 X75.
N340 X-5. F700.
N345 G17 G2 Y16.8 I0. J7.287
N350 G1 X75.
N355 G3 Y31.375 I0. J7.288
N360 G1 X-5.
N365 G2 Y45.95 I0. J7.287
N370 G1 X75.
N375 G3 Y60.525 I0. J7.287
N380 G1 X-5.
N385 G2 Y75.1 I0. J7.287
N390 G1 X75.
N395 G3 Y89.675 I0. J7.287
N400 G1 X-5.
N405 G2 Y104.25 I0. J7.287
N410 G1 X75.
N415 G3 Y118.825 I0. J7.287
N420 G1 X-5.
N425 G2 Y133.4 I0. J7.288
N430 G1 X75.
N435 G3 Y147.975 I0. J7.288
N440 G1 X-5.
N445 G18 G3 X-7.5 Z-2. I0. K2.5 F500.
N450 G1 Z5. F700.
N455 X-16.25 Y2.225
N460 Z-4. F150.
N465 G2 X-13.75 Z-6.5 I2.5 K0. F500.
N470 G1 X-5.
N475 X75. F700.
N480 G17 G3 Y16.8 I0. J7.287
N485 G1 X-5.
N490 G2 Y31.375 I0. J7.288
N495 G1 X75.
N500 G3 Y45.95 I0. J7.287
N505 G1 X-5.
N510 G2 Y60.525 I0. J7.287
N515 G1 X75.
N520 G3 Y75.1 I0. J7.287
N525 G1 X-5.
N530 G2 Y89.675 I0. J7.287
N535 G1 X75.
N540 G3 Y104.25 I0. J7.287
N545 G1 X-5.
N550 G2 Y118.825 I0. J7.287
N555 G1 X75.
N560 G3 Y133.4 I0. J7.288
N565 G1 X-5.
N570 G2 Y147.975 I0. J7.288
N575 G1 X75.
N580 G18 G2 X77.5 Z-4. I0. K2.5 F500.
N585 G1 Z5. F700.
N590 X86.25 Y2.225
N595 Z-4.5 F150.
N600 G3 X83.75 Z-7. I-2.5 K0. F500.
N605 G1 X75.
N610 X-5. F700.
N615 G17 G2 Y16.8 I0. J7.287
N620 G1 X75.
N625 G3 Y31.375 I0. J7.288
N630 G1 X-5.
N635 G2 Y45.95 I0. J7.287
N640 G1 X75.
N645 G3 Y60.525 I0. J7.287
N650 G1 X-5.
N655 G2 Y75.1 I0. J7.287
N660 G1 X75.
N665 G3 Y89.675 I0. J7.287
N670 G1 X-5.
N675 G2 Y104.25 I0. J7.287
N680 G1 X75.
N685 G3 Y118.825 I0. J7.287
N690 G1 X-5.
N695 G2 Y133.4 I0. J7.288
N700 G1 X75.
N705 G3 Y147.975 I0. J7.288
N710 G1 X-5.
N715 G18 G3 X-7.5 Z-4.5 I0. K2.5 F500.
N720 G1 Z15. F700.
N725 G17
N730 G53 G0 Z0.
N735 G53 G0 X0. Y0.
N740 M30
%
