%
(BUTTONS_POCKET_25MM_V1)
(MACHINE)
(  MODEL LASER SNAKE V2)
(  DESCRIPTION 3-AXIS ROUTER)
(T1  D=25. CR=0. - ZMIN=-9. - FLAT END MILL)
N10 G90 G94 G17 G91.1
N15 G21
(WHEN USING FUSION 360 FOR PERSONAL USE, THE FEEDRATE OF)
(RAPID MOVES IS REDUCED TO MATCH THE FEEDRATE OF CUTTING)
(MOVES, WHICH CAN INCREASE MACHINING TIME. UNRESTRICTED RAPID)
(MOVES ARE AVAILABLE WITH A FUSION 360 SUBSCRIPTION.)
N20 G53 G0 Z0.
(2D POCKET2)
N25 T1 M6
N30 S18000 M3
N35 G54
N40 G0 X36.5 Y47.734
N45 G43 Z15. H1
N50 G1 Z5. F500.
N55 G19 G3 Y50.192 Z2.5 J2.5 K0. F150.
N60 G1 Y103.75 Z1.604
N65 G17 G3 X33.5 Z1.525 I-1.5 J0.
N70 G1 Y33.75 Z0.354
N75 G3 X36.5 Z0.275 I1.5 J0.
N80 G1 Y103.75 Z-0.896
N85 G3 X33.5 Z-0.975 I-1.5 J0.
N90 G1 Y33.75 Z-2.146
N95 G3 X36.5 Z-2.225 I1.5 J0.
N100 G1 Y35.25 Z-2.25
N105 Y103.75 F500.
N110 G3 X33.5 I-1.5 J0.
N115 G1 Y33.75
N120 G3 X36.5 I1.5 J0.
N125 G1 Y35.25
N130 Y103.75 Z-3.396 F150.
N135 G3 X33.5 Z-3.475 I-1.5 J0.
N140 G1 Y42.48 Z-4.5
N145 Y33.75 F500.
N150 G3 X36.5 I1.5 J0.
N155 G1 Y103.75
N160 G3 X33.5 I-1.5 J0.
N165 G1 Y42.48
N170 Y33.75 Z-4.646 F150.
N175 G3 X36.5 Z-4.725 I1.5 J0.
N180 G1 Y103.75 Z-5.896
N185 G3 X33.5 Z-5.975 I-1.5 J0.
N190 G1 Y57.423 Z-6.75
N195 Y42.48 F500.
N200 Y33.75
N205 G3 X36.5 I1.5 J0.
N210 G1 Y103.75
N215 G3 X33.5 I-1.5 J0.
N220 G1 Y57.423
N225 Y33.75 Z-7.146 F150.
N230 G3 X36.5 Z-7.225 I1.5 J0.
N235 G1 Y103.75 Z-8.396
N240 G3 X33.5 Z-8.475 I-1.5 J0.
N245 G1 Y72.365 Z-9.
N250 Y33.75 F500.
N255 G3 X36.5 I1.5 J0.
N260 G1 Y103.75
N265 G3 X33.5 I-1.5 J0.
N270 G1 Y72.365
N275 G19 G2 Y69.865 Z-6.5 J0. K2.5
N280 G1 Z15.
N285 G17
N290 G53 G0 Z0.
N295 G53 G0 X0. Y0.
N300 M30
%
