%
(BUTTONS_CONTOUR_V1)
(MACHINE)
(  MODEL LASER SNAKE V2)
(  DESCRIPTION 3-AXIS ROUTER)
(T2  D=3.175 CR=0. - ZMIN=-12. - FLAT END MILL)
N10 G90 G94 G17 G91.1
N15 G21
(WHEN USING FUSION 360 FOR PERSONAL USE, THE FEEDRATE OF)
(RAPID MOVES IS REDUCED TO MATCH THE FEEDRATE OF CUTTING)
(MOVES, WHICH CAN INCREASE MACHINING TIME. UNRESTRICTED RAPID)
(MOVES ARE AVAILABLE WITH A FUSION 360 SUBSCRIPTION.)
N20 G53 G0 Z0.
(2D CONTOUR1)
N25 T2 M6
N30 S15000 M3
N35 G54
N40 G0 X-1.29 Y99.067
N45 G43 Z15. H2
N50 G1 Z5. F750.
N55 Z4. F150.
N60 Z-2.683
N65 G18 G2 X-0.973 Z-3. I0.317 K0. F750.
N70 G1 X-0.655
N75 G17 G2 X-0.338 Y98.75 I0. J-0.317
N80 G1 Y33.75
N85 G3 X70.338 I35.338 J0.
N90 G1 Y98.75
N95 G3 X-0.338 I-35.338 J0.
N100 G2 X-0.655 Y98.433 I-0.317 J0.
N105 G1 X-0.973
N110 G18 G3 X-1.29 Z-2.683 I0. K0.318
N115 G1 Z5.
N120 Y99.067
N125 Z1. F150.
N130 Z-5.683
N135 G2 X-0.973 Z-6. I0.317 K0. F750.
N140 G1 X-0.655
N145 G17 G2 X-0.338 Y98.75 I0. J-0.317
N150 G1 Y33.75
N155 G3 X70.338 I35.338 J0.
N160 G1 Y98.75
N165 G3 X-0.338 I-35.338 J0.
N170 G2 X-0.655 Y98.433 I-0.317 J0.
N175 G1 X-0.973
N180 G18 G3 X-1.29 Z-5.683 I0. K0.318
N185 G1 Z5.
N190 Y99.067
N195 Z-2. F150.
N200 Z-8.683
N205 G2 X-0.973 Z-9. I0.317 K0. F750.
N210 G1 X-0.655
N215 G17 G2 X-0.338 Y98.75 I0. J-0.317
N220 G1 Y33.75
N225 G3 X70.338 I35.338 J0.
N230 G1 Y98.75
N235 G3 X-0.338 I-35.338 J0.
N240 G2 X-0.655 Y98.433 I-0.317 J0.
N245 G1 X-0.973
N250 G18 G3 X-1.29 Z-8.683 I0. K0.318
N255 G1 Z5.
N260 Y99.067
N265 Z-5. F150.
N270 Z-11.683
N275 G2 X-0.973 Z-12. I0.317 K0. F750.
N280 G1 X-0.655
N285 G17 G2 X-0.338 Y98.75 I0. J-0.317
N290 G1 Y33.75
N295 G3 X70.338 I35.338 J0.
N300 G1 Y98.75
N305 G3 X-0.338 I-35.338 J0.
N310 G2 X-0.655 Y98.433 I-0.317 J0.
N315 G1 X-0.973
N320 G18 G3 X-1.29 Z-11.683 I0. K0.318
N325 G1 Z15.
N330 G17
N335 G53 G0 Z0.
N340 G53 G0 X0. Y0.
N345 M30
%
