%
(BUTTONS_POCKET_3MM_V1)
(MACHINE)
(  MODEL LASER SNAKE V2)
(  DESCRIPTION 3-AXIS ROUTER)
(T2  D=3.175 CR=0. - ZMIN=-9. - FLAT END MILL)
N10 G90 G94 G17 G91.1
N15 G21
(WHEN USING FUSION 360 FOR PERSONAL USE, THE FEEDRATE OF)
(RAPID MOVES IS REDUCED TO MATCH THE FEEDRATE OF CUTTING)
(MOVES, WHICH CAN INCREASE MACHINING TIME. UNRESTRICTED RAPID)
(MOVES ARE AVAILABLE WITH A FUSION 360 SUBSCRIPTION.)
N20 G53 G0 Z0.
(2D POCKET2 2)
N25 T2 M6
N30 S15000 M3
N35 G54
N40 G0 X34.852 Y104.969
N45 G43 Z15. H2
N50 G1 Z5. F500.
N55 Z2.817 F150.
N60 X34.87 Y104.955 Z2.698 F333.33
N65 X34.922 Y104.915 Z2.597
N70 X34.997 Y104.849 Z2.527
N75 G2 X35.08 Y104.765 Z2.5 I-1.033 J-1.099
N80 X32.849 Y102.735 Z2.335 I-1.115 J-1.015
N85 X35.08 Y104.765 Z2.169 I1.115 J1.015
N90 X32.849 Y102.735 Z2.004 I-1.115 J-1.015
N95 X35.08 Y104.765 Z1.838 I1.115 J1.015
N100 X32.849 Y102.735 Z1.673 I-1.115 J-1.015
N105 X35.08 Y104.765 Z1.507 I1.115 J1.015
N110 X32.849 Y102.735 Z1.342 I-1.115 J-1.015
N115 X35.08 Y104.765 Z1.176 I1.115 J1.015
N120 X32.849 Y102.735 Z1.011 I-1.115 J-1.015
N125 X35.08 Y104.765 Z0.845 I1.115 J1.015
N130 X32.849 Y102.735 Z0.68 I-1.115 J-1.015
N135 X35.08 Y104.765 Z0.515 I1.115 J1.015
N140 X32.849 Y102.735 Z0.349 I-1.115 J-1.015
N145 X35.08 Y104.765 Z0.184 I1.115 J1.015
N150 X32.849 Y102.735 Z0.018 I-1.115 J-1.015
N155 X35.08 Y104.765 Z-0.147 I1.115 J1.015
N160 X32.849 Y102.735 Z-0.313 I-1.115 J-1.015
N165 X35.08 Y104.765 Z-0.478 I1.115 J1.015
N170 X32.849 Y102.735 Z-0.644 I-1.115 J-1.015
N175 X35.08 Y104.765 Z-0.809 I1.115 J1.015
N180 X32.849 Y102.735 Z-0.974 I-1.115 J-1.015
N185 X35.08 Y104.765 Z-1.14 I1.115 J1.015
N190 X32.849 Y102.735 Z-1.305 I-1.115 J-1.015
N195 X35.08 Y104.765 Z-1.471 I1.115 J1.015
N200 X32.849 Y102.735 Z-1.636 I-1.115 J-1.015
N205 X35.08 Y104.765 Z-1.802 I1.115 J1.015
N210 X32.849 Y102.735 Z-1.967 I-1.115 J-1.015
N215 X35.08 Y104.765 Z-2.133 I1.115 J1.015
N220 X32.849 Y102.735 Z-2.298 I-1.115 J-1.015
N225 X35.08 Y104.765 Z-2.464 I1.115 J1.015
N230 X32.849 Y102.735 Z-2.629 I-1.115 J-1.015
N235 X35.08 Y104.765 Z-2.794 I1.115 J1.015
N240 X35.472 Y103.75 Z-2.833 I-1.115 J-1.015
N245 G1 Y33.75 F500.
N250 G2 X34.528 I-0.472 J0.
N255 G1 Y103.75
N260 G2 X35.472 I0.472 J0.
N265 G3 X36.002 Y102.955 I0.861 J0.
N270 G2 X36.533 Y102.16 I-0.331 J-0.795
N275 G1 Y33.75
N280 G2 X33.467 I-1.533 J0.
N285 G1 Y103.75
N290 G2 X36.533 I1.533 J0.
N295 G1 Y102.16
N300 G3 X37.435 Y100.806 I1.467 J0.
N305 G2 X38.338 Y99.452 I-0.564 J-1.354
N310 G1 Y33.75
N315 G2 X31.663 I-3.338 J0.
N320 G1 Y103.75
N325 G2 X38.338 I3.337 J0.
N330 G1 Y99.452
N335 G3 X39.24 Y98.098 I1.467 J0.
N340 G2 X40.143 Y96.745 I-0.564 J-1.354
N345 G1 Y33.75
N350 G2 X29.858 I-5.143 J0.
N355 G1 Y103.75
N360 G2 X40.143 I5.142 J0.
N365 G1 Y96.745
N370 G3 X41.045 Y95.391 I1.467 J0.
N375 G2 X41.947 Y94.037 I-0.564 J-1.354
N380 G1 Y33.75
N385 G2 X28.052 I-6.947 J0.
N390 G1 Y103.75
N395 G2 X41.947 I6.948 J0.
N400 G1 Y94.037
N405 G3 X42.85 Y92.683 I1.467 J0.
N410 G2 X43.752 Y91.33 I-0.564 J-1.354
N415 G1 Y33.75
N420 G2 X26.247 I-8.752 J0.
N425 G1 Y103.75
N430 G2 X43.752 I8.753 J0.
N435 G1 Y91.33
N440 G3 X44.655 Y89.976 I1.467 J0.
N445 G2 X45.557 Y88.622 I-0.564 J-1.354
N450 G1 Y33.75
N455 G2 X24.442 I-10.557 J0.
N460 G1 Y103.75
N465 G2 X45.557 I10.558 J0.
N470 G1 Y88.622
N475 G3 X46.485 Y87.231 I1.507 J0.
N480 G2 X47.412 Y85.84 I-0.58 J-1.391
N485 G1 Y33.75
N490 G2 X22.587 I-12.412 J0.
N495 G1 Y103.75
N500 G2 X47.412 I12.413 J0.
N505 G1 Y85.84
N510 G2 X47.162 Y85.71 I-0.159 J0.
N515 G1 X46.106 Y86.47
N520 X32.882 Y103.093
N525 X32.861 Y103.111
N530 X32.834 Y103.118
N535 X32.628 Y103.132
N540 X32.604 Y103.138
N545 X32.584 Y103.153
N550 X32.57 Y103.174
N555 G2 X35.358 Y104.326 Z-2.999 I1.394 J0.576 F333.33
N560 X32.57 Y103.174 Z-3.164 I-1.394 J-0.576
N565 X35.358 Y104.326 Z-3.33 I1.394 J0.576
N570 X32.57 Y103.174 Z-3.495 I-1.394 J-0.576
N575 X35.358 Y104.326 Z-3.661 I1.394 J0.576
N580 X32.57 Y103.174 Z-3.826 I-1.394 J-0.576
N585 X35.358 Y104.326 Z-3.991 I1.394 J0.576
N590 X32.57 Y103.174 Z-4.157 I-1.394 J-0.576
N595 X35.358 Y104.326 Z-4.322 I1.394 J0.576
N600 X32.57 Y103.174 Z-4.488 I-1.394 J-0.576
N605 X35.358 Y104.326 Z-4.653 I1.394 J0.576
N610 X32.57 Y103.174 Z-4.819 I-1.394 J-0.576
N615 X35.358 Y104.326 Z-4.984 I1.394 J0.576
N620 X32.57 Y103.174 Z-5.15 I-1.394 J-0.576
N625 X35.358 Y104.326 Z-5.315 I1.394 J0.576
N630 X32.57 Y103.174 Z-5.481 I-1.394 J-0.576
N635 X35.358 Y104.326 Z-5.646 I1.394 J0.576
N640 X35.472 Y103.75 Z-5.667 I-1.394 J-0.576
N645 G1 Y33.75 F500.
N650 G2 X34.528 I-0.472 J0.
N655 G1 Y103.75
N660 G2 X35.472 I0.472 J0.
N665 G3 X36.002 Y102.955 I0.861 J0.
N670 G2 X36.533 Y102.16 I-0.331 J-0.795
N675 G1 Y33.75
N680 G2 X33.467 I-1.533 J0.
N685 G1 Y103.75
N690 G2 X36.533 I1.533 J0.
N695 G1 Y102.16
N700 G3 X37.435 Y100.806 I1.467 J0.
N705 G2 X38.338 Y99.452 I-0.564 J-1.354
N710 G1 Y33.75
N715 G2 X31.663 I-3.338 J0.
N720 G1 Y103.75
N725 G2 X38.338 I3.337 J0.
N730 G1 Y99.452
N735 G3 X39.24 Y98.098 I1.467 J0.
N740 G2 X40.143 Y96.745 I-0.564 J-1.354
N745 G1 Y33.75
N750 G2 X29.858 I-5.143 J0.
N755 G1 Y103.75
N760 G2 X40.143 I5.142 J0.
N765 G1 Y96.745
N770 G3 X41.045 Y95.391 I1.467 J0.
N775 G2 X41.947 Y94.037 I-0.564 J-1.354
N780 G1 Y33.75
N785 G2 X28.052 I-6.947 J0.
N790 G1 Y103.75
N795 G2 X41.947 I6.948 J0.
N800 G1 Y94.037
N805 G3 X42.85 Y92.683 I1.467 J0.
N810 G2 X43.752 Y91.33 I-0.564 J-1.354
N815 G1 Y33.75
N820 G2 X26.247 I-8.752 J0.
N825 G1 Y103.75
N830 G2 X43.752 I8.753 J0.
N835 G1 Y91.33
N840 G3 X44.655 Y89.976 I1.467 J0.
N845 G2 X45.557 Y88.622 I-0.564 J-1.354
N850 G1 Y33.75
N855 G2 X24.442 I-10.557 J0.
N860 G1 Y103.75
N865 G2 X45.557 I10.558 J0.
N870 G1 Y88.622
N875 G3 X46.485 Y87.231 I1.507 J0.
N880 G2 X47.412 Y85.84 I-0.58 J-1.391
N885 G1 Y33.75
N890 G2 X22.587 I-12.412 J0.
N895 G1 Y103.75
N900 G2 X47.412 I12.413 J0.
N905 G1 Y85.84
N910 G2 X47.162 Y85.71 I-0.159 J0.
N915 G1 X46.106 Y86.47
N920 X32.882 Y103.093
N925 X32.861 Y103.111
N930 X32.834 Y103.118
N935 X32.628 Y103.132
N940 X32.604 Y103.138
N945 X32.584 Y103.153
N950 X32.57 Y103.174
N955 G2 X35.358 Y104.326 Z-5.832 I1.394 J0.576 F333.33
N960 X32.57 Y103.174 Z-5.998 I-1.394 J-0.576
N965 X35.358 Y104.326 Z-6.163 I1.394 J0.576
N970 X32.57 Y103.174 Z-6.328 I-1.394 J-0.576
N975 X35.358 Y104.326 Z-6.494 I1.394 J0.576
N980 X32.57 Y103.174 Z-6.659 I-1.394 J-0.576
N985 X35.358 Y104.326 Z-6.825 I1.394 J0.576
N990 X32.57 Y103.174 Z-6.99 I-1.394 J-0.576
N995 X35.358 Y104.326 Z-7.156 I1.394 J0.576
N1000 X32.57 Y103.174 Z-7.321 I-1.394 J-0.576
N1005 X35.358 Y104.326 Z-7.487 I1.394 J0.576
N1010 X32.57 Y103.174 Z-7.652 I-1.394 J-0.576
N1015 X35.358 Y104.326 Z-7.818 I1.394 J0.576
N1020 X32.57 Y103.174 Z-7.983 I-1.394 J-0.576
N1025 X35.358 Y104.326 Z-8.148 I1.394 J0.576
N1030 X32.57 Y103.174 Z-8.314 I-1.394 J-0.576
N1035 X35.358 Y104.326 Z-8.479 I1.394 J0.576
N1040 X35.472 Y103.75 Z-8.5 I-1.394 J-0.576
N1045 G1 Y33.75 F500.
N1050 G2 X34.528 I-0.472 J0.
N1055 G1 Y103.75
N1060 G2 X35.472 I0.472 J0.
N1065 G3 X36.002 Y102.955 I0.861 J0.
N1070 G2 X36.533 Y102.16 I-0.331 J-0.795
N1075 G1 Y33.75
N1080 G2 X33.467 I-1.533 J0.
N1085 G1 Y103.75
N1090 G2 X36.533 I1.533 J0.
N1095 G1 Y102.16
N1100 G3 X37.435 Y100.806 I1.467 J0.
N1105 G2 X38.338 Y99.452 I-0.564 J-1.354
N1110 G1 Y33.75
N1115 G2 X31.663 I-3.338 J0.
N1120 G1 Y103.75
N1125 G2 X38.338 I3.337 J0.
N1130 G1 Y99.452
N1135 G3 X39.24 Y98.098 I1.467 J0.
N1140 G2 X40.143 Y96.745 I-0.564 J-1.354
N1145 G1 Y33.75
N1150 G2 X29.858 I-5.143 J0.
N1155 G1 Y103.75
N1160 G2 X40.143 I5.142 J0.
N1165 G1 Y96.745
N1170 G3 X41.045 Y95.391 I1.467 J0.
N1175 G2 X41.947 Y94.037 I-0.564 J-1.354
N1180 G1 Y33.75
N1185 G2 X28.052 I-6.947 J0.
N1190 G1 Y103.75
N1195 G2 X41.947 I6.948 J0.
N1200 G1 Y94.037
N1205 G3 X42.85 Y92.683 I1.467 J0.
N1210 G2 X43.752 Y91.33 I-0.564 J-1.354
N1215 G1 Y33.75
N1220 G2 X26.247 I-8.752 J0.
N1225 G1 Y103.75
N1230 G2 X43.752 I8.753 J0.
N1235 G1 Y91.33
N1240 G3 X44.655 Y89.976 I1.467 J0.
N1245 G2 X45.557 Y88.622 I-0.564 J-1.354
N1250 G1 Y33.75
N1255 G2 X24.442 I-10.557 J0.
N1260 G1 Y103.75
N1265 G2 X45.557 I10.558 J0.
N1270 G1 Y88.622
N1275 G3 X46.485 Y87.231 I1.507 J0.
N1280 G2 X47.412 Y85.84 I-0.58 J-1.391
N1285 G1 Y33.75
N1290 G2 X22.587 I-12.412 J0.
N1295 G1 Y103.75
N1300 G2 X47.412 I12.413 J0.
N1305 G1 Y85.84
N1310 G2 X44.469 Y85.378 Z-8.575 I-1.508 J0. F333.33
N1315 G1 X38.416 Y104.211 Z-8.925
N1320 G3 X35.472 Y103.75 Z-9. I-1.436 J-0.461
N1325 G1 Y33.75 F500.
N1330 G2 X34.528 I-0.472 J0.
N1335 G1 Y103.75
N1340 G2 X35.472 I0.472 J0.
N1345 G3 X36.002 Y102.955 I0.861 J0.
N1350 G2 X36.533 Y102.16 I-0.331 J-0.795
N1355 G1 Y33.75
N1360 G2 X33.467 I-1.533 J0.
N1365 G1 Y103.75
N1370 G2 X36.533 I1.533 J0.
N1375 G1 Y102.16
N1380 G3 X37.435 Y100.806 I1.467 J0.
N1385 G2 X38.338 Y99.452 I-0.564 J-1.354
N1390 G1 Y33.75
N1395 G2 X31.663 I-3.338 J0.
N1400 G1 Y103.75
N1405 G2 X38.338 I3.337 J0.
N1410 G1 Y99.452
N1415 G3 X39.24 Y98.098 I1.467 J0.
N1420 G2 X40.143 Y96.745 I-0.564 J-1.354
N1425 G1 Y33.75
N1430 G2 X29.858 I-5.143 J0.
N1435 G1 Y103.75
N1440 G2 X40.143 I5.142 J0.
N1445 G1 Y96.745
N1450 G3 X41.045 Y95.391 I1.467 J0.
N1455 G2 X41.947 Y94.037 I-0.564 J-1.354
N1460 G1 Y33.75
N1465 G2 X28.052 I-6.947 J0.
N1470 G1 Y103.75
N1475 G2 X41.947 I6.948 J0.
N1480 G1 Y94.037
N1485 G3 X42.85 Y92.683 I1.467 J0.
N1490 G2 X43.752 Y91.33 I-0.564 J-1.354
N1495 G1 Y33.75
N1500 G2 X26.247 I-8.752 J0.
N1505 G1 Y103.75
N1510 G2 X43.752 I8.753 J0.
N1515 G1 Y91.33
N1520 G3 X44.655 Y89.976 I1.467 J0.
N1525 G2 X45.557 Y88.622 I-0.564 J-1.354
N1530 G1 Y33.75
N1535 G2 X24.442 I-10.557 J0.
N1540 G1 Y103.75
N1545 G2 X45.557 I10.558 J0.
N1550 G1 Y88.622
N1555 G3 X46.485 Y87.231 I1.507 J0.
N1560 G2 X47.412 Y85.84 I-0.58 J-1.391
N1565 G1 Y33.75
N1570 G2 X22.587 I-12.412 J0.
N1575 G1 Y103.75
N1580 G2 X47.412 I12.413 J0.
N1585 G1 Y85.84
N1590 G2 X47.39 Y85.721 Z-8.976 I-0.317 J0.
N1595 X47.336 Y85.633 Z-8.907 I-0.295 J0.119
N1600 G1 X47.286 Y85.586 Z-8.804
N1605 X47.267 Y85.572 Z-8.682
N1610 Z15.
N1615 G53 G0 Z0.
N1620 G53 G0 X0. Y0.
N1625 M30
%
