%
(BUTTONS_BORE_V1)
(MACHINE)
(  MODEL LASER SNAKE V2)
(  DESCRIPTION 3-AXIS ROUTER)
(T2  D=3.175 CR=0. - ZMIN=-12. - FLAT END MILL)
N10 G90 G94 G17 G91.1
N15 G21
(WHEN USING FUSION 360 FOR PERSONAL USE, THE FEEDRATE OF)
(RAPID MOVES IS REDUCED TO MATCH THE FEEDRATE OF CUTTING)
(MOVES, WHICH CAN INCREASE MACHINING TIME. UNRESTRICTED RAPID)
(MOVES ARE AVAILABLE WITH A FUSION 360 SUBSCRIPTION.)
N20 G53 G0 Z0.
(BORE1)
N25 T2 M6
N30 S15000 M3
N35 G54
N40 M8
N45 G0 X35.318 Y107.369
N50 G43 Z15. H2
N55 G1 Z-7. F500.
N60 Z-8.682
N65 G19 G3 Y107.686 Z-9. J0.317 K0.
N70 G1 Y107.845
N75 G17 G3 X35. Y108.162 I-0.318 J0.
N80 Y99.338 Z-9.21 I0. J-4.412
N85 Y108.162 Z-9.419 I0. J4.412
N90 Y99.338 Z-9.629 I0. J-4.412
N95 Y108.162 Z-9.838 I0. J4.412
N100 Y99.338 Z-10.048 I0. J-4.412
N105 Y108.162 Z-10.257 I0. J4.412
N110 Y99.337 Z-10.467 I0. J-4.412
N115 Y108.163 Z-10.676 I0. J4.413
N120 Y99.337 Z-10.886 I0. J-4.413
N125 Y108.163 Z-11.095 I0. J4.413
N130 Y99.337 Z-11.305 I0. J-4.413
N135 Y108.163 Z-11.514 I0. J4.413
N140 Y99.337 Z-11.724 I0. J-4.413
N145 Y108.163 Z-11.933 I0. J4.413
N150 X31.288 Y106.136 Z-12. I0. J-4.413
N155 X38.712 Y101.364 I3.712 J-2.386
N160 X31.288 Y106.136 I-3.712 J2.386
N165 X31.384 Y105.697 I0.267 J-0.172
N170 G1 X31.517 Y105.612
N175 X31.577 Y105.573 Z-11.992
N180 X31.633 Y105.537 Z-11.969
N185 X31.684 Y105.505 Z-11.931
N190 X31.726 Y105.477 Z-11.88
N195 X31.758 Y105.457 Z-11.82
N200 X31.778 Y105.444 Z-11.753
N205 X31.784 Y105.44 Z-11.682
N210 Z5.
N215 X35.318 Y72.369
N220 Z-7.
N225 Z-8.682
N230 G19 G3 Y72.686 Z-9. J0.317 K0.
N235 G1 Y72.845
N240 G17 G3 X35. Y73.162 I-0.318 J0.
N245 Y64.338 Z-9.21 I0. J-4.412
N250 Y73.162 Z-9.419 I0. J4.412
N255 Y64.338 Z-9.629 I0. J-4.412
N260 Y73.162 Z-9.838 I0. J4.412
N265 Y64.338 Z-10.048 I0. J-4.412
N270 Y73.162 Z-10.257 I0. J4.412
N275 Y64.337 Z-10.467 I0. J-4.412
N280 Y73.163 Z-10.676 I0. J4.413
N285 Y64.337 Z-10.886 I0. J-4.413
N290 Y73.163 Z-11.095 I0. J4.413
N295 Y64.337 Z-11.305 I0. J-4.413
N300 Y73.163 Z-11.514 I0. J4.413
N305 Y64.337 Z-11.724 I0. J-4.413
N310 Y73.163 Z-11.933 I0. J4.413
N315 X31.288 Y71.136 Z-12. I0. J-4.413
N320 X38.712 Y66.364 I3.712 J-2.386
N325 X31.288 Y71.136 I-3.712 J2.386
N330 X31.384 Y70.697 I0.267 J-0.172
N335 G1 X31.517 Y70.612
N340 X31.577 Y70.573 Z-11.992
N345 X31.633 Y70.537 Z-11.969
N350 X31.684 Y70.505 Z-11.931
N355 X31.726 Y70.477 Z-11.88
N360 X31.758 Y70.457 Z-11.82
N365 X31.778 Y70.444 Z-11.753
N370 X31.784 Y70.44 Z-11.682
N375 Z5.
N380 X35.318 Y37.369
N385 Z-7.
N390 Z-8.682
N395 G19 G3 Y37.686 Z-9. J0.317 K0.
N400 G1 Y37.845
N405 G17 G3 X35. Y38.162 I-0.318 J0.
N410 Y29.338 Z-9.21 I0. J-4.412
N415 Y38.162 Z-9.419 I0. J4.412
N420 Y29.338 Z-9.629 I0. J-4.412
N425 Y38.162 Z-9.838 I0. J4.412
N430 Y29.338 Z-10.048 I0. J-4.412
N435 Y38.162 Z-10.257 I0. J4.412
N440 Y29.337 Z-10.467 I0. J-4.412
N445 Y38.163 Z-10.676 I0. J4.413
N450 Y29.337 Z-10.886 I0. J-4.413
N455 Y38.163 Z-11.095 I0. J4.413
N460 Y29.337 Z-11.305 I0. J-4.413
N465 Y38.163 Z-11.514 I0. J4.413
N470 Y29.337 Z-11.724 I0. J-4.413
N475 Y38.163 Z-11.933 I0. J4.413
N480 X31.288 Y36.136 Z-12. I0. J-4.413
N485 X38.712 Y31.364 I3.712 J-2.386
N490 X31.288 Y36.136 I-3.712 J2.386
N495 X31.384 Y35.697 I0.267 J-0.172
N500 G1 X31.517 Y35.612
N505 X31.577 Y35.573 Z-11.992
N510 X31.633 Y35.537 Z-11.969
N515 X31.684 Y35.505 Z-11.931
N520 X31.726 Y35.477 Z-11.88
N525 X31.758 Y35.457 Z-11.82
N530 X31.778 Y35.444 Z-11.753
N535 X31.784 Y35.44 Z-11.682
N540 Z15.
N545 M9
N550 G53 G0 Z0.
N555 G53 G0 X0. Y0.
N560 M30
%
