%
(CB_FACE_001)
(MACHINE)
(  MODEL LASER SNAKE V2)
(  DESCRIPTION 3-AXIS ROUTER)
(T1  D=25. CR=0. - ZMIN=-19. - FLAT END MILL)
N10 G90 G94 G17 G91.1
N15 G21
(WHEN USING FUSION 360 FOR PERSONAL USE, THE FEEDRATE OF)
(RAPID MOVES IS REDUCED TO MATCH THE FEEDRATE OF CUTTING)
(MOVES, WHICH CAN INCREASE MACHINING TIME. UNRESTRICTED RAPID)
(MOVES ARE AVAILABLE WITH A FUSION 360 SUBSCRIPTION.)
N20 G53 G0 Z0.
(FACE1)
N25 T1 M6
N30 S18000 M3
N35 G54
N40 G0 X202.5 Y4.857
N45 G43 Z15. H1
N50 G1 Z5. F700.
N55 Z0. F150.
N60 G18 G3 X200. Z-2.5 I-2.5 K0. F500.
N65 G1 X-20. F700.
N70 G17 G2 Y22.039 I0. J8.591
N75 G1 X200.
N80 G3 Y39.221 I0. J8.591
N85 G1 X-20.
N90 G2 Y56.404 I0. J8.591
N95 G1 X200.
N100 G3 Y73.586 I0. J8.591
N105 G1 X-20.
N110 G2 Y90.768 I0. J8.591
N115 G1 X200.
N120 G3 Y107.95 I0. J8.591
N125 G1 X-20.
N130 G18 G3 X-22.5 Z0. I0. K2.5 F500.
N135 G1 Z5. F700.
N140 Y4.857
N145 Z-4. F150.
N150 G2 X-20. Z-6.5 I2.5 K0. F500.
N155 G1 X200. F700.
N160 G17 G3 Y22.039 I0. J8.591
N165 G1 X-20.
N170 G2 Y39.221 I0. J8.591
N175 G1 X200.
N180 G3 Y56.404 I0. J8.591
N185 G1 X-20.
N190 G2 Y73.586 I0. J8.591
N195 G1 X200.
N200 G3 Y90.768 I0. J8.591
N205 G1 X-20.
N210 G2 Y107.95 I0. J8.591
N215 G1 X200.
N220 G18 G2 X202.5 Z-4. I0. K2.5 F500.
N225 G1 Z5. F700.
N230 Y4.857
N235 Z-8. F150.
N240 G3 X200. Z-10.5 I-2.5 K0. F500.
N245 G1 X-20. F700.
N250 G17 G2 Y22.039 I0. J8.591
N255 G1 X200.
N260 G3 Y39.221 I0. J8.591
N265 G1 X-20.
N270 G2 Y56.404 I0. J8.591
N275 G1 X200.
N280 G3 Y73.586 I0. J8.591
N285 G1 X-20.
N290 G2 Y90.768 I0. J8.591
N295 G1 X200.
N300 G3 Y107.95 I0. J8.591
N305 G1 X-20.
N310 G18 G3 X-22.5 Z-8. I0. K2.5 F500.
N315 G1 Z5. F700.
N320 Y4.857
N325 Z-12. F150.
N330 G2 X-20. Z-14.5 I2.5 K0. F500.
N335 G1 X200. F700.
N340 G17 G3 Y22.039 I0. J8.591
N345 G1 X-20.
N350 G2 Y39.221 I0. J8.591
N355 G1 X200.
N360 G3 Y56.404 I0. J8.591
N365 G1 X-20.
N370 G2 Y73.586 I0. J8.591
N375 G1 X200.
N380 G3 Y90.768 I0. J8.591
N385 G1 X-20.
N390 G2 Y107.95 I0. J8.591
N395 G1 X200.
N400 G18 G2 X202.5 Z-12. I0. K2.5 F500.
N405 G1 Z5. F700.
N410 Y4.857
N415 Z-16. F150.
N420 G3 X200. Z-18.5 I-2.5 K0. F500.
N425 G1 X-20. F700.
N430 G17 G2 Y22.039 I0. J8.591
N435 G1 X200.
N440 G3 Y39.221 I0. J8.591
N445 G1 X-20.
N450 G2 Y56.404 I0. J8.591
N455 G1 X200.
N460 G3 Y73.586 I0. J8.591
N465 G1 X-20.
N470 G2 Y90.768 I0. J8.591
N475 G1 X200.
N480 G3 Y107.95 I0. J8.591
N485 G1 X-20.
N490 G18 G3 X-22.5 Z-16. I0. K2.5 F500.
N495 G1 Z5. F700.
N500 Y4.857
N505 Z-16.5 F150.
N510 G2 X-20. Z-19. I2.5 K0. F500.
N515 G1 X200. F700.
N520 G17 G3 Y22.039 I0. J8.591
N525 G1 X-20.
N530 G2 Y39.221 I0. J8.591
N535 G1 X200.
N540 G3 Y56.404 I0. J8.591
N545 G1 X-20.
N550 G2 Y73.586 I0. J8.591
N555 G1 X200.
N560 G3 Y90.768 I0. J8.591
N565 G1 X-20.
N570 G2 Y107.95 I0. J8.591
N575 G1 X200.
N580 G18 G2 X202.5 Z-16.5 I0. K2.5 F500.
N585 G1 Z15. F700.
N590 G17
N595 G53 G0 Z0.
N600 G53 G0 X0. Y0.
N605 M30
%
