%
(1001)
(T5  D=19.05 CR=9.525 - ZMIN=-108. - BALL END MILL)
N10 G90 G94 G17 G91.1
N15 G21
N20 G53 G0 Z0.
(2D CONTOUR1)
N25 M9
N30 T5 M6
N35 S24000 M3
N40 G54
N45 G0 X215.324 Y1702.998
N50 G43 Z26. H5
N55 G1 Z-25. F333.33
N60 X216.163 Y1701.04 F5000.
N65 X216.233 Y1700.871
N70 X222.371 Y1685.741
N75 X222.433 Y1685.584
N80 X228.281 Y1670.404
N85 X228.335 Y1670.262
N90 X233.906 Y1655.082
N95 X233.955 Y1654.945
N100 X239.262 Y1639.775
N105 X239.304 Y1639.651
N110 X244.36 Y1624.531
N115 X244.4 Y1624.409
N120 X249.218 Y1609.329
N125 X249.255 Y1609.212
N130 X253.845 Y1594.182
N135 X253.879 Y1594.065
N140 X258.251 Y1579.065
N145 X258.286 Y1578.942
N150 X262.446 Y1563.922
N155 X262.48 Y1563.797
N160 X266.436 Y1548.717
N165 X266.471 Y1548.58
N170 X270.224 Y1533.36
N175 X270.258 Y1533.217
N180 X273.812 Y1517.777
N185 X273.846 Y1517.625
N190 X277.201 Y1501.875
N195 X277.233 Y1501.717
N200 X280.389 Y1485.567
N205 X280.419 Y1485.406
N210 X283.376 Y1468.756
N215 X283.403 Y1468.595
N220 X286.16 Y1451.365
N225 X286.185 Y1451.205
N230 X288.739 Y1433.295
N235 X288.759 Y1433.142
N240 X291.111 Y1414.492
N245 X291.128 Y1414.346
N250 X293.276 Y1394.906
N255 X293.291 Y1394.768
N260 X295.235 Y1374.478
N265 X295.246 Y1374.353
N270 X296.988 Y1353.223
N275 X296.997 Y1353.106
N280 X298.539 Y1331.116
N285 X298.545 Y1331.011
N290 X299.889 Y1308.221
N295 X301.046 Y1284.565
N300 X302.013 Y1260.218
N305 X302.795 Y1235.279
N310 X303.402 Y1209.827
N315 X303.839 Y1183.961
N320 X304.112 Y1157.8
N325 X304.231 Y1131.463
N330 X304.201 Y1105.049
N335 X304.031 Y1078.688
N340 X303.725 Y1052.469
N345 X303.294 Y1026.502
N350 X302.741 Y1000.875
N355 X302.074 Y975.673
N360 X301.295 Y950.951
N365 X300.41 Y926.758
N370 X299.422 Y903.115
N375 X298.332 Y880.027
N380 X297.144 Y857.479
N385 X295.856 Y835.44
N390 X294.467 Y813.866
N395 X292.979 Y792.703
N400 X291.388 Y771.892
N405 X289.695 Y751.365
N410 X287.896 Y731.055
N415 X285.989 Y710.894
N420 X283.972 Y690.82
N425 X281.845 Y670.775
N430 X279.602 Y650.706
N435 X277.243 Y630.579
N440 X274.766 Y610.369
N445 X272.17 Y590.069
N450 X269.455 Y569.689
N455 X266.618 Y549.252
N460 X263.66 Y528.8
N465 X260.583 Y508.379
N470 X257.385 Y488.044
N475 X254.071 Y467.86
N480 X250.64 Y447.888
N485 X247.097 Y428.197
N490 X243.445 Y408.847
N495 X239.686 Y389.897
N500 X235.826 Y371.399
N505 X235.805 Y371.301
N510 X231.871 Y353.396
N515 X231.848 Y353.292
N520 X227.825 Y335.916
N525 X227.799 Y335.807
N530 X223.695 Y318.978
N535 X223.667 Y318.868
N540 X219.489 Y302.584
N545 X219.46 Y302.473
N550 X215.216 Y286.721
N555 X215.185 Y286.61
N560 X210.879 Y271.367
N565 X210.848 Y271.259
N570 X206.488 Y256.491
N575 X206.456 Y256.384
N580 X202.042 Y242.052
N585 X202.01 Y241.95
N590 X197.544 Y228.012
N595 X197.511 Y227.911
N600 X192.99 Y214.322
N605 X192.956 Y214.222
N610 X188.373 Y200.939
N615 X188.337 Y200.837
N620 X183.68 Y187.82
N625 X183.641 Y187.714
N630 X178.894 Y174.929
N635 X178.85 Y174.811
N640 X173.99 Y162.233
N645 X173.938 Y162.101
N650 X168.938 Y149.711
N655 X168.875 Y149.56
N660 X163.702 Y137.35
N665 X163.628 Y137.179
N670 X158.25 Y125.146
N675 X158.162 Y124.955
N680 X152.546 Y113.099
N685 X152.443 Y112.888
N690 X146.556 Y101.214
N695 G2 X146.437 Y100.987 I-8.505 J4.289
N700 G1 X140.252 Y89.501
N705 G2 X140.12 Y89.263 I-8.386 J4.516
N710 G1 X133.616 Y77.972
N715 G2 X133.47 Y77.727 I-8.254 J4.754
N720 G1 X126.631 Y66.635
N725 G2 X118.523 Y62.11 I-8.108 J4.999
N730 G1 X75.
N735 G3 X59.525 Y46.634 I0. J-15.475
N740 G1 Y-50.
N745 G2 X50. Y-59.525 I-9.525 J0.
N750 G1 X-50.
N755 G2 X-59.525 Y-50. I0. J9.525
N760 G1 Y46.634
N765 G3 X-75. Y62.11 I-15.475 J0.
N770 G1 X-118.523
N775 G2 X-126.631 Y66.635 I0. J9.525
N780 G1 X-133.47 Y77.727
N785 G2 X-133.616 Y77.972 I8.108 J4.999
N790 G1 X-140.12 Y89.263
N795 G2 X-140.252 Y89.501 I8.254 J4.754
N800 G1 X-146.437 Y100.987
N805 G2 X-146.556 Y101.214 I8.386 J4.516
N810 G1 X-152.443 Y112.888
N815 X-152.546 Y113.099
N820 X-158.162 Y124.955
N825 X-158.25 Y125.146
N830 X-163.628 Y137.179
N835 X-163.702 Y137.35
N840 X-168.875 Y149.56
N845 X-168.938 Y149.711
N850 X-173.938 Y162.101
N855 X-173.99 Y162.233
N860 X-178.85 Y174.811
N865 X-178.894 Y174.929
N870 X-183.641 Y187.714
N875 X-183.68 Y187.82
N880 X-188.337 Y200.837
N885 X-188.373 Y200.939
N890 X-192.956 Y214.222
N895 X-192.99 Y214.322
N900 X-197.511 Y227.911
N905 X-197.544 Y228.012
N910 X-202.01 Y241.95
N915 X-202.042 Y242.052
N920 X-206.456 Y256.384
N925 X-206.488 Y256.491
N930 X-210.848 Y271.259
N935 X-210.879 Y271.367
N940 X-215.185 Y286.61
N945 X-215.216 Y286.721
N950 X-219.46 Y302.473
N955 X-219.489 Y302.584
N960 X-223.667 Y318.868
N965 X-223.695 Y318.978
N970 X-227.799 Y335.807
N975 X-227.825 Y335.916
N980 X-231.848 Y353.292
N985 X-231.871 Y353.396
N990 X-235.805 Y371.301
N995 X-235.826 Y371.399
N1000 X-239.667 Y389.804
N1005 X-243.428 Y408.761
N1010 X-247.083 Y428.117
N1015 X-250.627 Y447.814
N1020 X-254.059 Y467.79
N1025 X-257.375 Y487.981
N1030 X-260.573 Y508.318
N1035 X-263.652 Y528.744
N1040 X-266.61 Y549.199
N1045 X-269.448 Y569.637
N1050 X-272.164 Y590.019
N1055 X-274.76 Y610.32
N1060 X-277.237 Y630.529
N1065 X-279.596 Y650.655
N1070 X-281.839 Y670.722
N1075 X-283.967 Y690.767
N1080 X-285.983 Y710.839
N1085 X-287.891 Y730.998
N1090 X-289.69 Y751.308
N1095 X-291.384 Y771.835
N1100 X-292.974 Y792.646
N1105 X-294.464 Y813.81
N1110 X-295.852 Y835.384
N1115 X-297.141 Y857.425
N1120 X-298.33 Y879.974
N1125 X-299.419 Y903.064
N1130 X-300.408 Y926.708
N1135 X-301.294 Y950.903
N1140 X-302.072 Y975.625
N1145 X-302.74 Y1000.828
N1150 X-303.293 Y1026.454
N1155 X-303.725 Y1052.422
N1160 X-304.03 Y1078.639
N1165 X-304.201 Y1104.998
N1170 X-304.231 Y1131.409
N1175 X-304.113 Y1157.743
N1180 X-303.839 Y1183.9
N1185 X-303.404 Y1209.761
N1190 X-302.797 Y1235.207
N1195 X-302.015 Y1260.139
N1200 X-301.049 Y1284.478
N1205 X-299.895 Y1308.125
N1210 X-298.545 Y1331.011
N1215 X-298.539 Y1331.116
N1220 X-296.997 Y1353.106
N1225 X-296.988 Y1353.223
N1230 X-295.246 Y1374.353
N1235 X-295.235 Y1374.478
N1240 X-293.291 Y1394.768
N1245 X-293.276 Y1394.906
N1250 X-291.128 Y1414.346
N1255 X-291.111 Y1414.492
N1260 X-288.759 Y1433.142
N1265 X-288.739 Y1433.295
N1270 X-286.185 Y1451.205
N1275 X-286.16 Y1451.365
N1280 X-283.403 Y1468.595
N1285 X-283.376 Y1468.756
N1290 X-280.419 Y1485.406
N1295 X-280.389 Y1485.567
N1300 X-277.233 Y1501.717
N1305 X-277.201 Y1501.875
N1310 X-273.846 Y1517.625
N1315 X-273.812 Y1517.777
N1320 X-270.258 Y1533.217
N1325 X-270.224 Y1533.36
N1330 X-266.471 Y1548.58
N1335 X-266.436 Y1548.717
N1340 X-262.48 Y1563.797
N1345 X-262.446 Y1563.922
N1350 X-258.286 Y1578.942
N1355 X-258.251 Y1579.065
N1360 X-253.879 Y1594.065
N1365 X-253.845 Y1594.182
N1370 X-249.255 Y1609.212
N1375 X-249.218 Y1609.329
N1380 X-244.4 Y1624.409
N1385 X-244.36 Y1624.531
N1390 X-239.304 Y1639.651
N1395 X-239.262 Y1639.775
N1400 X-233.955 Y1654.945
N1405 X-233.906 Y1655.082
N1410 X-228.335 Y1670.262
N1415 X-228.281 Y1670.404
N1420 X-222.433 Y1685.584
N1425 X-222.371 Y1685.741
N1430 X-216.233 Y1700.871
N1435 X-216.163 Y1701.04
N1440 X-209.721 Y1716.08
N1445 X-209.64 Y1716.263
N1450 X-202.881 Y1731.173
N1455 X-202.789 Y1731.371
N1460 X-195.7 Y1746.101
N1465 X-195.597 Y1746.308
N1470 X-188.168 Y1760.828
N1475 X-188.053 Y1761.046
N1480 X-180.275 Y1775.326
N1485 G2 X-180.144 Y1775.558 I8.365 J-4.556
N1490 G1 X-172.008 Y1789.548
N1495 G2 X-171.868 Y1789.781 I8.234 J-4.788
N1500 G1 X-163.369 Y1803.481
N1505 G2 X-163.213 Y1803.725 I8.094 J-5.021
N1510 G1 X-154.345 Y1817.095
N1515 G2 X-154.177 Y1817.34 I7.938 J-5.265
N1520 G1 X-144.937 Y1830.37
N1525 G2 X-144.759 Y1830.612 I7.77 J-5.51
N1530 G1 X-135.144 Y1843.302
N1535 G2 X-134.952 Y1843.547 I7.592 J-5.752
N1540 G1 X-124.96 Y1855.877
N1545 G2 X-124.759 Y1856.117 I7.4 J-5.997
N1550 G1 X-114.389 Y1868.087
N1555 G2 X-114.177 Y1868.324 I7.199 J-6.237
N1560 G1 X-103.429 Y1879.924
N1565 G2 X-103.214 Y1880.148 I6.987 J-6.474
N1570 G1 X-92.088 Y1891.398
N1575 G2 X-91.857 Y1891.624 I6.772 J-6.698
N1580 G1 X-83.335 Y1899.675
N1585 Y2150.
N1590 G2 X-73.81 Y2159.525 I9.525 J0.
N1595 G1 X73.81
N1600 G2 X83.335 Y2150. I0. J-9.525
N1605 G1 Y1899.675
N1610 X91.857 Y1891.624
N1615 G2 X92.088 Y1891.398 I-6.541 J-6.924
N1620 G1 X103.214 Y1880.148
N1625 G2 X103.429 Y1879.924 I-6.772 J-6.698
N1630 G1 X114.177 Y1868.324
N1635 G2 X114.389 Y1868.087 I-6.987 J-6.474
N1640 G1 X124.759 Y1856.117
N1645 G2 X124.96 Y1855.877 I-7.199 J-6.237
N1650 G1 X134.952 Y1843.547
N1655 G2 X135.144 Y1843.302 I-7.4 J-5.997
N1660 G1 X144.759 Y1830.612
N1665 G2 X144.937 Y1830.37 I-7.592 J-5.752
N1670 G1 X154.177 Y1817.34
N1675 G2 X154.345 Y1817.095 I-7.77 J-5.51
N1680 G1 X163.213 Y1803.725
N1685 G2 X163.369 Y1803.481 I-7.938 J-5.265
N1690 G1 X171.868 Y1789.781
N1695 G2 X172.008 Y1789.548 I-8.094 J-5.021
N1700 G1 X180.144 Y1775.558
N1705 G2 X180.275 Y1775.326 I-8.234 J-4.788
N1710 G1 X188.053 Y1761.046
N1715 X188.168 Y1760.828
N1720 X195.597 Y1746.308
N1725 X195.7 Y1746.101
N1730 X202.789 Y1731.371
N1735 X202.881 Y1731.173
N1740 X209.64 Y1716.263
N1745 X209.721 Y1716.08
N1750 X215.324 Y1702.998
N1755 Z-50. F333.33
N1760 X216.163 Y1701.04 F5000.
N1765 X216.233 Y1700.871
N1770 X222.371 Y1685.741
N1775 X222.433 Y1685.584
N1780 X228.281 Y1670.404
N1785 X228.335 Y1670.262
N1790 X233.906 Y1655.082
N1795 X233.955 Y1654.945
N1800 X239.262 Y1639.775
N1805 X239.304 Y1639.651
N1810 X244.36 Y1624.531
N1815 X244.4 Y1624.409
N1820 X249.218 Y1609.329
N1825 X249.255 Y1609.212
N1830 X253.845 Y1594.182
N1835 X253.879 Y1594.065
N1840 X258.251 Y1579.065
N1845 X258.286 Y1578.942
N1850 X262.446 Y1563.922
N1855 X262.48 Y1563.797
N1860 X266.436 Y1548.717
N1865 X266.471 Y1548.58
N1870 X270.224 Y1533.36
N1875 X270.258 Y1533.217
N1880 X273.812 Y1517.777
N1885 X273.846 Y1517.625
N1890 X277.201 Y1501.875
N1895 X277.233 Y1501.717
N1900 X280.389 Y1485.567
N1905 X280.419 Y1485.406
N1910 X283.376 Y1468.756
N1915 X283.403 Y1468.595
N1920 X286.16 Y1451.365
N1925 X286.185 Y1451.205
N1930 X288.739 Y1433.295
N1935 X288.759 Y1433.142
N1940 X291.111 Y1414.492
N1945 X291.128 Y1414.346
N1950 X293.276 Y1394.906
N1955 X293.291 Y1394.768
N1960 X295.235 Y1374.478
N1965 X295.246 Y1374.353
N1970 X296.988 Y1353.223
N1975 X296.997 Y1353.106
N1980 X298.539 Y1331.116
N1985 X298.545 Y1331.011
N1990 X299.889 Y1308.221
N1995 X301.046 Y1284.565
N2000 X302.013 Y1260.218
N2005 X302.795 Y1235.279
N2010 X303.402 Y1209.827
N2015 X303.839 Y1183.961
N2020 X304.112 Y1157.8
N2025 X304.231 Y1131.463
N2030 X304.201 Y1105.049
N2035 X304.031 Y1078.688
N2040 X303.725 Y1052.469
N2045 X303.294 Y1026.502
N2050 X302.741 Y1000.875
N2055 X302.074 Y975.673
N2060 X301.295 Y950.951
N2065 X300.41 Y926.758
N2070 X299.422 Y903.115
N2075 X298.332 Y880.027
N2080 X297.144 Y857.479
N2085 X295.856 Y835.44
N2090 X294.467 Y813.866
N2095 X292.979 Y792.703
N2100 X291.388 Y771.892
N2105 X289.695 Y751.365
N2110 X287.896 Y731.055
N2115 X285.989 Y710.894
N2120 X283.972 Y690.82
N2125 X281.845 Y670.775
N2130 X279.602 Y650.706
N2135 X277.243 Y630.579
N2140 X274.766 Y610.369
N2145 X272.17 Y590.069
N2150 X269.455 Y569.689
N2155 X266.618 Y549.252
N2160 X263.66 Y528.8
N2165 X260.583 Y508.379
N2170 X257.385 Y488.044
N2175 X254.071 Y467.86
N2180 X250.64 Y447.888
N2185 X247.097 Y428.197
N2190 X243.445 Y408.847
N2195 X239.686 Y389.897
N2200 X235.826 Y371.399
N2205 X235.805 Y371.301
N2210 X231.871 Y353.396
N2215 X231.848 Y353.292
N2220 X227.825 Y335.916
N2225 X227.799 Y335.807
N2230 X223.695 Y318.978
N2235 X223.667 Y318.868
N2240 X219.489 Y302.584
N2245 X219.46 Y302.473
N2250 X215.216 Y286.721
N2255 X215.185 Y286.61
N2260 X210.879 Y271.367
N2265 X210.848 Y271.259
N2270 X206.488 Y256.491
N2275 X206.456 Y256.384
N2280 X202.042 Y242.052
N2285 X202.01 Y241.95
N2290 X197.544 Y228.012
N2295 X197.511 Y227.911
N2300 X192.99 Y214.322
N2305 X192.956 Y214.222
N2310 X188.373 Y200.939
N2315 X188.337 Y200.837
N2320 X183.68 Y187.82
N2325 X183.641 Y187.714
N2330 X178.894 Y174.929
N2335 X178.85 Y174.811
N2340 X173.99 Y162.233
N2345 X173.938 Y162.101
N2350 X168.938 Y149.711
N2355 X168.875 Y149.56
N2360 X163.702 Y137.35
N2365 X163.628 Y137.179
N2370 X158.25 Y125.146
N2375 X158.162 Y124.955
N2380 X152.546 Y113.099
N2385 X152.443 Y112.888
N2390 X146.556 Y101.214
N2395 G2 X146.437 Y100.987 I-8.505 J4.289
N2400 G1 X140.252 Y89.501
N2405 G2 X140.12 Y89.263 I-8.386 J4.516
N2410 G1 X133.616 Y77.972
N2415 G2 X133.47 Y77.727 I-8.254 J4.754
N2420 G1 X126.631 Y66.635
N2425 G2 X118.523 Y62.11 I-8.108 J4.999
N2430 G1 X75.
N2435 G3 X59.525 Y46.634 I0. J-15.475
N2440 G1 Y-50.
N2445 G2 X50. Y-59.525 I-9.525 J0.
N2450 G1 X-50.
N2455 G2 X-59.525 Y-50. I0. J9.525
N2460 G1 Y46.634
N2465 G3 X-75. Y62.11 I-15.475 J0.
N2470 G1 X-118.523
N2475 G2 X-126.631 Y66.635 I0. J9.525
N2480 G1 X-133.47 Y77.727
N2485 G2 X-133.616 Y77.972 I8.108 J4.999
N2490 G1 X-140.12 Y89.263
N2495 G2 X-140.252 Y89.501 I8.254 J4.754
N2500 G1 X-146.437 Y100.987
N2505 G2 X-146.556 Y101.214 I8.386 J4.516
N2510 G1 X-152.443 Y112.888
N2515 X-152.546 Y113.099
N2520 X-158.162 Y124.955
N2525 X-158.25 Y125.146
N2530 X-163.628 Y137.179
N2535 X-163.702 Y137.35
N2540 X-168.875 Y149.56
N2545 X-168.938 Y149.711
N2550 X-173.938 Y162.101
N2555 X-173.99 Y162.233
N2560 X-178.85 Y174.811
N2565 X-178.894 Y174.929
N2570 X-183.641 Y187.714
N2575 X-183.68 Y187.82
N2580 X-188.337 Y200.837
N2585 X-188.373 Y200.939
N2590 X-192.956 Y214.222
N2595 X-192.99 Y214.322
N2600 X-197.511 Y227.911
N2605 X-197.544 Y228.012
N2610 X-202.01 Y241.95
N2615 X-202.042 Y242.052
N2620 X-206.456 Y256.384
N2625 X-206.488 Y256.491
N2630 X-210.848 Y271.259
N2635 X-210.879 Y271.367
N2640 X-215.185 Y286.61
N2645 X-215.216 Y286.721
N2650 X-219.46 Y302.473
N2655 X-219.489 Y302.584
N2660 X-223.667 Y318.868
N2665 X-223.695 Y318.978
N2670 X-227.799 Y335.807
N2675 X-227.825 Y335.916
N2680 X-231.848 Y353.292
N2685 X-231.871 Y353.396
N2690 X-235.805 Y371.301
N2695 X-235.826 Y371.399
N2700 X-239.667 Y389.804
N2705 X-243.428 Y408.761
N2710 X-247.083 Y428.117
N2715 X-250.627 Y447.814
N2720 X-254.059 Y467.79
N2725 X-257.375 Y487.981
N2730 X-260.573 Y508.318
N2735 X-263.652 Y528.744
N2740 X-266.61 Y549.199
N2745 X-269.448 Y569.637
N2750 X-272.164 Y590.019
N2755 X-274.76 Y610.32
N2760 X-277.237 Y630.529
N2765 X-279.596 Y650.655
N2770 X-281.839 Y670.722
N2775 X-283.967 Y690.767
N2780 X-285.983 Y710.839
N2785 X-287.891 Y730.998
N2790 X-289.69 Y751.308
N2795 X-291.384 Y771.835
N2800 X-292.974 Y792.646
N2805 X-294.464 Y813.81
N2810 X-295.852 Y835.384
N2815 X-297.141 Y857.425
N2820 X-298.33 Y879.974
N2825 X-299.419 Y903.064
N2830 X-300.408 Y926.708
N2835 X-301.294 Y950.903
N2840 X-302.072 Y975.625
N2845 X-302.74 Y1000.828
N2850 X-303.293 Y1026.454
N2855 X-303.725 Y1052.422
N2860 X-304.03 Y1078.639
N2865 X-304.201 Y1104.998
N2870 X-304.231 Y1131.409
N2875 X-304.113 Y1157.743
N2880 X-303.839 Y1183.9
N2885 X-303.404 Y1209.761
N2890 X-302.797 Y1235.207
N2895 X-302.015 Y1260.139
N2900 X-301.049 Y1284.478
N2905 X-299.895 Y1308.125
N2910 X-298.545 Y1331.011
N2915 X-298.539 Y1331.116
N2920 X-296.997 Y1353.106
N2925 X-296.988 Y1353.223
N2930 X-295.246 Y1374.353
N2935 X-295.235 Y1374.478
N2940 X-293.291 Y1394.768
N2945 X-293.276 Y1394.906
N2950 X-291.128 Y1414.346
N2955 X-291.111 Y1414.492
N2960 X-288.759 Y1433.142
N2965 X-288.739 Y1433.295
N2970 X-286.185 Y1451.205
N2975 X-286.16 Y1451.365
N2980 X-283.403 Y1468.595
N2985 X-283.376 Y1468.756
N2990 X-280.419 Y1485.406
N2995 X-280.389 Y1485.567
N3000 X-277.233 Y1501.717
N3005 X-277.201 Y1501.875
N3010 X-273.846 Y1517.625
N3015 X-273.812 Y1517.777
N3020 X-270.258 Y1533.217
N3025 X-270.224 Y1533.36
N3030 X-266.471 Y1548.58
N3035 X-266.436 Y1548.717
N3040 X-262.48 Y1563.797
N3045 X-262.446 Y1563.922
N3050 X-258.286 Y1578.942
N3055 X-258.251 Y1579.065
N3060 X-253.879 Y1594.065
N3065 X-253.845 Y1594.182
N3070 X-249.255 Y1609.212
N3075 X-249.218 Y1609.329
N3080 X-244.4 Y1624.409
N3085 X-244.36 Y1624.531
N3090 X-239.304 Y1639.651
N3095 X-239.262 Y1639.775
N3100 X-233.955 Y1654.945
N3105 X-233.906 Y1655.082
N3110 X-228.335 Y1670.262
N3115 X-228.281 Y1670.404
N3120 X-222.433 Y1685.584
N3125 X-222.371 Y1685.741
N3130 X-216.233 Y1700.871
N3135 X-216.163 Y1701.04
N3140 X-209.721 Y1716.08
N3145 X-209.64 Y1716.263
N3150 X-202.881 Y1731.173
N3155 X-202.789 Y1731.371
N3160 X-195.7 Y1746.101
N3165 X-195.597 Y1746.308
N3170 X-188.168 Y1760.828
N3175 X-188.053 Y1761.046
N3180 X-180.275 Y1775.326
N3185 G2 X-180.144 Y1775.558 I8.365 J-4.556
N3190 G1 X-172.008 Y1789.548
N3195 G2 X-171.868 Y1789.781 I8.234 J-4.788
N3200 G1 X-163.369 Y1803.481
N3205 G2 X-163.213 Y1803.725 I8.094 J-5.021
N3210 G1 X-154.345 Y1817.095
N3215 G2 X-154.177 Y1817.34 I7.938 J-5.265
N3220 G1 X-144.937 Y1830.37
N3225 G2 X-144.759 Y1830.612 I7.77 J-5.51
N3230 G1 X-135.144 Y1843.302
N3235 G2 X-134.952 Y1843.547 I7.592 J-5.752
N3240 G1 X-124.96 Y1855.877
N3245 G2 X-124.759 Y1856.117 I7.4 J-5.997
N3250 G1 X-114.389 Y1868.087
N3255 G2 X-114.177 Y1868.324 I7.199 J-6.237
N3260 G1 X-103.429 Y1879.924
N3265 G2 X-103.214 Y1880.148 I6.987 J-6.474
N3270 G1 X-92.088 Y1891.398
N3275 G2 X-91.857 Y1891.624 I6.772 J-6.698
N3280 G1 X-83.335 Y1899.675
N3285 Y2150.
N3290 G2 X-73.81 Y2159.525 I9.525 J0.
N3295 G1 X73.81
N3300 G2 X83.335 Y2150. I0. J-9.525
N3305 G1 Y1899.675
N3310 X91.857 Y1891.624
N3315 G2 X92.088 Y1891.398 I-6.541 J-6.924
N3320 G1 X103.214 Y1880.148
N3325 G2 X103.429 Y1879.924 I-6.772 J-6.698
N3330 G1 X114.177 Y1868.324
N3335 G2 X114.389 Y1868.087 I-6.987 J-6.474
N3340 G1 X124.759 Y1856.117
N3345 G2 X124.96 Y1855.877 I-7.199 J-6.237
N3350 G1 X134.952 Y1843.547
N3355 G2 X135.144 Y1843.302 I-7.4 J-5.997
N3360 G1 X144.759 Y1830.612
N3365 G2 X144.937 Y1830.37 I-7.592 J-5.752
N3370 G1 X154.177 Y1817.34
N3375 G2 X154.345 Y1817.095 I-7.77 J-5.51
N3380 G1 X163.213 Y1803.725
N3385 G2 X163.369 Y1803.481 I-7.938 J-5.265
N3390 G1 X171.868 Y1789.781
N3395 G2 X172.008 Y1789.548 I-8.094 J-5.021
N3400 G1 X180.144 Y1775.558
N3405 G2 X180.275 Y1775.326 I-8.234 J-4.788
N3410 G1 X188.053 Y1761.046
N3415 X188.168 Y1760.828
N3420 X195.597 Y1746.308
N3425 X195.7 Y1746.101
N3430 X202.789 Y1731.371
N3435 X202.881 Y1731.173
N3440 X209.64 Y1716.263
N3445 X209.721 Y1716.08
N3450 X215.324 Y1702.998
N3455 G0 Z15.
(2D POCKET1)
N3460 G0 Z26.
N3465 X-56.168 Y-57.096
N3470 G1 Z-25. F1000.
N3475 X-56.094
N3480 X56.094 F5000.
N3485 X56.147 Y-57.088
N3490 X56.196 Y-57.067
N3495 X56.238 Y-57.034
N3500 X56.27 Y-56.99
N3505 X56.289 Y-56.94
N3510 X59.614 Y-42.459
N3515 G3 X59.419 Y-42.215 I-0.195 J0.045
N3520 G1 X-59.423 Y-42.237
N3525 G2 X-59.623 Y-42.038 I0. J0.2
N3530 G1 X-59.624 Y-27.496
N3535 G2 X-59.424 Y-27.295 I0.2 J0.
N3540 G1 X59.417
N3545 G3 X59.617 Y-27.095 I0. J0.2
N3550 G1 X59.616 Y-12.595
N3555 G3 X59.416 Y-12.396 I-0.2 J0.
N3560 G1 X-59.416
N3565 G2 X-59.616 Y-12.196 I0. J0.2
N3570 G1 X-59.618 Y2.304
N3575 G2 X-59.418 Y2.504 I0.2 J0.
N3580 G1 X59.424
N3585 G3 X59.624 Y2.705 I0. J0.2
N3590 G1 X59.622 Y17.205
N3595 G3 X59.422 Y17.404 I-0.2 J0.
N3600 G1 X-59.42
N3605 G2 X-59.62 Y17.604 I0. J0.2
N3610 G1 X-59.622 Y32.062
N3615 G2 X-59.422 Y32.262 I0.2 J0.
N3620 G1 X59.42 Y32.279
N3625 G3 X59.62 Y32.479 I0. J0.2
N3630 G1 X59.669 Y47.004
N3635 G3 X59.469 Y47.204 I-0.2 J0.001
N3640 G1 X-59.474
N3645 X-59.527 Y47.212
N3650 X-59.575 Y47.232
N3655 X-59.617 Y47.265
N3660 X-73.768 Y61.77
N3665 G2 X-73.625 Y62.11 I0.143 J0.14
N3670 G1 X73.629
N3675 G0 Z26.
N3680 X56.168 Y-57.096
N3685 G1 Z8.409 F1000.
N3690 Z-50.
N3695 X56.094
N3700 X-56.094 F5000.
N3705 X-56.147 Y-57.088
N3710 X-56.196 Y-57.067
N3715 X-56.238 Y-57.034
N3720 X-56.269 Y-56.991
N3725 X-56.288 Y-56.94
N3730 X-59.617 Y-42.482
N3735 G2 X-59.423 Y-42.237 I0.195 J0.045
N3740 G1 X59.419 Y-42.215
N3745 G3 X59.619 Y-42.014 I0. J0.2
N3750 G1 X59.617 Y-27.495
N3755 G3 X59.417 Y-27.295 I-0.2 J0.
N3760 G1 X-59.424
N3765 G2 X-59.624 Y-27.095 I0. J0.2
N3770 G1 X-59.616 Y-12.595
N3775 G2 X-59.416 Y-12.396 I0.2 J0.
N3780 G1 X59.416
N3785 G3 X59.616 Y-12.196 I0. J0.2
N3790 G1 X59.624 Y2.304
N3795 G3 X59.424 Y2.504 I-0.2 J0.
N3800 G1 X-59.418
N3805 G2 X-59.618 Y2.704 I0. J0.2
N3810 G1 X-59.62 Y17.204
N3815 G2 X-59.42 Y17.404 I0.2 J0.
N3820 G1 X59.422
N3825 G3 X59.622 Y17.605 I0. J0.2
N3830 G1 X59.62 Y32.079
N3835 G3 X59.42 Y32.279 I-0.2 J0.
N3840 G1 X-59.422 Y32.262
N3845 G2 X-59.622 Y32.461 I0. J0.2
N3850 G1 X-59.674 Y47.004
N3855 G2 X-59.474 Y47.204 I0.2 J0.001
N3860 G1 X59.469
N3865 X59.521 Y47.212
N3870 X59.57 Y47.232
N3875 X59.612 Y47.265
N3880 X73.772 Y61.77
N3885 G3 X73.629 Y62.11 I-0.143 J0.14
N3890 G1 X-73.625
N3895 G0 Z26.
N3900 X-78.016 Y2158.4
N3905 G1 Z-25. F1000.
N3910 X-77.941
N3915 X77.943 F5000.
N3920 X77.992 Y2158.394
N3925 X78.037 Y2158.377
N3930 X78.077 Y2158.349
N3935 X78.109 Y2158.312
N3940 X78.131 Y2158.269
N3945 X83.416 Y2143.769
N3950 G2 X83.228 Y2143.5 I-0.188 J-0.069
N3955 G1 X-83.233
N3960 G3 X-83.433 Y2143.3 I0. J-0.2
N3965 G1 X-83.431 Y2128.8
N3970 G3 X-83.231 Y2128.6 I0.2 J0.
N3975 G1 X83.23
N3980 G2 X83.43 Y2128.4 I0. J-0.2
N3985 G1 X83.432 Y2113.9
N3990 G2 X83.232 Y2113.7 I-0.2 J0.
N3995 G1 X-83.229
N4000 G3 X-83.429 Y2113.5 I0. J-0.2
N4005 G1 X-83.427 Y2099.
N4010 G3 X-83.227 Y2098.8 I0.2 J0.
N4015 G1 X83.234
N4020 G2 X83.434 Y2098.6 I0. J-0.2
N4025 G1 X83.426 Y2084.1
N4030 G2 X83.226 Y2083.9 I-0.2 J0.
N4035 G1 X-83.225
N4040 G3 X-83.425 Y2083.7 I0. J-0.2
N4045 G1 X-83.434 Y2069.2
N4050 G3 X-83.234 Y2069. I0.2 J0.
N4055 G1 X83.228
N4060 G2 X83.428 Y2068.8 I0. J-0.2
N4065 G1 X83.429 Y2054.3
N4070 G2 X83.229 Y2054.1 I-0.2 J0.
N4075 G1 X-83.232
N4080 G3 X-83.432 Y2053.9 I0. J-0.2
N4085 G1 X-83.43 Y2039.4
N4090 G3 X-83.23 Y2039.2 I0.2 J0.
N4095 G1 X83.231
N4100 G2 X83.431 Y2039. I0. J-0.2
N4105 G1 X83.433 Y2024.5
N4110 G2 X83.233 Y2024.3 I-0.2 J0.
N4115 G1 X-83.228
N4120 G3 X-83.428 Y2024.1 I0. J-0.2
N4125 G1 X-83.426 Y2009.6
N4130 G3 X-83.226 Y2009.4 I0.2 J0.
N4135 G1 X83.225
N4140 G2 X83.425 Y2009.2 I0. J-0.2
N4145 G1 X83.427 Y1994.7
N4150 G2 X83.227 Y1994.5 I-0.2 J0.
N4155 G1 X-83.234
N4160 G3 X-83.434 Y1994.3 I0. J-0.2
N4165 G1 X-83.433 Y1979.8
N4170 G3 X-83.233 Y1979.6 I0.2 J0.
N4175 G1 X83.229
N4180 G2 X83.429 Y1979.4 I0. J-0.2
N4185 G1 X83.431 Y1964.9
N4190 G2 X83.231 Y1964.7 I-0.2 J0.
N4195 G1 X-83.231
N4200 G3 X-83.431 Y1964.5 I0. J-0.2
N4205 G1 X-83.429 Y1950.
N4210 G3 X-83.229 Y1949.8 I0.2 J0.
N4215 G1 X83.232
N4220 G2 X83.432 Y1949.6 I0. J-0.2
N4225 G1 X83.434 Y1935.1
N4230 G2 X83.234 Y1934.9 I-0.2 J0.
N4235 G1 X-83.227
N4240 G3 X-83.427 Y1934.7 I0. J-0.2
N4245 G1 X-83.425 Y1920.2
N4250 G3 X-83.225 Y1920. I0.2 J0.
N4255 G1 X83.226
N4260 G2 X83.426 Y1919.8 I0. J-0.2
N4265 G1 X83.427 Y1905.295
N4270 G2 X83.227 Y1905.095 I-0.2 J0.
N4275 G1 X-73.81
N4280 X-83.225
N4285 G0 Z26.
N4290 X-78.016 Y2158.4
N4295 G1 Z8.409 F1000.
N4300 Z-50.
N4305 X-77.941
N4310 X77.943 F5000.
N4315 X77.992 Y2158.394
N4320 X78.037 Y2158.377
N4325 X78.077 Y2158.349
N4330 X78.109 Y2158.312
N4335 X78.131 Y2158.269
N4340 X83.416 Y2143.769
N4345 G2 X83.228 Y2143.5 I-0.188 J-0.069
N4350 G1 X-83.233
N4355 G3 X-83.433 Y2143.3 I0. J-0.2
N4360 G1 X-83.431 Y2128.8
N4365 G3 X-83.231 Y2128.6 I0.2 J0.
N4370 G1 X83.23
N4375 G2 X83.43 Y2128.4 I0. J-0.2
N4380 G1 X83.432 Y2113.9
N4385 G2 X83.232 Y2113.7 I-0.2 J0.
N4390 G1 X-83.229
N4395 G3 X-83.429 Y2113.5 I0. J-0.2
N4400 G1 X-83.427 Y2099.
N4405 G3 X-83.227 Y2098.8 I0.2 J0.
N4410 G1 X83.234
N4415 G2 X83.434 Y2098.6 I0. J-0.2
N4420 G1 X83.426 Y2084.1
N4425 G2 X83.226 Y2083.9 I-0.2 J0.
N4430 G1 X-83.225
N4435 G3 X-83.425 Y2083.7 I0. J-0.2
N4440 G1 X-83.434 Y2069.2
N4445 G3 X-83.234 Y2069. I0.2 J0.
N4450 G1 X83.228
N4455 G2 X83.428 Y2068.8 I0. J-0.2
N4460 G1 X83.429 Y2054.3
N4465 G2 X83.229 Y2054.1 I-0.2 J0.
N4470 G1 X-83.232
N4475 G3 X-83.432 Y2053.9 I0. J-0.2
N4480 G1 X-83.43 Y2039.4
N4485 G3 X-83.23 Y2039.2 I0.2 J0.
N4490 G1 X83.231
N4495 G2 X83.431 Y2039. I0. J-0.2
N4500 G1 X83.433 Y2024.5
N4505 G2 X83.233 Y2024.3 I-0.2 J0.
N4510 G1 X-83.228
N4515 G3 X-83.428 Y2024.1 I0. J-0.2
N4520 G1 X-83.426 Y2009.6
N4525 G3 X-83.226 Y2009.4 I0.2 J0.
N4530 G1 X83.225
N4535 G2 X83.425 Y2009.2 I0. J-0.2
N4540 G1 X83.427 Y1994.7
N4545 G2 X83.227 Y1994.5 I-0.2 J0.
N4550 G1 X-83.234
N4555 G3 X-83.434 Y1994.3 I0. J-0.2
N4560 G1 X-83.433 Y1979.8
N4565 G3 X-83.233 Y1979.6 I0.2 J0.
N4570 G1 X83.229
N4575 G2 X83.429 Y1979.4 I0. J-0.2
N4580 G1 X83.431 Y1964.9
N4585 G2 X83.231 Y1964.7 I-0.2 J0.
N4590 G1 X-83.231
N4595 G3 X-83.431 Y1964.5 I0. J-0.2
N4600 G1 X-83.429 Y1950.
N4605 G3 X-83.229 Y1949.8 I0.2 J0.
N4610 G1 X83.232
N4615 G2 X83.432 Y1949.6 I0. J-0.2
N4620 G1 X83.434 Y1935.1
N4625 G2 X83.234 Y1934.9 I-0.2 J0.
N4630 G1 X-83.227
N4635 G3 X-83.427 Y1934.7 I0. J-0.2
N4640 G1 X-83.425 Y1920.2
N4645 G3 X-83.225 Y1920. I0.2 J0.
N4650 G1 X83.226
N4655 G2 X83.426 Y1919.8 I0. J-0.2
N4660 G1 X83.427 Y1905.295
N4665 G2 X83.227 Y1905.095 I-0.2 J0.
N4670 G1 X-73.81
N4675 X-83.225
N4680 G0 Z26.
(DRILL1)
N4685 G0 X0. Y0.
N4690 Z20.
N4695 Z10.
N4700 G98 G83 X0. Y0. Z-108. R5. Q20. F333.33
N4705 Y2095.574
N4710 G80
N4715 G0 Z20.
N4720 G53 Z0.
N4725 M30
%
