%
(1001)
(T1  D=6. CR=0. - ZMIN=-21.5 - FLAT END MILL)
N10 G90 G94 G17 G91.1
N15 G21
N20 G53 G0 Z0.
(2D POCKET1)
N25 M9
N30 T1 M6
N35 S22000 M3
N40 G54
N45 M8
N50 G0 X133.95 Y243.52
N55 G43 Z15. H1
N60 G0 Z5.
N65 G1 Z2.5 F500.
N70 Z-1.9 F333.33
N75 X133.974 Y243.537 Z-2.085
N80 X134.038 Y243.593 Z-2.253
N85 X134.082 Y243.642 Z-2.319
N90 X134.12 Y243.697 Z-2.385
N95 X134.159 Y243.77 Z-2.428
N100 X134.188 Y243.849 Z-2.471
N105 X134.207 Y243.939 Z-2.485
N110 X134.212 Y244.032 Z-2.5
N115 G3 X132.805 Y245.363 I-1.369 J-0.038 F1500.
N120 X131.474 Y243.956 I0.038 J-1.369
N125 G1 X134.776 Y125.002
N130 G3 X136.183 Y123.671 I1.369 J0.038
N135 X137.514 Y125.078 I-0.038 J1.369
N140 G1 X134.212 Y244.032
N145 G2 X135.067 Y245.751 I2.041 J0.057
N150 G3 X134.978 Y247.669 I-0.663 J0.93
N155 X128.595 Y243.876 I-2.135 J-3.675
N160 G1 X131.897 Y124.922
N165 G3 X136.263 Y120.792 I4.248 J0.118
N170 X140.393 Y125.158 I-0.118 J4.248
N175 G1 X137.091 Y244.112
N180 G3 X134.978 Y247.669 I-4.248 J-0.118
N185 G2 X132.943 Y251.07 I2.056 J3.54
N190 G3 X129.684 Y253.324 I-2.467 J-0.084
N195 X122.997 Y243.721 I3.159 J-9.33
N200 G1 X126.299 Y124.767
N205 G3 X136.418 Y115.194 I9.846 J0.273
N210 X145.991 Y125.314 I-0.273 J9.846
N215 G1 X142.689 Y244.268
N220 G3 X129.684 Y253.324 I-9.846 J-0.273
N225 G2 X125.367 Y254.237 I-1.388 J4.099
N230 G3 X120.964 Y253.951 I-2.065 J-2.246
N235 X117.349 Y243.564 I11.879 J-9.957
N240 G1 X120.651 Y124.61
N245 G3 X136.575 Y109.546 I15.494 J0.43
N250 X151.639 Y125.47 I-0.43 J15.494
N255 G1 X148.337 Y244.425
N260 G3 X120.964 Y253.951 I-15.494 J-0.431
N265 G1 X120.91 Y253.875 Z-2.485 F500.
N270 X120.868 Y253.793 Z-2.471
N275 X120.842 Y253.713 Z-2.428
N280 X120.827 Y253.631 Z-2.385
N285 X120.824 Y253.565 Z-2.319
N290 X120.827 Y253.499 Z-2.253
N295 X120.843 Y253.415 Z-2.085
N300 X120.851 Y253.387 Z-1.9
N305 G0 Z5.
N310 X-133.922 Y244.529
N315 G1 Z2.5 F333.33
N320 Z-1.9
N325 X-133.947 Y244.513 Z-2.085
N330 X-134.014 Y244.461 Z-2.253
N335 X-134.06 Y244.414 Z-2.319
N340 X-134.102 Y244.362 Z-2.385
N345 X-134.145 Y244.29 Z-2.428
N350 X-134.178 Y244.214 Z-2.471
N355 X-134.202 Y244.124 Z-2.485
N360 X-134.212 Y244.032 Z-2.5
N365 X-137.514 Y125.078 F1500.
N370 G3 X-136.183 Y123.671 I1.368 J-0.038
N375 X-134.776 Y125.002 I0.038 J1.369
N380 G1 X-131.474 Y243.956
N385 G3 X-134.212 Y244.032 I-1.369 J0.038
N390 G2 X-135.711 Y241.912 I-2.34 J0.065
N395 G3 X-137.211 Y239.792 I0.84 J-2.185
N400 G1 X-140.393 Y125.158
N405 G3 X-136.263 Y120.792 I4.248 J-0.118
N410 X-131.897 Y124.922 I0.118 J4.248
N415 G1 X-128.595 Y243.876
N420 G3 X-137.091 Y244.112 I-4.248 J0.118
N425 G1 X-137.211 Y239.792
N430 G2 X-140.127 Y235.671 I-4.548 J0.126
N435 G3 X-143.042 Y231.551 I1.633 J-4.247
N440 G1 X-145.991 Y125.313
N445 G3 X-136.418 Y115.194 I9.846 J-0.273
N450 X-126.299 Y124.767 I0.273 J9.846
N455 G1 X-122.997 Y243.721
N460 G3 X-142.689 Y244.268 I-9.846 J0.273
N465 G1 X-143.042 Y231.551
N470 G2 X-145.984 Y227.393 I-4.589 J0.127
N475 G3 X-148.925 Y223.236 I1.647 J-4.285
N480 G1 X-151.639 Y125.47
N485 G3 X-120.651 Y124.61 I15.494 J-0.43
N490 G1 X-117.349 Y243.564
N495 G3 X-148.337 Y244.425 I-15.494 J0.43
N500 G1 X-148.925 Y223.236
N505 X-148.921 Y223.143 Z-2.485 F500.
N510 X-148.902 Y223.052 Z-2.471
N515 X-148.873 Y222.974 Z-2.428
N520 X-148.834 Y222.9 Z-2.385
N525 X-148.796 Y222.846 Z-2.319
N530 X-148.752 Y222.796 Z-2.253
N535 X-148.687 Y222.74 Z-2.085
N540 X-148.664 Y222.723 Z-1.9
N545 G0 Z15.
(2D POCKET2)
N550 G0 Z16.
N555 X134.216 Y243.282
N560 G1 Z-10.75 F333.33
N565 G3 X132.826 Y244.596 I-1.352 J-0.038 F1500.
N570 X131.512 Y243.207 I0.038 J-1.352
N575 G1 X134.772 Y125.753
N580 G3 X136.162 Y124.438 I1.352 J0.037
N585 X137.476 Y125.828 I-0.038 J1.352
N590 G1 X134.216 Y243.282
N595 G2 X135.074 Y245.007 I2.05 J0.057
N600 G3 X134.977 Y246.931 I-0.666 J0.931
N605 X128.616 Y243.126 I-2.113 J-3.687
N610 G1 X131.876 Y125.672
N615 G3 X136.242 Y121.542 I4.248 J0.118
N620 X140.372 Y125.908 I-0.118 J4.248
N625 G1 X137.112 Y243.363
N630 G3 X134.977 Y246.931 I-4.248 J-0.119
N635 X134.289 Y246.671 I-0.237 J-0.414
N640 G1 X133.569 Y244.559
N645 X133.55 Y244.511
N650 X133.526 Y244.466
N655 X133.49 Y244.393
N660 X133.467 Y244.315
N665 X133.272 Y243.364
N670 G3 X133.698 Y242.793 I0.467 J-0.096
N675 X134.216 Y243.282 I0.041 J0.475
N680 G1 Z-21.5 F333.33
N685 G3 X132.826 Y244.596 I-1.352 J-0.038 F1500.
N690 X131.512 Y243.207 I0.038 J-1.352
N695 G1 X134.772 Y125.753
N700 G3 X136.162 Y124.438 I1.352 J0.037
N705 X137.476 Y125.828 I-0.038 J1.352
N710 G1 X134.216 Y243.282
N715 G2 X135.074 Y245.007 I2.05 J0.057
N720 G3 X134.977 Y246.931 I-0.666 J0.931
N725 X128.616 Y243.126 I-2.113 J-3.687
N730 G1 X131.876 Y125.672
N735 G3 X136.242 Y121.542 I4.248 J0.118
N740 X140.372 Y125.908 I-0.118 J4.248
N745 G1 X137.112 Y243.363
N750 G3 X134.977 Y246.931 I-4.248 J-0.119
N755 G1 X134.893 Y246.971 Z-21.485 F500.
N760 X134.805 Y246.997 Z-21.471
N765 X134.722 Y247.009 Z-21.428
N770 X134.638 Z-21.385
N775 X134.573 Y247.001 Z-21.319
N780 X134.508 Y246.986 Z-21.253
N785 X134.428 Y246.956 Z-21.085
N790 X134.402 Y246.943 Z-20.9
N795 G0 Z16.
N800 X-134.216 Y243.282
N805 G1 Z-10.75 F333.33
N810 X-137.476 Y125.827 F1500.
N815 G3 X-136.161 Y124.438 I1.352 J-0.038
N820 X-134.772 Y125.753 I0.038 J1.352
N825 G1 X-131.512 Y243.207
N830 G3 X-134.216 Y243.282 I-1.352 J0.038
N835 G2 X-135.724 Y241.15 I-2.353 J0.065
N840 G3 X-137.233 Y239.018 I0.845 J-2.197
N845 G1 X-140.372 Y125.908
N850 G3 X-136.242 Y121.542 I4.248 J-0.118
N855 X-131.876 Y125.672 I0.118 J4.248
N860 G1 X-128.616 Y243.126
N865 G3 X-137.112 Y243.363 I-4.248 J0.118
N870 G1 X-137.233 Y239.018
N875 G3 X-136.854 Y238.922 I0.2 J-0.006
N880 G1 X-134.594 Y243.378
N885 G2 X-134.216 Y243.282 I0.178 J-0.09
N890 G1 Z-21.5 F333.33
N895 X-137.476 Y125.827 F1500.
N900 G3 X-136.161 Y124.438 I1.352 J-0.038
N905 X-134.772 Y125.753 I0.038 J1.352
N910 G1 X-131.512 Y243.207
N915 G3 X-134.216 Y243.282 I-1.352 J0.038
N920 G2 X-135.724 Y241.15 I-2.353 J0.065
N925 G3 X-137.233 Y239.018 I0.845 J-2.197
N930 G1 X-140.372 Y125.908
N935 G3 X-136.242 Y121.542 I4.248 J-0.118
N940 X-131.876 Y125.672 I0.118 J4.248
N945 G1 X-128.616 Y243.126
N950 G3 X-137.112 Y243.363 I-4.248 J0.118
N955 G1 X-137.233 Y239.018
N960 X-137.228 Y238.925 Z-21.485 F500.
N965 X-137.209 Y238.834 Z-21.471
N970 X-137.181 Y238.756 Z-21.428
N975 X-137.141 Y238.682 Z-21.385
N980 X-137.103 Y238.628 Z-21.319
N985 X-137.059 Y238.578 Z-21.253
N990 X-136.995 Y238.522 Z-21.085
N995 X-136.971 Y238.505 Z-20.9
N1000 G0 Z16.
N1005 M9
N1010 G53 Z0.
N1015 M30
%
