%
(1001)
(T5  D=19.05 CR=9.525 - ZMIN=-97.608 - BALL END MILL)
N10 G90 G94 G17 G91.1
N15 G21
N20 G53 G0 Z0.
(PARALLEL1 4)
N25 M9
N30 T5 M6
N35 S24000 M3
N40 G54
N45 G0 X114.5 Y93.488
N50 G43 Z15. H5
N55 G0 Z-21.083
N60 G1 Z-22.957 F1000.
N65 G18 G3 X112.009 Z-24.77 I-1.905 K0.
N70 G1 X111.812 Z-22.727 F6000.
N75 X111.293 Z-20.421
N80 X110.547 Z-18.557
N85 X109.5 Z-16.847
N90 X108.208 Z-15.343
N95 X106.443 Z-13.901
N100 X104.486 Z-12.78
N105 X102.29 Z-11.898
N110 X99.446 Z-11.128
N115 X94.339 Z-10.289
N120 X92.851 Z-10.301
N125 X90.119 Z-10.672
N130 X88.184 Z-11.218
N135 X86.628 Z-11.872
N140 X85.731 Z-12.471
N145 X85.205 Z-12.929
N150 X84.679 Z-13.565
N155 X84.264 Z-14.591
N160 X83.761 Z-24.748
N165 X82.626 Y93.811 Z-24.75
N170 X81.499 Y94.155 Z-24.752
N175 X80.376 Y94.514 Z-24.754
N180 X79.254 Y94.875 Z-24.756
N185 X78.139 Y95.257 Z-24.758
N190 X77.03 Y95.657 Z-24.76
N195 X75.922 Y96.059 Z-24.762
N200 X74.823 Y96.488 Z-24.764
N205 X75.138 Z-15.125
N210 X75.238 Z-13.677
N215 X75.533 Z-12.795
N220 X76.226 Z-11.771
N225 X77.287 Z-10.81
N230 X79.052 Z-9.72
N235 X80.925 Z-8.962
N240 X83.498 Z-8.224
N245 X86.789 Z-7.702
N250 X90.375 Z-7.469
N255 X94.073 Z-7.542
N260 X98.696 Z-8.213
N265 X102.097 Z-8.995
N270 X104.871 Z-9.99
N275 X106.961 Z-11.038
N280 X109.013 Z-12.467
N285 X110.702 Z-14.072
N290 X111.865 Z-15.567
N295 X112.983 Z-17.475
N300 X113.867 Z-19.753
N305 X114.419 Z-22.311
N310 X114.635 Z-24.785
N315 X115.337 Y97.979 Z-24.754
N320 X116. Y99.488 Z-24.723
N325 X115.813 Z-22.592
N330 X115.247 Z-19.876
N335 X114.534 Z-17.904
N340 X113.426 Z-15.803
N345 X112.178 Z-14.05
N350 X110.476 Z-12.269
N355 X108.497 Z-10.723
N360 X106.33 Z-9.458
N365 X103.715 Z-8.359
N370 X100.586 Z-7.468
N375 X96.089 Z-6.675
N380 X91.682 Z-6.198
N385 X87.168 Z-6.024
N390 X83.391 Z-6.144
N395 X80.078 Z-6.481
N400 X76.802 Z-7.115
N405 X74.251 Z-7.925
N410 X72.398 Z-8.714
N415 X70.912 Z-9.552
N420 X69.553 Z-10.682
N425 X69.086 Z-11.203
N430 X68.62 Z-11.867
N435 X68.17 Z-12.851
N440 X67.983 Z-13.978
N445 X67.684 Z-24.686
N450 X66.108 Y100.213 Z-24.684
N455 X64.543 Y100.963 Z-24.682
N460 X62.985 Y101.724 Z-24.68
N465 X61.427 Y102.488 Z-24.679
N470 X61.728 Z-13.844
N475 X61.868 Z-12.773
N480 X62.158 Z-11.97
N485 X62.447 Z-11.429
N490 X62.908 Z-10.773
N495 X63.894 Z-9.745
N500 X64.986 Z-8.899
N505 X66.45 Z-8.022
N510 X68.615 Z-7.094
N515 X71.177 Z-6.324
N520 X73.795 Z-5.802
N525 X77.779 Z-5.346
N530 X81.67 Z-5.225
N535 X86.722 Z-5.44
N540 X91.875 Z-5.967
N545 X97.737 Z-6.77
N550 X100.649 Z-7.296
N555 X102.084 Z-7.628
N560 X105.231 Z-8.605
N565 X107.728 Z-9.726
N570 X109.901 Z-11.022
N575 X111.715 Z-12.458
N580 X113.435 Z-14.228
N585 X114.868 Z-16.294
N590 X115.511 Z-17.424
N595 X116.259 Z-19.251
N600 X116.738 Z-20.785
N605 X117.072 Z-22.49
N610 X117.305 Z-24.625
N615 X117.956 Y103.989 Z-24.638
N620 X118.61 Y105.488 Z-24.652
N625 X118.419 Z-22.99
N630 X117.947 Z-20.643
N635 X116.924 Z-17.9
N640 X116.102 Z-16.427
N645 X114.762 Z-14.511
N650 X113.139 Z-12.81
N655 X111.267 Z-11.318
N660 X109.405 Z-10.164
N665 X107.455 Z-9.219
N670 X104.69 Z-8.216
N675 X103.279 Z-7.827
N680 X101.846 Z-7.497
N685 X98.934 Z-6.971
N690 X94.69 Z-6.368
N695 X88.809 Z-5.701
N700 X81.438 Z-5.05
N705 X77.73 Z-4.811
N710 X73.575 Z-4.789
N715 X69.766 Z-5.09
N720 X67.133 Z-5.52
N725 X63.904 Z-6.362
N730 X61.706 Z-7.192
N735 X59.621 Z-8.336
N740 X57.994 Z-9.601
N745 X57.038 Z-10.671
N750 X56.595 Z-11.356
N755 X56.097 Z-12.585
N760 X55.953 Z-13.783
N765 X55.713 Z-24.584
N770 X54.367 Y106.227 Z-24.6
N775 X53.022 Y106.968 Z-24.615
N780 X51.683 Y107.718 Z-24.631
N785 X50.354 Y108.488 Z-24.647
N790 X50.609 Z-13.335
N795 X50.858 Z-12.074
N800 X51.231 Z-11.206
N805 X51.511 Z-10.728
N810 X52.552 Z-9.474
N815 X53.614 Z-8.564
N820 X55.344 Z-7.453
N825 X57.48 Z-6.45
N830 X60.354 Z-5.546
N835 X63.786 Z-4.86
N840 X67.704 Z-4.513
N845 X71.481 Z-4.5
N850 X77.316 Z-4.855
N855 X85.443 Z-5.475
N860 X91.336 Z-6.039
N865 X97.212 Z-6.744
N870 X101.599 Z-7.42
N875 X103.05 Z-7.703
N880 X104.483 Z-8.033
N885 X105.895 Z-8.416
N890 X108.664 Z-9.419
N895 X110.296 Z-10.191
N900 X112.477 Z-11.498
N905 X113.622 Z-12.362
N910 X114.289 Z-12.927
N915 X115.987 Z-14.682
N920 X117.338 Z-16.591
N925 X118.239 Z-18.213
N930 X119.22 Z-20.821
N935 X119.655 Z-22.787
N940 X119.894 Z-24.673
N945 X120.537 Y109.987 Z-24.715
N950 X121.179 Y111.488 Z-24.757
N955 X120.73 Z-21.958
N960 X120.023 Z-19.654
N965 X119.025 Z-17.482
N970 X117.491 Z-15.202
N975 X115.765 Z-13.355
N980 X113.916 Z-11.857
N985 X113.252 Z-11.406
N990 X112.027 Z-10.669
N995 X110.048 Z-9.699
N1000 X108.009 Z-8.919
N1005 X105.176 Z-8.113
N1010 X102.288 Z-7.539
N1015 X97.902 Z-6.878
N1020 X91.987 Z-6.181
N1025 X84.651 Z-5.507
N1030 X77.252 Z-4.962
N1035 X66.72 Z-4.359
N1040 X63.499 Z-4.289
N1045 X59.937 Z-4.498
N1050 X56.646 Z-5.016
N1055 X53.5 Z-5.856
N1060 X51.544 Z-6.637
N1065 X49.753 Z-7.581
N1070 X48.068 Z-8.785
N1075 X47.055 Z-9.801
N1080 X46.198 Z-11.048
N1085 X45.699 Z-12.284
N1090 X45.519 Z-13.575
N1095 X45.277 Z-24.841
N1100 X44.065 Y112.238 Z-24.873
N1105 X41.643 Y113.738 Z-24.938
N1110 X40.431 Y114.488 Z-24.971
N1115 X40.695 Z-12.967
N1120 X40.977 Z-11.805
N1125 X41.35 Z-10.973
N1130 X42.186 Z-9.746
N1135 X43.174 Z-8.724
N1140 X44.266 Z-7.879
N1145 X46.014 Z-6.843
N1150 X47.862 Z-6.015
N1155 X50.414 Z-5.192
N1160 X53.025 Z-4.638
N1165 X56.345 Z-4.253
N1170 X59.999 Z-4.185
N1175 X71.746 Z-4.748
N1180 X81.452 Z-5.366
N1185 X88.833 Z-5.962
N1190 X94.724 Z-6.551
N1195 X99.131 Z-7.089
N1200 X103.518 Z-7.754
N1205 X106.406 Z-8.331
N1210 X109.237 Z-9.138
N1215 X111.275 Z-9.919
N1220 X113.254 Z-10.887
N1225 X114.495 Z-11.633
N1230 X115.082 Z-12.027
N1235 X116.781 Z-13.373
N1240 X117.807 Z-14.368
N1245 X118.729 Z-15.412
N1250 X119.917 Z-17.148
N1255 X120.758 Z-18.631
N1260 X121.882 Z-21.683
N1265 X122.464 Z-24.954
N1270 X123.098 Y115.987 Z-25.066
N1275 X123.73 Y117.488 Z-25.178
N1280 X123.163 Z-22.012
N1285 X122.374 Z-19.699
N1290 X121.494 Z-17.894
N1295 X119.917 Z-15.574
N1300 X118.024 Z-13.6
N1305 X116.26 Z-12.21
N1310 X114.103 Z-10.909
N1315 X111.778 Z-9.841
N1320 X109.442 Z-9.03
N1325 X107.572 Z-8.533
N1330 X104.685 Z-7.959
N1335 X100.298 Z-7.295
N1340 X95.155 Z-6.674
N1345 X88.676 Z-6.046
N1350 X81.595 Z-5.489
N1355 X72.776 Z-4.937
N1360 X61.049 Z-4.361
N1365 X53.526 Z-4.109
N1370 X50.39 Z-4.274
N1375 X47.095 Z-4.78
N1380 X44.506 Z-5.456
N1385 X42.003 Z-6.437
N1390 X40.22 Z-7.399
N1395 X38.547 Z-8.635
N1400 X37.557 Z-9.654
N1405 X36.705 Z-10.895
N1410 X36.227 Z-12.009
N1415 X35.982 Z-13.328
N1420 X35.744 Z-25.057
N1425 X34.607 Y118.226 Z-25.111
N1430 X33.478 Y118.976 Z-25.165
N1435 X31.228 Y120.488 Z-25.273
N1440 X31.452 Z-13.621
N1445 X31.595 Z-12.439
N1450 X31.949 Z-11.386
N1455 X32.341 Z-10.629
N1460 X33.206 Z-9.451
N1465 X34.204 Z-8.462
N1470 X35.864 Z-7.26
N1475 X37.664 Z-6.306
N1480 X39.533 Z-5.556
N1485 X42.108 Z-4.825
N1490 X44.734 Z-4.358
N1495 X47.539 Z-4.112
N1500 X50.763 Z-4.121
N1505 X65.034 Z-4.667
N1510 X76.824 Z-5.293
N1515 X85.28 Z-5.873
N1520 X93.979 Z-6.631
N1525 X99.862 Z-7.29
N1530 X104.258 Z-7.905
N1535 X107.17 Z-8.41
N1540 X109.325 Z-8.891
N1545 X111.448 Z-9.508
N1550 X112.818 Z-9.996
N1555 X114.711 Z-10.82
N1560 X116.72 Z-11.936
N1565 X117.658 Z-12.565
N1570 X119.55 Z-14.103
N1575 X121.244 Z-15.921
N1580 X122.633 Z-17.936
N1585 X123.799 Z-20.338
N1590 X124.519 Z-22.672
N1595 X124.986 Z-25.333
N1600 X125.614 Y121.987 Z-25.477
N1605 X126.242 Y123.488 Z-25.621
N1610 X125.959 Z-23.852
N1615 X125.705 Z-22.665
N1620 X124.977 Z-20.478
N1625 X123.924 Z-18.281
N1630 X122.83 Z-16.624
N1635 X121.946 Z-15.546
N1640 X120.437 Z-14.041
N1645 X118.759 Z-12.718
N1650 X116.898 Z-11.559
N1655 X114.953 Z-10.602
N1660 X112.891 Z-9.808
N1665 X110.787 Z-9.176
N1670 X107.175 Z-8.406
N1675 X103.527 Z-7.832
N1680 X99.124 Z-7.266
N1685 X93.236 Z-6.647
N1690 X84.383 Z-5.913
N1695 X74.677 Z-5.288
N1700 X61.303 Z-4.64
N1705 X44.24 Z-4.087
N1710 X41.339 Z-4.227
N1715 X38.699 Z-4.599
N1720 X36.099 Z-5.225
N1725 X33.578 Z-6.153
N1730 X31.776 Z-7.073
N1735 X30.075 Z-8.26
N1740 X29.056 Z-9.231
N1745 X28.158 Z-10.387
N1750 X27.798 Z-11.01
N1755 X27.438 Z-11.846
N1760 X27.136 Z-13.201
N1765 X27.018 Z-16.607
N1770 X26.888 Z-25.522
N1775 X22.617 Y126.487 Z-25.91
N1780 X22.847 Z-13.685
N1785 X23.038 Z-12.37
N1790 X23.37 Z-11.431
N1795 X23.702 Z-10.78
N1800 X24.564 Z-9.567
N1805 X25.557 Z-8.556
N1810 X27.218 Z-7.31
N1815 X28.993 Z-6.33
N1820 X30.862 Z-5.555
N1825 X32.945 Z-4.921
N1830 X36.062 Z-4.349
N1835 X38.721 Z-4.133
N1840 X47.728 Z-4.309
N1845 X66.612 Z-5.005
N1850 X79.433 Z-5.695
N1855 X88.324 Z-6.321
N1860 X95.697 Z-6.977
N1865 X101.58 Z-7.628
N1870 X105.979 Z-8.231
N1875 X109.257 Z-8.785
N1880 X111.777 Z-9.346
N1885 X113.187 Z-9.742
N1890 X115.097 Z-10.394
N1895 X117.265 Z-11.348
N1900 X119.469 Z-12.612
N1905 X121.191 Z-13.88
N1910 X122.895 Z-15.484
N1915 X124.411 Z-17.354
N1920 X125.718 Z-19.566
N1925 X126.902 Z-22.736
N1930 X127.489 Z-25.875
N1935 X127.499 Z-25.898
N1940 X127.517 Z-25.913
N1945 X127.541 Z-25.919
N1950 X128.782
N1955 X129.017 Y126.506 Z-25.921
N1960 X129.247 Y126.561 Z-25.926
N1965 X129.466 Y126.651 Z-25.935
N1970 X129.668 Y126.774 Z-25.947
N1975 X129.847 Y126.927 Z-25.962
N1980 X130.001 Y127.106 Z-25.98
N1985 X130.125 Y127.306 Z-26.
N1990 X130.215 Y127.524 Z-26.021
N1995 X130.27 Y127.753 Z-26.044
N2000 X130.289 Y127.987 Z-26.067
N2005 X130.27 Y128.222 Z-26.091
N2010 X130.215 Y128.451 Z-26.113
N2015 X130.125 Y128.668 Z-26.135
N2020 X130.001 Y128.869 Z-26.155
N2025 X129.847 Y129.048 Z-26.172
N2030 X129.668 Y129.201 Z-26.187
N2035 X129.466 Y129.324 Z-26.2
N2040 X129.247 Y129.414 Z-26.209
N2045 X129.017 Y129.469 Z-26.214
N2050 X128.782 Y129.487 Z-26.216
N2055 X128.758 Z-26.21
N2060 X128.739 Z-26.195
N2065 X128.729 Z-26.172
N2070 X128.17 Z-23.161
N2075 X127.297 Z-20.613
N2080 X126.38 Z-18.788
N2085 X126.037 Z-18.222
N2090 X125.008 Z-16.766
N2095 X123.363 Z-14.963
N2100 X122.29 Z-14.029
N2105 X121.148 Z-13.163
N2110 X119.291 Z-12.01
N2115 X117.344 Z-11.056
N2120 X114.588 Z-10.031
N2125 X113.183 Z-9.628
N2130 X111.751 Z-9.271
N2135 X110.301 Z-8.973
N2140 X107.39 Z-8.478
N2145 X101.525 Z-7.688
N2150 X94.315 Z-6.937
N2155 X86.938 Z-6.328
N2160 X77.996 Z-5.733
N2165 X61.384 Z-4.917
N2170 X47.798 Z-4.455
N2175 X34.668 Z-4.174
N2180 X31.622 Z-4.423
N2185 X28.999 Z-4.916
N2190 X26.435 Z-5.69
N2195 X24.572 Z-6.482
N2200 X22.52 Z-7.674
N2205 X21.161 Z-8.783
N2210 X20.2 Z-9.841
N2215 X19.383 Z-11.117
N2220 X18.932 Z-12.247
N2225 X18.722 Z-13.294
N2230 X18.472 Z-26.149
N2235 X17.462 Y130.229 Z-26.229
N2240 X16.457 Y130.976 Z-26.308
N2245 X14.458 Y132.487 Z-26.467
N2250 X14.723 Z-13.244
N2255 X15.07 Z-11.865
N2260 X15.688 Z-10.616
N2265 X16.556 Z-9.449
N2270 X17.918 Z-8.152
N2275 X19.806 Z-6.898
N2280 X21.625 Z-6.015
N2285 X23.522 Z-5.327
N2290 X25.463 Z-4.827
N2295 X28.098 Z-4.408
N2300 X30.957 Z-4.239
N2305 X43.799 Z-4.501
N2310 X62.643 Z-5.11
N2315 X74.503 Z-5.665
N2320 X83.194 Z-6.184
N2325 X91.771 Z-6.82
N2330 X98.957 Z-7.483
N2335 X105.022 Z-8.19
N2340 X109.411 Z-8.833
N2345 X112.32 Z-9.366
N2350 X113.755 Z-9.692
N2355 X116.576 Z-10.524
N2360 X118.61 Z-11.32
N2365 X120.584 Z-12.302
N2370 X122.698 Z-13.649
N2375 X124.869 Z-15.497
N2380 X126.514 Z-17.39
N2385 X127.959 Z-19.692
N2390 X128.786 Z-21.528
N2395 X129.003 Z-22.138
N2400 X129.567 Z-24.126
N2405 X129.964 Z-26.466
N2410 G2 X131.144 Z-25.541 I0.228 K0.925 F1000.
N2415 G1 X131.147 Y132.495 Z-25.382 F6000.
N2420 X131.156 Y132.516 Z-25.225
N2425 X131.171 Y132.552 Z-25.07
N2430 X131.191 Y132.602 Z-24.921
N2435 X131.217 Y132.665 Z-24.777
N2440 X131.248 Y132.74 Z-24.64
N2445 X131.284 Y132.828 Z-24.512
N2450 X131.325 Y132.927 Z-24.394
N2455 X131.369 Y133.036 Z-24.288
N2460 X131.418 Y133.154 Z-24.193
N2465 X131.47 Y133.28 Z-24.111
N2470 X131.525 Y133.413 Z-24.043
N2475 X131.581 Y133.552 Z-23.989
N2480 X131.64 Y133.695 Z-23.951
N2485 X131.7 Y133.84 Z-23.927
N2490 X131.76 Y133.987 Z-23.92
N2495 X131.821 Y134.134 Z-23.927
N2500 X131.881 Y134.28 Z-23.951
N2505 X131.939 Y134.423 Z-23.989
N2510 X131.996 Y134.561 Z-24.043
N2515 X132.051 Y134.694 Z-24.111
N2520 X132.103 Y134.821 Z-24.193
N2525 X132.151 Y134.939 Z-24.288
N2530 X132.196 Y135.048 Z-24.394
N2535 X132.237 Y135.147 Z-24.512
N2540 X132.273 Y135.235 Z-24.64
N2545 X132.304 Y135.31 Z-24.777
N2550 X132.33 Y135.373 Z-24.921
N2555 X132.35 Y135.423 Z-25.07
N2560 X132.365 Y135.459 Z-25.225
N2565 X132.374 Y135.48 Z-25.382
N2570 X132.377 Y135.487 Z-25.541
N2575 Z-25.861
N2580 G3 X131.189 Z-26.784 I-0.952 K0. F1000.
N2585 G1 X130.608 Z-23.671 F6000.
N2590 X129.95 Z-21.721
N2595 X129.442 Z-20.511
N2600 X128.803 Z-19.299
N2605 X127.444 Z-17.295
N2610 X126.279 Z-15.968
N2615 X124.704 Z-14.524
N2620 X122.657 Z-13.057
N2625 X119.923 Z-11.607
N2630 X117.37 Z-10.626
N2635 X114.903 Z-9.91
N2640 X113.468 Z-9.582
N2645 X110.558 Z-9.045
N2650 X106.169 Z-8.401
N2655 X100.291 Z-7.709
N2660 X92.921 Z-7.02
N2665 X84.053 Z-6.358
N2670 X73.526 Z-5.74
N2675 X55.514 Z-4.978
N2680 X34.363 Z-4.432
N2685 X26.054 Z-4.329
N2690 X23.295 Z-4.57
N2695 X20.674 Z-5.078
N2700 X18.12 Z-5.897
N2705 X16.276 Z-6.744
N2710 X14.543 Z-7.812
N2715 X13.466 Z-8.682
N2720 X12.493 Z-9.719
N2725 X11.666 Z-10.934
N2730 X11.076 Z-12.307
N2735 X10.823 Z-13.625
N2740 X10.691 Z-19.035
N2745 X10.562 Z-26.749
N2750 G3 X8.071 Z-24.936 I-0.585 K1.813 F1000.
N2755 G0 Z5.
N2760 X-81.334 Y93.488
N2765 Z-9.701
N2770 G1 Z-22.957 F1000.
N2775 G3 X-83.759 Z-24.789 I-1.905 K0.
N2780 G1 X-84.285 Z-14.479 F6000.
N2785 X-84.6 Z-13.693
N2790 X-85.353 Z-12.788
N2795 X-86.601 Z-11.888
N2800 X-88.4 Z-11.145
N2805 X-90.157 Z-10.665
N2810 X-92.704 Z-10.312
N2815 X-94.384 Z-10.294
N2820 X-99.708 Z-11.18
N2825 X-102.597 Z-11.995
N2830 X-104.606 Z-12.858
N2835 X-106.792 Z-14.147
N2840 X-108.283 Z-15.431
N2845 X-109.244 Z-16.509
N2850 X-110.267 Z-18.053
N2855 X-110.956 Z-19.517
N2860 X-111.663 Z-21.813
N2865 X-112.015 Z-24.512
N2870 X-112.033 Z-24.831
N2875 X-112.808 Y94.134 Z-24.821
N2880 X-113.503 Y94.849 Z-24.812
N2885 X-114.119 Y95.634 Z-24.802
N2890 X-114.656 Y96.488 Z-24.792
N2895 X-114.617 Z-24.019
N2900 X-114.211 Z-21.093
N2905 X-113.461 Z-18.588
N2910 X-112.574 Z-16.707
N2915 X-111.357 Z-14.863
N2920 X-109.864 Z-13.212
N2925 X-107.833 Z-11.589
N2930 X-105.697 Z-10.377
N2935 X-103.33 Z-9.389
N2940 X-100.228 Z-8.519
N2945 X-95.145 Z-7.654
N2950 X-92.459 Z-7.473
N2955 X-88.512 Z-7.549
N2960 X-85.575 Z-7.847
N2965 X-82.698 Z-8.428
N2970 X-79.845 Z-9.354
N2975 X-78.013 Z-10.31
N2980 X-76.886 Z-11.132
N2985 X-76.107 Z-11.908
N2990 X-75.541 Z-12.778
N2995 X-75.21 Z-13.83
N3000 X-74.823 Z-24.756
N3005 X-73.026 Y97.209 Z-24.769
N3010 X-71.23 Y97.933 Z-24.782
N3015 X-69.451 Y98.699 Z-24.795
N3020 X-67.682 Y99.488 Z-24.808
N3025 X-68.031 Z-13.431
N3030 X-68.315 Z-12.462
N3035 X-68.807 Z-11.577
N3040 X-69.622 Z-10.613
N3045 X-71.082 Z-9.437
N3050 X-73.152 Z-8.367
N3055 X-75.899 Z-7.373
N3060 X-78.029 Z-6.837
N3065 X-81.311 Z-6.322
N3070 X-85.383 Z-6.043
N3075 X-89.915 Z-6.098
N3080 X-94.837 Z-6.494
N3085 X-99.926 Z-7.334
N3090 X-103.161 Z-8.175
N3095 X-105.888 Z-9.238
N3100 X-108.188 Z-10.511
N3105 X-110.229 Z-12.055
N3110 X-111.935 Z-13.762
N3115 X-113.004 Z-15.158
N3120 X-114.226 Z-17.231
N3125 X-115.108 Z-19.427
N3130 X-115.638 Z-21.601
N3135 X-115.953 Z-23.865
N3140 X-116.001 Z-24.771
N3145 X-116.655 Y100.986 Z-24.677
N3150 X-117.301 Y102.488 Z-24.582
N3155 X-117.237 Z-23.567
N3160 X-116.782 Z-20.99
N3165 X-116.449 Z-19.781
N3170 X-115.504 Z-17.411
N3175 X-114.416 Z-15.607
N3180 X-113.255 Z-14.016
N3185 X-111.556 Z-12.318
N3190 X-109.659 Z-10.863
N3195 X-107.454 Z-9.583
N3200 X-104.588 Z-8.375
N3205 X-101.295 Z-7.431
N3210 X-96.873 Z-6.635
N3215 X-91.449 Z-5.918
N3220 X-85.795 Z-5.373
N3225 X-80.949 Z-5.229
N3230 X-77.208 Z-5.393
N3235 X-73.543 Z-5.842
N3240 X-70.664 Z-6.456
N3245 X-68.563 Z-7.114
N3250 X-66.647 Z-7.92
N3255 X-64.725 Z-9.083
N3260 X-63.651 Z-9.967
N3265 X-62.768 Z-10.955
N3270 X-62.15 Z-11.987
N3275 X-61.83 Z-12.93
N3280 X-61.744 Z-13.505
N3285 X-61.427 Z-24.679
N3290 X-59.991 Y103.222 Z-24.653
N3295 X-58.559 Y103.966 Z-24.628
N3300 X-57.13 Y104.716 Z-24.602
N3305 X-55.713 Y105.488 Z-24.576
N3310 X-55.993 Z-13.117
N3315 X-56.135 Z-12.447
N3320 X-56.472 Z-11.589
N3325 X-57.132 Z-10.546
N3330 X-58.038 Z-9.56
N3335 X-59.121 Z-8.678
N3340 X-60.965 Z-7.556
N3345 X-62.946 Z-6.689
N3350 X-65.755 Z-5.836
N3355 X-68.641 Z-5.245
N3360 X-72.314 Z-4.853
N3365 X-76.074 Z-4.769
N3370 X-80.456 Z-4.973
N3375 X-87.381 Z-5.564
N3380 X-92.97 Z-6.156
N3385 X-97.885 Z-6.81
N3390 X-101.168 Z-7.361
N3395 X-103.768 Z-7.954
N3400 X-106.322 Z-8.757
N3405 X-108.941 Z-9.919
N3410 X-110.833 Z-11.023
N3415 X-112.22 Z-12.019
N3420 X-113.99 Z-13.642
N3425 X-115.325 Z-15.248
N3430 X-116.65 Z-17.349
N3435 X-117.502 Z-19.366
N3440 X-118.124 Z-21.34
N3445 X-118.597 Z-24.381
N3450 X-118.606 Z-24.565
N3455 X-119.897 Y108.488 Z-24.744
N3460 X-119.878 Z-24.39
N3465 X-119.446 Z-21.71
N3470 X-118.747 Z-19.439
N3475 X-117.86 Z-17.45
N3480 X-116.319 Z-15.092
N3485 X-115.034 Z-13.639
N3490 X-113.109 Z-11.95
N3495 X-110.755 Z-10.429
N3500 X-108.714 Z-9.44
N3505 X-107.385 Z-8.907
N3510 X-104.914 Z-8.145
N3515 X-103.452 Z-7.784
N3520 X-99.688 Z-7.105
N3525 X-95.737 Z-6.55
N3530 X-88.979 Z-5.8
N3535 X-81.541 Z-5.159
N3540 X-71.92 Z-4.518
N3545 X-68.143 Z-4.495
N3550 X-64.45 Z-4.776
N3555 X-61.544 Z-5.267
N3560 X-58.704 Z-6.019
N3565 X-56.656 Z-6.8
N3570 X-54.746 Z-7.799
N3575 X-53.014 Z-9.048
N3580 X-52.049 Z-10.011
N3585 X-51.32 Z-11.045
N3590 X-50.855 Z-12.085
N3595 X-50.647 Z-12.967
N3600 X-50.359 Z-24.746
N3605 X-49.083 Y109.227 Z-24.738
N3610 X-47.808 Y109.969 Z-24.729
N3615 X-46.54 Y110.722 Z-24.72
N3620 X-45.279 Y111.488 Z-24.711
N3625 X-45.53 Z-13.289
N3630 X-45.618 Z-12.629
N3635 X-45.908 Z-11.663
N3640 X-46.462 Z-10.601
N3645 X-47.511 Z-9.3
N3650 X-48.832 Z-8.189
N3655 X-50.651 Z-7.075
N3660 X-52.642 Z-6.172
N3665 X-54.716 Z-5.486
N3670 X-57.586 Z-4.833
N3675 X-60.51 Z-4.444
N3680 X-64.251 Z-4.283
N3685 X-67.909 Z-4.42
N3690 X-78.145 Z-5.024
N3695 X-86.732 Z-5.681
N3700 X-93.335 Z-6.327
N3705 X-98.615 Z-6.976
N3710 X-102.56 Z-7.586
N3715 X-105.658 Z-8.233
N3720 X-108.383 Z-9.042
N3725 X-111.168 Z-10.218
N3730 X-113.362 Z-11.481
N3735 X-115.143 Z-12.809
N3740 X-116.398 Z-13.961
N3745 X-117.962 Z-15.822
N3750 X-118.925 Z-17.308
N3755 X-119.993 Z-19.573
N3760 X-120.679 Z-21.753
N3765 X-121.118 Z-24.146
N3770 X-121.179 Z-24.76
N3775 X-121.821 Y112.987 Z-24.844
N3780 X-122.461 Y114.488 Z-24.927
N3785 X-121.925 Z-21.849
N3790 X-121.11 Z-19.465
N3795 X-120.312 Z-17.777
N3800 X-118.774 Z-15.47
N3805 X-117.869 Z-14.433
N3810 X-116.107 Z-12.801
N3815 X-114.176 Z-11.426
N3820 X-113. Z-10.753
N3825 X-111.483 Z-10.004
N3830 X-109.297 Z-9.158
N3835 X-108.174 Z-8.799
N3840 X-105.431 Z-8.115
N3845 X-101.823 Z-7.478
N3850 X-96.223 Z-6.725
N3855 X-90.633 Z-6.134
N3860 X-83.554 Z-5.53
N3865 X-73.812 Z-4.869
N3870 X-59.981 Z-4.184
N3875 X-56.228 Z-4.26
N3880 X-53.295 Z-4.594
N3885 X-50.412 Z-5.192
N3890 X-48.32 Z-5.842
N3895 X-46.304 Z-6.698
N3900 X-44.441 Z-7.76
N3905 X-43.059 Z-8.829
N3910 X-41.913 Z-10.092
N3915 X-41.185 Z-11.302
N3920 X-40.807 Z-12.363
N3925 X-40.666 Z-13.265
N3930 X-40.409 Z-25.002
N3935 X-39.235 Y115.226 Z-25.044
N3940 X-38.068 Y115.977 Z-25.086
N3945 X-35.741 Y117.488 Z-25.17
N3950 X-36.008 Z-13.032
N3955 X-36.177 Z-12.178
N3960 X-36.578 Z-11.139
N3965 X-37.234 Z-10.067
N3970 X-38.109 Z-9.05
N3975 X-39.154 Z-8.131
N3980 X-40.965 Z-6.964
N3985 X-42.922 Z-6.035
N3990 X-45.345 Z-5.202
N3995 X-47.854 Z-4.632
N4000 X-51.145 Z-4.206
N4005 X-54.074 Z-4.108
N4010 X-62.358 Z-4.415
N4015 X-75.595 Z-5.095
N4020 X-84.528 Z-5.704
N4025 X-91.604 Z-6.312
N4030 X-97.044 Z-6.886
N4035 X-102.976 Z-7.679
N4040 X-106.255 Z-8.253
N4045 X-107.558 Z-8.53
N4050 X-108.847 Z-8.863
N4055 X-111.397 Z-9.687
N4060 X-113.864 Z-10.785
N4065 X-116.04 Z-12.064
N4070 X-118.092 Z-13.659
N4075 X-119.744 Z-15.366
N4080 X-121.172 Z-17.39
N4085 X-122.113 Z-19.088
N4090 X-123.116 Z-21.828
N4095 X-123.667 Z-24.653
N4100 X-123.73 Z-25.173
N4105 X-124.361 Y118.987 Z-25.278
N4110 X-124.991 Y120.488 Z-25.382
N4115 X-124.629 Z-23.12
N4120 X-123.925 Z-20.69
N4125 X-123.026 Z-18.647
N4130 X-121.721 Z-16.545
N4135 X-119.906 Z-14.438
N4140 X-117.82 Z-12.676
N4145 X-115.784 Z-11.381
N4150 X-113.707 Z-10.362
N4155 X-111.99 Z-9.686
N4160 X-109.205 Z-8.86
N4165 X-106.007 Z-8.194
N4170 X-102.064 Z-7.581
N4175 X-96.633 Z-6.911
N4180 X-89.866 Z-6.248
N4185 X-82.778 Z-5.687
N4190 X-73.656 Z-5.104
N4195 X-61.12 Z-4.499
N4200 X-50.561 Z-4.116
N4205 X-47.106 Z-4.132
N4210 X-44.17 Z-4.438
N4215 X-41.109 Z-5.069
N4220 X-38.507 Z-5.942
N4225 X-36.547 Z-6.866
N4230 X-35.035 Z-7.806
N4235 X-33.689 Z-8.939
N4240 X-32.798 Z-9.952
N4245 X-32.121 Z-11.025
N4250 X-31.692 Z-12.078
N4255 X-31.498 Z-12.971
N4260 X-31.225 Z-25.388
N4265 X-30.131 Y121.223 Z-25.445
N4270 X-29.044 Y121.971 Z-25.503
N4275 X-26.887 Y123.488 Z-25.618
N4280 X-27.072 Z-14.283
N4285 X-27.166 Z-12.953
N4290 X-27.355 Z-12.101
N4295 X-27.544 Z-11.564
N4300 X-27.966 Z-10.701
N4305 X-28.821 Z-9.497
N4310 X-30.285 Z-8.088
N4315 X-32.069 Z-6.905
N4320 X-34.019 Z-5.965
N4325 X-36.614 Z-5.075
N4330 X-38.945 Z-4.554
N4335 X-41.87 Z-4.181
N4340 X-45.108 Z-4.097
N4345 X-62.354 Z-4.683
N4350 X-74.069 Z-5.253
N4355 X-83.96 Z-5.881
N4360 X-92.371 Z-6.567
N4365 X-97.813 Z-7.116
N4370 X-104.709 Z-8.004
N4375 X-108.646 Z-8.684
N4380 X-111.379 Z-9.331
N4385 X-114.097 Z-10.251
N4390 X-115.022 Z-10.63
N4395 X-117.133 Z-11.683
N4400 X-119.125 Z-12.97
N4405 X-121.296 Z-14.841
N4410 X-123.007 Z-16.861
N4415 X-124.305 Z-18.971
N4420 X-125.046 Z-20.667
N4425 X-125.789 Z-23.002
N4430 X-126.242 Z-25.622
N4435 G3 X-127.435 Z-24.7 I-0.24 K0.922 F1000.
N4440 G1 X-127.438 Y123.495 Z-24.541 F6000.
N4445 X-127.447 Y123.516 Z-24.384
N4450 X-127.461 Y123.552 Z-24.23
N4455 X-127.482 Y123.602 Z-24.08
N4460 X-127.507 Y123.665 Z-23.937
N4465 X-127.538 Y123.74 Z-23.8
N4470 X-127.574 Y123.828 Z-23.673
N4475 X-127.614 Y123.927 Z-23.555
N4480 X-127.659 Y124.036 Z-23.448
N4485 X-127.707 Y124.154 Z-23.353
N4490 X-127.758 Y124.28 Z-23.272
N4495 X-127.813 Y124.413 Z-23.204
N4500 X-127.869 Y124.552 Z-23.15
N4505 X-127.927 Y124.695 Z-23.111
N4510 X-127.987 Y124.84 Z-23.088
N4515 X-128.047 Y124.988 Z-23.08
N4520 X-128.107 Y125.135 Z-23.088
N4525 X-128.166 Y125.28 Z-23.111
N4530 X-128.224 Y125.423 Z-23.15
N4535 X-128.281 Y125.562 Z-23.204
N4540 X-128.335 Y125.695 Z-23.272
N4545 X-128.386 Y125.821 Z-23.353
N4550 X-128.435 Y125.939 Z-23.448
N4555 X-128.479 Y126.048 Z-23.555
N4560 X-128.519 Y126.147 Z-23.673
N4565 X-128.555 Y126.235 Z-23.8
N4570 X-128.586 Y126.31 Z-23.937
N4575 X-128.612 Y126.373 Z-24.08
N4580 X-128.632 Y126.423 Z-24.23
N4585 X-128.647 Y126.459 Z-24.384
N4590 X-128.655 Y126.48 Z-24.541
N4595 X-128.658 Y126.487 Z-24.7
N4600 Z-24.973
N4605 G2 X-127.492 Z-25.901 I0.952 K0. F1000.
N4610 G1 X-126.918 Z-22.794 F6000.
N4615 X-125.982 Z-20.16
N4620 X-125.017 Z-18.294
N4625 X-123.55 Z-16.216
N4630 X-121.755 Z-14.357
N4635 X-120.013 Z-12.975
N4640 X-118.298 Z-11.889
N4645 X-116.184 Z-10.842
N4650 X-113.999 Z-10.004
N4655 X-112.077 Z-9.424
N4660 X-109.149 Z-8.763
N4665 X-104.73 Z-8.046
N4670 X-99.303 Z-7.359
N4675 X-92.388 Z-6.666
N4680 X-83.974 Z-5.998
N4685 X-74.673 Z-5.413
N4690 X-62.205 Z-4.812
N4695 X-42.617 Z-4.175
N4700 X-38.308 Z-4.151
N4705 X-35.371 Z-4.445
N4710 X-33.029 Z-4.901
N4715 X-30.413 Z-5.721
N4720 X-28.42 Z-6.617
N4725 X-26.597 Z-7.729
N4730 X-24.988 Z-9.1
N4735 X-24.124 Z-10.128
N4740 X-23.435 Z-11.29
N4745 X-23.09 Z-12.184
N4750 X-22.918 Z-12.935
N4755 X-22.853 Z-13.563
N4760 X-22.618 Z-25.878
N4765 X-21.571 Y127.223 Z-25.958
N4770 X-20.534 Y127.973 Z-26.038
N4775 X-18.471 Y129.487 Z-26.198
N4780 X-18.723 Z-13.291
N4785 X-18.959 Z-12.157
N4790 X-19.336 Z-11.212
N4795 X-19.98 Z-10.137
N4800 X-20.839 Z-9.105
N4805 X-22.294 Z-7.833
N4810 X-24.264 Z-6.637
N4815 X-26.264 Z-5.754
N4820 X-28.349 Z-5.083
N4825 X-31.227 Z-4.48
N4830 X-34.165 Z-4.193
N4835 X-40.422 Z-4.269
N4840 X-60.818 Z-4.893
N4845 X-72.651 Z-5.434
N4850 X-82.743 Z-6.032
N4855 X-91.327 Z-6.676
N4860 X-98.248 Z-7.324
N4865 X-103.831 Z-7.977
N4870 X-108.082 Z-8.593
N4875 X-111.504 Z-9.221
N4880 X-113.448 Z-9.697
N4885 X-115.996 Z-10.505
N4890 X-117.242 Z-11.014
N4895 X-119.059 Z-11.889
N4900 X-121.293 Z-13.262
N4905 X-122.959 Z-14.596
N4910 X-124.415 Z-16.063
N4915 X-125.901 Z-18.014
N4920 X-127.095 Z-20.164
N4925 X-127.913 Z-22.284
N4930 X-128.468 Z-24.514
N4935 X-128.729 Z-26.168
N4940 X-129.348 Y130.987 Z-26.312
N4945 X-129.963 Y132.487 Z-26.455
N4950 X-129.58 Z-24.177
N4955 X-128.904 Z-21.858
N4960 X-127.99 Z-19.755
N4965 X-126.662 Z-17.595
N4970 X-125.105 Z-15.739
N4975 X-123.608 Z-14.36
N4980 X-121.388 Z-12.767
N4985 X-118.696 Z-11.356
N4990 X-116.512 Z-10.502
N4995 X-115.402 Z-10.143
N5000 X-112.653 Z-9.434
N5005 X-108.724 Z-8.72
N5010 X-103.452 Z-7.993
N5015 X-96.691 Z-7.259
N5020 X-89.766 Z-6.656
N5025 X-80.11 Z-5.985
N5030 X-67.039 Z-5.292
N5035 X-53.534 Z-4.772
N5040 X-32.383 Z-4.253
N5045 X-29.395 Z-4.296
N5050 X-26.467 Z-4.636
N5055 X-23.958 Z-5.197
N5060 X-21.545 Z-6.049
N5065 X-19.61 Z-7.01
N5070 X-18.127 Z-7.991
N5075 X-16.821 Z-9.159
N5080 X-15.966 Z-10.195
N5085 X-15.423 Z-11.081
N5090 X-15.045 Z-11.933
N5095 X-14.715 Z-13.311
N5100 X-14.458 Z-26.493
N5105 X-13.477 Y133.229 Z-26.555
N5110 X-12.5 Y133.974 Z-26.618
N5115 X-10.562 Y135.487 Z-26.742
N5120 X-10.825 Z-13.597
N5125 X-10.938 Z-12.841
N5130 X-11.247 Z-11.818
N5135 X-11.788 Z-10.723
N5140 X-12.548 Z-9.652
N5145 X-13.9 Z-8.304
N5150 X-15.182 Z-7.38
N5155 X-17.068 Z-6.349
N5160 X-19.102 Z-5.538
N5165 X-21.213 Z-4.949
N5170 X-24.118 Z-4.468
N5175 X-27.101 Z-4.314
N5180 X-49.271 Z-4.783
N5185 X-63.617 Z-5.28
N5190 X-76.197 Z-5.882
N5195 X-89.07 Z-6.713
N5200 X-97.656 Z-7.444
N5205 X-103.724 Z-8.095
N5210 X-109.654 Z-8.902
N5215 X-113.08 Z-9.504
N5220 X-116.002 Z-10.195
N5225 X-117.593 Z-10.698
N5230 X-119.934 Z-11.612
N5235 X-122.619 Z-13.032
N5240 X-123.606 Z-13.696
N5245 X-124.705 Z-14.524
N5250 X-126.46 Z-16.16
N5255 X-127.984 Z-18.022
N5260 X-129.306 Z-20.227
N5265 X-130.26 Z-22.572
N5270 X-130.849 Z-24.719
N5275 X-131.187 Z-26.775
N5280 X-131.199 Z-26.803
N5285 X-131.222 Z-26.822
N5290 X-131.252 Z-26.829
N5295 X-132.474
N5300 X-132.71 Y135.506 Z-26.831
N5305 X-132.94 Y135.561 Z-26.837
N5310 X-133.159 Y135.651 Z-26.847
N5315 X-133.361 Y135.774 Z-26.86
N5320 X-133.541 Y135.927 Z-26.876
N5325 X-133.694 Y136.106 Z-26.895
N5330 X-133.818 Y136.306 Z-26.916
N5335 X-133.909 Y136.524 Z-26.939
N5340 X-133.964 Y136.753 Z-26.963
N5345 X-133.982 Y136.987 Z-26.988
N5350 X-133.964 Y137.222 Z-27.013
N5355 X-133.909 Y137.451 Z-27.037
N5360 X-133.818 Y137.668 Z-27.06
N5365 X-133.694 Y137.869 Z-27.081
N5370 X-133.541 Y138.048 Z-27.1
N5375 X-133.361 Y138.201 Z-27.116
N5380 X-133.159 Y138.324 Z-27.129
N5385 X-132.94 Y138.414 Z-27.139
N5390 X-132.71 Y138.469 Z-27.145
N5395 X-132.474 Y138.487 Z-27.147
N5400 X-132.444 Z-27.139
N5405 X-132.421 Z-27.119
N5410 X-132.41 Z-27.09
N5415 X-132.403 Z-27.041
N5420 X-131.872 Z-24.13
N5425 X-130.778 Z-21.04
N5430 X-129.74 Z-19.106
N5435 X-128.192 Z-17.001
N5440 X-126.623 Z-15.392
N5445 X-125.723 Z-14.633
N5450 X-123.909 Z-13.345
N5455 X-122.157 Z-12.356
N5460 X-120.159 Z-11.448
N5465 X-117.151 Z-10.419
N5470 X-114.561 Z-9.79
N5475 X-111.941 Z-9.301
N5480 X-107.845 Z-8.686
N5485 X-102.262 Z-8.009
N5490 X-96.518 Z-7.439
N5495 X-88.112 Z-6.756
N5500 X-78.073 Z-6.116
N5505 X-65.534 Z-5.498
N5510 X-48.589 Z-4.907
N5515 X-26.306 Z-4.449
N5520 X-21.418 Z-4.452
N5525 X-18.491 Z-4.796
N5530 X-16.034 Z-5.365
N5535 X-13.597 Z-6.271
N5540 X-11.697 Z-7.28
N5545 X-9.972 Z-8.546
N5550 X-8.989 Z-9.516
N5555 X-8.179 Z-10.571
N5560 X-7.58 Z-11.667
N5565 X-7.203 Z-12.768
N5570 X-7.026 Z-14.048
N5575 X-6.79 Z-27.108
N5580 X-5.092 Y139.248 Z-27.111
N5585 X-3.395 Y139.3 Z-27.114
N5590 X-1.698 Y139.352 Z-27.117
N5595 X0. Y139.405 Z-27.12
N5600 X1.697 Y139.352 Z-27.123
N5605 X3.394 Y139.3 Z-27.127
N5610 X5.092 Y139.248 Z-27.13
N5615 X6.789 Y138.487 Z-27.133
N5620 X7.012 Z-14.346
N5625 X7.061 Z-13.558
N5630 X7.309 Z-12.386
N5635 X7.648 Z-11.519
N5640 X8.416 Z-10.226
N5645 X9.341 Z-9.139
N5650 X10.916 Z-7.801
N5655 X12.665 Z-6.727
N5660 X14.504 Z-5.891
N5665 X16.418 Z-5.258
N5670 X19.032 Z-4.706
N5675 X21.825 Z-4.431
N5680 X34.667 Z-4.583
N5685 X56.573 Z-5.155
N5690 X74.702 Z-5.932
N5695 X85.223 Z-6.556
N5700 X94.09 Z-7.224
N5705 X101.458 Z-7.921
N5710 X107.336 Z-8.618
N5715 X111.726 Z-9.265
N5720 X114.634 Z-9.805
N5725 X116.069 Z-10.134
N5730 X118.891 Z-10.972
N5735 X120.926 Z-11.769
N5740 X122.9 Z-12.747
N5745 X124.725 Z-13.887
N5750 X126.154 Z-14.991
N5755 X127.866 Z-16.64
N5760 X129.448 Z-18.654
N5765 X130.664 Z-20.787
N5770 X131.629 Z-23.318
N5775 X131.834 Z-23.982
N5780 X132.41 Z-27.093
N5785 G2 X133.624 Z-26.177 I0.261 K0.916 F1000.
N5790 G1 X133.627 Y138.495 Z-26.019 F6000.
N5795 X133.635 Y138.516 Z-25.862
N5800 X133.649 Y138.552 Z-25.708
N5805 X133.669 Y138.602 Z-25.559
N5810 X133.694 Y138.664 Z-25.416
N5815 X133.724 Y138.74 Z-25.281
N5820 X133.758 Y138.828 Z-25.153
N5825 X133.798 Y138.927 Z-25.036
N5830 X133.841 Y139.036 Z-24.93
N5835 X133.887 Y139.154 Z-24.836
N5840 X133.937 Y139.28 Z-24.754
N5845 X133.99 Y139.413 Z-24.686
N5850 X134.045 Y139.552 Z-24.633
N5855 X134.101 Y139.695 Z-24.595
N5860 X134.159 Y139.84 Z-24.571
N5865 X134.217 Y139.987 Z-24.564
N5870 X134.275 Y140.134 Z-24.571
N5875 X134.332 Y140.28 Z-24.595
N5880 X134.389 Y140.423 Z-24.633
N5885 X134.444 Y140.561 Z-24.686
N5890 X134.496 Y140.694 Z-24.754
N5895 X134.546 Y140.821 Z-24.836
N5900 X134.593 Y140.939 Z-24.93
N5905 X134.636 Y141.048 Z-25.036
N5910 X134.675 Y141.147 Z-25.153
N5915 X134.71 Y141.234 Z-25.281
N5920 X134.74 Y141.31 Z-25.416
N5925 X134.764 Y141.373 Z-25.559
N5930 X134.784 Y141.423 Z-25.708
N5935 X134.798 Y141.458 Z-25.862
N5940 X134.807 Y141.48 Z-26.019
N5945 X134.81 Y141.487 Z-26.177
N5950 Z-26.534
N5955 G3 X133.628 Z-27.459 I-0.952 K0. F1000.
N5960 G1 X133.156 Z-24.761 F6000.
N5965 X132.394 Z-22.307
N5970 X131.257 Z-19.907
N5975 X129.814 Z-17.784
N5980 X128.128 Z-15.94
N5985 X126.121 Z-14.283
N5990 X124.072 Z-12.986
N5995 X123.104 Z-12.474
N6000 X120.77 Z-11.453
N6005 X119.03 Z-10.861
N6010 X117.622 Z-10.464
N6015 X115.466 Z-9.961
N6020 X111.832 Z-9.314
N6025 X107.438 Z-8.693
N6030 X101.557 Z-8.02
N6035 X94.187 Z-7.341
N6040 X85.309 Z-6.684
N6045 X74.777 Z-6.072
N6050 X57.429 Z-5.328
N6055 X35.523 Z-4.745
N6060 X18.15 Z-4.527
N6065 X15.399 Z-4.783
N6070 X12.784 Z-5.333
N6075 X10.867 Z-5.956
N6080 X9.022 Z-6.776
N6085 X7.059 Z-7.977
N6090 X6.499 Z-8.403
N6095 X-6.535 Z-8.387
N6100 X-7.384 Z-7.747
N6105 X-8.809 Z-6.887
N6110 X-10.78 Z-5.989
N6115 X-12.869 Z-5.31
N6120 X-15.019 Z-4.843
N6125 X-17.215 Z-4.579
N6130 X-20.832 Z-4.533
N6135 X-44.249 Z-4.936
N6140 X-61.616 Z-5.483
N6145 X-72.844 Z-5.97
N6150 X-84.483 Z-6.629
N6155 X-95.13 Z-7.418
N6160 X-102.05 Z-8.07
N6165 X-107.484 Z-8.699
N6170 X-112.898 Z-9.485
N6175 X-115.669 Z-10.004
N6180 X-116.971 Z-10.292
N6185 X-118.258 Z-10.633
N6190 X-120.804 Z-11.466
N6195 X-122.043 Z-11.981
N6200 X-123.857 Z-12.871
N6205 X-126.011 Z-14.208
N6210 X-127.743 Z-15.595
N6215 X-128.736 Z-16.545
N6220 X-130.355 Z-18.503
N6225 X-131.672 Z-20.687
N6230 X-132.599 Z-22.88
N6235 X-133.21 Z-24.983
N6240 X-133.625 Z-27.438
N6245 X-133.636 Z-27.463
N6250 X-133.657 Z-27.481
N6255 X-133.683 Z-27.487
N6260 X-134.893
N6265 X-135.13 Y141.506 Z-27.49
N6270 X-135.36 Y141.561 Z-27.496
N6275 X-135.579 Y141.651 Z-27.507
N6280 X-135.781 Y141.774 Z-27.522
N6285 X-135.962 Y141.927 Z-27.541
N6290 X-136.116 Y142.106 Z-27.563
N6295 X-136.24 Y142.306 Z-27.588
N6300 X-136.33 Y142.524 Z-27.614
N6305 X-136.386 Y142.753 Z-27.642
N6310 X-136.404 Y142.987 Z-27.671
N6315 X-136.386 Y143.222 Z-27.7
N6320 X-136.33 Y143.451 Z-27.728
N6325 X-136.24 Y143.668 Z-27.755
N6330 X-136.116 Y143.869 Z-27.779
N6335 X-135.962 Y144.048 Z-27.801
N6340 X-135.781 Y144.201 Z-27.82
N6345 X-135.579 Y144.324 Z-27.835
N6350 X-135.36 Y144.414 Z-27.846
N6355 X-135.13 Y144.469 Z-27.853
N6360 X-134.893 Y144.487 Z-27.855
N6365 X-134.867 Z-27.849
N6370 X-134.846 Z-27.831
N6375 X-134.835 Z-27.806
N6380 X-134.396 Z-25.215
N6385 X-133.712 Z-22.921
N6390 X-132.654 Z-20.547
N6395 X-131.295 Z-18.439
N6400 X-129.733 Z-16.62
N6405 X-128.095 Z-15.14
N6410 X-126.431 Z-13.945
N6415 X-124.687 Z-12.933
N6420 X-122.238 Z-11.814
N6425 X-119.942 Z-11.017
N6430 X-117.114 Z-10.286
N6435 X-114.499 Z-9.785
N6440 X-110.254 Z-9.132
N6445 X-104.674 Z-8.442
N6450 X-97.607 Z-7.743
N6455 X-89.196 Z-7.073
N6460 X-79.914 Z-6.478
N6465 X-66.85 Z-5.83
N6470 X-51.784 Z-5.287
N6475 X-29.122 Z-4.784
N6480 X-14.032 Z-4.662
N6485 X-11.828 Z-4.873
N6490 X-9.666 Z-5.283
N6495 X-7.625 Z-5.898
N6500 X7.544 Z-5.92
N6505 X9.157 Z-5.412
N6510 X11.95 Z-4.856
N6515 X14.786 Z-4.636
N6520 X34.785 Z-4.879
N6525 X56.691 Z-5.444
N6530 X74.821 Z-6.204
N6535 X85.359 Z-6.812
N6540 X94.24 Z-7.457
N6545 X101.612 Z-8.119
N6550 X107.497 Z-8.773
N6555 X112.626 Z-9.48
N6560 X116.266 Z-10.111
N6565 X118.421 Z-10.598
N6570 X120.545 Z-11.213
N6575 X123.288 Z-12.253
N6580 X125.23 Z-13.223
N6585 X127.083 Z-14.382
N6590 X128.221 Z-15.245
N6595 X128.9 Z-15.819
N6600 X130.857 Z-17.863
N6605 X132.329 Z-19.98
N6610 X133.47 Z-22.27
N6615 X134.317 Z-24.864
N6620 X134.838 Z-27.828
N6625 G2 X135.996 Z-26.898 I0.206 K0.93 F1000.
N6630 G1 X135.999 Y144.494 Z-26.74 F6000.
N6635 X136.008 Y144.516 Z-26.583
N6640 X136.022 Y144.552 Z-26.43
N6645 X136.042 Y144.601 Z-26.281
N6650 X136.066 Y144.664 Z-26.138
N6655 X136.096 Y144.74 Z-26.002
N6660 X136.131 Y144.828 Z-25.875
N6665 X136.17 Y144.927 Z-25.757
N6670 X136.213 Y145.036 Z-25.651
N6675 X136.26 Y145.154 Z-25.557
N6680 X136.31 Y145.28 Z-25.476
N6685 X136.362 Y145.413 Z-25.408
N6690 X136.417 Y145.552 Z-25.355
N6695 X136.473 Y145.695 Z-25.316
N6700 X136.531 Y145.84 Z-25.293
N6705 X136.589 Y145.987 Z-25.285
N6710 X136.647 Y146.134 Z-25.293
N6715 X136.705 Y146.28 Z-25.316
N6720 X136.761 Y146.423 Z-25.355
N6725 X136.816 Y146.561 Z-25.408
N6730 X136.868 Y146.694 Z-25.476
N6735 X136.918 Y146.821 Z-25.557
N6740 X136.965 Y146.939 Z-25.651
N6745 X137.008 Y147.048 Z-25.757
N6750 X137.047 Y147.147 Z-25.875
N6755 X137.082 Y147.234 Z-26.002
N6760 X137.112 Y147.31 Z-26.138
N6765 X137.137 Y147.373 Z-26.281
N6770 X137.156 Y147.423 Z-26.43
N6775 X137.17 Y147.458 Z-26.583
N6780 X137.179 Y147.48 Z-26.74
N6785 X137.182 Y147.487 Z-26.898
N6790 Z-27.258
N6795 G3 X136.035 Z-28.19 I-0.952 K0. F1000.
N6800 G1 X135.504 Z-25.15 F6000.
N6805 X135.157 Z-24.025
N6810 X134.399 Z-21.972
N6815 X133.487 Z-20.225
N6820 X132.758 Z-19.101
N6825 X131.408 Z-17.411
N6830 X129.916 Z-15.939
N6835 X128.192 Z-14.588
N6840 X126.374 Z-13.454
N6845 X123.9 Z-12.262
N6850 X120.965 Z-11.205
N6855 X118.114 Z-10.482
N6860 X116.664 Z-10.186
N6865 X111.917 Z-9.419
N6870 X106.413 Z-8.721
N6875 X99.05 Z-7.975
N6880 X90.195 Z-7.262
N6885 X79.731 Z-6.598
N6890 X62.358 Z-5.788
N6895 X41.962 Z-5.177
N6900 X19.301 Z-4.813
N6905 X10.236 Z-4.787
N6910 X8.196 Z-4.93
N6915 X-8.798 Z-4.912
N6920 X-11.347 Z-4.752
N6925 X-35.959 Z-5.051
N6930 X-57.109 Z-5.599
N6935 X-70.609 Z-6.133
N6940 X-82.832 Z-6.779
N6945 X-92.354 Z-7.421
N6950 X-100.606 Z-8.119
N6955 X-108.538 Z-8.973
N6960 X-113.807 Z-9.703
N6965 X-117.741 Z-10.404
N6970 X-121.295 Z-11.309
N6975 X-124.123 Z-12.356
N6980 X-126.528 Z-13.536
N6985 X-128.999 Z-15.177
N6990 X-129.857 Z-15.89
N6995 X-130.878 Z-16.851
N7000 X-132.331 Z-18.52
N7005 X-133.526 Z-20.294
N7010 X-134.402 Z-21.98
N7015 X-135.411 Z-24.795
N7020 X-135.891 Z-27.273
N7025 X-136.034 Z-28.179
N7030 G3 X-137.191 Z-27.249 I-0.205 K0.93 F1000.
N7035 G1 X-137.194 Y147.494 Z-27.091 F6000.
N7040 X-137.203 Y147.516 Z-26.934
N7045 X-137.217 Y147.552 Z-26.78
N7050 X-137.237 Y147.601 Z-26.631
N7055 X-137.262 Y147.664 Z-26.488
N7060 X-137.292 Y147.74 Z-26.352
N7065 X-137.327 Y147.828 Z-26.224
N7070 X-137.367 Y147.927 Z-26.107
N7075 X-137.41 Y148.036 Z-26.
N7080 X-137.458 Y148.154 Z-25.906
N7085 X-137.508 Y148.28 Z-25.824
N7090 X-137.561 Y148.413 Z-25.757
N7095 X-137.617 Y148.552 Z-25.703
N7100 X-137.674 Y148.695 Z-25.665
N7105 X-137.732 Y148.84 Z-25.641
N7110 X-137.791 Y148.987 Z-25.634
N7115 X-137.849 Y149.134 Z-25.641
N7120 X-137.908 Y149.28 Z-25.665
N7125 X-137.965 Y149.423 Z-25.703
N7130 X-138.02 Y149.561 Z-25.757
N7135 X-138.073 Y149.694 Z-25.824
N7140 X-138.124 Y149.821 Z-25.906
N7145 X-138.171 Y149.939 Z-26.
N7150 X-138.215 Y150.048 Z-26.107
N7155 X-138.254 Y150.147 Z-26.224
N7160 X-138.289 Y150.234 Z-26.352
N7165 X-138.32 Y150.31 Z-26.488
N7170 X-138.345 Y150.373 Z-26.631
N7175 X-138.365 Y150.423 Z-26.78
N7180 X-138.379 Y150.458 Z-26.934
N7185 X-138.387 Y150.48 Z-27.091
N7190 X-138.39 Y150.487 Z-27.249
N7195 Z-27.599
N7200 G2 X-137.228 Z-28.528 I0.952 K0. F1000.
N7205 G1 X-137.114 Z-27.781 F6000.
N7210 X-136.566 Z-24.984
N7215 X-135.606 Z-22.318
N7220 X-134.673 Z-20.516
N7225 X-133.465 Z-18.736
N7230 X-132.017 Z-17.083
N7235 X-130.513 Z-15.724
N7240 X-128.845 Z-14.506
N7245 X-126.805 Z-13.317
N7250 X-124.67 Z-12.341
N7255 X-122.495 Z-11.562
N7260 X-119.553 Z-10.775
N7265 X-116.943 Z-10.257
N7270 X-112.85 Z-9.61
N7275 X-107.423 Z-8.922
N7280 X-100.508 Z-8.214
N7285 X-92.103 Z-7.522
N7290 X-82.405 Z-6.883
N7295 X-69.156 Z-6.207
N7300 X-55.641 Z-5.694
N7305 X-34.49 Z-5.171
N7310 X-9.562 Z-4.89
N7315 X16.121 Z-4.936
N7320 X39.537 Z-5.266
N7325 X60.688 Z-5.867
N7330 X78.817 Z-6.68
N7335 X89.313 Z-7.323
N7340 X98.023 Z-7.993
N7345 X105.39 Z-8.697
N7350 X111.269 Z-9.395
N7355 X115.661 Z-10.039
N7360 X118.567 Z-10.566
N7365 X120.276 Z-10.941
N7370 X122.84 Z-11.679
N7375 X125.585 Z-12.729
N7380 X127.525 Z-13.698
N7385 X129.389 Z-14.866
N7390 X131.062 Z-16.182
N7395 X132.613 Z-17.714
N7400 X133.491 Z-18.772
N7405 X134.483 Z-20.188
N7410 X135.595 Z-22.292
N7415 X136.669 Z-25.36
N7420 X137.225 Z-28.503
N7425 G2 X138.446 Z-27.589 I0.269 K0.914 F1000.
N7430 G1 X138.449 Y150.494 Z-27.433 F6000.
N7435 X138.457 Y150.516 Z-27.277
N7440 X138.47 Y150.552 Z-27.125
N7445 X138.488 Y150.601 Z-26.977
N7450 X138.512 Y150.664 Z-26.835
N7455 X138.54 Y150.74 Z-26.701
N7460 X138.572 Y150.828 Z-26.575
N7465 X138.609 Y150.926 Z-26.458
N7470 X138.649 Y151.036 Z-26.353
N7475 X138.693 Y151.154 Z-26.259
N7480 X138.74 Y151.28 Z-26.179
N7485 X138.789 Y151.413 Z-26.112
N7490 X138.841 Y151.552 Z-26.059
N7495 X138.893 Y151.695 Z-26.021
N7500 X138.947 Y151.84 Z-25.998
N7505 X139.002 Y151.987 Z-25.99
N7510 X139.056 Y152.134 Z-25.998
N7515 X139.11 Y152.28 Z-26.021
N7520 X139.163 Y152.423 Z-26.059
N7525 X139.215 Y152.561 Z-26.112
N7530 X139.264 Y152.694 Z-26.179
N7535 X139.311 Y152.82 Z-26.259
N7540 X139.355 Y152.939 Z-26.353
N7545 X139.395 Y153.048 Z-26.458
N7550 X139.432 Y153.147 Z-26.575
N7555 X139.464 Y153.234 Z-26.701
N7560 X139.492 Y153.31 Z-26.835
N7565 X139.515 Y153.373 Z-26.977
N7570 X139.534 Y153.423 Z-27.125
N7575 X139.547 Y153.458 Z-27.277
N7580 X139.555 Y153.48 Z-27.433
N7585 X139.558 Y153.487 Z-27.589
N7590 Z-27.976
N7595 G3 X138.411 Z-28.909 I-0.952 K0. F1000.
N7600 G1 X138.136 Z-27.124 F6000.
N7605 X137.884 Z-25.848
N7610 X137.533 Z-24.628
N7615 X137.047 Z-23.281
N7620 X136.542 Z-22.088
N7625 X135.545 Z-20.302
N7630 X133.974 Z-18.197
N7635 X132.164 Z-16.391
N7640 X130.683 Z-15.214
N7645 X128.545 Z-13.875
N7650 X126.256 Z-12.767
N7655 X124.894 Z-12.224
N7660 X122.085 Z-11.352
N7665 X119.932 Z-10.842
N7670 X117.759 Z-10.425
N7675 X113.375 Z-9.744
N7680 X107.65 Z-9.032
N7685 X100.285 Z-8.299
N7690 X91.43 Z-7.592
N7695 X80.97 Z-6.931
N7700 X65.168 Z-6.179
N7705 X44.773 Z-5.532
N7710 X21.356 Z-5.131
N7715 X-4.327 Z-5.022
N7720 X-30.01 Z-5.24
N7725 X-52.671 Z-5.746
N7730 X-67.755 Z-6.284
N7735 X-81.697 Z-6.971
N7740 X-91.728 Z-7.614
N7745 X-101.309 Z-8.393
N7750 X-108.374 Z-9.116
N7755 X-113.801 Z-9.803
N7760 X-117.894 Z-10.449
N7765 X-120.504 Z-10.964
N7770 X-123.407 Z-11.721
N7775 X-126.238 Z-12.76
N7780 X-128.075 Z-13.625
N7785 X-129.818 Z-14.634
N7790 X-131.621 Z-15.936
N7795 X-132.514 Z-16.697
N7800 X-134.056 Z-18.292
N7805 X-135.62 Z-20.419
N7810 X-135.998 Z-21.063
N7815 X-136.793 Z-22.632
N7820 X-137.819 Z-25.584
N7825 X-138.064 Z-26.704
N7830 X-138.406 Z-28.86
N7835 X-138.995 Y154.987 Z-29.044
N7840 X-139.584 Y156.487 Z-29.229
N7845 X-139.528 Z-28.734
N7850 X-139.027 Z-26.054
N7855 X-138.389 Z-23.991
N7860 X-137.657 Z-22.283
N7865 X-136.459 Z-20.208
N7870 X-134.921 Z-18.232
N7875 X-133.066 Z-16.436
N7880 X-131.024 Z-14.924
N7885 X-129.281 Z-13.907
N7890 X-127.45 Z-13.038
N7895 X-125.579 Z-12.31
N7900 X-123.025 Z-11.533
N7905 X-120.424 Z-10.937
N7910 X-117.803 Z-10.465
N7915 X-112.387 Z-9.68
N7920 X-105.629 Z-8.91
N7925 X-98.859 Z-8.286
N7930 X-89.249 Z-7.567
N7935 X-77.777 Z-6.892
N7940 X-63.911 Z-6.27
N7945 X-42.76 Z-5.63
N7950 X-18.588 Z-5.25
N7955 X7.85 Z-5.181
N7960 X32.778 Z-5.433
N7965 X55.439 Z-5.975
N7970 X75.079 Z-6.756
N7975 X87.732 Z-7.468
N7980 X97.357 Z-8.163
N7985 X105.467 Z-8.894
N7990 X111.351 Z-9.551
N7995 X115.6 Z-10.123
N8000 X119.931 Z-10.839
N8005 X122.856 Z-11.488
N8010 X124.973 Z-12.105
N8015 X127.035 Z-12.861
N8020 X128.852 Z-13.679
N8025 X130.907 Z-14.846
N8030 X132.666 Z-16.102
N8035 X134.7 Z-17.988
N8040 X136.101 Z-19.687
N8045 X136.498 Z-20.268
N8050 X137.686 Z-22.345
N8055 X138.602 Z-24.599
N8060 X139.099 Z-26.349
N8065 X139.588 Z-29.276
N8070 X140.175 Y157.987 Z-29.47
N8075 X140.759 Y159.487 Z-29.665
N8080 X140.277 Z-26.714
N8085 X139.554 Z-24.273
N8090 X138.427 Z-21.806
N8095 X138.017 Z-21.116
N8100 X137.217 Z-19.907
N8105 X135.686 Z-18.075
N8110 X134.331 Z-16.802
N8115 X133.233 Z-15.92
N8120 X131.094 Z-14.526
N8125 X128.815 Z-13.38
N8130 X126.783 Z-12.573
N8135 X123.967 Z-11.718
N8140 X121.267 Z-11.109
N8145 X116.71 Z-10.343
N8150 X112.312 Z-9.75
N8155 X106.428 Z-9.091
N8160 X98.32 Z-8.357
N8165 X88.698 Z-7.659
N8170 X75.14 Z-6.897
N8175 X55.5 Z-6.123
N8180 X32.839 Z-5.583
N8185 X7.911 Z-5.331
N8190 X-15.859 Z-5.378
N8195 X-40.032 Z-5.718
N8200 X-61.938 Z-6.34
N8205 X-75.274 Z-6.904
N8210 X-87.461 Z-7.579
N8215 X-96.518 Z-8.215
N8220 X-104.767 Z-8.929
N8225 X-111.678 Z-9.673
N8230 X-117.102 Z-10.404
N8235 X-121.038 Z-11.065
N8240 X-123.647 Z-11.633
N8245 X-124.933 Z-11.975
N8250 X-127.826 Z-12.958
N8255 X-130.235 Z-14.057
N8260 X-131.118 Z-14.539
N8265 X-132.285 Z-15.256
N8270 X-134.282 Z-16.757
N8275 X-136.025 Z-18.449
N8280 X-137.532 Z-20.361
N8285 X-138.757 Z-22.446
N8290 X-139.632 Z-24.499
N8295 X-140.323 Z-26.907
N8300 X-140.756 Z-29.628
N8305 X-140.765 Z-29.65
N8310 X-140.783 Z-29.666
N8315 X-140.807 Z-29.672
N8320 X-141.976
N8325 X-142.213 Y159.506 Z-29.674
N8330 X-142.444 Y159.56 Z-29.682
N8335 X-142.663 Y159.651 Z-29.694
N8340 X-142.866 Y159.774 Z-29.711
N8345 X-143.047 Y159.926 Z-29.732
N8350 X-143.201 Y160.105 Z-29.756
N8355 X-143.325 Y160.306 Z-29.784
N8360 X-143.416 Y160.523 Z-29.813
N8365 X-143.471 Y160.752 Z-29.845
N8370 X-143.49 Y160.987 Z-29.877
N8375 X-143.471 Y161.222 Z-29.909
N8380 X-143.416 Y161.451 Z-29.94
N8385 X-143.325 Y161.668 Z-29.97
N8390 X-143.201 Y161.869 Z-29.997
N8395 X-143.047 Y162.048 Z-30.022
N8400 X-142.866 Y162.201 Z-30.042
N8405 X-142.663 Y162.324 Z-30.059
N8410 X-142.444 Y162.414 Z-30.071
N8415 X-142.213 Y162.469 Z-30.079
N8420 X-141.976 Y162.487 Z-30.082
N8425 X-141.952 Z-30.076
N8430 X-141.934 Z-30.06
N8435 X-141.925 Z-30.037
N8440 X-141.561 Z-27.684
N8445 X-140.971 Z-25.337
N8450 X-139.991 Z-22.897
N8455 X-138.649 Z-20.593
N8460 X-137.592 Z-19.21
N8465 X-136.909 Z-18.442
N8470 X-135.167 Z-16.808
N8475 X-133.537 Z-15.596
N8480 X-131.79 Z-14.539
N8485 X-129.984 Z-13.644
N8490 X-128.278 Z-12.941
N8495 X-124.926 Z-11.91
N8500 X-121.013 Z-11.086
N8505 X-114.285 Z-10.074
N8510 X-108.852 Z-9.443
N8515 X-101.933 Z-8.777
N8520 X-93.671 Z-8.124
N8525 X-82.579 Z-7.42
N8530 X-69.461 Z-6.778
N8535 X-55.902 Z-6.281
N8540 X-33.24 Z-5.739
N8545 X-8.313 Z-5.482
N8550 X15.506 Z-5.524
N8555 X39.678 Z-5.86
N8560 X61.584 Z-6.472
N8565 X74.987 Z-7.028
N8570 X88.116 Z-7.749
N8575 X98.191 Z-8.466
N8580 X106.738 Z-9.225
N8585 X113.942 Z-10.031
N8590 X118.041 Z-10.601
N8595 X120.962 Z-11.08
N8600 X123.857 Z-11.649
N8605 X125.289 Z-12.006
N8610 X126.693 Z-12.406
N8615 X128.092 Z-12.877
N8620 X129.454 Z-13.416
N8625 X131.432 Z-14.345
N8630 X133.309 Z-15.442
N8635 X133.904 Z-15.85
N8640 X135.671 Z-17.241
N8645 X137.349 Z-18.924
N8650 X138.46 Z-20.33
N8655 X139.347 Z-21.696
N8660 X140.46 Z-23.95
N8665 X141.311 Z-26.498
N8670 X141.923 Z-30.024
N8675 X142.507 Y163.985 Z-30.221
N8680 X143.082 Y165.487 Z-30.418
N8685 X142.483 Z-26.882
N8690 X142.134 Z-25.687
N8695 X141.386 Z-23.724
N8700 X140.479 Z-21.964
N8705 X139.755 Z-20.824
N8710 X138.3 Z-18.989
N8715 X136.661 Z-17.381
N8720 X135.247 Z-16.25
N8725 X133.076 Z-14.876
N8730 X130.837 Z-13.774
N8735 X128.084 Z-12.734
N8740 X125.609 Z-12.029
N8745 X123.806 Z-11.631
N8750 X120.9 Z-11.097
N8755 X115.042 Z-10.248
N8760 X109.161 Z-9.571
N8765 X101.793 Z-8.877
N8770 X92.929 Z-8.195
N8775 X81.68 Z-7.506
N8780 X62.795 Z-6.658
N8785 X40.889 Z-6.031
N8790 X16.717 Z-5.682
N8795 X-9.721 Z-5.638
N8800 X-34.649 Z-5.91
N8805 X-57.31 Z-6.47
N8810 X-70.132 Z-6.947
N8815 X-84.076 Z-7.638
N8820 X-94.7 Z-8.321
N8825 X-103.112 Z-8.992
N8830 X-110.029 Z-9.665
N8835 X-115.612 Z-10.323
N8840 X-120.697 Z-11.064
N8845 X-123.645 Z-11.598
N8850 X-126.245 Z-12.198
N8855 X-129.429 Z-13.196
N8860 X-131.282 Z-13.966
N8865 X-133.381 Z-15.042
N8870 X-135.369 Z-16.336
N8875 X-137.45 Z-18.091
N8880 X-139.212 Z-20.079
N8885 X-139.699 Z-20.747
N8890 X-140.482 Z-21.97
N8895 X-141.422 Z-23.808
N8900 X-141.969 Z-25.175
N8905 X-142.648 Z-27.648
N8910 X-143.081 Z-30.406
N8915 X-143.653 Y166.987 Z-30.592
N8920 X-144.224 Y168.487 Z-30.778
N8925 X-144.202 Z-30.506
N8930 X-143.891 Z-28.462
N8935 X-143.579 Z-27.032
N8940 X-143.146 Z-25.602
N8945 X-142.814 Z-24.699
N8950 X-141.642 Z-22.293
N8955 X-140.502 Z-20.569
N8960 X-140.042 Z-19.974
N8965 X-138.186 Z-18.002
N8970 X-136.215 Z-16.405
N8975 X-134.34 Z-15.209
N8980 X-132.262 Z-14.155
N8985 X-129.434 Z-13.057
N8990 X-126.869 Z-12.304
N8995 X-124.113 Z-11.7
N9000 X-120.178 Z-11.034
N9005 X-114.757 Z-10.295
N9010 X-107.997 Z-9.555
N9015 X-99.599 Z-8.813
N9020 X-91.003 Z-8.194
N9025 X-79.518 Z-7.528
N9030 X-66.875 Z-6.955
N9035 X-45.725 Z-6.289
N9040 X-22.308 Z-5.885
N9045 X3.375 Z-5.768
N9050 X29.813 Z-5.98
N9055 X53.23 Z-6.489
N9060 X73.625 Z-7.242
N9065 X87.968 Z-8.002
N9070 X96.886 Z-8.605
N9075 X105.739 Z-9.34
N9080 X113.101 Z-10.099
N9085 X118.97 Z-10.853
N9090 X123.352 Z-11.562
N9095 X126.245 Z-12.153
N9100 X129.073 Z-12.933
N9105 X130.472 Z-13.416
N9110 X132.489 Z-14.255
N9115 X134.44 Z-15.265
N9120 X135.668 Z-16.032
N9125 X136.842 Z-16.861
N9130 X138.959 Z-18.753
N9135 X140.453 Z-20.502
N9140 X141.861 Z-22.684
N9145 X142.993 Z-25.16
N9150 X143.737 Z-27.684
N9155 X144.226 Z-30.822
N9160 X144.795 Y169.987 Z-30.987
N9165 X145.363 Y171.487 Z-31.151
N9170 X144.921 Z-28.2
N9175 X144.266 Z-25.866
N9180 X143.48 Z-23.946
N9185 X142.513 Z-22.162
N9190 X141.719 Z-20.959
N9195 X140.193 Z-19.134
N9200 X138.015 Z-17.168
N9205 X136.535 Z-16.119
N9210 X134.338 Z-14.859
N9215 X132.68 Z-14.106
N9220 X130.621 Z-13.331
N9225 X128.515 Z-12.691
N9230 X127.087 Z-12.331
N9235 X124.193 Z-11.748
N9240 X119.813 Z-11.041
N9245 X114.09 Z-10.305
N9250 X106.73 Z-9.541
N9255 X98.029 Z-8.814
N9260 X87.613 Z-8.114
N9265 X72.671 Z-7.341
N9270 X52.276 Z-6.609
N9275 X28.859 Z-6.116
N9280 X2.42 Z-5.917
N9285 X-24.018 Z-6.053
N9290 X-47.435 Z-6.479
N9295 X-67.83 Z-7.137
N9300 X-81.014 Z-7.742
N9305 X-92.354 Z-8.413
N9310 X-103.444 Z-9.248
N9315 X-111.386 Z-10.005
N9320 X-117.989 Z-10.79
N9325 X-122.087 Z-11.388
N9330 X-124.708 Z-11.841
N9335 X-127.891 Z-12.521
N9340 X-130.672 Z-13.348
N9345 X-132.557 Z-14.053
N9350 X-134.99 Z-15.212
N9355 X-136.717 Z-16.242
N9360 X-138.749 Z-17.771
N9365 X-140.593 Z-19.578
N9370 X-141.267 Z-20.38
N9375 X-142.121 Z-21.545
N9380 X-143.339 Z-23.647
N9385 X-144.186 Z-25.632
N9390 X-144.718 Z-27.362
N9395 X-145.225 Z-29.93
N9400 X-145.368 Z-31.252
N9405 X-146.501 Y174.487 Z-31.601
N9410 X-146.488 Z-31.385
N9415 X-146.016 Z-28.375
N9420 X-145.324 Z-25.97
N9425 X-144.246 Z-23.502
N9430 X-142.776 Z-21.164
N9435 X-141.42 Z-19.533
N9440 X-139.926 Z-18.098
N9445 X-137.761 Z-16.458
N9450 X-135.692 Z-15.246
N9455 X-133.459 Z-14.214
N9460 X-130.939 Z-13.307
N9465 X-128.209 Z-12.57
N9470 X-124.294 Z-11.799
N9475 X-120.051 Z-11.148
N9480 X-114.473 Z-10.442
N9485 X-108.884 Z-9.857
N9490 X-101.658 Z-9.221
N9495 X-91.732 Z-8.502
N9500 X-80.08 Z-7.833
N9505 X-65.941 Z-7.206
N9510 X-44.79 Z-6.563
N9515 X-20.618 Z-6.168
N9520 X5.821 Z-6.073
N9525 X31.504 Z-6.305
N9530 X54.92 Z-6.831
N9535 X75.316 Z-7.602
N9540 X88.9 Z-8.326
N9545 X99.308 Z-9.033
N9550 X108.007 Z-9.771
N9555 X115.367 Z-10.545
N9560 X121.087 Z-11.291
N9565 X125.466 Z-12.013
N9570 X128.404 Z-12.612
N9575 X131.188 Z-13.392
N9580 X132.586 Z-13.873
N9585 X135.67 Z-15.234
N9590 X137.781 Z-16.472
N9595 X139.521 Z-17.749
N9600 X141.503 Z-19.623
N9605 X142.921 Z-21.364
N9610 X143.874 Z-22.835
N9615 X144.941 Z-24.982
N9620 X145.656 Z-26.986
N9625 X146.175 Z-29.22
N9630 X146.5 Z-31.586
N9635 X147.635 Y177.487 Z-31.986
N9640 X147.269 Z-29.448
N9645 X146.764 Z-27.259
N9650 X145.908 Z-24.931
N9655 X144.656 Z-22.57
N9660 X144.146 Z-21.812
N9665 X143.278 Z-20.664
N9670 X141.824 Z-19.087
N9675 X139.783 Z-17.367
N9680 X139.053 Z-16.856
N9685 X137.831 Z-16.08
N9690 X135.557 Z-14.906
N9695 X133.179 Z-13.945
N9700 X131.084 Z-13.274
N9705 X128.219 Z-12.571
N9710 X125.315 Z-12.017
N9715 X121.082 Z-11.365
N9720 X115.21 Z-10.622
N9725 X107.998 Z-9.883
N9730 X99.448 Z-9.17
N9735 X89.344 Z-8.487
N9740 X76.167 Z-7.783
N9745 X61.922 Z-7.205
N9750 X40.016 Z-6.608
N9755 X15.088 Z-6.27
N9760 X-11.35 Z-6.247
N9765 X-36.278 Z-6.535
N9770 X-58.939 Z-7.106
N9775 X-72.478 Z-7.615
N9780 X-86.932 Z-8.341
N9785 X-97.542 Z-9.03
N9790 X-105.951 Z-9.7
N9795 X-112.869 Z-10.364
N9800 X-118.303 Z-10.993
N9805 X-123.72 Z-11.758
N9810 X-128.951 Z-12.73
N9815 X-131.531 Z-13.4
N9820 X-134.378 Z-14.389
N9825 X-136.819 Z-15.521
N9830 X-137.701 Z-16.008
N9835 X-139.479 Z-17.15
N9840 X-141.033 Z-18.373
N9845 X-142.803 Z-20.114
N9850 X-143.853 Z-21.408
N9855 X-144.632 Z-22.534
N9860 X-145.345 Z-23.769
N9865 X-145.992 Z-25.13
N9870 X-146.506 Z-26.437
N9875 X-147.169 Z-28.867
N9880 X-147.635 Z-31.98
N9885 X-148.198 Y178.986 Z-32.23
N9890 X-148.755 Y180.487 Z-32.479
N9895 X-148.687 Z-31.602
N9900 X-148.411 Z-29.896
N9905 X-147.985 Z-27.921
N9910 X-147.158 Z-25.56
N9915 X-146.18 Z-23.569
N9920 X-144.834 Z-21.52
N9925 X-143.386 Z-19.83
N9930 X-141.738 Z-18.306
N9935 X-140.116 Z-17.097
N9940 X-138.376 Z-16.031
N9945 X-136.576 Z-15.123
N9950 X-134.718 Z-14.351
N9955 X-131.535 Z-13.34
N9960 X-128.937 Z-12.724
N9965 X-126.319 Z-12.232
N9970 X-121.058 Z-11.433
N9975 X-114.457 Z-10.637
N9980 X-106.366 Z-9.852
N9985 X-96.777 Z-9.101
N9990 X-86.291 Z-8.441
N9995 X-72.578 Z-7.762
N10000 X-52.255 Z-7.05
N10005 X-28.838 Z-6.564
N10010 X-3.155 Z-6.368
N10015 X23.283 Z-6.494
N10020 X47.455 Z-6.923
N10025 X69.361 Z-7.629
N10030 X87.491 Z-8.51
N10035 X97.939 Z-9.184
N10040 X106.796 Z-9.889
N10045 X114.163 Z-10.605
N10050 X120.043 Z-11.297
N10055 X124.437 Z-11.925
N10060 X128.8 Z-12.695
N10065 X130.246 Z-13.014
N10070 X131.671 Z-13.378
N10075 X134.478 Z-14.266
N10080 X136.502 Z-15.091
N10085 X138.469 Z-16.081
N10090 X140.592 Z-17.422
N10095 X142.539 Z-18.994
N10100 X144.377 Z-20.931
N10105 X145.707 Z-22.766
N10110 X146.428 Z-24.014
N10115 X147.134 Z-25.501
N10120 X147.961 Z-27.84
N10125 X148.497 Z-30.393
N10130 X148.751 Z-32.399
N10135 X149.86 Y183.487 Z-32.824
N10140 X149.584 Z-30.491
N10145 X149.332 Z-29.203
N10150 X148.988 Z-27.873
N10155 X148.303 Z-25.946
N10160 X147.425 Z-24.108
N10165 X146.298 Z-22.3
N10170 X144.532 Z-20.155
N10175 X142.966 Z-18.688
N10180 X141.841 Z-17.807
N10185 X140.024 Z-16.607
N10190 X137.766 Z-15.425
N10195 X136.755 Z-14.978
N10200 X134.353 Z-14.09
N10205 X132.588 Z-13.576
N10210 X129.718 Z-12.897
N10215 X125.354 Z-12.128
N10220 X120.958 Z-11.501
N10225 X115.079 Z-10.805
N10230 X107.713 Z-10.087
N10235 X99.009 Z-9.389
N10240 X88.731 Z-8.718
N10245 X69.846 Z-7.792
N10250 X47.94 Z-7.083
N10255 X23.768 Z-6.65
N10260 X-2.67 Z-6.518
N10265 X-28.353 Z-6.708
N10270 X-51.77 Z-7.183
N10275 X-72.841 Z-7.917
N10280 X-85.927 Z-8.558
N10285 X-98.523 Z-9.355
N10290 X-106.935 Z-10.019
N10295 X-113.855 Z-10.676
N10300 X-120.61 Z-11.456
N10305 X-126.026 Z-12.234
N10310 X-129.956 Z-12.949
N10315 X-132.552 Z-13.566
N10320 X-135.109 Z-14.358
N10325 X-137.596 Z-15.349
N10330 X-139.975 Z-16.579
N10335 X-141.814 Z-17.787
N10340 X-143.668 Z-19.311
N10345 X-145.231 Z-20.933
N10350 X-146.078 Z-21.996
N10355 X-147.255 Z-23.804
N10360 X-148.455 Z-26.313
N10365 X-149.233 Z-28.789
N10370 X-149.763 Z-31.657
N10375 X-149.863 Z-32.898
N10380 X-150.414 Y184.987 Z-33.054
N10385 X-150.964 Y186.487 Z-33.211
N10390 X-150.682 Z-30.737
N10395 X-150.373 Z-29.27
N10400 X-149.683 Z-26.965
N10405 X-148.86 Z-25.062
N10410 X-148.153 Z-23.767
N10415 X-147.634 Z-22.942
N10420 X-146.148 Z-21.012
N10425 X-144.397 Z-19.257
N10430 X-142.464 Z-17.744
N10435 X-140.15 Z-16.328
N10440 X-137.798 Z-15.214
N10445 X-135.915 Z-14.511
N10450 X-133.357 Z-13.733
N10455 X-130.106 Z-13.001
N10460 X-126.025 Z-12.296
N10465 X-120.604 Z-11.545
N10470 X-113.695 Z-10.769
N10475 X-105.299 Z-10.004
N10480 X-95.692 Z-9.29
N10485 X-84.381 Z-8.612
N10490 X-71.209 Z-7.993
N10495 X-50.096 Z-7.287
N10500 X-25.924 Z-6.825
N10505 X0.514 Z-6.667
N10510 X26.953 Z-6.839
N10515 X51.125 Z-7.313
N10520 X72.276 Z-8.037
N10525 X90.394 Z-8.954
N10530 X100.665 Z-9.641
N10535 X109.368 Z-10.354
N10540 X116.732 Z-11.09
N10545 X122.608 Z-11.802
N10550 X126.999 Z-12.452
N10555 X129.91 Z-12.966
N10560 X132.435 Z-13.5
N10565 X135.473 Z-14.354
N10570 X136.869 Z-14.85
N10575 X138.882 Z-15.701
N10580 X141.288 Z-16.978
N10585 X143.316 Z-18.366
N10590 X145.395 Z-20.194
N10595 X147.107 Z-22.183
N10600 X148.674 Z-24.674
N10605 X149.655 Z-26.884
N10610 X150.34 Z-29.134
N10615 X150.734 Z-31.08
N10620 X150.965 Z-33.223
N10625 X152.067 Y189.487 Z-33.656
N10630 X151.818 Z-31.33
N10635 X151.359 Z-29.129
N10640 X150.852 Z-27.492
N10645 X150.373 Z-26.264
N10650 X149.304 Z-24.16
N10655 X147.927 Z-22.137
N10660 X146.329 Z-20.331
N10665 X144.452 Z-18.679
N10670 X142.355 Z-17.238
N10675 X139.948 Z-15.955
N10680 X137.935 Z-15.098
N10685 X136.54 Z-14.601
N10690 X133.504 Z-13.739
N10695 X130.981 Z-13.203
N10700 X126.608 Z-12.45
N10705 X120.894 Z-11.673
N10710 X115.161 Z-11.027
N10715 X107.792 Z-10.332
N10720 X98.931 Z-9.643
N10725 X87.705 Z-8.936
N10730 X72.072 Z-8.174
N10735 X50.922 Z-7.456
N10740 X26.75 Z-6.987
N10745 X0.311 Z-6.818
N10750 X-26.127 Z-6.979
N10755 X-49.544 Z-7.422
N10760 X-71.412 Z-8.146
N10765 X-84.767 Z-8.772
N10770 X-96.234 Z-9.459
N10775 X-105.996 Z-10.184
N10780 X-114.543 Z-10.965
N10785 X-121.451 Z-11.742
N10790 X-127.021 Z-12.516
N10795 X-131.104 Z-13.224
N10800 X-134.355 Z-13.955
N10805 X-137.544 Z-14.958
N10810 X-140.013 Z-15.984
N10815 X-141.224 Z-16.587
N10820 X-142.377 Z-17.25
N10825 X-144.066 Z-18.396
N10830 X-145.662 Z-19.706
N10835 X-147.215 Z-21.275
N10840 X-148.722 Z-23.235
N10845 X-149.903 Z-25.259
N10850 X-150.856 Z-27.504
N10855 X-151.421 Z-29.386
N10860 X-151.73 Z-30.778
N10865 X-152.052 Z-33.338
N10870 X-152.069 Z-33.696
N10875 X-152.62 Y190.987 Z-33.898
N10880 X-153.172 Y192.487 Z-34.101
N10885 X-153.08 Z-32.865
N10890 X-152.533 Z-29.767
N10895 X-152.098 Z-28.262
N10900 X-151.043 Z-25.655
N10905 X-150.013 Z-23.838
N10910 X-149.238 Z-22.721
N10915 X-148.583 Z-21.892
N10920 X-146.916 Z-20.138
N10925 X-145.342 Z-18.808
N10930 X-144.249 Z-18.025
N10935 X-142.657 Z-17.056
N10940 X-140.096 Z-15.794
N10945 X-137.429 Z-14.788
N10950 X-134.375 Z-13.936
N10955 X-131.771 Z-13.384
N10960 X-127.689 Z-12.684
N10965 X-122.119 Z-11.917
N10970 X-116.535 Z-11.277
N10975 X-109.466 Z-10.599
N10980 X-100.908 Z-9.916
N10985 X-90.154 Z-9.213
N10990 X-75.486 Z-8.462
N10995 X-59.702 Z-7.864
N11000 X-36.285 Z-7.284
N11005 X-11.358 Z-6.998
N11010 X15.081 Z-7.022
N11015 X40.008 Z-7.353
N11020 X62.67 Z-7.962
N11025 X77.736 Z-8.567
N11030 X92.822 Z-9.375
N11035 X102.917 Z-10.066
N11040 X111.469 Z-10.781
N11045 X118.832 Z-11.529
N11050 X124.707 Z-12.252
N11055 X129.097 Z-12.911
N11060 X131.859 Z-13.403
N11065 X134.656 Z-14.
N11070 X137.564 Z-14.836
N11075 X138.957 Z-15.334
N11080 X140.969 Z-16.19
N11085 X142.916 Z-17.205
N11090 X144.881 Z-18.471
N11095 X146.448 Z-19.713
N11100 X147.23 Z-20.432
N11105 X148.855 Z-22.221
N11110 X150.101 Z-23.977
N11115 X150.638 Z-24.9
N11120 X151.64 Z-27.009
N11125 X152.469 Z-29.507
N11130 X152.962 Z-32.12
N11135 X153.175 Z-34.16
N11140 X153.712 Y193.986 Z-34.32
N11145 X154.247 Y195.487 Z-34.48
N11150 X154.058 Z-32.502
N11155 X153.492 Z-29.621
N11160 X153.102 Z-28.35
N11165 X152.268 Z-26.28
N11170 X151.012 Z-24.013
N11175 X149.773 Z-22.318
N11180 X148.244 Z-20.654
N11185 X146.154 Z-18.885
N11190 X144.361 Z-17.682
N11195 X143.086 Z-16.968
N11200 X140.779 Z-15.884
N11205 X139.065 Z-15.242
N11210 X136.96 Z-14.583
N11215 X134.824 Z-14.04
N11220 X131.925 Z-13.447
N11225 X127.697 Z-12.753
N11230 X121.829 Z-11.973
N11235 X114.47 Z-11.179
N11240 X105.623 Z-10.401
N11245 X95.253 Z-9.662
N11250 X83.203 Z-8.973
N11255 X62.808 Z-8.112
N11260 X40.146 Z-7.505
N11265 X15.219 Z-7.173
N11270 X-11.22 Z-7.148
N11275 X-36.902 Z-7.444
N11280 X-59.564 Z-8.006
N11285 X-73.865 Z-8.537
N11290 X-87.63 Z-9.207
N11295 X-99.633 Z-9.955
N11300 X-109.228 Z-10.699
N11305 X-117.471 Z-11.483
N11310 X-124.884 Z-12.359
N11315 X-130.474 Z-13.193
N11320 X-133.418 Z-13.731
N11325 X-136.489 Z-14.447
N11330 X-138.729 Z-15.122
N11335 X-139.98 Z-15.572
N11340 X-142.359 Z-16.593
N11345 X-145.094 Z-18.148
N11350 X-147.132 Z-19.664
N11355 X-148.137 Z-20.552
N11360 X-149.717 Z-22.249
N11365 X-151.199 Z-24.311
N11370 X-152.223 Z-26.182
N11375 X-153.038 Z-28.164
N11380 X-153.756 Z-30.749
N11385 X-154.215 Z-33.834
N11390 X-154.249 Z-34.51
N11395 X-154.788 Y196.986 Z-34.748
N11400 X-155.326 Y198.487 Z-34.987
N11405 X-155.162 Z-32.985
N11410 X-154.611 Z-30.123
N11415 X-153.924 Z-27.95
N11420 X-152.725 Z-25.382
N11425 X-151.598 Z-23.602
N11430 X-150.644 Z-22.38
N11435 X-148.999 Z-20.653
N11440 X-147.018 Z-19.02
N11445 X-145.02 Z-17.722
N11450 X-143.234 Z-16.776
N11455 X-142.021 Z-16.224
N11460 X-140.774 Z-15.733
N11465 X-137.594 Z-14.71
N11470 X-134.348 Z-13.947
N11475 X-131.732 Z-13.464
N11480 X-127.79 Z-12.847
N11485 X-122.214 Z-12.117
N11490 X-115.303 Z-11.375
N11495 X-108.23 Z-10.741
N11500 X-98.625 Z-10.02
N11505 X-86.437 Z-9.283
N11510 X-72.599 Z-8.628
N11515 X-50.703 Z-7.898
N11520 X-26.531 Z-7.434
N11525 X-0.093 Z-7.27
N11530 X26.346 Z-7.432
N11535 X50.518 Z-7.893
N11540 X72.424 Z-8.621
N11545 X91.308 Z-9.558
N11550 X102.338 Z-10.281
N11555 X111.042 Z-10.979
N11560 X118.41 Z-11.692
N11565 X124.291 Z-12.372
N11570 X130.003 Z-13.178
N11575 X134.371 Z-13.952
N11580 X137.595 Z-14.71
N11585 X140.054 Z-15.472
N11590 X141.94 Z-16.188
N11595 X144.719 Z-17.549
N11600 X146.573 Z-18.705
N11605 X148.15 Z-19.896
N11610 X150.239 Z-21.908
N11615 X151.643 Z-23.665
N11620 X152.753 Z-25.432
N11625 X153.659 Z-27.299
N11630 X154.597 Z-30.062
N11635 X155.153 Z-32.927
N11640 X155.322 Z-34.891
N11645 X156.399 Y201.486 Z-35.41
N11650 X156.196 Z-33.064
N11655 X155.669 Z-30.404
N11660 X154.971 Z-28.203
N11665 X153.981 Z-26.022
N11670 X152.497 Z-23.66
N11675 X151.159 Z-22.029
N11680 X149.093 Z-20.072
N11685 X146.714 Z-18.373
N11690 X144.514 Z-17.148
N11695 X142.169 Z-16.118
N11700 X139.388 Z-15.174
N11705 X135.813 Z-14.275
N11710 X132.914 Z-13.721
N11715 X126.331 Z-12.728
N11720 X119.718 Z-11.939
N11725 X112.351 Z-11.217
N11730 X102.194 Z-10.402
N11735 X91.133 Z-9.687
N11740 X72.248 Z-8.759
N11745 X50.342 Z-8.038
N11750 X26.17 Z-7.58
N11755 X-0.268 Z-7.421
N11760 X-26.706 Z-7.587
N11765 X-50.879 Z-8.052
N11770 X-72.774 Z-8.782
N11775 X-87.419 Z-9.476
N11780 X-100.209 Z-10.263
N11785 X-111.762 Z-11.164
N11790 X-119.672 Z-11.934
N11795 X-126.425 Z-12.74
N11800 X-130.675 Z-13.352
N11805 X-134.754 Z-14.064
N11810 X-137.505 Z-14.661
N11815 X-140.225 Z-15.42
N11820 X-143.511 Z-16.68
N11825 X-145.762 Z-17.811
N11830 X-147.764 Z-19.07
N11835 X-149.769 Z-20.667
N11840 X-150.62 Z-21.478
N11845 X-151.582 Z-22.525
N11850 X-153.006 Z-24.403
N11855 X-154.212 Z-26.494
N11860 X-154.564 Z-27.251
N11865 X-155.125 Z-28.648
N11870 X-155.732 Z-30.673
N11875 X-156.219 Z-33.22
N11880 X-156.396 Z-35.342
N11885 X-156.933 Y202.986 Z-35.594
N11890 X-157.47 Y204.486 Z-35.846
N11895 X-157.408 Z-34.626
N11900 X-156.941 Z-31.608
N11905 X-156.218 Z-29.052
N11910 X-155.272 Z-26.8
N11915 X-154.089 Z-24.74
N11920 X-152.579 Z-22.744
N11925 X-150.781 Z-20.911
N11930 X-149.717 Z-20.023
N11935 X-148.91 Z-19.418
N11940 X-146.917 Z-18.144
N11945 X-145.133 Z-17.212
N11950 X-142.664 Z-16.171
N11955 X-139.477 Z-15.144
N11960 X-136.229 Z-14.388
N11965 X-131.641 Z-13.575
N11970 X-125.564 Z-12.725
N11975 X-118.656 Z-11.943
N11980 X-110.412 Z-11.175
N11985 X-100.666 Z-10.43
N11990 X-88.038 Z-9.652
N11995 X-73.29 Z-8.949
N12000 X-52.895 Z-8.253
N12005 X-28.723 Z-7.766
N12010 X-3.04 Z-7.574
N12015 X23.399 Z-7.7
N12020 X48.326 Z-8.137
N12025 X70.232 Z-8.827
N12030 X86.673 Z-9.58
N12035 X98.398 Z-10.274
N12040 X108.301 Z-10.998
N12045 X116.847 Z-11.757
N12050 X124.055 Z-12.537
N12055 X129.623 Z-13.273
N12060 X135.459 Z-14.242
N12065 X138.346 Z-14.858
N12070 X140.475 Z-15.437
N12075 X143.251 Z-16.39
N12080 X145.592 Z-17.428
N12085 X147.743 Z-18.634
N12090 X149.798 Z-20.083
N12095 X151.677 Z-21.767
N12100 X153.255 Z-23.575
N12105 X154.652 Z-25.646
N12110 X155.849 Z-28.058
N12115 X156.737 Z-30.744
N12120 X157.31 Z-33.756
N12125 X157.467 Z-35.786
N12130 X158.003 Y205.986 Z-36.032
N12135 X158.537 Y207.486 Z-36.277
N12140 X158.341 Z-33.986
N12145 X157.724 Z-30.798
N12150 X156.948 Z-28.506
N12155 X155.918 Z-26.336
N12160 X154.593 Z-24.253
N12165 X152.985 Z-22.318
N12170 X151.449 Z-20.863
N12175 X150.336 Z-19.97
N12180 X148.227 Z-18.566
N12185 X145.967 Z-17.376
N12190 X145.297 Z-17.066
N12195 X142.736 Z-16.07
N12200 X139.743 Z-15.187
N12205 X136.858 Z-14.55
N12210 X134.099 Z-14.043
N12215 X129.712 Z-13.366
N12220 X123.84 Z-12.618
N12225 X116.481 Z-11.842
N12230 X107.632 Z-11.074
N12235 X97.257 Z-10.339
N12240 X83.693 Z-9.566
N12245 X63.298 Z-8.722
N12250 X40.637 Z-8.114
N12255 X14.954 Z-7.775
N12260 X-11.485 Z-7.753
N12265 X-36.412 Z-8.037
N12270 X-59.829 Z-8.605
N12275 X-77.907 Z-9.292
N12280 X-92.526 Z-10.048
N12285 X-102.696 Z-10.706
N12290 X-111.111 Z-11.36
N12295 X-119.656 Z-12.159
N12300 X-126.713 Z-12.966
N12305 X-132.281 Z-13.743
N12310 X-136.867 Z-14.55
N12315 X-140.76 Z-15.466
N12320 X-143.302 Z-16.279
N12325 X-145.174 Z-17.01
N12330 X-146.384 Z-17.571
N12335 X-148.166 Z-18.53
N12340 X-149.886 Z-19.641
N12345 X-151.879 Z-21.239
N12350 X-153.659 Z-23.065
N12355 X-155.342 Z-25.339
N12360 X-156.504 Z-27.461
N12365 X-157.434 Z-29.846
N12370 X-157.97 Z-31.856
N12375 X-158.462 Z-34.892
N12380 X-158.534 Z-36.227
N12385 X-159.577 Y210.486 Z-36.634
N12390 X-159.45 Z-34.71
N12395 X-158.946 Z-31.838
N12400 X-158.342 Z-29.749
N12405 X-157.83 Z-28.423
N12410 X-157.517 Z-27.719
N12415 X-156.506 Z-25.844
N12420 X-155.734 Z-24.689
N12425 X-154.218 Z-22.823
N12430 X-152.483 Z-21.145
N12435 X-150.314 Z-19.494
N12440 X-148.59 Z-18.452
N12445 X-146.18 Z-17.263
N12450 X-144.307 Z-16.525
N12455 X-141.446 Z-15.615
N12460 X-138.378 Z-14.882
N12465 X-134.302 Z-14.137
N12470 X-129.04 Z-13.361
N12475 X-122.287 Z-12.547
N12480 X-115.37 Z-11.858
N12485 X-105.641 Z-11.053
N12490 X-95.077 Z-10.338
N12495 X-81.141 Z-9.588
N12500 X-66.966 Z-8.997
N12505 X-44.305 Z-8.341
N12510 X-18.622 Z-7.954
N12515 X7.817 Z-7.887
N12520 X34.255 Z-8.148
N12525 X57.672 Z-8.689
N12530 X78.822 Z-9.479
N12535 X96.928 Z-10.454
N12540 X107.309 Z-11.178
N12545 X116.16 Z-11.93
N12550 X123.522 Z-12.685
N12555 X129.399 Z-13.409
N12560 X133.791 Z-14.056
N12565 X137.43 Z-14.696
N12570 X141.03 Z-15.497
N12575 X143.84 Z-16.354
N12580 X145.899 Z-17.136
N12585 X148.53 Z-18.418
N12590 X150.386 Z-19.545
N12595 X151.562 Z-20.385
N12600 X152.675 Z-21.314
N12605 X154.446 Z-23.075
N12610 X155.94 Z-24.977
N12615 X157.351 Z-27.366
N12620 X158.39 Z-29.892
N12625 X158.944 Z-31.83
N12630 X159.416 Z-34.476
N12635 X159.58 Z-36.696
N12640 X160.101 Y211.986 Z-36.912
N12645 X160.621 Y213.486 Z-37.128
N12650 X160.432 Z-34.594
N12655 X159.893 Z-31.771
N12660 X159.44 Z-30.246
N12665 X158.966 Z-28.947
N12670 X158.084 Z-27.079
N12675 X156.591 Z-24.725
N12680 X155.246 Z-23.096
N12685 X153.72 Z-21.6
N12690 X151.45 Z-19.838
N12695 X149.587 Z-18.699
N12700 X147.631 Z-17.717
N12705 X144.568 Z-16.502
N12710 X142.805 Z-15.964
N12715 X141.385 Z-15.585
N12720 X138.649 Z-14.979
N12725 X135.892 Z-14.472
N12730 X131.506 Z-13.791
N12735 X125.635 Z-13.037
N12740 X118.277 Z-12.253
N12745 X109.429 Z-11.476
N12750 X99.06 Z-10.73
N12755 X81.729 Z-9.761
N12760 X60.578 Z-8.927
N12765 X37.161 Z-8.351
N12770 X11.478 Z-8.054
N12775 X-14.96 Z-8.077
N12780 X-40.643 Z-8.414
N12785 X-64.06 Z-9.043
N12790 X-78.328 Z-9.603
N12795 X-92.041 Z-10.3
N12800 X-103.421 Z-11.026
N12805 X-113.463 Z-11.814
N12810 X-121.705 Z-12.6
N12815 X-128.61 Z-13.401
N12820 X-134.177 Z-14.187
N12825 X-138.111 Z-14.875
N12830 X-140.72 Z-15.428
N12835 X-144.256 Z-16.4
N12840 X-147.376 Z-17.6
N12845 X-149.482 Z-18.64
N12850 X-150.639 Z-19.32
N12855 X-151.776 Z-20.067
N12860 X-153.523 Z-21.427
N12865 X-155.365 Z-23.227
N12870 X-157.056 Z-25.381
N12875 X-158.42 Z-27.746
N12880 X-159.333 Z-29.929
N12885 X-160.031 Z-32.361
N12890 X-160.489 Z-34.989
N12895 X-160.619 Z-37.095
N12900 X-161.658 Y216.486 Z-37.492
N12905 X-161.588 Z-36.039
N12910 X-161.49 Z-35.068
N12915 X-160.986 Z-32.347
N12920 X-160.303 Z-30.063
N12925 X-159.407 Z-27.961
N12930 X-158.24 Z-25.923
N12935 X-156.716 Z-23.888
N12940 X-154.987 Z-22.103
N12945 X-153.142 Z-20.595
N12950 X-150.875 Z-19.12
N12955 X-147.863 Z-17.622
N12960 X-145.205 Z-16.634
N12965 X-142.639 Z-15.888
N12970 X-140.041 Z-15.295
N12975 X-135.965 Z-14.552
N12980 X-131.87 Z-13.927
N12985 X-126.442 Z-13.238
N12990 X-119.53 Z-12.495
N12995 X-111.284 Z-11.755
N13000 X-101.521 Z-11.029
N13005 X-88.72 Z-10.259
N13010 X-74.473 Z-9.582
N13015 X-59.767 Z-9.052
N13020 X-36.35 Z-8.487
N13025 X-9.912 Z-8.197
N13030 X16.527 Z-8.24
N13035 X42.209 Z-8.598
N13040 X64.871 Z-9.221
N13045 X79.912 Z-9.819
N13050 X94.633 Z-10.594
N13055 X106.246 Z-11.363
N13060 X114.799 Z-12.056
N13065 X123.338 Z-12.888
N13070 X128.918 Z-13.539
N13075 X134.047 Z-14.248
N13080 X140.236 Z-15.334
N13085 X143.459 Z-16.105
N13090 X144.875 Z-16.534
N13095 X146.258 Z-17.002
N13100 X147.293 Z-17.4
N13105 X149.624 Z-18.45
N13110 X151.842 Z-19.707
N13115 X153.917 Z-21.189
N13120 X154.978 Z-22.095
N13125 X155.857 Z-22.948
N13130 X157.433 Z-24.781
N13135 X158.755 Z-26.757
N13140 X159.796 Z-28.8
N13145 X160.555 Z-30.807
N13150 X161.099 Z-32.828
N13155 X161.466 Z-34.91
N13160 X161.661 Z-37.561
N13165 X162.181 Y217.986 Z-37.781
N13170 X162.7 Y219.486 Z-38.001
N13175 X162.529 Z-35.488
N13180 X162.311 Z-34.098
N13185 X162.055 Z-32.831
N13190 X161.718 Z-31.537
N13195 X160.795 Z-29.041
N13200 X159.734 Z-26.98
N13205 X158.473 Z-25.095
N13210 X157.81 Z-24.269
N13215 X156.883 Z-23.241
N13220 X155.043 Z-21.553
N13225 X152.956 Z-20.041
N13230 X150.754 Z-18.774
N13235 X149.765 Z-18.295
N13240 X148.433 Z-17.71
N13245 X147.05 Z-17.177
N13250 X143.785 Z-16.168
N13255 X138.819 Z-15.101
N13260 X132.789 Z-14.146
N13265 X127.217 Z-13.437
N13270 X120.159 Z-12.678
N13275 X111.613 Z-11.913
N13280 X101.567 Z-11.171
N13285 X88.333 Z-10.382
N13290 X74.278 Z-9.721
N13295 X58.426 Z-9.161
N13300 X34.253 Z-8.599
N13305 X7.815 Z-8.34
N13310 X-19.379 Z-8.412
N13315 X-44.306 Z-8.794
N13320 X-66.968 Z-9.441
N13325 X-80.425 Z-9.988
N13330 X-94.156 Z-10.707
N13335 X-104.772 Z-11.394
N13340 X-114.511 Z-12.159
N13345 X-122.754 Z-12.942
N13350 X-129.66 Z-13.732
N13355 X-135.079 Z-14.484
N13360 X-139.017 Z-15.139
N13365 X-142.92 Z-15.962
N13370 X-146.446 Z-16.961
N13375 X-149.557 Z-18.193
N13380 X-151.945 Z-19.425
N13385 X-154.071 Z-20.806
N13390 X-154.996 Z-21.516
N13395 X-156.051 Z-22.431
N13400 X-157.825 Z-24.288
N13405 X-159.261 Z-26.214
N13410 X-160.48 Z-28.363
N13415 X-161.411 Z-30.605
N13420 X-162.127 Z-33.138
N13425 X-162.613 Z-36.274
N13430 X-162.699 Z-37.975
N13435 X-163.218 Y220.985 Z-38.212
N13440 X-163.731 Y222.486 Z-38.449
N13445 X-163.65 Z-36.813
N13450 X-163.194 Z-33.786
N13455 X-162.662 Z-31.63
N13460 X-161.867 Z-29.476
N13465 X-160.753 Z-27.274
N13470 X-159.107 Z-24.889
N13475 X-157.543 Z-23.164
N13480 X-156.548 Z-22.253
N13485 X-155.493 Z-21.387
N13490 X-154.41 Z-20.604
N13495 X-153.343 Z-19.924
N13500 X-150.825 Z-18.58
N13505 X-147.79 Z-17.337
N13510 X-144.588 Z-16.367
N13515 X-141.991 Z-15.766
N13520 X-137.915 Z-15.013
N13525 X-132.354 Z-14.182
N13530 X-126.926 Z-13.509
N13535 X-119.862 Z-12.772
N13540 X-111.463 Z-12.033
N13545 X-101.547 Z-11.309
N13550 X-88.586 Z-10.538
N13555 X-74.66 Z-9.884
N13560 X-55.031 Z-9.208
N13565 X-30.859 Z-8.7
N13570 X-5.176 Z-8.483
N13575 X21.263 Z-8.582
N13580 X46.19 Z-8.986
N13585 X68.852 Z-9.656
N13590 X89.247 Z-10.574
N13595 X101.272 Z-11.291
N13600 X111.634 Z-12.046
N13605 X120.481 Z-12.831
N13610 X127.84 Z-13.617
N13615 X133.711 Z-14.365
N13620 X139.554 Z-15.292
N13625 X142.091 Z-15.787
N13630 X145.31 Z-16.56
N13635 X146.726 Z-16.989
N13640 X148.112 Z-17.458
N13645 X149.829 Z-18.123
N13650 X152.766 Z-19.587
N13655 X154.605 Z-20.743
N13660 X155.779 Z-21.606
N13665 X156.887 Z-22.554
N13670 X158.625 Z-24.326
N13675 X160.113 Z-26.263
N13680 X161.216 Z-28.115
N13685 X162.048 Z-29.91
N13690 X162.853 Z-32.253
N13695 X163.514 Z-35.611
N13700 X163.732 Z-38.451
N13705 X164.237 Y223.986 Z-38.657
N13710 X164.741 Y225.486 Z-38.863
N13715 X164.546 Z-36.046
N13720 X164.085 Z-33.461
N13725 X163.519 Z-31.46
N13730 X162.703 Z-29.389
N13735 X161.725 Z-27.515
N13740 X160.148 Z-25.235
N13745 X158.213 Z-23.128
N13750 X156.582 Z-21.731
N13755 X155.416 Z-20.887
N13760 X153.569 Z-19.747
N13765 X151.619 Z-18.753
N13770 X150.276 Z-18.159
N13775 X148.901 Z-17.64
N13780 X146.163 Z-16.77
N13785 X141.785 Z-15.766
N13790 X137.416 Z-15.002
N13795 X133.023 Z-14.366
N13800 X127.148 Z-13.643
N13805 X119.787 Z-12.886
N13810 X110.938 Z-12.122
N13815 X99.078 Z-11.286
N13820 X85.503 Z-10.524
N13825 X64.352 Z-9.647
N13830 X40.747 Z-9.018
N13835 X15.253 Z-8.683
N13840 X-11.186 Z-8.656
N13845 X-36.869 Z-8.946
N13850 X-61.041 Z-9.538
N13855 X-77.625 Z-10.156
N13860 X-92.289 Z-10.883
N13865 X-103.989 Z-11.611
N13870 X-113.889 Z-12.362
N13875 X-122.285 Z-13.129
N13880 X-129.195 Z-13.882
N13885 X-135.43 Z-14.703
N13890 X-140.176 Z-15.467
N13895 X-142.788 Z-15.967
N13900 X-146.168 Z-16.771
N13905 X-148.097 Z-17.356
N13910 X-151.032 Z-18.48
N13915 X-153.626 Z-19.78
N13920 X-155.633 Z-21.041
N13925 X-157.505 Z-22.496
N13930 X-158.5 Z-23.407
N13935 X-160.029 Z-25.084
N13940 X-161.671 Z-27.427
N13945 X-162.547 Z-29.051
N13950 X-163.37 Z-31.016
N13955 X-164.019 Z-33.175
N13960 X-164.319 Z-34.654
N13965 X-164.597 Z-36.412
N13970 X-164.737 Z-38.784
N13975 X-165.748 Y228.486 Z-39.281
N13980 X-165.582 Z-36.533
N13985 X-165.084 Z-33.749
N13990 X-164.329 Z-31.202
N13995 X-163.171 Z-28.593
N14000 X-161.924 Z-26.559
N14005 X-160.873 Z-25.192
N14010 X-159.252 Z-23.461
N14015 X-157.171 Z-21.703
N14020 X-154.6 Z-20.032
N14025 X-152.502 Z-18.961
N14030 X-150.022 Z-17.943
N14035 X-148.754 Z-17.512
N14040 X-146.19 Z-16.771
N14045 X-143.444 Z-16.145
N14050 X-140.68 Z-15.622
N14055 X-135.357 Z-14.781
N14060 X-128.228 Z-13.88
N14065 X-121.015 Z-13.13
N14070 X-111.14 Z-12.275
N14075 X-101.208 Z-11.566
N14080 X-88.357 Z-10.813
N14085 X-73.525 Z-10.135
N14090 X-52.392 Z-9.438
N14095 X-27.464 Z-8.952
N14100 X-0.27 Z-8.779
N14105 X26.168 Z-8.937
N14110 X51.096 Z-9.404
N14115 X73.002 Z-10.114
N14120 X92.642 Z-11.046
N14125 X104.625 Z-11.792
N14130 X114.967 Z-12.584
N14135 X123.81 Z-13.402
N14140 X131.165 Z-14.228
N14145 X137.029 Z-15.031
N14150 X142.861 Z-16.03
N14155 X147.166 Z-17.024
N14160 X149.964 Z-17.922
N14165 X151.34 Z-18.456
N14170 X152.682 Z-19.045
N14175 X154.31 Z-19.867
N14180 X156.866 Z-21.479
N14185 X158.739 Z-22.979
N14190 X160.264 Z-24.485
N14195 X161.917 Z-26.549
N14200 X163.114 Z-28.489
N14205 X163.863 Z-30.042
N14210 X164.799 Z-32.622
N14215 X165.355 Z-35.018
N14220 X165.548 Z-36.296
N14225 X165.747 Z-39.276
N14230 X166.756 Y231.486 Z-39.723
N14235 X166.562 Z-36.744
N14240 X166.09 Z-34.098
N14245 X165.319 Z-31.487
N14250 X164.741 Z-30.088
N14255 X164.119 Z-28.811
N14260 X162.922 Z-26.86
N14265 X161.043 Z-24.543
N14270 X159.07 Z-22.698
N14275 X156.884 Z-21.099
N14280 X154.689 Z-19.821
N14285 X153.698 Z-19.327
N14290 X151.686 Z-18.467
N14295 X148.912 Z-17.51
N14300 X144.989 Z-16.504
N14305 X138.811 Z-15.386
N14310 X133.686 Z-14.657
N14315 X127.958 Z-13.964
N14320 X119.421 Z-13.104
N14325 X110.871 Z-12.387
N14330 X100.791 Z-11.678
N14335 X88.282 Z-10.955
N14340 X74.109 Z-10.307
N14345 X52.223 Z-9.584
N14350 X27.295 Z-9.101
N14355 X0.102 Z-8.93
N14360 X-27.092 Z-9.098
N14365 X-52.019 Z-9.578
N14370 X-72.398 Z-10.238
N14375 X-87.131 Z-10.897
N14380 X-101.47 Z-11.722
N14385 X-111.403 Z-12.429
N14390 X-121.128 Z-13.265
N14395 X-128.042 Z-13.973
N14400 X-133.625 Z-14.648
N14405 X-139.04 Z-15.42
N14410 X-143.273 Z-16.159
N14415 X-145.879 Z-16.708
N14420 X-148.463 Z-17.369
N14425 X-151.143 Z-18.251
N14430 X-152.378 Z-18.743
N14435 X-153.753 Z-19.354
N14440 X-155.605 Z-20.307
N14445 X-158.153 Z-21.979
N14450 X-160.166 Z-23.673
N14455 X-161.925 Z-25.558
N14460 X-163.37 Z-27.548
N14465 X-164.573 Z-29.726
N14470 X-165.507 Z-32.045
N14475 X-166.053 Z-33.937
N14480 X-166.468 Z-36.109
N14485 X-166.674 Z-38.002
N14490 X-166.753 Z-39.652
N14495 X-167.764 Y234.486 Z-40.173
N14500 X-167.646 Z-37.866
N14505 X-167.044 Z-34.23
N14510 X-166.397 Z-32.036
N14515 X-165.583 Z-30.058
N14520 X-164.576 Z-28.189
N14525 X-163.017 Z-25.973
N14530 X-161.573 Z-24.367
N14535 X-160.582 Z-23.435
N14540 X-159.536 Z-22.565
N14545 X-158.457 Z-21.764
N14550 X-156.749 Z-20.682
N14555 X-154.369 Z-19.447
N14560 X-151.576 Z-18.307
N14565 X-148.555 Z-17.371
N14570 X-145.962 Z-16.747
N14575 X-142.039 Z-15.997
N14580 X-136.632 Z-15.15
N14585 X-129.887 Z-14.296
N14590 X-122.975 Z-13.568
N14595 X-113.252 Z-12.71
N14600 X-103.486 Z-11.996
N14605 X-92.045 Z-11.302
N14610 X-76.763 Z-10.561
N14615 X-60.188 Z-9.961
N14620 X-36.016 Z-9.382
N14625 X-9.578 Z-9.101
N14630 X16.86 Z-9.147
N14635 X42.543 Z-9.505
N14640 X65.96 Z-10.15
N14645 X80.972 Z-10.749
N14650 X95.823 Z-11.515
N14655 X107.306 Z-12.26
N14660 X117.341 Z-13.051
N14665 X126.033 Z-13.875
N14670 X133.087 Z-14.679
N14675 X138.65 Z-15.45
N14680 X142.884 Z-16.143
N14685 X145.638 Z-16.682
N14690 X148.515 Z-17.361
N14695 X151.33 Z-18.22
N14700 X154.543 Z-19.529
N14705 X156.65 Z-20.625
N14710 X157.59 Z-21.195
N14715 X159.656 Z-22.659
N14720 X161.765 Z-24.557
N14725 X163.178 Z-26.176
N14730 X164.216 Z-27.611
N14735 X165.636 Z-30.173
N14740 X166.465 Z-32.237
N14745 X166.873 Z-33.549
N14750 X167.524 Z-36.859
N14755 X167.764 Z-40.168
N14760 X168.264 Y235.985 Z-40.346
N14765 X168.755 Y237.486 Z-40.525
N14770 X168.538 Z-37.356
N14775 X167.844 Z-33.806
N14780 X166.998 Z-31.354
N14785 X166.096 Z-29.438
N14790 X165.051 Z-27.696
N14795 X163.633 Z-25.829
N14800 X162.04 Z-24.154
N14805 X161.236 Z-23.434
N14810 X160.132 Z-22.552
N14815 X158.008 Z-21.126
N14820 X156.422 Z-20.234
N14825 X155.097 Z-19.602
N14830 X153.067 Z-18.767
N14835 X149.571 Z-17.631
N14840 X146.702 Z-16.943
N14845 X143.948 Z-16.398
N14850 X137.741 Z-15.401
N14855 X132.238 Z-14.687
N14860 X124.881 Z-13.878
N14865 X116.036 Z-13.068
N14870 X105.694 Z-12.284
N14875 X93.707 Z-11.537
N14880 X74.067 Z-10.6
N14885 X51.405 Z-9.86
N14890 X25.722 Z-9.384
N14895 X-0.716 Z-9.231
N14900 X-27.91 Z-9.41
N14905 X-52.837 Z-9.899
N14910 X-73.962 Z-10.596
N14915 X-89.405 Z-11.303
N14920 X-102.992 Z-12.103
N14925 X-113.941 Z-12.899
N14930 X-122.49 Z-13.645
N14935 X-130.725 Z-14.506
N14940 X-137.471 Z-15.364
N14945 X-142.728 Z-16.184
N14950 X-146.65 Z-16.932
N14955 X-149.243 Z-17.548
N14960 X-152.268 Z-18.465
N14965 X-155.073 Z-19.59
N14970 X-157.47 Z-20.812
N14975 X-159.471 Z-22.075
N14980 X-161.354 Z-23.54
N14985 X-163.064 Z-25.192
N14990 X-164.596 Z-27.05
N14995 X-165.001 Z-27.624
N15000 X-165.768 Z-28.842
N15005 X-166.859 Z-31.02
N15010 X-167.521 Z-32.757
N15015 X-168.15 Z-35.129
N15020 X-168.648 Z-38.407
N15025 X-168.759 Z-40.615
N15030 X-169.734 Y240.486 Z-41.03
N15035 X-169.655 Z-39.361
N15040 X-169.419 Z-37.006
N15045 X-168.783 Z-33.984
N15050 X-168.043 Z-31.814
N15055 X-167.134 Z-29.845
N15060 X-166.443 Z-28.642
N15065 X-165.258 Z-26.922
N15070 X-163.692 Z-25.109
N15075 X-161.659 Z-23.261
N15080 X-159.731 Z-21.864
N15085 X-158.583 Z-21.166
N15090 X-157.401 Z-20.51
N15095 X-156.199 Z-19.93
N15100 X-154.659 Z-19.266
N15105 X-152.312 Z-18.421
N15110 X-151.041 Z-18.031
N15115 X-148.312 Z-17.331
N15120 X-145.049 Z-16.665
N15125 X-140.306 Z-15.874
N15130 X-134.736 Z-15.101
N15135 X-127.982 Z-14.318
N15140 X-119.59 Z-13.508
N15145 X-109.858 Z-12.719
N15150 X-98.543 Z-11.962
N15155 X-84.726 Z-11.214
N15160 X-69.855 Z-10.584
N15165 X-46.438 Z-9.891
N15170 X-21.511 Z-9.488
N15175 X4.928 Z-9.387
N15180 X31.366 Z-9.609
N15185 X55.538 Z-10.121
N15190 X77.444 Z-10.886
N15195 X97.084 Z-11.875
N15200 X109.007 Z-12.658
N15205 X119.34 Z-13.486
N15210 X128.18 Z-14.34
N15215 X135.531 Z-15.204
N15220 X141.242 Z-16.017
N15225 X145.617 Z-16.77
N15230 X148.357 Z-17.343
N15235 X151.21 Z-18.082
N15240 X152.617 Z-18.518
N15245 X154. Z-19.014
N15250 X155.368 Z-19.552
N15255 X157.352 Z-20.485
N15260 X159.784 Z-21.898
N15265 X161.615 Z-23.226
N15270 X162.848 Z-24.287
N15275 X164.706 Z-26.23
N15280 X166.335 Z-28.464
N15285 X167.048 Z-29.689
N15290 X167.67 Z-30.946
N15295 X168.3 Z-32.489
N15300 X168.957 Z-34.645
N15305 X169.538 Z-37.816
N15310 X169.734 Z-41.029
N15315 X170.71 Y243.486 Z-41.482
N15320 X170.495 Z-37.984
N15325 X170.11 Z-35.74
N15330 X169.575 Z-33.716
N15335 X168.755 Z-31.507
N15340 X167.686 Z-29.4
N15345 X166.397 Z-27.445
N15350 X164.8 Z-25.549
N15355 X162.851 Z-23.734
N15360 X160.825 Z-22.233
N15365 X159.578 Z-21.45
N15370 X157.312 Z-20.262
N15375 X154.099 Z-18.954
N15380 X150.75 Z-17.952
N15385 X148.598 Z-17.429
N15390 X145.696 Z-16.849
N15395 X141.316 Z-16.12
N15400 X135.604 Z-15.319
N15405 X128.251 Z-14.471
N15410 X119.41 Z-13.625
N15415 X109.076 Z-12.802
N15420 X97.145 Z-12.021
N15425 X82.461 Z-11.258
N15430 X61.311 Z-10.444
N15435 X37.894 Z-9.868
N15440 X11.455 Z-9.561
N15445 X-14.983 Z-9.584
N15450 X-39.91 Z-9.907
N15455 X-62.572 Z-10.484
N15460 X-78.405 Z-11.074
N15465 X-92.448 Z-11.757
N15470 X-105.239 Z-12.536
N15475 X-115.3 Z-13.279
N15480 X-124. Z-14.044
N15485 X-131.063 Z-14.777
N15490 X-136.794 Z-15.476
N15495 X-142.209 Z-16.256
N15500 X-146.441 Z-16.989
N15505 X-149.196 Z-17.564
N15510 X-152.56 Z-18.454
N15515 X-155.708 Z-19.567
N15520 X-158.144 Z-20.676
N15525 X-159.326 Z-21.302
N15530 X-161.593 Z-22.755
N15535 X-163.612 Z-24.381
N15540 X-165.628 Z-26.467
N15545 X-167.178 Z-28.566
N15550 X-168.373 Z-30.682
N15555 X-169.283 Z-32.842
N15560 X-169.931 Z-34.96
N15565 X-170.43 Z-37.545
N15570 X-170.612 Z-39.366
N15575 X-170.706 Z-41.393
N15580 X-171.686 Y246.486 Z-41.915
N15585 X-171.509 Z-38.696
N15590 X-171.228 Z-36.889
N15595 X-170.931 Z-35.429
N15600 X-170.271 Z-33.214
N15605 X-169.343 Z-30.995
N15610 X-167.907 Z-28.503
N15615 X-166.187 Z-26.296
N15620 X-164.497 Z-24.6
N15625 X-163.121 Z-23.466
N15630 X-160.675 Z-21.804
N15635 X-157.533 Z-20.194
N15640 X-155.051 Z-19.215
N15645 X-153.787 Z-18.802
N15650 X-151.212 Z-18.075
N15655 X-147.165 Z-17.186
N15660 X-144.397 Z-16.694
N15665 X-140.153 Z-16.035
N15670 X-134.429 Z-15.288
N15675 X-127.371 Z-14.503
N15680 X-118.977 Z-13.716
N15685 X-109.091 Z-12.941
N15690 X-97.752 Z-12.201
N15695 X-83.162 Z-11.437
N15700 X-68.197 Z-10.824
N15705 X-44.78 Z-10.154
N15710 X-19.097 Z-9.766
N15715 X7.341 Z-9.694
N15720 X33.024 Z-9.937
N15725 X56.441 Z-10.448
N15730 X78.347 Z-11.22
N15735 X97.977 Z-12.215
N15740 X109.75 Z-12.99
N15745 X119.932 Z-13.802
N15750 X128.773 Z-14.647
N15755 X136.126 Z-15.495
N15760 X141.987 Z-16.312
N15765 X146.367 Z-17.04
N15770 X149.268 Z-17.617
N15775 X152.14 Z-18.312
N15780 X153.547 Z-18.724
N15785 X154.954 Z-19.184
N15790 X157.004 Z-19.976
N15795 X159.643 Z-21.229
N15800 X161.976 Z-22.635
N15805 X164.405 Z-24.517
N15810 X166.288 Z-26.41
N15815 X167.711 Z-28.222
N15820 X168.481 Z-29.42
N15825 X169.602 Z-31.556
N15830 X170.442 Z-33.726
N15835 X170.992 Z-35.694
N15840 X171.467 Z-38.377
N15845 X171.684 Z-41.866
N15850 X172.172 Y247.986 Z-42.105
N15855 X172.661 Y249.486 Z-42.344
N15860 X172.417 Z-38.625
N15865 X171.732 Z-35.1
N15870 X170.972 Z-32.826
N15875 X170.038 Z-30.782
N15880 X168.792 Z-28.708
N15885 X167.94 Z-27.541
N15890 X166.473 Z-25.872
N15895 X164.213 Z-23.851
N15900 X162.667 Z-22.737
N15905 X161.421 Z-21.966
N15910 X160.147 Z-21.263
N15915 X158.831 Z-20.616
N15920 X156.299 Z-19.576
N15925 X152.609 Z-18.441
N15930 X150.458 Z-17.912
N15935 X144.938 Z-16.862
N15940 X140.554 Z-16.194
N15945 X134.834 Z-15.45
N15950 X127.626 Z-14.656
N15955 X119.083 Z-13.859
N15960 X109.049 Z-13.078
N15965 X97.412 Z-12.327
N15970 X81.896 Z-11.526
N15975 X66.069 Z-10.895
N15980 X42.652 Z-10.26
N15985 X17.724 Z-9.905
N15990 X-8.714 Z-9.849
N15995 X-35.152 Z-10.12
N16000 X-60.08 Z-10.703
N16005 X-78.896 Z-11.391
N16010 X-93.605 Z-12.111
N16015 X-106.386 Z-12.895
N16020 X-117.473 Z-13.727
N16025 X-125.87 Z-14.48
N16030 X-132.782 Z-15.207
N16035 X-138.362 Z-15.893
N16040 X-143.777 Z-16.678
N16045 X-148.512 Z-17.509
N16050 X-151.769 Z-18.228
N16055 X-153.058 Z-18.553
N16060 X-155.762 Z-19.39
N16065 X-158.265 Z-20.363
N16070 X-160.691 Z-21.545
N16075 X-163.276 Z-23.157
N16080 X-165.147 Z-24.623
N16085 X-167.076 Z-26.526
N16090 X-167.959 Z-27.566
N16095 X-169.258 Z-29.41
N16100 X-170.585 Z-31.905
N16105 X-171.326 Z-33.788
N16110 X-172.007 Z-36.287
N16115 X-172.471 Z-39.017
N16120 X-172.659 Z-42.288
N16125 X-173.139 Y250.984 Z-42.471
N16130 X-173.61 Y252.486 Z-42.655
N16135 X-173.48 Z-40.024
N16140 X-173.058 Z-37.129
N16145 X-172.529 Z-34.899
N16150 X-171.658 Z-32.498
N16155 X-170.623 Z-30.419
N16160 X-169.312 Z-28.397
N16165 X-167.773 Z-26.537
N16170 X-165.915 Z-24.752
N16175 X-164.03 Z-23.303
N16180 X-161.775 Z-21.896
N16185 X-158.558 Z-20.355
N16190 X-156.062 Z-19.433
N16195 X-154.793 Z-19.035
N16200 X-152.069 Z-18.316
N16205 X-149.464 Z-17.752
N16210 X-145.388 Z-17.018
N16215 X-138.809 Z-16.057
N16220 X-131.397 Z-15.172
N16225 X-122.495 Z-14.293
N16230 X-112.918 Z-13.502
N16235 X-101.622 Z-12.725
N16240 X-87.356 Z-11.929
N16245 X-72.53 Z-11.279
N16250 X-49.113 Z-10.553
N16255 X-24.185 Z-10.117
N16260 X2.253 Z-9.983
N16265 X29.447 Z-10.182
N16270 X54.374 Z-10.687
N16275 X77.036 Z-11.461
N16280 X96.676 Z-12.428
N16285 X108.639 Z-13.19
N16290 X118.977 Z-13.985
N16295 X127.822 Z-14.799
N16300 X135.179 Z-15.603
N16305 X141.781 Z-16.466
N16310 X146.893 Z-17.276
N16315 X151.099 Z-18.095
N16320 X153.253 Z-18.613
N16325 X156.78 Z-19.668
N16330 X159.494 Z-20.755
N16335 X160.829 Z-21.396
N16340 X162.728 Z-22.459
N16345 X164.831 Z-23.886
N16350 X166.775 Z-25.528
N16355 X167.758 Z-26.52
N16360 X168.913 Z-27.858
N16365 X170.319 Z-29.887
N16370 X170.854 Z-30.838
N16375 X171.856 Z-32.971
N16380 X172.693 Z-35.441
N16385 X173.379 Z-39.004
N16390 X173.61 Z-42.647
N16395 X174.081 Y253.986 Z-42.857
N16400 X174.553 Y255.486 Z-43.066
N16405 X174.33 Z-39.345
N16410 X173.716 Z-36.049
N16415 X172.81 Z-33.287
N16420 X171.627 Z-30.819
N16425 X170.517 Z-29.057
N16430 X169.664 Z-27.922
N16435 X167.759 Z-25.85
N16440 X165.541 Z-23.993
N16445 X164.344 Z-23.158
N16450 X162.47 Z-22.036
N16455 X159.848 Z-20.768
N16460 X157.099 Z-19.724
N16465 X154.272 Z-18.89
N16470 X152.12 Z-18.359
N16475 X147.915 Z-17.533
N16480 X143.535 Z-16.82
N16485 X137.821 Z-16.04
N16490 X130.468 Z-15.195
N16495 X121.777 Z-14.36
N16500 X111.446 Z-13.531
N16505 X98.78 Z-12.695
N16510 X79.142 Z-11.698
N16515 X57.236 Z-10.917
N16520 X33.064 Z-10.386
N16525 X6.625 Z-10.142
N16530 X-19.813 Z-10.221
N16535 X-45.496 Z-10.619
N16540 X-68.913 Z-11.294
N16545 X-83.083 Z-11.873
N16550 X-98.242 Z-12.663
N16555 X-110.194 Z-13.439
N16560 X-121.109 Z-14.301
N16565 X-129.503 Z-15.095
N16570 X-136.412 Z-15.866
N16575 X-143.153 Z-16.762
N16580 X-147.245 Z-17.414
N16585 X-151.171 Z-18.161
N16590 X-155.539 Z-19.23
N16595 X-157.61 Z-19.897
N16600 X-160.108 Z-20.879
N16605 X-162.529 Z-22.067
N16610 X-165.118 Z-23.685
N16615 X-167.24 Z-25.378
N16620 X-168.921 Z-27.053
N16625 X-169.804 Z-28.103
N16630 X-170.619 Z-29.202
N16635 X-171.728 Z-31.004
N16640 X-172.662 Z-32.932
N16645 X-173.386 Z-34.922
N16650 X-174.039 Z-37.529
N16655 X-174.425 Z-40.363
N16660 X-174.556 Z-43.208
N16665 X-175.496 Y258.486 Z-43.637
N16670 X-175.491 Z-43.355
N16675 X-175.273 Z-39.67
N16680 X-174.712 Z-36.606
N16685 X-173.825 Z-33.772
N16690 X-173.139 Z-32.228
N16695 X-172.45 Z-30.925
N16700 X-171.909 Z-30.031
N16705 X-170.473 Z-28.061
N16710 X-168.789 Z-26.236
N16715 X-166.452 Z-24.247
N16720 X-164.723 Z-23.081
N16725 X-163.549 Z-22.394
N16730 X-162.443 Z-21.806
N16735 X-159.04 Z-20.336
N16740 X-155.969 Z-19.341
N16745 X-154.68 Z-19.005
N16750 X-150.634 Z-18.103
N16755 X-145.241 Z-17.179
N16760 X-138.355 Z-16.222
N16765 X-131.449 Z-15.422
N16770 X-121.734 Z-14.489
N16775 X-112.002 Z-13.712
N16780 X-100.687 Z-12.954
N16785 X-86.336 Z-12.174
N16790 X-71.403 Z-11.536
N16795 X-48.741 Z-10.845
N16800 X-24.569 Z-10.423
N16805 X1.869 Z-10.282
N16810 X28.307 Z-10.466
N16815 X53.99 Z-10.977
N16820 X76.607 Z-11.741
N16825 X92.256 Z-12.476
N16830 X104.739 Z-13.211
N16835 X116.28 Z-14.037
N16840 X126.303 Z-14.907
N16845 X134.836 Z-15.8
N16850 X140.41 Z-16.483
N16855 X146.12 Z-17.317
N16860 X151.791 Z-18.344
N16865 X155.967 Z-19.341
N16870 X158.905 Z-20.29
N16875 X160.266 Z-20.821
N16880 X161.777 Z-21.478
N16885 X164.195 Z-22.755
N16890 X165.725 Z-23.74
N16895 X167.751 Z-25.294
N16900 X168.787 Z-26.234
N16905 X169.547 Z-27.01
N16910 X171.129 Z-28.907
N16915 X172.479 Z-30.973
N16920 X173.499 Z-33.008
N16925 X174.471 Z-35.689
N16930 X175.037 Z-38.122
N16935 X175.274 Z-39.671
N16940 X175.496 Z-43.632
N16945 X176.436 Y261.486 Z-44.06
N16950 X176.238 Z-40.249
N16955 X175.996 Z-38.702
N16960 X175.597 Z-36.712
N16965 X174.691 Z-33.932
N16970 X173.534 Z-31.496
N16975 X172.428 Z-29.715
N16980 X171.081 Z-27.968
N16985 X168.953 Z-25.811
N16990 X166.587 Z-23.973
N16995 X165.053 Z-22.993
N17000 X162.639 Z-21.717
N17005 X161.128 Z-21.06
N17010 X159.767 Z-20.53
N17015 X156.873 Z-19.591
N17020 X152.65 Z-18.578
N17025 X148.288 Z-17.753
N17030 X142.737 Z-16.911
N17035 X137.016 Z-16.17
N17040 X129.96 Z-15.4
N17045 X121.267 Z-14.586
N17050 X111.084 Z-13.786
N17055 X99.471 Z-13.027
N17060 X83.885 Z-12.207
N17065 X68.825 Z-11.589
N17070 X44.653 Z-10.899
N17075 X18.97 Z-10.515
N17080 X-7.468 Z-10.443
N17085 X-33.151 Z-10.688
N17090 X-56.568 Z-11.199
N17095 X-78.43 Z-11.965
N17100 X-93.183 Z-12.67
N17105 X-106.283 Z-13.453
N17110 X-117.536 Z-14.274
N17115 X-127.409 Z-15.141
N17120 X-135.644 Z-16.012
N17125 X-141.373 Z-16.721
N17130 X-146.786 Z-17.513
N17135 X-150.866 Z-18.216
N17140 X-154.776 Z-19.048
N17145 X-158.147 Z-19.981
N17150 X-161.141 Z-21.066
N17155 X-163.58 Z-22.19
N17160 X-165.911 Z-23.528
N17165 X-168.098 Z-25.099
N17170 X-169.127 Z-25.969
N17175 X-170.111 Z-26.922
N17180 X-171.041 Z-27.923
N17185 X-172.329 Z-29.574
N17190 X-173.785 Z-31.954
N17195 X-174.729 Z-34.022
N17200 X-175.638 Z-36.892
N17205 X-176.141 Z-39.563
N17210 X-176.334 Z-41.684
N17215 X-176.435 Z-43.991
N17220 X-176.906 Y262.986 Z-44.24
N17225 X-177.375 Y264.486 Z-44.489
N17230 X-177.185 Z-40.699
N17235 X-176.704 Z-37.889
N17240 X-176.146 Z-35.735
N17245 X-175.419 Z-33.774
N17250 X-174.45 Z-31.792
N17255 X-173.146 Z-29.729
N17260 X-171.531 Z-27.735
N17265 X-169.71 Z-25.957
N17270 X-167.831 Z-24.48
N17275 X-165.252 Z-22.854
N17280 X-162.835 Z-21.657
N17285 X-160.34 Z-20.664
N17290 X-159.073 Z-20.242
N17295 X-156.354 Z-19.47
N17300 X-152.458 Z-18.588
N17305 X-148.23 Z-17.834
N17310 X-142.82 Z-17.026
N17315 X-135.62 Z-16.131
N17320 X-128.709 Z-15.399
N17325 X-118.837 Z-14.519
N17330 X-108.632 Z-13.756
N17335 X-95.58 Z-12.946
N17340 X-81.446 Z-12.241
N17345 X-64.876 Z-11.603
N17350 X-42.214 Z-11.
N17355 X-17.287 Z-10.651
N17360 X9.152 Z-10.598
N17365 X34.835 Z-10.864
N17370 X59.007 Z-11.417
N17375 X80.913 Z-12.219
N17380 X100.553 Z-13.235
N17385 X112.465 Z-14.025
N17390 X122.796 Z-14.851
N17395 X132.374 Z-15.772
N17400 X140.461 Z-16.714
N17405 X146.322 Z-17.532
N17410 X150.699 Z-18.262
N17415 X153.601 Z-18.831
N17420 X157.189 Z-19.684
N17425 X160.004 Z-20.55
N17430 X162.735 Z-21.615
N17435 X164.708 Z-22.564
N17440 X165.978 Z-23.28
N17445 X167.215 Z-24.049
N17450 X168.408 Z-24.904
N17455 X170.332 Z-26.522
N17460 X172.041 Z-28.312
N17465 X173.352 Z-30.022
N17470 X174.627 Z-32.114
N17475 X175.625 Z-34.266
N17480 X176.414 Z-36.599
N17485 X177.118 Z-40.207
N17490 X177.376 Z-44.488
N17495 X177.83 Y265.986 Z-44.699
N17500 X178.284 Y267.486 Z-44.911
N17505 X178.056 Z-40.655
N17510 X177.495 Z-37.56
N17515 X176.81 Z-35.273
N17520 X175.724 Z-32.741
N17525 X174.278 Z-30.329
N17530 X172.973 Z-28.62
N17535 X171.27 Z-26.83
N17540 X169.355 Z-25.211
N17545 X168.162 Z-24.347
N17550 X165.823 Z-22.937
N17555 X164.351 Z-22.209
N17560 X163.019 Z-21.613
N17565 X161.643 Z-21.069
N17570 X158.856 Z-20.14
N17575 X154.571 Z-19.082
N17580 X151.67 Z-18.507
N17585 X147.292 Z-17.775
N17590 X138.494 Z-16.581
N17595 X131.139 Z-15.771
N17600 X122.294 Z-14.945
N17605 X111.961 Z-14.13
N17610 X100.031 Z-13.348
N17615 X80.398 Z-12.343
N17620 X57.737 Z-11.527
N17625 X33.565 Z-10.99
N17630 X7.126 Z-10.74
N17635 X-20.067 Z-10.821
N17640 X-45.75 Z-11.221
N17645 X-69.167 Z-11.897
N17650 X-84.179 Z-12.511
N17655 X-98.7 Z-13.269
N17660 X-110.073 Z-13.997
N17665 X-121.445 Z-14.871
N17670 X-131.313 Z-15.788
N17675 X-139.032 Z-16.648
N17680 X-145.115 Z-17.451
N17685 X-150.671 Z-18.332
N17690 X-154.74 Z-19.118
N17695 X-158.937 Z-20.166
N17700 X-161.787 Z-21.126
N17705 X-163.65 Z-21.876
N17710 X-166.387 Z-23.256
N17715 X-168.635 Z-24.682
N17720 X-170.77 Z-26.375
N17725 X-172.48 Z-28.063
N17730 X-173.981 Z-29.906
N17735 X-174.951 Z-31.36
N17740 X-175.956 Z-33.218
N17745 X-176.95 Z-35.694
N17750 X-177.646 Z-38.251
N17755 X-178.124 Z-41.266
N17760 X-178.284 Z-44.914
N17765 X-179.193 Y270.486 Z-45.339
N17770 X-179.089 Z-42.571
N17775 X-178.897 Z-40.458
N17780 X-178.421 Z-37.933
N17785 X-177.688 Z-35.501
N17790 X-176.568 Z-32.908
N17795 X-175.074 Z-30.45
N17800 X-173.611 Z-28.594
N17805 X-172.688 Z-27.615
N17810 X-171.315 Z-26.342
N17815 X-169.034 Z-24.613
N17820 X-166.427 Z-23.056
N17825 X-163.524 Z-21.711
N17830 X-159.541 Z-20.333
N17835 X-155.878 Z-19.413
N17840 X-151.963 Z-18.64
N17845 X-147.878 Z-17.963
N17850 X-142.281 Z-17.171
N17855 X-134.538 Z-16.255
N17860 X-126.148 Z-15.423
N17865 X-116.422 Z-14.603
N17870 X-105.151 Z-13.81
N17875 X-90.935 Z-12.989
N17880 X-76.177 Z-12.313
N17885 X-52.76 Z-11.539
N17890 X-27.833 Z-11.056
N17895 X-1.394 Z-10.878
N17900 X25.044 Z-11.022
N17905 X49.971 Z-11.469
N17910 X73.388 Z-12.203
N17915 X93.784 Z-13.14
N17920 X106.568 Z-13.902
N17925 X118.412 Z-14.759
N17930 X128.585 Z-15.65
N17935 X135.947 Z-16.41
N17940 X143.294 Z-17.305
N17945 X148.999 Z-18.142
N17950 X153.368 Z-18.901
N17955 X156.986 Z-19.665
N17960 X160.392 Z-20.595
N17965 X161.789 Z-21.062
N17970 X163.166 Z-21.57
N17975 X164.52 Z-22.137
N17980 X165.851 Z-22.761
N17985 X167.774 Z-23.811
N17990 X170.175 Z-25.419
N17995 X171.84 Z-26.798
N18000 X173.353 Z-28.307
N18005 X175.133 Z-30.533
N18010 X176.293 Z-32.401
N18015 X177.553 Z-35.108
N18020 X178.416 Z-37.91
N18025 X178.983 Z-41.047
N18030 X179.193 Z-45.333
N18035 X180.102 Y273.486 Z-45.755
N18040 X179.932 Z-41.764
N18045 X179.651 Z-39.828
N18050 X179.387 Z-38.512
N18055 X179.061 Z-37.231
N18060 X178.298 Z-35.013
N18065 X177.242 Z-32.782
N18070 X175.759 Z-30.444
N18075 X174.162 Z-28.499
N18080 X173.416 Z-27.726
N18085 X172.388 Z-26.773
N18090 X170.382 Z-25.199
N18095 X168.232 Z-23.83
N18100 X165.628 Z-22.505
N18105 X163.603 Z-21.653
N18110 X160.408 Z-20.585
N18115 X157.956 Z-19.936
N18120 X155.079 Z-19.302
N18125 X150.716 Z-18.512
N18130 X146.328 Z-17.837
N18135 X140.459 Z-17.057
N18140 X133.104 Z-16.233
N18145 X124.413 Z-15.4
N18150 X114.083 Z-14.567
N18155 X102.188 Z-13.767
N18160 X82.549 Z-12.733
N18165 X60.643 Z-11.911
N18170 X36.471 Z-11.337
N18175 X10.033 Z-11.048
N18180 X-16.406 Z-11.088
N18185 X-41.333 Z-11.428
N18190 X-64.75 Z-12.044
N18195 X-82.068 Z-12.712
N18200 X-96.654 Z-13.442
N18205 X-109.726 Z-14.256
N18210 X-121.103 Z-15.117
N18215 X-129.65 Z-15.884
N18220 X-136.714 Z-16.621
N18225 X-143.614 Z-17.458
N18230 X-149.18 Z-18.265
N18235 X-153.262 Z-18.96
N18240 X-156.675 Z-19.638
N18245 X-159.911 Z-20.449
N18250 X-161.195 Z-20.814
N18255 X-164.655 Z-22.073
N18260 X-167.397 Z-23.374
N18265 X-169.721 Z-24.753
N18270 X-171.629 Z-26.14
N18275 X-173.408 Z-27.718
N18280 X-175.139 Z-29.637
N18285 X-176.566 Z-31.641
N18290 X-177.82 Z-33.942
N18295 X-178.624 Z-35.895
N18300 X-179.289 Z-38.08
N18305 X-179.582 Z-39.447
N18310 X-179.915 Z-41.592
N18315 X-180.098 Z-45.196
N18320 X-180.102 Z-45.754
N18325 X-180.557 Y274.986 Z-45.967
N18330 X-181.012 Y276.485 Z-46.181
N18335 X-181.009 Z-45.928
N18340 X-180.853 Z-42.34
N18345 X-180.325 Z-39.011
N18350 X-179.649 Z-36.56
N18355 X-178.705 Z-34.201
N18360 X-178.064 Z-32.96
N18365 X-176.758 Z-30.888
N18370 X-175.227 Z-28.977
N18375 X-173.785 Z-27.511
N18380 X-172.763 Z-26.615
N18385 X-171.695 Z-25.78
N18390 X-170.593 Z-25.009
N18395 X-169.455 Z-24.294
N18400 X-168.289 Z-23.638
N18405 X-167.097 Z-23.031
N18410 X-164.648 Z-21.971
N18415 X-162.129 Z-21.09
N18420 X-160.696 Z-20.676
N18425 X-157.545 Z-19.881
N18430 X-152.934 Z-18.976
N18435 X-146.173 Z-17.92
N18440 X-139.278 Z-17.037
N18445 X-131.557 Z-16.201
N18450 X-121.174 Z-15.26
N18455 X-109.949 Z-14.413
N18460 X-95.823 Z-13.543
N18465 X-80.375 Z-12.785
N18470 X-61.586 Z-12.087
N18475 X-36.659 Z-11.487
N18480 X-10.22 Z-11.197
N18485 X16.596 Z-11.238
N18490 X41.901 Z-11.588
N18495 X65.318 Z-12.21
N18500 X86.468 Z-13.062
N18505 X102.944 Z-13.957
N18510 X114.833 Z-14.762
N18515 X125.162 Z-15.601
N18520 X134.002 Z-16.454
N18525 X141.355 Z-17.286
N18530 X147.224 Z-18.069
N18535 X151.612 Z-18.749
N18540 X155.975 Z-19.548
N18545 X158.854 Z-20.188
N18550 X161.166 Z-20.798
N18555 X164.815 Z-22.038
N18560 X167.158 Z-23.061
N18565 X168.457 Z-23.73
N18570 X169.724 Z-24.456
N18575 X170.952 Z-25.251
N18580 X172.533 Z-26.423
N18585 X174.784 Z-28.495
N18590 X176.174 Z-30.101
N18595 X177.025 Z-31.267
N18600 X178.316 Z-33.419
N18605 X179.506 Z-36.131
N18610 X180.211 Z-38.482
N18615 X180.446 Z-39.676
N18620 X180.853 Z-42.343
N18625 X181.011 Z-46.178
N18630 X181.459 Y277.985 Z-46.388
N18635 X181.902 Y279.485 Z-46.598
N18640 X181.884 Z-45.309
N18645 X181.657 Z-41.823
N18650 X180.98 Z-38.279
N18655 X180.151 Z-35.788
N18660 X179.16 Z-33.636
N18665 X177.91 Z-31.561
N18670 X176.606 Z-29.83
N18675 X174.905 Z-28.016
N18680 X174.101 Z-27.28
N18685 X172.414 Z-25.943
N18690 X170.608 Z-24.737
N18695 X169.341 Z-23.991
N18700 X166.715 Z-22.717
N18705 X165.349 Z-22.167
N18710 X163.975 Z-21.666
N18715 X162.568 Z-21.207
N18720 X159.728 Z-20.433
N18725 X156.849 Z-19.79
N18730 X152.486 Z-18.984
N18735 X146.634 Z-18.09
N18740 X139.293 Z-17.16
N18745 X131.934 Z-16.37
N18750 X123.09 Z-15.558
N18755 X111.273 Z-14.648
N18760 X99.314 Z-13.886
N18765 X82.827 Z-13.039
N18770 X60.165 Z-12.192
N18775 X35.993 Z-11.624
N18780 X9.555 Z-11.342
N18785 X-16.883 Z-11.39
N18790 X-42.566 Z-11.748
N18795 X-65.983 Z-12.379
N18800 X-82.506 Z-13.024
N18805 X-97.721 Z-13.794
N18810 X-110.804 Z-14.615
N18815 X-121.398 Z-15.417
N18820 X-131.12 Z-16.288
N18825 X-140.524 Z-17.304
N18830 X-148.733 Z-18.393
N18835 X-154.967 Z-19.424
N18840 X-159.528 Z-20.381
N18845 X-161.785 Z-20.974
N18850 X-164.482 Z-21.84
N18855 X-166.97 Z-22.828
N18860 X-169.378 Z-24.01
N18865 X-171.682 Z-25.411
N18870 X-174.1 Z-27.28
N18875 X-174.85 Z-27.966
N18880 X-175.831 Z-28.95
N18885 X-177.475 Z-30.94
N18890 X-178.791 Z-32.965
N18895 X-179.831 Z-35.029
N18900 X-180.481 Z-36.673
N18905 X-181.127 Z-38.888
N18910 X-181.703 Z-42.163
N18915 X-181.903 Z-46.6
N18920 X-182.344 Y280.985 Z-46.81
N18925 X-182.785 Y282.485 Z-47.019
N18930 X-182.671 Z-43.728
N18935 X-182.444 Z-41.453
N18940 X-181.798 Z-38.354
N18945 X-181.015 Z-36.029
N18950 X-179.79 Z-33.463
N18955 X-178.685 Z-31.691
N18960 X-177.879 Z-30.599
N18965 X-177.001 Z-29.558
N18970 X-175.319 Z-27.866
N18975 X-173.204 Z-26.15
N18980 X-170.636 Z-24.499
N18985 X-168.235 Z-23.272
N18990 X-167.001 Z-22.74
N18995 X-164.489 Z-21.803
N19000 X-160.73 Z-20.712
N19005 X-156.746 Z-19.84
N19010 X-151.504 Z-18.919
N19015 X-145.941 Z-18.106
N19020 X-139.042 Z-17.253
N19025 X-130.656 Z-16.378
N19030 X-119.608 Z-15.41
N19035 X-107.025 Z-14.504
N19040 X-91.767 Z-13.615
N19045 X-75.547 Z-12.877
N19050 X-52.13 Z-12.114
N19055 X-27.203 Z-11.64
N19060 X-0.764 Z-11.469
N19065 X25.674 Z-11.621
N19070 X50.602 Z-12.077
N19075 X74.018 Z-12.818
N19080 X95.169 Z-13.798
N19085 X107.938 Z-14.565
N19090 X119.784 Z-15.424
N19095 X130.107 Z-16.326
N19100 X138.941 Z-17.241
N19105 X146.286 Z-18.153
N19110 X152.143 Z-19.022
N19115 X156.511 Z-19.794
N19120 X159.406 Z-20.397
N19125 X162.271 Z-21.116
N19130 X165.072 Z-21.998
N19135 X167.792 Z-23.07
N19140 X169.119 Z-23.701
N19145 X170.411 Z-24.373
N19150 X171.981 Z-25.307
N19155 X174.605 Z-27.24
N19160 X176.638 Z-29.16
N19165 X178.054 Z-30.829
N19170 X179.268 Z-32.577
N19175 X180.571 Z-35.008
N19180 X181.325 Z-36.887
N19185 X181.706 Z-38.054
N19190 X182.083 Z-39.523
N19195 X182.603 Z-42.611
N19200 X182.783 Z-46.889
N19205 X183.222 Y283.985 Z-47.159
N19210 X183.662 Y285.485 Z-47.429
N19215 X183.493 Z-43.023
N19220 X183.021 Z-40.086
N19225 X182.402 Z-37.8
N19230 X181.542 Z-35.517
N19235 X180.445 Z-33.381
N19240 X179.266 Z-31.571
N19245 X177.703 Z-29.657
N19250 X176.953 Z-28.869
N19255 X175.367 Z-27.437
N19260 X173.645 Z-26.127
N19265 X172.426 Z-25.311
N19270 X170.029 Z-23.979
N19275 X167.019 Z-22.66
N19280 X164.414 Z-21.744
N19285 X161.581 Z-20.957
N19290 X158.702 Z-20.3
N19295 X154.342 Z-19.478
N19300 X149.958 Z-18.784
N19305 X144.093 Z-17.981
N19310 X136.741 Z-17.127
N19315 X127.902 Z-16.252
N19320 X117.575 Z-15.392
N19325 X105.713 Z-14.562
N19330 X92.149 Z-13.781
N19335 X70.243 Z-12.822
N19340 X46.071 Z-12.117
N19345 X20.388 Z-11.712
N19350 X-6.05 Z-11.624
N19355 X-32.489 Z-11.862
N19360 X-57.416 Z-12.406
N19365 X-77.8 Z-13.115
N19370 X-93.264 Z-13.841
N19375 X-106.109 Z-14.588
N19380 X-118.704 Z-15.479
N19385 X-128.43 Z-16.3
N19390 X-136.669 Z-17.12
N19395 X-143.574 Z-17.915
N19400 X-150.148 Z-18.811
N19405 X-155.713 Z-19.721
N19410 X-159.628 Z-20.498
N19415 X-162.219 Z-21.118
N19420 X-164.781 Z-21.864
N19425 X-168.303 Z-23.179
N19430 X-170.945 Z-24.464
N19435 X-173.25 Z-25.855
N19440 X-175.414 Z-27.476
N19445 X-176.428 Z-28.352
N19450 X-178.212 Z-30.214
N19455 X-180.001 Z-32.641
N19460 X-181.174 Z-34.724
N19465 X-182.146 Z-37.029
N19470 X-182.885 Z-39.481
N19475 X-183.435 Z-42.521
N19480 X-183.655 Z-46.443
N19485 X-183.662 Z-47.413
N19490 X-184.101 Y286.985 Z-47.631
N19495 X-184.54 Y288.485 Z-47.85
N19500 X-184.533 Z-46.753
N19505 X-184.365 Z-43.344
N19510 X-183.737 Z-39.707
N19515 X-182.979 Z-37.2
N19520 X-182.161 Z-35.264
N19525 X-181.52 Z-34.028
N19530 X-180.4 Z-32.234
N19535 X-178.781 Z-30.173
N19540 X-177.229 Z-28.583
N19545 X-176.215 Z-27.698
N19550 X-175.15 Z-26.853
N19555 X-174.055 Z-26.087
N19560 X-172.769 Z-25.272
N19565 X-169.949 Z-23.802
N19570 X-167.952 Z-22.946
N19575 X-165.439 Z-22.051
N19580 X-164.163 Z-21.666
N19585 X-161.578 Z-20.991
N19590 X-157.674 Z-20.166
N19595 X-153.444 Z-19.428
N19600 X-149.351 Z-18.804
N19605 X-143.929 Z-18.078
N19610 X-136.723 Z-17.256
N19615 X-128.483 Z-16.44
N19620 X-118.456 Z-15.6
N19625 X-106.885 Z-14.783
N19630 X-93.756 Z-14.013
N19635 X-78.987 Z-13.311
N19640 X-64.653 Z-12.776
N19645 X-40.481 Z-12.148
N19650 X-14.043 Z-11.808
N19655 X12.396 Z-11.797
N19660 X39.589 Z-12.129
N19665 X64.517 Z-12.772
N19670 X87.178 Z-13.682
N19675 X102.138 Z-14.489
N19680 X114.064 Z-15.275
N19685 X124.401 Z-16.083
N19690 X133.246 Z-16.895
N19695 X142.075 Z-17.857
N19700 X147.948 Z-18.601
N19705 X153.8 Z-19.486
N19710 X158.171 Z-20.262
N19715 X161.064 Z-20.873
N19720 X163.921 Z-21.595
N19725 X165.326 Z-22.014
N19730 X168.272 Z-23.068
N19735 X170.775 Z-24.188
N19740 X172.066 Z-24.877
N19745 X173.329 Z-25.61
N19750 X174.549 Z-26.427
N19755 X176.825 Z-28.216
N19760 X178.828 Z-30.227
N19765 X179.725 Z-31.317
N19770 X180.952 Z-33.064
N19775 X182.276 Z-35.512
N19780 X183.031 Z-37.355
N19785 X183.747 Z-39.749
N19790 X184.294 Z-42.754
N19795 X184.517 Z-46.216
N19800 X184.539 Z-47.844
N19805 X184.975 Y289.985 Z-48.051
N19810 X185.41 Y291.485 Z-48.259
N19815 X185.243 Z-43.766
N19820 X184.491 Z-39.531
N19825 X183.667 Z-37.036
N19830 X183.27 Z-36.096
