%
(1001)
(T1  D=6. CR=0. - ZMIN=-20.5 - FLAT END MILL)
N10 G90 G94 G17 G91.1
N15 G21
N20 G53 G0 Z0.
(2D POCKET1)
N25 M9
N30 T1 M6
N35 S22000 M3
N40 G54
N45 M8
N50 G0 X-137.421 Y125.36
N55 G43 Z15. H1
N60 G0 Z5.
N65 G1 Z2.5 F500.
N70 Z-1.5 F333.33
N75 X-137.446 Y125.344 Z-1.685
N80 X-137.513 Y125.291 Z-1.853
N85 X-137.559 Y125.244 Z-1.919
N90 X-137.601 Y125.192 Z-1.985
N95 X-137.644 Y125.121 Z-2.028
N100 X-137.677 Y125.044 Z-2.071
N105 X-137.7 Y124.954 Z-2.085
N110 X-137.71 Y124.862 Z-2.1
N115 G3 X-134.973 Y124.79 I1.368 J-0.036 F1500.
N120 G1 X-131.858 Y243.749
N125 G3 X-133.191 Y245.153 I-1.368 J0.036
N130 X-134.595 Y243.82 I-0.036 J-1.368
N135 G1 X-137.71 Y124.862
N140 G2 X-138.657 Y123.192 I-2.041 J0.053
N145 G3 X-138.671 Y121.272 I0.612 J-0.965
N150 X-132.093 Y124.714 I2.33 J3.554
N155 G1 X-128.978 Y243.674
N160 G3 X-133.115 Y248.033 I-4.248 J0.111
N165 X-137.475 Y243.896 I-0.111 J-4.248
N170 G1 X-140.59 Y124.937
N175 G3 X-138.671 Y121.272 I4.248 J-0.111
N180 G2 X-136.822 Y117.766 I-2.244 J-3.424
N185 G3 X-133.69 Y115.34 I2.468 J-0.049
N190 X-126.495 Y124.568 I-2.652 J9.486
N195 G1 X-123.38 Y243.527
N200 G3 X-132.969 Y253.631 I-9.846 J0.258
N205 X-143.073 Y244.043 I-0.258 J-9.846
N210 G1 X-146.188 Y125.084
N215 G3 X-133.69 Y115.34 I9.846 J-0.258
N220 G2 X-129.428 Y114.196 I1.165 J-4.168
N225 G3 X-125.016 Y114.245 I2.183 J2.132
N230 X-120.847 Y124.42 I-11.326 J10.582
N235 G1 X-117.732 Y243.379
N240 G3 X-148.721 Y244.19 I-15.495 J0.405
N245 G1 X-151.836 Y125.232
N250 G3 X-125.016 Y114.245 I15.495 J-0.405
N255 G1 X-124.958 Y114.317 Z-2.085 F500.
N260 X-124.912 Y114.397 Z-2.071
N265 X-124.881 Y114.475 Z-2.028
N270 X-124.862 Y114.556 Z-1.985
N275 X-124.855 Y114.622 Z-1.919
N280 Y114.689 Z-1.853
N285 X-124.866 Y114.773 Z-1.685
N290 X-124.873 Y114.802 Z-1.5
N295 G0 Z15.
(2D POCKET2)
N300 G0 X-134.336 Y242.559
N305 G1 Z13. F333.33
N310 Z-11.4
N315 X-134.36 Y242.576 Z-11.585
N320 X-134.424 Y242.632 Z-11.753
N325 X-134.468 Y242.682 Z-11.819
N330 X-134.507 Y242.736 Z-11.885
N335 X-134.546 Y242.809 Z-11.928
N340 X-134.575 Y242.888 Z-11.971
N345 X-134.594 Y242.978 Z-11.985
N350 X-134.599 Y243.071 Z-12.
N355 G2 X-133.211 Y244.388 I1.352 J-0.035 F1500.
N360 X-131.894 Y242.999 I-0.036 J-1.352
N365 G1 X-134.969 Y125.54
N370 G2 X-136.357 Y124.223 I-1.352 J0.035
N375 X-137.674 Y125.611 I0.036 J1.352
N380 G1 X-134.599 Y243.071
N385 G3 X-135.459 Y244.795 I-2.05 J0.054
N390 G2 X-135.366 Y246.72 I0.664 J0.932
N395 X-128.998 Y242.924 I2.119 J-3.684
N400 G1 X-132.073 Y125.465
N405 G2 X-136.432 Y121.326 I-4.249 J0.11
N410 X-140.57 Y125.686 I0.111 J4.249
N415 G1 X-137.495 Y243.146
N420 G2 X-135.366 Y246.72 I4.249 J-0.111
N425 X-134.934 Y246.563 I0.15 J-0.26
N430 G1 X-134.215 Y244.615
N435 X-134.197 Y244.575
N440 X-134.186 Y244.532
N445 X-133.873 Y242.862
N450 G2 X-134.336 Y242.559 I-0.295 J-0.055
N455 G1 Z-19.9 F333.33
N460 X-134.36 Y242.576 Z-20.085
N465 X-134.424 Y242.632 Z-20.253
N470 X-134.468 Y242.682 Z-20.319
N475 X-134.507 Y242.736 Z-20.385
N480 X-134.546 Y242.809 Z-20.428
N485 X-134.575 Y242.888 Z-20.471
N490 X-134.594 Y242.978 Z-20.485
N495 X-134.599 Y243.071 Z-20.5
N500 G2 X-133.211 Y244.388 I1.352 J-0.035 F1500.
N505 X-131.894 Y242.999 I-0.036 J-1.352
N510 G1 X-134.969 Y125.54
N515 G2 X-136.357 Y124.223 I-1.352 J0.035
N520 X-137.674 Y125.611 I0.036 J1.352
N525 G1 X-134.599 Y243.071
N530 G3 X-135.459 Y244.795 I-2.05 J0.054
N535 G2 X-135.366 Y246.72 I0.664 J0.932
N540 X-128.998 Y242.924 I2.119 J-3.684
N545 G1 X-132.073 Y125.465
N550 G2 X-136.432 Y121.326 I-4.249 J0.11
N555 X-140.57 Y125.686 I0.111 J4.249
N560 G1 X-137.495 Y243.146
N565 G2 X-135.366 Y246.72 I4.249 J-0.111
N570 G1 X-135.282 Y246.759 Z-20.485 F500.
N575 X-135.193 Y246.786 Z-20.471
N580 X-135.111 Y246.798 Z-20.428
N585 X-135.027 Z-20.385
N590 X-134.961 Y246.79 Z-20.319
N595 X-134.897 Y246.775 Z-20.253
N600 X-134.817 Y246.745 Z-20.085
N605 X-134.79 Y246.732 Z-19.9
N610 G0 Z13.
(2D POCKET1 2)
N615 G0 Z15.
N620 X133.566 Y243.73
N625 Z5.
N630 G1 Z2.5 F500.
N635 Z-1.5 F333.33
N640 X133.59 Y243.748 Z-1.685
N645 X133.654 Y243.804 Z-1.853
N650 X133.698 Y243.853 Z-1.919
N655 X133.736 Y243.908 Z-1.985
N660 X133.776 Y243.981 Z-2.028
N665 X133.804 Y244.06 Z-2.071
N670 X133.823 Y244.151 Z-2.085
N675 X133.827 Y244.243 Z-2.1
N680 G3 X132.419 Y245.571 I-1.368 J-0.04 F1500.
N685 X131.091 Y244.162 I0.04 J-1.368
N690 G1 X134.58 Y125.214
N695 G3 X135.988 Y123.886 I1.368 J0.04
N700 X137.316 Y125.295 I-0.04 J1.368
N705 G1 X133.827 Y244.243
N710 G2 X134.68 Y245.963 I2.041 J0.06
N715 G3 X134.588 Y247.881 I-0.665 J0.929
N720 X128.211 Y244.078 I-2.129 J-3.678
N725 G1 X131.7 Y125.129
N730 G3 X136.073 Y121.006 I4.248 J0.125
N735 X140.196 Y125.379 I-0.125 J4.248
N740 G1 X136.707 Y244.328
N745 G3 X134.588 Y247.881 I-4.248 J-0.125
N750 G2 X132.547 Y251.278 I2.051 J3.543
N755 G3 X129.285 Y253.527 I-2.467 J-0.088
N760 X122.613 Y243.914 I3.174 J-9.324
N765 G1 X126.102 Y124.965
N770 G3 X136.237 Y115.408 I9.846 J0.289
N775 X145.794 Y125.543 I-0.289 J9.846
N780 G1 X142.305 Y244.491
N785 G3 X132.17 Y254.049 I-9.846 J-0.289
N790 X129.285 Y253.527 I0.289 J-9.846
N795 G2 X124.966 Y254.433 I-1.395 J4.097
N800 G3 X120.563 Y254.14 I-2.061 J-2.25
N805 X116.966 Y243.748 I11.896 J-9.937
N810 G1 X120.455 Y124.8
N815 G3 X136.402 Y109.761 I15.493 J0.454
N820 X151.441 Y125.708 I-0.454 J15.493
N825 G1 X147.952 Y244.657
N830 G3 X120.563 Y254.14 I-15.493 J-0.454
N835 G1 X120.509 Y254.064 Z-2.085 F500.
N840 X120.468 Y253.981 Z-2.071
N845 X120.442 Y253.902 Z-2.028
N850 X120.427 Y253.82 Z-1.985
N855 X120.424 Y253.754 Z-1.919
N860 X120.427 Y253.687 Z-1.853
N865 X120.443 Y253.604 Z-1.685
N870 X120.451 Y253.575 Z-1.5
N875 G0 Z15.
(2D POCKET2 2)
N880 G0 X131.42 Y242.917
N885 G1 Z13. F333.33
N890 Z-11.4
N895 X131.395 Y242.933 Z-11.585
N900 X131.328 Y242.985 Z-11.753
N905 X131.281 Y243.032 Z-11.819
N910 X131.239 Y243.084 Z-11.885
N915 X131.196 Y243.155 Z-11.928
N920 X131.163 Y243.232 Z-11.971
N925 X131.139 Y243.321 Z-11.985
N930 X131.129 Y243.413 Z-12.
N935 Y243.414 F1500.
N940 G2 X133.833 Y243.493 I1.352 J0.04
N945 G1 X137.278 Y126.043
N950 G2 X135.966 Y124.652 I-1.352 J-0.04
N955 X134.574 Y125.964 I-0.04 J1.352
N960 G1 X131.129 Y243.413
N965 G3 X130.174 Y245.087 I-2.05 J-0.06
N970 G2 X130.161 Y247.014 I0.611 J0.968
N975 X136.729 Y243.578 I2.32 J-3.561
N980 G1 X140.174 Y126.128
N985 G2 X131.678 Y125.879 I-4.248 J-0.124
N990 G1 X128.233 Y243.329
N995 G2 X130.161 Y247.014 I4.248 J0.124
N1000 X130.6 Y246.882 I0.164 J-0.251
N1005 G1 X131.427 Y244.977
N1010 X131.446 Y244.937
N1015 X131.46 Y244.896
N1020 X131.866 Y243.245
N1025 G2 X131.42 Y242.917 I-0.291 J-0.072
N1030 G1 Z-19.9 F333.33
N1035 X131.395 Y242.933 Z-20.085
N1040 X131.328 Y242.985 Z-20.253
N1045 X131.281 Y243.032 Z-20.319
N1050 X131.239 Y243.084 Z-20.385
N1055 X131.196 Y243.155 Z-20.428
N1060 X131.163 Y243.232 Z-20.471
N1065 X131.139 Y243.321 Z-20.485
N1070 X131.129 Y243.413 Z-20.5
N1075 Y243.414 F1500.
N1080 G2 X133.833 Y243.493 I1.352 J0.04
N1085 G1 X137.278 Y126.043
N1090 G2 X135.966 Y124.652 I-1.352 J-0.04
N1095 X134.574 Y125.964 I-0.04 J1.352
N1100 G1 X131.129 Y243.413
N1105 G3 X130.174 Y245.087 I-2.05 J-0.06
N1110 G2 X130.161 Y247.014 I0.611 J0.968
N1115 X136.729 Y243.578 I2.32 J-3.561
N1120 G1 X140.174 Y126.128
N1125 G2 X131.678 Y125.879 I-4.248 J-0.124
N1130 G1 X128.233 Y243.329
N1135 G2 X130.161 Y247.014 I4.248 J0.124
N1140 G1 X130.242 Y247.058 Z-20.485 F500.
N1145 X130.329 Y247.09 Z-20.471
N1150 X130.411 Y247.106 Z-20.428
N1155 X130.495 Y247.111 Z-20.385
N1160 X130.561 Y247.107 Z-20.319
N1165 X130.626 Y247.095 Z-20.253
N1170 X130.707 Y247.07 Z-20.085
N1175 X130.734 Y247.058 Z-19.9
N1180 G0 Z13.
N1185 M9
N1190 G53 Z0.
N1195 M30
%
