%
(1001)
(T5  D=19.05 CR=9.525 - ZMIN=-96.48 - BALL END MILL)
N10 G90 G94 G17 G91.1
N15 G21
N20 G53 G0 Z0.
(PARALLEL2)
N25 M9
N30 T5 M6
N35 S24000 M3
N40 G54
N45 G0 X304.156 Y1150.051
N50 G43 Z10. H5
N55 G0 Z-23.095
N60 G19 G2 Y1148.146 Z-25. J-1.905 K0. F1000.
N65 G1 Y1098.064 F6000.
N70 G2 Y1096.159 Z-23.095 J0. K1.905 F1000.
N75 G0 Z5.
N80 X289.16 Y1431.871
N85 Z-23.095
N90 G2 Y1429.966 Z-25. J-1.905 K0. F1000.
N95 G1 Y745.322 F6000.
N100 G2 Y743.417 Z-23.095 J0. K1.905 F1000.
N105 G0 Z5.
N110 X274.163 Y603.749
N115 Z-23.095
N120 G3 Y605.654 Z-25. J1.905 K0. F1000.
N125 G1 Y812.279 F6000.
N130 Y829.39 Z-21.345
N135 Y849.079 Z-17.753
N140 Y877.964 Z-14.423
N145 Y911.636 Z-11.587
N150 Y953.256 Z-9.241
N155 Y1013.236 Z-7.414
N160 Y1122.096 Z-7.027
N165 Y1173.19 Z-8.389
N170 Y1210.955 Z-10.752
N175 Y1243.553 Z-13.975
N180 Y1263.571 Z-16.948
N185 Y1273.26 Z-18.829
N190 Y1284.251 Z-21.191
N195 Y1294.677 Z-24.89
N200 Y1516.134 Z-25.
N205 G3 Y1518.04 Z-23.095 J0.001 K1.905 F1000.
N210 G0 Z5.
N215 X259.167 Y1577.669
N220 Z-23.095
N225 G2 Y1575.763 Z-25. J-1.905 K0. F1000.
N230 G1 Y1414.623 Z-24.865 F6000.
N235 Y1403.03 Z-20.77
N240 Y1386.226 Z-16.368
N245 Y1365.266 Z-12.48
N250 Y1336.82 Z-8.553
N255 Y1305.251 Z-5.495
N260 Y1273.4 Z-2.964
N265 Y1226.753 Z-0.731
N270 Y1153.443 Z1.155
N275 Y1026.819 Z1.337
N280 Y937.959 Z-0.075
N285 Y860.207 Z-2.833
N290 Y801.412 Z-6.121
N295 Y752.845 Z-10.29
N300 Y717.755 Z-14.712
N305 Y695.666 Z-18.382
N310 Y676.929 Z-22.276
N315 Y666.245 Z-25.
N320 Y499.375
N325 G2 Y497.47 Z-23.095 J0. K1.905 F1000.
N330 G0 Z5.
N335 X244.171 Y410.788
N340 Z-23.095
N345 G3 Y412.693 Z-25. J1.905 K0. F1000.
N350 G1 Y572.292 F6000.
N355 Y580.132 Z-23.188
N360 Y607.092 Z-18.369
N365 Y642.242 Z-14.028
N370 Y688.231 Z-10.232
N375 Y785.977 Z-4.856
N380 Y888.165 Z-0.936
N385 Y1001.461 Z1.581
N390 Y1112.535 Z2.543
N395 Y1214.723 Z1.779
N400 Y1305.804 Z-0.42
N405 Y1350.18 Z-2.86
N410 Y1389.686 Z-6.063
N415 Y1418.087 Z-9.209
N420 Y1443.016 Z-12.968
N425 Y1459.695 Z-15.949
N430 Y1479.008 Z-20.686
N435 Y1491.808 Z-24.849
N440 Y1625.098 Z-25.
N445 G3 Y1627.005 Z-23.095 J0.002 K1.905 F1000.
N450 G0 Z5.
N455 X229.174 Y1669.882
N460 Z-23.095
N465 G2 Y1667.974 Z-25. J-1.905 K0. F1000.
N470 G1 Y1548.014 Z-24.803 F6000.
N475 Y1532.942 Z-20.535
N480 Y1515.302 Z-16.697
N485 Y1489.996 Z-12.46
N490 Y1465.258 Z-9.42
N495 Y1441.408 Z-7.002
N500 Y1381.428 Z-3.535
N505 Y1292.568 Z-0.144
N510 Y1194.823 Z1.871
N515 Y1094.856 Z2.326
N520 Y972.674 Z0.899
N525 Y868.265 Z-1.762
N530 Y766.076 Z-6.027
N535 Y666.113 Z-11.86
N540 Y596.886 Z-16.9
N545 Y546.754 Z-21.173
N550 Y515.521 Z-25.
N555 Y341.746
N560 G2 Y339.841 Z-23.095 J0. K1.905 F1000.
N565 G0 Z5.
N570 X214.178 Y281.14
N575 Z-23.095
N580 G3 Y283.045 Z-25. J1.905 K0. F1000.
N585 G1 Y505.125 F6000.
N590 Y570.643 Z-19.258
N595 Y639.64 Z-13.899
N600 Y708.156 Z-9.397
N605 Y808.123 Z-4.25
N610 Y910.311 Z-0.658
N615 Y1030.272 Z1.59
N620 Y1134.682 Z2.169
N625 Y1239.091 Z0.974
N630 Y1334.615 Z-1.718
N635 Y1421.253 Z-5.756
N640 Y1476.646 Z-9.298
N645 Y1527.405 Z-13.501
N650 Y1548.521 Z-16.413
N655 Y1569.214 Z-19.945
N660 Y1590.156 Z-24.936
N665 Y1705.673 Z-25.
N670 G3 Y1707.579 Z-23.095 J0.001 K1.905 F1000.
N675 G0 Z5.
N680 X199.182 Y1740.773
N685 Z-23.095
N690 G2 Y1738.865 Z-25. J-1.905 K0. F1000.
N695 G1 Y1619.753 Z-24.82 F6000.
N700 Y1599.219 Z-20.925
N705 Y1573.135 Z-17.749
N710 Y1520.712 Z-12.833
N715 Y1463.115 Z-8.476
N720 Y1380.92 Z-3.822
N725 Y1289.839 Z-0.422
N730 Y1189.872 Z1.571
N735 Y1092.127 Z1.972
N740 Y963.28 Z0.379
N745 Y863.313 Z-2.243
N750 Y763.347 Z-6.502
N755 Y663.44 Z-12.409
N760 Y593.899 Z-17.542
N765 Y517.377 Z-24.157
N770 Y504.876 Z-25.
N775 Y233.124
N780 G2 Y231.219 Z-23.095 J0. K1.905 F1000.
N785 G0 Z5.
N790 X184.186 Y187.328
N795 Z-23.095
N800 G3 Y189.233 Z-25. J1.905 K0. F1000.
N805 G1 Y507.058 F6000.
N810 Y532.51 Z-22.933
N815 Y607.051 Z-16.642
N820 Y676.963 Z-11.637
N825 Y776.93 Z-5.947
N830 Y876.896 Z-1.91
N835 Y983.528 Z0.625
N840 Y1110.152 Z1.875
N845 Y1214.562 Z1.062
N850 Y1312.308 Z-1.272
N855 Y1401.167 Z-4.956
N860 Y1481.141 Z-9.842
N865 Y1552.228 Z-15.74
N870 Y1596.288 Z-20.298
N875 Y1634.857 Z-24.981
N880 Y1768.146 Z-25.
N885 Y1794.099
N890 X184.088 Y1794.839
N895 X183.803 Y1795.528
N900 X183.349 Y1796.12
N905 X182.757 Y1796.574
N910 X182.068 Y1796.859
N915 X181.328 Y1796.957
N920 X172.047
N925 X171.307 Y1796.859
N930 X170.618 Y1796.574
N935 X170.026 Y1796.12
N940 X169.572 Y1795.528
N945 X169.287 Y1794.839
N950 X169.189 Y1794.099
N955 Y1634.152 Z-24.909
N960 Y1591.638 Z-19.828
N965 Y1547.473 Z-15.364
N970 Y1494.468 Z-10.923
N975 Y1441.201 Z-7.314
N980 Y1356.784 Z-3.054
N985 Y1261.26 Z-0.006
N990 Y1156.85 Z1.573
N995 Y1063.548 Z1.478
N1000 Y936.923 Z-0.399
N1005 Y839.178 Z-3.336
N1010 Y739.211 Z-7.981
N1015 Y659.304 Z-12.905
N1020 Y590.089 Z-18.079
N1025 Y513.785 Z-24.769
N1030 Y150.334 Z-25.
N1035 G2 Y148.428 Z-23.095 J-0.001 K1.905 F1000.
N1040 G0 Z5.
N1045 X154.193 Y114.671
N1050 Z-23.095
N1055 G3 Y116.576 Z-25. J1.905 K0. F1000.
N1060 G1 Y509.729 F6000.
N1065 Y560.342 Z-20.624
N1070 Y629.041 Z-15.105
N1075 Y697.548 Z-10.457
N1080 Y797.515 Z-5.126
N1085 Y897.482 Z-1.462
N1090 Y1010.778 Z0.758
N1095 Y1124.074 Z1.599
N1100 Y1230.705 Z0.484
N1105 Y1328.451 Z-2.107
N1110 Y1417.31 Z-6.057
N1115 Y1477.251 Z-9.766
N1120 Y1548.339 Z-15.51
N1125 Y1592.511 Z-19.969
N1130 Y1632.933 Z-24.772
N1135 Y1817.316 Z-25.
N1140 G3 Y1817.736 Z-24.903 J0.001 K0.952
N1145 G2 Y1818.156 Z-24.806 J0.419 K-0.855
N1150 G1 Y1838.792
N1155 G17 G3 X151.335 Y1841.65 I-2.857 J0.
N1160 G1 X142.054
N1165 G3 X139.197 Y1838.792 I0. J-2.857
N1170 G19 G3 Y1838.373 Z-24.903 J0. K-0.952
N1175 G2 Y1837.953 Z-25. J-0.419 K0.855
N1180 G1 Y1633.577 Z-24.875
N1185 Y1594.945 Z-20.275
N1190 Y1551.244 Z-15.839
N1195 Y1496.429 Z-11.241
N1200 Y1418.677 Z-6.238
N1205 Y1329.818 Z-2.282
N1210 Y1232.072 Z0.325
N1215 Y1125.441 Z1.476
N1220 Y1012.145 Z0.68
N1225 Y898.849 Z-1.474
N1230 Y798.882 Z-5.089
N1235 Y698.916 Z-10.375
N1240 Y632.862 Z-14.82
N1245 Y563.966 Z-20.309
N1250 Y511.15 Z-25.
N1255 Y87.661
N1260 G2 Y87.242 Z-24.903 J0. K0.952
N1265 G3 Y86.823 Z-24.806 J-0.419 K-0.855
N1270 G1 Y63.244
N1275 G17 G2 X136.339 Y60.386 I-2.857 J0.
N1280 G1 X127.058
N1285 G2 X124.2 Y63.244 I0. J2.857
N1290 G19 G2 Y63.663 Z-24.903 J0. K-0.952
N1295 G3 Y64.082 Z-25. J0.419 K0.855
N1300 G1 Y481.098
N1305 Y514.421 Z-24.727
N1310 Y586.905 Z-18.338
N1315 Y654.111 Z-13.264
N1320 Y738.335 Z-8.062
N1325 Y836.081 Z-3.55
N1330 Y933.826 Z-0.66
N1335 Y1060.451 Z1.119
N1340 Y1153.753 Z1.218
N1345 Y1260.385 Z-0.383
N1350 Y1355.908 Z-3.383
N1355 Y1442.546 Z-7.695
N1360 Y1495.638 Z-11.256
N1365 Y1548.635 Z-15.652
N1370 Y1592.386 Z-20.033
N1375 Y1633.502 Z-24.884
N1380 Y1856.762 Z-25.
N1385 G3 Y1857.182 Z-24.903 J0. K0.952
N1390 G2 Y1857.601 Z-24.806 J0.419 K-0.855
N1395 G1 Y1874.529
N1400 G17 G3 X121.343 Y1877.387 I-2.857 J0.
N1405 G1 X112.062
N1410 G3 X109.204 Y1874.529 I0. J-2.858
N1415 G19 G3 Y1874.11 Z-24.903 J0. K-0.952
N1420 G2 Y1873.691 Z-25. J-0.419 K0.855
N1425 G1 Y1633.77 Z-24.935
N1430 Y1591.2 Z-19.937
N1435 Y1545.152 Z-15.385
N1440 Y1471.843 Z-9.638
N1445 Y1400.776 Z-5.496
N1450 Y1309.695 Z-1.831
N1455 Y1207.506 Z0.509
N1460 Y1105.318 Z1.277
N1465 Y967.586 Z-0.062
N1470 Y867.619 Z-2.426
N1475 Y769.874 Z-6.379
N1480 Y674.373 Z-11.819
N1485 Y606.286 Z-16.693
N1490 Y537.904 Z-22.456
N1495 Y508.065 Z-25.
N1500 Y62.11
N1505 G2 Y61.69 Z-24.903 J0. K0.952
N1510 G3 Y61.271 Z-24.806 J-0.419 K-0.855
N1515 G17 G2 X106.347 Y58.414 I-2.857 J0.
N1520 G1 X97.065
N1525 G2 X94.208 Y61.271 I0. J2.857
N1530 G19 G2 Y61.69 Z-24.903 J0. K-0.952
N1535 G3 Y62.11 Z-25. J0.419 K0.855
N1540 G1 Y506.776
N1545 Y579.673 Z-18.674
N1550 Y646.615 Z-13.573
N1555 Y724.211 Z-8.681
N1560 Y821.956 Z-4.011
N1565 Y919.702 Z-0.966
N1570 Y1039.662 Z0.801
N1575 Y1141.85 Z1.109
N1580 Y1250.703 Z-0.372
N1585 Y1348.449 Z-3.277
N1590 Y1435.087 Z-7.413
N1595 Y1492.582 Z-11.157
N1600 Y1547.783 Z-15.668
N1605 Y1593.326 Z-20.197
N1610 Y1633.783 Z-24.951
N1615 Y1889.254 Z-25.
N1620 G3 Y1891.16 Z-23.095 J0. K1.905 F1000.
N1625 G0 Z5.
N1630 X79.211 Y2159.711
N1635 Z-23.095
N1640 G2 Y2157.806 Z-25. J-1.905 K0. F1000.
N1645 G1 Y1633.536 Z-24.933 F6000.
N1650 Y1590.923 Z-19.963
N1655 Y1538.651 Z-14.892
N1660 Y1465.342 Z-9.329
N1665 Y1380.926 Z-4.705
N1670 Y1287.623 Z-1.353
N1675 Y1180.992 Z0.688
N1680 Y1083.247 Z1.075
N1685 Y945.515 Z-0.436
N1690 Y849.991 Z-2.881
N1695 Y752.245 Z-7.039
N1700 Y656.771 Z-12.69
N1705 Y589.381 Z-17.686
N1710 Y517.074 Z-23.992
N1715 Y504.598 Z-25.
N1720 Y62.11
N1725 G2 Y61.69 Z-24.903 J0. K0.952
N1730 G3 Y61.271 Z-24.806 J-0.419 K-0.855
N1735 G1 Y56.757
N1740 G17 G2 X76.354 Y53.899 I-2.858 J0.
N1745 G1 X67.073
N1750 G2 X64.215 Y56.757 I0. J2.857
N1755 G19 G2 Y57.176 Z-24.903 J0. K-0.952
N1760 G3 Y57.595 Z-25. J0.419 K0.855
N1765 G1 Y502.455
N1770 Y534.935 Z-22.063
N1775 Y608.629 Z-15.936
N1780 Y676.425 Z-11.195
N1785 Y771.949 Z-5.915
N1790 Y869.694 Z-2.16
N1795 Y969.661 Z-0.008
N1800 Y1107.359 Z1.076
N1805 Y1213.99 Z0.164
N1810 Y1316.179 Z-2.276
N1815 Y1407.26 Z-6.029
N1820 Y1487.233 Z-10.868
N1825 Y1544.755 Z-15.465
N1830 Y1592.554 Z-20.16
N1835 Y1633.033 Z-24.88
N1840 Y2159.525 Z-25.
N1845 G3 Y2159.944 Z-24.903 J0. K0.952
N1850 G2 Y2160.364 Z-24.806 J0.419 K-0.855
N1855 G17 G3 X61.358 Y2163.221 I-2.857 J0.
N1860 G1 X52.076
N1865 G3 X49.219 Y2160.364 I0. J-2.857
N1870 G19 G3 Y2159.944 Z-24.903 J0. K-0.952
N1875 G2 Y2159.525 Z-25. J-0.419 K0.855
N1880 G1 Y1633.033 Z-24.889
N1885 Y1592.548 Z-20.177
N1890 Y1546.965 Z-15.69
N1895 Y1492.076 Z-11.247
N1900 Y1434.81 Z-7.555
N1905 Y1348.172 Z-3.455
N1910 Y1250.427 Z-0.571
N1915 Y1139.352 Z0.934
N1920 Y1038.527 Z0.758
N1925 Y916.346 Z-0.849
N1930 Y820.822 Z-3.668
N1935 Y725.298 Z-8.069
N1940 Y649.963 Z-12.673
N1945 Y582.07 Z-17.716
N1950 Y511.465 Z-23.884
N1955 Y496.81 Z-25.
N1960 Y-59.525
N1965 G2 Y-59.944 Z-24.903 J0. K0.952
N1970 G3 Y-60.363 Z-24.806 J-0.419 K-0.855
N1975 G17 G2 X46.361 Y-63.221 I-2.857 J0.
N1980 G1 X37.08
N1985 G2 X34.223 Y-60.363 I0. J2.858
N1990 G19 G2 Y-59.944 Z-24.903 J0. K-0.952
N1995 G3 Y-59.525 Z-25. J0.419 K0.855
N2000 G1 Y493.331
N2005 Y572.196 Z-18.117
N2010 Y644.099 Z-12.736
N2015 Y708.375 Z-8.725
N2020 Y803.899 Z-4.133
N2025 Y901.644 Z-1.075
N2030 Y1021.604 Z0.641
N2035 Y1137.121 Z0.902
N2040 Y1248.196 Z-0.568
N2045 Y1345.941 Z-3.412
N2050 Y1432.579 Z-7.462
N2055 Y1490.123 Z-11.137
N2060 Y1544.736 Z-15.508
N2065 Y1592.544 Z-20.189
N2070 Y1631.922 Z-24.756
N2075 Y2159.525 Z-25.
N2080 G3 Y2159.945 Z-24.903 J0. K0.952
N2085 G2 Y2160.364 Z-24.806 J0.419 K-0.855
N2090 G17 G3 X31.365 Y2163.221 I-2.858 J0.
N2095 G1 X22.084
N2100 G3 X19.226 Y2160.364 I0. J-2.857
N2105 G19 G3 Y2159.945 Z-24.903 J0. K-0.952
N2110 G2 Y2159.525 Z-25. J-0.419 K0.855
N2115 G1 Y1631.922 Z-24.761
N2120 Y1592.091 Z-20.149
N2125 Y1545.602 Z-15.599
N2130 Y1492.561 Z-11.329
N2135 Y1428.241 Z-7.238
N2140 Y1339.381 Z-3.193
N2145 Y1239.414 Z-0.413
N2150 Y1121.676 Z0.927
N2155 Y1010.601 Z0.587
N2160 Y910.635 Z-0.783
N2165 Y817.332 Z-3.368
N2170 Y724.03 Z-7.546
N2175 Y659.616 Z-11.317
N2180 Y587.506 Z-16.443
N2185 Y512.159 Z-22.855
N2190 Y488.705 Z-25.
N2195 Y-59.525
N2200 G2 Y-59.944 Z-24.903 J0. K0.952
N2205 G3 Y-60.363 Z-24.806 J-0.419 K-0.855
N2210 G17 G2 X16.369 Y-63.221 I-2.858 J0.
N2215 G1 X7.087
N2220 G2 X4.23 Y-60.363 I0. J2.858
N2225 G19 G2 Y-59.944 Z-24.903 J0. K-0.952
N2230 G3 Y-59.525 Z-25. J0.419 K0.855
N2235 G1 Y481.154
N2240 Y505.166 Z-22.988
N2245 Y576.648 Z-16.856
N2250 Y644.748 Z-11.891
N2255 Y717.909 Z-7.511
N2260 Y813.433 Z-3.249
N2265 Y920.065 Z-0.483
N2270 Y1026.696 Z0.775
N2275 Y1121.339 Z0.868
N2280 Y1223.528 Z-0.204
N2285 Y1316.83 Z-2.429
N2290 Y1407.911 Z-6.177
N2295 Y1487.718 Z-10.989
N2300 Y1542.934 Z-15.37
N2305 Y1592.975 Z-20.251
N2310 Y1631.922 Z-24.763
N2315 Y2159.525 Z-25.
N2320 G3 Y2159.945 Z-24.903 J0. K0.952
N2325 G2 Y2160.364 Z-24.806 J0.419 K-0.855
N2330 G17 G3 X1.372 Y2163.221 I-2.858 J0.
N2335 G1 X-7.909
N2340 G3 X-10.766 Y2160.364 I0. J-2.857
N2345 G19 G3 Y2159.945 Z-24.903 J0. K-0.952
N2350 G2 Y2159.525 Z-25. J-0.419 K0.855
N2355 G1 Y1631.922 Z-24.763
N2360 Y1592.973 Z-20.249
N2365 Y1541.573 Z-15.247
N2370 Y1489.129 Z-11.089
N2375 Y1409.312 Z-6.242
N2380 Y1320.452 Z-2.544
N2385 Y1224.928 Z-0.184
N2390 Y1118.297 Z0.894
N2395 Y1032.147 Z0.808
N2400 Y921.073 Z-0.501
N2405 Y816.663 Z-3.243
N2410 Y721.139 Z-7.493
N2415 Y630.348 Z-13.054
N2420 Y565.144 Z-17.996
N2425 Y493.441 Z-24.332
N2430 Y482.758 Z-25.
N2435 Y-59.525
N2440 G2 Y-59.944 Z-24.903 J0. K0.952
N2445 G3 Y-60.363 Z-24.806 J-0.419 K-0.855
N2450 G17 G2 X-13.624 Y-63.221 I-2.858 J0.
N2455 G1 X-22.905
N2460 G2 X-25.763 Y-60.363 I0. J2.858
N2465 G19 G2 Y-59.944 Z-24.903 J0. K-0.952
N2470 G3 Y-59.525 Z-25. J0.419 K0.855
N2475 G1 Y490.373
N2480 Y524.478 Z-21.977
N2485 Y581.004 Z-17.194
N2490 Y646.242 Z-12.355
N2495 Y721.625 Z-7.824
N2500 Y817.149 Z-3.491
N2505 Y910.451 Z-0.824
N2510 Y1023.747 Z0.688
N2515 Y1123.777 Z0.946
N2520 Y1237.073 Z-0.361
N2525 Y1337.04 Z-3.098
N2530 Y1425.899 Z-7.104
N2535 Y1487.886 Z-10.988
N2540 Y1540.661 Z-15.159
N2545 Y1592.541 Z-20.195
N2550 Y1631.922 Z-24.759
N2555 Y2159.525 Z-25.
N2560 G3 Y2159.945 Z-24.903 J0. K0.952
N2565 G2 Y2160.364 Z-24.806 J0.419 K-0.855
N2570 G17 G3 X-28.62 Y2163.221 I-2.858 J0.
N2575 G1 X-37.901
N2580 G3 X-40.759 Y2160.364 I0. J-2.857
N2585 G19 G3 Y2159.945 Z-24.903 J0. K-0.952
N2590 G2 Y2159.525 Z-25. J-0.419 K0.855
N2595 G1 Y1631.922 Z-24.753
N2600 Y1592.544 Z-20.184
N2605 Y1546.07 Z-15.621
N2610 Y1493.039 Z-11.334
N2615 Y1426.51 Z-7.11
N2620 Y1337.651 Z-3.09
N2625 Y1237.684 Z-0.338
N2630 Y1126.609 Z0.972
N2635 Y1003.983 Z0.469
N2640 Y892.909 Z-1.326
N2645 Y795.163 Z-4.584
N2650 Y699.64 Z-9.357
N2655 Y635.596 Z-13.491
N2660 Y575.286 Z-18.07
N2665 Y502.538 Z-24.492
N2670 Y494.117 Z-25.
N2675 Y-59.525
N2680 G2 Y-59.944 Z-24.903 J0. K0.952
N2685 G3 Y-60.363 Z-24.806 J-0.419 K-0.855
N2690 G17 G2 X-43.616 Y-63.221 I-2.857 J0.
N2695 G1 X-52.898
N2700 G2 X-55.755 Y-60.363 I0. J2.858
N2705 G1 Y-58.388
N2710 G19 G2 Y-57.968 Z-24.903 J0. K-0.952
N2715 G3 Y-57.549 Z-25. J0.419 K0.855
N2720 G1 Y499.079
N2725 Y514.193 Z-23.792
N2730 Y586.857 Z-17.471
N2735 Y654.059 Z-12.513
N2740 Y740.558 Z-7.352
N2745 Y838.303 Z-3.108
N2750 Y933.827 Z-0.554
N2755 Y1064.895 Z0.931
N2760 Y1135.974 Z0.975
N2765 Y1247.048 Z-0.473
N2770 Y1344.793 Z-3.306
N2775 Y1433.653 Z-7.472
N2780 Y1489.001 Z-11.015
N2785 Y1546.526 Z-15.64
N2790 Y1592.549 Z-20.17
N2795 Y1633.033 Z-24.886
N2800 Y2159.525 Z-25.
N2805 G3 Y2159.944 Z-24.903 J0. K0.952
N2810 G2 Y2160.364 Z-24.806 J0.419 K-0.855
N2815 G17 G3 X-58.613 Y2163.221 I-2.858 J0.
N2820 G1 X-67.894
N2825 G3 X-70.752 Y2160.364 I0. J-2.858
N2830 G19 G3 Y2159.944 Z-24.903 J0. K-0.952
N2835 G2 Y2159.525 Z-25. J-0.419 K0.855
N2840 G1 Y1633.033 Z-24.876
N2845 Y1592.112 Z-20.104
N2850 Y1545.635 Z-15.53
N2855 Y1492.979 Z-11.261
N2860 Y1439.834 Z-7.781
N2865 Y1353.196 Z-3.575
N2870 Y1255.45 Z-0.599
N2875 Y1146.598 Z0.96
N2880 Y1044.409 Z0.793
N2885 Y922.227 Z-0.853
N2890 Y824.482 Z-3.748
N2895 Y726.737 Z-8.299
N2900 Y651.256 Z-12.954
N2905 Y581.197 Z-18.209
N2910 Y507.986 Z-24.691
N2915 Y492.436 Z-25.
N2920 Y61.393
N2925 G2 Y60.974 Z-24.903 J0. K0.952
N2930 G3 Y60.555 Z-24.806 J-0.419 K-0.855
N2935 G17 G2 X-73.609 Y57.697 I-2.857 J0.
N2940 G1 X-82.89
N2945 G2 X-85.748 Y60.555 I0. J2.857
N2950 G1 Y61.271
N2955 G19 G2 Y61.69 Z-24.903 J0. K-0.952
N2960 G3 Y62.11 Z-25. J0.419 K0.855
N2965 G1 Y505.483
N2970 Y579.478 Z-18.594
N2975 Y646.688 Z-13.477
N2980 Y717.622 Z-8.969
N2985 Y815.367 Z-4.22
N2990 Y910.891 Z-1.149
N2995 Y1028.63 Z0.675
N3000 Y1136.858 Z1.095
N3005 Y1245.71 Z-0.309
N3010 Y1343.456 Z-3.129
N3015 Y1431.205 Z-7.227
N3020 Y1487.653 Z-10.832
N3025 Y1544.783 Z-15.418
N3030 Y1592.569 Z-20.13
N3035 Y1633.038 Z-24.864
N3040 Y1897.395 Z-25.
N3045 G3 Y1897.815 Z-24.903 J0. K0.952
N3050 G2 Y1898.234 Z-24.806 J0.419 K-0.855
N3055 G17 G3 X-88.605 Y1901.091 I-2.857 J0.
N3060 G1 X-97.887
N3065 G3 X-100.744 Y1898.234 I0. J-2.857
N3070 G1 Y1883.484
N3075 G19 G3 Y1883.065 Z-24.903 J0. K-0.952
N3080 G2 Y1882.645 Z-25. J-0.419 K0.855
N3085 G1 Y1633.839 Z-24.953
N3090 Y1591.263 Z-19.962
N3095 Y1539.008 Z-14.862
N3100 Y1463.854 Z-9.147
N3105 Y1379.438 Z-4.533
N3110 Y1286.135 Z-1.194
N3115 Y1181.726 Z0.793
N3120 Y1086.202 Z1.169
N3125 Y948.47 Z-0.422
N3130 Y852.946 Z-2.898
N3135 Y752.979 Z-7.178
N3140 Y655.389 Z-13.017
N3145 Y590. Z-17.907
N3150 Y518.846 Z-24.115
N3155 Y505.957 Z-25.
N3160 Y62.11
N3165 G2 Y61.69 Z-24.903 J0. K0.952
N3170 G3 Y61.271 Z-24.806 J-0.419 K-0.855
N3175 G17 G2 X-103.602 Y58.414 I-2.858 J0.
N3180 G1 X-112.883
N3185 G2 X-115.74 Y61.271 I0. J2.857
N3190 G19 G2 Y61.69 Z-24.903 J0. K-0.952
N3195 G3 Y62.11 Z-25. J0.419 K0.855
N3200 G1 Y509.802
N3205 Y585.986 Z-18.358
N3210 Y651.258 Z-13.425
N3215 Y719.915 Z-9.064
N3220 Y817.66 Z-4.266
N3225 Y915.406 Z-1.086
N3230 Y1030.923 Z0.779
N3235 Y1135.333 Z1.274
N3240 Y1244.185 Z-0.094
N3245 Y1341.931 Z-2.897
N3250 Y1428.569 Z-6.931
N3255 Y1483.961 Z-10.447
N3260 Y1545.947 Z-15.436
N3265 Y1592.378 Z-20.05
N3270 Y1633.271 Z-24.865
N3275 Y1866.527 Z-25.
N3280 G3 Y1866.947 Z-24.903 J0.001 K0.952
N3285 G2 Y1867.366 Z-24.806 J0.419 K-0.855
N3290 G17 G3 X-118.598 Y1870.223 I-2.857 J0.
N3295 G1 X-127.879
N3300 G3 X-130.737 Y1867.366 I0. J-2.857
N3305 G1 Y1849.588
N3310 G19 G3 Y1849.169 Z-24.903 J0. K-0.952
N3315 G2 Y1848.749 Z-25. J-0.419 K0.855
N3320 G1 Y1633.265 Z-24.846
N3325 Y1592.828 Z-20.065
N3330 Y1545.086 Z-15.305
N3335 Y1476.381 Z-9.84
N3340 Y1394.249 Z-5.038
N3345 Y1303.168 Z-1.474
N3350 Y1200.98 Z0.762
N3355 Y1101.013 Z1.404
N3360 Y963.281 Z-0.088
N3365 Y865.536 Z-2.504
N3370 Y767.79 Z-6.548
N3375 Y670.065 Z-12.198
N3380 Y602.576 Z-17.102
N3385 Y530.14 Z-23.293
N3390 Y508.781 Z-25.
N3395 Y73.295
N3400 G17 G2 X-133.594 Y70.437 I-2.857 J0.
N3405 G1 X-142.876
N3410 G2 X-145.733 Y73.295 I0. J2.857
N3415 G1 Y99.679
N3420 Y508.816
N3425 Y519.503 Z-24.304
N3430 Y594.055 Z-17.81
N3435 Y659.111 Z-12.971
N3440 Y739.003 Z-8.049
N3445 Y838.97 Z-3.424
N3450 Y936.715 Z-0.532
N3455 Y1063.34 Z1.285
N3460 Y1156.642 Z1.363
N3465 Y1263.273 Z-0.274
N3470 Y1358.797 Z-3.338
N3475 Y1443.214 Z-7.603
N3480 Y1498.491 Z-11.362
N3485 Y1551.44 Z-15.833
N3490 Y1595.129 Z-20.279
N3495 Y1633.756 Z-24.89
N3500 Y1829.247 Z-25.
N3505 G19 G3 Y1829.667 Z-24.903 J0.001 K0.952
N3510 G2 Y1830.086 Z-24.806 J0.419 K-0.855
N3515 G17 G3 X-148.591 Y1832.943 I-2.857 J0.
N3520 G1 X-157.872
N3525 G3 X-160.729 Y1830.086 I0. J-2.857
N3530 G1 Y1808.308
N3535 G19 G3 Y1807.888 Z-24.903 J0. K-0.952
N3540 G2 Y1807.469 Z-25. J-0.419 K0.855
N3545 G1 Y1634.193 Z-24.926
N3550 Y1596.033 Z-20.338
N3555 Y1551.935 Z-15.818
N3560 Y1496.77 Z-11.148
N3565 Y1439.154 Z-7.253
N3570 Y1352.516 Z-2.956
N3575 Y1256.992 Z0.009
N3580 Y1152.582 Z1.526
N3585 Y1059.28 Z1.366
N3590 Y934.876 Z-0.496
N3595 Y837.131 Z-3.451
N3600 Y737.164 Z-8.123
N3605 Y659.499 Z-12.923
N3610 Y590.022 Z-18.118
N3615 Y515.789 Z-24.622
N3620 Y504.682 Z-25.
N3625 Y130.694
N3630 G2 Y128.789 Z-23.095 J0. K1.905 F1000.
N3635 G0 Z5.
N3640 X-175.726 Y164.82
N3645 Z-23.095
N3650 G3 Y166.725 Z-25. J1.905 K0. F1000.
N3655 G1 Y508.498 F6000.
N3660 Y540.215 Z-22.303
N3665 Y613.036 Z-16.236
N3670 Y683.071 Z-11.293
N3675 Y783.038 Z-5.705
N3680 Y883.005 Z-1.778
N3685 Y989.636 Z0.639
N3690 Y1114.039 Z1.796
N3695 Y1218.449 Z0.909
N3700 Y1316.195 Z-1.485
N3705 Y1405.054 Z-5.233
N3710 Y1478.279 Z-9.697
N3715 Y1549.366 Z-15.509
N3720 Y1593.482 Z-20.011
N3725 Y1634.316 Z-24.921
N3730 Y1783.156 Z-25.
N3735 X-175.823 Y1783.895
N3740 X-176.108 Y1784.584 Z-25.001
N3745 X-176.563 Y1785.176
N3750 X-177.154 Y1785.63
N3755 X-177.844 Y1785.916
N3760 X-178.583 Y1786.013 Z-25.002
N3765 X-187.864
N3770 X-188.604 Y1785.916 Z-25.001
N3775 X-189.293 Y1785.63
N3780 X-189.885 Y1785.176
N3785 X-190.339 Y1784.584
N3790 X-190.625 Y1783.895 Z-25.
N3795 X-190.722 Y1783.156
N3800 Y1755.836
N3805 Y1631.433 Z-24.837
N3810 Y1614.376 Z-22.393
N3815 Y1571.147 Z-17.577
N3820 Y1502.32 Z-11.388
N3825 Y1444.751 Z-7.359
N3830 Y1360.335 Z-2.993
N3835 Y1267.032 Z0.085
N3840 Y1164.844 Z1.729
N3845 Y1071.541 Z1.756
N3850 Y942.695 Z-0.116
N3855 Y844.95 Z-2.975
N3860 Y742.761 Z-7.654
N3865 Y660.642 Z-12.678
N3870 Y591.143 Z-17.848
N3875 Y515.051 Z-24.473
N3880 Y504.366 Z-25.
N3885 Y207.747
N3890 G2 Y205.842 Z-23.095 J0. K1.905 F1000.
N3895 G0 Z5.
N3900 X-205.718 Y252.084
N3905 Z-23.095
N3910 G3 Y253.989 Z-25. J1.905 K0. F1000.
N3915 G1 Y504.632 F6000.
N3920 Y582.842 Z-18.362
N3925 Y652.201 Z-13.116
N3930 Y720.935 Z-8.741
N3935 Y820.902 Z-3.791
N3940 Y923.09 Z-0.414
N3945 Y1040.829 Z1.617
N3950 Y1140.796 Z2.049
N3955 Y1245.206 Z0.75
N3960 Y1340.73 Z-2.045
N3965 Y1427.368 Z-6.186
N3970 Y1505.12 Z-11.51
N3975 Y1564.907 Z-16.989
N3980 Y1588.095 Z-20.684
N3985 Y1608.729 Z-24.868
N3990 Y1724.914 Z-25.
N3995 G3 Y1726.822 Z-23.095 J0.002 K1.905 F1000.
N4000 G0 Z5.
N4005 X-220.715 Y1691.732
N4010 Z-23.095
N4015 G2 Y1689.825 Z-25. J-1.905 K0. F1000.
N4020 G1 Y1573.62 Z-24.859 F6000.
N4025 Y1562.74 Z-21.987
N4030 Y1541.919 Z-17.532
N4035 Y1516.993 Z-13.576
N4040 Y1489.157 Z-10.271
N4045 Y1422.515 Z-5.768
N4050 Y1335.876 Z-1.69
N4055 Y1240.353 Z1.032
N4060 Y1135.943 Z2.239
N4065 Y1031.533 Z1.687
N4070 Y911.573 Z-0.554
N4075 Y811.606 Z-4.024
N4080 Y711.639 Z-9.111
N4085 Y643.162 Z-13.561
N4090 Y572.424 Z-19.012
N4095 Y504.034 Z-25.
N4100 Y307.36
N4105 G2 Y305.455 Z-23.095 J0. K1.905 F1000.
N4110 G0 Z5.
N4115 X-235.711 Y368.967
N4120 Z-23.095
N4125 G3 Y370.872 Z-25. J1.905 K0. F1000.
N4130 G1 Y536.286 F6000.
N4135 Y565.794 Z-20.298
N4140 Y601.547 Z-16.476
N4145 Y661.711 Z-12.057
N4150 Y761.641 Z-6.16
N4155 Y863.829 Z-1.828
N4160 Y968.239 Z0.899
N4165 Y1088.2 Z2.377
N4170 Y1190.388 Z2.008
N4175 Y1288.133 Z0.064
N4180 Y1376.993 Z-3.272
N4185 Y1412.536 Z-5.741
N4190 Y1452.02 Z-9.816
N4195 Y1480.349 Z-13.992
N4200 Y1492.753 Z-16.338
N4205 Y1509.309 Z-19.951
N4210 Y1525.522 Z-24.981
N4215 Y1649.925 Z-25.
N4220 G3 Y1651.831 Z-23.095 J0. K1.905 F1000.
N4225 G0 Z5.
N4230 X-250.707 Y1606.364
N4235 Z-23.095
N4240 G2 Y1604.456 Z-25. J-1.905 K0. F1000.
N4245 G1 Y1460.943 Z-24.793 F6000.
N4250 Y1446.171 Z-19.767
N4255 Y1427.564 Z-15.389
N4260 Y1404.446 Z-11.392
N4265 Y1391.931 Z-9.689
N4270 Y1360.055 Z-5.874
N4275 Y1317.338 Z-2.511
N4280 Y1271.583 Z0.011
N4285 Y1218.267 Z1.688
N4290 Y1127.186 Z2.604
N4295 Y1020.555 Z1.94
N4300 Y902.816 Z-0.428
N4305 Y800.628 Z-4.115
N4310 Y736.252 Z-7.664
N4315 Y688.504 Z-11.692
N4320 Y651.407 Z-16.264
N4325 Y626.362 Z-20.671
N4330 Y609.726 Z-24.86
N4335 Y448.276 Z-25.
N4340 G2 Y446.37 Z-23.095 J-0.002 K1.905 F1000.
N4345 G0 Z5.
N4350 X-265.703 Y541.026
N4355 Z-23.095
N4360 G3 Y542.931 Z-25. J1.905 K0. F1000.
N4365 G1 Y721.353 F6000.
N4370 Y729.547 Z-22.764
N4375 Y740.822 Z-20.331
N4380 Y753.869 Z-17.782
N4385 Y783.367 Z-13.388
N4390 Y823.628 Z-9.286
N4395 Y869.31 Z-6.194
N4400 Y920.404 Z-3.769
N4405 Y991.492 Z-1.716
N4410 Y1087.119 Z-0.78
N4415 Y1154.805 Z-1.277
N4420 Y1217.562 Z-3.473
N4425 Y1269.915 Z-6.878
N4430 Y1302.534 Z-10.253
N4435 Y1329.572 Z-14.103
N4440 Y1348.016 Z-17.973
N4445 Y1361.458 Z-21.601
N4450 Y1370.394 Z-24.858
N4455 Y1551.51 Z-25.
N4460 G3 Y1553.417 Z-23.095 J0.001 K1.905 F1000.
N4465 G0 Z5.
N4470 X-280.7 Y1485.732
N4475 Z-23.095
N4480 G2 Y1483.826 Z-25. J-1.905 K0. F1000.
N4485 G1 Y1198.239 Z-24.894 F6000.
N4490 Y1188.901 Z-22.857
N4495 Y1167.708 Z-19.765
N4500 Y1142.792 Z-17.82
N4505 Y1106.137 Z-16.876
N4510 Y1062.77 Z-17.271
N4515 Y1022.783 Z-17.344
N4520 Y982.796 Z-18.853
N4525 Y948.048 Z-21.617
N4530 Y931.169 Z-24.05
N4535 Y924.304 Z-25.
N4540 Y660.528
N4545 G2 Y658.623 Z-23.095 J0. K1.905 F1000.
N4550 G0 Z5.
N4555 X-295.696 Y831.052
N4560 Z-23.095
N4565 G3 Y832.956 Z-25. J1.905 K0. F1000.
N4570 G1 Y1368.891 F6000.
N4575 G3 Y1370.796 Z-23.095 J0. K1.905 F1000.
N4580 G0 Z10.
N4585 G17
(PARALLEL2 2)
N4590 G0 X304.171 Y1146.71
N4595 Z10.
N4600 Z-48.095
N4605 G19 G2 Y1144.805 Z-50. J-1.905 K0. F1000.
N4610 G1 Y1100.385 F6000.
N4615 G2 Y1098.48 Z-48.095 J0. K1.905 F1000.
N4620 G0 Z5.
N4625 X292.173 Y1406.794
N4630 Z-48.095
N4635 G2 Y1404.889 Z-50. J-1.905 K0. F1000.
N4640 G1 Y782.165 F6000.
N4645 G2 Y780.26 Z-48.095 J0. K1.905 F1000.
N4650 G0 Z5.
N4655 X280.176 Y653.934
N4660 Z-48.095
N4665 G3 Y655.839 Z-50. J1.905 K0. F1000.
N4670 G1 Y921.945 F6000.
N4675 Y922.066 Z-32.34
N4680 Y923.146 Z-29.748
N4685 Y924.828 Z-28.423
N4690 Y931.967 Z-26.452
N4695 Y953.356 Z-22.948
N4700 Y981.236 Z-20.415
N4705 Y1019.988 Z-18.785
N4710 Y1060.893 Z-18.598
N4715 Y1076.016 Z-18.655
N4720 Y1110.462 Z-18.234
N4725 Y1142.756 Z-19.345
N4730 Y1159.841 Z-20.9
N4735 Y1177.554 Z-23.145
N4740 Y1187.648 Z-25.232
N4745 Y1193.864 Z-28.305
N4750 Y1195.479 Z-29.708
N4755 Y1195.733 Z-50.
N4760 Y1486.659
N4765 G3 Y1488.564 Z-48.095 J0. K1.905 F1000.
N4770 G0 Z5.
N4775 X268.178 Y1543.562
N4780 Z-48.095
N4785 G2 Y1541.657 Z-50. J-1.905 K0. F1000.
N4790 G1 Y1351.805 F6000.
N4795 Y1351.664 Z-32.634
N4800 Y1348.434 Z-29.045
N4805 Y1344.255 Z-25.752
N4810 Y1334.095 Z-21.859
N4815 Y1325.869 Z-19.646
N4820 Y1311.877 Z-16.576
N4825 Y1290.479 Z-13.054
N4830 Y1262.313 Z-9.886
N4835 Y1228.594 Z-7.15
N4840 Y1183.383 Z-4.784
N4845 Y1120.949 Z-3.436
N4850 Y1015.526 Z-3.741
N4855 Y942.328 Z-5.543
N4860 Y884.199 Z-8.333
N4865 Y839.676 Z-11.781
N4870 Y815.361 Z-14.486
N4875 Y791.923 Z-17.623
N4880 Y770.127 Z-21.398
N4885 Y756.4 Z-24.858
N4890 Y742.215 Z-29.875
N4895 Y739.315 Z-31.222
N4900 Y737.035 Z-33.049
N4905 Y732.836 Z-38.307
N4910 Y732.72 Z-50.
N4915 Y560.493
N4920 G2 Y558.588 Z-48.095 J0. K1.905 F1000.
N4925 G0 Z5.
N4930 X256.18 Y478.8
N4935 Z-48.095
N4940 G3 Y480.705 Z-50. J1.905 K0. F1000.
N4945 G1 Y623.928 F6000.
N4950 Y623.993 Z-44.682
N4955 Y625.243 Z-40.647
N4960 Y626.749 Z-38.312
N4965 Y630.212 Z-34.875
N4970 Y636.158 Z-31.345
N4975 Y646.227 Z-27.148
N4980 Y653.941 Z-25.08
N4985 Y665.352 Z-21.928
N4990 Y681.496 Z-18.569
N4995 Y700.613 Z-15.357
N5000 Y736.681 Z-10.965
N5005 Y787.703 Z-6.771
N5010 Y850.137 Z-3.459
N5015 Y923.336 Z-0.98
N5020 Y1020.217 Z0.838
N5025 Y1123.556 Z1.195
N5030 Y1175.226 Z0.632
N5035 Y1254.883 Z-1.853
N5040 Y1306.14 Z-4.914
N5045 Y1342.312 Z-8.427
N5050 Y1370.018 Z-11.748
N5055 Y1389.953 Z-15.185
N5060 Y1408.053 Z-19.08
N5065 Y1424.607 Z-24.407
N5070 Y1432.718 Z-28.113
N5075 Y1436.809 Z-31.417
N5080 Y1440.042 Z-36.139
N5085 Y1440.127 Z-50.
N5090 Y1586.171
N5095 G3 Y1588.076 Z-48.095 J0. K1.905 F1000.
N5100 G0 Z5.
N5105 X244.183 Y1626.967
N5110 Z-48.095
N5115 G2 Y1625.062 Z-50. J-1.905 K0. F1000.
N5120 G1 Y1507.176 F6000.
N5125 Y1506.921 Z-39.28
N5130 Y1504.092 Z-34.531
N5135 Y1498.821 Z-30.488
N5140 Y1489.289 Z-25.942
N5145 Y1476.661 Z-21.581
N5150 Y1456.151 Z-16.562
N5155 Y1434.174 Z-12.723
N5160 Y1402.379 Z-8.42
N5165 Y1368.488 Z-5.272
N5170 Y1326.292 Z-2.368
N5175 Y1272.469 Z-0.416
N5180 Y1173.436 Z1.286
N5185 Y1070.096 Z1.376
N5190 Y947.381 Z-0.417
N5195 Y844.041 Z-3.426
N5200 Y742.855 Z-8.022
N5205 Y669.995 Z-12.555
N5210 Y628.755 Z-16.595
N5215 Y598.708 Z-20.941
N5220 Y578.277 Z-25.156
N5225 Y565.497 Z-28.879
N5230 Y561.522 Z-30.415
N5235 Y551.886 Z-34.807
N5240 Y545.858 Z-38.639
N5245 Y542.199 Z-42.501
N5250 Y539.63 Z-50.
N5255 Y412.757
N5260 G2 Y410.852 Z-48.095 J0. K1.905 F1000.
N5265 G0 Z5.
N5270 X232.185 Y352.921
N5275 Z-48.095
N5280 G3 Y354.826 Z-50. J1.905 K0. F1000.
N5285 G1 Y470.248 F6000.
N5290 Y470.839 Z-48.412
N5295 Y473.068 Z-45.156
N5300 Y477.323 Z-41.469
N5305 Y481.484 Z-38.448
N5310 Y489.676 Z-34.821
N5315 Y502.397 Z-30.925
N5320 Y522.784 Z-26.485
N5325 Y550.91 Z-22.224
N5330 Y586.162 Z-18.721
N5335 Y653.035 Z-13.705
N5340 Y749.886 Z-7.819
N5345 Y851.072 Z-3.325
N5350 Y952.259 Z-0.471
N5355 Y1074.974 Z1.259
N5360 Y1176.161 Z1.114
N5365 Y1275.194 Z-0.626
N5370 Y1365.616 Z-3.779
N5375 Y1421.592 Z-6.82
N5380 Y1452.937 Z-9.917
N5385 Y1482.963 Z-13.755
N5390 Y1505.175 Z-17.71
N5395 Y1521.218 Z-21.26
N5400 Y1537.919 Z-26.462
N5405 Y1546.986 Z-30.152
N5410 Y1554.919 Z-34.528
N5415 Y1560.002 Z-39.137
N5420 Y1561.813 Z-43.047
N5425 Y1562.103 Z-50.
N5430 Y1659.77
N5435 Y1691.124
N5440 G17 G3 X229.328 Y1693.981 I-2.857 J0.
N5445 G1 X223.045
N5450 G3 X220.188 Y1691.124 I0. J-2.858
N5455 G1 Y1608.53
N5460 Y1608.237 Z-46.883
N5465 Y1604.716 Z-41.099
N5470 Y1601.778 Z-38.208
N5475 Y1593.078 Z-33.27
N5480 Y1581.931 Z-28.464
N5485 Y1569.895 Z-24.729
N5490 Y1546.71 Z-19.288
N5495 Y1526.016 Z-15.768
N5500 Y1490.826 Z-11.389
N5505 Y1421.933 Z-6.741
N5510 Y1335.817 Z-2.695
N5515 Y1241.089 Z0.01
N5520 Y1137.75 Z1.226
N5525 Y1034.41 Z0.714
N5530 Y916. Z-1.445
N5535 Y814.814 Z-4.892
N5540 Y713.627 Z-10.002
N5545 Y640.573 Z-14.755
N5550 Y569.06 Z-20.306
N5555 Y495.641 Z-26.908
N5560 Y467.224 Z-30.571
N5565 Y444.891 Z-34.943
N5570 Y430.251 Z-39.017
N5575 Y419.614 Z-43.286
N5580 Y414.226 Z-46.693
N5585 Y411.341 Z-50.
N5590 Y305.306
N5595 G19 G2 Y303.401 Z-48.095 J0. K1.905 F1000.
N5600 G0 Z5.
N5605 X208.19 Y260.35
N5610 Z-48.095
N5615 G3 Y262.255 Z-50. J1.905 K0. F1000.
N5620 G1 Y362.563 F6000.
N5625 Y368.373 Z-47.076
N5630 Y382.084 Z-42.311
N5635 Y400.562 Z-37.989
N5640 Y423.053 Z-34.469
N5645 Y480.334 Z-28.554
N5650 Y558.52 Z-21.374
N5655 Y629.508 Z-15.712
N5660 Y695.994 Z-11.211
N5665 Y795.028 Z-5.893
N5670 Y896.214 Z-2.115
N5675 Y1012.471 Z0.285
N5680 Y1122.269 Z1.129
N5685 Y1227.762 Z0.115
N5690 Y1324.642 Z-2.427
N5695 Y1412.911 Z-6.352
N5700 Y1490.416 Z-11.356
N5705 Y1552.742 Z-16.775
N5710 Y1583.125 Z-21.543
N5715 Y1601.236 Z-25.455
N5720 Y1619.461 Z-30.756
N5725 Y1630.14 Z-35.032
N5730 Y1640.675 Z-41.015
N5735 Y1643.906 Z-43.82
N5740 Y1647.737 Z-49.849
N5745 Y1719.462 Z-50.
N5750 G3 Y1719.883 Z-49.903 J0.002 K0.952
N5755 G2 Y1720.302 Z-49.806 J0.419 K-0.855
N5760 G1 Y1745.917
N5765 G17 G3 X205.332 Y1748.774 I-2.857 J0.
N5770 G1 X199.05
N5775 G3 X196.192 Y1745.917 I0. J-2.858
N5780 G19 G3 Y1745.497 Z-49.903 J0. K-0.952
N5785 G2 Y1745.077 Z-50. J-0.419 K0.855
N5790 G1 Y1680.262 Z-49.924
N5795 Y1677.261 Z-46.321
N5800 Y1669.768 Z-41.063
N5805 Y1660.543 Z-36.405
N5810 Y1645.493 Z-31.112
N5815 Y1629.602 Z-27.038
N5820 Y1607.269 Z-22.728
N5825 Y1588.337 Z-20.385
N5830 Y1537.239 Z-15.297
N5835 Y1470.615 Z-10.014
N5840 Y1388.818 Z-5.229
N5845 Y1298.396 Z-1.708
N5850 Y1199.363 Z0.415
N5855 Y1100.329 Z0.973
N5860 Y973.308 Z-0.454
N5865 Y869.968 Z-3.048
N5870 Y768.782 Z-7.255
N5875 Y669.748 Z-13.02
N5880 Y601.785 Z-17.949
N5885 Y527.208 Z-24.293
N5890 Y445.583 Z-32.229
N5895 Y370.34 Z-40.372
N5900 Y349.756 Z-43.613
N5905 Y333.159 Z-47.663
N5910 Y326.057 Z-50.
N5915 Y223.948
N5920 Y189.258
N5925 G17 G2 X193.335 Y186.401 I-2.857 J0.
N5930 G1 X187.052
N5935 G2 X184.195 Y189.258 I0. J2.857
N5940 G1 Y299.954
N5945 Y301.592 Z-49.629
N5950 Y320.284 Z-46.363
N5955 Y398.982 Z-37.365
N5960 Y479.503 Z-28.959
N5965 Y557.618 Z-21.713
N5970 Y628.511 Z-16.016
N5975 Y694.96 Z-11.49
N5980 Y793.993 Z-6.146
N5985 Y895.18 Z-2.351
N5990 Y1007.131 Z-0.041
N5995 Y1121.235 Z0.879
N6000 Y1226.727 Z-0.142
N6005 Y1323.608 Z-2.652
N6010 Y1411.877 Z-6.52
N6015 Y1491.534 Z-11.607
N6020 Y1547.259 Z-16.277
N6025 Y1592.29 Z-20.859
N6030 Y1633.985 Z-25.876
N6035 Y1650.678 Z-28.275
N6040 Y1667.117 Z-31.958
N6045 Y1678.252 Z-35.077
N6050 Y1691.959 Z-40.283
N6055 Y1700.144 Z-44.723
N6060 Y1706.851 Z-49.999
N6065 Y1768.129 Z-50.
N6070 G19 G3 Y1768.548 Z-49.903 J0. K0.952
N6075 G2 Y1768.968 Z-49.806 J0.419 K-0.855
N6080 G1 Y1790.062
N6085 G17 G3 X181.337 Y1792.919 I-2.857 J0.
N6090 G1 X175.055
N6095 G3 X172.197 Y1790.062 I0. J-2.858
N6100 G19 G3 Y1789.643 Z-49.903 J0. K-0.953
N6105 G2 Y1789.223 Z-50. J-0.419 K0.855
N6110 G1 Y1727.865 Z-49.976
N6115 Y1720.65 Z-45.129
N6120 Y1709.129 Z-39.941
N6125 Y1695.116 Z-35.508
N6130 Y1680.708 Z-32.574
N6135 Y1643.135 Z-27.102
N6140 Y1601.538 Z-21.935
N6145 Y1558.784 Z-17.428
N6150 Y1487.738 Z-11.405
N6155 Y1408.082 Z-6.421
N6160 Y1319.813 Z-2.643
N6165 Y1220.779 Z-0.167
N6170 Y1117.439 Z0.765
N6175 Y996.877 Z-0.288
N6180 Y887.079 Z-2.674
N6185 Y785.892 Z-6.59
N6190 Y686.858 Z-12.07
N6195 Y620.549 Z-16.684
N6200 Y549.826 Z-22.477
N6205 Y471.549 Z-29.861
N6210 Y398.84 Z-37.538
N6215 Y307.108 Z-48.11
N6220 Y289.642 Z-50.
N6225 Y157.788
N6230 Y129.508
N6235 G17 G2 X169.34 Y126.651 I-2.858 J0.
N6240 G1 X163.057
N6245 G2 X160.199 Y129.508 I0. J2.857
N6250 G1 Y292.241
N6255 Y336.033 Z-44.866
N6260 Y419.867 Z-35.343
N6265 Y498.826 Z-27.242
N6270 Y575.451 Z-20.324
N6275 Y642.822 Z-15.094
N6280 Y726.592 Z-9.718
N6285 Y825.625 Z-4.906
N6290 Y924.659 Z-1.725
N6295 Y1043.069 Z0.195
N6300 Y1142.102 Z0.586
N6305 Y1249.748 Z-0.836
N6310 Y1346.628 Z-3.73
N6315 Y1432.745 Z-7.881
N6320 Y1510.249 Z-13.203
N6325 Y1561.585 Z-17.749
N6330 Y1605.982 Z-22.478
N6335 Y1643.781 Z-27.2
N6340 Y1680.933 Z-32.592
N6345 Y1712.136 Z-37.817
N6350 Y1724.389 Z-40.649
N6355 Y1737.27 Z-45.728
N6360 Y1744.719 Z-49.783
N6365 Y1808.268 Z-50.
N6370 G19 G3 Y1808.69 Z-49.903 J0.003 K0.952
N6375 G2 Y1809.109 Z-49.806 J0.419 K-0.855
N6380 G1 Y1826.605
N6385 G17 G3 X157.342 Y1829.463 I-2.857 J0.
N6390 G1 X151.059
N6395 G3 X148.202 Y1826.605 I0. J-2.858
N6400 G19 G3 Y1826.186 Z-49.903 J0. K-0.952
N6405 G2 Y1825.766 Z-50. J-0.419 K0.855
N6410 G1 Y1758.678 Z-49.898
N6415 Y1749.939 Z-45.887
N6420 Y1739.883 Z-43.056
N6425 Y1712.96 Z-37.927
N6430 Y1679.67 Z-32.387
N6435 Y1642.085 Z-26.985
N6440 Y1600.448 Z-21.874
N6445 Y1555.507 Z-17.21
N6450 Y1495.464 Z-12.124
N6455 Y1437.581 Z-8.25
N6460 Y1351.464 Z-4.023
N6465 Y1254.584 Z-1.053
N6470 Y1149.091 Z0.439
N6475 Y1054.364 Z0.219
N6480 Y931.648 Z-1.63
N6485 Y832.614 Z-4.661
N6490 Y733.581 Z-9.353
N6495 Y647.579 Z-14.773
N6500 Y578.159 Z-20.118
N6505 Y503.808 Z-26.793
N6510 Y422.216 Z-35.148
N6515 Y342.63 Z-44.203
N6520 Y294.215 Z-50.
N6525 Y104.478
N6530 G2 Y104.059 Z-49.903 J0. K0.952
N6535 G3 Y103.64 Z-49.806 J-0.419 K-0.855
N6540 G1 Y81.628
N6545 G17 G2 X145.344 Y78.77 I-2.857 J0.
N6550 G1 X139.062
N6555 G2 X136.204 Y81.628 I0. J2.857
N6560 G19 G2 Y82.047 Z-49.903 J0. K-0.953
N6565 G3 Y82.466 Z-50. J0.419 K0.855
N6570 G1 Y294.151
N6575 Y352.209 Z-43.123
N6580 Y432.281 Z-34.071
N6585 Y510.892 Z-26.11
N6590 Y587.509 Z-19.329
N6595 Y657.011 Z-14.102
N6600 Y749.51 Z-8.491
N6605 Y848.544 Z-4.086
N6610 Y943.272 Z-1.442
N6615 Y1074.599 Z0.309
N6620 Y1167.174 Z0.198
N6625 Y1272.666 Z-1.584
N6630 Y1367.394 Z-4.774
N6635 Y1451.358 Z-9.165
N6640 Y1526.709 Z-14.675
N6645 Y1590.834 Z-20.84
N6650 Y1633.052 Z-25.82
N6655 Y1670.674 Z-31.017
N6660 Y1703.579 Z-36.265
N6665 Y1732.629 Z-41.559
N6670 Y1758.439 Z-46.91
N6675 Y1769.108 Z-49.85
N6680 Y1841.903 Z-50.
N6685 G3 Y1842.324 Z-49.903 J0.002 K0.952
N6690 G2 Y1842.743 Z-49.806 J0.419 K-0.855
N6695 G1 Y1857.595
N6700 G17 G3 X133.347 Y1860.453 I-2.857 J0.
N6705 G1 X127.064
N6710 G3 X124.206 Y1857.595 I0. J-2.857
N6715 G19 G3 Y1857.176 Z-49.903 J0. K-0.952
N6720 G2 Y1856.755 Z-50. J-0.419 K0.855
N6725 G1 Y1771.491 Z-49.801
N6730 Y1743.493 Z-43.681
N6735 Y1714.488 Z-38.151
N6740 Y1681.197 Z-32.613
N6745 Y1644.038 Z-27.268
N6750 Y1602.411 Z-22.15
N6755 Y1557.458 Z-17.481
N6760 Y1488.74 Z-11.752
N6765 Y1435.05 Z-8.255
N6770 Y1348.933 Z-4.108
N6775 Y1252.053 Z-1.195
N6780 Y1144.407 Z0.281
N6785 Y1047.527 Z-0.003
N6790 Y926.964 Z-1.806
N6795 Y830.083 Z-4.779
N6800 Y731.05 Z-9.47
N6805 Y651.472 Z-14.455
N6810 Y583.841 Z-19.588
N6815 Y508.803 Z-26.266
N6820 Y431.49 Z-34.133
N6825 Y358.164 Z-42.434
N6830 Y294.229 Z-50.
N6835 Y64.087
N6840 G2 Y63.668 Z-49.903 J0. K0.952
N6845 G3 Y63.248 Z-49.806 J-0.419 K-0.855
N6850 G1 Y61.271
N6855 G17 G2 X121.349 Y58.414 I-2.857 J0.
N6860 G1 X115.066
N6865 G2 X112.209 Y61.271 I0. J2.857
N6870 G19 G2 Y61.69 Z-49.903 J0. K-0.953
N6875 G3 Y62.11 Z-50. J0.419 K0.855
N6880 G1 Y294.183
N6885 Y358.948 Z-42.306
N6890 Y433.519 Z-33.838
N6895 Y509.528 Z-26.12
N6900 Y583.988 Z-19.504
N6905 Y651.536 Z-14.386
N6910 Y724.697 Z-9.779
N6915 Y821.578 Z-5.1
N6920 Y920.342 Z-1.968
N6925 Y1039.021 Z-0.148
N6930 Y1140.208 Z0.224
N6935 Y1250.006 Z-1.241
N6940 Y1346.887 Z-4.109
N6945 Y1433.003 Z-8.204
N6950 Y1510.507 Z-13.451
N6955 Y1563.76 Z-18.124
N6960 Y1606.497 Z-22.639
N6965 Y1644.328 Z-27.316
N6970 Y1681.489 Z-32.653
N6975 Y1714.783 Z-38.184
N6980 Y1743.788 Z-43.704
N6985 Y1772.033 Z-49.858
N6990 Y1870.448 Z-50.
N6995 G3 Y1870.868 Z-49.903 J0.001 K0.952
N7000 G2 Y1871.287 Z-49.806 J0.419 K-0.855
N7005 G1 Y1884.023
N7010 G17 G3 X109.351 Y1886.88 I-2.857 J0.
N7015 G1 X103.069
N7020 G3 X100.211 Y1884.023 I0. J-2.858
N7025 G19 G3 Y1883.603 Z-49.903 J0. K-0.953
N7030 G2 Y1883.184 Z-50. J-0.419 K0.855
N7035 G1 Y1772.87 Z-49.999
N7040 Y1748.153 Z-44.566
N7045 Y1719.165 Z-38.954
N7050 Y1685.888 Z-33.335
N7055 Y1648.741 Z-27.916
N7060 Y1611.379 Z-23.223
N7065 Y1567.431 Z-18.513
N7070 Y1516.494 Z-13.974
N7075 Y1462.806 Z-10.083
N7080 Y1378.843 Z-5.51
N7085 Y1284.115 Z-2.143
N7090 Y1178.622 Z-0.174
N7095 Y1083.895 Z0.156
N7100 Y946.109 Z-1.462
N7105 Y851.381 Z-3.95
N7110 Y752.347 Z-8.209
N7115 Y655.519 Z-14.007
N7120 Y587.997 Z-19.068
N7125 Y518.603 Z-25.137
N7130 Y440.785 Z-32.952
N7135 Y363.491 Z-41.662
N7140 Y293.824 Z-50.
N7145 Y62.11
N7150 G2 Y61.69 Z-49.903 J0. K0.952
N7155 G3 Y61.271 Z-49.806 J-0.419 K-0.855
N7160 G17 G2 X97.354 Y58.414 I-2.857 J0.
N7165 G1 X91.071
N7170 G2 X88.214 Y61.271 I0. J2.857
N7175 G19 G2 Y61.69 Z-49.903 J0. K-0.953
N7180 G3 Y62.11 Z-50. J0.419 K0.855
N7185 G1 Y293.891
N7190 Y348.896 Z-43.274
N7195 Y421.216 Z-34.915
N7200 Y494.937 Z-27.253
N7205 Y568.859 Z-20.518
N7210 Y636.025 Z-15.269
N7215 Y717.775 Z-9.99
N7220 Y814.656 Z-5.267
N7225 Y911.536 Z-2.139
N7230 Y1027.793 Z-0.329
N7235 Y1135.439 Z0.116
N7240 Y1245.237 Z-1.287
N7245 Y1344.27 Z-4.148
N7250 Y1432.539 Z-8.294
N7255 Y1510.044 Z-13.501
N7260 Y1562.869 Z-18.099
N7265 Y1606.904 Z-22.725
N7270 Y1644.74 Z-27.387
N7275 Y1681.904 Z-32.71
N7280 Y1713.122 Z-37.858
N7285 Y1744.208 Z-43.73
N7290 Y1773.06 Z-49.998
N7295 Y1895.065 Z-50.
N7300 G3 Y1896.97 Z-48.095 J0. K1.905 F1000.
N7305 G0 Z5.
N7310 X76.216 Y2161.05
N7315 Z-48.095
N7320 G2 Y2159.144 Z-50. J-1.905 K0. F1000.
N7325 G1 Y1772.427 Z-49.812 F6000.
N7330 Y1746.944 Z-44.264
N7335 Y1717.945 Z-38.703
N7340 Y1684.66 Z-33.134
N7345 Y1647.506 Z-27.763
N7350 Y1605.889 Z-22.625
N7355 Y1561.408 Z-17.983
N7360 Y1490.362 Z-12.058
N7365 Y1417.24 Z-7.501
N7370 Y1328.971 Z-3.653
N7375 Y1227.785 Z-1.012
N7380 Y1117.987 Z0.116
N7385 Y986.659 Z-0.779
N7390 Y881.167 Z-2.889
N7395 Y782.133 Z-6.569
N7400 Y685.253 Z-11.793
N7405 Y620.848 Z-16.207
N7410 Y549.691 Z-21.974
N7415 Y476.081 Z-28.929
N7420 Y407.305 Z-36.268
N7425 Y331.347 Z-45.212
N7430 Y292.718 Z-50.
N7435 Y62.11
N7440 G2 Y61.69 Z-49.903 J0. K0.952
N7445 G3 Y61.271 Z-49.806 J-0.419 K-0.855
N7450 G1 Y56.759
N7455 G17 G2 X73.358 Y53.902 I-2.857 J0.
N7460 G1 X67.076
N7465 G2 X64.218 Y56.759 I0. J2.858
N7470 G19 G2 Y57.179 Z-49.903 J0. K-0.953
N7475 G3 Y57.598 Z-50. J0.419 K0.855
N7480 G1 Y290.29
N7485 Y350.746 Z-42.598
N7490 Y424.806 Z-34.044
N7495 Y495.111 Z-26.806
N7500 Y568.607 Z-20.149
N7505 Y636.047 Z-14.926
N7510 Y702.626 Z-10.593
N7515 Y799.506 Z-5.695
N7520 Y896.387 Z-2.419
N7525 Y1010.491 Z-0.519
N7530 Y1128.901 Z0.035
N7535 Y1240.852 Z-1.317
N7540 Y1339.886 Z-4.095
N7545 Y1428.155 Z-8.141
N7550 Y1501.217 Z-12.894
N7555 Y1556.664 Z-17.558
N7560 Y1603.378 Z-22.355
N7565 Y1644.601 Z-27.382
N7570 Y1682.193 Z-32.749
N7575 Y1715.49 Z-38.253
N7580 Y1744.502 Z-43.747
N7585 Y1773.357 Z-49.997
N7590 Y2159.525 Z-50.
N7595 G3 Y2159.944 Z-49.903 J0. K0.952
N7600 G2 Y2160.363 Z-49.806 J0.419 K-0.855
N7605 G17 G3 X61.361 Y2163.221 I-2.857 J0.
N7610 G1 X55.078
N7615 G3 X52.221 Y2160.363 I0. J-2.858
N7620 G19 G3 Y2159.944 Z-49.903 J0. K-0.953
N7625 G2 Y2159.525 Z-50. J-0.419 K0.855
N7630 G1 Y1773.468 Z-49.997
N7635 Y1744.611 Z-43.753
N7640 Y1715.598 Z-38.263
N7645 Y1682.3 Z-32.763
N7650 Y1644.707 Z-27.401
N7655 Y1603.051 Z-22.332
N7660 Y1552.846 Z-17.225
N7665 Y1499.858 Z-12.819
N7670 Y1444.086 Z-9.087
N7675 Y1357.969 Z-4.829
N7680 Y1261.089 Z-1.796
N7685 Y1151.29 Z-0.138
N7690 Y1057.74 Z-0.11
N7695 Y928.565 Z-1.625
N7700 Y833.838 Z-4.231
N7705 Y739.11 Z-8.38
N7710 Y655.167 Z-13.367
N7715 Y587.508 Z-18.349
N7720 Y517.253 Z-24.429
N7725 Y438.906 Z-32.212
N7730 Y368.826 Z-40.092
N7735 Y300.19 Z-48.544
N7740 Y288.439 Z-50.
N7745 Y-59.173
N7750 G2 Y-59.592 Z-49.903 J0. K0.952
N7755 G3 Y-60.012 Z-49.806 J-0.419 K-0.855
N7760 G1 Y-60.363
N7765 G17 G2 X49.363 Y-63.221 I-2.858 J0.
N7770 G1 X43.081
N7775 G2 X40.223 Y-60.363 I0. J2.858
N7780 G19 G2 Y-59.944 Z-49.903 J0. K-0.953
N7785 G3 Y-59.525 Z-50. J0.419 K0.855
N7790 G1 Y285.065
N7795 Y300.99 Z-48.056
N7800 Y370.07 Z-39.589
N7805 Y438.012 Z-32.003
N7810 Y504.56 Z-25.282
N7815 Y578.295 Z-18.804
N7820 Y648.719 Z-13.561
N7825 Y717.41 Z-9.334
N7830 Y812.138 Z-4.892
N7835 Y909.019 Z-1.947
N7840 Y1031.734 Z-0.285
N7845 Y1143.686 Z-0.121
N7850 Y1253.484 Z-1.664
N7855 Y1350.364 Z-4.568
N7860 Y1436.481 Z-8.676
N7865 Y1492.429 Z-12.292
N7870 Y1558.978 Z-17.811
N7875 Y1603.554 Z-22.397
N7880 Y1645.21 Z-27.471
N7885 Y1682.378 Z-32.773
N7890 Y1715.677 Z-38.271
N7895 Y1744.691 Z-43.756
N7900 Y1773.549 Z-49.996
N7905 Y2159.525 Z-50.
N7910 G3 Y2159.944 Z-49.903 J0. K0.952
N7915 G2 Y2160.363 Z-49.806 J0.419 K-0.855
N7920 G17 G3 X37.366 Y2163.221 I-2.857 J0.
N7925 G1 X31.083
N7930 G3 X28.225 Y2160.363 I0. J-2.858
N7935 G19 G3 Y2159.944 Z-49.903 J0. K-0.953
N7940 G2 Y2159.525 Z-50. J-0.419 K0.855
N7945 G1 Y1773.616 Z-49.996
N7950 Y1744.76 Z-43.76
N7955 Y1715.746 Z-38.277
N7960 Y1682.447 Z-32.783
N7965 Y1644.852 Z-27.428
N7970 Y1603.189 Z-22.364
N7975 Y1558.182 Z-17.749
N7980 Y1504.684 Z-13.222
N7985 Y1451.19 Z-9.566
N7990 Y1365.074 Z-5.181
N7995 Y1268.193 Z-2.033
N8000 Y1158.395 Z-0.264
N8005 Y1042.139 Z-0.179
N8010 Y919.423 Z-1.646
N8015 Y822.542 Z-4.321
N8020 Y725.661 Z-8.659
N8025 Y646.106 Z-13.432
N8030 Y584.554 Z-17.962
N8035 Y511.387 Z-24.251
N8040 Y438.493 Z-31.486
N8045 Y368.854 Z-39.262
N8050 Y296.11 Z-48.191
N8055 Y281.864 Z-50.
N8060 Y-59.525
N8065 G2 Y-59.944 Z-49.903 J0. K0.952
N8070 G3 Y-60.363 Z-49.806 J-0.419 K-0.855
N8075 G17 G2 X25.368 Y-63.221 I-2.858 J0.
N8080 G1 X19.085
N8085 G2 X16.228 Y-60.363 I0. J2.858
N8090 G19 G2 Y-59.944 Z-49.903 J0. K-0.953
N8095 G3 Y-59.525 Z-50. J0.419 K0.855
N8100 G1 Y275.445
N8105 Y353.989 Z-40.46
N8110 Y423.954 Z-32.55
N8115 Y504.143 Z-24.533
N8120 Y573.205 Z-18.497
N8125 Y647.358 Z-13.026
N8130 Y722.608 Z-8.551
N8135 Y819.488 Z-4.228
N8140 Y920.675 Z-1.533
N8145 Y1043.391 Z-0.125
N8150 Y1148.662 Z-0.197
N8155 Y1267.072 Z-2.021
N8160 Y1363.952 Z-5.151
N8165 Y1450.069 Z-9.511
N8170 Y1503.714 Z-13.159
N8175 Y1556.93 Z-17.638
N8180 Y1603.237 Z-22.375
N8185 Y1644.899 Z-27.438
N8190 Y1682.493 Z-32.789
N8195 Y1715.793 Z-38.283
N8200 Y1744.807 Z-43.765
N8205 Y1773.664 Z-49.999
N8210 Y2159.525 Z-50.
N8215 G3 Y2159.944 Z-49.903 J0. K0.952
N8220 G2 Y2160.363 Z-49.806 J0.419 K-0.855
N8225 G17 G3 X13.37 Y2163.221 I-2.858 J0.
N8230 G1 X7.088
N8235 G3 X4.23 Y2160.363 I0. J-2.858
N8240 G19 G3 Y2159.944 Z-49.903 J0. K-0.953
N8245 G2 Y2159.525 Z-50. J-0.419 K0.855
N8250 G1 Y1773.675 Z-49.996
N8255 Y1744.817 Z-43.764
N8260 Y1715.804 Z-38.284
N8265 Y1682.504 Z-32.794
N8270 Y1644.909 Z-27.443
N8275 Y1603.674 Z-22.43
N8280 Y1553.052 Z-17.287
N8285 Y1499.511 Z-12.848
N8290 Y1445.867 Z-9.268
N8295 Y1359.75 Z-4.991
N8300 Y1262.87 Z-1.932
N8305 Y1127.237 Z-0.138
N8310 Y1024.765 Z-0.243
N8315 Y921.425 Z-1.452
N8320 Y813.78 Z-4.236
N8325 Y716.899 Z-8.566
N8330 Y622.276 Z-14.437
N8335 Y556.263 Z-19.51
N8340 Y482.842 Z-26.087
N8345 Y406.093 Z-33.986
N8350 Y336.265 Z-42.009
N8355 Y271.602 Z-50.
N8360 Y-59.525
N8365 G2 Y-59.944 Z-49.903 J0. K0.952
N8370 G3 Y-60.363 Z-49.806 J-0.419 K-0.855
N8375 G17 G2 X1.373 Y-63.221 I-2.857 J0.
N8380 G1 X-4.91
N8385 G2 X-7.767 Y-60.363 I0. J2.858
N8390 G19 G2 Y-59.944 Z-49.903 J0. K-0.953
N8395 G3 Y-59.525 Z-50. J0.419 K0.855
N8400 G1 Y271.648
N8405 Y334.192 Z-42.435
N8410 Y403.997 Z-34.372
N8415 Y482.831 Z-26.219
N8420 Y556.333 Z-19.615
N8425 Y626.428 Z-14.249
N8430 Y720.96 Z-8.437
N8435 Y815.688 Z-4.227
N8440 Y919.027 Z-1.534
N8445 Y1018.061 Z-0.317
N8450 Y1100.654 Z-0.099
N8455 Y1180.312 Z-0.617
N8460 Y1277.192 Z-2.277
N8465 Y1371.92 Z-5.495
N8470 Y1455.884 Z-9.877
N8475 Y1509.44 Z-13.599
N8480 Y1560.44 Z-17.976
N8485 Y1604.543 Z-22.527
N8490 Y1645.334 Z-27.499
N8495 Y1682.502 Z-32.793
N8500 Y1715.802 Z-38.284
N8505 Y1744.815 Z-43.764
N8510 Y1773.672 Z-49.997
N8515 Y2159.525 Z-50.
N8520 G3 Y2159.944 Z-49.903 J0. K0.952
N8525 G2 Y2160.363 Z-49.806 J0.419 K-0.855
N8530 G17 G3 X-10.625 Y2163.221 I-2.857 J0.
N8535 G1 X-16.908
N8540 G3 X-19.765 Y2160.363 I0. J-2.858
N8545 G19 G3 Y2159.944 Z-49.903 J0. K-0.953
N8550 G2 Y2159.525 Z-50. J-0.419 K0.855
N8555 G1 Y1773.661
N8560 Y1744.634 Z-43.731
N8565 Y1715.618 Z-38.252
N8570 Y1682.318 Z-32.762
N8575 Y1644.725 Z-27.414
N8580 Y1606.863 Z-22.781
N8585 Y1564.086 Z-18.314
N8590 Y1493.04 Z-12.365
N8595 Y1411.332 Z-7.336
N8600 Y1320.91 Z-3.548
N8605 Y1221.876 Z-1.103
N8610 Y1115.498 Z-0.071
N8615 Y1007.852 Z-0.446
N8620 Y910.972 Z-1.782
N8625 Y818.397 Z-4.347
N8630 Y723.669 Z-8.578
N8635 Y646.267 Z-13.2
N8640 Y582.878 Z-17.858
N8645 Y511.224 Z-23.975
N8650 Y436.17 Z-31.402
N8655 Y370.306 Z-38.71
N8660 Y297.525 Z-47.582
N8665 Y276.98 Z-50.
N8670 Y-59.525
N8675 G2 Y-59.944 Z-49.903 J0. K0.952
N8680 G3 Y-60.363 Z-49.806 J-0.419 K-0.855
N8685 G17 G2 X-22.623 Y-63.221 I-2.858 J0.
N8690 G1 X-28.905
N8695 G2 X-31.763 Y-60.363 I0. J2.858
N8700 G19 G2 Y-59.944 Z-49.903 J0. K-0.953
N8705 G3 Y-59.525 Z-50. J0.419 K0.855
N8710 G1 Y282.403
N8715 Y298.751 Z-48.038
N8720 Y371.495 Z-39.119
N8725 Y439.436 Z-31.53
N8730 Y512.264 Z-24.284
N8735 Y579.613 Z-18.491
N8740 Y647.192 Z-13.443
N8745 Y720.289 Z-9.023
N8750 Y817.17 Z-4.576
N8755 Y914.05 Z-1.784
N8760 Y1036.766 Z-0.232
N8765 Y1121.532 Z-0.033
N8770 Y1233.483 Z-1.282
N8775 Y1332.517 Z-3.929
N8780 Y1420.786 Z-7.82
N8785 Y1499.367 Z-12.817
N8790 Y1553.415 Z-17.303
N8795 Y1603.602 Z-22.408
N8800 Y1644.837 Z-27.424
N8805 Y1682.432 Z-32.781
N8810 Y1715.731 Z-38.276
N8815 Y1744.743 Z-43.76
N8820 Y1773.599 Z-49.997
N8825 Y2159.525 Z-50.
N8830 G3 Y2159.944 Z-49.903 J0. K0.952
N8835 G2 Y2160.363 Z-49.806 J0.419 K-0.855
N8840 G1 Y2160.364
N8845 G17 G3 X-34.62 Y2163.221 I-2.858 J0.
N8850 G1 X-40.903
N8855 G3 X-43.76 Y2160.364 I0. J-2.857
N8860 G19 G3 Y2159.945 Z-49.903 J0. K-0.953
N8865 G2 Y2159.525 Z-50. J-0.419 K0.855
N8870 G1 Y1772.775 Z-49.822
N8875 Y1744.684 Z-43.758
N8880 Y1715.67 Z-38.271
N8885 Y1682.37 Z-32.773
N8890 Y1645.203 Z-27.469
N8895 Y1603.55 Z-22.394
N8900 Y1553.37 Z-17.285
N8905 Y1500.187 Z-12.86
N8910 Y1420.663 Z-7.784
N8915 Y1330.241 Z-3.818
N8920 Y1229.054 Z-1.162
N8925 Y1117.103 Z0.01
N8930 Y985.605 Z-0.722
N8935 Y880.113 Z-2.686
N8940 Y781.079 Z-6.225
N8945 Y686.352 Z-11.204
N8950 Y624.277 Z-15.351
N8955 Y550.224 Z-21.242
N8960 Y474.738 Z-28.292
N8965 Y407.243 Z-35.467
N8970 Y345.396 Z-42.657
N8975 Y284.801 Z-50.
N8980 Y-59.525
N8985 G2 Y-59.944 Z-49.903 J0. K0.952
N8990 G3 Y-60.363 Z-49.806 J-0.419 K-0.855
N8995 G17 G2 X-46.618 Y-63.221 I-2.857 J0.
N9000 G1 X-52.901
N9005 G2 X-55.758 Y-60.363 I0. J2.858
N9010 G1 Y-58.385
N9015 G19 G2 Y-57.966 Z-49.903 J0. K-0.953
N9020 G3 Y-57.547 Z-50. J0.419 K0.855
N9025 G1 Y287.942
N9030 Y297.775 Z-48.955
N9035 Y370.162 Z-40.025
N9040 Y435.958 Z-32.64
N9045 Y514.202 Z-24.796
N9050 Y587.353 Z-18.435
N9055 Y654.824 Z-13.462
N9060 Y743.053 Z-8.227
N9065 Y839.934 Z-4.05
N9070 Y936.815 Z-1.497
N9075 Y1072.448 Z-0.028
N9080 Y1154.66 Z-0.153
N9085 Y1262.306 Z-1.814
N9090 Y1359.186 Z-4.867
N9095 Y1445.302 Z-9.152
N9100 Y1498.965 Z-12.744
N9105 Y1552.001 Z-17.142
N9110 Y1603.025 Z-22.325
N9115 Y1644.68 Z-27.396
N9120 Y1682.273 Z-32.759
N9125 Y1715.571 Z-38.261
N9130 Y1744.584 Z-43.752
N9135 Y1773.44 Z-49.997
N9140 Y2159.525 Z-50.
N9145 G3 Y2159.944 Z-49.903 J0. K0.952
N9150 G2 Y2160.363 Z-49.806 J0.419 K-0.855
N9155 G17 G3 X-58.616 Y2163.221 I-2.858 J0.
N9160 G1 X-64.898
N9165 G3 X-67.756 Y2160.363 I0. J-2.858
N9170 G19 G3 Y2159.944 Z-49.903 J0. K-0.953
N9175 G2 Y2159.525 Z-50. J-0.419 K0.855
N9180 G1 Y1773.333
N9185 Y1744.311 Z-43.714
N9190 Y1715.299 Z-38.222
N9195 Y1682.002 Z-32.72
N9200 Y1644.41 Z-27.355
N9205 Y1606.556 Z-22.711
N9210 Y1563.788 Z-18.229
N9215 Y1504.125 Z-13.102
N9220 Y1424.665 Z-7.936
N9225 Y1336.396 Z-3.956
N9230 Y1237.362 Z-1.238
N9235 Y1127.564 Z0.05
N9240 Y1009.154 Z-0.543
N9245 Y895.05 Z-2.479
N9250 Y796.017 Z-5.885
N9255 Y699.136 Z-10.845
N9260 Y628.273 Z-15.536
N9265 Y562.676 Z-20.706
N9270 Y487.438 Z-27.624
N9275 Y418.514 Z-34.833
N9280 Y346.277 Z-43.232
N9285 Y290.852 Z-50.
N9290 Y60.152
N9295 G2 Y59.733 Z-49.903 J0. K0.952
N9300 G3 Y59.314 Z-49.806 J-0.419 K-0.855
N9305 G17 G2 X-70.613 Y56.456 I-2.858 J0.
N9310 G1 X-76.896
N9315 G2 X-79.753 Y59.314 I0. J2.858
N9320 G1 Y61.271
N9325 G19 G2 Y61.69 Z-49.903 J0. K-0.953
N9330 G3 Y62.11 Z-50. J0.419 K0.855
N9335 G1 Y292.627
N9340 Y353.158 Z-42.618
N9345 Y425.939 Z-34.263
N9350 Y494.559 Z-27.168
N9355 Y566.515 Z-20.589
N9360 Y635.787 Z-15.167
N9365 Y708.921 Z-10.412
N9370 Y805.801 Z-5.567
N9375 Y902.682 Z-2.335
N9380 Y1018.939 Z-0.435
N9385 Y1131.149 Z0.095
N9390 Y1240.947 Z-1.247
N9395 Y1339.981 Z-4.03
N9400 Y1428.25 Z-8.087
N9405 Y1505.561 Z-13.18
N9410 Y1558.658 Z-17.717
N9415 Y1603.208 Z-22.317
N9420 Y1644.424 Z-27.351
N9425 Y1682.015 Z-32.725
N9430 Y1715.31 Z-38.235
N9435 Y1744.32 Z-43.736
N9440 Y1773.174 Z-49.996
N9445 Y2157.361 Z-50.
N9450 G3 Y2159.266 Z-48.095 J0. K1.905 F1000.
N9455 G0 Z5.
N9460 X-91.751 Y1893.629
N9465 Z-48.095
N9470 G2 Y1891.724 Z-50. J-1.905 K0. F1000.
N9475 G1 Y1773.011 Z-49.999 F6000.
N9480 Y1748.294 Z-44.574
N9485 Y1719.305 Z-38.967
N9490 Y1686.026 Z-33.353
N9495 Y1648.877 Z-27.94
N9500 Y1611.083 Z-23.201
N9505 Y1568.41 Z-18.631
N9510 Y1515.547 Z-13.926
N9515 Y1462.057 Z-10.07
N9520 Y1378.094 Z-5.522
N9525 Y1283.366 Z-2.17
N9530 Y1177.874 Z-0.212
N9535 Y1080.993 Z0.108
N9540 Y945.36 Z-1.464
N9545 Y850.632 Z-3.936
N9550 Y753.752 Z-8.083
N9555 Y656.891 Z-13.847
N9560 Y589.358 Z-18.865
N9565 Y518.731 Z-25.02
N9570 Y443.875 Z-32.516
N9575 Y370.479 Z-40.748
N9580 Y293.968 Z-50.
N9585 Y62.11
N9590 G2 Y61.69 Z-49.903 J0. K0.952
N9595 G3 Y61.271 Z-49.806 J-0.419 K-0.855
N9600 G17 G2 X-94.608 Y58.414 I-2.857 J0.
N9605 G1 X-100.891
N9610 G2 X-103.749 Y61.271 I0. J2.857
N9615 G19 G2 Y61.69 Z-49.903 J0. K-0.953
N9620 G3 Y62.11 Z-50. J0.419 K0.855
N9625 G1 Y294.127
N9630 Y364.113 Z-41.623
N9635 Y436.625 Z-33.441
N9640 Y514.417 Z-25.579
N9645 Y587.265 Z-19.166
N9650 Y655.195 Z-14.057
N9655 Y743.427 Z-8.7
N9660 Y842.46 Z-4.278
N9665 Y939.341 Z-1.575
N9670 Y1072.821 Z0.108
N9675 Y1167.549 Z-0.038
N9680 Y1273.041 Z-1.833
N9685 Y1367.769 Z-5.007
N9690 Y1451.732 Z-9.366
N9695 Y1505.51 Z-13.095
N9700 Y1558.325 Z-17.626
N9705 Y1602.862 Z-22.241
N9710 Y1644.495 Z-27.345
N9715 Y1681.657 Z-32.676
N9720 Y1714.952 Z-38.201
N9725 Y1743.959 Z-43.716
N9730 Y1771.933 Z-49.795
N9735 Y1879.579 Z-50.
N9740 G3 Y1880. Z-49.903 J0.002 K0.952
N9745 G2 Y1880.419 Z-49.806 J0.419 K-0.855
N9750 G17 G3 X-106.606 Y1883.276 I-2.857 J0.
N9755 G1 X-112.889
N9760 G3 X-115.746 Y1880.419 I0. J-2.857
N9765 G1 Y1867.361
N9770 G19 G3 Y1866.941 Z-49.903 J0. K-0.952
N9775 G2 Y1866.52 Z-50. J-0.419 K0.855
N9780 G1 Y1771.793 Z-49.82
N9785 Y1743.453 Z-43.646
N9790 Y1714.707 Z-38.176
N9795 Y1681.414 Z-32.643
N9800 Y1643.827 Z-27.247
N9805 Y1602.19 Z-22.142
N9810 Y1559.385 Z-17.691
N9815 Y1488.51 Z-11.775
N9820 Y1408.853 Z-6.868
N9825 Y1318.431 Z-3.069
N9830 Y1217.245 Z-0.598
N9835 Y1111.643 Z0.322
N9840 Y978.163 Z-0.869
N9845 Y874.823 Z-3.207
N9850 Y775.79 Z-7.118
N9855 Y676.756 Z-12.709
N9860 Y610.653 Z-17.409
N9865 Y539.572 Z-23.361
N9870 Y462.731 Z-30.783
N9875 Y391.161 Z-38.577
N9880 Y311.077 Z-48.119
N9885 Y295.124 Z-50.
N9890 Y62.11
N9895 G2 Y61.69 Z-49.903 J0. K0.952
N9900 G3 Y61.271 Z-49.806 J-0.419 K-0.855
N9905 G17 G2 X-118.604 Y58.414 I-2.858 J0.
N9910 G1 X-124.886
N9915 G2 X-127.744 Y61.271 I0. J2.857
N9920 G1 Y67.602
N9925 G19 G2 Y68.022 Z-49.903 J0. K-0.953
N9930 G3 Y68.441 Z-50. J0.419 K0.855
N9935 G1 Y294.115
N9940 Y361.867 Z-42.004
N9945 Y435.24 Z-33.739
N9950 Y513.482 Z-25.835
N9955 Y585.593 Z-19.462
N9960 Y655.532 Z-14.176
N9965 Y754.532 Z-8.212
N9970 Y853.565 Z-3.918
N9975 Y948.293 Z-1.382
N9980 Y1086.079 Z0.323
N9985 Y1180.807 Z-0.009
N9990 Y1284.146 Z-1.952
N9995 Y1376.721 Z-5.244
N10000 Y1460.685 Z-9.808
N10005 Y1514.231 Z-13.684
N10010 Y1567.673 Z-18.461
N10015 Y1609.887 Z-23.002
N10020 Y1647.673 Z-27.753
N10025 Y1685.243 Z-33.247
N10030 Y1718.517 Z-38.884
N10035 Y1747.501 Z-44.52
N10040 Y1772.204 Z-49.999
N10045 Y1852.442 Z-50.
N10050 G3 Y1852.861 Z-49.903 J0. K0.952
N10055 G2 Y1853.28 Z-49.806 J0.419 K-0.855
N10060 G17 G3 X-130.601 Y1856.138 I-2.858 J0.
N10065 G1 X-136.884
N10070 G3 X-139.741 Y1853.28 I0. J-2.858
N10075 G1 Y1838.074
N10080 G19 G3 Y1837.655 Z-49.903 J0. K-0.952
N10085 G2 Y1837.234 Z-50. J-0.419 K0.855
N10090 G1 Y1766.718 Z-49.93
N10095 Y1758.98 Z-47.147
N10100 Y1742.534 Z-43.547
N10105 Y1713.53 Z-38.01
N10110 Y1680.24 Z-32.471
N10115 Y1643.082 Z-27.127
N10120 Y1601.882 Z-22.057
N10125 Y1556.949 Z-17.379
N10130 Y1499.082 Z-12.441
N10135 Y1419.607 Z-7.286
N10140 Y1331.338 Z-3.333
N10145 Y1232.304 Z-0.675
N10150 Y1124.659 Z0.481
N10155 Y1010.555 Z-0.338
N10160 Y896.451 Z-2.54
N10165 Y797.417 Z-6.155
N10170 Y698.383 Z-11.411
N10175 Y631.924 Z-15.893
N10180 Y562.533 Z-21.438
N10185 Y488.284 Z-28.297
N10190 Y411.658 Z-36.32
N10195 Y334.7 Z-45.204
N10200 Y294.319 Z-50.
N10205 Y88.607
N10210 G2 Y88.188 Z-49.903 J0. K0.952
N10215 G3 Y87.768 Z-49.806 J-0.419 K-0.855
N10220 G17 G2 X-142.599 Y84.911 I-2.857 J0.
N10225 G1 X-148.882
N10230 G2 X-151.739 Y87.768 I0. J2.857
N10235 G1 Y110.654
N10240 G19 G2 Y111.073 Z-49.903 J0. K-0.953
N10245 G3 Y111.493 Z-50. J0.419 K0.855
N10250 G1 Y293.677
N10255 Y373.329 Z-40.595
N10260 Y450.334 Z-32.144
N10265 Y526.279 Z-24.677
N10270 Y598.614 Z-18.447
N10275 Y668.873 Z-13.307
N10280 Y767.906 Z-7.537
N10285 Y866.94 Z-3.414
N10290 Y965.973 Z-0.936
N10295 Y1101.606 Z0.564
N10300 Y1202.793 Z-0.085
N10305 Y1303.98 Z-2.324
N10310 Y1394.402 Z-5.895
N10315 Y1476.212 Z-10.711
N10320 Y1533.877 Z-15.223
N10325 Y1590.647 Z-20.778
N10330 Y1632.42 Z-25.718
N10335 Y1670.04 Z-30.923
N10340 Y1703.368 Z-36.255
N10345 Y1733.947 Z-41.892
N10350 Y1744.475 Z-44.968
N10355 Y1755.113 Z-49.914
N10360 Y1820.777 Z-50.
N10365 G3 Y1821.198 Z-49.903 J0.001 K0.952
N10370 G2 Y1821.617 Z-49.806 J0.419 K-0.855
N10375 G17 G3 X-154.597 Y1824.474 I-2.858 J0.
N10380 G1 X-160.879
N10385 G3 X-163.737 Y1821.617 I0. J-2.858
N10390 G1 Y1803.729
N10395 G19 G3 Y1803.31 Z-49.903 J0. K-0.952
N10400 G2 Y1802.889 Z-50. J-0.419 K0.855
N10405 G1 Y1740.306 Z-49.827
N10410 Y1731.846 Z-45.147
N10415 Y1719.153 Z-40.06
N10420 Y1706.98 Z-36.926
N10425 Y1676.812 Z-31.955
N10430 Y1639.22 Z-26.588
N10435 Y1597.571 Z-21.509
N10440 Y1552.594 Z-16.872
N10445 Y1481.938 Z-11.04
N10450 Y1421.783 Z-7.231
N10455 Y1333.514 Z-3.203
N10460 Y1236.634 Z-0.537
N10465 Y1128.988 Z0.672
N10470 Y1021.343 Z-0.036
N10475 Y905.086 Z-2.203
N10480 Y803.9 Z-5.812
N10485 Y704.866 Z-10.986
N10490 Y634.104 Z-15.714
N10495 Y565.046 Z-21.194
N10500 Y488.673 Z-28.216
N10505 Y411.52 Z-36.225
N10510 Y327.314 Z-45.849
N10515 Y291.527 Z-50.
N10520 Y137.431
N10525 G17 G2 X-166.594 Y134.574 I-2.857 J0.
N10530 G1 X-172.877
N10535 G2 X-175.734 Y137.431 I0. J2.857
N10540 G1 Y166.748
N10545 Y290.818
N10550 Y375.204 Z-40.136
N10555 Y453.613 Z-31.65
N10560 Y535.274 Z-23.753
N10565 Y608.115 Z-17.618
N10570 Y676.245 Z-12.738
N10575 Y775.279 Z-7.08
N10580 Y876.465 Z-2.982
N10585 Y979.805 Z-0.515
N10590 Y1108.979 Z0.792
N10595 Y1212.318 Z0.006
N10600 Y1311.352 Z-2.328
N10605 Y1401.774 Z-6.064
N10610 Y1481.326 Z-10.917
N10615 Y1534.636 Z-15.173
N10620 Y1588.338 Z-20.451
N10625 Y1630.531 Z-25.439
N10630 Y1668.154 Z-30.652
N10635 Y1682.64 Z-33.288
N10640 Y1696.826 Z-37.27
N10645 Y1704.656 Z-40.079
N10650 Y1715.892 Z-45.468
N10655 Y1722.024 Z-49.994
N10660 Y1783.141 Z-50.
N10665 G19 G3 Y1783.56 Z-49.903 J0. K0.952
N10670 G2 Y1783.979 Z-49.806 J0.419 K-0.855
N10675 G17 G3 X-178.592 Y1786.837 I-2.857 J0.
N10680 G1 X-184.874
N10685 G3 X-187.732 Y1783.979 I0. J-2.858
N10690 G1 Y1762.475
N10695 G19 G3 Y1762.056 Z-49.903 J0. K-0.953
N10700 G2 Y1761.635 Z-50. J-0.419 K0.855
N10705 G1 Y1699.496 Z-49.852
N10710 Y1693.874 Z-45.042
N10715 Y1687.816 Z-41.341
N10720 Y1674.83 Z-35.865
N10725 Y1664.328 Z-32.487
N10730 Y1647.056 Z-28.313
N10735 Y1629.288 Z-25.266
N10740 Y1589.657 Z-20.556
N10745 Y1538.146 Z-15.423
N10750 Y1482.372 Z-10.909
N10755 Y1422.135 Z-7.051
N10760 Y1336.019 Z-3.061
N10765 Y1239.138 Z-0.335
N10770 Y1133.645 Z0.888
N10775 Y1030.306 Z0.295
N10780 Y914.049 Z-1.808
N10785 Y815.016 Z-5.194
N10790 Y715.982 Z-10.192
N10795 Y640.807 Z-15.093
N10800 Y571.541 Z-20.492
N10805 Y493.611 Z-27.543
N10810 Y408.21 Z-36.307
N10815 Y333.217 Z-44.795
N10820 Y314.525 Z-48.035
N10825 Y306.543 Z-50.
N10830 Y199.145
N10835 G2 Y197.24 Z-48.095 J0. K1.905 F1000.
N10840 G0 Z5.
N10845 X-199.73 Y232.928
N10850 Z-48.095
N10855 G3 Y234.833 Z-50. J1.905 K0. F1000.
N10860 G1 Y335.628 F6000.
N10865 Y341.892 Z-47.702
N10870 Y356.068 Z-43.706
N10875 Y377.038 Z-39.766
N10880 Y413.676 Z-35.526
N10885 Y498.776 Z-26.9
N10890 Y576.88 Z-19.927
N10895 Y646.355 Z-14.589
N10900 Y730.24 Z-9.272
N10905 Y831.427 Z-4.419
N10910 Y930.46 Z-1.302
N10915 Y1051.023 Z0.659
N10920 Y1147.904 Z0.946
N10925 Y1251.243 Z-0.45
N10930 Y1345.971 Z-3.314
N10935 Y1432.087 Z-7.517
N10940 Y1509.592 Z-12.911
N10945 Y1578.427 Z-19.308
N10950 Y1595.24 Z-21.423
N10955 Y1617.529 Z-25.575
N10960 Y1636.651 Z-30.441
N10965 Y1652.825 Z-36.301
N10970 Y1662.057 Z-41.262
N10975 Y1668.46 Z-45.999
N10980 Y1671.214 Z-50.
N10985 Y1737.727
N10990 G17 G3 X-202.587 Y1740.585 I-2.857 J0.
N10995 G1 X-208.87
N11000 G3 X-211.727 Y1737.727 I0. J-2.857
N11005 G1 Y1711.396
N11010 Y1637.05 Z-49.874
N11015 Y1634.483 Z-45.216
N11020 Y1632.127 Z-42.084
N11025 Y1626.813 Z-38.303
N11030 Y1617.477 Z-33.317
N11035 Y1606.15 Z-29.164
N11040 Y1592.437 Z-25.203
N11045 Y1580.551 Z-22.333
N11050 Y1559.627 Z-18.539
N11055 Y1538.134 Z-15.447
N11060 Y1482.276 Z-10.726
N11065 Y1402.618 Z-5.769
N11070 Y1314.349 Z-2.033
N11075 Y1217.468 Z0.332
N11080 Y1114.129 Z1.167
N11085 Y997.872 Z0.117
N11090 Y888.074 Z-2.322
N11095 Y786.887 Z-6.23
N11100 Y685.701 Z-11.816
N11105 Y617.343 Z-16.574
N11110 Y544.539 Z-22.539
N11115 Y463.503 Z-30.163
N11120 Y434.735 Z-33.358
N11125 Y410.911 Z-37.465
N11130 Y393.905 Z-41.829
N11135 Y381.856 Z-46.349
N11140 Y375.311 Z-50.
N11145 Y274.368
N11150 G19 G2 Y272.463 Z-48.095 J0. K1.905 F1000.
N11155 G0 Z5.
N11160 X-223.725 Y317.197
N11165 Z-48.095
N11170 G3 Y319.102 Z-50. J1.905 K0. F1000.
N11175 G1 Y427.683 F6000.
N11180 Y431.841 Z-45.147
N11185 Y437.812 Z-41.364
N11190 Y449.389 Z-36.923
N11195 Y465.912 Z-32.577
N11200 Y490.161 Z-28.157
N11205 Y520.697 Z-24.508
N11210 Y594.711 Z-18.158
N11215 Y664.678 Z-13.036
N11220 Y763.712 Z-7.218
N11225 Y864.898 Z-2.939
N11230 Y968.238 Z-0.251
N11235 Y1090.953 Z1.244
N11240 Y1192.14 Z0.837
N11245 Y1291.173 Z-1.17
N11250 Y1381.595 Z-4.6
N11255 Y1461.253 Z-9.168
N11260 Y1488.578 Z-11.785
N11265 Y1512.074 Z-14.859
N11270 Y1538.682 Z-19.487
N11275 Y1557.232 Z-23.909
N11280 Y1570.713 Z-28.288
N11285 Y1578.046 Z-31.328
N11290 Y1588.519 Z-36.975
N11295 Y1592.886 Z-41.005
N11300 Y1595.514 Z-46.56
N11305 Y1595.587 Z-50.
N11310 Y1682.231
N11315 G17 G3 X-226.582 Y1685.089 I-2.857 J0.
N11320 G1 X-232.865
N11325 G3 X-235.723 Y1682.231 I0. J-2.857
N11330 G1 Y1649.892
N11335 Y1546.949
N11340 Y1546.663 Z-41.886
N11345 Y1544.598 Z-37.813
N11350 Y1540.881 Z-34.304
N11355 Y1533.07 Z-29.746
N11360 Y1526.335 Z-26.956
N11365 Y1517.831 Z-23.95
N11370 Y1504.067 Z-20.008
N11375 Y1477.637 Z-14.786
N11380 Y1453.467 Z-11.08
N11385 Y1414.508 Z-6.981
N11390 Y1380.383 Z-4.445
N11395 Y1294.267 Z-1.115
N11400 Y1197.386 Z0.92
N11405 Y1096.2 Z1.41
N11410 Y977.79 Z0.076
N11415 Y872.298 Z-2.547
N11420 Y771.111 Z-6.688
N11425 Y672.078 Z-12.369
N11430 Y606.346 Z-17.088
N11435 Y571.111 Z-20.665
N11440 Y542.993 Z-24.966
N11445 Y522.607 Z-29.413
N11450 Y509.881 Z-33.328
N11455 Y501.556 Z-37.225
N11460 Y497.049 Z-40.576
N11465 Y491.938 Z-44.732
N11470 Y489.747 Z-50.
N11475 Y370.925
N11480 G19 G2 Y369.02 Z-48.095 J0. K1.905 F1000.
N11485 G0 Z5.
N11490 X-247.72 Y429.753
N11495 Z-48.095
N11500 G3 Y431.658 Z-50. J1.905 K0. F1000.
N11505 G1 Y562.766 F6000.
N11510 Y563.694 Z-43.774
N11515 Y567.248 Z-39.025
N11520 Y574.088 Z-34.031
N11525 Y585.347 Z-29.231
N11530 Y590.322 Z-27.396
N11535 Y604.758 Z-23.296
N11540 Y627.092 Z-18.957
N11545 Y661.008 Z-14.385
N11550 Y704.788 Z-10.399
N11555 Y767.148 Z-6.72
N11560 Y868.334 Z-2.523
N11565 Y973.827 Z0.157
N11570 Y1090.083 Z1.529
N11575 Y1193.423 Z1.115
N11580 Y1275.233 Z-0.581
N11585 Y1330.974 Z-3.54
N11590 Y1374.525 Z-7.055
N11595 Y1407.638 Z-11.035
N11600 Y1419.802 Z-12.839
N11605 Y1432.788 Z-14.999
N11610 Y1451.619 Z-19.156
N11615 Y1463.354 Z-22.386
N11620 Y1474.806 Z-26.698
N11625 Y1482.136 Z-30.491
N11630 Y1486.458 Z-34.234
N11635 Y1488.88 Z-38.776
N11640 Y1488.944 Z-50.
N11645 Y1614.018
N11650 G3 Y1615.923 Z-48.095 J0. K1.905 F1000.
N11655 G0 Z5.
N11660 X-259.718 Y1575.679
N11665 Z-48.095
N11670 G2 Y1573.774 Z-50. J-1.905 K0. F1000.
N11675 G1 Y1416.974 F6000.
N11680 Y1416.881 Z-35.09
N11685 Y1413.788 Z-30.423
N11690 Y1408.346 Z-26.673
N11695 Y1399.661 Z-23.131
N11700 Y1391.163 Z-20.412
N11705 Y1377.293 Z-16.865
N11710 Y1358.637 Z-13.507
N11715 Y1332.349 Z-9.697
N11720 Y1297.385 Z-6.236
N11725 Y1251.112 Z-3.031
N11730 Y1186.525 Z-0.727
N11735 Y1122.505 Z0.173
N11740 Y1019.745 Z0.032
N11745 Y937.934 Z-1.285
N11750 Y860.43 Z-4.131
N11755 Y804.591 Z-7.391
N11760 Y758.687 Z-11.512
N11765 Y729.893 Z-15.131
N11770 Y699.636 Z-20.13
N11775 Y680.991 Z-24.678
N11780 Y669.326 Z-28.563
N11785 Y661.474 Z-32.317
N11790 Y655.758 Z-36.679
N11795 Y652.833 Z-42.318
N11800 Y652.635 Z-50.
N11805 Y502.877
N11810 G2 Y500.972 Z-48.095 J0. K1.905 F1000.
N11815 G0 Z5.
N11820 X-271.715 Y584.751
N11825 Z-48.095
N11830 G3 Y586.656 Z-50. J1.905 K0. F1000.
N11835 G1 Y773.455 F6000.
N11840 Y773.466 Z-37.061
N11845 Y774.294 Z-35.603
N11850 Y780.8 Z-30.116
N11855 Y784.968 Z-28.017
N11860 Y796.799 Z-24.627
N11865 Y812.836 Z-20.996
N11870 Y826.76 Z-18.437
N11875 Y849.847 Z-15.427
N11880 Y888.634 Z-11.722
N11885 Y939.132 Z-8.718
N11890 Y1006.948 Z-6.549
N11895 Y1074.002 Z-6.079
N11900 Y1128.691 Z-6.146
N11905 Y1184.666 Z-7.896
N11910 Y1225.572 Z-10.403
N11915 Y1259.917 Z-13.953
N11920 Y1291.497 Z-19.266
N11925 Y1306.424 Z-23.584
N11930 Y1313.67 Z-27.128
N11935 Y1318.054 Z-31.584
N11940 Y1318.26 Z-50.
N11945 Y1526.886
N11950 G3 Y1528.791 Z-48.095 J0. K1.905 F1000.
N11955 G0 Z5.
N11960 X-283.713 Y1468.565
N11965 Z-48.095
N11970 G2 Y1466.66 Z-50. J-1.905 K0. F1000.
N11975 G1 Y688.376 F6000.
N11980 G2 Y686.471 Z-48.095 J0. K1.905 F1000.
N11985 G0 Z5.
N11990 X-295.711 Y831.278
N11995 Z-48.095
N12000 G3 Y833.183 Z-50. J1.905 K0. F1000.
N12005 G1 Y1368.714 F6000.
N12010 G3 Y1370.619 Z-48.095 J0. K1.905 F1000.
N12015 G0 Z10.
N12020 G17
(PARALLEL2 3)
N12025 G0 X274.186 Y1250.413
N12030 Z10.
N12035 Z-19.563
N12040 G1 Z-26.019 F1000.
N12045 G19 G2 Y1247.636 Z-27.712 J-1.905 K0.
N12050 G1 Y1241.084 Z-24.34 F6000.
N12055 Y1224.524 Z-20.596
N12060 Y1209.44 Z-18.549
N12065 Y1182.445 Z-15.815
N12070 Y1145.725 Z-13.913
N12075 Y1099.342 Z-13.138
N12080 Y1050.318 Z-13.335
N12085 Y998.197 Z-14.051
N12090 Y949.822 Z-16.313
N12095 Y921.019 Z-18.502
N12100 Y892.631 Z-21.687
N12105 Y873.703 Z-25.053
N12110 Y866.689 Z-26.831
N12115 Y858.267 Z-29.81
N12120 Y856.31 Z-31.283
N12125 Y856.048 Z-31.827
N12130 G2 Y855.007 Z-31.589 J-0.494 K0.238 F1000.
N12135 G0 Z5.
N12140 X264.188 Y720.278
N12145 Z-2.926
N12150 G1 Z-38.219 F1000.
N12155 G3 Y722.442 Z-38.933 J1.2 K0.
N12160 G1 Y726.35 Z-33.665 F6000.
N12165 Y730.958 Z-30.853
N12170 Y742.539 Z-26.593
N12175 Y747.821 Z-25.099
N12180 Y760.177 Z-22.124
N12185 Y786.9 Z-17.683
N12190 Y813.403 Z-14.371
N12195 Y851.159 Z-11.175
N12200 Y912.036 Z-7.784
N12205 Y990.307 Z-5.447
N12210 Y1076.713 Z-4.558
N12215 Y1142.422 Z-4.779
N12220 Y1204.266 Z-6.631
N12225 Y1242.87 Z-8.821
N12230 Y1275.07 Z-11.335
N12235 Y1301.06 Z-14.406
N12240 Y1321.642 Z-17.598
N12245 Y1337.863 Z-21.299
N12250 Y1346.109 Z-23.642
N12255 Y1354.331 Z-27.096
N12260 Y1358.135 Z-30.415
N12265 G3 Y1361.136 Z-29.05 J1.191 K1.365 F1000.
N12270 G0 Z5.
N12275 X254.189 Y1433.966
N12280 Z-26.202
N12285 G1 Z-31.269 F1000.
N12290 G2 Y1431.247 Z-32.434 J-1.609 K0.
N12295 G1 Y1428.511 Z-29.827 F6000.
N12300 Y1422.313 Z-26.562
N12305 Y1412.001 Z-22.841
N12310 Y1397.778 Z-19.059
N12315 Y1374.363 Z-14.687
N12320 Y1343.202 Z-10.791
N12325 Y1330.729 Z-9.489
N12330 Y1298.725 Z-6.795
N12335 Y1254.34 Z-4.376
N12340 Y1177.036 Z-1.983
N12345 Y1119.057 Z-1.544
N12350 Y1018.561 Z-2.084
N12355 Y908.402 Z-4.292
N12360 Y827.232 Z-7.131
N12365 Y767.321 Z-10.647
N12370 Y723.354 Z-14.661
N12375 Y693.178 Z-18.834
N12380 Y669.995 Z-23.311
N12385 Y659.256 Z-26.182
N12390 Y648.791 Z-29.682
N12395 Y641.832 Z-32.864
N12400 Y635.852 Z-37.122
N12405 Y633.906 Z-40.528
N12410 G2 Y632.687 Z-40.204 J-0.566 K0.324 F1000.
N12415 G0 Z5.
N12420 X244.191 Y559.735
N12425 Z-5.879
N12430 G1 Z-43.394 F1000.
N12435 G3 Y560.846 Z-43.572 J0.57 K0.
N12440 G1 Y560.971 Z-43.194 F6000.
N12445 Y564.602 Z-38.897
N12450 Y570.767 Z-34.615
N12455 Y583.666 Z-29.361
N12460 Y596.709 Z-25.588
N12465 Y617.028 Z-21.669
N12470 Y649.305 Z-17.509
N12475 Y692.391 Z-13.968
N12480 Y789.022 Z-8.722
N12485 Y891.451 Z-4.836
N12490 Y1005.475 Z-2.359
N12495 Y1115.634 Z-1.456
N12500 Y1218.063 Z-2.275
N12505 Y1306.963 Z-4.477
N12510 Y1355.093 Z-7.386
N12515 Y1390.714 Z-10.447
N12520 Y1420. Z-14.15
N12525 Y1430.936 Z-15.863
N12530 Y1443.596 Z-18.048
N12535 Y1463.463 Z-22.728
N12540 Y1475.897 Z-26.946
N12545 Y1485.327 Z-31.655
N12550 Y1489.242 Z-34.881
N12555 G3 Y1492.359 Z-33.41 J1.211 K1.47 F1000.
N12560 G0 Z5.
N12565 X234.193 Y1541.113
N12570 Z-33.425
N12575 G1 Z-37.471 F1000.
N12580 G2 Y1538.27 Z-38.577 J-1.637 K0.
N12585 G1 Y1535.74 Z-35.819 F6000.
N12590 Y1531.021 Z-32.652
N12595 Y1523.889 Z-29.292
N12600 Y1513.518 Z-25.523
N12605 Y1497.462 Z-21.178
N12610 Y1481.117 Z-17.927
N12615 Y1453.559 Z-13.74
N12620 Y1411.703 Z-9.434
N12625 Y1376.126 Z-7.244
N12630 Y1287.225 Z-3.93
N12635 Y1188.662 Z-1.993
N12640 Y1088.166 Z-1.642
N12645 Y966.411 Z-3.159
N12650 Y862.05 Z-5.91
N12655 Y759.622 Z-10.29
N12660 Y661.058 Z-16.134
N12665 Y593.717 Z-21.111
N12670 Y561.879 Z-24.565
N12675 Y538.358 Z-28.501
N12680 Y521.814 Z-32.587
N12685 Y511.692 Z-36.458
N12690 Y504.235 Z-41.281
N12695 Y501.085 Z-43.985
N12700 Y499.309 Z-46.532
N12705 Y498.483 Z-49.019
N12710 G2 Y497.531 Z-48.865 J-0.464 K0.154 F1000.
N12715 G0 Z5.
N12720 X224.194 Y442.866
N12725 Z-42.286
N12730 G1 Z-53.335 F1000.
N12735 G3 Y443.774 Z-53.492 J0.467 K0.
N12740 G1 Y445.264 Z-49.312 F6000.
N12745 Y449.121 Z-45.04
N12750 Y452.903 Z-42.101
N12755 Y460.97 Z-38.615
N12760 Y474.084 Z-34.844
N12765 Y494.13 Z-30.908
N12770 Y519.923 Z-27.601
N12775 Y585.108 Z-21.931
N12780 Y650.601 Z-17.
N12785 Y749.164 Z-10.97
N12790 Y849.66 Z-6.475
N12795 Y950.156 Z-3.615
N12800 Y1075.776 Z-1.835
N12805 Y1174.339 Z-1.969
N12810 Y1274.835 Z-3.717
N12815 Y1365.668 Z-6.869
N12820 Y1448.771 Z-11.342
N12825 Y1477.746 Z-13.744
N12830 Y1504.512 Z-17.052
N12835 Y1526.8 Z-20.793
N12840 Y1546.719 Z-25.341
N12845 Y1558.904 Z-29.19
N12850 Y1570.616 Z-34.116
N12855 Y1577.802 Z-38.969
N12860 Y1580.668 Z-42.266
N12865 G3 Y1583.182 Z-41.326 J1.081 K0.94 F1000.
N12870 G0 Z5.
N12875 X214.196 Y1618.569
N12880 Z-39.618
N12885 G1 Z-44.604 F1000.
N12890 G2 Y1616.748 Z-45.183 J-1.003 K0.
N12895 G1 Y1614.407 Z-41.878 F6000.
N12900 Y1609.917 Z-38.517
N12905 Y1597.614 Z-32.498
N12910 Y1587.307 Z-29.11
N12915 Y1571.595 Z-24.954
N12920 Y1547.816 Z-20.515
N12925 Y1524.117 Z-17.186
N12930 Y1464.239 Z-12.441
N12935 Y1383.069 Z-7.773
N12940 Y1292.236 Z-4.318
N12945 Y1193.673 Z-2.3
N12950 Y1093.177 Z-1.858
N12955 Y967.557 Z-3.375
N12960 Y865.128 Z-6.039
N12965 Y764.632 Z-10.29
N12970 Y664.136 Z-16.206
N12975 Y590.838 Z-21.616
N12980 Y515.437 Z-28.137
N12985 Y455.714 Z-34.006
N12990 Y433.753 Z-37.398
N12995 Y417.171 Z-41.305
N13000 Y405.895 Z-45.302
N13005 Y399.688 Z-48.902
N13010 Y397.537 Z-51.401
N13015 Y395.672 Z-57.145
N13020 G2 Y394.946 Z-57.03 J-0.354 K0.115 F1000.
N13025 G0 Z5.
N13030 X204.197 Y349.812
N13035 Z-51.812
N13040 G1 Z-60.1 F1000.
N13045 G3 Y351.265 Z-60.36 J0.75 K0.
N13050 G1 Y352.66 Z-56.586 F6000.
N13055 Y354.534 Z-54.051
N13060 Y358.984 Z-51.068
N13065 Y366.867 Z-47.679
N13070 Y381.645 Z-43.497
N13075 Y401.771 Z-39.894
N13080 Y438.819 Z-35.816
N13085 Y518.691 Z-27.986
N13090 Y592.375 Z-21.622
N13095 Y661.779 Z-16.482
N13100 Y760.342 Z-10.614
N13105 Y862.771 Z-6.218
N13110 Y965.2 Z-3.531
N13115 Y1092.752 Z-1.971
N13120 Y1191.315 Z-2.388
N13125 Y1291.811 Z-4.423
N13130 Y1382.644 Z-7.857
N13135 Y1463.814 Z-12.492
N13140 Y1537.254 Z-18.268
N13145 Y1573.78 Z-22.049
N13150 Y1597.168 Z-26.123
N13155 Y1616.518 Z-30.763
N13160 Y1631.813 Z-36.029
N13165 Y1642.384 Z-41.527
N13170 Y1647.2 Z-45.296
N13175 Y1648.997 Z-47.998
N13180 G3 Y1650.977 Z-47.399 J0.9 K0.598 F1000.
N13185 G0 Z5.
N13190 X194.199 Y1679.614
N13195 Z-46.735
N13200 G1 Z-50.508 F1000.
N13205 G2 Y1677.727 Z-51.089 J-1.033 K0.
N13210 G1 Y1675.968 Z-48.504 F6000.
N13215 Y1671.265 Z-44.687
N13220 Y1662.222 Z-39.592
N13225 Y1651.995 Z-35.713
N13230 Y1645.162 Z-33.448
N13235 Y1630.483 Z-29.836
N13240 Y1614.155 Z-26.596
N13245 Y1599.016 Z-24.605
N13250 Y1533.323 Z-17.969
N13255 Y1479.379 Z-13.654
N13260 Y1400.141 Z-8.816
N13265 Y1311.241 Z-5.133
N13270 Y1212.678 Z-2.8
N13275 Y1110.249 Z-2.024
N13280 Y986.562 Z-3.239
N13285 Y878.335 Z-5.788
N13290 Y777.839 Z-9.832
N13295 Y679.276 Z-15.417
N13300 Y600.128 Z-21.11
N13305 Y526.329 Z-27.41
N13310 Y446.398 Z-35.19
N13315 Y362.36 Z-44.327
N13320 Y343.809 Z-47.369
N13325 Y330.612 Z-50.822
N13330 Y321.052 Z-54.603
N13335 Y316.53 Z-57.296
N13340 Y313.79 Z-59.959
N13345 Y312.521 Z-63.623
N13350 G2 Y311.364 Z-63.428 J-0.562 K0.195 F1000.
N13355 G0 Z5.
N13360 X184.201 Y275.89
N13365 Z-60.459
N13370 G1 Z-66.49 F1000.
N13375 G3 Y277.39 Z-66.702 J0.765 K0.
N13380 G1 Y277.866 Z-65.056 F6000.
N13385 Y279.76 Z-62.6
N13390 Y282.587 Z-60.418
N13395 Y288.724 Z-57.213
N13400 Y300.058 Z-53.371
N13405 Y316.108 Z-49.997
N13410 Y358.885 Z-44.875
N13415 Y448.681 Z-35.087
N13420 Y528.577 Z-27.305
N13425 Y600.408 Z-21.174
N13430 Y677.613 Z-15.602
N13435 Y776.177 Z-9.989
N13440 Y876.673 Z-5.919
N13445 Y981.034 Z-3.421
N13450 Y1108.586 Z-2.127
N13455 Y1211.015 Z-2.885
N13460 Y1309.578 Z-5.186
N13465 Y1398.479 Z-8.826
N13470 Y1479.648 Z-13.745
N13475 Y1550.883 Z-19.63
N13480 Y1604.641 Z-25.28
N13485 Y1642.652 Z-30.059
N13490 Y1655.663 Z-32.418
N13495 Y1671.77 Z-36.501
N13500 Y1682.984 Z-40.419
N13505 Y1691.9 Z-44.554
N13510 Y1699.366 Z-49.888
N13515 Y1702.863 Z-54.147
N13520 G3 Y1705.386 Z-53.244 J1.1 K0.903 F1000.
N13525 G0 Z5.
N13530 X174.202 Y1726.692
N13535 Z-54.183
N13540 G1 Z-56.013 F1000.
N13545 G2 Y1724.097 Z-56.873 J-1.44 K0.
N13550 G1 Y1721.172 Z-52.948 F6000.
N13555 Y1715.759 Z-48.537
N13560 Y1705.889 Z-43.37
N13565 Y1692.749 Z-38.791
N13570 Y1679.133 Z-35.41
N13575 Y1648.207 Z-30.819
N13580 Y1610.661 Z-26.013
N13585 Y1560.888 Z-20.638
N13590 Y1499.151 Z-15.26
N13595 Y1421.847 Z-10.155
N13600 Y1334.879 Z-6.157
N13605 Y1238.248 Z-3.463
N13610 Y1131.954 Z-2.239
N13615 Y1027.593 Z-2.867
N13620 Y909.704 Z-5.017
N13625 Y809.208 Z-8.535
N13630 Y708.712 Z-13.711
N13635 Y614.014 Z-20.182
N13640 Y543.793 Z-26.009
N13645 Y467.272 Z-33.289
N13650 Y382.314 Z-42.373
N13655 Y286.578 Z-53.565
N13660 Y271.44 Z-56.226
N13665 Y259.966 Z-59.574
N13670 Y252.102 Z-63.092
N13675 Y247.77 Z-66.09
N13680 Y246.409 Z-67.524
N13685 Y245.018 Z-70.418
N13690 G2 Y243.743 Z-70.128 J-0.605 K0.29 F1000.
N13695 G0 Z5.
N13700 X164.204 Y213.167
N13705 Z-68.669
N13710 G1 Z-73.495 F1000.
N13715 G3 Y214.927 Z-73.931 J0.934 K0.
N13720 G1 Y216.439 Z-71.068 F6000.
N13725 Y219.164 Z-68.548
N13730 Y225.226 Z-65.087
N13735 Y235.702 Z-61.304
N13740 Y249.877 Z-58.276
N13745 Y344.781 Z-46.808
N13750 Y434.712 Z-36.74
N13755 Y512.414 Z-28.944
N13760 Y586.046 Z-22.44
N13765 Y649.538 Z-17.614
N13770 Y748.101 Z-11.525
N13775 Y848.597 Z-7.007
N13780 Y945.228 Z-4.268
N13785 Y1078.579 Z-2.446
N13790 Y1171.344 Z-2.599
N13795 Y1275.705 Z-4.411
N13800 Y1368.471 Z-7.597
N13805 Y1451.573 Z-11.999
N13810 Y1526.945 Z-17.574
N13815 Y1592.654 Z-23.979
N13820 Y1632.82 Z-28.776
N13825 Y1670.45 Z-34.022
N13830 Y1703.804 Z-39.409
N13835 Y1715.037 Z-42.191
N13840 Y1725.63 Z-46.162
N13845 Y1734.26 Z-50.877
N13850 Y1739.378 Z-54.87
N13855 Y1742.873 Z-59.53
N13860 G3 Y1745.557 Z-58.635 J1.193 K0.895 F1000.
N13865 G0 Z5.
N13870 X114.212 Y1819.505
N13875 Z-72.949
N13880 G1 Z-73.095 F1000.
N13885 G3 Y1821.41 Z-75. J1.905 K0.
N13890 G1 Y1833.209 F6000.
N13895 G3 Y1833.505 Z-74.704 J0. K0.296 F1000.
N13900 G0 Z5.
N13905 X164.204 Y209.048
N13910 Z-73.095
N13915 G2 Y207.143 Z-75. J-1.905 K0. F1000.
N13920 G1 Y200.499 F6000.
N13925 G2 Y199.547 Z-74.048 J0. K0.952 F1000.
N13930 G1 X164.202 Y199.54 Z-73.933
N13935 X164.194 Y199.521 Z-73.82
N13940 X164.182 Y199.489 Z-73.71
N13945 X164.166 Y199.444 Z-73.605
N13950 X164.145 Y199.389 Z-73.506
N13955 X164.12 Y199.322 Z-73.416
N13960 X164.092 Y199.246 Z-73.335
N13965 X164.06 Y199.161 Z-73.264
N13970 X164.026 Y199.069 Z-73.204
N13975 X163.989 Y198.971 Z-73.157
N13980 X163.951 Y198.868 Z-73.123
N13985 X163.911 Y198.762 Z-73.102
N13990 X163.871 Y198.654 Z-73.095
N13995 X154.539 Y173.637 F6000.
N14000 X154.498 Y173.529 Z-73.102 F1000.
N14005 X154.459 Y173.423 Z-73.123
N14010 X154.421 Y173.321 Z-73.157
N14015 X154.384 Y173.222 Z-73.204
N14020 X154.349 Y173.13 Z-73.264
N14025 X154.318 Y173.045 Z-73.335
N14030 X154.289 Y172.969 Z-73.416
N14035 X154.265 Y172.903 Z-73.506
N14040 X154.244 Y172.847 Z-73.605
N14045 X154.227 Y172.803 Z-73.71
N14050 X154.215 Y172.771 Z-73.82
N14055 X154.208 Y172.751 Z-73.933
N14060 X154.206 Y172.745 Z-74.048
N14065 Z-74.062
N14070 G3 Y173.683 Z-75. J0.938 K0.
N14075 G1 Y187.595 F6000.
N14080 Y191.199 Z-71.827
N14085 Y198.426 Z-67.903
N14090 Y208.153 Z-64.59
N14095 Y221.534 Z-61.906
N14100 Y345.152 Z-46.874
N14105 Y433.077 Z-36.972
N14110 Y513.323 Z-28.89
N14115 Y586.705 Z-22.413
N14120 Y652.1 Z-17.457
N14125 Y750.663 Z-11.42
N14130 Y851.159 Z-6.956
N14135 Y947.79 Z-4.28
N14140 Y1081.14 Z-2.514
N14145 Y1173.906 Z-2.717
N14150 Y1278.267 Z-4.572
N14155 Y1371.033 Z-7.793
N14160 Y1454.135 Z-12.232
N14165 Y1529.507 Z-17.843
N14170 Y1582.952 Z-22.959
N14175 Y1624.825 Z-27.777
N14180 Y1662.566 Z-32.857
N14185 Y1696.25 Z-38.098
N14190 Y1726.073 Z-43.424
N14195 Y1735.163 Z-45.721
N14200 Y1746.305 Z-50.599
N14205 Y1753.161 Z-54.801
N14210 Y1757.351 Z-58.949
N14215 Y1759.457 Z-62.126
N14220 G3 Y1760.251 Z-62.552 J0.794 K0.526
N14225 G1 Y1775.281
N14230 X154.111 Y1776.021 Z-62.576
N14235 X153.835 Y1776.71 Z-62.647
N14240 X153.395 Y1777.302 Z-62.76
N14245 X152.822 Y1777.756 Z-62.908
N14250 X152.154 Y1778.042 Z-63.079
N14255 X151.438 Y1778.139 Z-63.263
N14260 X146.975 Z-64.409
N14265 X146.259 Y1778.042 Z-64.593
N14270 X145.591 Y1777.756 Z-64.764
N14275 X145.018 Y1777.302 Z-64.911
N14280 X144.578 Y1776.71 Z-65.024
N14285 X144.302 Y1776.021 Z-65.095
N14290 X144.207 Y1775.281 Z-65.119
N14295 G2 Y1774.511 Z-64.727 J0. K0.952
N14300 G1 Y1770.619 Z-59.376
N14305 Y1764.147 Z-54.489
N14310 Y1756.871 Z-50.721
N14315 Y1748.223 Z-47.837
N14320 Y1722.243 Z-42.66
N14325 Y1688.661 Z-36.841
N14330 Y1651.173 Z-31.248
N14335 Y1610.289 Z-26.036
N14340 Y1546.092 Z-19.362
N14345 Y1495.967 Z-15.192
N14350 Y1416.729 Z-10.104
N14355 Y1327.829 Z-6.173
N14360 Y1229.266 Z-3.579
N14365 Y1122.972 Z-2.479
N14370 Y1007.015 Z-3.356
N14375 Y894.923 Z-5.569
N14380 Y794.427 Z-9.289
N14385 Y695.864 Z-14.575
N14390 Y608.941 Z-20.646
N14395 Y540.473 Z-26.395
N14400 Y465.704 Z-33.59
N14405 Y384.704 Z-42.353
N14410 Y297.417 Z-52.712
N14415 Y191.206 Z-65.896
N14420 Y178.723 Z-68.69
N14425 Y169.906 Z-72.035
N14430 Y164.752 Z-75.
N14435 Y149.186
N14440 G2 Y148.598 Z-74.12 J0.365 K0.88 F1000.
N14445 G1 X144.204 Y148.591 Z-74.005
N14450 X144.196 Y148.572 Z-73.892
N14455 X144.182 Y148.541 Z-73.782
N14460 X144.162 Y148.498 Z-73.677
N14465 X144.138 Y148.444 Z-73.579
N14470 X144.108 Y148.38 Z-73.488
N14475 X144.075 Y148.306 Z-73.407
N14480 X144.037 Y148.223 Z-73.336
N14485 X143.996 Y148.133 Z-73.277
N14490 X143.953 Y148.038 Z-73.229
N14495 X143.908 Y147.938 Z-73.195
N14500 X143.861 Y147.835 Z-73.174
N14505 X143.813 Y147.73 Z-73.168
N14510 X134.603 Y127.465 F6000.
N14515 X134.556 Y127.361 Z-73.174 F1000.
N14520 X134.509 Y127.258 Z-73.195
N14525 X134.463 Y127.158 Z-73.229
N14530 X134.42 Y127.062 Z-73.277
N14535 X134.379 Y126.973 Z-73.336
N14540 X134.342 Y126.89 Z-73.407
N14545 X134.308 Y126.816 Z-73.488
N14550 X134.279 Y126.752 Z-73.579
N14555 X134.254 Y126.698 Z-73.677
N14560 X134.235 Y126.655 Z-73.782
N14565 X134.22 Y126.623 Z-73.892
N14570 X134.212 Y126.605 Z-74.005
N14575 X134.209 Y126.598 Z-74.12
N14580 G3 Y127.186 Z-75. J0.952 K0.
N14585 G1 Y144.821 F6000.
N14590 Y151.891 Z-72.323
N14595 Y163.51 Z-69.551
N14600 Y204.239 Z-64.435
N14605 Y343.573 Z-47.176
N14610 Y433.324 Z-36.971
N14615 Y512.486 Z-28.971
N14620 Y586.187 Z-22.442
N14625 Y649.565 Z-17.624
N14630 Y746.196 Z-11.669
N14635 Y846.692 Z-7.156
N14640 Y943.323 Z-4.449
N14645 Y1074.741 Z-2.704
N14650 Y1167.506 Z-2.822
N14655 Y1273.8 Z-4.631
N14660 Y1368.498 Z-7.839
N14665 Y1453.533 Z-12.32
N14670 Y1528.905 Z-17.883
N14675 Y1590.53 Z-23.83
N14680 Y1632.296 Z-28.75
N14685 Y1669.575 Z-33.886
N14690 Y1703.237 Z-39.247
N14695 Y1733.039 Z-44.689
N14700 Y1758.988 Z-50.09
N14705 Y1768.108 Z-52.337
N14710 Y1774.88 Z-55.262
N14715 Y1781.083 Z-59.296
N14720 Y1784.892 Z-62.594
N14725 Y1788.085 Z-67.349
N14730 G3 Y1788.875 Z-67.771 J0.791 K0.531
N14735 G1 Y1801.216
N14740 X134.115 Y1801.955 Z-67.796
N14745 X133.839 Y1802.644 Z-67.869
N14750 X133.4 Y1803.236 Z-67.985
N14755 X132.828 Y1803.69 Z-68.136
N14760 X132.161 Y1803.976 Z-68.312
N14765 X131.446 Y1804.073 Z-68.502
N14770 X126.973 Z-69.684
N14775 X126.258 Y1803.976 Z-69.873
N14780 X125.592 Y1803.69 Z-70.05
N14785 X125.02 Y1803.236 Z-70.201
N14790 X124.581 Y1802.644 Z-70.317
N14795 X124.305 Y1801.955 Z-70.39
N14800 X124.211 Y1801.216 Z-70.415
N14805 G2 Y1800.421 Z-69.987 J0. K0.952
N14810 G1 Y1797.08 Z-64.922
N14815 Y1789.571 Z-58.963
N14820 Y1782.955 Z-55.839
N14825 Y1773.881 Z-53.453
N14830 Y1748.016 Z-47.678
N14835 Y1718.282 Z-41.883
N14840 Y1684.679 Z-36.193
N14845 Y1647.152 Z-30.713
N14850 Y1607.603 Z-25.765
N14855 Y1542.317 Z-19.095
N14860 Y1468.877 Z-13.372
N14865 Y1385.775 Z-8.686
N14870 Y1293.009 Z-5.226
N14875 Y1190.581 Z-3.15
N14880 Y1093.95 Z-2.663
N14885 Y956.734 Z-4.235
N14890 Y862.036 Z-6.622
N14895 Y763.473 Z-10.757
N14900 Y666.842 Z-16.413
N14905 Y601.315 Z-21.193
N14910 Y532.701 Z-27.041
N14915 Y456.428 Z-34.508
N14920 Y376.041 Z-43.358
N14925 Y285.549 Z-54.314
N14930 Y138.063 Z-72.879
N14935 Y128.092 Z-75.
N14940 Y107.406
N14945 G2 Y106.818 Z-74.12 J0.365 K0.88 F1000.
N14950 G1 X124.207 Y106.812 Z-74.005
N14955 X124.197 Y106.794 Z-73.892
N14960 X124.18 Y106.765 Z-73.782
N14965 X124.157 Y106.724 Z-73.677
N14970 X124.127 Y106.672 Z-73.579
N14975 X124.092 Y106.61 Z-73.488
N14980 X124.052 Y106.54 Z-73.407
N14985 X124.007 Y106.461 Z-73.336
N14990 X123.958 Y106.375 Z-73.277
N14995 X123.906 Y106.284 Z-73.229
N15000 X123.852 Y106.189 Z-73.195
N15005 X123.796 Y106.09 Z-73.174
N15010 X123.739 Y105.991 Z-73.168
N15015 X114.684 Y90.096 F6000.
N15020 X114.627 Y89.997 Z-73.174 F1000.
N15025 X114.571 Y89.898 Z-73.195
N15030 X114.517 Y89.803 Z-73.229
N15035 X114.465 Y89.712 Z-73.277
N15040 X114.416 Y89.626 Z-73.336
N15045 X114.371 Y89.548 Z-73.407
N15050 X114.331 Y89.477 Z-73.488
N15055 X114.296 Y89.415 Z-73.579
N15060 X114.266 Y89.364 Z-73.677
N15065 X114.243 Y89.323 Z-73.782
N15070 X114.226 Y89.293 Z-73.892
N15075 X114.216 Y89.275 Z-74.005
N15080 X114.212 Y89.269 Z-74.12
N15085 G3 Y89.857 Z-75. J0.952 K0.
N15090 G1 Y121.073 F6000.
N15095 Y301.192 Z-52.372
N15100 Y381.437 Z-42.704
N15105 Y459.479 Z-34.126
N15110 Y530.814 Z-27.16
N15115 Y598.647 Z-21.345
N15120 Y675.794 Z-15.772
N15125 Y772.425 Z-10.284
N15130 Y870.988 Z-6.331
N15135 Y971.484 Z-3.987
N15140 Y1108.7 Z-2.69
N15145 Y1214.994 Z-3.573
N15150 Y1315.49 Z-5.984
N15155 Y1406.323 Z-9.751
N15160 Y1487.492 Z-14.716
N15165 Y1539.451 Z-18.875
N15170 Y1605.148 Z-25.5
N15175 Y1644.755 Z-30.397
N15180 Y1682.303 Z-35.815
N15185 Y1715.918 Z-41.438
N15190 Y1745.666 Z-47.156
N15195 Y1771.554 Z-52.838
N15200 Y1793.58 Z-58.357
N15205 Y1798.753 Z-60.25
N15210 Y1803.428 Z-63.055
N15215 Y1808.779 Z-67.924
N15220 Y1811.581 Z-72.524
N15225 G3 Y1814.046 Z-71.832 J1.135 K0.692 F1000.
N15230 G0 Z5.
N15235 X104.214 Y1845.538
N15240 Z-2.749
N15245 G1 Z-74.708 F1000.
N15250 G2 Y1845.246 Z-75. J-0.292 K0.
N15255 G1 Y1821.864 Z-74.998 F6000.
N15260 Y1819.156 Z-70.489
N15265 Y1813.936 Z-65.521
N15270 Y1808.378 Z-62.518
N15275 Y1799.418 Z-59.825
N15280 Y1777.423 Z-54.18
N15285 Y1751.568 Z-48.356
N15290 Y1721.847 Z-42.499
N15295 Y1688.253 Z-36.747
N15300 Y1650.743 Z-31.213
N15305 Y1611.249 Z-26.223
N15310 Y1563.347 Z-21.12
N15315 Y1511.536 Z-16.573
N15320 Y1434.231 Z-11.323
N15325 Y1347.264 Z-7.176
N15330 Y1250.633 Z-4.308
N15335 Y1140.474 Z-2.827
N15340 Y1038.045 Z-3.19
N15345 Y920.156 Z-4.973
N15350 Y821.593 Z-8.072
N15355 Y723.029 Z-12.825
N15360 Y628.331 Z-18.988
N15365 Y563.061 Z-24.198
N15370 Y490.033 Z-30.955
N15375 Y417.549 Z-38.535
N15380 Y339.556 Z-47.597
N15385 Y246.152 Z-59.368
N15390 Y123.025 Z-75.
N15395 Y84.707
N15400 G0 Z5.
N15405 X94.216 Y84.676
N15410 Z-3.13
N15415 G1 Z-75. F1000.
N15420 Y124.946 F6000.
N15425 Y309.182 Z-51.252
N15430 Y390.32 Z-41.503
N15435 Y468.354 Z-33.018
N15440 Y541.73 Z-25.963
N15445 Y609.927 Z-20.275
N15450 Y700.685 Z-14.063
N15455 Y799.248 Z-8.954
N15460 Y897.812 Z-5.505
N15465 Y1011.836 Z-3.491
N15470 Y1127.793 Z-2.823
N15475 Y1237.952 Z-4.113
N15480 Y1336.515 Z-6.833
N15485 Y1425.416 Z-10.872
N15490 Y1504.605 Z-16.069
N15495 Y1562.479 Z-21.061
N15500 Y1611.597 Z-26.278
N15505 Y1649.209 Z-31.01
N15510 Y1686.732 Z-36.501
N15515 Y1720.334 Z-42.206
N15520 Y1750.066 Z-48.013
N15525 Y1775.932 Z-53.777
N15530 Y1797.95 Z-59.343
N15535 Y1816.127 Z-64.572
N15540 Y1821.197 Z-66.592
N15545 Y1825.62 Z-69.642
N15550 Y1830.04 Z-74.877
N15555 Y1856.533 Z-75.
N15560 G3 Y1856.812 Z-74.326 J-0.674 K0.674 F1000.
N15565 G1 X94.211 Y1856.817 Z-74.212
N15570 X94.197 Y1856.832 Z-74.099
N15575 X94.173 Y1856.857 Z-73.989
N15580 X94.141 Y1856.891 Z-73.884
N15585 X94.1 Y1856.934 Z-73.785
N15590 X94.051 Y1856.986 Z-73.695
N15595 X93.996 Y1857.045 Z-73.614
N15600 X93.933 Y1857.111 Z-73.543
N15605 X93.866 Y1857.183 Z-73.483
N15610 X93.794 Y1857.259 Z-73.436
N15615 X93.719 Y1857.339 Z-73.402
N15620 X93.641 Y1857.422 Z-73.381
N15625 X93.563 Y1857.505 Z-73.374
N15630 X84.87 Y1866.738 F6000.
N15635 X84.791 Y1866.822 Z-73.381 F1000.
N15640 X84.714 Y1866.904 Z-73.402
N15645 X84.639 Y1866.984 Z-73.436
N15650 X84.567 Y1867.06 Z-73.483
N15655 X84.499 Y1867.132 Z-73.543
N15660 X84.437 Y1867.198 Z-73.614
N15665 X84.381 Y1867.257 Z-73.695
N15670 X84.333 Y1867.309 Z-73.785
N15675 X84.292 Y1867.352 Z-73.884
N15680 X84.26 Y1867.386 Z-73.989
N15685 X84.236 Y1867.411 Z-74.099
N15690 X84.222 Y1867.426 Z-74.212
N15695 X84.217 Y1867.431 Z-74.326
N15700 G2 Y1867.152 Z-75. J-0.953 K0.
N15705 G1 Y1837.073 Z-74.851 F6000.
N15710 Y1833.409 Z-71.23
N15715 Y1827.928 Z-68.23
N15720 Y1814.493 Z-63.947
N15725 Y1792.612 Z-57.875
N15730 Y1766.855 Z-51.638
N15735 Y1740.93 Z-46.123
N15740 Y1711.153 Z-40.554
N15745 Y1677.513 Z-35.071
N15750 Y1639.907 Z-29.78
N15755 Y1598.638 Z-24.819
N15760 Y1549.702 Z-19.885
N15765 Y1499.887 Z-15.746
N15770 Y1420.667 Z-10.655
N15775 Y1331.766 Z-6.712
N15780 Y1233.203 Z-4.074
N15785 Y1123.044 Z-2.856
N15790 Y999.357 Z-3.637
N15795 Y891.13 Z-5.645
N15800 Y792.567 Z-9.175
N15805 Y695.936 Z-14.243
N15810 Y608.994 Z-20.228
N15815 Y540.605 Z-25.937
N15820 Y468.047 Z-32.898
N15825 Y390.271 Z-41.349
N15830 Y313.004 Z-50.661
N15835 Y214.929 Z-63.384
N15840 Y125.41 Z-75.
N15845 Y84.663
N15850 G0 Z5.
N15855 X74.219 Y84.706
N15860 Z-3.24
N15865 G1 Z-75. F1000.
N15870 Y126.6 F6000.
N15875 Y163.258 Z-70.197
N15880 Y291.316 Z-53.207
N15885 Y369.866 Z-43.557
N15890 Y450.901 Z-34.505
N15895 Y523.491 Z-27.322
N15900 Y593.625 Z-21.274
N15905 Y659.247 Z-16.469
N15910 Y753.946 Z-10.91
N15915 Y850.576 Z-6.835
N15920 Y945.274 Z-4.433
N15925 Y1084.423 Z-2.938
N15930 Y1182.986 Z-3.362
N15935 Y1289.28 Z-5.426
N15940 Y1382.045 Z-8.781
N15945 Y1465.148 Z-13.341
N15950 Y1538.587 Z-18.912
N15955 Y1603.903 Z-25.421
N15960 Y1644.687 Z-30.414
N15965 Y1681.492 Z-35.678
N15970 Y1715.117 Z-41.243
N15975 Y1744.879 Z-46.901
N15980 Y1770.784 Z-52.506
N15985 Y1796.514 Z-58.852
N15990 Y1818.366 Z-65.024
N15995 Y1837.964 Z-71.603
N16000 Y1843.083 Z-74.901
N16005 Y1877.064 Z-75.
N16010 G3 Y1877.277 Z-74.787 J0.001 K0.213 F1000.
N16015 G0 Z5.
N16020 X64.22 Y1882.519
N16025 Z-53.158
N16030 G1 Z-75. F1000.
N16035 Y1846.944 Z-74.823 F6000.
N16040 Y1836.787 Z-70.886
N16045 Y1818.793 Z-65.083
N16050 Y1796.935 Z-58.923
N16055 Y1771.208 Z-52.579
N16060 Y1745.305 Z-46.97
N16065 Y1715.544 Z-41.31
N16070 Y1681.917 Z-35.741
N16075 Y1644.728 Z-30.424
N16080 Y1605.076 Z-25.565
N16085 Y1555.792 Z-20.49
N16090 Y1504.325 Z-16.137
N16095 Y1425.136 Z-10.978
N16100 Y1336.236 Z-6.966
N16105 Y1237.672 Z-4.258
N16110 Y1127.513 Z-2.96
N16115 Y1007.691 Z-3.548
N16120 Y895.6 Z-5.439
N16125 Y798.969 Z-8.721
N16130 Y702.338 Z-13.615
N16135 Y609.624 Z-19.871
N16140 Y542.746 Z-25.396
N16145 Y474.311 Z-31.873
N16150 Y404.305 Z-39.355
N16155 Y331.559 Z-47.969
N16160 Y247.722 Z-58.717
N16165 Y125.705 Z-75.
N16170 Y84.683
N16175 G0 Z5.
N16180 X54.222 Y84.68
N16185 Z-53.139
N16190 G1 Z-75. F1000.
N16195 Y124.178 F6000.
N16200 Y164.127 Z-69.78
N16205 Y288.675 Z-53.106
N16210 Y371.346 Z-42.864
N16215 Y453.319 Z-33.762
N16220 Y532.438 Z-26.1
N16225 Y600.62 Z-20.372
N16230 Y670.046 Z-15.435
N16235 Y764.744 Z-10.127
N16240 Y865.24 Z-6.203
N16245 Y963.803 Z-4.057
N16250 Y1101.535 Z-2.948
N16255 Y1209.761 Z-3.805
N16260 Y1312.19 Z-6.187
N16265 Y1403.023 Z-9.851
N16270 Y1484.193 Z-14.688
N16275 Y1536.227 Z-18.751
N16280 Y1601.936 Z-25.224
N16285 Y1642.77 Z-30.172
N16290 Y1679.599 Z-35.385
N16295 Y1712.854 Z-40.827
N16300 Y1742.628 Z-46.416
N16305 Y1768.547 Z-51.949
N16310 Y1794.297 Z-58.2
N16315 Y1816.186 Z-64.253
N16320 Y1834.239 Z-69.907
N16325 Y1848.087 Z-74.852
N16330 Y1882.489 Z-75.
N16335 G0 Z5.
N16340 X44.224
N16345 Z-53.22
N16350 G1 Z-75. F1000.
N16355 Y1848.333 Z-74.766 F6000.
N16360 Y1831.09 Z-68.8
N16365 Y1812.99 Z-63.281
N16370 Y1791.07 Z-57.346
N16375 Y1765.293 Z-51.199
N16380 Y1735.636 Z-45.025
N16385 Y1705.83 Z-39.608
N16390 Y1672.167 Z-34.269
N16395 Y1634.868 Z-29.154
N16400 Y1593.467 Z-24.303
N16405 Y1544.48 Z-19.49
N16410 Y1492.898 Z-15.328
N16415 Y1413.661 Z-10.422
N16420 Y1324.761 Z-6.631
N16425 Y1224.265 Z-4.077
N16430 Y1114.106 Z-2.981
N16435 Y980.755 Z-3.78
N16440 Y876.394 Z-5.791
N16445 Y777.831 Z-9.373
N16450 Y683.133 Z-14.426
N16455 Y605.968 Z-19.743
N16460 Y542.991 Z-24.918
N16465 Y472.664 Z-31.541
N16470 Y398.1 Z-39.494
N16475 Y324.273 Z-48.29
N16480 Y250.608 Z-57.751
N16485 Y123.185 Z-75.
N16490 Y84.714
N16495 G0 Z5.
N16500 X34.225 Y84.702
N16505 Z-53.183
N16510 G1 Z-75. F1000.
N16515 Y124.547 F6000.
N16520 Y127.655 Z-74.275
N16525 Y176.326 Z-67.494
N16530 Y259.78 Z-56.213
N16535 Y333.412 Z-46.825
N16540 Y407.458 Z-38.132
N16545 Y481.78 Z-30.321
N16550 Y551.115 Z-23.936
N16555 Y610.147 Z-19.19
N16560 Y673.757 Z-14.812
N16565 Y770.388 Z-9.557
N16570 Y867.019 Z-5.97
N16575 Y967.515 Z-3.921
N16580 Y1102.798 Z-2.995
N16585 Y1212.957 Z-3.921
N16590 Y1315.385 Z-6.344
N16595 Y1406.218 Z-10.062
N16600 Y1487.388 Z-14.951
N16605 Y1539.195 Z-19.036
N16610 Y1589.898 Z-23.929
N16615 Y1631.367 Z-28.718
N16620 Y1668.709 Z-33.761
N16625 Y1702.389 Z-39.022
N16630 Y1732.21 Z-44.358
N16635 Y1761.886 Z-50.434
N16640 Y1787.692 Z-56.476
N16645 Y1809.643 Z-62.299
N16650 Y1831.384 Z-68.846
N16655 Y1849.275 Z-74.996
N16660 Y1882.489 Z-75.
N16665 G0 Z5.
N16670 X24.227
N16675 Z-53.22
N16680 G1 Z-75. F1000.
N16685 Y1849.5 Z-74.996 F6000.
N16690 Y1831.595 Z-68.878
N16695 Y1809.852 Z-62.339
N16700 Y1787.9 Z-56.513
N16705 Y1762.095 Z-50.47
N16710 Y1732.418 Z-44.393
N16715 Y1702.597 Z-39.055
N16720 Y1668.916 Z-33.791
N16725 Y1631.578 Z-28.748
N16730 Y1589.325 Z-23.874
N16735 Y1540.073 Z-19.124
N16740 Y1488.354 Z-15.033
N16745 Y1407.184 Z-10.124
N16750 Y1316.351 Z-6.399
N16755 Y1215.855 Z-3.996
N16760 Y1109.562 Z-3.04
N16765 Y991.672 Z-3.602
N16770 Y895.041 Z-5.176
N16775 Y808.074 Z-7.812
N16780 Y713.375 Z-12.235
N16785 Y626.471 Z-17.73
N16790 Y570.857 Z-21.947
N16795 Y496.859 Z-28.493
N16800 Y419.826 Z-36.343
N16805 Y341.733 Z-45.334
N16810 Y264.255 Z-55.137
N16815 Y151.876 Z-70.446
N16820 Y135.002 Z-72.791
N16825 Y130.005 Z-74.437
N16830 Y128.863 Z-75.
N16835 Y84.666
N16840 G0 Z5.
N16845 X14.229 Y84.688
N16850 Z-53.154
N16855 G1 Z-75. F1000.
N16860 Y133.728 F6000.
N16865 Y137.669 Z-72.779
N16870 Y142.619 Z-71.196
N16875 Y162.443 Z-68.388
N16880 Y257.894 Z-55.414
N16885 Y335.377 Z-45.622
N16890 Y415.382 Z-36.41
N16895 Y497.826 Z-28.036
N16900 Y566.245 Z-22.035
N16905 Y629.444 Z-17.231
N16910 Y722.203 Z-11.53
N16915 Y816.901 Z-7.3
N16920 Y915.465 Z-4.645
N16925 Y1010.163 Z-3.404
N16930 Y1114.524 Z-3.085
N16935 Y1216.953 Z-4.06
N16940 Y1313.583 Z-6.319
N16945 Y1404.416 Z-9.993
N16950 Y1485.586 Z-14.844
N16955 Y1537.304 Z-18.889
N16960 Y1586.382 Z-23.57
N16965 Y1627.918 Z-28.298
N16970 Y1667.179 Z-33.541
N16975 Y1702.735 Z-39.077
N16980 Y1732.555 Z-44.416
N16985 Y1762.231 Z-50.496
N16990 Y1788.034 Z-56.54
N16995 Y1809.989 Z-62.365
N17000 Y1831.732 Z-68.897
N17005 Y1849.639 Z-74.997
N17010 Y1882.489 Z-75.
N17015 G0 Z5.
N17020 X4.23
N17025 Z-53.22
N17030 G1 Z-75. F1000.
N17035 Y1849.693 Z-74.995 F6000.
N17040 Y1828.187 Z-67.766
N17045 Y1806.404 Z-61.358
N17050 Y1784.424 Z-55.642
N17055 Y1758.595 Z-49.701
N17060 Y1728.899 Z-43.722
N17065 Y1695.327 Z-37.854
N17070 Y1661.611 Z-32.747
N17075 Y1624.167 Z-27.842
N17080 Y1580.635 Z-22.978
N17085 Y1511.406 Z-16.764
N17090 Y1434.101 Z-11.588
N17095 Y1347.134 Z-7.498
N17100 Y1248.57 Z-4.616
N17105 Y1124.883 Z-3.136
N17110 Y1015.099 Z-3.332
N17115 Y920.401 Z-4.477
N17120 Y812.175 Z-7.3
N17125 Y717.477 Z-11.54
N17130 Y622.779 Z-17.411
N17135 Y555.411 Z-22.596
N17140 Y483.149 Z-29.074
N17145 Y407.865 Z-36.813
N17150 Y331.322 Z-45.629
N17155 Y253.802 Z-55.395
N17160 Y150.69 Z-69.314
N17165 Y145.309 Z-70.171
N17170 Y141.214 Z-72.164
N17175 Y138.369 Z-75.
N17180 Y84.677
N17185 G0 Z5.
N17190 X-5.768 Y84.707
N17195 Z-53.193
N17200 G1 Z-75. F1000.
N17205 Y138.492 F6000.
N17210 Y141.81 Z-71.873
N17215 Y145.069 Z-70.363
N17220 Y150.419 Z-69.461
N17225 Y253.547 Z-55.52
N17230 Y331.051 Z-45.741
N17235 Y409.118 Z-36.746
N17240 Y482.748 Z-29.173
N17245 Y556.786 Z-22.524
N17250 Y624.131 Z-17.36
N17255 Y718.829 Z-11.511
N17260 Y813.527 Z-7.276
N17265 Y921.754 Z-4.458
N17270 Y1029.98 Z-3.2
N17275 Y1118.355 Z-3.125
N17280 Y1216.919 Z-4.109
N17285 Y1305.819 Z-6.085
N17290 Y1398.584 Z-9.717
N17295 Y1479.754 Z-14.447
N17300 Y1531.712 Z-18.412
N17305 Y1582.573 Z-23.178
N17310 Y1624.171 Z-27.842
N17315 Y1661.616 Z-32.747
N17320 Y1695.333 Z-37.855
N17325 Y1728.905 Z-43.723
N17330 Y1758.601 Z-49.702
N17335 Y1784.429 Z-55.644
N17340 Y1806.41 Z-61.361
N17345 Y1828.195 Z-67.769
N17350 Y1849.699 Z-74.999
N17355 Y1882.489 Z-75.
N17360 G0 Z5.
N17365 X-15.766
N17370 Z-53.22
N17375 G1 Z-75. F1000.
N17380 Y1849.622 Z-74.997 F6000.
N17385 Y1831.715 Z-68.895
N17390 Y1809.971 Z-62.361
N17395 Y1786.179 Z-56.079
N17400 Y1762.213 Z-50.493
N17405 Y1732.539 Z-44.413
N17410 Y1702.719 Z-39.074
N17415 Y1667.161 Z-33.538
N17420 Y1628.286 Z-28.34
N17425 Y1582.877 Z-23.205
N17430 Y1533.767 Z-18.584
N17435 Y1481.991 Z-14.591
N17440 Y1398.889 Z-9.719
N17445 Y1306.123 Z-6.086
N17450 Y1211.425 Z-3.979
N17455 Y1113.278 Z-3.083
N17460 Y1010.328 Z-3.412
N17465 Y915.63 Z-4.654
N17470 Y818.999 Z-7.257
N17475 Y722.369 Z-11.552
N17480 Y629.609 Z-17.26
N17485 Y556.878 Z-22.831
N17490 Y483.007 Z-29.512
N17495 Y409.524 Z-37.125
N17500 Y331.518 Z-46.174
N17505 Y254.065 Z-56.016
N17510 Y162.367 Z-68.503
N17515 Y140.846 Z-71.572
N17520 Y135.263 Z-73.651
N17525 Y132.847 Z-75.
N17530 Y84.682
N17535 G0 Z5.
N17540 X-25.765 Y84.696
N17545 Z-53.172
N17550 G1 Z-75. F1000.
N17555 Y128.202 F6000.
N17560 Y132.221 Z-73.398
N17565 Y147.692 Z-70.924
N17570 Y184.987 Z-65.935
N17575 Y280.057 Z-53.161
N17580 Y353.887 Z-43.95
N17585 Y432.475 Z-35.059
N17590 Y507.573 Z-27.57
N17595 Y568.261 Z-22.228
N17600 Y629.283 Z-17.554
N17605 Y714.312 Z-12.228
N17610 Y809.01 Z-7.802
N17615 Y895.978 Z-5.182
N17620 Y990.676 Z-3.623
N17625 Y1108.381 Z-3.04
N17630 Y1214.675 Z-3.973
N17635 Y1315.171 Z-6.356
N17640 Y1406.004 Z-10.065
N17645 Y1487.174 Z-14.947
N17650 Y1538.98 Z-19.026
N17655 Y1589.684 Z-23.911
N17660 Y1631.544 Z-28.743
N17665 Y1668.889 Z-33.787
N17670 Y1702.57 Z-39.051
N17675 Y1732.391 Z-44.388
N17680 Y1762.067 Z-50.466
N17685 Y1787.872 Z-56.508
N17690 Y1809.824 Z-62.334
N17695 Y1831.568 Z-68.873
N17700 Y1849.47 Z-74.996
N17705 Y1882.489 Z-75.
N17710 G0 Z5.
N17715 X-35.763
N17720 Z-53.22
N17725 G1 Z-75. F1000.
N17730 Y1849.231 Z-74.995 F6000.
N17735 Y1831.345 Z-68.84
N17740 Y1809.604 Z-62.291
N17745 Y1787.651 Z-56.468
N17750 Y1761.845 Z-50.427
N17755 Y1732.169 Z-44.351
N17760 Y1698.611 Z-38.395
N17765 Y1664.912 Z-33.213
N17770 Y1627.13 Z-28.192
N17775 Y1583.629 Z-23.267
N17780 Y1532.508 Z-18.459
N17785 Y1480.627 Z-14.474
N17790 Y1399.458 Z-9.723
N17795 Y1308.625 Z-6.13
N17800 Y1206.196 Z-3.811
N17805 Y1096.037 Z-2.993
N17810 Y958.821 Z-4.059
N17815 Y862.191 Z-6.125
N17820 Y765.56 Z-9.814
N17825 Y670.862 Z-15.023
N17830 Y611.117 Z-19.156
N17835 Y548.501 Z-24.201
N17840 Y476.155 Z-30.925
N17845 Y399.845 Z-39.054
N17850 Y325.516 Z-47.853
N17855 Y251.886 Z-57.278
N17860 Y134.268 Z-73.294
N17865 Y123.427 Z-75.
N17870 Y84.665
N17875 G0 Z5.
N17880 X-45.761 Y84.7
N17885 Z-53.18
N17890 G1 Z-75. F1000.
N17895 Y123.18 F6000.
N17900 Y237.179 Z-59.596
N17905 Y314.513 Z-49.54
N17910 Y397.955 Z-39.554
N17915 Y474.044 Z-31.442
N17920 Y540.181 Z-25.203
N17925 Y608.848 Z-19.548
N17930 Y697.714 Z-13.575
N17935 Y790.48 Z-8.858
N17940 Y887.11 Z-5.524
N17945 Y995.337 Z-3.629
N17950 Y1121.779 Z-2.995
N17955 Y1231.938 Z-4.213
N17960 Y1332.434 Z-6.888
N17965 Y1421.334 Z-10.821
N17970 Y1500.563 Z-15.893
N17975 Y1552.153 Z-20.182
N17980 Y1601.14 Z-25.142
N17985 Y1642.384 Z-30.124
N17990 Y1679.6 Z-35.384
N17995 Y1713.234 Z-40.888
N18000 Y1743.008 Z-46.482
N18005 Y1768.927 Z-52.021
N18010 Y1794.679 Z-58.278
N18015 Y1816.568 Z-64.329
N18020 Y1834.628 Z-69.97
N18025 Y1848.892 Z-74.997
N18030 Y1882.489 Z-75.
N18035 G0 Z5.
N18040 X-55.76
N18045 Z-53.22
N18050 G1 Z-75. F1000.
N18055 Y1848.359 Z-74.998 F6000.
N18060 Y1834.139 Z-69.887
N18065 Y1816.087 Z-64.231
N18070 Y1794.197 Z-58.179
N18075 Y1768.444 Z-51.928
N18080 Y1742.523 Z-46.397
N18085 Y1712.748 Z-40.809
N18090 Y1679.492 Z-35.369
N18095 Y1642.279 Z-30.107
N18100 Y1602.177 Z-25.249
N18105 Y1548.43 Z-19.828
N18110 Y1496.75 Z-15.589
N18115 Y1417.512 Z-10.592
N18120 Y1328.612 Z-6.725
N18125 Y1228.116 Z-4.105
N18130 Y1117.957 Z-2.957
N18135 Y984.607 Z-3.768
N18140 Y878.313 Z-5.835
N18145 Y779.75 Z-9.451
N18150 Y683.119 Z-14.641
N18155 Y607.814 Z-19.853
N18160 Y543.044 Z-25.182
N18165 Y470.017 Z-32.124
N18170 Y396.698 Z-39.981
N18175 Y324.408 Z-48.62
N18180 Y241.075 Z-59.422
N18185 Y125.318 Z-75.
N18190 Y84.719
N18195 G0 Z5.
N18200 X-65.758 Y84.691
N18205 Z-6.384
N18210 G1 Z-75. F1000.
N18215 Y125.215 F6000.
N18220 Y245.608 Z-59.029
N18225 Y326.373 Z-48.652
N18230 Y398.992 Z-39.989
N18235 Y472.458 Z-32.097
N18240 Y542.825 Z-25.416
N18245 Y609.729 Z-19.886
N18250 Y696.645 Z-13.976
N18255 Y793.276 Z-8.983
N18260 Y891.839 Z-5.548
N18265 Y1000.066 Z-3.633
N18270 Y1123.753 Z-2.943
N18275 Y1233.912 Z-4.181
N18280 Y1334.408 Z-6.894
N18285 Y1423.308 Z-10.874
N18290 Y1502.546 Z-15.998
N18295 Y1573.086 Z-22.158
N18300 Y1625.298 Z-27.947
N18305 Y1662.718 Z-32.897
N18310 Y1696.423 Z-38.047
N18315 Y1729.987 Z-43.964
N18320 Y1759.671 Z-49.997
N18325 Y1785.488 Z-55.999
N18330 Y1809.266 Z-62.305
N18335 Y1829.179 Z-68.345
N18340 Y1843.425 Z-73.359
N18345 Y1846.556 Z-74.848
N18350 Y1882.535 Z-75.
N18355 G0 Z5.
N18360 X-75.757 Y1875.795
N18365 Z-2.824
N18370 G1 Z-74.787 F1000.
N18375 G2 Y1875.581 Z-75. J-0.213 K0.
N18380 G1 Y1842.201 Z-74.839 F6000.
N18385 Y1838.059 Z-71.865
N18390 Y1833.024 Z-69.784
N18395 Y1818.644 Z-65.121
N18400 Y1796.796 Z-58.933
N18405 Y1771.074 Z-52.577
N18410 Y1745.173 Z-46.964
N18415 Y1715.413 Z-41.297
N18420 Y1681.788 Z-35.724
N18425 Y1644.983 Z-30.452
N18430 Y1604.202 Z-25.453
N18435 Y1555.338 Z-20.425
N18440 Y1505.803 Z-16.219
N18445 Y1428.547 Z-11.124
N18450 Y1341.579 Z-7.11
N18455 Y1243.016 Z-4.31
N18460 Y1132.857 Z-2.933
N18465 Y1020.765 Z-3.421
N18470 Y904.808 Z-5.268
N18475 Y806.245 Z-8.521
N18480 Y709.614 Z-13.332
N18485 Y614.935 Z-19.656
N18490 Y548.308 Z-25.102
N18495 Y475.612 Z-31.983
N18500 Y396.179 Z-40.536
N18505 Y323.461 Z-49.202
N18510 Y249.835 Z-58.643
N18515 Y126.376 Z-75.
N18520 Y84.7
N18525 G0 Z5.
N18530 X-85.755 Y84.718
N18535 Z-3.216
N18540 G1 Z-75. F1000.
N18545 Y125.725 F6000.
