%
(1001)
(T5  D=19.05 CR=9.525 - ZMIN=-100.427 - BALL END MILL)
N10 G90 G94 G17 G91.1
N15 G21
N20 G53 G0 Z0.
(PARALLEL3)
N25 M9
N30 T5 M6
N35 S24000 M3
N40 G54
N45 G0 X284.323 Y950.765
N50 G43 Z15. H5
N55 G0 Z0.834
N60 G1 Z0.704 F1000.
N65 G19 G2 Y948.885 Z-1.201 J-1.905 K0.
N70 G1 Y906.169 Z-1.754 F4000.
N75 G2 Y904.239 Z0.15 J-0.025 K1.905 F1000.
N80 G0 Z5.
N85 X269.327 Y603.658
N90 Z-10.675
N95 G3 Y605.672 Z-12.577 J1.905 K0. F1000.
N100 G1 Y638.935 Z-10.663 F4000.
N105 Y828.672 Z-3.082
N110 Y1025.524 Z-0.456
N115 Y1136.834 Z-0.519
N120 Y1328.943 Z-7.465
N125 G3 Y1330.917 Z-5.561 J0.069 K1.904 F1000.
N130 G0 Z5.
N135 X254.331 Y1430.398
N140 Z-11.497
N145 G2 Y1428.368 Z-13.397 J-1.905 K0. F1000.
N150 G1 Y1357.217 Z-8.722 F4000.
N155 Y1139.02 Z-0.537
N160 Y1060.969 Z-0.209
N165 Y833.285 Z-2.926
N170 Y641.176 Z-10.544
N175 Y522.591 Z-18.563
N180 Y491.191 Z-21.137
N185 G2 Y489.13 Z-19.238 J-0.156 K1.899 F1000.
N190 G0 Z5.
N195 X239.335 Y400.092
N200 Z-23.095
N205 G3 Y401.997 Z-25. J1.905 K0. F1000.
N210 G1 Y440.428 F4000.
N215 Y518.695 Z-18.875
N220 Y639.652 Z-10.622
N225 Y829.388 Z-3.055
N230 Y1014.382 Z-0.546
N235 Y1132.785 Z-0.478
N240 Y1317.778 Z-6.895
N245 Y1410.274 Z-11.841
N250 Y1502.771 Z-20.938
N255 G3 Y1504.862 Z-19.043 J0.186 K1.896 F1000.
N260 G0 Z5.
N265 X224.339 Y1566.396
N270 Z-23.095
N275 G2 Y1564.457 Z-25. J-1.905 K0. F1000.
N280 G1 Y1533.624 Z-24.448 F4000.
N285 Y1419.782 Z-12.636
N290 Y1346.259 Z-8.202
N295 Y1137.549 Z-0.516
N300 Y1019.972 Z-0.499
N305 Y830.236 Z-3.026
N310 Y640.499 Z-10.576
N315 Y519.542 Z-18.806
N320 Y441.275 Z-25.
N325 Y328.226
N330 G2 Y326.321 Z-23.095 J0. K1.905 F1000.
N335 G0 Z5.
N340 X209.343 Y265.416
N345 Z-23.095
N350 G3 Y267.321 Z-25. J1.905 K0. F1000.
N355 G1 Y442.123 F4000.
N360 Y518.017 Z-18.928
N365 Y638.974 Z-10.654
N370 Y831.083 Z-2.996
N375 Y1032.678 Z-0.401
N380 Y1137.741 Z-0.525
N385 Y1344.079 Z-8.096
N390 Y1419.974 Z-12.651
N395 Y1533.816 Z-24.469
N400 Y1614.454 Z-25.
N405 G3 Y1616.372 Z-23.095 J0.013 K1.905 F1000.
N410 G0 Z5.
N415 X194.347 Y1655.584
N420 Z-23.095
N425 G2 Y1653.673 Z-25. J-1.905 K0. F1000.
N430 G1 Y1535.087 Z-24.614 F4000.
N435 Y1418.874 Z-12.558
N440 Y1340.607 Z-7.93
N445 Y1136.64 Z-0.507
N450 Y1040.64 Z-0.345
N455 Y831.93 Z-2.966
N460 Y639.822 Z-10.609
N465 Y518.865 Z-18.86
N470 Y440.598 Z-25.
N475 Y215.63
N480 G2 Y213.725 Z-23.095 J0. K1.905 F1000.
N485 G0 Z5.
N490 X179.351 Y168.88
N495 Z-23.095
N500 G3 Y170.785 Z-25. J1.905 K0. F1000.
N505 G1 Y441.445 F4000.
N510 Y519.712 Z-18.792
N515 Y640.669 Z-10.563
N520 Y830.406 Z-3.016
N525 Y1013.027 Z-0.559
N530 Y1135.28 Z-0.483
N535 Y1341.619 Z-7.973
N540 Y1419.885 Z-12.642
N545 Y1536.099 Z-24.729
N550 Y1685.517 Z-25.
N555 Y1712.25 Z-25.049
N560 X179.211 Y1713.133 Z-25.05
N565 X178.805 Y1713.93
N570 X178.173 Y1714.562 Z-25.049
N575 X177.376 Y1714.968 Z-25.047
N580 X176.493 Y1715.108 Z-25.044
N585 X167.212 Z-25.014
N590 X166.329 Y1714.968 Z-25.011
N595 X165.532 Y1714.562 Z-25.008
N600 X164.9 Y1713.93 Z-25.005
N605 X164.494 Y1713.133 Z-25.002
N610 X164.355 Y1712.25 Z-25.
N615 Y1534.372 Z-24.53
N620 Y1420.53 Z-12.695
N625 Y1342.264 Z-7.999
N630 Y1135.925 Z-0.502
N635 Y1037.591 Z-0.363
N640 Y831.253 Z-2.986
N645 Y639.144 Z-10.641
N650 Y518.187 Z-18.914
N655 Y439.921 Z-25.
N660 Y130.363
N665 G2 Y128.458 Z-23.095 J0. K1.905 F1000.
N670 G0 Z5.
N675 X149.358 Y92.652
N680 Z-23.095
N685 G3 Y94.557 Z-25. J1.905 K0. F1000.
N690 G1 Y440.768 F4000.
N695 Y519.034 Z-18.845
N700 Y639.992 Z-10.595
N705 Y829.728 Z-3.036
N710 Y1012.35 Z-0.565
N715 Y1135.374 Z-0.495
N720 Y1339.341 Z-7.859
N725 Y1419.979 Z-12.649
N730 Y1536.193 Z-24.738
N735 Y1735.417 Z-25.
N740 G3 Y1735.837 Z-24.903 J0.001 K0.952
N745 G2 Y1736.256 Z-24.806 J0.419 K-0.855
N750 G1 Y1756.929
N755 G17 G3 X146.501 Y1759.787 I-2.858 J0.
N760 G1 X137.22
N765 G3 X134.362 Y1756.929 I0. J-2.858
N770 G19 G3 Y1756.51 Z-24.903 J0. K-0.953
N775 G2 Y1756.089 Z-25. J-0.419 K0.855
N780 G1 Y1535.52 Z-24.659
N785 Y1419.307 Z-12.592
N790 Y1336.297 Z-7.712
N795 Y1134.702 Z-0.486
N800 Y1022.684 Z-0.475
N805 Y830.576 Z-3.006
N810 Y638.467 Z-10.673
N815 Y517.51 Z-18.967
N820 Y441.615 Z-25.
N825 Y63.692
N830 Y38.485
N835 G17 G2 X131.505 Y35.627 I-2.857 J0.
N840 G1 X122.224
N845 G2 X119.366 Y38.485 I0. J2.858
N850 G1 Y440.091
N855 Y518.357 Z-18.899
N860 Y639.314 Z-10.627
N865 Y831.423 Z-2.977
N870 Y1018.788 Z-0.509
N875 Y1136.974 Z-0.539
N880 Y1340.941 Z-7.925
N885 Y1421.579 Z-12.781
N890 Y1535.421 Z-24.647
N895 Y1774.964 Z-25.
N900 G19 G3 Y1775.384 Z-24.903 J0.001 K0.952
N905 G2 Y1775.803 Z-24.806 J0.419 K-0.855
N910 G1 Y1793.219
N915 G17 G3 X116.509 Y1796.077 I-2.857 J0.
N920 G1 X107.228
N925 G3 X104.37 Y1793.219 I0. J-2.858
N930 G19 G3 Y1792.8 Z-24.903 J0. K-0.952
N935 G2 Y1792.38 Z-25. J-0.419 K0.855
N940 G1 Y1536.235 Z-24.739
N945 Y1420.022 Z-12.65
N950 Y1337.012 Z-7.738
N955 Y1135.417 Z-0.511
N960 Y1057.582 Z-0.22
N965 Y834.642 Z-2.867
N970 Y640.162 Z-10.582
N975 Y519.204 Z-18.831
N980 Y440.938 Z-25.
N985 Y38.485
N990 G2 Y38.066 Z-24.903 J0. K0.952
N995 G3 Y37.647 Z-24.806 J-0.419 K-0.855
N1000 G17 G2 X101.513 Y34.789 I-2.857 J0.
N1005 G1 X92.232
N1010 G2 X89.374 Y37.647 I0. J2.857
N1015 G19 G2 Y38.066 Z-24.903 J0. K-0.952
N1020 G3 Y38.485 Z-25. J0.419 K0.855
N1025 G1 Y441.785
N1030 Y517.68 Z-18.953
N1035 Y638.637 Z-10.66
N1040 Y830.745 Z-2.997
N1045 Y1020.482 Z-0.494
N1050 Y1137.326 Z-0.556
N1055 Y1338.921 Z-7.823
N1060 Y1421.931 Z-12.809
N1065 Y1535.773 Z-24.685
N1070 Y1808.519 Z-25.
N1075 G3 Y1808.94 Z-24.903 J0.001 K0.952
N1080 G2 Y1809.359 Z-24.806 J0.419 K-0.855
N1085 G1 Y1824.247
N1090 G17 G3 X86.517 Y1827.104 I-2.857 J0.
N1095 G1 X77.236
N1100 G3 X74.378 Y1824.247 I0. J-2.857
N1105 G19 G3 Y1823.828 Z-24.903 J0. K-0.952
N1110 G2 Y1823.408 Z-25. J-0.419 K0.855
N1115 G1 Y1536.431 Z-24.76
N1120 Y1422.589 Z-12.863
N1125 Y1337.208 Z-7.739
N1130 Y1135.612 Z-0.525
N1135 Y1014.214 Z-0.55
N1140 Y831.593 Z-2.967
N1145 Y639.484 Z-10.614
N1150 Y518.527 Z-18.884
N1155 Y440.261 Z-25.
N1160 Y38.485
N1165 G2 Y38.066 Z-24.903 J0. K0.952
N1170 G3 Y37.647 Z-24.806 J-0.419 K-0.855
N1175 G17 G2 X71.521 Y34.789 I-2.857 J0.
N1180 G1 X62.24
N1185 G2 X59.382 Y37.647 I0. J2.857
N1190 G19 G2 Y38.066 Z-24.903 J0. K-0.952
N1195 G3 Y38.485 Z-25. J0.419 K0.855
N1200 G1 Y441.108
N1205 Y519.374 Z-18.816
N1210 Y640.331 Z-10.568
N1215 Y832.44 Z-2.937
N1220 Y1041.15 Z-0.329
N1225 Y1137.085 Z-0.561
N1230 Y1336.308 Z-7.693
N1235 Y1421.69 Z-12.787
N1240 Y1535.532 Z-24.656
N1245 Y1836.739 Z-25.
N1250 G3 Y1837.159 Z-24.903 J0.001 K0.952
N1255 G2 Y1837.578 Z-24.806 J0.419 K-0.855
N1260 G1 Y1848.477
N1265 G17 G3 X56.525 Y1851.335 I-2.858 J0.
N1270 G1 X47.244
N1275 G3 X44.386 Y1848.477 I0. J-2.857
N1280 G19 G3 Y1848.058 Z-24.903 J0. K-0.953
N1285 G2 Y1847.638 Z-25. J-0.419 K0.855
N1290 G1 Y1534.572 Z-24.544
N1295 Y1420.73 Z-12.706
N1300 Y1332.977 Z-7.533
N1305 Y1136.125 Z-0.546
N1310 Y1053.856 Z-0.24
N1315 Y835.659 Z-2.848
N1320 Y641.179 Z-10.523
N1325 Y520.222 Z-18.748
N1330 Y441.955 Z-25.
N1335 Y-30.997
N1340 G2 Y-31.417 Z-24.903 J0. K0.952
N1345 G3 Y-31.836 Z-24.806 J-0.419 K-0.855
N1350 G17 G2 X41.529 Y-34.693 I-2.857 J0.
N1355 G1 X32.248
N1360 G2 X29.39 Y-31.836 I0. J2.858
N1365 G19 G2 Y-31.417 Z-24.903 J0. K-0.952
N1370 G3 Y-30.997 Z-25. J0.419 K0.855
N1375 G1 Y440.431
N1380 Y521.069 Z-18.68
N1385 Y642.026 Z-10.477
N1390 Y838.878 Z-2.759
N1395 Y1064.19 Z-0.167
N1400 Y1135.195 Z-0.531
N1405 Y1334.418 Z-7.597
N1410 Y1422.172 Z-12.826
N1415 Y1536.014 Z-24.709
N1420 Y1906. Z-25.
N1425 G3 Y1906.42 Z-24.903 J0.001 K0.952
N1430 G2 Y1906.839 Z-24.806 J0.419 K-0.855
N1435 G17 G3 X26.533 Y1909.697 I-2.858 J0.
N1440 G1 X17.252
N1445 G3 X14.394 Y1906.839 I0. J-2.858
N1450 G19 G3 Y1906.42 Z-24.903 J0. K-0.952
N1455 G2 Y1906. Z-25. J-0.419 K0.855
N1460 G1 Y1536.014 Z-24.708
N1465 Y1422.172 Z-12.825
N1470 Y1334.418 Z-7.593
N1475 Y1137.567 Z-0.586
N1480 Y1050.807 Z-0.259
N1485 Y837.353 Z-2.807
N1490 Y640.501 Z-10.555
N1495 Y519.544 Z-18.802
N1500 Y441.278 Z-25.
N1505 Y-30.997
N1510 G2 Y-31.417 Z-24.903 J0. K0.952
N1515 G3 Y-31.836 Z-24.806 J-0.419 K-0.855
N1520 G17 G2 X11.537 Y-34.693 I-2.858 J0.
N1525 G1 X2.256
N1530 G2 X-0.602 Y-31.836 I0. J2.858
N1535 G19 G2 Y-31.417 Z-24.903 J0. K-0.952
N1540 G3 Y-30.997 Z-25. J0.419 K0.855
N1545 G1 Y-8.278
N1550 Y8.278
N1555 Y442.125
N1560 Y518.02 Z-18.924
N1565 Y638.977 Z-10.633
N1570 Y833.457 Z-2.923
N1575 Y1018.45 Z-0.512
N1580 Y1136.236 Z-0.563
N1585 Y1333.088 Z-7.541
N1590 Y1423.213 Z-12.911
N1595 Y1534.683 Z-24.554
N1600 Y1866.722 Z-25.
N1605 Y1883.278
N1610 Y1906.
N1615 G3 Y1906.419 Z-24.903 J0. K0.952
N1620 G2 Y1906.838 Z-24.806 J0.419 K-0.855
N1625 G17 G3 X-3.459 Y1909.696 I-2.857 J0.
N1630 G1 X-12.74
N1635 G3 X-15.598 Y1906.838 I0. J-2.858
N1640 G19 G3 Y1906.419 Z-24.903 J0. K-0.952
N1645 G2 Y1905.999 Z-25. J-0.419 K0.855
N1650 G1 Y1536.013 Z-24.706
N1655 Y1423.357 Z-12.923
N1660 Y1334.418 Z-7.597
N1665 Y1137.566 Z-0.596
N1670 Y1024.041 Z-0.463
N1675 Y834.304 Z-2.903
N1680 Y639.824 Z-10.587
N1685 Y518.867 Z-18.855
N1690 Y440.601 Z-25.
N1695 Y-30.997
N1700 G2 Y-31.417 Z-24.903 J0. K0.952
N1705 G3 Y-31.836 Z-24.806 J-0.419 K-0.855
N1710 G17 G2 X-18.455 Y-34.693 I-2.858 J0.
N1715 G1 X-27.737
N1720 G2 X-30.594 Y-31.836 I0. J2.858
N1725 G19 G2 Y-31.417 Z-24.903 J0. K-0.952
N1730 G3 Y-30.997 Z-25. J0.419 K0.855
N1735 G1 Y441.448
N1740 Y519.714 Z-18.787
N1745 Y640.671 Z-10.541
N1750 Y835.151 Z-2.882
N1755 Y1024.888 Z-0.456
N1760 Y1137.563 Z-0.601
N1765 Y1334.415 Z-7.599
N1770 Y1424.54 Z-13.028
N1775 Y1536.01 Z-24.704
N1780 Y1905.997 Z-25.
N1785 G3 Y1907.903 Z-23.095 J0.001 K1.905 F1000.
N1790 G0 Z5.
N1795 X-45.59 Y1848.807
N1800 Z-23.095
N1805 G2 Y1846.9 Z-25. J-1.905 K0. F1000.
N1810 G1 Y1536.206 Z-24.726 F4000.
N1815 Y1424.736 Z-13.053
N1820 Y1334.611 Z-7.609
N1825 Y1137.759 Z-0.61
N1830 Y1037.594 Z-0.347
N1835 Y835.999 Z-2.862
N1840 Y641.519 Z-10.496
N1845 Y520.561 Z-18.719
N1850 Y439.923 Z-25.
N1855 Y-30.997
N1860 G2 Y-32.902 Z-23.095 J0. K1.905 F1000.
N1865 G0 Z5.
N1870 X-60.586 Y36.58
N1875 Z-23.095
N1880 G3 Y38.485 Z-25. J1.905 K0. F1000.
N1885 G1 Y440.771 F4000.
N1890 Y521.409 Z-18.653
N1895 Y642.366 Z-10.452
N1900 Y836.846 Z-2.841
N1905 Y1031.326 Z-0.401
N1910 Y1138.459 Z-0.63
N1915 Y1337.683 Z-7.734
N1920 Y1425.436 Z-13.125
N1925 Y1534.534 Z-24.533
N1930 Y1835.741 Z-25.
N1935 G3 Y1836.162 Z-24.903 J0.001 K0.952
N1940 G2 Y1836.581 Z-24.806 J0.419 K-0.855
N1945 G17 G3 X-63.444 Y1839.439 I-2.858 J0.
N1950 G1 X-72.725
N1955 G3 X-75.582 Y1836.581 I0. J-2.858
N1960 G1 Y1823.103
N1965 G19 G3 Y1822.684 Z-24.903 J0. K-0.953
N1970 G2 Y1822.264 Z-25. J-0.419 K0.855
N1975 G1 Y1535.287 Z-24.618
N1980 Y1426.188 Z-13.202
N1985 Y1340.807 Z-7.867
N1990 Y1139.212 Z-0.65
N1995 Y1034.545 Z-0.373
N2000 Y837.693 Z-2.821
N2005 Y643.213 Z-10.411
N2010 Y522.256 Z-18.586
N2015 Y441.618 Z-25.
N2020 Y38.485
N2025 G2 Y38.066 Z-24.903 J0. K0.952
N2030 G3 Y37.647 Z-24.806 J-0.419 K-0.855
N2035 G17 G2 X-78.44 Y34.789 I-2.857 J0.
N2040 G1 X-87.721
N2045 G2 X-90.578 Y37.647 I0. J2.857
N2050 G19 G2 Y38.066 Z-24.903 J0. K-0.952
N2055 G3 Y38.485 Z-25. J0.419 K0.855
N2060 G1 Y440.093
N2065 Y523.103 Z-18.519
N2070 Y644.06 Z-10.371
N2075 Y840.912 Z-2.732
N2080 Y1056.737 Z-0.208
N2085 Y1140.883 Z-0.691
N2090 Y1344.849 Z-8.052
N2095 Y1427.859 Z-13.364
N2100 Y1534.586 Z-24.537
N2105 Y1807.333 Z-25.
N2110 G3 Y1807.753 Z-24.903 J0.002 K0.952
N2115 G2 Y1808.173 Z-24.806 J0.419 K-0.855
N2120 G17 G3 X-93.436 Y1811.03 I-2.857 J0.
N2125 G1 X-102.717
N2130 G3 X-105.574 Y1808.173 I0. J-2.857
N2135 G1 Y1791.944
N2140 G19 G3 Y1791.525 Z-24.903 J0. K-0.952
N2145 G2 Y1791.104 Z-25. J-0.419 K0.855
N2150 G1 Y1534.959 Z-24.579
N2155 Y1428.233 Z-13.406
N2160 Y1347.594 Z-8.176
N2165 Y1141.256 Z-0.704
N2170 Y1040.983 Z-0.318
N2175 Y839.388 Z-2.78
N2180 Y642.536 Z-10.448
N2185 Y521.579 Z-18.641
N2190 Y440.941 Z-25.
N2195 Y38.485
N2200 G2 Y38.066 Z-24.903 J0. K0.952
N2205 G3 Y37.647 Z-24.806 J-0.419 K-0.855
N2210 G17 G2 X-108.432 Y34.789 I-2.858 J0.
N2215 G1 X-117.713
N2220 G2 X-120.57 Y37.647 I0. J2.857
N2225 G1 Y38.353
N2230 G19 G2 Y38.773 Z-24.903 J0. K-0.952
N2235 G3 Y39.192 Z-25. J0.419 K0.855
N2240 G1 Y441.788
N2245 Y524.798 Z-18.386
N2250 Y643.383 Z-10.407
N2255 Y840.235 Z-2.759
N2260 Y1048.945 Z-0.26
N2265 Y1145.166 Z-0.791
N2270 Y1360.992 Z-8.824
N2275 Y1432.143 Z-13.776
N2280 Y1536.498 Z-24.754
N2285 Y1773.669 Z-25.
N2290 G3 Y1774.089 Z-24.903 J0.001 K0.952
N2295 G2 Y1774.508 Z-24.806 J0.419 K-0.855
N2300 G17 G3 X-123.428 Y1777.366 I-2.857 J0.
N2305 G1 X-132.709
N2310 G3 X-135.566 Y1774.508 I0. J-2.857
N2315 G1 Y1755.309
N2320 G19 G3 Y1754.89 Z-24.903 J0. K-0.953
N2325 G2 Y1754.47 Z-25. J-0.419 K0.855
N2330 G1 Y1536.273 Z-24.727
N2335 Y1431.917 Z-13.762
N2340 Y1363.138 Z-8.96
N2345 Y1144.941 Z-0.791
N2350 Y1049.792 Z-0.253
N2355 Y841.082 Z-2.739
N2360 Y644.23 Z-10.367
N2365 Y525.645 Z-18.319
N2370 Y440.263 Z-25.
N2375 Y65.99
N2380 G17 G2 X-138.424 Y63.132 I-2.857 J0.
N2385 G1 X-147.705
N2390 G2 X-150.562 Y65.99 I0. J2.857
N2395 G1 Y97.249
N2400 Y441.111
N2405 Y526.492 Z-18.253
N2410 Y645.077 Z-10.326
N2415 Y841.929 Z-2.718
N2420 Y1050.64 Z-0.245
N2425 Y1145.404 Z-0.806
N2430 Y1365.973 Z-9.136
N2435 Y1432.381 Z-13.812
N2440 Y1534.365 Z-24.507
N2445 Y1733.588 Z-25.
N2450 G19 G3 Y1734.01 Z-24.903 J0.002 K0.952
N2455 G2 Y1734.429 Z-24.806 J0.419 K-0.855
N2460 G17 G3 X-153.42 Y1737.286 I-2.857 J0.
N2465 G1 X-162.701
N2470 G3 X-165.558 Y1734.429 I0. J-2.858
N2475 G1 Y1710.99
N2480 G19 G3 Y1710.571 Z-24.903 J0. K-0.952
N2485 G2 Y1710.15 Z-25. J-0.419 K0.855
N2490 G1 Y1534.643 Z-24.538
N2495 Y1432.66 Z-13.845
N2500 Y1368.624 Z-9.302
N2505 Y1152.798 Z-0.967
N2510 Y1065.717 Z-0.187
N2515 Y847.52 Z-2.561
N2520 Y648.296 Z-10.167
N2525 Y532.083 Z-17.809
N2530 Y441.958 Z-25.
N2535 Y133.358
N2540 G2 Y131.453 Z-23.095 J0. K1.905 F1000.
N2545 G0 Z5.
N2550 X-180.554 Y171.98
N2555 Z-23.095
N2560 G3 Y173.885 Z-25. J1.905 K0. F1000.
N2565 G1 Y440.433 F4000.
N2570 Y525.815 Z-18.308
N2575 Y644.4 Z-10.363
N2580 Y838.88 Z-2.814
N2585 Y995.413 Z-0.717
N2590 Y1130.474 Z-0.501
N2595 Y1251.431 Z-4.405
N2600 Y1379.503 Z-9.962
N2605 Y1436.424 Z-14.202
N2610 Y1536.036 Z-24.702
N2615 Y1683.082 Z-25.
N2620 G3 Y1684.991 Z-23.095 J0.004 K1.905 F1000.
N2625 G0 Z5.
N2630 X-195.551 Y1652.772
N2635 Z-23.095
N2640 G2 Y1650.859 Z-25. J-1.905 K0. F1000.
N2645 G1 Y1534.646 Z-24.539 F4000.
N2650 Y1435.034 Z-14.079
N2655 Y1378.113 Z-9.884
N2660 Y1238.182 Z-3.906
N2665 Y1126.712 Z-0.426
N2670 Y979.658 Z-0.844
N2675 Y839.727 Z-2.794
N2680 Y645.247 Z-10.322
N2685 Y526.662 Z-18.241
N2690 Y441.28 Z-25.
N2695 Y219.758
N2700 G2 Y217.853 Z-23.095 J0. K1.905 F1000.
N2705 G0 Z5.
N2710 X-210.547 Y270.005
N2715 Z-23.095
N2720 G3 Y271.91 Z-25. J1.905 K0. F1000.
N2725 G1 Y442.128 F4000.
N2730 Y546.483 Z-16.666
N2735 Y653.21 Z-9.926
N2740 Y852.433 Z-2.431
N2745 Y1075.374 Z-0.185
N2750 Y1136.323 Z-0.634
N2755 Y1276.254 Z-5.337
N2760 Y1382.981 Z-10.183
N2765 Y1437.53 Z-14.318
N2770 Y1534.77 Z-24.556
N2775 Y1610.665 Z-25.
N2780 G3 Y1612.581 Z-23.095 J0.011 K1.905 F1000.
N2785 G0 Z5.
N2790 X-225.543 Y1561.468
N2795 Z-23.096
N2800 G2 Y1559.519 Z-25. J-1.905 K0. F1000.
N2805 G1 Y1533.43 Z-24.399 F4000.
N2810 Y1436.19 Z-14.2
N2815 Y1381.641 Z-10.109
N2820 Y1274.914 Z-5.286
N2825 Y1137.355 Z-0.661
N2830 Y1083.336 Z-0.18
N2835 Y855.652 Z-2.342
N2840 Y656.429 Z-9.767
N2845 Y552.073 Z-16.223
N2850 Y440.603 Z-25.
N2855 Y333.932
N2860 G2 Y332.027 Z-23.095 J0. K1.905 F1000.
N2865 G0 Z5.
N2870 X-240.539 Y406.611
N2875 Z-23.095
N2880 G3 Y408.516 Z-25. J1.905 K0. F1000.
N2885 G1 Y441.45 F4000.
N2890 Y538.69 Z-17.287
N2895 Y650.161 Z-10.082
N2900 Y847.013 Z-2.595
N2905 Y1053.351 Z-0.219
N2910 Y1141.467 Z-0.753
N2915 Y1312.23 Z-6.734
N2920 Y1399.983 Z-11.218
N2925 Y1497.223 Z-20.32
N2930 G3 Y1499.305 Z-18.423 J0.178 K1.897 F1000.
N2935 G0 Z5.
N2940 X-255.535 Y1423.644
N2945 Z-11.005
N2950 G2 Y1421.625 Z-12.907 J-1.905 K0. F1000.
N2955 G1 Y1331.5 Z-7.511 F4000.
N2960 Y1144.136 Z-0.814
N2965 Y1058.942 Z-0.213
N2970 Y850.231 Z-2.506
N2975 Y653.38 Z-9.922
N2980 Y546.653 Z-16.655
N2985 Y499.108 Z-20.477
N2990 G2 Y497.05 Z-18.578 J-0.153 K1.899 F1000.
N2995 G0 Z5.
N3000 X-270.531 Y614.899
N3005 Z-9.963
N3010 G3 Y616.905 Z-11.865 J1.905 K0. F1000.
N3015 G1 Y654.227 Z-9.882 F4000.
N3020 Y851.079 Z-2.486
N3025 Y1062.161 Z-0.213
N3030 Y1144.97 Z-0.837
N3035 Y1318.104 Z-7.044
N3040 G3 Y1320.078 Z-5.14 J0.068 K1.904 F1000.
N3045 G0 Z15.
N3050 G17
(PARALLEL3 2)
N3055 G0 X284.323 Y950.765
N3060 Z15.
N3065 Z0.834
N3070 G1 Z0.704 F1000.
N3075 G19 G2 Y948.885 Z-1.201 J-1.905 K0.
N3080 G1 Y906.169 Z-1.754 F4000.
N3085 G2 Y904.239 Z0.15 J-0.025 K1.905 F1000.
N3090 G0 Z5.
N3095 X269.327 Y603.658
N3100 Z-10.675
N3105 G3 Y605.672 Z-12.577 J1.905 K0. F1000.
N3110 G1 Y638.935 Z-10.663 F4000.
N3115 Y828.672 Z-3.082
N3120 Y1025.524 Z-0.456
N3125 Y1136.834 Z-0.519
N3130 Y1328.943 Z-7.465
N3135 G3 Y1330.917 Z-5.561 J0.069 K1.904 F1000.
N3140 G0 Z5.
N3145 X254.331 Y1430.398
N3150 Z-11.497
N3155 G2 Y1428.368 Z-13.397 J-1.905 K0. F1000.
N3160 G1 Y1357.217 Z-8.722 F4000.
N3165 Y1139.02 Z-0.537
N3170 Y1060.969 Z-0.209
N3175 Y833.285 Z-2.926
N3180 Y641.176 Z-10.544
N3185 Y522.591 Z-18.563
N3190 Y491.191 Z-21.137
N3195 G2 Y489.13 Z-19.238 J-0.156 K1.899 F1000.
N3200 G0 Z5.
N3205 X239.335 Y399.925
N3210 Z-27.265
N3215 G3 Y401.997 Z-29.163 J1.905 K0. F1000.
N3220 G1 Y518.695 Z-18.875 F4000.
N3225 Y639.652 Z-10.622
N3230 Y829.388 Z-3.055
N3235 Y1014.382 Z-0.546
N3240 Y1132.785 Z-0.478
N3245 Y1317.778 Z-6.895
N3250 Y1410.274 Z-11.841
N3255 Y1502.771 Z-20.938
N3260 G3 Y1504.862 Z-19.043 J0.186 K1.896 F1000.
N3265 G0 Z5.
N3270 X224.339 Y1566.569
N3275 Z-26.168
N3280 G2 Y1564.457 Z-28.061 J-1.905 K0. F1000.
N3285 G1 Y1436.384 Z-14.025 F4000.
N3290 Y1362.861 Z-8.977
N3295 Y1139.921 Z-0.566
N3300 Y1024.716 Z-0.458
N3305 Y830.236 Z-3.026
N3310 Y640.499 Z-10.576
N3315 Y519.542 Z-18.806
N3320 Y367.752 Z-32.439
N3325 Y328.226 Z-36.66
N3330 G2 Y326.119 Z-34.765 J-0.202 K1.894 F1000.
N3335 G0 Z5.
N3340 X209.343 Y265.209
N3345 Z-41.527
N3350 G3 Y267.321 Z-43.42 J1.905 K0. F1000.
N3355 G1 Y366.228 Z-32.6 F4000.
N3360 Y518.017 Z-18.928
N3365 Y638.974 Z-10.654
N3370 Y831.083 Z-2.996
N3375 Y1023.191 Z-0.471
N3380 Y1130.626 Z-0.452
N3385 Y1303.76 Z-6.372
N3390 Y1405.744 Z-11.513
N3395 Y1491.125 Z-19.654
N3400 Y1614.454 Z-34.438
N3405 G3 Y1616.586 Z-32.546 J0.227 K1.891 F1000.
N3410 G0 Z5.
N3415 X194.347 Y1655.864
N3420 Z-38.928
N3425 G2 Y1653.673 Z-40.812 J-1.905 K0. F1000.
N3430 G1 Y1592.169 Z-31.452 F4000.
N3435 Y1452.238 Z-15.603
N3440 Y1381.087 Z-9.904
N3445 Y1186.607 Z-1.968
N3450 Y1103.597 Z-0.231
N3455 Y865.134 Z-2.166
N3460 Y670.654 Z-9.012
N3465 Y563.927 Z-15.366
N3470 Y407.394 Z-28.6
N3475 Y260.348 Z-44.169
N3480 Y215.63 Z-50.
N3485 G2 Y213.478 Z-48.111 J-0.246 K1.889 F1000.
N3490 G0 Z5.
N3495 X179.351 Y168.88
N3500 Z-48.095
N3505 G3 Y170.785 Z-50. J1.905 K0. F1000.
N3510 G1 Y213.924 F4000.
N3515 Y247.128 Z-45.933
N3520 Y367.922 Z-32.421
N3525 Y519.712 Z-18.792
N3530 Y640.669 Z-10.563
N3535 Y830.406 Z-3.016
N3540 Y1036.744 Z-0.371
N3545 Y1145.45 Z-0.698
N3550 Y1373.134 Z-9.445
N3555 Y1444.285 Z-14.771
N3560 Y1586.587 Z-30.711
N3565 Y1648.199 Z-39.817
N3570 Y1685.517 Z-46.918
N3575 Y1712.323 Z-47.814
N3580 X179.212 Y1713.205 Z-47.864
N3585 X178.811 Y1713.999 Z-47.949
N3590 X178.185 Y1714.628 Z-48.062
N3595 X177.397 Y1715.03 Z-48.19
N3600 X176.523 Y1715.165 Z-48.322
N3605 X167.182 Y1715.12 Z-49.683
N3610 X166.308 Y1714.976 Z-49.806
N3615 X165.52 Y1714.566 Z-49.907
N3620 X164.895 Y1713.932 Z-49.977
N3625 X164.493 Y1713.133 Z-50.009
N3630 X164.355 Y1712.25 Z-50.
N3635 Y1698.02 Z-49.524
N3640 Y1658.362 Z-41.643
N3645 Y1594.432 Z-31.751
N3650 Y1454.501 Z-15.83
N3655 Y1383.35 Z-10.052
N3660 Y1200.729 Z-2.448
N3665 Y1110.604 Z-0.278
N3670 Y895.289 Z-1.776
N3675 Y809.907 Z-3.705
N3680 Y636.773 Z-10.764
N3685 Y518.187 Z-18.914
N3690 Y366.398 Z-32.582
N3695 Y248.134 Z-45.799
N3700 Y212.558 Z-50.
N3705 Y130.363
N3710 G2 Y128.458 Z-48.095 J0. K1.905 F1000.
N3715 G0 Z5.
N3720 X149.358 Y92.652
N3725 Z-48.095
N3730 G3 Y94.557 Z-50. J1.905 K0. F1000.
N3735 G1 Y213.405 F4000.
N3740 Y248.819 Z-45.708
N3745 Y364.873 Z-32.743
N3750 Y516.663 Z-19.035
N3755 Y637.62 Z-10.719
N3760 Y820.241 Z-3.356
N3765 Y915.11 Z-1.521
N3770 Y1112.973 Z-0.292
N3775 Y1205.469 Z-2.628
N3780 Y1383.347 Z-10.058
N3785 Y1454.499 Z-15.825
N3790 Y1594.429 Z-31.75
N3795 Y1658.359 Z-41.642
N3800 Y1700.173 Z-50.
N3805 Y1735.417
N3810 G3 Y1735.836 Z-49.903 J0. K0.952
N3815 G2 Y1736.255 Z-49.806 J0.419 K-0.855
N3820 G1 Y1756.931
N3825 G17 G3 X146.501 Y1759.789 I-2.858 J0.
N3830 G1 X137.22
N3835 G3 X134.362 Y1756.931 I0. J-2.857
N3840 G19 G3 Y1756.512 Z-49.903 J0. K-0.953
N3845 G2 Y1756.089 Z-50. J-0.419 K0.855
N3850 G1 Y1699.168 Z-49.777
N3855 Y1658.383 Z-41.645
N3860 Y1594.453 Z-31.753
N3865 Y1454.522 Z-15.823
N3870 Y1383.371 Z-10.066
N3875 Y1210.236 Z-2.813
N3880 Y1115.368 Z-0.307
N3885 Y930.187 Z-1.326
N3890 Y823.46 Z-3.246
N3895 Y638.467 Z-10.673
N3900 Y517.51 Z-18.967
N3905 Y365.721 Z-32.655
N3910 Y249.666 Z-45.595
N3915 Y214.252 Z-50.
N3920 Y63.692
N3925 Y38.485
N3930 G17 G2 X131.505 Y35.627 I-2.857 J0.
N3935 G1 X122.224
N3940 G2 X119.366 Y38.485 I0. J2.858
N3945 G1 Y212.728
N3950 Y250.513 Z-45.483
N3955 Y373.683 Z-31.817
N3960 Y537.331 Z-17.38
N3965 Y648.801 Z-10.133
N3970 Y852.768 Z-2.334
N3975 Y1098.768 Z-0.169
N3980 Y1188.892 Z-2.021
N3985 Y1381.001 Z-9.929
N3990 Y1452.152 Z-15.572
N3995 Y1594.455 Z-31.752
N4000 Y1658.385 Z-41.645
N4005 Y1699.069 Z-49.755
N4010 Y1774.964 Z-50.
N4015 G19 G3 Y1775.386 Z-49.903 J0.003 K0.952
N4020 G2 Y1775.805 Z-49.806 J0.419 K-0.855
N4025 G1 Y1793.218
N4030 G17 G3 X116.509 Y1796.076 I-2.857 J0.
N4035 G1 X107.228
N4040 G3 X104.37 Y1793.218 I0. J-2.858
N4045 G19 G3 Y1792.799 Z-49.903 J0. K-0.953
N4050 G2 Y1792.38 Z-50. J-0.419 K0.855
N4055 G1 Y1700.181
N4060 Y1658.379 Z-41.643
N4065 Y1594.449 Z-31.751
N4070 Y1452.147 Z-15.567
N4075 Y1380.995 Z-9.935
N4080 Y1191.259 Z-2.095
N4085 Y1098.762 Z-0.165
N4090 Y851.244 Z-2.382
N4095 Y647.277 Z-10.211
N4100 Y533.435 Z-17.692
N4105 Y374.53 Z-31.728
N4110 Y251.36 Z-45.371
N4115 Y213.575 Z-50.
N4120 Y38.485
N4125 G2 Y38.066 Z-49.903 J0. K0.952
N4130 G3 Y37.647 Z-49.806 J-0.419 K-0.855
N4135 G17 G2 X101.513 Y34.789 I-2.857 J0.
N4140 G1 X92.232
N4145 G2 X89.374 Y37.647 I0. J2.857
N4150 G19 G2 Y38.066 Z-49.903 J0. K-0.953
N4155 G3 Y38.485 Z-50. J0.419 K0.855
N4160 G1 Y214.422
N4165 Y247.464 Z-45.891
N4170 Y373.006 Z-31.889
N4175 Y534.282 Z-17.623
N4180 Y648.124 Z-10.165
N4185 Y852.091 Z-2.361
N4190 Y1098.784 Z-0.16
N4195 Y1191.281 Z-2.097
N4200 Y1381.017 Z-9.942
N4205 Y1452.168 Z-15.564
N4210 Y1594.471 Z-31.753
N4215 Y1658.401 Z-41.646
N4220 Y1699.421 Z-49.831
N4225 Y1808.519 Z-50.
N4230 G3 Y1808.94 Z-49.903 J0.001 K0.952
N4235 G2 Y1809.359 Z-49.806 J0.419 K-0.855
N4240 G1 Y1824.246
N4245 G17 G3 X86.517 Y1827.104 I-2.857 J0.
N4250 G1 X77.236
N4255 G3 X74.378 Y1824.246 I0. J-2.857
N4260 G19 G3 Y1823.827 Z-49.903 J0. K-0.953
N4265 G2 Y1823.408 Z-50. J-0.419 K0.855
N4270 G1 Y1700.079 Z-49.976
N4275 Y1658.437 Z-41.652
N4280 Y1594.507 Z-31.757
N4285 Y1452.204 Z-15.564
N4290 Y1381.053 Z-9.951
N4295 Y1196.06 Z-2.279
N4300 Y1103.563 Z-0.194
N4305 Y855.31 Z-2.272
N4310 Y648.971 Z-10.12
N4315 Y537.501 Z-17.368
N4320 Y373.853 Z-31.801
N4325 Y248.311 Z-45.779
N4330 Y212.898 Z-50.
N4335 Y38.485
N4340 G2 Y38.066 Z-49.903 J0. K0.952
N4345 G3 Y37.647 Z-49.806 J-0.419 K-0.855
N4350 G17 G2 X71.521 Y34.789 I-2.857 J0.
N4355 G1 X62.24
N4360 G2 X59.382 Y37.647 I0. J2.857
N4365 G19 G2 Y38.066 Z-49.903 J0. K-0.953
N4370 G3 Y38.485 Z-50. J0.419 K0.855
N4375 G1 Y213.745
N4380 Y249.158 Z-45.666
N4385 Y374.7 Z-31.712
N4390 Y538.348 Z-17.301
N4395 Y649.818 Z-10.074
N4400 Y856.157 Z-2.252
N4405 Y1105.906 Z-0.208
N4410 Y1200.774 Z-2.459
N4415 Y1381.024 Z-9.955
N4420 Y1452.175 Z-15.557
N4425 Y1594.478 Z-31.753
N4430 Y1656.049 Z-41.222
N4435 Y1699.18 Z-49.777
N4440 Y1836.739 Z-50.
N4445 G3 Y1837.16 Z-49.903 J0.002 K0.952
N4450 G2 Y1837.579 Z-49.806 J0.419 K-0.855
N4455 G1 Y1848.476
N4460 G17 G3 X56.525 Y1851.333 I-2.858 J0.
N4465 G1 X47.244
N4470 G3 X44.386 Y1848.476 I0. J-2.858
N4475 G19 G3 Y1848.057 Z-49.903 J0. K-0.953
N4480 G2 Y1847.638 Z-50. J-0.419 K0.855
N4485 G1 Y1700.191
N4490 Y1658.377 Z-41.64
N4495 Y1594.447 Z-31.748
N4500 Y1452.145 Z-15.561
N4505 Y1383.365 Z-10.102
N4510 Y1231.576 Z-3.646
N4515 Y1120.105 Z-0.317
N4520 Y1037.254 Z-0.355
N4525 Y833.287 Z-2.916
N4530 Y638.807 Z-10.646
N4535 Y517.85 Z-18.938
N4540 Y366.061 Z-32.622
N4545 Y250.006 Z-45.554
N4550 Y214.592 Z-50.
N4555 Y-30.997
N4560 G2 Y-31.417 Z-49.903 J0. K0.952
N4565 G3 Y-31.836 Z-49.806 J-0.419 K-0.855
N4570 G17 G2 X41.529 Y-34.693 I-2.857 J0.
N4575 G1 X32.248
N4580 G2 X29.39 Y-31.836 I0. J2.858
N4585 G19 G2 Y-31.417 Z-49.903 J0. K-0.953
N4590 G3 Y-30.997 Z-50. J0.419 K0.855
N4595 G1 Y213.068
N4600 Y250.853 Z-45.442
N4605 Y366.908 Z-32.534
N4610 Y518.697 Z-18.87
N4615 Y639.654 Z-10.6
N4620 Y829.391 Z-3.037
N4625 Y974.065 Z-0.886
N4630 Y1120.13 Z-0.313
N4635 Y1231.6 Z-3.647
N4640 Y1383.39 Z-10.11
N4645 Y1452.169 Z-15.57
N4650 Y1594.472 Z-31.751
N4655 Y1658.394 Z-41.643
N4660 Y1700.194 Z-50.
N4665 Y1906.
N4670 G3 Y1906.419 Z-49.903 J0. K0.952
N4675 G2 Y1906.838 Z-49.806 J0.419 K-0.855
N4680 G17 G3 X26.533 Y1909.696 I-2.858 J0.
N4685 G1 X17.252
N4690 G3 X14.394 Y1906.838 I0. J-2.857
N4695 G19 G3 Y1906.419 Z-49.903 J0. K-0.953
N4700 G2 Y1906. Z-50. J-0.419 K0.855
N4705 G1 Y1700.197
N4710 Y1658.397 Z-41.644
N4715 Y1594.474 Z-31.751
N4720 Y1454.543 Z-15.798
N4725 Y1385.764 Z-10.258
N4730 Y1252.948 Z-4.47
N4735 Y1124.876 Z-0.346
N4740 Y960.682 Z-0.991
N4745 Y827.866 Z-3.087
N4750 Y638.13 Z-10.678
N4755 Y517.173 Z-18.992
N4760 Y365.383 Z-32.695
N4765 Y251.7 Z-45.33
N4770 Y213.915 Z-50.
N4775 Y-30.997
N4780 G2 Y-31.417 Z-49.903 J0. K0.952
N4785 G3 Y-31.836 Z-49.806 J-0.419 K-0.855
N4790 G17 G2 X11.537 Y-34.693 I-2.858 J0.
N4795 G1 X2.256
N4800 G2 X-0.602 Y-31.836 I0. J2.858
N4805 G19 G2 Y-31.417 Z-49.903 J0. K-0.953
N4810 G3 Y-30.997 Z-50. J0.419 K0.855
N4815 G1 Y-8.278
N4820 Y8.278
N4825 Y212.39
N4830 Y247.804 Z-45.85
N4835 Y366.23 Z-32.606
N4840 Y518.02 Z-18.924
N4845 Y638.977 Z-10.633
N4850 Y826.342 Z-3.137
N4855 Y959.158 Z-1.003
N4860 Y1124.865 Z-0.342
N4865 Y1255.309 Z-4.558
N4870 Y1385.753 Z-10.264
N4875 Y1454.533 Z-15.804
N4880 Y1594.464 Z-31.749
N4885 Y1658.386 Z-41.643
N4890 Y1700.199 Z-50.
N4895 Y1866.722
N4900 Y1883.278
N4905 Y1906.
N4910 G3 Y1906.419 Z-49.903 J0. K0.952
N4915 G2 Y1906.838 Z-49.806 J0.419 K-0.855
N4920 G17 G3 X-3.459 Y1909.696 I-2.857 J0.
N4925 G1 X-12.74
N4930 G3 X-15.598 Y1906.838 I0. J-2.857
N4935 G19 G3 Y1906.418 Z-49.903 J0. K-0.953
N4940 G2 Y1905.999 Z-50. J-0.419 K0.855
N4945 G1 Y1700.202
N4950 Y1658.406 Z-41.647
N4955 Y1594.484 Z-31.751
N4960 Y1454.553 Z-15.812
N4965 Y1385.773 Z-10.271
N4970 Y1257.701 Z-4.647
N4975 Y1124.885 Z-0.337
N4980 Y955.261 Z-1.032
N4985 Y827.189 Z-3.108
N4990 Y637.452 Z-10.711
N4995 Y518.867 Z-18.855
N5000 Y367.078 Z-32.518
N5005 Y248.651 Z-45.738
N5010 Y213.238 Z-50.
N5015 Y-30.997
N5020 G2 Y-31.417 Z-49.903 J0. K0.952
N5025 G3 Y-31.836 Z-49.806 J-0.419 K-0.855
N5030 G17 G2 X-18.455 Y-34.693 I-2.858 J0.
N5035 G1 X-27.737
N5040 G2 X-30.594 Y-31.836 I0. J2.858
N5045 G19 G2 Y-31.417 Z-49.903 J0. K-0.953
N5050 G3 Y-30.997 Z-50. J0.419 K0.855
N5055 G1 Y214.085
N5060 Y249.498 Z-45.626
N5065 Y365.553 Z-32.679
N5070 Y517.343 Z-18.977
N5075 Y638.3 Z-10.665
N5080 Y825.665 Z-3.157
N5085 Y951.365 Z-1.062
N5090 Y1124.74 Z-0.332
N5095 Y1260.075 Z-4.736
N5100 Y1385.776 Z-10.278
N5105 Y1454.555 Z-15.819
N5110 Y1594.486 Z-31.75
N5115 Y1658.408 Z-41.648
N5120 Y1700.204 Z-50.
N5125 Y1905.997
N5130 G3 Y1907.902 Z-48.095 J0. K1.905 F1000.
N5135 G0 Z5.
N5140 X-45.59 Y1848.806
N5145 Z-48.095
N5150 G2 Y1846.9 Z-50. J-1.905 K0. F1000.
N5155 G1 Y1699.854 Z-49.922 F4000.
N5160 Y1658.437 Z-41.654
N5165 Y1594.522 Z-31.754
N5170 Y1454.591 Z-15.83
N5175 Y1385.812 Z-10.286
N5180 Y1262.483 Z-4.826
N5185 Y1127.296 Z-0.389
N5190 Y1037.594 Z-0.347
N5195 Y835.999 Z-2.862
N5200 Y641.519 Z-10.496
N5205 Y520.561 Z-18.719
N5210 Y368.772 Z-32.34
N5215 Y250.346 Z-45.514
N5220 Y212.56 Z-50.
N5225 Y-30.997
N5230 G2 Y-32.902 Z-48.095 J0. K1.905 F1000.
N5235 G0 Z5.
N5240 X-60.586 Y36.58
N5245 Z-48.095
N5250 G3 Y38.485 Z-50. J1.905 K0. F1000.
N5255 G1 Y213.408 F4000.
N5260 Y251.193 Z-45.402
N5265 Y369.619 Z-32.252
N5270 Y521.409 Z-18.653
N5275 Y642.366 Z-10.452
N5280 Y836.846 Z-2.841
N5285 Y1017.096 Z-0.524
N5290 Y1129.653 Z-0.444
N5295 Y1271.956 Z-5.181
N5300 Y1388.169 Z-10.434
N5305 Y1454.577 Z-15.835
N5310 Y1594.508 Z-31.752
N5315 Y1656.068 Z-41.226
N5320 Y1698.182 Z-49.551
N5325 Y1835.741 Z-50.
N5330 G3 Y1836.164 Z-49.903 J0.003 K0.952
N5335 G2 Y1836.583 Z-49.806 J0.419 K-0.855
N5340 G17 G3 X-63.444 Y1839.44 I-2.858 J0.
N5345 G1 X-72.725
N5350 G3 X-75.582 Y1836.583 I0. J-2.857
N5355 G1 Y1823.104
N5360 G19 G3 Y1822.685 Z-49.903 J0. K-0.952
N5365 G2 Y1822.264 Z-50. J-0.419 K0.855
N5370 G1 Y1698.935 Z-49.717
N5375 Y1656.082 Z-41.229
N5380 Y1594.522 Z-31.753
N5385 Y1454.591 Z-15.843
N5390 Y1388.183 Z-10.441
N5395 Y1274.341 Z-5.27
N5400 Y1132.039 Z-0.499
N5405 Y1003.713 Z-0.644
N5410 Y835.321 Z-2.889
N5415 Y640.841 Z-10.53
N5420 Y519.884 Z-18.775
N5425 Y368.095 Z-32.413
N5430 Y252.04 Z-45.29
N5435 Y214.255 Z-50.
N5440 Y38.485
N5445 G2 Y38.066 Z-49.903 J0. K0.952
N5450 G3 Y37.647 Z-49.806 J-0.419 K-0.855
N5455 G17 G2 X-78.44 Y34.789 I-2.857 J0.
N5460 G1 X-87.721
N5465 G2 X-90.578 Y37.647 I0. J2.857
N5470 G19 G2 Y38.066 Z-49.903 J0. K-0.953
N5475 G3 Y38.485 Z-50. J0.419 K0.855
N5480 G1 Y212.73
N5485 Y248.144 Z-45.81
N5490 Y368.942 Z-32.324
N5495 Y520.731 Z-18.708
N5500 Y641.689 Z-10.489
N5505 Y836.169 Z-2.869
N5510 Y999.816 Z-0.677
N5515 Y1132.035 Z-0.504
N5520 Y1276.709 Z-5.359
N5525 Y1388.179 Z-10.447
N5530 Y1456.959 Z-16.07
N5535 Y1594.518 Z-31.752
N5540 Y1656.078 Z-41.229
N5545 Y1698.234 Z-49.562
N5550 Y1807.333 Z-50.
N5555 G3 Y1807.756 Z-49.903 J0.004 K0.952
N5560 G2 Y1808.175 Z-49.806 J0.419 K-0.855
N5565 G17 G3 X-93.436 Y1811.032 I-2.857 J0.
N5570 G1 X-102.717
N5575 G3 X-105.574 Y1808.175 I0. J-2.857
N5580 G1 Y1791.942
N5585 G19 G3 Y1791.523 Z-49.903 J0. K-0.953
N5590 G2 Y1791.104 Z-50. J-0.419 K0.855
N5595 G1 Y1700.178 Z-49.991
N5600 Y1658.55 Z-41.677
N5605 Y1597.015 Z-32.086
N5610 Y1457.084 Z-16.089
N5615 Y1390.677 Z-10.603
N5620 Y1283.95 Z-5.63
N5625 Y1134.532 Z-0.562
N5630 Y1012.522 Z-0.565
N5635 Y837.016 Z-2.848
N5640 Y642.536 Z-10.448
N5645 Y521.579 Z-18.641
N5650 Y369.789 Z-32.236
N5655 Y248.991 Z-45.697
N5660 Y213.415 Z-50.
N5665 Y38.485
N5670 G2 Y38.066 Z-49.903 J0. K0.952
N5675 G3 Y37.647 Z-49.806 J-0.419 K-0.855
N5680 G17 G2 X-108.432 Y34.789 I-2.858 J0.
N5685 G1 X-117.713
N5690 G2 X-120.57 Y37.647 I0. J2.857
N5695 G1 Y38.353
N5700 G19 G2 Y38.773 Z-49.903 J0. K-0.953
N5705 G3 Y39.192 Z-50. J0.419 K0.855
N5710 G1 Y214.263
N5715 Y249.838 Z-45.585
N5720 Y370.637 Z-32.147
N5725 Y524.798 Z-18.386
N5730 Y643.383 Z-10.407
N5735 Y837.863 Z-2.828
N5740 Y1015.741 Z-0.536
N5745 Y1134.562 Z-0.567
N5750 Y1286.351 Z-5.719
N5755 Y1390.707 Z-10.611
N5760 Y1457.115 Z-16.098
N5765 Y1594.674 Z-31.772
N5770 Y1656.226 Z-41.257
N5775 Y1698.997 Z-49.73
N5780 Y1773.669 Z-50.
N5785 G3 Y1774.092 Z-49.903 J0.003 K0.952
N5790 G2 Y1774.511 Z-49.806 J0.419 K-0.855
N5795 G17 G3 X-123.428 Y1777.368 I-2.857 J0.
N5800 G1 X-132.709
N5805 G3 X-135.566 Y1774.511 I0. J-2.858
N5810 G1 Y1755.313
N5815 G19 G3 Y1754.894 Z-49.903 J0. K-0.952
N5820 G2 Y1754.47 Z-50. J-0.419 K0.855
N5825 G1 Y1698.886 Z-49.705
N5830 Y1656.227 Z-41.258
N5835 Y1594.675 Z-31.773
N5840 Y1457.116 Z-16.105
N5845 Y1390.708 Z-10.617
N5850 Y1288.725 Z-5.807
N5855 Y1134.564 Z-0.572
N5860 Y1061.651 Z-0.185
N5865 Y845.825 Z-2.602
N5870 Y646.602 Z-10.248
N5875 Y528.016 Z-18.131
N5880 Y371.484 Z-32.058
N5885 Y250.685 Z-45.473
N5890 Y212.738 Z-50.
N5895 Y65.99
N5900 G17 G2 X-138.424 Y63.132 I-2.857 J0.
N5905 G1 X-147.705
N5910 G2 X-150.562 Y65.99 I0. J2.857
N5915 G1 Y97.249
N5920 Y213.585
N5925 Y251.533 Z-45.361
N5930 Y372.331 Z-31.97
N5935 Y526.492 Z-18.253
N5940 Y645.077 Z-10.326
N5945 Y841.929 Z-2.718
N5950 Y1048.268 Z-0.262
N5955 Y1136.932 Z-0.627
N5960 Y1291.094 Z-5.895
N5965 Y1390.705 Z-10.623
N5970 Y1457.113 Z-16.112
N5975 Y1594.672 Z-31.774
N5980 Y1656.225 Z-41.258
N5985 Y1697.933 Z-49.494
N5990 Y1733.588 Z-50.
N5995 G19 G3 Y1734.021 Z-49.903 J0.014 K0.952
N6000 G2 Y1734.44 Z-49.806 J0.419 K-0.855
N6005 G17 G3 X-153.42 Y1737.297 I-2.857 J0.
N6010 G1 X-162.701
N6015 G3 X-165.558 Y1734.44 I0. J-2.858
N6020 G1 Y1711.027
N6025 G19 G3 Y1710.608 Z-49.903 J0. K-0.952
N6030 G1 Y1710.606 Z-49.904
N6035 G2 Y1710.15 Z-50. J-0.419 K0.855
N6040 G1 Y1698.063 Z-49.523
N6045 Y1656.208 Z-41.255
N6050 Y1594.655 Z-31.772
N6055 Y1457.096 Z-16.117
N6060 Y1390.688 Z-10.628
N6065 Y1293.448 Z-5.982
N6070 Y1136.916 Z-0.632
N6075 Y1030.141 Z-0.411
N6080 Y840.405 Z-2.766
N6085 Y645.925 Z-10.285
N6090 Y527.339 Z-18.186
N6095 Y373.178 Z-31.881
N6100 Y252.38 Z-45.249
N6105 Y214.433 Z-50.
N6110 Y133.358
N6115 G2 Y131.453 Z-48.095 J0. K1.905 F1000.
N6120 G0 Z5.
N6125 X-180.554 Y171.98
N6130 Z-48.095
N6135 G3 Y173.885 Z-50. J1.905 K0. F1000.
N6140 G1 Y212.908 F4000.
N6145 Y253.227 Z-45.137
N6150 Y371.654 Z-32.042
N6155 Y525.815 Z-18.308
N6160 Y644.4 Z-10.363
N6165 Y841.252 Z-2.746
N6170 Y1038.104 Z-0.343
N6175 Y1135.852 Z-0.614
N6180 Y1285.27 Z-5.677
N6185 Y1387.253 Z-10.428
N6190 Y1444.174 Z-14.922
N6195 Y1558.016 Z-27.314
N6200 Y1631.539 Z-37.072
N6205 Y1683.082 Z-46.426
N6210 G3 Y1685.327 Z-44.552 J0.34 K1.874 F1000.
N6215 G0 Z5.
N6220 X-195.551 Y1653.047
N6225 Z-38.413
N6230 G2 Y1650.859 Z-40.297 J-1.905 K0. F1000.
N6235 G1 Y1589.341 Z-31.061 F4000.
N6240 Y1456.526 Z-16.078
N6245 Y1392.489 Z-10.749
N6250 Y1299.993 Z-6.237
N6255 Y1138.717 Z-0.68
N6260 Y1041.323 Z-0.315
N6265 Y842.099 Z-2.725
N6270 Y645.247 Z-10.322
N6275 Y526.662 Z-18.241
N6280 Y372.501 Z-31.954
N6285 Y249.331 Z-45.657
N6290 Y219.758 Z-49.628
N6295 G2 Y217.6 Z-47.74 J-0.254 K1.888 F1000.
N6300 G0 Z5.
N6305 X-210.547 Y269.799
N6310 Z-40.992
N6315 G3 Y271.91 Z-42.886 J1.905 K0. F1000.
N6320 G1 Y378.092 Z-31.37 F4000.
N6325 Y546.483 Z-16.666
N6330 Y653.21 Z-9.926
N6335 Y852.433 Z-2.431
N6340 Y1077.745 Z-0.183
N6345 Y1138.695 Z-0.684
N6350 Y1304.714 Z-6.428
N6355 Y1394.839 Z-10.896
N6360 Y1470.141 Z-17.351
N6365 Y1610.665 Z-33.946
N6370 G3 Y1612.793 Z-32.054 J0.224 K1.892 F1000.
N6375 G0 Z5.
N6380 X-225.543 Y1561.632
N6385 Z-25.655
N6390 G2 Y1559.519 Z-27.548 J-1.905 K0. F1000.
N6395 G1 Y1448.048 Z-15.303 F4000.
N6400 Y1391.127 Z-10.679
N6405 Y1301.003 Z-6.281
N6410 Y1139.726 Z-0.711
N6415 Y1085.708 Z-0.177
N6420 Y855.652 Z-2.342
N6425 Y656.429 Z-9.767
N6430 Y552.073 Z-16.223
N6435 Y381.31 Z-31.066
N6440 Y333.932 Z-36.058
N6445 G2 Y331.828 Z-34.163 J-0.2 K1.895 F1000.
N6450 G0 Z5.
N6455 X-240.539 Y406.447
N6460 Z-26.646
N6465 G3 Y408.516 Z-28.544 J1.905 K0. F1000.
N6470 G1 Y538.69 Z-17.287 F4000.
N6475 Y650.161 Z-10.082
N6480 Y847.013 Z-2.595
N6485 Y1053.351 Z-0.219
N6490 Y1141.467 Z-0.753
N6495 Y1312.23 Z-6.734
N6500 Y1399.983 Z-11.218
N6505 Y1497.223 Z-20.32
N6510 G3 Y1499.305 Z-18.423 J0.178 K1.897 F1000.
N6515 G0 Z5.
N6520 X-255.535 Y1423.644
N6525 Z-11.005
N6530 G2 Y1421.625 Z-12.907 J-1.905 K0. F1000.
N6535 G1 Y1331.5 Z-7.511 F4000.
N6540 Y1144.136 Z-0.814
N6545 Y1058.942 Z-0.213
N6550 Y850.231 Z-2.506
N6555 Y653.38 Z-9.922
N6560 Y546.653 Z-16.655
N6565 Y499.108 Z-20.477
N6570 G2 Y497.05 Z-18.578 J-0.153 K1.899 F1000.
N6575 G0 Z5.
N6580 X-270.531 Y614.899
N6585 Z-9.963
N6590 G3 Y616.905 Z-11.865 J1.905 K0. F1000.
N6595 G1 Y654.227 Z-9.882 F4000.
N6600 Y851.079 Z-2.486
N6605 Y1062.161 Z-0.213
N6610 Y1144.97 Z-0.837
N6615 Y1318.104 Z-7.044
N6620 G3 Y1320.078 Z-5.14 J0.068 K1.904 F1000.
N6625 G0 Z15.
N6630 G17
(PARALLEL3 4)
N6635 G0 X179.351 Y212.179
N6640 Z15.
N6645 Z-48.581
N6650 G1 Z-48.931 F1000.
N6655 G19 G2 Y210.514 Z-50.821 J-1.905 K0.
N6660 G1 Y170.785 Z-55.867 F4000.
N6665 G2 Y168.64 Z-53.977 J-0.24 K1.89 F1000.
N6670 G0 Z5.
N6675 X164.355 Y128.213
N6680 Z-59.299
N6685 G3 Y130.363 Z-61.188 J1.905 K0. F1000.
N6690 G1 Y210.483 Z-50.825 F4000.
N6695 G3 Y212.143 Z-48.936 J-0.244 K1.889 F1000.
N6700 G0 Z5.
N6705 X149.358 Y212.248
N6710 Z-48.572
N6715 G1 Z-48.922 F1000.
N6720 G2 Y210.589 Z-50.811 J-1.905 K0.
N6725 G1 Y118.145 Z-62.822 F4000.
N6730 Y94.557 Z-66.143
N6735 Y63.553 Z-70.508
N6740 X149.219 Y62.68 Z-70.64
N6745 X148.814 Y61.895 Z-70.778
N6750 X148.183 Y61.275 Z-70.907
N6755 X147.388 Y60.88 Z-71.016
N6760 X146.507 Y60.75 Z-71.093
N6765 X137.214 Y60.836 Z-71.702
N6770 X136.333 Y60.982 Z-71.74
N6775 X135.538 Y61.392 Z-71.736
N6780 X134.907 Y62.023 Z-71.689
N6785 X134.502 Y62.816 Z-71.605
N6790 X134.362 Y63.692 Z-71.491
N6795 Y85.345 Z-67.682
N6800 Y118.103 Z-62.827
N6805 Y210.547 Z-50.817
N6810 G3 Y212.206 Z-48.928 J-0.245 K1.889 F1000.
N6815 G0 Z5.
N6820 X119.366 Y212.164
N6825 Z-48.583
N6830 G1 Z-48.934 F1000.
N6835 G2 Y210.504 Z-50.823 J-1.905 K0.
N6840 G1 Y118.06 Z-62.832 F4000.
N6845 Y87.88 Z-67.255
N6850 Y46.604 Z-74.803
N6855 Y38.485 Z-75.053
N6860 G2 Y38.036 Z-74.956 J-0.029 K0.952
N6865 G3 Y37.617 Z-74.859 J-0.419 K-0.855
N6870 G17 G2 X116.509 Y34.76 I-2.857 J0.
N6875 G1 X107.228
N6880 G2 X104.37 Y37.617 I0. J2.857
N6885 G1 Y37.618
N6890 G19 G2 Y38.037 Z-74.956 J0. K-0.952
N6895 G3 Y38.485 Z-75.053 J0.419 K0.855
N6900 G1 Y46.561 Z-74.811
N6905 Y87.838 Z-67.262
N6910 Y118.018 Z-62.838
N6915 Y210.462 Z-50.829
N6920 G3 Y212.122 Z-48.939 J-0.245 K1.889 F1000.
N6925 G0 Z5.
N6930 X89.374 Y212.228
N6935 Z-48.575
N6940 G1 Z-48.925 F1000.
N6945 G2 Y210.568 Z-50.815 J-1.905 K0.
N6950 G1 Y118.273 Z-62.802 F4000.
N6955 Y81.192 Z-68.378
N6960 Y42.828 Z-75.
N6965 Y38.485 Z-75.053
N6970 G2 Y38.054 Z-74.956 J-0.012 K0.952
N6975 G3 Y37.635 Z-74.858 J-0.419 K-0.855
N6980 G17 G2 X86.517 Y34.777 I-2.857 J0.
N6985 G1 X77.236
N6990 G2 X74.378 Y37.635 I0. J2.857
N6995 G19 G2 Y38.054 Z-74.956 J0. K-0.952
N7000 G3 Y38.485 Z-75.053 J0.419 K0.855
N7005 G1 Y42.798 Z-75.
N7010 Y81.162 Z-68.383
N7015 Y118.23 Z-62.808
N7020 Y210.526 Z-50.82
N7025 G3 Y212.186 Z-48.931 J-0.245 K1.889 F1000.
N7030 G0 Z5.
N7035 X59.382 Y212.144
N7040 Z-48.587
N7045 G1 Z-48.937 F1000.
N7050 G2 Y210.484 Z-50.826 J-1.905 K0.
N7055 G1 Y118.188 Z-62.813 F4000.
N7060 Y78.76 Z-68.786
N7065 Y42.768 Z-75.
N7070 Y38.485 Z-75.053
N7075 G2 Y36.556 Z-73.148 J-0.023 K1.905 F1000.
N7080 G0 Z5.
N7085 X44.386 Y-32.904
N7090 Z-73.147
N7095 G3 Y-30.997 Z-75.052 J1.905 K0. F1000.
N7100 G1 Y42.738 Z-75. F4000.
N7105 Y78.73 Z-68.791
N7110 Y118.146 Z-62.818
N7115 Y210.59 Z-50.812
N7120 G3 Y212.25 Z-48.923 J-0.245 K1.889 F1000.
N7125 G0 Z5.
N7130 X29.39 Y212.207
N7135 Z-48.579
N7140 G1 Z-48.929 F1000.
N7145 G2 Y210.548 Z-50.818 J-1.905 K0.
N7150 G1 Y118.104 Z-62.823 F4000.
N7155 Y78.7 Z-68.797
N7160 Y42.706 Z-75.
N7165 Y-30.997 Z-75.052
N7170 G2 Y-31.417 Z-74.955 J-0.001 K0.952
N7175 G3 Y-31.836 Z-74.858 J-0.419 K-0.855
N7180 G17 G2 X26.533 Y-34.694 I-2.858 J0.
N7185 G1 X17.252
N7190 G2 X14.394 Y-31.836 I0. J2.858
N7195 G19 G2 Y-31.417 Z-74.955 J0. K-0.952
N7200 G3 Y-30.997 Z-75.052 J0.419 K0.855
N7205 G1 Y42.675 Z-75.
N7210 Y78.669 Z-68.803
N7215 Y118.062 Z-62.829
N7220 Y210.506 Z-50.824
N7225 G3 Y212.165 Z-48.935 J-0.245 K1.889 F1000.
N7230 G0 Z5.
N7235 X-0.602 Y211.531
N7240 Z-48.669
N7245 G1 Z-49.02 F1000.
N7250 G2 Y209.871 Z-50.909 J-1.905 K0.
N7255 G1 Y119.798 Z-62.591 F4000.
N7260 Y84.874 Z-67.758
N7265 Y46.416 Z-74.839
N7270 Y8.278 Z-75.053
N7275 Y8.254
N7280 Y-8.278
N7285 Y-30.997 Z-75.052
N7290 G2 Y-31.417 Z-74.955 J0. K0.952
N7295 G3 Y-31.836 Z-74.858 J-0.419 K-0.855
N7300 G17 G2 X-3.459 Y-34.694 I-2.857 J0.
N7305 G1 X-12.74
N7310 G2 X-15.598 Y-31.836 I0. J2.858
N7315 G19 G2 Y-31.417 Z-74.955 J0. K-0.952
N7320 G3 Y-30.997 Z-75.052 J0.419 K0.855
N7325 G1 Y42.612 Z-75.
N7330 Y79.056 Z-68.738
N7335 Y120.646 Z-62.475
N7340 Y210.57 Z-50.816
N7345 G3 Y212.23 Z-48.926 J-0.245 K1.889 F1000.
N7350 G0 Z5.
N7355 X-30.594 Y212.187
N7360 Z-48.582
N7365 G1 Z-48.932 F1000.
N7370 G2 Y210.527 Z-50.821 J-1.905 K0.
N7375 G1 Y120.809 Z-62.454 F4000.
N7380 Y79.013 Z-68.746
N7385 Y42.57 Z-75.
N7390 Y-30.997 Z-75.052
N7395 G2 Y-31.417 Z-74.955 J-0.001 K0.952
N7400 G3 Y-31.836 Z-74.858 J-0.419 K-0.855
N7405 G1 Y-31.838
N7410 G17 G2 X-33.452 Y-34.696 I-2.858 J0.
N7415 G1 X-42.733
N7420 G2 X-45.59 Y-31.838 I0. J2.858
N7425 G19 G2 Y-31.419 Z-74.955 J0. K-0.952
N7430 G3 Y-30.997 Z-75.052 J0.419 K0.855
N7435 G1 Y46.288 Z-74.864
N7440 Y84.748 Z-67.78
N7445 Y119.878 Z-62.582
N7450 Y209.744 Z-50.926
N7455 G3 Y211.404 Z-49.037 J-0.245 K1.889 F1000.
N7460 G0 Z5.
N7465 X-60.586 Y212.251
N7470 Z-48.574
N7475 G1 Z-48.924 F1000.
N7480 G2 Y210.591 Z-50.813 J-1.905 K0.
N7485 G1 Y120.725 Z-62.467 F4000.
N7490 Y78.929 Z-68.761
N7495 Y42.484 Z-75.
N7500 Y38.485 Z-75.053
N7505 G2 Y38.053 Z-74.956 J-0.013 K0.952
N7510 G3 Y37.634 Z-74.858 J-0.419 K-0.855
N7515 G1 Y37.616
N7520 G17 G2 X-63.444 Y34.759 I-2.858 J0.
N7525 G1 X-72.725
N7530 G2 X-75.582 Y37.616 I0. J2.857
N7535 G19 G2 Y38.035 Z-74.956 J0. K-0.952
N7540 G1 Y38.036
N7545 G3 Y38.485 Z-75.053 J0.419 K0.855
N7550 G1 Y46.618 Z-74.8
N7555 Y78.887 Z-68.769
N7560 Y120.683 Z-62.473
N7565 Y210.549 Z-50.819
N7570 G3 Y212.209 Z-48.93 J-0.245 K1.889 F1000.
N7575 G0 Z5.
N7580 X-90.578 Y211.277
N7585 Z-48.704
N7590 G1 Z-49.054 F1000.
N7595 G2 Y209.617 Z-50.944 J-1.905 K0.
N7600 G1 Y119.751 Z-62.602 F4000.
N7605 Y86.993 Z-67.403
N7610 Y45.686 Z-74.981
N7615 Y38.485 Z-75.053
N7620 G2 Y38.056 Z-74.955 J-0.01 K0.952
N7625 G3 Y37.637 Z-74.858 J-0.419 K-0.855
N7630 G1 Y37.612
N7635 G17 G2 X-93.436 Y34.754 I-2.857 J0.
N7640 G1 X-102.717
N7645 G2 X-105.574 Y37.612 I0. J2.857
N7650 G19 G2 Y38.031 Z-74.955 J0. K-0.952
N7655 G1 Y38.032 Z-74.956
N7660 G3 Y38.485 Z-75.053 J0.419 K0.855
N7665 G1 Y46.83 Z-74.759
N7670 Y79.099 Z-68.734
N7675 Y120.895 Z-62.445
N7680 Y210.613 Z-50.811
N7685 G3 Y212.273 Z-48.922 J-0.245 K1.889 F1000.
N7690 G0 Z5.
N7695 X-120.57 Y212.262
N7700 Z-48.573
N7705 G1 Z-48.923 F1000.
N7710 G2 Y210.602 Z-50.812 J-1.905 K0.
N7715 G1 Y120.741 Z-62.467 F4000.
N7720 Y78.499 Z-68.836
N7725 Y46.23 Z-74.875
N7730 Y39.192 Z-75.052
N7735 X-120.707 Y38.308 Z-75.044
N7740 X-121.103 Y37.51 Z-74.976
N7745 X-121.72 Y36.874 Z-74.855
N7750 X-122.498 Y36.464 Z-74.693
N7755 X-123.36 Y36.32 Z-74.505
N7760 X-132.777 Y36.267 Z-72.417
N7765 X-133.639 Y36.402 Z-72.223
N7770 X-134.416 Y36.804 Z-72.04
N7775 X-135.034 Y37.432 Z-71.887
N7780 X-135.43 Y38.226 Z-71.779
N7785 X-135.566 Y39.108 Z-71.727
N7790 Y65.99 Z-71.051
N7795 Y78.488 Z-68.838
N7800 Y120.729 Z-62.47
N7805 Y210.591 Z-50.814
N7810 G3 Y212.251 Z-48.925 J-0.245 K1.889 F1000.
N7815 G0 Z5.
N7820 X-150.562 Y212.281
N7825 Z-48.571
N7830 G1 Z-48.921 F1000.
N7835 G2 Y210.621 Z-50.81 J-1.905 K0.
N7840 G1 Y120.903 Z-62.446 F4000.
N7845 Y97.249 Z-65.713
N7850 G2 Y95.083 Z-63.826 J-0.261 K1.887 F1000.
N7855 G0 Z5.
N7860 X-165.558 Y131.21
N7865 Z-58.884
N7870 G3 Y133.358 Z-60.773 J1.905 K0. F1000.
N7875 G1 Y210.579 Z-50.816 F4000.
N7880 G3 Y212.24 Z-48.927 J-0.244 K1.889 F1000.
N7885 G0 Z5.
N7890 X-180.554 Y213.088
N7895 Z-48.465
N7900 G1 Z-48.815 F1000.
N7905 G2 Y211.426 Z-50.704 J-1.905 K0.
N7910 G1 Y173.885 Z-55.519 F4000.
N7915 G2 Y171.737 Z-53.63 J-0.242 K1.89 F1000.
N7920 G0 Z5.
N7925 X164.355 Y1701.203
N7930 Z-48.18
N7935 G1 Z-48.699 F1000.
N7940 G3 Y1702.696 Z-50.559 J1.905 K0.
N7945 G1 Y1712.25 Z-52.673 F4000.
N7950 G3 Y1714.567 Z-50.813 J0.411 K1.86 F1000.
N7955 G0 Z5.
N7960 X149.358 Y1702.446
N7965 Z-48.454
N7970 G1 Z-48.973 F1000.
N7975 G3 Y1703.921 Z-50.829 J1.905 K0.
N7980 G1 Y1735.417 Z-58.134 F4000.
N7985 G3 Y1736.051 Z-58.062 J0.215 K0.928
N7990 G2 Y1736.47 Z-57.965 J0.419 K-0.855
N7995 G1 Y1757.159
N8000 X149.227 Y1758.042 Z-58.011
N8005 X148.844 Y1758.839 Z-58.147
N8010 X148.248 Y1759.471 Z-58.359
N8015 X147.498 Y1759.877 Z-58.625
N8020 X146.666 Y1760.017 Z-58.921
N8025 X137.055 Z-62.333
N8030 X136.223 Y1759.877 Z-62.628
N8035 X135.472 Y1759.471 Z-62.895
N8040 X134.877 Y1758.839 Z-63.106
N8045 X134.494 Y1758.042 Z-63.242
N8050 X134.362 Y1757.159 Z-63.289
N8055 G3 Y1756.74 Z-63.386 J0. K-0.952
N8060 G2 Y1756.089 Z-63.455 J-0.419 K0.855
N8065 G1 Y1719.999 Z-54.413
N8070 Y1703.07 Z-50.64
N8075 Y1702.799 Z-50.58
N8080 X134.223 Y1701.939 Z-50.381
N8085 X133.817 Y1701.163 Z-50.201
N8090 X133.185 Y1700.547 Z-50.059
N8095 X132.388 Y1700.152 Z-49.967
N8100 X131.505 Y1700.015 Z-49.935
N8105 X122.224
N8110 X121.341 Y1700.151 Z-49.967
N8115 X120.544 Y1700.547 Z-50.059
N8120 X119.912 Y1701.163 Z-50.201
N8125 X119.506 Y1701.939 Z-50.381
N8130 X119.366 Y1702.799 Z-50.58
N8135 Y1735.006 Z-58.034
N8140 Y1774.964 Z-68.581
N8145 G3 Y1775.626 Z-68.515 J0.243 K0.921
N8150 G2 Y1776.045 Z-68.418 J0.419 K-0.855
N8155 G1 Y1793.416
N8160 X119.231 Y1794.299 Z-68.453
N8165 X118.839 Y1795.096 Z-68.557
N8170 X118.227 Y1795.728 Z-68.718
N8175 X117.457 Y1796.134 Z-68.92
N8180 X116.603 Y1796.274 Z-69.145
N8185 X107.134 Z-71.638
N8190 X106.28 Y1796.134 Z-71.862
N8195 X105.509 Y1795.728 Z-72.065
N8200 X104.898 Y1795.096 Z-72.226
N8205 X104.506 Y1794.299 Z-72.329
N8210 X104.37 Y1793.416 Z-72.365
N8215 G3 Y1792.997 Z-72.462 J0. K-0.952
N8220 G2 Y1792.38 Z-72.539 J-0.419 K0.855
N8225 G1 Y1778.87 Z-69.667
N8230 Y1733.955 Z-57.78
N8235 Y1703.888 Z-50.82
N8240 Y1703.123 Z-50.65
N8245 X104.231 Y1702.263 Z-50.45
N8250 X103.825 Y1701.487 Z-50.271
N8255 X103.193 Y1700.871 Z-50.128
N8260 X102.396 Y1700.475 Z-50.036
N8265 X101.513 Y1700.339 Z-50.004
N8270 X92.232 Y1700.338
N8275 X91.349 Y1700.474 Z-50.036
N8280 X90.552 Y1700.869 Z-50.128
N8285 X89.92 Y1701.485 Z-50.271
N8290 X89.514 Y1702.261 Z-50.45
N8295 X89.374 Y1703.121 Z-50.65
N8300 Y1736.183 Z-58.317
N8305 Y1785.107 Z-71.4
N8310 Y1808.519 Z-74.492
N8315 G3 Y1809.063 Z-74.403 J0.125 K0.944
N8320 G2 Y1809.482 Z-74.306 J0.419 K-0.855
N8325 G1 Y1824.301
N8330 X89.235 Y1825.184 Z-74.311
N8335 X88.829 Y1825.981 Z-74.326
N8340 X88.197 Y1826.613 Z-74.349
N8345 X87.401 Y1827.019 Z-74.379
N8350 X86.519 Y1827.159 Z-74.411
N8355 X77.234 Z-74.754
N8360 X76.351 Y1827.019 Z-74.786
N8365 X75.555 Y1826.613 Z-74.816
N8370 X74.924 Y1825.981 Z-74.839
N8375 X74.518 Y1825.184 Z-74.854
N8380 X74.378 Y1824.301 Z-74.859
N8385 G3 Y1823.882 Z-74.956 J0. K-0.952
N8390 G2 Y1823.408 Z-75.052 J-0.419 K0.855
N8395 G1 Y1799.691 Z-73.673
N8400 Y1781.538 Z-70.417
N8405 Y1737.094 Z-58.537
N8410 Y1703.775 Z-50.794
N8415 Y1702.91 Z-50.602
N8420 X74.239 Y1702.05 Z-50.402
N8425 X73.833 Y1701.274 Z-50.222
N8430 X73.201 Y1700.658 Z-50.078
N8435 X72.404 Y1700.263 Z-49.987
N8440 X71.521 Y1700.127 Z-49.955
N8445 X62.24 Y1700.125
N8450 X61.357 Y1700.261 Z-49.987
N8455 X60.56 Y1700.657 Z-50.078
N8460 X59.928 Y1701.272 Z-50.222
N8465 X59.522 Y1702.048 Z-50.402
N8470 X59.382 Y1702.908 Z-50.602
N8475 Y1736.822 Z-58.471
N8480 Y1780.8 Z-70.218
N8485 Y1801.125 Z-73.912
N8490 Y1836.739 Z-75.076
N8495 G3 Y1837.189 Z-74.979 J0.031 K0.952
N8500 G1 Y1837.19
N8505 G2 Y1837.609 Z-74.881 J0.419 K-0.855
N8510 G1 Y1848.839
N8515 G17 G3 X56.525 Y1851.696 I-2.858 J0.
N8520 G1 X47.244
N8525 G3 X44.386 Y1848.839 I0. J-2.858
N8530 G19 G3 Y1848.419 Z-74.979 J0. K-0.952
N8535 G2 Y1847.983 Z-75.076 J-0.419 K0.855
N8540 G1 Y1847.638 Z-75.064
N8545 Y1803.907 Z-74.249
N8550 Y1781.211 Z-70.336
N8555 Y1737.234 Z-58.572
N8560 Y1703.924 Z-50.826
N8565 Y1703.86 Z-50.811
N8570 X44.246 Y1703. Z-50.611
N8575 X43.84 Y1702.224 Z-50.431
N8580 X43.208 Y1701.609 Z-50.287
N8585 X42.412 Y1701.213 Z-50.195
N8590 X41.529 Y1701.077 Z-50.164
N8595 X32.248
N8600 X31.365 Y1701.213 Z-50.195
N8605 X30.568 Y1701.609 Z-50.287
N8610 X29.936 Y1702.224 Z-50.431
N8615 X29.53 Y1703. Z-50.611
N8620 X29.39 Y1703.86 Z-50.811
N8625 Y1737.449 Z-58.624
N8630 Y1785.654 Z-71.517
N8635 Y1806.694 Z-74.435
N8640 Y1906. Z-75.053
N8645 G3 Y1906.425 Z-74.955 J0.006 K0.952
N8650 G2 Y1906.844 Z-74.858 J0.419 K-0.855
N8655 G17 G3 X26.533 Y1909.702 I-2.858 J0.
N8660 G1 X17.252
N8665 G3 X14.394 Y1906.844 I0. J-2.858
N8670 G19 G3 Y1906.425 Z-74.955 J0. K-0.952
N8675 G2 Y1906. Z-75.053 J-0.419 K0.855
N8680 G1 Y1807.109 Z-74.454
N8685 Y1784.23 Z-71.172
N8690 Y1737.899 Z-58.734
N8695 Y1703.884 Z-50.816
N8700 X14.254 Y1703.024 Z-50.616
N8705 X13.848 Y1702.248 Z-50.435
N8710 X13.216 Y1701.632 Z-50.292
N8715 X12.42 Y1701.237 Z-50.2
N8720 X11.537 Y1701.101 Z-50.168
N8725 X2.256
N8730 X1.372 Y1701.237 Z-50.2
N8735 X0.576 Y1701.633 Z-50.292
N8740 X-0.056 Y1702.248 Z-50.435
N8745 X-0.462 Y1703.024 Z-50.616
N8750 X-0.602 Y1703.884 Z-50.816
N8755 Y1703.925 Z-50.824
N8760 Y1734.273 Z-57.856
N8765 Y1782.29 Z-70.647
N8770 Y1805.151 Z-74.305
N8775 Y1866.722 Z-75.053
N8780 G3 Y1868.65 Z-73.148 J0.023 K1.905 F1000.
N8785 G0 Z5.
N8790 Y1881.373
N8795 Z-73.148
N8800 G3 Y1883.278 Z-75.053 J1.905 K0. F1000.
N8805 G1 Y1906. F4000.
N8810 G3 Y1906.419 Z-74.955 J0. K0.952
N8815 G2 Y1906.839 Z-74.858 J0.419 K-0.855
N8820 G1 Y1906.843
N8825 G17 G3 X-3.459 Y1909.701 I-2.857 J0.
N8830 G1 X-12.74
N8835 G3 X-15.598 Y1906.843 I0. J-2.858
N8840 G19 G3 Y1906.424 Z-74.955 J0. K-0.952
N8845 G2 Y1905.999 Z-75.053 J-0.419 K0.855
N8850 G1 Y1807.938 Z-74.492
N8855 Y1785.059 Z-71.393
N8860 Y1734.694 Z-57.959
N8865 Y1703.919 Z-50.822
N8870 X-15.738 Y1703.059 Z-50.623
N8875 X-16.144 Y1702.283 Z-50.443
N8880 X-16.776 Y1701.667 Z-50.3
N8885 X-17.573 Y1701.272 Z-50.208
N8890 X-18.456 Y1701.136 Z-50.176
N8895 X-27.737
N8900 X-28.62 Y1701.272 Z-50.208
N8905 X-29.416 Y1701.668 Z-50.3
N8910 X-30.048 Y1702.284 Z-50.443
N8915 X-30.454 Y1703.06 Z-50.623
N8920 X-30.594 Y1703.92 Z-50.822
N8925 Y1704.068 Z-50.855
N8930 Y1735.126 Z-58.064
N8935 Y1785.474 Z-71.463
N8940 Y1808.353 Z-74.511
N8945 Y1905.997 Z-75.052
N8950 G3 Y1907.912 Z-73.147 J0.01 K1.905 F1000.
N8955 G0 Z5.
N8960 X-45.59 Y1848.849
N8965 Z-73.152
N8970 G2 Y1846.9 Z-75.057 J-1.905 K0. F1000.
N8975 G1 Y1801.652 Z-74.026 F4000.
N8980 Y1779.507 Z-69.896
N8985 Y1735.54 Z-58.165
N8990 Y1703.627 Z-50.757
N8995 Y1702.045 Z-50.389
N9000 X-45.73 Y1701.185 Z-50.19
N9005 X-46.136 Y1700.409 Z-50.01
N9010 X-46.768 Y1699.793 Z-49.868
N9015 X-47.565 Y1699.397 Z-49.777
N9020 X-48.448 Y1699.261 Z-49.746
N9025 X-57.729 Y1699.259 Z-49.756
N9030 X-58.612 Y1699.395 Z-49.789
N9035 X-59.408 Y1699.79 Z-49.881
N9040 X-60.04 Y1700.405 Z-50.025
N9045 X-60.446 Y1701.181 Z-50.205
N9050 X-60.586 Y1702.041 Z-50.405
N9055 Y1735.95 Z-58.265
N9060 Y1779.922 Z-70.011
N9065 Y1799.695 Z-73.877
N9070 Y1835.741 Z-75.085
N9075 G3 Y1836.193 Z-74.988 J0.032 K0.952
N9080 G1 Y1836.361 Z-74.906
N9085 G2 Y1836.78 Z-74.809 J0.419 K-0.855
N9090 G17 G3 X-63.444 Y1839.638 I-2.858 J0.
N9095 G1 X-72.725
N9100 G3 X-75.582 Y1836.78 I0. J-2.857
N9105 G1 Y1823.169
N9110 G19 G3 Y1822.75 Z-74.906 J0. K-0.952
N9115 G2 Y1822.264 Z-75.001 J-0.419 K0.855
N9120 G1 Y1794.108 Z-73.012
N9125 Y1772.413 Z-67.924
N9130 Y1732.43 Z-57.413
N9135 Y1702.902 Z-50.596
N9140 Y1702.155 Z-50.43
N9145 X-75.722 Y1701.295 Z-50.232
N9150 X-76.128 Y1700.519 Z-50.052
N9155 X-76.76 Y1699.903 Z-49.91
N9160 X-77.556 Y1699.507 Z-49.819
N9165 X-78.439 Y1699.371 Z-49.787
N9170 X-87.72 Y1699.37
N9175 X-88.603 Y1699.506 Z-49.819
N9180 X-89.4 Y1699.901 Z-49.91
N9185 X-90.032 Y1700.517 Z-50.052
N9190 X-90.438 Y1701.293 Z-50.232
N9195 X-90.578 Y1702.154 Z-50.43
N9200 Y1731.681 Z-57.232
N9205 Y1788.91 Z-72.064
N9210 Y1807.333 Z-74.417
N9215 G3 Y1807.872 Z-74.327 J0.121 K0.945
N9220 G2 Y1808.292 Z-74.23 J0.419 K-0.855
N9225 G1 X-90.717 Y1809.175 Z-74.212
N9230 X-91.119 Y1809.971 Z-74.16
N9235 X-91.746 Y1810.603 Z-74.079
N9240 X-92.536 Y1811.009 Z-73.977
N9245 X-93.412 Y1811.149 Z-73.864
N9250 X-102.74 Z-72.658
N9255 X-103.616 Y1811.009 Z-72.545
N9260 X-104.406 Y1810.603 Z-72.443
N9265 X-105.033 Y1809.971 Z-72.361
N9270 X-105.436 Y1809.175 Z-72.309
N9275 X-105.574 Y1808.292 Z-72.292
N9280 Y1792.178
N9285 G3 Y1791.759 Z-72.389 J0. K-0.952
N9290 G2 Y1791.104 Z-72.456 J-0.419 K0.855
N9295 G1 Y1728.669 Z-56.502
N9300 Y1703.974 Z-50.835
N9305 Y1702.873 Z-50.591
N9310 X-105.714 Y1702.013 Z-50.392
N9315 X-106.12 Y1701.236 Z-50.212
N9320 X-106.752 Y1700.62 Z-50.07
N9325 X-107.548 Y1700.225 Z-49.978
N9330 X-108.431 Y1700.089 Z-49.947
N9335 X-117.712 Y1700.087
N9340 X-118.595 Y1700.223 Z-49.978
N9345 X-119.392 Y1700.619 Z-50.07
N9350 X-120.024 Y1701.234 Z-50.212
N9355 X-120.43 Y1702.01 Z-50.392
N9360 X-120.57 Y1702.871 Z-50.591
N9365 Y1733.23 Z-57.609
N9370 Y1773.669 Z-68.281
N9375 G3 Y1774.331 Z-68.215 J0.243 K0.921
N9380 G2 Y1774.75 Z-68.118 J0.419 K-0.855
N9385 G1 X-120.702 Y1775.634 Z-68.072
N9390 X-121.085 Y1776.43 Z-67.937
N9395 X-121.682 Y1777.062 Z-67.728
N9400 X-122.434 Y1777.468 Z-67.465
N9405 X-123.267 Y1777.608 Z-67.172
N9410 X-132.87 Z-63.804
N9415 X-133.703 Y1777.468 Z-63.512
N9420 X-134.455 Y1777.062 Z-63.248
N9425 X-135.051 Y1776.43 Z-63.039
N9430 X-135.434 Y1775.634 Z-62.905
N9435 X-135.566 Y1774.75 Z-62.858
N9440 Y1755.538
N9445 G3 Y1755.119 Z-62.956 J0. K-0.952
N9450 G2 Y1754.47 Z-63.025 J-0.419 K0.855
N9455 G1 Y1718.39 Z-54.041
N9460 Y1702.713 Z-50.556
N9465 Y1702.105 Z-50.421
N9470 X-135.706 Y1701.245 Z-50.222
N9475 X-136.112 Y1700.469 Z-50.043
N9480 X-136.744 Y1699.853 Z-49.901
N9485 X-137.541 Y1699.457 Z-49.809
N9490 X-138.424 Y1699.321 Z-49.778
N9495 X-147.705 Y1699.32
N9500 X-148.588 Y1699.456 Z-49.809
N9505 X-149.384 Y1699.852 Z-49.901
N9510 X-150.017 Y1700.468 Z-50.043
N9515 X-150.422 Y1701.244 Z-50.222
N9520 X-150.562 Y1702.104 Z-50.421
N9525 Y1733.588 Z-57.697
N9530 G3 Y1734.222 Z-57.624 J0.214 K0.928
N9535 G2 Y1734.641 Z-57.527 J0.419 K-0.855
N9540 G1 X-150.694 Y1735.524 Z-57.479
N9545 X-151.075 Y1736.32 Z-57.339
N9550 X-151.669 Y1736.953 Z-57.122
N9555 X-152.417 Y1737.358 Z-56.848
N9560 X-153.246 Y1737.498 Z-56.545
N9565 X-162.875 Z-53.021
N9570 X-163.704 Y1737.358 Z-52.717
N9575 X-164.452 Y1736.953 Z-52.443
N9580 X-165.046 Y1736.32 Z-52.226
N9585 X-165.427 Y1735.524 Z-52.087
N9590 X-165.558 Y1734.641 Z-52.038
N9595 Y1711.195
N9600 G3 Y1710.775 Z-52.136 J0. K-0.952
N9605 G2 Y1710.15 Z-52.21 J-0.419 K0.855
N9610 G1 Y1703.024 Z-50.626
N9615 G2 Y1701.532 Z-48.767 J0.413 K1.86 F1000.
N9620 G0 Z15.
N9625 G17
(PARALLEL2)
N9630 G0 X118.841 Y43.434
N9635 Z14.935
N9640 Z-85.968
N9645 G18 G3 X115.053 Z-86.256 I-1.905 K0. F1000.
N9650 G1 X114.523 Z-82.792 F4000.
N9655 X112.496 Z-80.23
N9660 X110.221 Z-79.186
N9665 X93.927 Z-79.64
N9670 X87.909 Z-81.555
N9675 X85.31 Z-83.46
N9680 X84.405 Z-85.494
N9685 X82.201 Y44.138 Z-85.565
N9690 X79.998 Y44.846 Z-85.636
N9695 X77.818 Y45.62 Z-85.707
N9700 X75.651 Y46.434 Z-85.778
N9705 X75.683 Z-84.937
N9710 X76.946 Z-82.475
N9715 X79.015 Z-80.84
N9720 X84.03 Z-78.837
N9725 X91.441 Z-77.436
N9730 X107.015 Z-76.723
N9735 X111.422 Z-77.088
N9740 X114.037 Z-78.457
N9745 X115.77 Z-80.254
N9750 X117.033 Z-82.874
N9755 X117.402 Z-86.281
N9760 X118.771 Y49.434 Z-85.83
N9765 X118.296 Z-82.162
N9770 X116.316 Z-78.872
N9775 X112.853 Z-76.541
N9780 X108.528 Z-75.773
N9785 X84.575 Z-76.765
N9790 X75.959 Z-78.461
N9795 X71.473 Z-80.709
N9800 X70.051 Z-81.996
N9805 X68.835 Z-84.409
N9810 X68.545 Z-86.487
N9815 G3 X67.601 Z-87.308 I-0.943 K0.132
N9820 G1 X61.286
N9825 X60.735 Y49.507 Z-87.261
N9830 X60.238 Y49.72 Z-87.124
N9835 X59.844 Y50.052 Z-86.911
N9840 X59.59 Y50.47 Z-86.642
N9845 X59.503 Y50.934 Z-86.344
N9850 X59.59 Y51.397 Z-86.046
N9855 X59.844 Y51.816 Z-85.777
N9860 X60.238 Y52.147 Z-85.564
N9865 X60.735 Y52.36 Z-85.427
N9870 X61.286 Y52.434 Z-85.38
N9875 G2 X62.196 Z-84.709 I0. K0.952
N9880 G1 X62.977 Z-82.184
N9885 X65.481 Z-79.907
N9890 X69.655 Z-77.997
N9895 X77.081 Z-76.423
N9900 X109.914 Z-75.411
N9905 X113.861 Z-76.046
N9910 X117.397 Z-78.231
N9915 X119.137 Z-80.577
N9920 X119.979 Z-83.144
N9925 X120.134 Z-86.268
N9930 X121.458 Y55.434 Z-84.532
N9935 X120.821 Z-80.961
N9940 X119.137 Z-78.278
N9945 X115.552 Z-75.816
N9950 X111.225 Z-75.052
N9955 X70.394 Z-76.096
N9960 X64.321 Z-77.271
N9965 X60.114 Z-79.123
N9970 X57.555 Z-81.361
N9975 X56.513 Z-83.84
N9980 X56.466 Z-85.317
N9985 X53.7 Y56.891 Z-84.603
N9990 X50.981 Y58.434 Z-83.889
N9995 X51.822 Z-81.192
N10000 X53.985 Z-78.993
N10005 X58.933 Z-76.772
N10010 X65.039 Z-75.638
N10015 X112.183 Z-74.698
N10020 X115.779 Z-75.079
N10025 X119.479 Z-76.975
N10030 X121.663 Z-79.572
N10035 X122.505 Z-81.691
N10040 X122.812 Z-85.351
N10045 X124.137 Y61.434 Z-84.151
N10050 X123.347 Z-79.938
N10055 X121.663 Z-77.416
N10060 X118.21 Z-75.09
N10065 X113.884 Z-74.33
N10070 X58.88 Z-75.281
N10075 X52.818 Z-76.543
N10080 X48.669 Z-78.635
N10085 X47.264 Z-79.916
N10090 X46.045 Z-82.003
N10095 X45.812 Z-83.336
N10100 X43.33 Y62.901 Z-83.438
N10105 X40.889 Y64.434 Z-83.54
N10110 X41.162 Z-81.653
N10115 X42.879 Z-78.836
N10120 X46.296 Z-76.597
N10125 X52.559 Z-74.954
N10130 X59.294 Z-74.67
N10135 X111.422 Z-74.062
N10140 X118.004 Z-74.248
N10145 X120.816 Z-75.35
N10150 X123.563 Z-77.729
N10155 X125.031 Z-80.555
N10160 X125.458 Z-84.802
N10165 X126.772 Y67.434 Z-85.186
N10170 X126.488 Z-80.723
N10175 X124.964 Z-77.477
N10180 X121.896 Z-74.854
N10185 X118.991 Z-73.813
N10190 X102.285 Z-73.966
N10195 X47.76 Z-74.442
N10200 X42.708 Z-75.623
N10205 X39.929 Z-76.977
N10210 X37.429 Z-79.267
N10215 X36.41 Z-81.722
N10220 X36.109 Z-84.021
N10225 X33.788 Y68.912 Z-83.735
N10230 X31.494 Y70.434 Z-83.449
N10235 X31.688 Z-81.811
N10240 X32.712 Z-78.863
N10245 X35.193 Z-76.511
N10250 X39.517 Z-74.619
N10255 X44.235 Z-73.794
N10260 X61.072 Z-73.929
N10265 X114.077 Z-73.332
N10270 X120.657 Z-73.528
N10275 X123.461 Z-74.64
N10280 X125.872 Z-76.633
N10285 X127.556 Z-79.572
N10290 X128.056 Z-84.595
N10295 X129.342 Y73.434 Z-84.6
N10300 X129.24 Z-80.913
N10305 X128.398 Z-78.122
N10310 X125.986 Z-75.124
N10315 X122.065 Z-73.191
N10320 X117.178 Z-72.917
N10325 X64.583 Z-73.558
N10330 X39.326 Z-73.281
N10335 X34.664 Z-74.148
N10340 X30.355 Z-76.117
N10345 X27.91 Z-78.602
N10350 X27.033 Z-81.544
N10355 X27.013 Z-82.026
N10360 X24.806 Y74.911 Z-81.461
N10365 X22.63 Y76.434 Z-80.895
N10370 X23.202 Z-78.431
N10375 X25.104 Z-76.053
N10380 X29.311 Z-73.841
N10385 X35.606 Z-72.676
N10390 X62.546 Z-73.175
N10395 X114.898 Z-72.647
N10400 X123.166 Z-72.781
N10405 X125.979 Z-73.877
N10410 X128.398 Z-75.852
N10415 X130.082 Z-78.722
N10420 X130.621 Z-82.868
N10425 X131.904 Y79.433 Z-82.513
N10430 X131.365 Z-78.381
N10435 X129.365 Z-75.151
N10440 X126.012 Z-72.907
N10445 X121.688 Z-72.143
N10450 X67.298 Z-72.834
N10455 X30.204 Z-72.195
N10460 X25.294 Z-73.137
N10465 X22.475 Z-74.372
N10470 X19.911 Z-76.477
N10475 X18.648 Z-78.874
N10480 X18.466 Z-80.288
N10485 X16.391 Y80.928 Z-79.973
N10490 X14.325 Y82.433 Z-79.658
N10495 X15.108 Z-76.79
N10500 X17.485 Z-74.291
N10505 X21.806 Z-72.325
N10510 X26.589 Z-71.564
N10515 X68.683 Z-72.449
N10520 X123.514 Z-71.776
N10525 X127.753 Z-72.748
N10530 X130.978 Z-75.179
N10535 X132.607 Z-77.989
N10540 X133.154 Z-82.255
N10545 X134.413 Y85.433 Z-82.925
N10550 X134.291 Z-79.474
N10555 X133.449 Z-76.66
N10560 X131.766 Z-74.311
N10565 X128.239 Z-72.062
N10570 X123.977 Z-71.411
N10575 X69.986 Z-72.097
N10580 X26.209 Z-71.008
N10585 X21.094 Z-71.063
N10590 X16.396 Z-72.137
N10595 X13.626 Z-73.583
N10600 X12.023 Z-75.019
N10605 X10.646 Z-77.545
N10610 X10.445 Z-78.916
N10615 G3 X6.655 Z-78.64 I-1.885 K0.277 F1000.
N10620 G0 Z4.935
N10625 X-80.726 Y43.434
N10630 Z-81.075
N10635 G1 Z-84.794 F1000.
N10640 G3 X-84.405 Z-85.489 I-1.905 K0.
N10645 G1 X-85.102 Z-83.708 F4000.
N10650 X-87.772 Z-81.63
N10655 X-93.416 Z-79.742
N10660 X-105.464 Z-79.103
N10665 X-110.516 Z-79.256
N10670 X-112.186 Z-80.01
N10675 X-114.25 Z-82.22
N10680 X-115.021 Z-85.089
N10685 X-115.059 Z-86.29
N10690 X-117.402 Y46.434 Z-86.282
N10695 X-117.308 Z-84.272
N10700 X-116.071 Z-80.704
N10705 X-113.619 Z-78.153
N10710 X-110.167 Z-76.788
N10715 X-96.546 Z-77.018
N10720 X-85.828 Z-78.371
N10725 X-79.982 Z-80.313
N10730 X-76.612 Z-82.863
N10735 X-75.77 Z-84.482
N10740 X-75.652 Z-85.671
N10745 X-72.083 Y47.901 Z-86.052
N10750 X-68.543 Y49.434 Z-86.433
N10755 X-69.12 Z-83.444
N10760 X-70.936 Z-81.132
N10765 X-75.415 Z-78.654
N10770 X-82.521 Z-77.024
N10775 X-95.937 Z-76.118
N10780 X-110.697 Z-75.931
N10785 X-114.675 Z-77.494
N10790 X-117.097 Z-79.817
N10795 X-118.598 Z-83.354
N10800 X-118.775 Z-86.429
N10805 X-120.114 Y52.434 Z-85.233
N10810 X-120.024 Z-83.453
N10815 X-118.774 Z-79.936
N10820 X-115.977 Z-77.097
N10825 X-112.03 Z-75.567
N10830 X-80.4 Z-76.15
N10835 X-72.21 Z-77.27
N10840 X-66.266 Z-79.446
N10845 X-63.154 Z-81.93
N10850 X-62.196 Z-84.705
N10855 X-56.463 Y55.434 Z-85.382
N10860 X-56.795 Z-82.707
N10865 X-59.073 Z-79.845
N10870 X-62.889 Z-77.767
N10875 X-69.186 Z-76.252
N10880 X-80.916 Z-75.7
N10885 X-112.907 Z-75.136
N10890 X-115.938 Z-75.98
N10895 X-118.836 Z-77.963
N10900 X-120.933 Z-81.257
N10905 X-121.436 Z-83.952
N10910 X-122.811 Y58.434 Z-85.272
N10915 X-122.339 Z-81.115
N10920 X-120.28 Z-77.712
N10925 X-117.169 Z-75.57
N10930 X-113.9 Z-74.737
N10935 X-65.923 Z-75.565
N10940 X-58.683 Z-76.847
N10945 X-54.256 Z-78.813
N10950 X-51.639 Z-81.498
N10955 X-50.98 Z-83.898
N10960 X-45.81 Y61.434 Z-83.486
N10965 X-46.451 Z-81.068
N10970 X-47.293 Z-79.884
N10975 X-49.171 Z-78.283
N10980 X-53.457 Z-76.335
N10985 X-59.886 Z-75.188
N10990 X-115.69 Z-74.428
N10995 X-118.68 Z-75.292
N11000 X-121.587 Z-77.336
N11005 X-123.65 Z-80.725
N11010 X-124.139 Z-84.352
N11015 X-125.452 Y64.434 Z-84.418
N11020 X-124.979 Z-80.39
N11025 X-122.92 Z-76.987
N11030 X-120.265 Z-75.056
N11035 X-117.115 Z-74.08
N11040 X-53.277 Z-74.865
N11045 X-46.976 Z-76.322
N11050 X-43.051 Z-78.67
N11055 X-41.368 Z-81.045
N11060 X-40.887 Z-83.602
N11065 X-36.107 Y67.434 Z-84.023
N11070 X-36.538 Z-81.113
N11075 X-38.222 Z-78.332
N11080 X-40.822 Z-76.459
N11085 X-45.224 Z-74.881
N11090 X-52.493 Z-74.198
N11095 X-102.798 Z-73.957
N11100 X-117.951 Z-73.657
N11105 X-121.142 Z-74.487
N11110 X-123.981 Z-76.368
N11115 X-125.615 Z-78.478
N11120 X-126.698 Z-82.086
N11125 X-126.769 Z-84.963
N11130 X-128.057 Y70.434 Z-84.921
N11135 X-128.049 Z-84.037
N11140 X-127.464 Z-79.313
N11145 X-125.627 Z-76.36
N11150 X-122.989 Z-74.382
N11155 X-120.071 Z-73.407
N11160 X-98.115 Z-73.712
N11165 X-48.872 Z-73.757
N11170 X-42.212 Z-74.034
N11175 X-37.548 Z-75.293
N11180 X-33.86 Z-77.541
N11185 X-32.026 Z-80.214
N11190 X-31.491 Z-83.487
N11195 G2 X-30.551 Z-84.286 I0.94 K0.154
N11200 G1 X-26.093
N11205 X-25.567 Y70.507 Z-84.246
N11210 X-25.091 Y70.72 Z-84.131
N11215 X-24.714 Y71.052 Z-83.952
N11220 X-24.472 Y71.47 Z-83.727
N11225 X-24.389 Y71.934 Z-83.476
N11230 X-24.472 Y72.397 Z-83.226
N11235 X-24.714 Y72.815 Z-83.001
N11240 X-25.091 Y73.147 Z-82.822
N11245 X-25.567 Y73.36 Z-82.707
N11250 X-26.093 Y73.434 Z-82.667
N11255 G3 X-27.012 Z-81.966 I0. K0.952
N11260 G1 X-27.949 Z-78.539
N11265 X-30.379 Z-76.1
N11270 X-34.641 Z-74.155
N11275 X-41.083 Z-73.175
N11280 X-89.839 Z-73.488
N11285 X-120.146 Z-72.895
N11290 X-123.514 Z-73.664
N11295 X-126.296 Z-75.387
N11300 X-128.514 Z-78.365
N11305 X-129.315 Z-82.295
N11310 X-129.322 Z-82.752
N11315 X-130.621 Y76.434 Z-82.868
N11320 X-130.586 Z-81.469
N11325 X-129.833 Z-78.098
N11330 X-127.634 Z-75.076
N11335 X-124.857 Z-73.323
N11340 X-121.489 Z-72.533
N11345 X-82.763 Z-73.203
N11350 X-36.774 Z-72.629
N11355 X-30.312 Z-73.532
N11360 X-25.994 Z-75.404
N11365 X-23.55 Z-77.808
N11370 X-22.63 Z-80.895
N11375 X-20.55 Y77.933 Z-80.485
N11380 X-18.47 Y79.433 Z-80.074
N11385 X-19.293 Z-77.351
N11390 X-21.834 Z-74.772
N11395 X-26.119 Z-72.892
N11400 X-32.59 Z-72.086
N11405 X-75.729 Z-72.867
N11410 X-122.874 Z-72.174
N11415 X-126.242 Z-73.004
N11420 X-129.011 Z-74.803
N11425 X-131.18 Z-77.899
N11430 X-131.895 Z-81.874
N11435 X-131.904 Z-82.507
N11440 X-133.163 Y82.433 Z-83.183
N11445 X-133.139 Z-81.506
N11450 X-132.497 Z-77.693
N11455 X-130.357 Z-74.522
N11460 X-127.573 Z-72.667
N11465 X-124.257 Z-71.817
N11470 X-75.511 Z-72.495
N11475 X-26.764 Z-71.555
N11480 X-21.975 Z-72.278
N11485 X-17.686 Z-74.153
N11490 X-15.134 Z-76.745
N11495 X-14.324 Z-79.717
N11500 X-10.444 Y85.433 Z-78.965
N11505 X-10.96 Z-76.67
N11510 X-12.644 Z-74.377
N11515 X-16.546 Z-72.081
N11520 X-21.269 Z-71.044
N11525 X-78.608 Z-72.109
N11530 X-125.827 Z-71.482
N11535 X-128.889 Z-72.328
N11540 X-131.771 Z-74.317
N11545 X-133.858 Z-77.629
N11550 X-134.412 Z-82.741
N11555 X-134.416 Z-83.162
N11560 X-135.661 Y88.433 Z-82.386
N11565 X-135.585 Z-79.594
N11570 X-134.574 Z-76.051
N11575 X-133.146 Z-74.079
N11580 X-130.495 Z-72.13
N11585 X-127.27 Z-71.139
N11590 X-105.979 Z-71.484
N11595 X-57.735 Z-71.533
N11600 X-22.376 Z-70.415
N11605 X-15.756 Z-70.619
N11610 X-11.292 Z-72.023
N11615 X-8.538 Z-73.947
N11620 X-7.152 Z-75.866
N11625 X-6.561 Z-78.426
N11630 X-3.28 Y88.746 Z-78.408
N11635 X0. Y88.749 Z-78.389
N11640 X3.281 Y88.746 Z-78.371
N11645 X6.562 Y88.433 Z-78.353
N11650 X7.473 Z-75.283
N11655 X9.93 Z-72.81
N11660 X12.714 Z-71.417
N11665 X17.642 Z-70.381
N11670 X26.118 Z-70.611
N11675 X69.895 Z-71.731
N11680 X125.521 Z-71.039
N11685 X129.835 Z-71.829
N11690 X133.272 Z-74.213
N11695 X135.133 Z-77.338
N11700 X135.661 Z-82.386
N11705 X136.914 Y91.433 Z-82.452
N11710 X136.606 Z-77.744
N11715 X135.133 Z-74.591
N11720 X132.074 Z-71.935
N11725 X129.227 Z-70.893
N11730 X117.58
N11735 X65.106 Z-71.28
N11740 X23.012 Z-69.988
N11745 X12.91 Z-69.822
N11750 X7.429 Z-71.105
N11755 X-1.835 Z-70.656
N11760 X-8.159 Z-71.046
N11765 X-12.672 Z-69.852
N11770 X-21.02 Z-69.9
N11775 X-63.113 Z-71.252
N11780 X-115.618 Z-70.939
N11785 X-127.405 Z-70.674
N11790 X-130.772 Z-71.339
N11795 X-133.572 Z-72.947
N11800 X-135.86 Z-75.756
N11805 X-136.853 Z-79.644
N11810 X-136.914 Z-82.452
N11815 X-138.14 Y94.433 Z-80.561
N11820 X-138.052 Z-78.636
N11825 X-136.806 Z-74.872
N11830 X-133.953 Z-71.947
N11835 X-129.897 Z-70.421
N11840 X-115.968 Z-70.588
N11845 X-63.095 Z-70.866
N11850 X-10.385 Z-69.054
N11855 X-2.042 Z-68.58
N11860 X9.536 Z-69.123
N11865 X35.148 Z-70.004
N11870 X70.506 Z-70.972
N11875 X127.91 Z-70.303
N11880 X132.235 Z-71.055
N11885 X135.554 Z-73.26
N11890 X137.659 Z-76.727
N11895 X138.138 Z-80.4
N11900 X139.373 Y97.433 Z-81.986
N11905 X138.922 Z-76.492
N11910 X137.253 Z-73.42
N11915 X134.728 Z-71.302
N11920 X131.92 Z-70.202
N11925 X123.654 Z-70.061
N11930 X75.868 Z-70.603
N11935 X40.509 Z-69.835
N11940 X5.151 Z-68.049
N11945 X-1.584 Z-67.763
N11950 X-23.473 Z-69.064
N11955 X-60.515 Z-70.447
N11960 X-106.176 Z-70.427
N11965 X-131.503 Z-70.115
N11970 X-134.57 Z-71.212
N11975 X-137.162 Z-73.313
N11980 X-138.612 Z-75.642
N11985 X-139.31 Z-79.001
N11990 X-139.372 Z-81.948
N11995 X-140.59 Y100.433 Z-81.63
N12000 X-140.565 Z-80.419
N12005 X-140.016 Z-75.771
N12010 X-137.93 Z-72.461
N12015 X-135.756 Z-70.826
N12020 X-131.974 Z-69.631
N12025 X-84.85 Z-70.254
N12030 X-38.084 Z-69.49
N12035 X-1.042 Z-67.321
N12040 X24.214 Z-68.903
N12045 X69.675 Z-70.197
N12050 X124.88 Z-69.688
N12055 X133.146 Z-69.833
N12060 X135.952 Z-70.936
N12065 X138.501 Z-73.092
N12070 X139.763 Z-75.136
N12075 X140.529 Z-78.975
N12080 X141.798 Y103.433 Z-81.324
N12085 X141.447 Z-76.157
N12090 X140.184 Z-73.365
N12095 X137.156 Z-70.566
N12100 X134.351 Z-69.462
N12105 X126.086 Z-69.316
N12110 X70.442 Z-69.821
N12115 X24.981 Z-68.541
N12120 X-1.118 Z-66.929
N12125 X-39.002 Z-69.126
N12130 X-86.147 Z-69.878
N12135 X-132.74 Z-69.218
N12140 X-136.108 Z-70.039
N12145 X-138.876 Z-71.842
N12150 X-141.042 Z-74.944
N12155 X-141.733 Z-78.702
N12160 X-141.796 Z-81.209
N12165 X-142.997 Y106.433 Z-80.974
N12170 X-142.922 Z-77.861
N12175 X-141.95 Z-73.944
N12180 X-139.672 Z-71.113
N12185 X-136.874 Z-69.491
N12190 X-133.507 Z-68.823
N12195 X-86.386 Z-69.505
N12200 X-38.235 Z-68.69
N12205 X-1.193 Z-66.538
N12210 X25.747 Z-68.17
N12215 X71.208 Z-69.443
N12220 X127.291 Z-68.944
N12225 X135.556 Z-69.092
N12230 X138.36 Z-70.197
N12235 X141.31 Z-72.885
N12240 X142.71 Z-76.046
N12245 X142.998 Z-81.051
N12250 X144.188 Y109.433 Z-80.273
N12255 X143.973 Z-76.013
N12260 X142.71 Z-72.818
N12265 X140.824 Z-70.704
N12270 X138.275 Z-69.198
N12275 X133.951 Z-68.449
N12280 X75.342 Z-69.096
N12285 X29.881 Z-67.929
N12290 X-1.269 Z-66.147
N12295 X-39.153 Z-68.316
N12300 X-87.982 Z-69.128
N12305 X-136.075 Z-68.586
N12310 X-139.762 Z-69.946
N12315 X-142.015 Z-71.878
N12320 X-143.468 Z-74.277
N12325 X-144.141 Z-78.336
N12330 X-144.19 Z-80.414
N12335 X-145.365 Y112.433 Z-79.298
N12340 X-145.296 Z-76.982
N12345 X-144.299 Z-73.153
N12350 X-142.876 Z-71.148
N12355 X-140.232 Z-69.177
N12360 X-137.19 Z-68.202
N12365 X-87.98 Z-68.756
N12370 X-38.301 Z-67.886
N12375 X-1.258 Z-65.745
N12380 X29.049 Z-67.501
N12385 X76.194 Z-68.721
N12390 X135.229 Z-68.075
N12395 X139.541 Z-68.86
N12400 X142.861 Z-71.133
N12405 X144.84 Z-74.427
N12410 X145.362 Z-79.142
N12415 X146.535 Y115.433 Z-77.939
N12420 X146.077 Z-74.237
N12425 X144.236 Z-70.974
N12430 X140.703 Z-68.48
N12435 X136.389 Z-67.703
N12440 X77.138 Z-68.347
N12445 X28.309 Z-67.094
N12450 X-1.156 Z-65.341
N12455 X-40.724 Z-67.596
N12460 X-89.553 Z-68.377
N12465 X-138.244 Z-67.81
N12470 X-141.457 Z-68.828
N12475 X-144.094 Z-70.818
N12480 X-145.519 Z-72.861
N12485 X-146.474 Z-76.609
N12490 X-146.537 Z-78.023
N12495 X-147.71 Y118.433 Z-78.087
N12500 X-147.166 Z-73.625
N12505 X-145.812 Z-71.098
N12510 X-143.289 Z-68.826
N12515 X-139.327 Z-67.424
N12520 X-93.214 Z-67.988
N12525 X-41.486 Z-67.225
N12530 X-1.076 Z-64.94
N12535 X27.548 Z-66.645
N12540 X74.693 Z-67.94
N12545 X139.113 Z-67.397
N12550 X143.067 Z-68.694
N12555 X146.077 Z-71.464
N12560 X147.34 Z-74.2
N12565 X147.71 Z-78.087
N12570 X148.879 Y121.433 Z-78.616
N12575 X148.603 Z-74.257
N12580 X147.06 Z-70.842
N12585 X144.243 Z-68.33
N12590 X141.441 Z-67.225
N12595 X133.176 Z-67.077
N12600 X75.43 Z-67.565
N12605 X28.285 Z-66.295
N12610 X-1.181 Z-64.551
N12615 X-40.749 Z-66.798
N12620 X-91.261 Z-67.625
N12625 X-141.096 Z-67.151
N12630 X-145.051 Z-68.857
N12635 X-147.266 Z-71.133
N12640 X-148.707 Z-74.833
N12645 X-148.878 Z-78.517
N12650 X-150.047 Y124.433 Z-78.956
N12655 X-149.59 Z-73.209
N12660 X-147.631 Z-69.753
N12665 X-144.732 Z-67.6
N12670 X-141.774 Z-66.695
N12675 X-91.262 Z-67.251
N12680 X-41.754 Z-66.431
N12685 X-1.344 Z-64.167
N12690 X30.647 Z-65.976
N12695 X79.476 Z-67.215
N12700 X139.821 Z-66.584
N12705 X144.142 Z-67.338
N12710 X146.684 Z-68.851
N12715 X148.603 Z-71.032
N12720 X149.655 Z-73.441
N12725 X150.048 Z-79.084
N12730 X151.177 Y127.433 Z-78.237
N12735 X150.708 Z-72.766
N12740 X148.603 Z-69.198
N12745 X145.265 Z-66.955
N12750 X140.942 Z-66.212
N12755 X80.193 Z-66.835
N12760 X31.364 Z-65.592
N12765 X-1.469 Z-63.778
N12770 X-41.037 Z-65.988
N12775 X-91.979 Z-66.875
N12780 X-142.491 Z-66.266
N12785 X-145.641 Z-67.116
N12790 X-148.485 Z-69.077
N12795 X-150.575 Z-72.369
N12800 X-151.153 Z-77.31
N12805 X-151.177 Z-78.247
N12810 X-152.302 Y130.433 Z-77.333
N12815 X-152.25 Z-75.351
N12820 X-151.612 Z-71.723
N12825 X-149.474 Z-68.556
N12830 X-146.713 Z-66.712
N12835 X-143.346 Z-65.865
N12840 X-92.833 Z-66.498
N12845 X-41.866 Z-65.636
N12850 X-1.456 Z-63.385
N12855 X20.432 Z-64.666
N12860 X65.893 Z-66.262
N12865 X121.106 Z-66.259
N12870 X144.549 Z-66.031
N12875 X147.445 Z-67.073
N12880 X150.491 Z-69.711
N12885 X151.971 Z-72.835
N12890 X152.303 Z-77.358
N12895 X153.434 Y133.433 Z-76.755
N12900 X153.233 Z-73.061
N12905 X151.971 Z-69.838
N12910 X150.067 Z-67.699
N12915 X147.517 Z-66.196
N12920 X143.19 Z-65.464
N12925 X81.901 Z-66.083
N12930 X31.389 Z-64.82
N12935 X-1.444 Z-62.992
N12940 X-42.696 Z-65.279
N12945 X-94.892 Z-66.117
N12950 X-144.2 Z-65.472
N12955 X-148.212 Z-66.505
N12960 X-150.349 Z-67.94
N12965 X-152.562 Z-70.92
N12970 X-153.38 Z-74.644
N12975 X-153.434 Z-76.842
N12980 X-154.562 Y136.433 Z-76.006
N12985 X-154.493 Z-73.976
N12990 X-153.501 Z-70.175
N12995 X-151.22 Z-67.352
N13000 X-148.422 Z-65.737
N13005 X-145.054 Z-65.087
N13010 X-94.542 Z-65.744
N13015 X-43.526 Z-64.912
N13020 X-1.432 Z-62.599
N13025 X32.243 Z-64.469
N13030 X82.755 Z-65.704
N13035 X144.329 Z-65.088
N13040 X148.653 Z-65.827
N13045 X151.971 Z-68.047
N13050 X154.075 Z-71.563
N13055 X154.562 Z-76.072
N13060 X155.686 Y139.432 Z-75.012
N13065 X154.961 Z-70.542
N13070 X153.076 Z-67.659
N13075 X149.777 Z-65.454
N13080 X145.454 Z-64.713
N13085 X83.61 Z-65.324
N13090 X31.413 Z-64.045
N13095 X-1.42 Z-62.206
N13100 X-44.355 Z-64.544
N13105 X-96.551 Z-65.363
N13110 X-147.655 Z-64.857
N13115 X-150.58 Z-65.82
N13120 X-153.219 Z-67.809
N13125 X-154.434 Z-69.459
N13130 X-155.56 Z-72.922
N13135 X-155.69 Z-75.302
N13140 X-156.801 Y142.432 Z-75.068
N13145 X-156.465 Z-71.408
N13150 X-154.86 Z-68.066
N13155 X-152.191 Z-65.719
N13160 X-148.716 Z-64.472
N13165 X-99.636 Z-64.977
N13170 X-45.167 Z-64.176
N13175 X-1.389 Z-61.812
N13180 X32.286 Z-63.684
N13185 X84.482 Z-64.945
N13190 X146.779 Z-64.336
N13195 X150.891 Z-65.079
N13200 X154.386 Z-67.499
N13205 X156.18 Z-70.464
N13210 X156.8 Z-75.02
N13215 X157.899 Y145.432 Z-75.175
N13220 X157.443 Z-70.613
N13225 X156.18 Z-68.003
N13230 X153.269 Z-65.337
N13235 X150.471 Z-64.228
N13240 X142.207 Z-64.075
N13245 X81.819 Z-64.548
N13250 X31.307 Z-63.241
N13255 X-0.684 Z-61.37
N13260 X-44.461 Z-63.752
N13265 X-98.341 Z-64.61
N13270 X-149.64 Z-64.071
N13275 X-152.868 Z-65.115
N13280 X-155.492 Z-67.142
N13285 X-156.913 Z-69.247
N13290 X-157.809 Z-72.873
N13295 X-157.899 Z-75.175
N13300 X-158.998 Y148.432 Z-75.181
N13305 X-158.899 Z-72.499
N13310 X-157.998 Z-68.86
N13315 X-156.578 Z-66.761
N13320 X-153.952 Z-64.737
N13325 X-150.604 Z-63.678
N13330 X-97.685 Z-64.236
N13335 X-45.455 Z-63.391
N13340 X-1.678 Z-61.047
N13345 X30.313 Z-62.8
N13350 X82.509 Z-64.169
N13355 X143.308 Z-63.7
N13360 X151.571 Z-63.855
N13365 X154.367 Z-64.967
N13370 X157.17 Z-67.488
N13375 X158.706 Z-70.919
N13380 X158.998 Z-75.283
N13385 X160.097 Y151.432 Z-75.271
N13390 X159.547 Z-69.617
N13395 X157.718 Z-66.442
N13400 X154.195 Z-63.968
N13405 X149.877 Z-63.214
N13410 X86.567 Z-63.816
N13415 X34.37 Z-62.564
N13420 X-0.988 Z-60.607
N13425 X-44.766 Z-62.968
N13430 X-98.353 Z-63.859
N13435 X-152.233 Z-63.39
N13440 X-155.099 Z-64.391
N13445 X-157.715 Z-66.438
N13450 X-159.138 Z-68.588
N13455 X-159.99 Z-72.124
N13460 X-160.097 Z-75.271
N13465 X-161.195 Y154.432 Z-75.362
N13470 X-160.721 Z-69.512
N13475 X-158.775 Z-66.029
N13480 X-155.88 Z-63.859
N13485 X-152.922 Z-62.948
N13490 X-99.043 Z-63.481
N13495 X-44.076 Z-62.538
N13500 X-1.14 Z-60.225
N13505 X31.693 Z-62.052
N13510 X83.889 Z-63.41
N13515 X145.514 Z-62.948
N13520 X153.776 Z-63.111
N13525 X156.568 Z-64.228
N13530 X159.547 Z-67.017
N13535 X160.81 Z-69.839
N13540 X161.196 Z-75.498
N13545 X162.295 Y157.432 Z-75.579
N13550 X161.877 Z-69.375
N13555 X160.108 Z-65.936
N13560 X157.665 Z-63.858
N13565 X154.874 Z-62.738
N13570 X146.613 Z-62.572
N13575 X84.579 Z-63.031
N13580 X34.066 Z-61.738
N13585 X-1.292 Z-59.844
N13590 X-45.07 Z-62.17
N13595 X-99.732 Z-63.104
N13600 X-153.612 Z-62.521
N13605 X-156.743 Z-63.376
N13610 X-159.592 Z-65.364
N13615 X-161.38 Z-67.973
N13620 X-162.167 Z-71.392
N13625 X-162.295 Z-75.579
N13630 X-163.343 Y160.432 Z-74.612
N13635 X-163.243 Z-71.416
N13640 X-162.595 Z-67.986
N13645 X-160.464 Z-64.809
N13650 X-157.707 Z-62.957
N13655 X-154.339 Z-62.115
N13660 X-98.223 Z-62.72
N13665 X-44.343 Z-61.743
N13670 X-1.407 Z-59.458
N13675 X36.477 Z-61.434
N13680 X88.673 Z-62.685
N13685 X153.369 Z-62.086
N13690 X157.471 Z-62.856
N13695 X159.995 Z-64.385
N13700 X162.073 Z-66.89
N13705 X162.915 Z-68.952
N13710 X163.346 Z-74.822
N13715 X164.391 Y163.432 Z-73.721
N13720 X164.178 Z-69.598
N13725 X162.915 Z-66.162
N13730 X161.069 Z-64.03
N13735 X158.552 Z-62.494
N13740 X154.454 Z-61.711
N13745 X89.487 Z-62.309
N13750 X35.607 Z-61.018
N13755 X-1.435 Z-59.075
N13760 X-45.213 Z-61.395
N13765 X-101.273 Z-62.351
N13770 X-155.153 Z-61.725
N13775 X-158.52 Z-62.481
N13780 X-161.296 Z-64.229
N13785 X-163.493 Z-67.246
N13790 X-164.274 Z-70.579
N13795 X-164.395 Z-73.995
N13800 X-165.443 Y166.432 Z-73.168
N13805 X-165.325 Z-70.204
N13810 X-164.384 Z-66.534
N13815 X-162.126 Z-63.66
N13820 X-159.334 Z-62.011
N13825 X-155.967 Z-61.34
N13830 X-103.33 Z-61.972
N13835 X-46.083 Z-61.046
N13840 X-0.622 Z-58.637
N13845 X33.053 Z-60.537
N13850 X86.933 Z-61.905
N13855 X149.759 Z-61.446
N13860 X158.02 Z-61.608
N13865 X160.811 Z-62.724
N13870 X163.758 Z-65.47
N13875 X165.02 Z-68.212
N13880 X165.441 Z-72.934
N13885 X166.492 Y169.432 Z-72.26
N13890 X165.861 Z-67.162
N13895 X164.283 Z-64.399
N13900 X161.859 Z-62.348
N13905 X159.067 Z-61.232
N13910 X150.806 Z-61.07
N13915 X87.747 Z-61.53
N13920 X33.867 Z-60.187
N13925 X-1.492 Z-58.309
N13930 X-46.953 Z-60.681
N13935 X-102.9 Z-61.598
N13940 X-158.53 Z-61.122
N13945 X-161.447 Z-62.118
N13950 X-164.069 Z-64.153
N13955 X-165.939 Z-67.391
N13960 X-166.492 Z-72.341
N13965 X-167.541 Y172.432 Z-71.514
N13970 X-167.428 Z-69.455
N13975 X-166.596 Z-66.012
N13980 X-165.174 Z-63.839
N13985 X-162.563 Z-61.777
N13990 X-159.482 Z-60.73
N13995 X-105.071 Z-61.219
N14000 X-47.823 Z-60.317
N14005 X-0.678 Z-57.871
N14010 X32.997 Z-59.754
N14015 X86.876 Z-61.14
N14020 X151.853 Z-60.695
N14025 X160.115 Z-60.857
N14030 X162.908 Z-61.972
N14035 X165.441 Z-64.155
N14040 X167.124 Z-67.47
N14045 X167.541 Z-71.469
N14050 X168.577 Y175.432 Z-71.234
N14055 X167.966 Z-66.472
N14060 X166.282 Z-63.548
N14065 X163.949 Z-61.597
N14070 X160.395 Z-60.333
N14075 X85.996 Z-60.74
N14080 X32.116 Z-59.312
N14085 X-1.559 Z-57.543
N14090 X-50.388 Z-60.01
N14095 X-109.568 Z-60.831
N14100 X-160.759 Z-60.396
N14105 X-164.023 Z-61.641
N14110 X-166.618 Z-63.962
N14115 X-168.218 Z-67.337
N14120 X-168.577 Z-71.234
N14125 X-169.601 Y178.432 Z-71.417
N14130 X-169.475 Z-68.731
N14135 X-168.629 Z-65.236
N14140 X-167.211 Z-63.079
N14145 X-164.599 Z-61.019
N14150 X-161.289 Z-59.941
N14155 X-106.969 Z-60.467
N14160 X-49.722 Z-59.596
N14165 X-0.893 Z-57.115
N14170 X32.782 Z-58.958
N14175 X88.345 Z-60.389
N14180 X153.925 Z-59.945
N14185 X162.186 Z-60.11
N14190 X164.974 Z-61.231
N14195 X167.522 Z-63.449
N14200 X169.229 Z-66.955
N14205 X169.601 Z-71.417
N14210 X170.624 Y181.432 Z-71.482
N14215 X170.071 Z-65.964
N14220 X168.033 Z-62.495
N14225 X164.735 Z-60.231
N14230 X160.633 Z-59.466
N14235 X94.023 Z-60.047
N14240 X36.776 Z-58.739
N14245 X-1.95 Z-56.798
N14250 X-50.779 Z-59.242
N14255 X-109.177 Z-60.09
N14260 X-162.188 Z-59.552
N14265 X-165.653 Z-60.668
N14270 X-168.259 Z-62.744
N14275 X-169.679 Z-64.943
N14280 X-170.488 Z-68.358
N14285 X-170.624 Z-71.482
N14290 X-171.649 Y184.432 Z-71.783
N14295 X-171.595 Z-70.168
N14300 X-170.934 Z-65.155
N14305 X-169.473 Z-62.61
N14310 X-166.6 Z-60.259
N14315 X-163.683 Z-59.254
N14320 X-109.084 Z-59.716
N14325 X-50.152 Z-58.829
N14330 X-1.324 Z-56.373
N14335 X37.402 Z-58.362
N14340 X94.65 Z-59.674
N14345 X161.667 Z-59.092
N14350 X165.766 Z-59.865
N14355 X168.284 Z-61.399
N14360 X170.492 Z-64.159
N14365 X171.334 Z-66.573
N14370 X171.649 Z-71.783
N14375 X172.673 Y187.432 Z-71.965
N14380 X172.175 Z-65.481
N14385 X170.743 Z-62.567
N14390 X168.053 Z-60.135
N14395 X165.274 Z-59.001
N14400 X157.017 Z-58.822
N14405 X90.225 Z-59.258
N14410 X34.661 Z-57.859
N14415 X-0.697 Z-55.947
N14420 X-47.842 Z-58.351
N14425 X-105.089 Z-59.338
N14430 X-164.31 Z-58.818
N14435 X-167.287 Z-59.72
N14440 X-170.174 Z-61.873
N14445 X-172.126 Z-65.312
N14450 X-172.671 Z-71.808
N14455 X-173.697 Y190.432 Z-72.148
N14460 X-173.612 Z-69.673
N14465 X-173.014 Z-64.559
N14470 X-170.94 Z-61.238
N14475 X-168.117 Z-59.26
N14480 X-164.937 Z-58.398
N14485 X-107.83 Z-58.97
N14490 X-48.899 Z-57.99
N14495 X-1.754 Z-55.631
N14500 X38.656 Z-57.608
N14505 X95.903 Z-58.926
N14510 X163.728 Z-58.344
N14515 X167.823 Z-59.131
N14520 X170.334 Z-60.672
N14525 X172.175 Z-62.811
N14530 X173.438 Z-66.297
N14535 X173.697 Z-72.148
N14540 X174.675 Y193.432 Z-71.387
N14545 X174.28 Z-65.184
N14550 X173.017 Z-62.226
N14555 X170.052 Z-59.389
N14560 X167.275 Z-58.254
N14565 X159.019 Z-58.074
N14570 X93.198 Z-58.522
N14575 X37.634 Z-57.176
N14580 X-1.092 Z-55.203
N14585 X-48.237 Z-57.572
N14590 X-107.168 Z-58.592
N14595 X-165.599 Z-57.996
N14600 X-168.966 Z-58.825
N14605 X-171.723 Z-60.67
N14610 X-173.858 Z-63.831
N14615 X-174.531 Z-67.321
N14620 X-174.673 Z-71.22
N14625 X-175.645 Y196.432 Z-70.427
N14630 X-175.481 Z-66.452
N14635 X-174.704 Z-63.156
N14640 X-172.515 Z-60.127
N14645 X-169.743 Z-58.368
N14650 X-166.375 Z-57.612
N14655 X-109.759 Z-58.222
N14660 X-50.828 Z-57.295
N14665 X-1.999 Z-54.883
N14670 X40.094 Z-56.895
N14675 X97.342 Z-58.178
N14680 X165.511 Z-57.602
N14685 X169.766 Z-58.378
N14690 X173.094 Z-60.704
N14695 X175.135 Z-64.345
N14700 X175.644 Z-70.364
N14705 X176.614 Y199.431 Z-69.472
N14710 X176.385 Z-65.327
N14715 X175.543 Z-62.494
N14720 X173.247 Z-59.542
N14725 X170.734 Z-58.004
N14730 X166.637 Z-57.228
N14735 X98.118 Z-57.804
N14740 X39.187 Z-56.487
N14745 X-1.223 Z-54.46
N14750 X-50.052 Z-56.89
N14755 X-109.929 Z-57.851
N14760 X-167.152 Z-57.232
N14765 X-170.519 Z-57.917
N14770 X-173.305 Z-59.592
N14775 X-175.546 Z-62.501
N14780 X-176.455 Z-66.08
N14785 X-176.614 Z-69.48
N14790 X-177.585 Y202.431 Z-68.589
N14795 X-176.987 Z-63.284
N14800 X-175.198 Z-60.134
N14805 X-172.593 Z-58.055
N14810 X-169.679 Z-57.028
N14815 X-111.574 Z-57.476
N14820 X-50.959 Z-56.532
N14825 X-1.289 Z-54.088
N14830 X34.912 Z-55.948
N14835 X93.843 Z-57.396
N14840 X161.923 Z-56.957
N14845 X170.18 Z-57.134
N14850 X172.96 Z-58.265
N14855 X175.543 Z-60.554
N14860 X177.227 Z-64.175
N14865 X177.585 Z-68.58
N14870 X178.555 Y205.431 Z-67.71
N14875 X178.069 Z-63.268
N14880 X176.385 Z-60.015
N14885 X173.93 Z-57.89
N14890 X171.149 Z-56.761
N14895 X162.89 Z-56.585
N14900 X94.619 Z-57.026
N14905 X35.688 Z-55.592
N14910 X-1.354 Z-53.716
N14915 X-53.55 Z-56.229
N14920 X-114.824 Z-57.098
N14925 X-170.514 Z-56.631
N14930 X-173.436 Z-57.613
N14935 X-176.063 Z-59.639
N14940 X-177.93 Z-62.819
N14945 X-178.555 Z-67.707
N14950 X-179.515 Y208.431 Z-67.436
N14955 X-178.847 Z-62.338
N14960 X-176.857 Z-59.092
N14965 X-174.201 Z-57.141
N14970 X-171.422 Z-56.249
N14975 X-113.388 Z-56.73
N14980 X-52.773 Z-55.816
N14985 X-0.577 Z-53.293
N14990 X36.465 Z-55.236
N14995 X95.396 Z-56.655
N15000 X170.97 Z-56.184
N15005 X174.891 Z-57.518
N15010 X177.529 Z-59.884
N15015 X178.91 Z-62.523
N15020 X179.515 Z-67.436
N15025 X180.467 Y211.431 Z-67.79
N15030 X180.173 Z-63.478
N15035 X178.91 Z-60.158
N15040 X177.103 Z-58.068
N15045 X174.596 Z-56.524
N15050 X170.502 Z-55.744
N15055 X101.02 Z-56.312
N15060 X38.721 Z-54.959
N15065 X-1.689 Z-52.985
N15070 X-53.885 Z-55.47
N15075 X-116.173 Z-56.356
N15080 X-172.196 Z-55.854
N15085 X-175.431 Z-56.923
N15090 X-178.041 Z-58.993
N15095 X-179.452 Z-61.153
N15100 X-180.299 Z-64.617
N15105 X-180.467 Z-67.79
N15110 X-181.419 Y214.431 Z-68.042
N15115 X-181.23 Z-64.181
N15120 X-180.369 Z-60.74
N15125 X-178.959 Z-58.602
N15130 X-176.345 Z-56.542
N15135 X-173.005 Z-55.466
N15140 X-115.623 Z-55.989
N15145 X-53.325 Z-55.069
N15150 X-1.129 Z-52.576
N15155 X35.914 Z-54.461
N15160 X96.529 Z-55.913
N15165 X165.772 Z-55.472
N15170 X174.027 Z-55.659
N15175 X176.799 Z-56.8
N15180 X179.752 Z-59.641
N15185 X181.015 Z-62.623
N15190 X181.418 Z-67.944
N15195 X182.37 Y217.431 Z-68.244
N15200 X181.869 Z-61.912
N15205 X180.64 Z-59.198
N15210 X177.753 Z-56.441
N15215 X174.985 Z-55.295
N15220 X166.731 Z-55.102
N15225 X97.089 Z-55.541
N15230 X36.474 Z-54.096
N15235 X-1.41 Z-52.217
N15240 X-52.765 Z-54.668
N15245 X-115.063 Z-55.62
N15250 X-174.541 Z-55.197
N15255 X-177.368 Z-56.219
N15260 X-179.967 Z-58.314
N15265 X-181.382 Z-60.536
N15270 X-182.225 Z-64.711
N15275 X-182.37 Z-68.374
N15280 X-183.32 Y220.431 Z-68.482
N15285 X-183.136 Z-64.014
N15290 X-182.431 Z-60.43
N15295 X-180.934 Z-57.98
N15300 X-178.053 Z-55.716
N15305 X-175.118 Z-54.763
N15310 X-116.187 Z-55.25
N15315 X-53.888 Z-54.32
N15320 X-1.692 Z-51.858
N15325 X38.718 Z-53.783
N15330 X97.649 Z-55.169
N15335 X167.69 Z-54.732
N15340 X175.943 Z-54.931
N15345 X178.707 Z-56.083
N15350 X181.116 Z-58.2
N15355 X182.699 Z-61.172
N15360 X183.32 Z-68.482
N15365 X184.271 Y223.431 Z-68.742
N15370 X183.962 Z-62.283
N15375 X183.12 Z-59.515
N15380 X180.594 Z-56.378
N15385 X176.899 Z-54.566
N15390 X170.332 Z-54.33
N15395 X99.893 Z-54.813
N15400 X40.962 Z-53.47
N15405 X-1.132 Z-51.449
N15410 X-51.644 Z-53.848
N15415 X-113.943 Z-54.878
N15420 X-175.661 Z-54.339
N15425 X-178.72 Z-55.215
N15430 X-181.581 Z-57.288
N15435 X-183.413 Z-60.18
N15440 X-184.046 Z-63.317
N15445 X-184.273 Z-68.947
N15450 X-185.166 Y226.431 Z-67.921
N15455 X-184.985 Z-63.388
N15460 X-184.422 Z-60.106
N15465 X-182.353 Z-56.788
N15470 X-179.57 Z-54.822
N15475 X-176.308 Z-53.942
N15480 X-115.703 Z-54.513
N15485 X-52.675 Z-53.507
N15490 X-2.162 Z-51.135
N15495 X41.615 Z-53.115
N15500 X102.23 Z-54.461
N15505 X175.229 Z-53.898
N15510 X179.313 Z-54.706
N15515 X181.802 Z-56.268
N15520 X183.962 Z-59.032
N15525 X184.804 Z-61.547
N15530 X185.166 Z-67.921
N15535 X186.057 Y229.431 Z-66.715
N15540 X185.645 Z-60.884
N15545 X184.168 Z-57.519
N15550 X181.444 Z-54.979
N15555 X178.681 Z-53.826
N15560 X170.43 Z-53.627
N15565 X99.601 Z-54.066
N15570 X38.986 Z-52.659
N15575 X-1.424 Z-50.728
N15580 X-53.62 Z-53.177
N15585 X-116.438 Z-54.147
N15590 X-177.053 Z-53.563
N15595 X-180.42 Z-54.433
N15600 X-183.165 Z-56.333
N15605 X-185.263 Z-59.577
N15610 X-185.846 Z-62.369
N15615 X-186.058 Z-66.88
N15620 X-186.95 Y232.431 Z-65.737
N15625 X-186.746 Z-62.003
N15630 X-186.065 Z-58.962
N15635 X-183.922 Z-55.828
N15640 X-181.165 Z-53.997
N15645 X-177.798 Z-53.186
N15650 X-118.542 Z-53.778
N15655 X-54.559 Z-52.834
N15660 X-0.68 Z-50.32
N15665 X41.414 Z-52.381
N15670 X103.713 Z-53.726
N15675 X177.006 Z-53.166
N15680 X181.092 Z-53.965
N15685 X183.586 Z-55.522
N15690 X185.645 Z-58.079
N15695 X186.487 Z-60.263
N15700 X186.951 Z-65.839
N15705 X187.843 Y235.431 Z-64.707
N15710 X187.329 Z-59.671
N15715 X185.645 Z-56.359
N15720 X183.227 Z-54.236
N15725 X180.461 Z-53.089
N15730 X172.207 Z-52.894
N15735 X101.09 Z-53.339
N15740 X38.791 Z-51.924
N15745 X-1.619 Z-50.009
N15750 X-55.499 Z-52.484
N15755 X-117.927 Z-53.414
N15760 X-178.542 Z-52.811
N15765 X-181.91 Z-53.564
N15770 X-184.679 Z-55.328
N15775 X-186.864 Z-58.36
N15780 X-187.743 Z-62.688
N15785 X-187.843 Z-64.798
N15790 X-188.736 Y238.431 Z-63.759
N15795 X-188.592 Z-61.774
N15800 X-187.661 Z-57.771
N15805 X-185.435 Z-54.832
N15810 X-182.654 Z-53.135
N15815 X-179.287 Z-52.438
N15820 X-120.42 Z-53.044
N15825 X-56.438 Z-52.135
N15830 X-0.874 Z-49.602
N15835 X39.536 Z-51.574
N15840 X101.834 Z-52.975
N15845 X173.1 Z-52.528
N15850 X181.354 Z-52.721
N15855 X184.122 Z-53.867
N15860 X186.487 Z-55.921
N15865 X188.171 Z-59.1
N15870 X188.736 Z-63.759
N15875 X189.619 Y241.431 Z-64.107
N15880 X189.013 Z-58.661
N15885 X187.633 Z-55.918
N15890 X185.006 Z-53.512
N15895 X182.243 Z-52.359
N15900 X173.991 Z-52.163
N15905 X102.455 Z-52.611
N15910 X40.156 Z-51.228
N15915 X-1.937 Z-49.298
N15920 X-59.185 Z-51.845
N15925 X-126.027 Z-52.668
N15930 X-181.656 Z-52.233
N15935 X-184.571 Z-53.26
N15940 X-187.174 Z-55.346
N15945 X-188.945 Z-58.448
N15950 X-189.62 Z-64.208
N15955 X-190.503 Y244.431 Z-64.597
N15960 X-190.251 Z-60.271
N15965 X-189.493 Z-57.267
N15970 X-188.083 Z-55.035
N15975 X-185.489 Z-52.927
N15980 X-182.351 Z-51.841
N15985 X-123.151 Z-52.315
N15990 X-57.01 Z-51.404
N15995 X-1.446 Z-48.905
N16000 X40.648 Z-50.875
N16005 X106.314 Z-52.264
N16010 X180.567 Z-51.706
N16015 X184.65 Z-52.515
N16020 X188.075 Z-55.025
N16025 X189.855 Z-58.226
N16030 X190.502 Z-64.502
N16035 X191.387 Y247.431 Z-65.082
N16040 X190.697 Z-57.792
N16045 X189.013 Z-54.749
N16050 X186.785 Z-52.817
N16055 X184.033 Z-51.649
N16060 X177.469 Z-51.404
N16065 X105.121 Z-51.896
N16070 X41.139 Z-50.509
N16075 X-0.955 Z-48.512
N16080 X-56.518 Z-51.016
N16085 X-122.184 Z-51.954
N16090 X-183.047 Z-51.452
N16095 X-186.403 Z-52.592
N16100 X-188.989 Z-54.721
N16105 X-190.402 Z-57.008
N16110 X-191.139 Z-60.176
N16115 X-191.387 Z-65.042
N16120 X-192.271 Y250.431 Z-65.427
N16125 X-191.985 Z-59.602
N16130 X-191.231 Z-56.563
N16135 X-189.821 Z-54.32
N16140 X-187.228 Z-52.207
N16145 X-183.787 Z-51.072
N16150 X-124.134 Z-51.589
N16155 X-57.71 Z-50.681
N16160 X-2.147 Z-48.215
N16165 X43.314 Z-50.199
N16170 X107.297 Z-51.542
N16175 X182.249 Z-50.981
N16180 X186.429 Z-51.812
N16185 X188.904 Z-53.388
N16190 X190.697 Z-55.535
N16195 X191.772 Z-58.193
N16200 X192.269 Z-65.316
N16205 X193.155 Y253.431 Z-65.957
N16210 X192.625 Z-57.782
N16215 X191.086 Z-54.462
N16220 X188.558 Z-52.119
N16225 X185.816 Z-50.938
N16230 X179.256 Z-50.677
N16235 X106.104 Z-51.167
N16240 X43.806 Z-49.833
N16245 X-1.655 Z-47.822
N16250 X-55.535 Z-50.227
N16255 X-121.258 Z-51.23
N16260 X-185.24 Z-50.807
N16265 X-188.071 Z-51.832
N16270 X-190.667 Z-53.936
N16275 X-192.076 Z-56.156
N16280 X-192.898 Z-60.226
N16285 X-193.154 Z-65.838
N16290 X-193.985 Y256.431 Z-65.064
N16295 X-193.749 Z-59.752
N16300 X-193.075 Z-56.193
N16305 X-191.602 Z-53.696
N16310 X-188.733 Z-51.377
N16315 X-185.808 Z-50.395
N16320 X-118.95 Z-50.858
N16325 X-54.968 Z-49.836
N16330 X-1.088 Z-47.427
N16335 X46.057 Z-49.537
N16340 X108.356 Z-50.82
N16345 X183.976 Z-50.257
N16350 X188.152 Z-51.096
N16355 X190.619 Z-52.679
N16360 X192.38 Z-54.789
N16365 X193.464 Z-57.445
N16370 X193.985 Z-65.257
N16375 X194.802 Y259.43 Z-63.85
N16380 X194.3 Z-57.113
N16385 X193.222 Z-54.451
N16390 X191.439 Z-52.311
N16395 X188.968 Z-50.732
N16400 X184.79 Z-49.898
N16405 X109.076 Z-50.459
N16410 X45.094 Z-49.153
N16415 X-2.051 Z-47.125
N16420 X-57.614 Z-49.573
N16425 X-123.28 Z-50.509
N16430 X-186.529 Z-50.018
N16435 X-189.469 Z-50.97
N16440 X-192.343 Z-53.232
N16445 X-193.84 Z-55.675
N16450 X-194.63 Z-59.902
N16455 X-194.802 Z-63.85
N16460 X-195.62 Y262.43 Z-62.636
N16465 X-195.576 Z-61.466
N16470 X-195.007 Z-56.281
N16475 X-193.088 Z-52.776
N16480 X-190.214 Z-50.568
N16485 X-187.25 Z-49.643
N16490 X-125.927 Z-50.148
N16495 X-58.577 Z-49.236
N16500 X-1.33 Z-46.732
N16505 X44.131 Z-48.769
N16510 X109.797 Z-50.099
N16515 X185.605 Z-49.539
N16520 X189.785 Z-50.367
N16525 X192.258 Z-51.944
N16530 X194.064 Z-54.113
N16535 X195.135 Z-56.781
N16540 X195.62 Z-62.636
N16545 X196.437 Y265.43 Z-61.422
N16550 X195.748 Z-55.634
N16555 X193.746 Z-52.226
N16560 X190.602 Z-50.003
N16565 X186.42 Z-49.181
N16570 X110.518 Z-49.739
N16575 X43.168 Z-48.385
N16580 X-2.293 Z-46.431
N16585 X-61.224 Z-48.945
N16590 X-130.723 Z-49.78
N16595 X-187.971 Z-49.269
N16600 X-190.968 Z-50.172
N16605 X-193.838 Z-52.327
N16610 X-195.783 Z-55.743
N16615 X-196.437 Z-61.422
N16620 X-197.256 Y268.43 Z-60.663
N16625 X-197.018 Z-57.657
N16630 X-196.334 Z-54.632
N16635 X-194.802 Z-52.13
N16640 X-191.735 Z-49.784
N16645 X-188.692 Z-48.896
N16650 X-129.76 Z-49.423
N16655 X-60.503 Z-48.555
N16660 X-1.572 Z-46.038
N16665 X43.889 Z-48.055
N16670 X111.239 Z-49.379
N16675 X187.35 Z-48.821
N16680 X191.426 Z-49.642
N16685 X194.824 Z-52.156
N16690 X196.59 Z-55.34
N16695 X197.256 Z-60.663
N16700 X198.078 Y271.43 Z-61.288
N16705 X197.432 Z-55.133
N16710 X195.748 Z-51.954
N16715 X193.483 Z-49.954
N16720 X190.739 Z-48.777
N16725 X184.178 Z-48.523
N16730 X108.354 Z-49.011
N16735 X41.004 Z-47.581
N16740 X-1.09 Z-45.658
N16745 X-60.021 Z-48.178
N16750 X-128.559 Z-49.072
N16755 X-189.173 Z-48.506
N16760 X-192.467 Z-49.398
N16765 X-195.23 Z-51.37
N16770 X-197.29 Z-54.697
N16775 X-197.987 Z-59.267
N16780 X-198.078 Z-61.288
N16785 X-198.9 Y274.43 Z-61.913
N16790 X-198.586 Z-56.707
N16795 X-197.877 Z-53.803
N16800 X-195.72 Z-50.714
N16805 X-192.961 Z-48.907
N16810 X-189.594 Z-48.124
N16815 X-126.95 Z-48.721
N16820 X-59.601 Z-47.803
N16825 X-0.669 Z-45.282
N16830 X41.424 Z-47.239
N16835 X108.774 Z-48.657
N16840 X185.01 Z-48.167
N16845 X191.569 Z-48.43
N16850 X194.307 Z-49.617
N16855 X196.59 Z-51.655
N16860 X198.274 Z-54.936
N16865 X198.9 Z-61.913
N16870 X199.721 Y277.43 Z-62.539
N16875 X199.261 Z-55.419
N16880 X197.736 Z-51.765
N16885 X195.13 Z-49.279
N16890 X192.398 Z-48.084
N16895 X185.842 Z-47.812
N16900 X109.194 Z-48.3
N16905 X41.844 Z-46.879
N16910 X-1.933 Z-44.997
N16915 X-60.864 Z-47.479
N16920 X-129.399 Z-48.364
N16925 X-191.766 Z-47.939
N16930 X-194.674 Z-49.006
N16935 X-197.257 Z-51.143
N16940 X-198.89 Z-54.008
N16945 X-199.55 Z-58.934
N16950 X-199.721 Z-62.539
N16955 X-200.543 Y280.43 Z-63.164
N16960 X-200.219 Z-56.565
N16965 X-199.503 Z-53.172
N16970 X-198.091 Z-50.833
N16975 X-195.517 Z-48.677
N16980 X-192.326 Z-47.541
N16985 X-126.467 Z-48.013
N16990 X-58.76 Z-47.046
N16995 X-1.513 Z-44.62
N17000 X47.316 Z-46.681
N17005 X112.982 Z-47.967
N17010 X190.57 Z-47.4
N17015 X194.732 Z-48.276
N17020 X197.178 Z-49.88
N17025 X199.115 Z-52.355
N17030 X199.957 Z-54.581
N17035 X200.543 Z-63.164
N17040 X201.332 Y283.43 Z-63.332
N17045 X200.799 Z-54.563
N17050 X199.957 Z-52.144
N17055 X197.967 Z-49.544
N17060 X195.53 Z-47.933
N17065 X191.425 Z-47.046
N17070 X113.427 Z-47.614
N17075 X49.445 Z-46.379
N17080 X-1.068 Z-44.241
N17085 X-58.315 Z-46.662
N17090 X-126.897 Z-47.659
N17095 X-192.948 Z-47.161
N17100 X-196.364 Z-48.366
N17105 X-198.924 Z-50.558
N17110 X-200.339 Z-52.989
N17115 X-201.023 Z-56.515
N17120 X-201.332 Z-63.3
N17125 X-202.072 Y286.43 Z-61.278
N17130 X-201.755 Z-55.625
N17135 X-201.055 Z-52.556
N17140 X-199.644 Z-50.174
N17145 X-197.078 Z-47.996
N17150 X-193.673 Z-46.809
N17155 X-128.324 Z-47.308
N17160 X-59.29 Z-46.354
N17165 X-2.043 Z-43.947
N17170 X45.102 Z-45.902
N17175 X112.452 Z-47.256
N17180 X192.187 Z-46.697
N17185 X196.29 Z-47.589
N17190 X198.725 Z-49.203
N17195 X200.799 Z-51.98
N17200 X201.641 Z-54.771
N17205 X202.072 Z-61.278
N17210 X202.818 Y289.43 Z-59.831
N17215 X202.108 Z-53.085
N17220 X200.232 Z-49.634
N17225 X197.049 Z-47.245
N17230 X192.948 Z-46.348
N17235 X113.16 Z-46.904
N17240 X44.126 Z-45.531
N17245 X-1.335 Z-43.569
N17250 X-60.266 Z-46.031
N17255 X-130.983 Z-46.955
N17260 X-194.362 Z-46.451
N17265 X-197.782 Z-47.622
N17270 X-200.356 Z-49.78
N17275 X-201.762 Z-52.104
N17280 X-202.483 Z-55.114
N17285 X-202.818 Z-59.831
N17290 X-203.563 Y292.43 Z-58.384
N17295 X-203.52 Z-57.3
N17300 X-202.48 Z-51.681
N17305 X-201.077 Z-49.397
N17310 X-198.496 Z-47.254
N17315 X-195.091 Z-46.1
N17320 X-130.275 Z-46.607
N17325 X-59.557 Z-45.653
N17330 X-2.31 Z-43.275
N17335 X44.835 Z-45.215
N17340 X113.868 Z-46.552
N17345 X191.443 Z-46.021
N17350 X196.308 Z-46.353
N17355 X199.021 Z-47.573
N17360 X201.36 Z-49.753
N17365 X202.904 Z-52.904
N17370 X203.563 Z-58.384
N17375 X204.32 Y295.43 Z-58.036
N17380 X203.746 Z-52.929
N17385 X202.483 Z-49.936
N17390 X199.778 Z-47.229
N17395 X197.066 Z-46.006
N17400 X192.201 Z-45.67
N17405 X114.549 Z-46.201
N17410 X43.831 Z-44.833
N17415 X-1.63 Z-42.899
N17420 X-60.561 Z-45.324
N17425 X-129.73 Z-46.259
N17430 X-195.805 Z-45.746
N17435 X-199.317 Z-46.946
N17440 X-201.884 Z-49.119
N17445 X-203.294 Z-51.489
N17450 X-204.276 Z-57.01
N17455 X-204.32 Z-58.036
N17460 X-205.087 Y298.43 Z-58.908
N17465 X-204.74 Z-54.139
N17470 X-204.028 Z-51.103
N17475 X-202.62 Z-48.754
N17480 X-200.049 Z-46.587
N17485 X-196.411 Z-45.379
N17490 X-131.332 Z-45.911
N17495 X-60.216 Z-44.963
N17500 X-1.285 Z-42.539
N17505 X44.176 Z-44.492
N17510 X114.893 Z-45.857
N17515 X192.967 Z-45.323
N17520 X197.83 Z-45.662
N17525 X200.539 Z-46.888
N17530 X203.325 Z-49.733
N17535 X204.588 Z-53.046
N17540 X205.087 Z-58.908
N17545 X205.857 Y301.43 Z-59.938
N17550 X205.224 Z-52.144
N17555 X204.18 Z-49.559
N17560 X202.51 Z-47.495
N17565 X200.088 Z-45.87
N17570 X196.046 Z-44.955
N17575 X115.239 Z-45.514
N17580 X44.521 Z-44.139
N17585 X-0.94 Z-42.179
N17590 X-59.871 Z-44.602
N17595 X-131.332 Z-45.565
N17600 X-197.742 Z-45.12
N17605 X-200.782 Z-46.229
N17610 X-203.356 Z-48.389
N17615 X-204.762 Z-50.717
N17620 X-205.482 Z-53.732
N17625 X-205.855 Z-59.78
N17630 X-206.63 Y304.43 Z-61.457
N17635 X-206.45 Z-57.277
N17640 X-205.846 Z-51.315
N17645 X-203.928 Z-47.832
N17650 X-201.059 Z-45.628
N17655 X-198.088 Z-44.705
N17660 X-134.105 Z-45.215
N17665 X-62.893 Z-44.334
N17670 X-2.278 Z-41.903
N17675 X44.867 Z-43.785
N17680 X113.9 Z-45.157
N17685 X193.649 Z-44.642
N17690 X199.352 Z-44.971
N17695 X202.057 Z-46.203
N17700 X204.558 Z-48.635
N17705 X206.036 Z-52.078
N17710 X206.63 Z-61.457
N17715 X207.37 Y307.43 Z-61.207
N17720 X206.692 Z-51.397
N17725 X204.928 Z-47.806
N17730 X201.591 Z-45.181
N17735 X197.553 Z-44.258
N17740 X115.93 Z-44.823
N17745 X48.58 Z-43.535
N17750 X-1.933 Z-41.54
N17755 X-60.864 Z-43.908
N17760 X-131.581 Z-44.873
N17765 X-198.433 Z-44.308
N17770 X-201.618 Z-45.194
N17775 X-204.418 Z-47.222
N17780 X-205.996 Z-49.483
N17785 X-206.965 Z-53.313
N17790 X-207.367 Z-60.915
N17795 X-208.056 Y310.43 Z-59.666
N17800 X-207.627 Z-52.434
N17805 X-207.138 Z-50.186
N17810 X-205.088 Z-46.846
N17815 X-202.322 Z-44.854
N17820 X-199.052 Z-43.958
N17825 X-134.33 Z-44.53
N17830 X-61.929 Z-43.607
N17835 X-1.314 Z-41.18
N17840 X47.515 Z-43.168
N17845 X116.548 Z-44.485
N17850 X198.245 Z-43.916
N17855 X202.285 Z-44.836
N17860 X204.702 Z-46.466
N17865 X206.692 Z-49.129
N17870 X207.534 Z-51.743
N17875 X208.056 Z-59.666
N17880 X208.745 Y313.43 Z-58.436
N17885 X208.166 Z-51.021
N17890 X206.692 Z-47.605
N17895 X204.192 Z-45.172
N17900 X201.489 Z-43.938
N17905 X196.628 Z-43.598
N17910 X117.188 Z-44.143
N17915 X46.47 Z-42.805
N17920 X-2.358 Z-40.9
N17925 X-62.973 Z-43.303
N17930 X-135.709 Z-44.189
N17935 X-199.691 Z-43.611
N17940 X-203.04 Z-44.52
N17945 X-205.773 Z-46.487
N17950 X-207.828 Z-49.812
N17955 X-208.547 Z-54.59
N17960 X-208.745 Z-58.436
N17965 X-209.434 Y316.43 Z-57.206
N17970 X-209.393 Z-56.23
N17975 X-208.498 Z-49.383
N17980 X-206.427 Z-46.097
N17985 X-203.698 Z-44.158
N17990 X-200.331 Z-43.265
N17995 X-133.051 Z-43.852
N18000 X-62.334 Z-42.939
N18005 X-1.719 Z-40.541
N18010 X45.426 Z-42.441
N18015 X116.143 Z-43.796
N18020 X197.326 Z-43.257
N18025 X202.188 Z-43.596
N18030 X204.891 Z-44.828
N18035 X207.659 Z-47.664
N18040 X208.828 Z-50.499
N18045 X209.434 Z-57.206
N18050 X210.122 Y319.429 Z-55.975
N18055 X209.639 Z-50.71
N18060 X208.614 Z-47.752
N18065 X206.8 Z-45.435
N18070 X204.381 Z-43.808
N18075 X200.339 Z-42.892
N18080 X118.466 Z-43.46
N18085 X46.065 Z-42.129
N18090 X-1.08 Z-40.181
N18095 X-61.694 Z-42.575
N18100 X-133.62 Z-43.511
N18105 X-200.97 Z-42.919
N18110 X-204.337 Z-43.788
N18115 X-207.073 Z-45.698
N18120 X-209.162 Z-48.938
N18125 X-209.85 Z-52.351
N18130 X-210.122 Z-55.975
N18135 X-210.811 Y322.429 Z-54.745
N18140 X-209.825 Z-48.496
N18145 X-207.718 Z-45.3
N18150 X-204.977 Z-43.418
N18155 X-201.609 Z-42.573
N18160 X-135.14 Z-43.17
N18165 X-62.739 Z-42.256
N18170 X-2.124 Z-39.901
N18175 X45.021 Z-41.76
N18180 X119.106 Z-43.119
N18185 X201.037 Z-42.551
N18190 X205.079 Z-43.465
N18195 X208.359 Z-46.002
N18200 X210.06 Z-49.169
N18205 X210.811 Z-54.745
N18210 X211.518 Y325.429 Z-55.12
N18215 X210.902 Z-49.429
N18220 X209.218 Z-45.889
N18225 X206.993 Z-43.818
N18230 X204.294 Z-42.579
N18235 X199.434 Z-42.236
N18240 X117.897 Z-42.777
N18245 X43.812 Z-41.383
N18250 X-1.649 Z-39.549
N18255 X-62.264 Z-41.902
N18260 X-135.506 Z-42.832
N18265 X-202.082 Z-42.221
N18270 X-205.449 Z-42.986
N18275 X-208.206 Z-44.777
N18280 X-210.371 Z-47.835
N18285 X-211.397 Z-53.089
N18290 X-211.518 Z-55.12
N18295 X-212.227 Y328.429 Z-55.75
N18300 X-212.167 Z-54.583
N18305 X-211.308 Z-48.181
N18310 X-209.673 Z-45.286
N18315 X-207.096 Z-43.134
N18320 X-204.188 Z-42.059
N18325 X-137.676 Z-42.495
N18330 X-63.591 Z-41.599
N18335 X-1.293 Z-39.203
N18340 X44.169 Z-41.058
N18345 X118.253 Z-42.445
N18350 X202.679 Z-41.884
N18355 X206.499 Z-42.822
N18360 X208.902 Z-44.466
N18365 X210.902 Z-47.196
N18370 X211.744 Z-50.044
N18375 X212.227 Z-55.75
N18380 X212.936 Y331.429 Z-56.38
N18385 X212.399 Z-49.595
N18390 X211.092 Z-45.987
N18395 X208.402 Z-43.194
N18400 X205.719 Z-41.934
N18405 X200.873 Z-41.565
N18410 X118.61 Z-42.112
N18415 X44.525 Z-40.728
N18420 X-0.936 Z-38.856
N18425 X-63.235 Z-41.252
N18430 X-137.32 Z-42.162
N18435 X-204.661 Z-41.688
N18440 X-207.756 Z-42.794
N18445 X-210.335 Z-44.941
N18450 X-211.73 Z-47.208
N18455 X-212.471 Z-50.179
N18460 X-212.966 Z-59.11
N18465 X-213.666 Y334.429 Z-58.859
N18470 X-213.175 Z-50.121
N18475 X-212.464 Z-47.023
N18480 X-211.063 Z-44.675
N18485 X-208.496 Z-42.499
N18490 X-205.178 Z-41.328
N18495 X-139.168 Z-41.826
N18500 X-64.563 Z-40.949
N18505 X-2.264 Z-38.59
N18510 X44.881 Z-40.392
N18515 X118.966 Z-41.779
N18520 X201.609 Z-41.229
N18525 X206.431 Z-41.612
N18530 X209.106 Z-42.882
N18535 X211.442 Z-45.171
N18540 X213.006 Z-48.872
N18545 X213.645 Z-57.01
N18550 X214.355 Y337.429 Z-57.639
N18555 X213.427 Z-47.51
N18560 X211.792 Z-44.413
N18565 X208.623 Z-41.873
N18570 X204.834 Z-40.886
N18575 X119.322 Z-41.444
N18580 X46.921 Z-40.105
N18585 X-1.908 Z-38.244
N18590 X-65.89 Z-40.645
N18595 X-141.208 Z-41.489
N18600 X-205.722 Z-40.974
N18605 X-209.171 Z-42.166
N18610 X-211.736 Z-44.344
N18615 X-213.138 Z-46.697
N18620 X-213.964 Z-51.516
N18625 X-214.355 Z-57.639
N18630 X-215.064 Y340.429 Z-58.269
N18635 X-214.496 Z-49.485
N18640 X-213.767 Z-46.264
N18645 X-212.37 Z-43.965
N18650 X-209.796 Z-41.806
N18655 X-206.305 Z-40.627
N18660 X-136.544 Z-41.163
N18665 X-63.849 Z-40.241
N18670 X-1.551 Z-37.897
N18675 X47.278 Z-39.77
N18680 X119.679 Z-41.109
N18685 X205.559 Z-40.555
N18690 X209.337 Z-41.56
N18695 X211.7 Z-43.239
