%
(1001)
(T5  D=19.05 CR=9.525 - ZMIN=-75. - BALL END MILL)
N10 G90 G94 G17 G91.1
N15 G21
N20 G53 G0 Z0.
(PARALLEL1)
N25 M9
N30 T5 M6
N35 S24000 M3
N40 G54
N45 G0 X299.631 Y1150.04
N50 G43 Z15. H5
N55 G0 Z-23.095
N60 G19 G2 Y1148.135 Z-25. J-1.905 K0. F1000.
N65 G1 Y1098.079 F6000.
N70 G2 Y1096.174 Z-23.095 J0. K1.905 F1000.
N75 G0 Z5.
N80 X284.635 Y1431.586
N85 Z-23.095
N90 G2 Y1429.681 Z-25. J-1.905 K0. F1000.
N95 G1 Y745.523 F6000.
N100 G2 Y743.618 Z-23.095 J0. K1.905 F1000.
N105 G0 Z5.
N110 X269.639 Y604.039
N115 Z-23.095
N120 G3 Y605.944 Z-25. J1.905 K0. F1000.
N125 G1 Y1515.657 F6000.
N130 G3 Y1517.562 Z-23.095 J0. K1.905 F1000.
N135 G0 Z5.
N140 X254.642 Y1577.052
N145 Z-23.095
N150 G2 Y1575.147 Z-25. J-1.905 K0. F1000.
N155 G1 Y499.73 F6000.
N160 G2 Y497.825 Z-23.095 J0. K1.905 F1000.
N165 G0 Z5.
N170 X239.646 Y411.213
N175 Z-23.095
N180 G3 Y413.118 Z-25. J1.905 K0. F1000.
N185 G1 Y1624.36 F6000.
N190 G3 Y1626.265 Z-23.095 J0. K1.905 F1000.
N195 G0 Z5.
N200 X224.65 Y1669.074
N205 Z-23.095
N210 G2 Y1667.169 Z-25. J-1.905 K0. F1000.
N215 G1 Y342.264 F6000.
N220 G2 Y340.359 Z-23.095 J0. K1.905 F1000.
N225 G0 Z5.
N230 X209.654 Y281.768
N235 Z-23.095
N240 G3 Y283.673 Z-25. J1.905 K0. F1000.
N245 G1 Y1704.744 F6000.
N250 G3 Y1706.649 Z-23.095 J0. K1.905 F1000.
N255 G0 Z5.
N260 X194.657 Y1739.737
N265 Z-23.095
N270 G2 Y1737.832 Z-25. J-1.905 K0. F1000.
N275 G1 Y233.833 F6000.
N280 G2 Y231.928 Z-23.095 J0. K1.905 F1000.
N285 G0 Z5.
N290 X179.661 Y188.114
N295 Z-23.095
N300 G3 Y190.019 Z-25. J1.905 K0. F1000.
N305 G1 Y280.573 F6000.
N310 Y303.335 Z-22.509
N315 Y341.24 Z-21.426
N320 Y463.038 Z-24.591
N325 Y1766.993 Z-25.
N330 Y1792.809
N335 X179.521 Y1793.692
N340 X179.115 Y1794.488 Z-25.001
N345 X178.483 Y1795.121
N350 X177.687 Y1795.526
N355 X176.804 Y1795.666
N360 X167.522
N365 X166.639 Y1795.526
N370 X165.843 Y1795.121
N375 X165.211 Y1794.488
N380 X164.805 Y1793.692 Z-25.
N385 X164.665 Y1792.809
N390 Y524.096 Z-24.513
N395 Y290.618 Z-16.67
N400 Y251.894 Z-17.847
N405 Y230.381 Z-21.377
N410 Y220.141 Z-25.
N415 Y151.221
N420 G2 Y149.316 Z-23.095 J0. K1.905 F1000.
N425 G0 Z5.
N430 X149.669 Y115.69
N435 Z-23.095
N440 G3 Y117.595 Z-25. J1.905 K0. F1000.
N445 G1 Y171.516 F6000.
N450 Y177.848 Z-20.974
N455 Y188.277 Z-16.856
N460 Y206.938 Z-13.746
N465 Y239.161 Z-12.525
N470 Y350.394 Z-16.346
N475 Y579.467 Z-24.581
N480 Y1815.874 Z-25.
N485 G3 Y1816.294 Z-24.903 J0. K0.952
N490 G2 Y1816.713 Z-24.806 J0.419 K-0.855
N495 G1 Y1837.273
N500 G17 G3 X146.811 Y1840.131 I-2.857 J0.
N505 G1 X137.53
N510 G3 X134.672 Y1837.273 I0. J-2.858
N515 G19 G3 Y1836.854 Z-24.903 J0. K-0.952
N520 G2 Y1836.432 Z-25. J-0.419 K0.855
N525 G1 Y1769.861 Z-24.787
N530 Y1749.387 Z-23.778
N535 Y1701.659 Z-25.
N540 Y623.84 Z-24.502
N545 Y412.388 Z-17.473
N550 Y209.746 Z-9.165
N555 Y173.77 Z-9.478
N560 Y155.252 Z-11.646
N565 Y141.934 Z-15.551
N570 Y133.261 Z-21.506
N575 Y131.546 Z-25.
N580 Y88.872
N585 G2 Y88.453 Z-24.903 J0. K0.952
N590 G3 Y88.034 Z-24.806 J-0.419 K-0.855
N595 G1 Y66.096
N600 G17 G2 X131.815 Y63.239 I-2.857 J0.
N605 G1 X122.534
N610 G2 X119.676 Y66.096 I0. J2.858
N615 G19 G2 Y66.515 Z-24.903 J0. K-0.952
N620 G3 Y66.935 Z-25. J0.419 K0.855
N625 G1 Y95.214
N630 Y95.585 Z-24.09
N635 Y98.077 Z-17.904
N640 Y106.065 Z-12.133
N645 Y118.142 Z-8.401
N650 Y137.216 Z-6.075
N655 Y173.136 Z-6.022
N660 Y425.703 Z-16.833
N665 Y666.524 Z-24.492
N670 Y1685.606 Z-25.
N675 Y1773.808 Z-20.135
N680 Y1790.877 Z-21.338
N685 Y1801.135 Z-24.79
N690 Y1855.073 Z-25.
N695 G3 Y1855.496 Z-24.903 J0.004 K0.952
N700 G2 Y1855.916 Z-24.806 J0.419 K-0.855
N705 G1 Y1872.763
N710 G17 G3 X116.819 Y1875.62 I-2.857 J0.
N715 G1 X107.537
N720 G3 X104.68 Y1872.763 I0. J-2.858
N725 G19 G3 Y1872.344 Z-24.903 J0. K-0.952
N730 G2 Y1871.916 Z-25. J-0.419 K0.855
N735 G1 Y1821.176 Z-24.538
N740 Y1814.624 Z-19.943
N745 Y1801.844 Z-17.063
N750 Y1775.173 Z-17.757
N755 Y1675.321 Z-24.816
N760 Y706.165 Z-24.517
N765 Y444.787 Z-16.556
N770 Y138.206 Z-3.249
N775 Y99.723 Z-3.35
N780 Y94.185 Z-5.202
N785 Y89.193 Z-10.044
N790 Y86.749 Z-17.778
N795 Y86.263 Z-25.
N800 Y66.634
N805 G2 Y66.215 Z-24.903 J0. K0.952
N810 G3 Y65.796 Z-24.806 J-0.419 K-0.855
N815 G17 G2 X101.822 Y62.939 I-2.857 J0.
N820 G1 X92.541
N825 G2 X89.684 Y65.796 I0. J2.858
N830 G19 G2 Y66.215 Z-24.903 J0. K-0.952
N835 G3 Y66.634 Z-25. J0.419 K0.855
N840 G1 Y86.946
N845 Y87.269 Z-13.841
N850 Y89.963 Z-6.964
N855 Y95.713 Z-2.184
N860 Y101.19 Z-0.727
N865 Y239.221 Z-6.423
N870 Y468.294 Z-16.628
N875 Y738.483 Z-24.514
N880 Y1643.028 Z-25.
N885 Y1695.891 Z-22.622
N890 Y1781.06 Z-15.89
N895 Y1813.62 Z-13.803
N900 Y1825.678 Z-15.59
N905 Y1832.95 Z-19.135
N910 Y1837.493 Z-24.817
N915 Y1887.394 Z-25.
N920 G3 Y1889.306 Z-23.095 J0.007 K1.905 F1000.
N925 G0 Z5.
N930 X74.687 Y2156.67
N935 Z-23.095
N940 G2 Y2154.765 Z-25. J-1.905 K0. F1000.
N945 G1 Y1850.926 F6000.
N950 Y1847.925 Z-18.569
N955 Y1841.362 Z-13.664
N960 Y1831.68 Z-11.184
N965 Y1814.059 Z-11.566
N970 Y1723.549 Z-20.015
N975 Y1629.57 Z-25.
N980 Y769.077 Z-24.561
N985 Y481.267 Z-16.419
N990 Y269.815 Z-7.239
N995 Y105.353 Z0.223
N1000 Y98.18 Z-2.328
N1005 Y93.384 Z-7.165
N1010 Y91.362 Z-13.464
N1015 Y91.106 Z-25.
N1020 Y66.474
N1025 G2 Y66.055 Z-24.903 J0. K0.952
N1030 G3 Y65.636 Z-24.806 J-0.419 K-0.855
N1035 G1 Y58.019
N1040 G17 G2 X71.83 Y55.162 I-2.857 J0.
N1045 G1 X62.549
N1050 G2 X59.691 Y58.019 I0. J2.857
N1055 G19 G2 Y58.438 Z-24.903 J0. K-0.952
N1060 G3 Y58.858 Z-25. J0.419 K0.855
N1065 G1 Y97.502
N1070 Y97.852 Z-22.212
N1075 Y98.759 Z-9.761
N1080 Y102.498 Z-3.966
N1085 Y108.692 Z-0.241
N1090 Y114.565 Z0.76
N1095 Y228.948 Z-4.681
N1100 Y472.705 Z-15.586
N1105 Y789.883 Z-24.535
N1110 Y1591.639 Z-25.
N1115 Y1641.565 Z-23.999
N1120 Y1726.734 Z-19.186
N1125 Y1796.352 Z-12.576
N1130 Y1835.346 Z-8.422
N1135 Y1847.956 Z-9.163
N1140 Y1856.394 Z-13.177
N1145 Y1860.572 Z-18.168
N1150 Y1862.266 Z-25.
N1155 Y2155.
N1160 G3 Y2155.419 Z-24.903 J0. K0.952
N1165 G2 Y2155.838 Z-24.806 J0.419 K-0.855
N1170 G17 G3 X56.834 Y2158.696 I-2.857 J0.
N1175 G1 X47.552
N1180 G3 X44.695 Y2155.838 I0. J-2.857
N1185 G19 G3 Y2155.419 Z-24.903 J0. K-0.952
N1190 G2 Y2155. Z-25. J-0.419 K0.855
N1195 G1 Y1872.516
N1200 Y1871.228 Z-16.042
N1205 Y1867.19 Z-10.7
N1210 Y1859.848 Z-6.893
N1215 Y1848.43 Z-5.931
N1220 Y1804.326 Z-11.14
N1225 Y1738.392 Z-17.872
N1230 Y1653.224 Z-23.032
N1235 Y1585.677 Z-25.
N1240 Y804.479 Z-24.492
N1245 Y493.174 Z-15.867
N1250 Y293.469 Z-7.485
N1255 Y120.23 Z0.639
N1260 Y115.014 Z-0.926
N1265 Y110.326 Z-4.122
N1270 Y106.954 Z-9.173
N1275 Y106.051 Z-20.528
N1280 Y105.811 Z-25.
N1285 Y-55.
N1290 G2 Y-55.419 Z-24.903 J0. K0.952
N1295 G3 Y-55.838 Z-24.806 J-0.419 K-0.855
N1300 G17 G2 X41.837 Y-58.696 I-2.857 J0.
N1305 G1 X32.556
N1310 G2 X29.699 Y-55.838 I0. J2.858
N1315 G19 G2 Y-55.419 Z-24.903 J0. K-0.952
N1320 G3 Y-55. Z-25. J0.419 K0.855
N1325 G1 Y115.377
N1330 Y115.865 Z-11.855
N1335 Y118.62 Z-5.636
N1340 Y122.821 Z-1.981
N1345 Y131.168 Z0.628
N1350 Y290.491 Z-7.101
N1355 Y498.272 Z-15.781
N1360 Y815.451 Z-24.494
N1365 Y1584.901 Z-25.
N1370 Y1675.943 Z-21.668
N1375 Y1758.341 Z-15.867
N1380 Y1862.399 Z-3.542
N1385 Y1872.304 Z-5.167
N1390 Y1877.967 Z-8.934
N1395 Y1881.507 Z-14.36
N1400 Y1882.32 Z-25.
N1405 Y2155.
N1410 G3 Y2155.419 Z-24.903 J0. K0.952
N1415 G2 Y2155.838 Z-24.806 J0.419 K-0.855
N1420 G17 G3 X26.841 Y2158.696 I-2.858 J0.
N1425 G1 X17.56
N1430 G3 X14.702 Y2155.838 I0. J-2.857
N1435 G19 G3 Y2155.419 Z-24.903 J0. K-0.952
N1440 G2 Y2155. Z-25. J-0.419 K0.855
N1445 G1 Y1892.34
N1450 Y1891.786 Z-12.01
N1455 Y1888.576 Z-6.269
N1460 Y1882.287 Z-2.465
N1465 Y1871.948 Z-1.276
N1470 Y1781.723 Z-13.366
N1475 Y1715.753 Z-19.092
N1480 Y1612.964 Z-24.121
N1485 Y1554.227 Z-25.
N1490 Y822.955 Z-24.485
N1495 Y482.283 Z-15.004
N1500 Y281.109 Z-6.455
N1505 Y141.61 Z0.225
N1510 Y133.661 Z-2.316
N1515 Y129.065 Z-6.29
N1520 Y126.577 Z-11.653
N1525 Y125.966 Z-25.
N1530 Y-55.
N1535 G2 Y-55.419 Z-24.903 J0. K0.952
N1540 G3 Y-55.838 Z-24.806 J-0.419 K-0.855
N1545 G17 G2 X11.845 Y-58.696 I-2.858 J0.
N1550 G1 X2.564
N1555 G2 X-0.294 Y-55.838 I0. J2.858
N1560 G19 G2 Y-55.419 Z-24.903 J0. K-0.952
N1565 G3 Y-55. Z-25. J0.419 K0.855
N1570 G1 Y134.223
N1575 Y134.486 Z-12.872
N1580 Y137.148 Z-5.846
N1585 Y141.611 Z-1.788
N1590 Y147.805 Z0.152
N1595 Y241.784 Z-4.44
N1600 Y479.668 Z-14.856
N1605 Y832.088 Z-24.65
N1610 Y1586.855 Z-24.946
N1615 Y1710.202 Z-19.401
N1620 Y1786.559 Z-12.766
N1625 Y1879.413 Z0.338
N1630 Y1885.752 Z-1.119
N1635 Y1890.685 Z-5.027
N1640 Y1893.622 Z-11.174
N1645 Y1893.938 Z-25.
N1650 Y2155.
N1655 G3 Y2155.419 Z-24.903 J0. K0.952
N1660 G2 Y2155.838 Z-24.806 J0.419 K-0.855
N1665 G17 G3 X-3.151 Y2158.696 I-2.858 J0.
N1670 G1 X-12.433
N1675 G3 X-15.29 Y2155.838 I0. J-2.857
N1680 G19 G3 Y2155.419 Z-24.903 J0. K-0.952
N1685 G2 Y2155. Z-25. J-0.419 K0.855
N1690 G1 Y1892.027
N1695 Y1891.327 Z-11.609
N1700 Y1887.852 Z-6.041
N1705 Y1881.409 Z-2.423
N1710 Y1871.314 Z-1.396
N1715 Y1778.519 Z-13.727
N1720 Y1696.967 Z-20.28
N1725 Y1585.367 Z-25.
N1730 Y824.727 Z-24.531
N1735 Y475.244 Z-14.761
N1740 Y260.855 Z-5.461
N1745 Y144.087 Z0.382
N1750 Y136.894 Z-0.657
N1755 Y131.044 Z-3.822
N1760 Y127.042 Z-8.898
N1765 Y125.845 Z-14.943
N1770 Y125.488 Z-25.
N1775 Y-55.
N1780 G2 Y-55.419 Z-24.903 J0. K0.952
N1785 G3 Y-55.838 Z-24.806 J-0.419 K-0.855
N1790 G17 G2 X-18.148 Y-58.696 I-2.858 J0.
N1795 G1 X-27.429
N1800 G2 X-30.286 Y-55.838 I0. J2.858
N1805 G19 G2 Y-55.419 Z-24.903 J0. K-0.952
N1810 G3 Y-55. Z-25. J0.419 K0.855
N1815 G1 Y114.847
N1820 Y115.417 Z-12.408
N1825 Y117.889 Z-6.099
N1830 Y122.185 Z-2.114
N1835 Y129.384 Z0.472
N1840 Y278.611 Z-6.549
N1845 Y496.671 Z-15.721
N1850 Y818.989 Z-24.587
N1855 Y1588.44 Z-25.
N1860 Y1691.229 Z-20.803
N1865 Y1764.65 Z-15.286
N1870 Y1861.367 Z-3.644
N1875 Y1871.534 Z-5.121
N1880 Y1877.505 Z-8.926
N1885 Y1881.14 Z-14.503
N1890 Y1881.947 Z-25.
N1895 Y2155.
N1900 G3 Y2155.419 Z-24.903 J0. K0.952
N1905 G2 Y2155.838 Z-24.806 J0.419 K-0.855
N1910 G17 G3 X-33.144 Y2158.696 I-2.858 J0.
N1915 G1 X-42.425
N1920 G3 X-45.283 Y2155.838 I0. J-2.857
N1925 G19 G3 Y2155.419 Z-24.903 J0. K-0.952
N1930 G2 Y2155. Z-25. J-0.419 K0.855
N1935 G1 Y1872.144
N1940 Y1870.861 Z-16.265
N1945 Y1867.19 Z-11.142
N1950 Y1859.44 Z-6.99
N1955 Y1849.5 Z-5.99
N1960 Y1835.223 Z-7.228
N1965 Y1755.631 Z-16.417
N1970 Y1667.63 Z-22.35
N1975 Y1594.209 Z-25.
N1980 Y804.201 Z-24.501
N1985 Y498.77 Z-16.081
N1990 Y287.318 Z-7.191
N1995 Y119.901 Z0.649
N2000 Y114.671 Z-0.908
N2005 Y109.979 Z-4.091
N2010 Y106.502 Z-9.478
N2015 Y105.568 Z-25.
N2020 Y-55.
N2025 G2 Y-56.905 Z-23.095 J0. K1.905 F1000.
N2030 G0 Z5.
N2035 X-60.279 Y57.832
N2040 Z-23.095
N2045 G3 Y59.737 Z-25. J1.905 K0. F1000.
N2050 G1 Y97.454 F6000.
N2055 Y97.619 Z-17.314
N2060 Y98.619 Z-9.281
N2065 Y101.22 Z-4.983
N2070 Y105.775 Z-1.386
N2075 Y113.506 Z0.728
N2080 Y289.716 Z-7.74
N2085 Y493.826 Z-16.304
N2090 Y788.978 Z-24.532
N2095 Y1614.229 Z-25.
N2100 Y1711.144 Z-20.315
N2105 Y1785.714 Z-13.791
N2110 Y1835.04 Z-8.499
N2115 Y1847.536 Z-9.272
N2120 Y1855.386 Z-12.862
N2125 Y1860.039 Z-17.97
N2130 Y1861.891 Z-25.
N2135 Y2155.
N2140 G3 Y2155.419 Z-24.903 J0. K0.952
N2145 G2 Y2155.838 Z-24.806 J0.419 K-0.855
N2150 G17 G3 X-63.136 Y2158.696 I-2.857 J0.
N2155 G1 X-72.418
N2160 G3 X-75.275 Y2155.838 I0. J-2.857
N2165 G1 Y2155.447
N2170 G19 G3 Y2155.028 Z-24.903 J0. K-0.952
N2175 G2 Y2154.607 Z-25. J-0.419 K0.855
N2180 G1 Y1850.28 Z-24.696
N2185 Y1847.316 Z-18.507
N2190 Y1840.601 Z-13.605
N2195 Y1829.933 Z-11.198
N2200 Y1808.607 Z-12.103
N2205 Y1712.475 Z-20.81
N2210 Y1627.398 Z-25.
N2215 Y766.906 Z-24.526
N2220 Y479.096 Z-16.36
N2225 Y255.896 Z-6.571
N2230 Y106.118 Z0.283
N2235 Y100.598 Z-0.967
N2240 Y95.049 Z-4.722
N2245 Y91.99 Z-9.638
N2250 Y91.064 Z-17.359
N2255 Y90.863 Z-25.
N2260 Y66.591
N2265 G2 Y66.172 Z-24.903 J0. K0.952
N2270 G3 Y65.753 Z-24.806 J-0.419 K-0.855
N2275 G17 G2 X-78.133 Y62.895 I-2.858 J0.
N2280 G1 X-87.414
N2285 G2 X-90.271 Y65.753 I0. J2.858
N2290 G1 Y65.796
N2295 G19 G2 Y66.215 Z-24.903 J0. K-0.952
N2300 G3 Y66.634 Z-25. J0.419 K0.855
N2305 G1 Y86.939
N2310 Y87.403 Z-12.522
N2315 Y90.756 Z-5.902
N2320 Y95.525 Z-2.277
N2325 Y102.236 Z-0.748
N2330 Y227.051 Z-5.86
N2335 Y467.872 Z-16.641
N2340 Y738.061 Z-24.528
N2345 Y1639.669 Z-25.
N2350 Y1689.595 Z-23.034
N2355 Y1777.7 Z-16.242
N2360 Y1811.973 Z-13.88
N2365 Y1824.762 Z-15.552
N2370 Y1832.526 Z-19.346
N2375 Y1836.942 Z-24.802
N2380 Y1886.799 Z-25.
N2385 G3 Y1887.222 Z-24.903 J0.004 K0.952
N2390 G2 Y1887.641 Z-24.806 J0.419 K-0.855
N2395 G17 G3 X-93.129 Y1890.499 I-2.858 J0.
N2400 G1 X-102.41
N2405 G3 X-105.268 Y1887.641 I0. J-2.858
N2410 G1 Y1872.124
N2415 G19 G3 Y1871.705 Z-24.903 J0. K-0.952
N2420 G2 Y1871.281 Z-25. J-0.419 K0.855
N2425 G1 Y1820.759 Z-24.781
N2430 Y1813.848 Z-20.008
N2435 Y1801.16 Z-17.186
N2440 Y1776.9 Z-17.687
N2445 Y1674.147 Z-24.911
N2450 Y704.991 Z-24.525
N2455 Y443.613 Z-16.546
N2460 Y141.119 Z-3.408
N2465 Y101.281 Z-3.431
N2470 Y94.356 Z-5.331
N2475 Y90.06 Z-9.031
N2480 Y87.117 Z-15.696
N2485 Y86.554 Z-25.
N2490 Y66.634
N2495 G2 Y66.215 Z-24.903 J0. K0.952
N2500 G3 Y65.796 Z-24.806 J-0.419 K-0.855
N2505 G17 G2 X-108.125 Y62.939 I-2.858 J0.
N2510 G1 X-117.406
N2515 G2 X-120.264 Y65.796 I0. J2.858
N2520 G1 Y66.242
N2525 G19 G2 Y66.661 Z-24.903 J0. K-0.952
N2530 G3 Y67.088 Z-25. J0.419 K0.855
N2535 G1 Y96.771 Z-24.768
N2540 Y99.437 Z-17.984
N2545 Y106.584 Z-12.712
N2550 Y117.698 Z-8.946
N2555 Y135.479 Z-6.422
N2560 Y173.128 Z-6.098
N2565 Y425.696 Z-16.874
N2570 Y666.517 Z-24.529
N2575 Y1688.535 Z-25.
N2580 Y1772.322 Z-20.282
N2585 Y1790.061 Z-21.497
N2590 Y1800.452 Z-24.94
N2595 Y1854.395 Z-25.
N2600 G3 Y1854.815 Z-24.903 J0.001 K0.952
N2605 G2 Y1855.234 Z-24.806 J0.419 K-0.855
N2610 G17 G3 X-123.121 Y1858.092 I-2.857 J0.
N2615 G1 X-132.403
N2620 G3 X-135.26 Y1855.234 I0. J-2.858
N2625 G1 Y1836.5
N2630 G19 G3 Y1836.08 Z-24.903 J0. K-0.952
N2635 G2 Y1835.656 Z-25. J-0.419 K0.855
N2640 G1 Y1766.895 Z-24.636
N2645 Y1744.905 Z-24.002
N2650 Y1710.467 Z-25.
N2655 Y620.902 Z-24.497
N2660 Y374.207 Z-15.925
N2665 Y212.681 Z-9.319
N2670 Y177.439 Z-9.435
N2675 Y156.381 Z-11.81
N2680 Y142.712 Z-15.945
N2685 Y134.439 Z-21.971
N2690 Y132.386 Z-25.
N2695 Y89.893
N2700 G17 G2 X-138.118 Y87.035 I-2.857 J0.
N2705 G1 X-147.399
N2710 G2 X-150.256 Y89.893 I0. J2.857
N2715 G1 Y118.836
N2720 Y173.172
N2725 Y178.447 Z-21.743
N2730 Y190.674 Z-16.823
N2735 Y208.404 Z-13.861
N2740 Y242.37 Z-12.673
N2745 Y361.312 Z-16.877
N2750 Y575.701 Z-24.527
N2755 Y1815.046 Z-25.
N2760 G19 G3 Y1815.465 Z-24.903 J0. K0.952
N2765 G2 Y1815.884 Z-24.806 J0.419 K-0.855
N2770 G17 G3 X-153.114 Y1818.742 I-2.857 J0.
N2775 G1 X-162.395
N2780 G3 X-165.253 Y1815.884 I0. J-2.858
N2785 G1 Y1792.7
N2790 G19 G3 Y1792.281 Z-24.903 J0. K-0.952
N2795 G2 Y1791.861 Z-25. J-0.419 K0.855
N2800 G1 Y523.148 Z-24.553
N2805 Y292.607 Z-16.842
N2810 Y259.881 Z-17.736
N2815 Y241.514 Z-19.656
N2820 Y229.312 Z-22.567
N2825 Y222.524 Z-25.
N2830 Y152.671
N2835 G2 Y150.766 Z-23.095 J0. K1.905 F1000.
N2840 G0 Z5.
N2845 X-180.249 Y189.757
N2850 Z-23.095
N2855 G3 Y191.662 Z-25. J1.905 K0. F1000.
N2860 G1 Y282.672 F6000.
N2865 Y304.901 Z-22.679
N2870 Y342.78 Z-21.614
N2875 Y456.085 Z-24.499
N2880 Y1765.913 Z-25.
N2885 G17 G3 X-183.106 Y1768.771 I-2.857 J0.
N2890 G1 X-192.388
N2895 G3 X-195.245 Y1765.913 I0. J-2.858
N2900 G1 Y1736.611
N2905 Y235.667
N2910 G19 G2 Y233.762 Z-23.095 J0. K1.905 F1000.
N2915 G0 Z5.
N2920 X-210.241 Y283.849
N2925 Z-23.095
N2930 G3 Y285.754 Z-25. J1.905 K0. F1000.
N2935 G1 Y1703.372 F6000.
N2940 G3 Y1705.277 Z-23.095 J0. K1.905 F1000.
N2945 G0 Z5.
N2950 X-225.238 Y1667.472
N2955 Z-23.095
N2960 G2 Y1665.567 Z-25. J-1.905 K0. F1000.
N2965 G1 Y344.803 F6000.
N2970 G2 Y342.898 Z-23.095 J0. K1.905 F1000.
N2975 G0 Z5.
N2980 X-240.234 Y414.326
N2985 Z-23.095
N2990 G3 Y416.231 Z-25. J1.905 K0. F1000.
N2995 G1 Y1622.581 F6000.
N3000 G3 Y1624.486 Z-23.095 J0. K1.905 F1000.
N3005 G0 Z5.
N3010 X-255.23 Y1574.93
N3015 Z-23.095
N3020 G2 Y1573.025 Z-25. J-1.905 K0. F1000.
N3025 G1 Y503.468 F6000.
N3030 G2 Y501.563 Z-23.095 J0. K1.905 F1000.
N3035 G0 Z5.
N3040 X-270.226 Y608.635
N3045 Z-23.095
N3050 G3 Y610.54 Z-25. J1.905 K0. F1000.
N3055 G1 Y1512.898 F6000.
N3060 G3 Y1514.803 Z-23.095 J0. K1.905 F1000.
N3065 G0 Z5.
N3070 X-285.223 Y1426.925
N3075 Z-23.095
N3080 G2 Y1425.02 Z-25. J-1.905 K0. F1000.
N3085 G1 Y752.192 F6000.
N3090 G2 Y750.287 Z-23.095 J0. K1.905 F1000.
N3095 G0 Z15.
N3100 G17
(PARALLEL1 2)
N3105 G0 X297.16 Y1407.498
N3110 Z15.
N3115 Z-48.095
N3120 G19 G2 Y1405.593 Z-50. J-1.905 K0. F1000.
N3125 G1 Y781.659 F6000.
N3130 G2 Y779.754 Z-48.095 J0. K1.905 F1000.
N3135 G0 Z5.
N3140 X282.163 Y627.773
N3145 Z-48.095
N3150 G3 Y629.678 Z-50. J1.905 K0. F1000.
N3155 G1 Y1502.548 F6000.
N3160 G3 Y1504.453 Z-48.095 J0. K1.905 F1000.
N3165 G0 Z5.
N3170 X267.167 Y1567.425
N3175 Z-48.095
N3180 G2 Y1565.52 Z-50. J-1.905 K0. F1000.
N3185 G1 Y518.519 F6000.
N3190 G2 Y516.614 Z-48.095 J0. K1.905 F1000.
N3195 G0 Z5.
N3200 X252.17 Y426.354
N3205 Z-48.095
N3210 G3 Y428.259 Z-50. J1.905 K0. F1000.
N3215 G1 Y1616.548 F6000.
N3220 G3 Y1618.453 Z-48.095 J0. K1.905 F1000.
N3225 G0 Z5.
N3230 X237.174 Y1662.628
N3235 Z-48.095
N3240 G2 Y1660.721 Z-50. J-1.905 K0. F1000.
N3245 G1 Y1158.467 Z-49.441 F6000.
N3250 Y716.177 Z-44.041
N3255 Y618.404 Z-44.791
N3260 Y575.345 Z-47.244
N3265 Y550.778 Z-49.532
N3270 Y354.23 Z-50.
N3275 G2 Y353.808 Z-49.903 J-0.002 K0.952
N3280 G3 Y353.389 Z-49.806 J-0.419 K-0.855
N3285 G1 Y337.856
N3290 G17 G2 X234.317 Y334.998 I-2.857 J0.
N3295 G1 X225.035
N3300 G2 X222.178 Y337.856 I0. J2.858
N3305 G19 G2 Y338.275 Z-49.903 J0. K-0.953
N3310 G3 Y338.694 Z-50. J0.419 K0.855
N3315 G1 Y435.971
N3320 Y448.486 Z-46.105
N3325 Y470.208 Z-42.148
N3330 Y513.433 Z-38.859
N3335 Y591.877 Z-37.955
N3340 Y1059.297 Z-45.349
N3345 Y1433.994 Z-47.69
N3350 Y1518.224 Z-49.687
N3355 Y1699.526 Z-50.
N3360 G3 Y1701.434 Z-48.095 J0.003 K1.905 F1000.
N3365 G0 Z5.
N3370 X207.181 Y1735.608
N3375 Z-48.095
N3380 G2 Y1733.698 Z-50. J-1.905 K0. F1000.
N3385 G1 Y1618.942 Z-49.683 F6000.
N3390 Y1598.813 Z-46.951
N3395 Y1568.423 Z-44.849
N3400 Y1491.906 Z-44.102
N3405 Y1196.05 Z-44.105
N3410 Y943.927 Z-40.838
N3415 Y487.839 Z-32.302
N3420 Y426.993 Z-33.184
N3425 Y390.368 Z-36.704
N3430 Y373.777 Z-40.863
N3435 Y364.457 Z-45.021
N3440 Y361.281 Z-48.696
N3445 Y360.223 Z-50.
N3450 Y343.393
N3455 X211.538 Y335.135
N3460 X211.644 Y334.934 Z-49.981
N3465 X215.576 Y327.482 Z-49.075
N3470 X215.682 Y327.281 Z-49.052
N3475 X217.382 Y324.058 Z-48.915
N3480 X219.082 Y320.836 Z-49.222
N3485 X219.189 Y320.634 Z-49.257
N3490 X219.295 Y320.433 Z-49.295
N3495 X219.507 Y320.03 Z-49.377
N3500 X219.932 Y319.224 Z-49.568
N3505 X220.358 Y318.419 Z-49.799
N3510 X220.525 Y318.1 Z-49.902
N3515 X220.681 Y317.806 Z-50.
N3520 X222.178 Y314.969
N3525 Y293.28
N3530 G2 Y291.375 Z-48.095 J0. K1.905 F1000.
N3535 G0 Z5.
N3540 X192.185 Y301.105
N3545 Z-36.128
N3550 G1 Z-44.474 F1000.
N3555 G3 Y301.92 Z-44.645 J0.425 K0.
N3560 G1 Y302.847 Z-42.534 F6000.
N3565 Y305.363 Z-39.235
N3570 Y309.929 Z-36.321
N3575 Y326.142 Z-31.157
N3580 Y356.772 Z-27.67
N3585 Y403.506 Z-26.809
N3590 Y577.726 Z-30.84
N3595 Y1019.65 Z-40.033
N3600 Y1275.646 Z-42.225
N3605 Y1526.447 Z-40.769
N3610 Y1603.394 Z-40.473
N3615 Y1647.367 Z-42.266
N3620 Y1669.34 Z-45.815
N3625 Y1678.825 Z-49.71
N3630 Y1729.817 Z-50.
N3635 G3 Y1730.241 Z-49.903 J0.005 K0.952
N3640 G2 Y1730.66 Z-49.806 J0.419 K-0.855
N3645 G1 Y1730.662
N3650 G17 G3 X189.327 Y1733.52 I-2.857 J0.
N3655 G1 X180.046
N3660 G3 X177.188 Y1730.662 I0. J-2.858
N3665 G19 G3 Y1730.243 Z-49.903 J0. K-0.953
N3670 G2 Y1729.802 Z-50. J-0.419 K0.855
N3675 G1 Y1720.013 Z-49.775
N3680 Y1715.041 Z-44.988
N3685 Y1705.63 Z-40.62
N3690 Y1688.734 Z-37.576
N3695 Y1649.353 Z-36.466
N3700 Y1343.894 Z-40.207
N3705 Y1126.739 Z-39.644
N3710 Y746.43 Z-32.793
N3715 Y449.689 Z-24.788
N3720 Y333.543 Z-21.644
N3725 Y301.271 Z-22.418
N3730 Y274.633 Z-25.596
N3735 Y260.824 Z-30.212
N3740 Y254.307 Z-34.269
N3745 Y252.247 Z-37.539
N3750 G2 Y250.202 Z-36.948 J-0.937 K0.59 F1000.
N3755 G0 Z5.
N3760 X162.192 Y204.536
N3765 Z-27.275
N3770 G1 Z-29.81 F1000.
N3775 G3 Y207.688 Z-31.25 J1.905 K0.
N3780 G1 Y213.72 Z-26.031 F6000.
N3785 Y226.159 Z-21.26
N3790 Y248.825 Z-17.996
N3795 Y280.701 Z-17.011
N3800 Y396.848 Z-20.735
N3805 Y626.308 Z-28.169
N3810 Y1037.071 Z-36.931
N3815 Y1275.66 Z-38.77
N3820 Y1501.673 Z-36.607
N3825 Y1685.808 Z-32.296
N3830 Y1718.189 Z-32.722
N3835 Y1735.878 Z-35.972
N3840 Y1742.578 Z-39.306
N3845 Y1747.484 Z-43.717
N3850 Y1748.725 Z-46.111
N3855 G3 Y1749.695 Z-45.875 J0.456 K0.236 F1000.
N3860 G0 Z5.
N3865 X147.196 Y1774.232
N3870 Z-37.616
N3875 G1 Z-40.112 F1000.
N3880 G2 Y1772.185 Z-40.853 J-1.158 K0.
N3885 G1 Y1767.667 Z-35.426 F6000.
N3890 Y1759.445 Z-31.204
N3895 Y1744.015 Z-28.389
N3900 Y1716.775 Z-28.258
N3905 Y1597.796 Z-32.768
N3910 Y1362.67 Z-36.947
N3915 Y1143.747 Z-36.921
N3920 Y846.298 Z-31.82
N3925 Y520.521 Z-23.555
N3930 Y236.529 Z-12.948
N3935 Y205.472 Z-13.792
N3940 Y185.406 Z-16.589
N3945 Y175.81 Z-19.858
N3950 Y168.325 Z-24.638
N3955 Y167.272 Z-25.792
N3960 G2 Y164.894 Z-24.87 J-1.01 K0.922 F1000.
N3965 G0 Z5.
N3970 X132.199 Y126.802
N3975 Z-18.461
N3980 G1 Z-19.76 F1000.
N3985 G3 Y129.802 Z-21.318 J1.905 K0.
N3990 G1 Y137.725 Z-15.753 F6000.
N3995 Y150.284 Z-12.212
N4000 Y166.43 Z-9.97
N4005 Y203.257 Z-9.595
N4010 Y370.395 Z-16.48
N4015 Y574.359 Z-23.936
N4020 Y956.793 Z-32.905
N4025 Y1186.253 Z-36.101
N4030 Y1398.114 Z-35.299
N4035 Y1626.158 Z-30.292
N4040 Y1716.809 Z-25.926
N4045 Y1761.339 Z-24.195
N4050 Y1778.03 Z-26.262
N4055 Y1786.542 Z-29.844
N4060 Y1792.142 Z-36.042
N4065 G3 Y1794.073 Z-35.299 J0.822 K0.743 F1000.
N4070 G0 Z5.
N4075 X117.203 Y1811.568
N4080 Z-29.579
N4085 G1 Z-30.697 F1000.
N4090 G2 Y1809.437 Z-31.532 J-1.229 K0.
N4095 G1 Y1804.127 Z-25.795 F6000.
N4100 Y1795.129 Z-22.215
N4105 Y1779.745 Z-20.614
N4110 Y1722.38 Z-23.927
N4115 Y1617.564 Z-29.235
N4120 Y1390.937 Z-34.319
N4125 Y1203.258 Z-35.193
N4130 Y982.296 Z-32.416
N4135 Y588.531 Z-23.17
N4140 Y381.733 Z-15.8
N4145 Y167.854 Z-6.555
N4150 Y129.079 Z-6.799
N4155 Y110.122 Z-9.588
N4160 Y99.265 Z-14.183
N4165 Y94.77 Z-18.302
N4170 Y94.046 Z-19.819
N4175 G2 Y92.227 Z-19.407 J-0.863 K0.412 F1000.
N4180 G0 Z5.
N4185 X102.206 Y85.378
N4190 Z-18.072
N4195 G3 Y87.659 Z-19.94 J1.905 K0. F1000.
N4200 G1 Y87.694 Z-17.432 F6000.
N4205 Y89.635 Z-10.41
N4210 Y93.879 Z-5.826
N4215 Y99.549 Z-3.707
N4220 Y136.703 Z-3.94
N4225 Y350.583 Z-13.45
N4230 Y568.712 Z-21.628
N4235 Y917.152 Z-30.171
N4240 Y1160.776 Z-34.107
N4245 Y1344.592 Z-33.958
N4250 Y1551.39 Z-30.029
N4255 Y1673.202 Z-25.728
N4260 Y1793.909 Z-17.336
N4265 Y1810.022 Z-18.42
N4270 Y1817.694 Z-21.061
N4275 Y1820.736 Z-23.048
N4280 Y1824.566 Z-27.737
N4285 G3 Y1826.354 Z-27.099 J0.78 K0.637 F1000.
N4290 G0 Z5.
N4295 X87.21 Y1840.601
N4300 Z-23.237
N4305 G1 Z-23.941 F1000.
N4310 G2 Y1838.416 Z-24.725 J-1.233 K0.
N4315 G1 Y1834.039 Z-19.401 F6000.
N4320 Y1826.817 Z-15.843
N4325 Y1823.609 Z-15.078
N4330 Y1814.443 Z-14.341
N4335 Y1778.43 Z-16.952
N4340 Y1689.904 Z-23.863
N4345 Y1588.63 Z-28.065
N4350 Y1376.167 Z-32.863
N4355 Y1172.104 Z-33.534
N4360 Y945.476 Z-30.083
N4365 Y585.705 Z-21.313
N4370 Y359.078 Z-13.051
N4375 Y109.787 Z-1.671
N4380 Y98.996 Z-1.99
N4385 Y92.828 Z-5.526
N4390 Y89.724 Z-10.09
N4395 Y88.615 Z-18.13
N4400 Y88.592 Z-19.938
N4405 X83.381 Y89.51 Z-19.899
N4410 X79.612 Y90.622 Z-19.859
N4415 X75.889 Y91.88 Z-19.819
N4420 X72.214 Y93.291 Z-19.78
N4425 Y93.368 Z-14.711
N4430 Y95.08 Z-8.032
N4435 Y99.77 Z-3.078
N4440 Y106.959 Z-0.607
N4445 Y356.249 Z-12.252
N4450 Y582.876 Z-20.594
N4455 Y1027.633 Z-31.188
N4460 Y1241.081 Z-33.162
N4465 Y1418.674 Z-31.592
N4470 Y1625.472 Z-26.122
N4475 Y1718.956 Z-21.245
N4480 Y1792.325 Z-14.598
N4485 Y1826. Z-11.512
N4490 Y1838.705 Z-12.712
N4495 Y1846.5 Z-16.494
N4500 Y1850.933 Z-22.582
N4505 G3 Y1853.258 Z-21.825 J1.04 K0.757 F1000.
N4510 G0 Z5.
N4515 X57.217 Y1863.316
N4520 Z-16.794
N4525 G1 Z-20.996 F1000.
N4530 G2 Y1862.314 Z-21.199 J-0.521 K0.
N4535 G1 Y1860.446 Z-16.775 F6000.
N4540 Y1856.252 Z-12.66
N4545 Y1847.735 Z-9.397
N4550 Y1832.606 Z-9.344
N4555 Y1746.816 Z-18.497
N4560 Y1658.998 Z-24.163
N4565 Y1480.529 Z-29.827
N4570 Y1282.407 Z-32.62
N4575 Y1072.963 Z-31.502
N4580 Y642.371 Z-21.76
N4585 Y401.579 Z-13.763
N4590 Y114.243 Z-0.284
N4595 Y107.612 Z-2.396
N4600 Y103.286 Z-6.103
N4605 Y100.655 Z-12.198
N4610 Y100.276 Z-19.925
N4615 G0 Z5.
N4620 X42.221 Y106.491
N4625 Z-13.693
N4630 G1 Z-18.114 F1000.
N4635 G3 Y108.752 Z-19.985 J1.905 K0.
N4640 G1 Y108.964 Z-12.399 F6000.
N4645 Y111.128 Z-6.754
N4650 Y116.669 Z-2.058
N4655 Y123.239 Z-0.209
N4660 Y325.602 Z-10.003
N4665 Y540.898 Z-18.395
N4670 Y920.499 Z-28.111
N4675 Y1152.792 Z-32.07
N4680 Y1353.856 Z-31.695
N4685 Y1559.237 Z-27.255
N4690 Y1681.049 Z-22.605
N4695 Y1758.952 Z-17.043
N4700 Y1842.407 Z-7.257
N4705 Y1857.231 Z-6.749
N4710 Y1865.026 Z-9.08
N4715 Y1870.891 Z-14.399
N4720 Y1872.788 Z-19.86
N4725 G3 Y1873.688 Z-20.5 J0.9 K0.312
N4730 G1 Y1883.621
N4735 X42.081 Y1884.504 Z-20.49
N4740 X41.677 Y1885.301 Z-20.46
N4745 X41.046 Y1885.933 Z-20.413
N4750 X40.252 Y1886.339 Z-20.353
N4755 X39.371 Y1886.479 Z-20.287
N4760 X30.074 Z-19.592
N4765 X29.193 Y1886.339 Z-19.527
N4770 X28.399 Y1885.933 Z-19.467
N4775 X27.769 Y1885.301 Z-19.42
N4780 X27.364 Y1884.504 Z-19.39
N4785 X27.224 Y1883.621 Z-19.38
N4790 G2 Y1882.696 Z-18.651 J0. K0.952
N4795 G1 Y1881.18 Z-12.388
N4800 Y1876.738 Z-7.497
N4805 Y1870.231 Z-4.779
N4810 Y1858.671 Z-4.511
N4815 Y1769.819 Z-15.748
N4820 Y1686.516 Z-22.043
N4825 Y1554.523 Z-27.139
N4830 Y1376.054 Z-31.188
N4835 Y1184.885 Z-31.947
N4840 Y983.754 Z-29.269
N4845 Y572.991 Z-19.126
N4850 Y357.695 Z-11.239
N4855 Y133.901 Z-0.361
N4860 Y126.668 Z-2.152
N4865 Y122.159 Z-5.292
N4870 Y118.951 Z-10.623
N4875 Y118.427 Z-20.391
N4880 G2 Y116.226 Z-18.509 J-0.296 K1.882 F1000.
N4885 G0 Z5.
N4890 X12.228 Y127.146
N4895 Z-11.555
N4900 G1 Z-19.4 F1000.
N4905 G3 Y129.247 Z-21.295 J1.905 K0.
N4910 G1 Y129.333 Z-14.758 F6000.
N4915 Y130.89 Z-8.403
N4920 Y136.022 Z-3.339
N4925 Y143.936 Z-0.828
N4930 Y377.345 Z-11.904
N4935 Y586.975 Z-19.334
N4940 Y997.737 Z-29.415
N4945 Y1198.869 Z-31.872
N4950 Y1390.183 Z-30.823
N4955 Y1608.312 Z-25.27
N4960 Y1721.625 Z-19.67
N4965 Y1786.781 Z-13.786
N4970 Y1870.968 Z-2.164
N4975 Y1881.697 Z-2.414
N4980 Y1887.788 Z-5.453
N4985 Y1891.449 Z-10.928
N4990 Y1892.272 Z-20.
N4995 X8.5 Y1892.91
N5000 X4.744 Y1892.935
N5005 X0.988 Y1892.937
N5010 X-2.768 Y1892.951
N5015 Y1892.511 Z-10.913
N5020 Y1890.386 Z-6.37
N5025 Y1885.444 Z-2.165
N5030 Y1878.592 Z-0.769
N5035 Y1786.606 Z-13.768
N5040 Y1710.119 Z-20.411
N5045 Y1585.474 Z-25.992
N5050 Y1395.673 Z-30.704
N5055 Y1198.614 Z-31.881
N5060 Y988.983 Z-29.198
N5065 Y564.057 Z-18.612
N5070 Y331.764 Z-9.827
N5075 Y146.816 Z-0.973
N5080 Y140.647 Z-3.645
N5085 Y136.386 Z-9.292
N5090 Y135.379 Z-16.462
N5095 Y135.303 Z-21.953
N5100 G2 Y133.222 Z-20.057 J-0.176 K1.897 F1000.
N5105 G0 Z5.
N5110 X-17.765 Y122.994
N5115 Z-12.316
N5120 G1 Z-18.983 F1000.
N5125 G3 Y125.143 Z-20.872 J1.905 K0.
N5130 G1 Y125.604 Z-11.63 F6000.
N5135 Y128.178 Z-6.411
N5140 Y132.542 Z-2.854
N5145 Y138.965 Z-0.738
N5150 Y342.692 Z-10.425
N5155 Y580.65 Z-19.189
N5160 Y994.246 Z-29.382
N5165 Y1198.21 Z-31.909
N5170 Y1390.013 Z-30.863
N5175 Y1608.142 Z-25.324
N5180 Y1710.125 Z-20.499
N5185 Y1777.915 Z-14.818
N5190 Y1865.476 Z-3.133
N5195 Y1876.608 Z-3.203
N5200 Y1883.642 Z-6.045
N5205 Y1888.2 Z-11.694
N5210 Y1889.146 Z-20.
N5215 G3 Y1891.424 Z-18.132 J0.374 K1.868 F1000.
N5220 G0 Z5.
N5225 X-32.761 Y1880.108
N5230 Z-13.183
N5235 G1 Z-19.837 F1000.
N5240 G2 Y1879.09 Z-19.951 J-0.515 K0.
N5245 G1 Y1877.639 Z-13.597 F6000.
N5250 Y1872.638 Z-8.212
N5255 Y1865.197 Z-5.443
N5260 Y1852.512 Z-5.537
N5265 Y1763.288 Z-16.451
N5270 Y1686.801 Z-22.117
N5275 Y1562.156 Z-27.005
N5280 Y1369.522 Z-31.361
N5285 Y1202.28 Z-32.12
N5290 Y1023.81 Z-30.19
N5295 Y601.717 Z-20.06
N5300 Y363.758 Z-11.586
N5305 Y128.184 Z-0.406
N5310 Y122.726 Z-2.101
N5315 Y117.185 Z-6.797
N5320 Y115.021 Z-12.442
N5325 Y114.763 Z-20.315
N5330 G2 Y112.549 Z-18.435 J-0.308 K1.88 F1000.
N5335 G0 Z5.
N5340 X-47.758 Y103.225
N5345 Z-16.51
N5350 G1 Z-18.128 F1000.
N5355 G3 Y105.476 Z-20.002 J1.905 K0.
N5360 G1 Y105.639 Z-12.894 F6000.
N5365 Y107.61 Z-6.987
N5370 Y111.706 Z-2.843
N5375 Y119.202 Z-0.234
N5380 Y317.501 Z-9.719
N5385 Y521.465 Z-17.894
N5390 Y844.409 Z-26.487
N5395 Y1127.694 Z-31.935
N5400 Y1327.116 Z-32.092
N5405 Y1525.415 Z-28.386
N5410 Y1675.555 Z-23.029
N5415 Y1754.875 Z-17.557
N5420 Y1839.856 Z-7.898
N5425 Y1853.843 Z-7.726
N5430 Y1861.635 Z-10.304
N5435 Y1866.963 Z-15.06
N5440 Y1868.97 Z-20.401
N5445 G3 Y1870.965 Z-20.038 J0.964 K0.362 F1000.
N5450 G0 Z5.
N5455 X-62.754 Y1859.645
N5460 Z-18.294
N5465 G1 Z-21.283 F1000.
N5470 G2 Y1858.254 Z-21.632 J-0.74 K0.
N5475 G1 Y1855.515 Z-16.517 F6000.
N5480 Y1848.62 Z-11.833
N5485 Y1838.589 Z-9.861
N5490 Y1811.639 Z-11.942
N5495 Y1736.348 Z-19.551
N5500 Y1654.195 Z-24.563
N5505 Y1467.227 Z-30.299
N5510 Y1279.572 Z-32.772
N5515 Y1072.961 Z-31.663
N5520 Y619.706 Z-21.323
N5525 Y381.747 Z-13.072
N5530 Y112.627 Z-0.305
N5535 Y107.254 Z-1.301
N5540 Y102.339 Z-4.111
N5545 Y98.586 Z-9.095
N5550 Y97.536 Z-14.217
N5555 Y97.469 Z-19.35
N5560 X-66.439 Y95.754 Z-19.496
N5565 X-70.167 Y94.141 Z-19.642
N5570 X-73.926 Y92.603 Z-19.788
N5575 X-77.75 Y91.222 Z-19.934
N5580 Y91.951 Z-10.535
N5585 Y94.978 Z-5.484
N5590 Y98.736 Z-2.598
N5595 Y105.745 Z-0.811
N5600 Y370.418 Z-13.117
N5605 Y599.879 Z-21.326
N5610 Y1013.474 Z-31.097
N5615 Y1228.746 Z-33.338
N5620 Y1406.313 Z-32.031
N5625 Y1604.612 Z-27.084
N5630 Y1708.011 Z-22.233
N5635 Y1822.021 Z-12.492
N5640 Y1834.529 Z-13.872
N5645 Y1842.098 Z-17.616
N5650 Y1846.494 Z-23.376
N5655 G3 Y1848.708 Z-22.628 J0.98 K0.748 F1000.
N5660 G0 Z5.
N5665 X-92.747 Y1835.264
N5670 Z-23.52
N5675 G1 Z-25.162 F1000.
N5680 G2 Y1833.48 Z-25.803 J-1.007 K0.
N5685 G1 Y1829.068 Z-20.462 F6000.
N5690 Y1820.823 Z-16.764
N5695 Y1807.616 Z-15.358
N5700 Y1780.899 Z-17.129
N5705 Y1695.914 Z-23.799
N5710 Y1596.764 Z-28.164
N5715 Y1395.632 Z-32.839
N5720 Y1191.931 Z-33.875
N5725 Y973.802 Z-30.931
N5730 Y563.039 Z-20.933
N5735 Y344.91 Z-12.651
N5740 Y118.283 Z-2.466
N5745 Y98.029 Z-2.511
N5750 Y92.126 Z-5.795
N5755 Y88.377 Z-11.736
N5760 Y87.697 Z-19.94
N5765 X-96.498 Y87.662 Z-19.816
N5770 X-103.998 Y87.664 Z-19.568
N5775 X-107.743 Y87.953 Z-19.443
N5780 Y88.443 Z-16.426
N5785 Y91.501 Z-10.192
N5790 Y96.429 Z-6.504
N5795 Y110.157 Z-4.799
N5800 Y147.32 Z-4.851
N5805 Y376.072 Z-14.93
N5810 Y616.864 Z-23.386
N5815 Y1072.951 Z-33.49
N5820 Y1288.058 Z-34.63
N5825 Y1490.952 Z-31.9
N5830 Y1658.09 Z-26.901
N5835 Y1789.198 Z-18.494
N5840 Y1805.251 Z-19.841
N5845 Y1814.24 Z-23.551
N5850 Y1819.155 Z-28.986
N5855 G3 Y1821.611 Z-28.04 J1.046 K0.946 F1000.
N5860 G0 Z5.
N5865 X-122.74 Y1805.133
N5870 Z-30.374
N5875 G1 Z-32.514 F1000.
N5880 G2 Y1803.338 Z-33.211 J-1.032 K0.
N5885 G1 Y1798.258 Z-27.651 F6000.
N5890 Y1790.006 Z-23.892
N5895 Y1774.331 Z-21.902
N5900 Y1727.412 Z-24.157
N5905 Y1633.928 Z-29.108
N5910 Y1432.797 Z-34.101
N5915 Y1224.097 Z-35.564
N5920 Y1000.657 Z-33.113
N5925 Y581.396 Z-23.357
N5930 Y363.267 Z-15.38
N5935 Y179.132 Z-7.611
N5940 Y140.61 Z-8.022
N5945 Y121.091 Z-11.346
N5950 Y113.213 Z-14.597
N5955 Y107.426 Z-19.089
N5960 Y106.643 Z-20.156
N5965 G2 Y104.224 Z-19.364 J-1.08 K0.792 F1000.
N5970 G0 Z5.
N5975 X-137.736 Y140.302
N5980 Z-19.769
N5985 G1 Z-21.489 F1000.
N5990 G3 Y143.429 Z-22.726 J1.809 K0.
N5995 G1 Y144.285 Z-21.814 F6000.
N6000 Y152.941 Z-16.625
N6005 Y158.026 Z-14.874
N6010 Y177.93 Z-11.535
N6015 Y211.75 Z-10.735
N6020 Y347.727 Z-15.956
N6025 Y557.357 Z-23.863
N6030 Y956.788 Z-33.316
N6035 Y1186.248 Z-36.5
N6040 Y1380.859 Z-35.961
N6045 Y1615.985 Z-31.208
N6050 Y1717.967 Z-26.626
N6055 Y1754.888 Z-25.699
N6060 Y1770.675 Z-27.767
N6065 Y1779.528 Z-31.669
N6070 Y1785.159 Z-37.803
N6075 G3 Y1787.199 Z-37.008 J0.865 K0.795 F1000.
N6080 G0 Z5.
N6085 X-152.732 Y1765.737
N6090 Z-38.719
N6095 G1 Z-42.304 F1000.
N6100 G2 Y1764.037 Z-42.892 J-0.952 K0.
N6105 G1 Y1759.787 Z-37.49 F6000.
N6110 Y1751.802 Z-33.047
N6115 Y1735.01 Z-29.957
N6120 Y1709.39 Z-29.661
N6125 Y1585.156 Z-33.663
N6130 Y1374.109 Z-37.357
N6135 Y1152.239 Z-37.482
N6140 Y874.62 Z-32.916
N6145 Y543.177 Z-24.846
N6150 Y252.811 Z-14.36
N6155 Y220.955 Z-15.25
N6160 Y200.102 Z-18.24
N6165 Y190.518 Z-21.511
N6170 Y182.747 Z-26.575
N6175 Y181.846 Z-27.645
N6180 G2 Y179.485 Z-26.783 J-1.023 K0.862 F1000.
N6185 G0 Z5.
N6190 X-167.729 Y221.066
N6195 Z-28.668
N6200 G1 Z-32.54 F1000.
N6205 G3 Y223.655 Z-33.407 J1.44 K0.
N6210 G1 Y225.508 Z-30.952 F6000.
N6215 Y233.276 Z-26.209
N6220 Y242.28 Z-23.122
N6225 Y265.11 Z-19.648
N6230 Y302.376 Z-18.633
N6235 Y548.833 Z-26.631
N6240 Y885.941 Z-34.627
N6245 Y1160.727 Z-38.938
N6250 Y1387.339 Z-38.795
N6255 Y1633.797 Z-34.782
N6260 Y1696.333 Z-33.908
N6265 Y1714.139 Z-35.298
N6270 Y1727.198 Z-38.351
N6275 Y1735.572 Z-43.38
N6280 Y1738.952 Z-48.066
N6285 G3 Y1740.856 Z-47.45 J0.853 K0.615 F1000.
N6290 G0 Z5.
N6295 X-182.725 Y1731.517
N6300 Z-48.095
N6305 G2 Y1729.583 Z-50. J-1.905 K0. F1000.
N6310 G1 Y1706.658 Z-49.657 F6000.
N6315 Y1698.513 Z-44.453
N6320 Y1686.11 Z-40.812
N6325 Y1660.615 Z-38.473
N6330 Y1586.94 Z-38.239
N6335 Y1337.681 Z-40.912
N6340 Y1102.596 Z-40.011
N6345 Y660.673 Z-31.517
N6350 Y358.975 Z-23.525
N6355 Y316.983 Z-24.445
N6360 Y291.163 Z-27.946
N6365 Y279.873 Z-31.781
N6370 Y272.133 Z-36.278
N6375 Y269.875 Z-40.211
N6380 G2 Y268.597 Z-39.87 J-0.594 K0.341 F1000.
N6385 G0 Z5.
N6390 X-197.721 Y320.964
N6395 Z-38.276
N6400 G1 Z-47.024 F1000.
N6405 G3 Y322.087 Z-47.283 J0.591 K0.
N6410 G1 Y324.131 Z-43.074 F6000.
N6415 Y331.105 Z-38.332
N6420 Y347.986 Z-33.224
N6425 Y382.106 Z-29.683
N6430 Y428.368 Z-28.767
N6435 Y621.001 Z-32.816
N6440 Y986.438 Z-40.171
N6445 Y1247.059 Z-42.967
N6450 Y1546.231 Z-41.768
N6455 Y1600.535 Z-42.328
N6460 Y1631.671 Z-44.232
N6465 Y1646.444 Z-46.197
N6470 Y1659.304 Z-49.737
N6475 Y1753.168 Z-50.
N6480 X-197.861 Y1754.051 Z-50.003
N6485 X-198.267 Y1754.848 Z-50.007
N6490 X-198.899 Y1755.48 Z-50.012
N6495 X-199.696 Y1755.886 Z-50.018
N6500 X-200.579 Y1756.026 Z-50.023
N6505 X-209.86 Y1756.025 Z-50.073
N6510 X-210.743 Y1755.886 Z-50.077
N6515 X-211.54 Y1755.48 Z-50.08
N6520 X-212.172 Y1754.848 Z-50.082
N6525 X-212.578 Y1754.051
N6530 X-212.718 Y1753.168 Z-50.081
N6535 Y1721.591 Z-50.
N6540 Y1588.652 Z-49.66
N6545 Y1565.309 Z-47.278
N6550 Y1506.889 Z-45.575
N6555 Y1147.191 Z-44.569
N6560 Y887.278 Z-40.729
N6565 Y522.707 Z-34.343
N6570 Y466.204 Z-34.899
N6575 Y418.253 Z-38.601
N6580 Y399.708 Z-42.939
N6585 Y390.836 Z-46.209
N6590 Y386.225 Z-50.
N6595 Y343.379
N6600 G2 Y341.474 Z-48.095 J0. K1.905 F1000.
N6605 G0 Z5.
N6610 X-227.714 Y312.597
N6615 Z-48.095
N6620 G3 Y314.502 Z-50. J1.905 K0. F1000.
N6625 G1 Y471.736 F6000.
N6630 Y481.445 Z-47.638
N6635 Y504.335 Z-43.986
N6640 Y562.096 Z-40.656
N6645 Y635.016 Z-40.126
N6650 Y994.911 Z-45.379
N6655 Y1322.238 Z-48.454
N6660 Y1436.37 Z-49.584
N6665 Y1685.795 Z-50.
N6670 G3 Y1687.703 Z-48.095 J0.003 K1.905 F1000.
N6675 G0 Z5.
N6680 X-242.711 Y1646.932
N6685 Z-48.095
N6690 G2 Y1645.025 Z-50. J-1.905 K0. F1000.
N6695 G1 Y1029.262 Z-49.508 F6000.
N6700 Y763.418 Z-46.322
N6705 Y665.999 Z-47.079
N6710 Y595.993 Z-50.
N6715 Y379.812
N6720 G2 Y377.907 Z-48.095 J0. K1.905 F1000.
N6725 G0 Z5.
N6730 X-257.707 Y457.505
N6735 Z-48.095
N6740 G3 Y459.41 Z-50. J1.905 K0. F1000.
N6745 G1 Y1598.656 F6000.
N6750 G3 Y1600.561 Z-48.095 J0. K1.905 F1000.
N6755 G0 Z5.
N6760 X-272.703 Y1546.131
N6765 Z-48.095
N6770 G2 Y1544.226 Z-50. J-1.905 K0. F1000.
N6775 G1 Y556.715 F6000.
N6780 G2 Y554.81 Z-48.095 J0. K1.905 F1000.
N6785 G0 Z5.
N6790 X-287.7 Y676.62
N6795 Z-48.095
N6800 G3 Y678.525 Z-50. J1.905 K0. F1000.
N6805 G1 Y1473.048 F6000.
N6810 G3 Y1474.953 Z-48.095 J0. K1.905 F1000.
N6815 G0 Z5.
N6820 X-302.696 Y1345.557
N6825 Z-48.095
N6830 G2 Y1343.652 Z-50. J-1.905 K0. F1000.
N6835 G1 Y867.558 F6000.
N6840 G2 Y865.653 Z-48.095 J0. K1.905 F1000.
N6845 G0 Z5.
N6850 X192.185 Y1751.106
N6855 Z-48.095
N6860 G3 Y1753.01 Z-50. J1.905 K0. F1000.
N6865 G1 Y1763.899 F6000.
N6870 G3 Y1765.804 Z-48.095 J0. K1.905 F1000.
N6875 G0 Z15.
N6880 G17
(PARALLEL1 5)
N6885 G0 X304.183 Y1322.615
N6890 Z15.
N6895 Z-73.095
N6900 G19 G2 Y1320.709 Z-75. J-1.905 K0. F1000.
N6905 G1 Y897.756 F6000.
N6910 G2 Y895.851 Z-73.095 J0. K1.905 F1000.
N6915 G0 Z5.
N6920 X294.184 Y743.406
N6925 Z-73.095
N6930 G3 Y745.311 Z-75. J1.905 K0. F1000.
N6935 G1 Y1430.194 F6000.
N6940 G3 Y1432.099 Z-73.095 J0. K1.905 F1000.
N6945 G0 Z5.
N6950 X284.186 Y1494.208
N6955 Z-73.095
N6960 G2 Y1492.303 Z-75. J-1.905 K0. F1000.
N6965 G1 Y646.822 F6000.
N6970 G2 Y644.917 Z-73.095 J0. K1.905 F1000.
N6975 G0 Z5.
N6980 X274.187 Y565.58
N6985 Z-73.095
N6990 G3 Y567.485 Z-75. J1.905 K0. F1000.
N6995 G1 Y879.144 F6000.
N7000 Y913.945 Z-72.28
N7005 Y973.892 Z-70.545
N7010 Y1146.616 Z-71.959
N7015 Y1196.812 Z-74.565
N7020 Y1538.228 Z-75.
N7025 G3 Y1540.135 Z-73.095 J0.002 K1.905 F1000.
N7030 G0 Z5.
N7035 X264.189 Y1578.286
N7040 Z-73.095
N7045 G2 Y1576.379 Z-75. J-1.905 K0. F1000.
N7050 G1 Y1343.336 Z-74.72 F6000.
N7055 Y1330.625 Z-72.113
N7060 Y1294.793 Z-67.335
N7065 Y1241.41 Z-64.1
N7070 Y1142.751 Z-61.459
N7075 Y916.585 Z-59.689
N7080 Y826.664 Z-61.097
N7085 Y773.196 Z-64.91
N7090 Y744.63 Z-68.545
N7095 Y731.043 Z-72.369
N7100 Y727.572 Z-75.
N7105 Y582.557
N7110 G2 Y582.138 Z-74.903 J0. K0.952
N7115 G3 Y581.719 Z-74.806 J-0.419 K-0.855
N7120 G17 G2 X261.331 Y578.861 I-2.857 J0.
N7125 G1 X257.048
N7130 G2 X254.191 Y581.719 I0. J2.857
N7135 G1 Y585.453
N7140 G19 G2 Y585.872 Z-74.903 J0. K-0.952
N7145 G3 Y586.292 Z-75. J0.419 K0.855
N7150 G1 Y596.595
N7155 Y632.114 Z-74.498
N7160 Y639.596 Z-66.986
N7165 Y651.706 Z-63.237
N7170 Y679.272 Z-58.763
N7175 Y722.046 Z-55.399
N7180 Y813.984 Z-53.083
N7185 Y969.227 Z-53.669
N7190 Y1262.38 Z-57.726
N7195 Y1341.83 Z-61.132
N7200 Y1377.507 Z-63.761
N7205 Y1406.194 Z-68.368
N7210 Y1418.168 Z-71.069
N7215 Y1425.677 Z-75.
N7220 Y1564.718
N7225 G3 Y1565.137 Z-74.903 J0. K0.952
N7230 G2 Y1565.556 Z-74.806 J0.419 K-0.855
N7235 G17 G3 X251.333 Y1568.413 I-2.857 J0.
N7240 G1 X247.05
N7245 G3 X244.192 Y1565.556 I0. J-2.857
N7250 G1 Y1563.592
N7255 G19 G3 Y1563.173 Z-74.903 J0. K-0.952
N7260 G2 Y1562.751 Z-75. J-0.419 K0.855
N7265 G1 Y1488.13 Z-74.814
N7270 Y1480.796 Z-69.077
N7275 Y1466.984 Z-65.035
N7280 Y1446.406 Z-61.172
N7285 Y1404.343 Z-57.545
N7290 Y1333.969 Z-54.729
N7295 Y778.756 Z-48.047
N7300 Y678.433 Z-48.984
N7305 Y614.398 Z-52.348
N7310 Y589.247 Z-55.943
N7315 Y573.249 Z-59.536
N7320 Y565.682 Z-62.462
N7325 Y563.211 Z-64.786
N7330 Y559.517 Z-69.725
N7335 Y559.474 Z-72.84
N7340 G0 Z5.
N7345 X264.189 Y529.283
N7350 Z-73.095
N7355 G2 Y527.378 Z-75. J-1.905 K0. F1000.
N7360 G1 Y499.107 F6000.
N7365 G2 Y497.202 Z-73.095 J0. K1.905 F1000.
N7370 G0 Z5.
N7375 X234.194 Y495.394
N7380 Z-54.727
N7385 G1 Z-65.406 F1000.
N7390 G3 Y497.5 Z-67.3 J1.905 K0.
N7395 G1 Y497.53 Z-65.326 F6000.
N7400 Y501.467 Z-59.581
N7405 Y504.171 Z-57.323
N7410 Y515.38 Z-53.504
N7415 Y539.973 Z-48.634
N7420 Y561.44 Z-46.858
N7425 Y602.206 Z-44.56
N7430 Y703.133 Z-43.88
N7435 Y958.879 Z-47.245
N7440 Y1244.332 Z-50.491
N7445 Y1420.408 Z-52.649
N7450 Y1482.186 Z-55.999
N7455 Y1505.749 Z-58.894
N7460 Y1524.721 Z-63.595
N7465 Y1532.712 Z-66.828
N7470 Y1539.542 Z-74.626
N7475 Y1562.76 Z-75.
N7480 G3 Y1564.696 Z-73.095 J0.031 K1.905 F1000.
N7485 G0 Z5.
N7490 X224.195 Y1584.469
N7495 Z-63.879
N7500 G1 Z-71.693 F1000.
N7505 G2 Y1581.909 Z-72.369 J-1.369 K0.
N7510 G1 Y1579.653 Z-68.391 F6000.
N7515 Y1575.328 Z-63.616
N7520 Y1569.012 Z-60.598
N7525 Y1554.782 Z-56.43
N7530 Y1524.651 Z-52.558
N7535 Y1478.539 Z-50.19
N7540 Y1353.785 Z-48.834
N7545 Y1039.945 Z-46.438
N7550 Y612.138 Z-39.812
N7555 Y531.95 Z-40.629
N7560 Y486.063 Z-43.861
N7565 Y461.816 Z-48.272
N7570 Y449.104 Z-52.968
N7575 Y445.982 Z-56.032
N7580 Y443.191 Z-61.103
N7585 Y443.175 Z-62.111
N7590 G2 Y441.075 Z-60.216 J-0.195 K1.895 F1000.
N7595 G0 Z5.
N7600 X254.191 Y437.481
N7605 Z-73.095
N7610 G3 Y439.386 Z-75. J1.905 K0. F1000.
N7615 G1 Y445.773 F6000.
N7620 G3 Y447.678 Z-73.095 J0. K1.905 F1000.
N7625 G0 Z5.
N7630 X244.192 Y394.753
N7635 Z-64.736
N7640 G1 Z-73.095 F1000.
N7645 G2 Y392.848 Z-75. J-1.905 K0.
N7650 G1 Y387.058 F6000.
N7655 G2 Y385.153 Z-73.095 J0. K1.905 F1000.
N7660 G0 Z5.
N7665 X214.197 Y392.97
N7670 Z-46.212
N7675 G1 Z-56.464 F1000.
N7680 G3 Y394.632 Z-56.888 J0.885 K0.
N7685 G1 Y398.118 Z-50.501 F6000.
N7690 Y402.651 Z-47.244
N7695 Y413.281 Z-43.652
N7700 Y429.84 Z-40.096
N7705 Y467.336 Z-36.986
N7710 Y533.333 Z-35.98
N7715 Y1113.521 Z-45.531
N7720 Y1438.339 Z-46.798
N7725 Y1530.154 Z-47.672
N7730 Y1569.843 Z-49.75
N7735 Y1588.2 Z-52.035
N7740 Y1604.413 Z-56.386
N7745 Y1613.304 Z-60.735
N7750 Y1618.328 Z-68.226
N7755 G3 Y1620.26 Z-67.638 J0.877 K0.588 F1000.
N7760 G0 Z5.
N7765 X204.198 Y1652.015
N7770 Z-55.786
N7775 G1 Z-63.458 F1000.
N7780 G2 Y1650.282 Z-63.982 J-0.946 K0.
N7785 G1 Y1645.8 Z-57.257 F6000.
N7790 Y1639.816 Z-53.969
N7795 Y1627.723 Z-49.947
N7800 Y1599.342 Z-46.217
N7805 Y1560.639 Z-44.662
N7810 Y1450.504 Z-44.695
N7815 Y1178.921 Z-44.564
N7820 Y911.883 Z-40.817
N7825 Y470.451 Z-32.233
N7830 Y413.698 Z-33.179
N7835 Y381.718 Z-36.238
N7840 Y362.519 Z-41.141
N7845 Y354.628 Z-45.499
N7850 Y351.079 Z-51.828
N7855 G2 Y349.465 Z-51.406 J-0.752 K0.422 F1000.
N7860 G0 Z5.
N7865 X234.194 Y348.771
N7870 Z-59.321
N7875 G1 Z-73.095 F1000.
N7880 G2 Y346.866 Z-75. J-1.905 K0.
N7885 G1 Y341.246 F6000.
N7890 G2 Y339.341 Z-73.095 J0. K1.905 F1000.
N7895 G0 Z5.
N7900 X194.2 Y311.575
N7905 Z-37.64
N7910 G1 Z-46.875 F1000.
N7915 G3 Y312.47 Z-47.069 J0.468 K0.
N7920 G1 Y314.351 Z-42.936 F6000.
N7925 Y317.991 Z-39.523
N7930 Y327.244 Z-35.558
N7935 Y341.734 Z-32.001
N7940 Y367.766 Z-29.534
N7945 Y407.438 Z-28.571
N7950 Y542.762 Z-31.278
N7955 Y978.743 Z-40.557
N7960 Y1221.258 Z-43.35
N7965 Y1486.602 Z-42.573
N7970 Y1592.673 Z-41.925
N7975 Y1635.647 Z-43.618
N7980 Y1660.018 Z-47.005
N7985 Y1669.7 Z-50.714
N7990 Y1675.616 Z-54.13
N7995 Y1678.659 Z-59.599
N8000 G3 Y1679.902 Z-59.276 J0.58 K0.323 F1000.
N8005 G0 Z5.
N8010 X184.202 Y1704.813
N8015 Z-48.728
N8020 G1 Z-55.174 F1000.
N8025 G2 Y1703.367 Z-55.53 J-0.766 K0.
N8030 G1 Y1700.797 Z-50.625 F6000.
N8035 Y1692.896 Z-45.754
N8040 Y1681.97 Z-42.485
N8045 Y1652.51 Z-39.794
N8050 Y1571.016 Z-39.715
N8055 Y1320.327 Z-42.162
N8060 Y1069.949 Z-40.826
N8065 Y639.417 Z-32.213
N8070 Y364.204 Z-25.032
N8075 Y326.547 Z-25.919
N8080 Y300.194 Z-29.136
N8085 Y284.968 Z-34.249
N8090 Y279.805 Z-38.033
N8095 Y277.785 Z-42.235
N8100 G2 Y276.571 Z-41.959 J-0.575 K0.277 F1000.
N8105 G0 Z5.
N8110 X174.203 Y245.125
N8115 Z-30.189
N8120 G1 Z-37.705 F1000.
N8125 G3 Y245.853 Z-37.851 J0.378 K0.
N8130 G1 Y247.029 Z-35.035 F6000.
N8135 Y254.812 Z-29.657
N8140 Y268.574 Z-25.31
N8145 Y289.976 Z-22.648
N8150 Y324.299 Z-21.719
N8155 Y441.222 Z-25.066
N8160 Y735.509 Z-33.188
N8165 Y1122.443 Z-40.291
N8170 Y1347.745 Z-40.836
N8175 Y1568.461 Z-38.01
N8180 Y1678.891 Z-36.854
N8185 Y1699.431 Z-38.323
N8190 Y1713.623 Z-41.614
N8195 Y1722.508 Z-47.412
N8200 Y1724.712 Z-51.912
N8205 G3 Y1725.537 Z-51.721 J0.391 K0.191 F1000.
N8210 G0 Z5.
N8215 X164.205 Y1744.608
N8220 Z-42.148
N8225 G1 Z-47.816 F1000.
N8230 G2 Y1743.432 Z-48.076 J-0.617 K0.
N8235 G1 Y1741.838 Z-44.649 F6000.
N8240 Y1735.476 Z-39.583
N8245 Y1725.419 Z-36.064
N8250 Y1709.315 Z-34.082
N8255 Y1669.207 Z-34.179
N8260 Y1438.954 Z-38.825
N8265 Y1215.095 Z-39.889
N8270 Y1008.003 Z-37.611
N8275 Y585.646 Z-28.304
N8280 Y291.358 Z-18.617
N8285 Y259.026 Z-19.54
N8290 Y240.622 Z-21.6
N8295 Y230.584 Z-24.106
N8300 Y221.84 Z-28.043
N8305 Y216.956 Z-31.678
N8310 Y216.195 Z-33.324
N8315 G2 Y214.677 Z-32.989 J-0.722 K0.334 F1000.
N8320 G0 Z5.
N8325 X154.206 Y187.219
N8330 Z-23.891
N8335 G1 Z-29.408 F1000.
N8340 G3 Y188.112 Z-29.616 J0.471 K0.
N8345 G1 Y188.398 Z-29.033 F6000.
N8350 Y194.062 Z-24.457
N8355 Y204.784 Z-19.969
N8360 Y222.679 Z-16.958
N8365 Y253.214 Z-15.838
N8370 Y350.629 Z-18.867
N8375 Y572.026 Z-26.85
N8380 Y923.536 Z-35.046
N8385 Y1171.5 Z-38.757
N8390 Y1375.676 Z-38.495
N8395 Y1577.317 Z-35.024
N8400 Y1709.985 Z-31.013
N8405 Y1734.444 Z-31.713
N8410 Y1749.023 Z-34.758
N8415 Y1756.828 Z-39.642
N8420 Y1760.155 Z-44.691
N8425 G3 Y1761.678 Z-44.234 J0.693 K0.457 F1000.
N8430 G0 Z5.
N8435 X144.208 Y1776.522
N8440 Z-36.873
N8445 G1 Z-40.867 F1000.
N8450 G2 Y1775.089 Z-41.33 J-0.791 K0.
N8455 G1 Y1771.217 Z-35.962 F6000.
N8460 Y1763.164 Z-31.38
N8465 Y1747.999 Z-28.639
N8470 Y1718.491 Z-28.661
N8475 Y1608.133 Z-33.178
N8480 Y1390.143 Z-37.407
N8485 Y1175.659 Z-37.909
N8490 Y938.594 Z-34.438
N8495 Y565.284 Z-25.639
N8500 Y347.294 Z-17.61
N8505 Y225.355 Z-13.198
N8510 Y193.748 Z-14.358
N8515 Y175.952 Z-17.649
N8520 Y166.609 Z-21.899
N8525 Y161.812 Z-25.956
N8530 G2 Y158.677 Z-24.501 J-1.23 K1.455 F1000.
N8535 G0 Z5.
N8540 X134.21 Y133.998
N8545 Z-19.624
N8550 G1 Z-22.003 F1000.
N8555 G3 Y136.72 Z-23.008 J1.546 K0.
N8560 G1 Y137.284 Z-22.348 F6000.
N8565 Y144.628 Z-17.137
N8570 Y155.615 Z-13.751
N8575 Y172.85 Z-11.57
N8580 Y204.186 Z-10.982
N8585 Y343.156 Z-16.429
N8590 Y558.422 Z-24.62
N8595 Y937.181 Z-33.657
N8600 Y1174.246 Z-37.179
N8605 Y1388.856 Z-36.587
N8610 Y1620.471 Z-31.702
N8615 Y1743.091 Z-25.884
N8620 Y1766.595 Z-26.357
N8625 Y1778.682 Z-29.183
N8630 Y1785.462 Z-33.61
N8635 Y1788.478 Z-38.013
N8640 G3 Y1789.87 Z-37.582 J0.629 K0.431 F1000.
N8645 G0 Z5.
N8650 X124.211 Y1802.209
N8655 Z-31.833
N8660 G1 Z-34.305 F1000.
N8665 G2 Y1800.554 Z-34.874 J-0.925 K0.
N8670 G1 Y1796.298 Z-29.409 F6000.
N8675 Y1789.811 Z-25.948
N8680 Y1780.085 Z-23.822
N8685 Y1759.909 Z-23.418
N8690 Y1642.739 Z-29.92
N8695 Y1438.373 Z-35.104
N8700 Y1230.763 Z-36.683
N8705 Y1034.571 Z-34.83
N8710 Y628.563 Z-25.8
N8715 Y413.297 Z-18.656
N8720 Y184.407 Z-8.959
N8725 Y147.451 Z-9.198
N8730 Y129.259 Z-11.83
N8735 Y119.224 Z-15.551
N8740 Y112.527 Z-20.891
N8745 G2 Y112.019 Z-21.069 J-0.508 K0.637
N8750 G1 Y91.093
N8755 X124.071 Y90.21 Z-21.071
N8760 X123.666 Y89.413 Z-21.076
N8765 X123.033 Y88.781 Z-21.084
N8770 X122.237 Y88.375 Z-21.095
N8775 X121.354 Y88.235 Z-21.107
N8780 X117.07 Z-21.163
N8785 X116.187 Y88.375 Z-21.175
N8790 X115.391 Y88.781 Z-21.185
N8795 X114.758 Y89.413 Z-21.194
N8800 X114.353 Y90.21 Z-21.199
N8805 X114.213 Y91.093 Z-21.201
N8810 G3 Y91.879 Z-20.602 J0. K0.815
N8815 G1 Y92.33 Z-18.958
N8820 Y95.811 Z-13.69
N8825 Y105.161 Z-9.799
N8830 Y124.978 Z-7.036
N8835 Y163.325 Z-7.076
N8840 Y384.041 Z-16.712
N8845 Y615.656 Z-24.742
N8850 Y1051.638 Z-34.535
N8855 Y1270.555 Z-36.062
N8860 Y1461.544 Z-33.967
N8865 Y1652.286 Z-28.641
N8870 Y1746.294 Z-22.952
N8875 Y1785.805 Z-20.988
N8880 Y1798.971 Z-22.759
N8885 Y1806.869 Z-26.378
N8890 Y1811.589 Z-32.02
N8895 G3 Y1813.442 Z-31.347 J0.804 K0.673 F1000.
N8900 G0 Z5.
N8905 X104.214 Y1823.465
N8910 Z-26.742
N8915 G1 Z-28.886 F1000.
N8920 G2 Y1821.83 Z-29.462 J-0.919 K0.
N8925 G1 Y1817.467 Z-24.038 F6000.
N8930 Y1809.27 Z-20.293
N8935 Y1795.966 Z-18.804
N8940 Y1754.662 Z-21.343
N8945 Y1662.016 Z-27.423
N8950 Y1479.449 Z-32.947
N8955 Y1278.737 Z-35.457
N8960 Y1062.545 Z-34.132
N8965 Y604.764 Z-23.855
N8970 Y370.424 Z-15.455
N8975 Y141.538 Z-5.317
N8980 Y100.702 Z-5.229
N8985 Y94.736 Z-7.151
N8990 Y90.387 Z-11.853
N8995 Y88.694 Z-18.41
N9000 Y88.652 Z-20.429
N9005 X94.216 Y88.646 Z-20.938
N9010 Y88.696 Z-17.137
N9015 Y89.942 Z-10.406
N9020 Y93.277 Z-6.136
N9025 Y98.906 Z-3.465
N9030 Y122.454 Z-3.72
N9035 Y378.593 Z-15.248
N9040 Y580.234 Z-22.531
N9045 Y972.618 Z-31.971
N9050 Y1193.333 Z-34.944
N9055 Y1377.662 Z-34.176
N9060 Y1562.954 Z-30.208
N9065 Y1677.399 Z-25.963
N9070 Y1766.639 Z-19.52
N9075 Y1805.374 Z-16.732
N9080 Y1818.583 Z-17.959
N9085 Y1826.786 Z-21.631
N9090 Y1831.244 Z-27.299
N9095 G3 Y1833.066 Z-26.668 J0.802 K0.631 F1000.
N9100 G0 Z5.
N9105 X84.218 Y1841.403
N9110 Z-22.162
N9115 G1 Z-25.171 F1000.
N9120 G2 Y1840.062 Z-25.579 J-0.732 K0.
N9125 G1 Y1836.479 Z-20.226 F6000.
N9130 Y1829.925 Z-16.591
N9135 Y1819.649 Z-14.85
N9140 Y1795.125 Z-16.131
N9145 Y1710.842 Z-23.364
N9150 Y1612.746 Z-28.156
N9155 Y1413.83 Z-33.174
N9160 Y1212.413 Z-34.583
N9165 Y994.422 Z-31.994
N9170 Y599.314 Z-22.585
N9175 Y375.873 Z-14.659
N9180 Y103.954 Z-2.22
N9185 Y97.084 Z-3.923
N9190 Y92.222 Z-8.569
N9195 Y90.395 Z-14.952
N9200 Y90.314 Z-20.936
N9205 X79.177 Y91.802 Z-20.933
N9210 X74.219 Y93.548 Z-20.931
N9215 Y93.635 Z-14.294
N9220 Y95.286 Z-8.401
N9225 Y99.217 Z-4.197
N9230 Y106.107 Z-1.707
N9235 Y370.421 Z-13.967
N9240 Y569.337 Z-21.28
N9245 Y991.695 Z-31.534
N9250 Y1206.961 Z-34.172
N9255 Y1408.583 Z-32.847
N9260 Y1626.573 Z-27.168
N9265 Y1719.22 Z-22.324
N9270 Y1800.621 Z-14.868
N9275 Y1827.658 Z-12.881
N9280 Y1838.651 Z-14.688
N9285 Y1845.299 Z-18.838
N9290 Y1848.291 Z-23.919
N9295 G3 Y1850.14 Z-23.415 J0.856 K0.504 F1000.
N9300 G0 Z5.
N9305 X64.221 Y1857.353
N9310 Z-19.095
N9315 G1 Z-22.757 F1000.
N9320 G2 Y1856.199 Z-23.045 J-0.613 K0.
N9325 G1 Y1853.01 Z-17.039 F6000.
N9330 Y1846.005 Z-12.686
N9335 Y1835.089 Z-11.097
N9340 Y1807. Z-13.556
N9345 Y1733.133 Z-20.864
N9350 Y1647.299 Z-25.948
N9355 Y1451.108 Z-31.692
N9360 Y1271.83 Z-33.873
N9365 Y1062.55 Z-32.548
N9370 Y602.044 Z-21.864
N9375 Y384.053 Z-14.228
N9380 Y111.565 Z-1.344
N9385 Y104.322 Z-3.452
N9390 Y100.186 Z-7.159
N9395 Y97.949 Z-13.216
N9400 Y97.832 Z-20.925
N9405 X59.206 Y100.38 Z-20.929
N9410 X54.222 Y102.99 Z-20.933
N9415 Y103.302 Z-13.043
N9420 Y105.586 Z-6.925
N9425 Y109.728 Z-3.236
N9430 Y117.018 Z-1.144
N9435 Y427.655 Z-15.718
N9440 Y672.895 Z-23.488
N9445 Y1095.252 Z-32.719
N9450 Y1303.885 Z-33.428
N9455 Y1478.278 Z-30.791
N9460 Y1658.12 Z-25.107
N9465 Y1748.041 Z-19.316
N9470 Y1820.28 Z-11.508
N9475 Y1845.857 Z-9.456
N9480 Y1855.035 Z-11.592
N9485 Y1861.309 Z-16.565
N9490 Y1863.459 Z-21.877
N9495 G3 Y1865.06 Z-21.565 J0.77 K0.312 F1000.
N9500 G0 Z5.
N9505 X44.224 Y1872.734
N9510 Z-20.564
N9515 G1 Z-20.651 F1000.
N9520 G2 Y1870.292 Z-21.059 J-1.255 K0.
N9525 G1 Y1868.122 Z-14.736 F6000.
N9530 Y1862.756 Z-10.208
N9535 Y1855.44 Z-8.073
N9540 Y1840.23 Z-8.624
N9545 Y1759.373 Z-18.058
N9550 Y1683.076 Z-23.534
N9555 Y1563.181 Z-28.194
N9560 Y1380.614 Z-32.388
N9565 Y1201.251 Z-33.33
N9570 Y994.16 Z-30.773
N9575 Y571.802 Z-20.403
N9580 Y345.637 Z-11.988
N9585 Y121.493 Z-1.257
N9590 Y115.688 Z-3.069
N9595 Y111.457 Z-6.483
N9600 Y108.983 Z-11.674
N9605 Y108.681 Z-20.98
N9610 X39.206 Y111.812 Z-21.102
N9615 X34.226 Y115. Z-21.224
N9620 Y115.081 Z-15.091
N9625 Y116.488 Z-8.578
N9630 Y120.313 Z-4.228
N9635 Y126.969 Z-1.441
N9640 Y330.962 Z-11.115
N9645 Y540.778 Z-19.242
N9650 Y884.113 Z-28.157
N9655 Y1137.528 Z-32.808
N9660 Y1337.596 Z-32.75
N9665 Y1536.513 Z-28.787
N9670 Y1675.482 Z-23.761
N9675 Y1754.504 Z-18.292
N9680 Y1821.632 Z-10.657
N9685 Y1858.283 Z-6.266
N9690 Y1863.626 Z-6.617
N9695 Y1870.355 Z-8.953
N9700 Y1875.275 Z-13.838
N9705 Y1876.935 Z-20.477
N9710 X24.227 Y1883.516 Z-21.
N9715 Y1882.495 Z-13.14
N9720 Y1878.071 Z-7.861
N9725 Y1871.208 Z-5.171
N9730 Y1860.48 Z-5.115
N9735 Y1775.263 Z-16.172
N9740 Y1701.852 Z-22.097
N9745 Y1586.044 Z-27.144
N9750 Y1374.865 Z-32.161
N9755 Y1185.525 Z-32.894
N9760 Y986.608 Z-30.283
N9765 Y583.325 Z-20.369
N9770 Y351.71 Z-11.941
N9775 Y135.314 Z-1.488
N9780 Y129.399 Z-3.115
N9785 Y123.96 Z-7.57
N9790 Y121.941 Z-13.123
N9795 Y121.756 Z-21.633
N9800 X19.202 Y125.34 Z-21.953
N9805 X14.229 Y128.996 Z-22.274
N9810 Y129.128 Z-14.299
N9815 Y130.689 Z-8.572
N9820 Y135.065 Z-4.196
N9825 Y142.591 Z-1.751
N9830 Y327.884 Z-10.694
N9835 Y559.499 Z-19.524
N9840 Y992.755 Z-30.332
N9845 Y1202.572 Z-32.944
N9850 Y1391.673 Z-31.812
N9855 Y1612.388 Z-26.14
N9860 Y1718.659 Z-20.895
N9865 Y1786.441 Z-14.848
N9870 Y1868.64 Z-3.574
N9875 Y1878.8 Z-3.62
N9880 Y1885.939 Z-6.627
N9885 Y1889.648 Z-11.918
N9890 Y1890.327 Z-21.
N9895 X9.346 Y1891.854
N9900 X4.23 Y1891.956
N9905 Y1891.351 Z-10.557
N9910 Y1887.945 Z-5.168
N9915 Y1882.111 Z-2.102
N9920 Y1873.961 Z-2.435
N9925 Y1792.818 Z-14.056
N9930 Y1716.521 Z-20.993
N9935 Y1599.351 Z-26.543
N9940 Y1381.36 Z-31.926
N9945 Y1205.493 Z-32.741
N9950 Y1010.664 Z-30.61
N9955 Y558.333 Z-19.441
N9960 Y326.718 Z-10.594
N9965 Y146.875 Z-1.979
N9970 Y141.875 Z-3.992
N9975 Y137.915 Z-8.392
N9980 Y136.411 Z-14.284
N9985 Y136.294 Z-23.068
N9990 X-0.805 Y136.378 Z-23.026
N9995 X-5.768 Y135.525 Z-22.985
N10000 Y135.622 Z-15.382
N10005 Y136.739 Z-9.682
N10010 Y141.072 Z-4.588
N10015 Y147.181 Z-1.935
N10020 Y360.758 Z-12.152
N10025 Y605.998 Z-20.856
N10030 Y1012.006 Z-30.602
N10035 Y1213.648 Z-32.749
N10040 Y1376.417 Z-32.001
N10045 Y1588.958 Z-26.888
N10050 Y1706.128 Z-21.672
N10055 Y1785.15 Z-14.944
N10060 Y1872.598 Z-2.703
N10065 Y1882.11 Z-2.169
N10070 Y1887.945 Z-5.238
N10075 Y1891.351 Z-10.66
N10080 Y1891.954 Z-21.
N10085 X-11.012 Y1891.574
N10090 X-15.766 Y1889.328
N10095 Y1888.626 Z-12.096
N10100 Y1884.895 Z-6.988
N10105 Y1879.437 Z-4.251
N10110 Y1869.513 Z-3.591
N10115 Y1782.559 Z-15.298
N10120 Y1713.86 Z-21.235
N10125 Y1608.27 Z-26.298
N10130 Y1390.279 Z-31.844
N10135 Y1199.057 Z-32.876
N10140 Y999.92 Z-30.487
N10145 Y569.388 Z-19.836
N10150 Y359.572 Z-12.159
N10155 Y141.581 Z-1.682
N10160 Y133.9 Z-4.195
N10165 Y129.536 Z-8.604
N10170 Y128.014 Z-14.251
N10175 Y127.861 Z-22.153
N10180 X-20.746 Y124.235 Z-21.853
N10185 X-25.765 Y120.663 Z-21.553
N10190 Y120.784 Z-13.805
N10195 Y122.108 Z-8.718
N10200 Y126.224 Z-4.266
N10205 Y133.042 Z-1.607
N10210 Y348.308 Z-11.805
N10215 Y558.124 Z-19.649
N10220 Y958.683 Z-29.707
N10225 Y1168.499 Z-32.853
N10230 Y1361.627 Z-32.358
N10235 Y1563.268 Z-27.865
N10240 Y1694.063 Z-22.599
N10245 Y1770.36 Z-16.682
N10250 Y1860.911 Z-5.193
N10255 Y1871.543 Z-5.676
N10260 Y1877.599 Z-8.582
N10265 Y1881.819 Z-14.351
N10270 Y1882.525 Z-21.012
N10275 X-30.756 Y1879.224 Z-21.203
N10280 X-35.763 Y1875.949 Z-21.393
N10285 Y1874.934 Z-15.48
N10290 Y1870.964 Z-10.38
N10295 Y1863.98 Z-7.117
N10300 Y1853.091 Z-6.731
N10305 Y1765.505 Z-17.285
N10310 Y1689.953 Z-22.997
N10315 Y1558.477 Z-28.153
N10320 Y1356.836 Z-32.568
N10325 Y1185.899 Z-33.108
N10330 Y981.533 Z-30.361
N10335 Y583.699 Z-20.562
N10340 Y349.359 Z-12.006
N10345 Y126.053 Z-1.422
N10350 Y119.888 Z-3.832
N10355 Y115.888 Z-7.898
N10360 Y114.158 Z-14.189
N10365 Y114.006 Z-21.293
N10370 X-40.748 Y110.848 Z-21.187
N10375 X-45.762 Y107.737 Z-21.082
N10380 Y107.998 Z-11.745
N10385 Y110.473 Z-6.476
N10390 Y114.703 Z-3.062
N10395 Y120.672 Z-1.231
N10400 Y325.886 Z-11.083
N10405 Y557.502 Z-20.001
N10410 Y963.509 Z-30.134
N10415 Y1176.051 Z-33.253
N10420 Y1356.017 Z-32.737
N10425 Y1557.659 Z-28.395
N10430 Y1680.278 Z-23.736
N10435 Y1759.3 Z-18.098
N10440 Y1831.124 Z-9.782
N10445 Y1850.09 Z-8.051
N10450 Y1860.263 Z-9.754
N10455 Y1866.759 Z-14.577
N10460 Y1869.314 Z-21.361
N10465 G3 Y1871.364 Z-20.988 J0.991 K0.373 F1000.
N10470 G0 Z5.
N10475 X-55.76 Y1864.486
N10480 Z-20.239
N10485 G1 Z-21.385 F1000.
N10490 G2 Y1862.266 Z-21.852 J-1.159 K0.
N10495 G1 Y1859.835 Z-16.324 F6000.
N10500 Y1853.864 Z-11.877
N10505 Y1845.982 Z-9.829
N10510 Y1828.319 Z-10.699
N10515 Y1748.012 Z-19.358
N10520 Y1666.266 Z-24.771
N10525 Y1510.947 Z-29.994
N10530 Y1314.756 Z-33.392
N10535 Y1108.85 Z-32.928
N10540 Y749.165 Z-25.468
N10545 Y449.428 Z-16.58
N10550 Y166.04 Z-3.457
N10555 Y114.02 Z-1.406
N10560 Y108.695 Z-3.389
N10565 Y104.419 Z-7.444
N10570 Y102.502 Z-12.82
N10575 Y102.12 Z-20.93
N10580 X-60.743 Y99.596 Z-20.928
N10585 X-65.759 Y97.138 Z-20.926
N10590 Y97.28 Z-13.182
N10595 Y99.372 Z-7.254
N10600 Y104.512 Z-2.937
N10605 Y111.305 Z-1.359
N10610 Y381.328 Z-14.153
N10615 Y618.393 Z-22.398
N10620 Y1059.824 Z-32.551
N10625 Y1269.533 Z-33.908
N10630 Y1444.426 Z-31.88
N10635 Y1651.517 Z-25.803
N10640 Y1735.989 Z-20.695
N10645 Y1814.311 Z-12.856
N10650 Y1836.767 Z-11.46
N10655 Y1846.452 Z-13.554
N10660 Y1852.509 Z-18.04
N10665 Y1854.943 Z-23.159
N10670 G3 Y1855.971 Z-22.927 J0.488 K0.232 F1000.
N10675 G0 Z5.
N10680 X-75.757 Y1849.216
N10685 Z-22.488
N10690 G1 Z-23.536 F1000.
N10695 G2 Y1847.095 Z-24.134 J-1.145 K0.
N10700 G1 Y1843.949 Z-19.003 F6000.
N10705 Y1837.685 Z-15.149
N10710 Y1827.646 Z-13.223
N10715 Y1804.246 Z-14.612
N10720 Y1718.905 Z-22.411
N10725 Y1627.622 Z-27.196
N10730 Y1420.53 Z-32.712
N10735 Y1219.281 Z-34.245
N10740 Y1004.015 Z-31.836
N10745 Y584.383 Z-21.791
N10750 Y352.768 Z-13.243
N10755 Y106.597 Z-1.716
N10760 Y99.808 Z-3.502
N10765 Y94.952 Z-7.998
N10770 Y93.091 Z-13.707
N10775 Y92.979 Z-20.912
N10780 X-80.712 Y91.31 Z-20.924
N10785 X-85.755 Y89.927 Z-20.936
N10790 Y90.712 Z-11.07
N10795 Y94.463 Z-5.59
N10800 Y99.019 Z-3.017
N10805 Y106.109 Z-2.444
N10810 Y367.698 Z-14.344
N10815 Y596.589 Z-22.567
N10820 Y978.072 Z-31.718
N10825 Y1196.063 Z-34.595
N10830 Y1378.19 Z-33.767
N10835 Y1593.456 Z-28.859
N10840 Y1697.001 Z-24.343
N10845 Y1784.198 Z-17.301
N10850 Y1816.165 Z-15.027
N10855 Y1828.291 Z-16.766
N10860 Y1834.823 Z-20.251
N10865 Y1838.693 Z-25.485
N10870 G3 Y1841.075 Z-24.7 J1.061 K0.785 F1000.
N10875 G0 Z5.
N10880 X-95.754 Y1831.654
N10885 Z-25.198
N10890 G1 Z-26.999 F1000.
N10895 G2 Y1829.875 Z-27.612 J-0.995 K0.
N10900 G1 Y1825.605 Z-22.153 F6000.
N10905 Y1817.889 Z-18.497
N10910 Y1804.971 Z-17.058
N10915 Y1761.249 Z-20.117
N10920 Y1679.502 Z-25.948
N10925 Y1565.057 Z-30.275
N10930 Y1377.04 Z-34.259
N10935 Y1171.534 Z-34.895
N10940 Y942.643 Z-31.401
N10945 Y566.609 Z-22.212
N10950 Y364.968 Z-14.728
N10955 Y125.178 Z-3.953
N10960 Y98.424 Z-3.752
N10965 Y93.753 Z-5.939
N10970 Y89.678 Z-11.224
N10975 Y88.677 Z-18.931
N10980 Y88.647 Z-20.938
N10985 X-100.753 Z-20.826
N10990 X-105.752 Y88.66 Z-20.714
N10995 Y88.742 Z-18.849
N11000 Y90.954 Z-11.645
N11005 Y95.599 Z-7.187
N11010 Y103.061 Z-5.597
N11015 Y144.254 Z-5.538
N11020 Y419.467 Z-17.633
N11025 Y648.358 Z-25.133
N11030 Y1065.265 Z-34.263
N11035 Y1284.146 Z-35.552
N11040 Y1483.421 Z-32.948
N11045 Y1657.814 Z-27.765
N11050 Y1747.735 Z-22.033
N11055 Y1793.623 Z-19.126
N11060 Y1807.546 Z-20.623
N11065 Y1815.741 Z-24.32
N11070 Y1820.279 Z-29.928
N11075 G3 Y1821.938 Z-29.341 J0.725 K0.587 F1000.
N11080 G0 Z5.
N11085 X-115.751 Y1811.422
N11090 Z-29.27
N11095 G1 Z-32.025 F1000.
N11100 G2 Y1809.994 Z-32.517 J-0.799 K0.
N11105 G1 Y1805.789 Z-27.143 F6000.
N11110 Y1797.254 Z-23.029
N11115 Y1782.356 Z-21.312
N11120 Y1733.308 Z-24.021
N11125 Y1643.046 Z-29.155
N11130 Y1441.745 Z-34.451
N11135 Y1258.186 Z-36.17
N11140 Y1038.012 Z-34.399
N11145 Y610.205 Z-24.689
N11150 Y394.939 Z-17.276
N11155 Y166.049 Z-7.335
N11160 Y130.575 Z-7.31
N11165 Y110.42 Z-9.691
N11170 Y98.892 Z-14.056
N11175 Y95.101 Z-17.146
N11180 Y93.449 Z-20.773
N11185 G2 Y92.582 Z-21.33 J-0.867 K0.395
N11190 G1 X-115.89 Y91.699 Z-21.336
N11195 X-116.296 Y90.902 Z-21.354
N11200 X-116.927 Y90.27 Z-21.381
N11205 X-117.723 Y89.864 Z-21.415
N11210 X-118.605 Y89.724 Z-21.453
N11215 X-122.894 Z-21.637
N11220 X-123.776 Y89.864 Z-21.675
N11225 X-124.572 Y90.27 Z-21.71
N11230 X-125.204 Y90.902 Z-21.737
N11235 X-125.609 Y91.699 Z-21.754
N11240 X-125.749 Y92.582 Z-21.76
N11245 Y115.291
N11250 G3 Y116.059 Z-21.372 J0. K0.952
N11255 G1 Y116.807 Z-20.354
N11260 Y122.776 Z-15.877
N11265 Y132.173 Z-12.258
N11270 Y151.059 Z-9.571
N11275 Y185.12 Z-9.214
N11280 Y335.159 Z-15.336
N11285 Y558.43 Z-23.931
N11290 Y969.887 Z-33.698
N11295 Y1196.053 Z-36.688
N11300 Y1405.039 Z-35.742
N11305 Y1631.205 Z-30.487
N11310 Y1762.255 Z-23.657
N11315 Y1781.166 Z-24.64
N11320 Y1788.57 Z-26.652
N11325 Y1794.024 Z-29.558
N11330 Y1798.773 Z-35.324
N11335 G3 Y1800.602 Z-34.668 J0.797 K0.656 F1000.
N11340 G0 Z5.
N11345 X-135.747 Y1788.105
N11350 Z-34.87
N11355 G1 Z-37.901 F1000.
N11360 G2 Y1786.469 Z-38.402 J-0.895 K0.
N11365 G1 Y1783.618 Z-34.18 F6000.
N11370 Y1777.365 Z-29.848
N11375 Y1763.878 Z-26.656
N11380 Y1739.27 Z-26.298
N11385 Y1620.397 Z-31.875
N11390 Y1407.856 Z-36.479
N11395 Y1215.117 Z-37.48
N11400 Y988.952 Z-34.823
N11405 Y566.595 Z-24.96
N11410 Y359.503 Z-17.317
N11415 Y209.635 Z-11.371
N11420 Y176.936 Z-11.826
N11425 Y156.814 Z-14.676
N11430 Y146.812 Z-18.522
N11435 Y140.772 Z-23.073
N11440 Y140.548 Z-23.372
N11445 G2 Y138.066 Z-22.546 J-1.103 K0.826 F1000.
N11450 G0 Z5.
N11455 X-145.746 Y163.218
N11460 Z-22.717
N11465 G1 Z-25.521 F1000.
N11470 G3 Y165.795 Z-26.434 J1.451 K0.
N11475 G1 Y166.752 Z-25.252 F6000.
N11480 Y173.33 Z-20.807
N11485 Y183.648 Z-17.092
N11490 Y202.09 Z-14.631
N11495 Y228.705 Z-13.59
N11500 Y330.888 Z-17.079
N11505 Y547.517 Z-25.257
N11510 Y863.603 Z-33.059
N11515 Y1149.716 Z-37.847
N11520 Y1365.614 Z-37.794
N11525 Y1599.954 Z-33.543
N11530 Y1719.849 Z-28.904
N11535 Y1747.132 Z-29.198
N11540 Y1761.792 Z-32.065
N11545 Y1768.664 Z-36.073
N11550 Y1772.897 Z-41.733
N11555 G3 Y1774.65 Z-41.151 J0.779 K0.583 F1000.
N11560 G0 Z5.
N11565 X-155.744 Y1758.743
N11570 Z-39.598
N11575 G1 Z-45.026 F1000.
N11580 G2 Y1757.752 Z-45.314 J-0.537 K0.
N11585 G1 Y1754.398 Z-40.022 F6000.
N11590 Y1746.482 Z-35.235
N11595 Y1731.482 Z-32.055
N11600 Y1704.556 Z-31.472
N11605 Y1538.984 Z-36.107
N11610 Y1315.543 Z-39.056
N11615 Y1087.027 Z-38.091
N11620 Y672.844 Z-29.698
N11625 Y437.142 Z-22.512
N11630 Y262.749 Z-16.209
N11635 Y233.572 Z-16.96
N11640 Y212.842 Z-19.537
N11645 Y202.979 Z-22.632
N11650 Y196.159 Z-26.142
N11655 Y192.239 Z-30.176
N11660 G2 Y189.648 Z-29.124 J-1.082 K1.052 F1000.
N11665 G0 Z5.
N11670 X-165.743 Y219.981
N11675 Z-27.519
N11680 G1 Z-34.11 F1000.
N11685 G3 Y220.478 Z-34.191 J0.255 K0.
N11690 G1 Y220.682 Z-33.575 F6000.
N11695 Y224.564 Z-29.414
N11700 Y233.867 Z-24.858
N11705 Y240.873 Z-22.829
N11710 Y263.005 Z-19.935
N11715 Y294.592 Z-19.088
N11720 Y574.744 Z-28.185
N11725 Y969.852 Z-37.05
N11730 Y1206.917 Z-40.016
N11735 Y1420.336 Z-39.237
N11740 Y1673.751 Z-34.409
N11745 Y1710.363 Z-34.803
N11750 Y1728.255 Z-38.095
N11755 Y1737.745 Z-43.554
N11760 Y1740.736 Z-48.794
N11765 G3 Y1741.952 Z-48.471 J0.566 K0.323 F1000.
N11770 G0 Z5.
N11775 X-175.741 Y1722.917
N11780 Z-45.886
N11785 G1 Z-52.012 F1000.
N11790 G2 Y1721.577 Z-52.344 J-0.711 K0.
N11795 G1 Y1719.072 Z-47.592 F6000.
N11800 Y1713.541 Z-43.748
N11805 Y1704.747 Z-40.338
N11810 Y1680.963 Z-37.397
N11815 Y1615.557 Z-37.638
N11820 Y1350.466 Z-40.995
N11825 Y1111.533 Z-40.345
N11830 Y672.826 Z-31.947
N11835 Y381.263 Z-23.285
N11840 Y320.738 Z-22.281
N11845 Y293.289 Z-23.189
N11850 Y269.38 Z-26.777
N11855 Y256.403 Z-31.756
N11860 Y251.372 Z-36.384
N11865 Y250.606 Z-38.408
N11870 G2 Y249.685 Z-38.239 J-0.445 K0.169 F1000.
N11875 G0 Z5.
N11880 X-185.739 Y281.714
N11885 Z-34.582
N11890 G1 Z-42.644 F1000.
N11895 G3 Y282.97 Z-42.932 J0.661 K0.
N11900 G1 Y285.127 Z-38.475 F6000.
N11905 Y292.659 Z-34.005
N11910 Y305.976 Z-29.617
N11915 Y335.06 Z-26.366
N11920 Y372.376 Z-25.546
N11925 Y609.441 Z-31.69
N11930 Y1069.947 Z-41.021
N11935 Y1321.661 Z-42.347
N11940 Y1592.811 Z-39.831
N11945 Y1653.951 Z-40.555
N11950 Y1677.668 Z-43.08
N11955 Y1689.87 Z-46.582
N11960 Y1697.255 Z-51.203
N11965 Y1699.864 Z-56.361
N11970 G3 Y1700.681 Z-56.166 J0.385 K0.195 F1000.
N11975 G0 Z5.
N11980 X-195.738 Y1675.998
N11985 Z-52.669
N11990 G1 Z-59.863 F1000.
N11995 G2 Y1674.507 Z-60.258 J-0.798 K0.
N12000 G1 Y1671.212 Z-54.475 F6000.
N12005 Y1663.814 Z-50.344
N12010 Y1650.521 Z-46.51
N12015 Y1621.212 Z-43.337
N12020 Y1571.308 Z-42.202
N12025 Y1296.517 Z-43.777
N12030 Y1056.318 Z-42.082
N12035 Y623.061 Z-33.541
N12040 Y418.482 Z-29.098
N12045 Y371.707 Z-30.172
N12050 Y345.519 Z-32.962
N12055 Y331.489 Z-36.667
N12060 Y321.385 Z-41.812
N12065 Y318.172 Z-47.683
N12070 G2 Y316.437 Z-47.24 J-0.811 K0.444 F1000.
N12075 G0 Z5.
N12080 X-205.736 Y356.262
N12085 Z-42.542
N12090 G1 Z-52.436 F1000.
N12095 G3 Y357.407 Z-52.713 J0.606 K0.
N12100 G1 Y359.547 Z-48.552 F6000.
N12105 Y362.46 Z-45.115
N12110 Y372.335 Z-40.896
N12115 Y388.032 Z-36.937
N12120 Y422.659 Z-33.799
N12125 Y478.623 Z-32.796
N12130 Y944.578 Z-41.642
N12135 Y1195.268 Z-44.899
N12140 Y1474.309 Z-44.842
N12145 Y1571.592 Z-45.373
N12150 Y1601.239 Z-47.375
N12155 Y1619.434 Z-49.798
N12160 Y1634.255 Z-54.132
N12165 Y1641.433 Z-57.846
N12170 Y1645.565 Z-64.537
N12175 G3 Y1647.318 Z-64.04 J0.806 K0.498 F1000.
N12180 G0 Z5.
N12185 X-215.735 Y1614.983
N12190 Z-60.295
N12195 G1 Z-68.318 F1000.
N12200 G2 Y1613.075 Z-68.903 J-1.043 K0.
N12205 G1 Y1608.446 Z-62.059 F6000.
N12210 Y1603.09 Z-58.451
N12215 Y1588.466 Z-53.715
N12220 Y1567.96 Z-50.776
N12225 Y1532.442 Z-48.371
N12230 Y1445.726 Z-47.15
N12235 Y1132.592 Z-45.988
N12240 Y544.016 Z-36.55
N12245 Y478.069 Z-37.542
N12250 Y437.601 Z-40.719
N12255 Y424.629 Z-43.147
N12260 Y412.744 Z-46.928
N12265 Y406.923 Z-49.553
N12270 Y403.64 Z-53.677
N12275 Y401.8 Z-57.361
N12280 G2 Y399.602 Z-56.842 J-1.038 K0.518 F1000.
N12285 G0 Z5.
N12290 X-245.73 Y402.471
N12295 Z-65.558
N12300 G1 Z-73.095 F1000.
N12305 G2 Y400.566 Z-75. J-1.905 K0.
N12310 G1 Y394.605 F6000.
N12315 X-235.731 Y352.988
N12320 Y347.852
N12325 G2 Y345.947 Z-73.095 J0. K1.905 F1000.
N12330 G0 Z5.
N12335 X-255.728 Y446.126
N12340 Z-73.095
N12345 G3 Y448.031 Z-75. J1.905 K0. F1000.
N12350 G1 Y455.524 F6000.
N12355 G3 Y457.429 Z-73.095 J0. K1.905 F1000.
N12360 G0 Z5.
N12365 X-225.733 Y447.665
N12370 Z-51.887
N12375 G1 Z-60.444 F1000.
N12380 G3 Y451.165 Z-61.485 J1.905 K0.
N12385 G1 Y455.102 Z-55.45 F6000.
N12390 Y461.001 Z-51.762
N12395 Y481.547 Z-46.356
N12400 Y504.015 Z-43.611
N12405 Y547.402 Z-41.043
N12410 Y622.994 Z-40.416
N12415 Y1029.042 Z-46.548
N12420 Y1332.916 Z-49.083
N12425 Y1466.019 Z-50.509
N12430 Y1506.886 Z-52.211
N12435 Y1541.978 Z-55.784
N12440 Y1560.566 Z-60.281
N12445 Y1569.008 Z-63.754
N12450 Y1575.816 Z-72.856
N12455 G3 Y1579.246 Z-71.715 J1.526 K1.141 F1000.
N12460 G0 Z5.
N12465 X-235.731 Y1564.45
N12470 Z-73.095
N12475 G2 Y1562.53 Z-75. J-1.905 K0. F1000.
N12480 G1 Y1532.291 Z-74.764 F6000.
N12485 Y1524.644 Z-66.768
N12490 Y1515.56 Z-63.418
N12495 Y1494.264 Z-58.824
N12500 Y1452.751 Z-54.914
N12505 Y1387.064 Z-52.52
N12510 Y953.352 Z-47.499
N12515 Y697.212 Z-44.451
N12520 Y617.283 Z-45.096
N12525 Y562.892 Z-48.045
N12530 Y538.741 Z-51.097
N12535 Y517.739 Z-56.058
N12540 Y511.378 Z-59.51
N12545 Y506.561 Z-65.991
N12550 Y506.533 Z-68.099
N12555 G2 Y504.42 Z-66.205 J-0.208 K1.894 F1000.
N12560 G0 Z5.
N12565 X-245.73 Y567.7
N12570 Z-59.678
N12575 G1 Z-71.765 F1000.
N12580 G3 Y569.824 Z-73.657 J1.905 K0.
N12585 G1 Y570.072 Z-69.897 F6000.
N12590 Y577.16 Z-62.642
N12595 Y593.184 Z-57.814
N12600 Y624.885 Z-53.151
N12605 Y690.283 Z-49.832
N12610 Y778.944 Z-48.751
N12615 Y1223.641 Z-53.525
N12620 Y1347.535 Z-55.797
N12625 Y1419.787 Z-59.773
N12630 Y1438.476 Z-61.744
N12635 Y1465.193 Z-67.219
N12640 Y1475.256 Z-70.833
N12645 Y1478.741 Z-74.74
N12650 Y1562.453 Z-75.
N12655 G3 Y1564.364 Z-73.095 J0.006 K1.905 F1000.
N12660 G0 Z5.
N12665 X-255.728 Y1607.029
N12670 Z-73.095
N12675 G2 Y1605.121 Z-75. J-1.905 K0. F1000.
N12680 G1 Y1415.026 Z-74.682 F6000.
N12685 Y1405.656 Z-70.967
N12690 Y1380.943 Z-66.321
N12695 Y1354.418 Z-63.206
N12700 Y1304.635 Z-60.306
N12705 Y1214.455 Z-57.384
N12710 Y868.395 Z-53.762
N12715 Y768.138 Z-55.143
N12720 Y708.79 Z-57.909
N12725 Y680.564 Z-61.417
N12730 Y669.101 Z-63.014
N12735 Y655.146 Z-66.609
N12740 Y650.422 Z-69.444
N12745 Y644.43 Z-75.
N12750 Y585.772
N12755 G2 Y583.867 Z-73.095 J0. K1.905 F1000.
N12760 G0 Z5.
N12765 X-265.727 Y507.112
N12770 Z-73.095
N12775 G3 Y509.017 Z-75. J1.905 K0. F1000.
N12780 G1 Y745.194 F6000.
N12785 Y747.334 Z-73.437
N12790 Y758.777 Z-70.026
N12795 Y773.61 Z-67.829
N12800 Y808.472 Z-64.377
N12805 Y851.868 Z-61.959
N12810 Y930.89 Z-60.811
N12815 Y1178.678 Z-63.16
N12820 Y1253.953 Z-66.017
N12825 Y1297.505 Z-69.977
N12830 Y1307.65 Z-71.305
N12835 Y1328.006 Z-74.808
N12840 Y1570.847 Z-75.
N12845 G3 Y1572.754 Z-73.095 J0.002 K1.905 F1000.
N12850 G0 Z5.
N12855 X-275.725 Y1533.677
N12860 Z-73.095
N12865 G2 Y1531.77 Z-75. J-1.905 K0. F1000.
N12870 G1 Y1145.958 Z-74.619 F6000.
N12875 Y1083.286 Z-73.618
N12880 Y982.034 Z-73.006
N12885 Y922.006 Z-75.
N12890 Y578.841
N12895 G2 Y576.936 Z-73.095 J0. K1.905 F1000.
N12900 G0 Z5.
N12905 X-285.724 Y658.561
N12910 Z-73.095
N12915 G3 Y660.466 Z-75. J1.905 K0. F1000.
N12920 G1 Y1484.147 F6000.
N12925 G3 Y1486.052 Z-73.095 J0. K1.905 F1000.
N12930 G0 Z5.
N12935 X-295.722 Y1419.934
N12940 Z-73.095
N12945 G2 Y1418.029 Z-75. J-1.905 K0. F1000.
N12950 G1 Y763.46 F6000.
N12955 G2 Y761.555 Z-73.095 J0. K1.905 F1000.
N12960 G0 Z5.
N12965 X-305.72 Y932.995
N12970 Z-73.095
N12975 G3 Y934.9 Z-75. J1.905 K0. F1000.
N12980 G1 Y1291.689 F6000.
N12985 G3 Y1293.594 Z-73.095 J0. K1.905 F1000.
N12990 G0 Z5.
N12995 X-245.73 Y1625.566
N13000 Z-72.481
N13005 G1 Z-73.095 F1000.
N13010 G3 Y1627.471 Z-75. J1.905 K0.
N13015 G1 Y1636.242 F6000.
N13020 G3 Y1638.147 Z-73.095 J0. K1.905 F1000.
N13025 G0 Z5.
N13030 X244.192 Y1642.628
N13035 Z-73.095
N13040 G2 Y1640.723 Z-75. J-1.905 K0. F1000.
N13045 G1 Y1632.974 F6000.
N13050 X254.191 Y1610.104
N13055 Y1584.303
N13060 G2 Y1582.398 Z-73.095 J0. K1.905 F1000.
N13065 G0 Z5.
N13070 X144.208 Y89.658
N13075 Z-28.036
N13080 G1 Z-73.993 F1000.
N13085 G2 Y88.651 Z-75. J-1.007 K0.
N13090 G1 Y83.457 F6000.
N13095 G2 Y81.552 Z-73.095 J0. K1.905 F1000.
N13100 G0 Z15.
N13105 G17
N13110 G53 G0 Z0.
N13115 M30
%
