%
(1003)
(3MM END MILL)
(T2  D=3. CR=0. - ZMIN=-2. - FLAT END MILL)
N10 G90 G94 G17 G91.1
N15 G21
N20 G53 G0 Z0.
(2D CONTOUR1)
N25 M9
N30 T2 M6
N35 S18000 M3
N40 G54
N45 G0 X129.891 Y833.985
N50 G43 Z15. H2
N55 G0 Z5.
N60 G1 Z1. F333.33
N65 Z-1.7
N70 X129.896 Y833.98 Z-1.767
N75 X129.912 Y833.964 Z-1.83
N80 X129.937 Y833.939 Z-1.887
N85 X129.971 Y833.905 Z-1.935
N90 X130.011 Y833.865 Z-1.97
N95 X130.056 Y833.82 Z-1.992
N100 X130.103 Y833.773 Z-2.
N105 X130.315 Y833.561 F1000.
N110 G3 X130.739 I0.212 J0.212
N115 G2 X131.8 Y834. I1.061 J-1.061 F4500.
N120 G1 X148.5
N125 Y851.45
N130 X112.85
N135 Y797.9
N140 X131.8
N145 X148.5
N150 Y815.35
N155 X131.8
N160 G2 X130.3 Y816.85 I0. J1.5
N165 G1 Y832.5
N170 G2 X130.739 Y833.561 I1.5 J0.
N175 G3 Y833.985 I-0.212 J0.212 F1000.
N180 G1 X130.527 Y834.197
N185 X130.48 Y834.244 Z-1.992
N190 X130.435 Y834.289 Z-1.97
N195 X130.395 Y834.329 Z-1.935
N200 X130.361 Y834.363 Z-1.887
N205 X130.336 Y834.388 Z-1.83
N210 X130.32 Y834.404 Z-1.767
N215 X130.315 Y834.409 Z-1.7
N220 G0 Z5.
N225 X193.75 Y843.052
N230 G1 Z1. F333.33
N235 Z-1.7
N240 G18 G2 X194.05 Z-2. I0.3 K0.
N245 G1 X194.35 F1000.
N250 G17 G3 X194.65 Y843.352 I0. J0.3
N255 G1 Y882.05 F4500.
N260 X160.8
N265 Y866.5
N270 X177.65
N275 G2 X179.15 Y865. I0. J-1.5
N280 G1 Y851.05
N285 G2 X177.65 Y849.55 I-1.5 J0.
N290 G1 X160.8
N295 Y834.
N300 X194.65
N305 Y843.352
N310 G3 X194.35 Y843.652 I-0.3 J0. F1000.
N315 G1 X194.05
N320 G18 G3 X193.75 Z-1.7 I0. K0.3
N325 G0 Z5.
N330 Y805.698
N335 G1 Z1. F333.33
N340 Z-1.7
N345 G2 X194.05 Z-2. I0.3 K0.
N350 G1 X194.35 F1000.
N355 G17 G3 X194.65 Y805.998 I0. J0.3
N360 G1 Y815.35 F4500.
N365 X160.8
N370 Y799.8
N375 X177.65
N380 G2 X179.15 Y798.3 I0. J-1.5
N385 G1 Y784.35
N390 G2 X177.65 Y782.85 I-1.5 J0.
N395 G1 X160.8
N400 Y767.35
N405 X194.65
N410 Y805.998
N415 G3 X194.35 Y806.298 I-0.3 J0. F1000.
N420 G1 X194.05
N425 G18 G3 X193.75 Z-1.7 I0. K0.3
N430 G0 Z5.
N435 X168.95 Y745.118
N440 G1 Z1. F333.33
N445 Z-1.7
N450 G2 X169.25 Z-2. I0.3 K0.
N455 G1 X169.55 F1000.
N460 G17 G3 X169.85 Y745.418 I0. J0.3
N465 G1 Y751.6 F4500.
N470 X136.25
N475 G2 X134.75 Y753.1 I0. J1.5
N480 G1 Y765.85
N485 G2 X136.25 Y767.35 I1.5 J0.
N490 G1 X148.5
N495 Y780.45
N500 X121.6
N505 Y731.95
N510 X136.915
N515 X139.284 Y739.547
N520 G2 X140.716 Y740.6 I1.432 J-0.447
N525 G1 X159.3
N530 G2 X160.8 Y739.1 I0. J-1.5
N535 G1 Y729.75
N540 G2 X159.3 Y728.25 I-1.5 J0.
N545 G1 X148.832
N550 X139.83 Y699.7
N555 X143.906
N560 G2 X145.792 Y713.111 I10.743 J5.328
N565 G1 X145.863 Y713.184
N570 X145.94 Y713.252
N575 X148.04 Y715.002
N580 G2 X148.272 Y715.161 I0.96 J-1.152
N585 G1 X149.172 Y715.661
N590 G2 X149.9 Y715.85 I0.728 J-1.311
N595 G1 X150.65
N600 G2 X152.15 Y714.35 I0. J-1.5
N605 G1 Y582.1
N610 X157.05
N615 Y714.35
N620 G2 X158.55 Y715.85 I1.5 J0.
N625 G1 X159.3
N630 G2 X160.119 Y715.607 I0. J-1.5
N635 G1 X162.269 Y714.207
N640 X162.348 Y714.151
N645 X162.424 Y714.09
N650 G2 X165.319 Y699.7 I-7.724 J-9.04
N655 G1 X169.85
N660 Y745.418
N665 G3 X169.55 Y745.718 I-0.3 J0. F1000.
N670 G1 X169.25
N675 G18 G3 X168.95 Z-1.7 I0. K0.3
N680 G0 Z5.
N685 X134.765 Y881.641
N690 G1 Z1. F333.33
N695 Z-1.7
N700 X134.77 Y881.646 Z-1.767
N705 X134.786 Y881.662 Z-1.83
N710 X134.811 Y881.687 Z-1.887
N715 X134.845 Y881.721 Z-1.935
N720 X134.885 Y881.761 Z-1.97
N725 X134.93 Y881.806 Z-1.992
N730 X134.977 Y881.853 Z-2.
N735 X135.189 Y882.065 F1000.
N740 G17 G3 Y882.489 I-0.212 J0.212
N745 G2 X134.75 Y883.55 I1.061 J1.061 F4500.
N750 G1 Y896.3
N755 G2 X136.25 Y897.8 I1.5 J0.
N760 G1 X148.5
N765 Y910.9
N770 X121.6
N775 Y868.9
N780 X148.5
N785 Y882.05
N790 X136.25
N795 G2 X135.189 Y882.489 I0. J1.5
N800 G3 X134.765 I-0.212 J-0.212 F1000.
N805 G1 X134.553 Y882.277
N810 X134.506 Y882.23 Z-1.992
N815 X134.461 Y882.185 Z-1.97
N820 X134.421 Y882.145 Z-1.935
N825 X134.387 Y882.111 Z-1.887
N830 X134.362 Y882.086 Z-1.83
N835 X134.346 Y882.07 Z-1.767
N840 X134.341 Y882.065 Z-1.7
N845 G0 Z5.
N850 X182.65 Y904.596
N855 G1 Z1. F333.33
N860 Z-1.7
N865 G18 G2 X182.95 Z-2. I0.3 K0.
N870 G1 X183.25 F1000.
N875 G17 G3 X183.55 Y904.896 I0. J0.3
N880 G1 Y934.75 F4500.
N885 X160.8
N890 Y923.05
N895 X170.4
N900 G2 X171.9 Y921.55 I0. J-1.5
N905 G1 Y911.
N910 G2 X170.4 Y909.5 I-1.5 J0.
N915 G1 X160.8
N920 Y897.8
N925 X183.55
N930 Y904.896
N935 G3 X183.25 Y905.196 I-0.3 J0. F1000.
N940 G1 X182.95
N945 G18 G3 X182.65 Z-1.7 I0. K0.3
N950 G0 Z5.
N955 X139.665 Y934.341
N960 G1 Z1. F333.33
N965 Z-1.7
N970 X139.67 Y934.346 Z-1.767
N975 X139.686 Y934.362 Z-1.83
N980 X139.711 Y934.387 Z-1.887
N985 X139.745 Y934.421 Z-1.935
N990 X139.785 Y934.461 Z-1.97
N995 X139.83 Y934.506 Z-1.992
N1000 X139.877 Y934.553 Z-2.
N1005 X140.089 Y934.765 F1000.
N1010 G17 G3 Y935.189 I-0.212 J0.212
N1015 G2 X139.65 Y936.25 I1.061 J1.061 F4500.
N1020 G1 Y945.15
N1025 G2 X141.15 Y946.65 I1.5 J0.
N1030 G1 X157.1
N1035 Y1075.
N1040 X152.2
N1045 Y957.9
N1050 G2 X150.7 Y956.4 I-1.5 J0.
N1055 G1 X129.9
N1060 Y925.
N1065 X148.5
N1070 Y934.75
N1075 X141.15
N1080 G2 X140.089 Y935.189 I0. J1.5
N1085 G3 X139.665 I-0.212 J-0.212 F1000.
N1090 G1 X139.453 Y934.977
N1095 X139.406 Y934.93 Z-1.992
N1100 X139.361 Y934.885 Z-1.97
N1105 X139.321 Y934.845 Z-1.935
N1110 X139.287 Y934.811 Z-1.887
N1115 X139.262 Y934.786 Z-1.83
N1120 X139.246 Y934.77 Z-1.767
N1125 X139.241 Y934.765 Z-1.7
N1130 G0 Z15.
N1135 G53 Z0.
N1140 M30
%
