%
(2_CIRCLE_TRIAL)
(6MM END MILL)
(T1  D=6. CR=0. - ZMIN=-4. - FLAT END MILL)
N10 G90 G94 G17 G91.1
N15 G21
N20 G53 G0 Z0.
(2D POCKET7)
N25 M9
N30 T1 M6
N35 S18000 M3
N40 G54
N45 G0 X222.967 Y97.176
N50 G43 Z15. H1
N55 G0 Z5.
N60 G1 Z3.1 F500.
N65 X222.939 Y97.18 Z2.918 F333.33
N70 X222.859 Y97.193 Z2.754
N75 X222.734 Y97.217 Z2.622
N80 X222.577 Y97.257 Z2.534
N85 X222.405 Y97.311 Z2.5
N90 G2 X224.295 Y102.689 Z2.187 I0.945 J2.689
N95 X222.405 Y97.311 Z1.875 I-0.945 J-2.689
N100 X224.295 Y102.689 Z1.562 I0.945 J2.689
N105 X222.405 Y97.311 Z1.249 I-0.945 J-2.689
N110 X224.295 Y102.689 Z0.937 I0.945 J2.689
N115 X222.405 Y97.311 Z0.624 I-0.945 J-2.689
N120 X224.295 Y102.689 Z0.311 I0.945 J2.689
N125 X222.405 Y97.311 Z-0.001 I-0.945 J-2.689
N130 X224.295 Y102.689 Z-0.314 I0.945 J2.689
N135 X222.405 Y97.311 Z-0.627 I-0.945 J-2.689
N140 X224.295 Y102.689 Z-0.939 I0.945 J2.689
N145 X222.405 Y97.311 Z-1.252 I-0.945 J-2.689
N150 X224.295 Y102.689 Z-1.565 I0.945 J2.689
N155 X222.405 Y97.311 Z-1.877 I-0.945 J-2.689
N160 X220.5 Y100. Z-2. I0.945 J2.689
N165 X225. I2.25 J0. F600.
N170 X215. I-5. J0.
N175 X230.5 I7.75 J0.
N180 X209.5 I-10.5 J0.
N185 X236. I13.25 J0.
N190 X204. I-16. J0.
N195 X241.5 I18.75 J0.
N200 X198.5 I-21.5 J0.
N205 X241.5 I21.5 J0.
N210 X241.154 Y99.703 I-0.3 J0.
N215 G1 X229.979 Y101.421
N220 X229.922 Y101.429
N225 X229.865 Y101.427
N230 X229.809 Y101.413
N235 X229.757 Y101.39
N240 X222.686 Y97.323
N245 X222.628 Y97.298
N250 X222.566 Y97.285
N255 X222.503
N260 X222.441 Y97.299
N265 G2 X224.259 Y102.701 Z-2.313 I0.909 J2.701 F333.33
N270 X222.441 Y97.299 Z-2.625 I-0.909 J-2.701
N275 X224.259 Y102.701 Z-2.938 I0.909 J2.701
N280 X222.441 Y97.299 Z-3.251 I-0.909 J-2.701
N285 X224.259 Y102.701 Z-3.563 I0.909 J2.701
N290 X222.441 Y97.299 Z-3.876 I-0.909 J-2.701
N295 X220.5 Y100. Z-4. I0.909 J2.701
N300 X225. I2.25 J0. F600.
N305 X215. I-5. J0.
N310 X230.5 I7.75 J0.
N315 X209.5 I-10.5 J0.
N320 X236. I13.25 J0.
N325 X204. I-16. J0.
N330 X241.5 I18.75 J0.
N335 X198.5 I-21.5 J0.
N340 X241.5 I21.5 J0.
N345 G1 X241.493 Y99.908 Z-3.985 F500.
N350 X241.472 Y99.818 Z-3.971
N355 X241.441 Y99.74 Z-3.928
N360 X241.399 Y99.667 Z-3.885
N365 X241.36 Y99.614 Z-3.819
N370 X241.314 Y99.566 Z-3.753
N375 X241.248 Y99.512 Z-3.585
N380 X241.224 Y99.495 Z-3.4
N385 G0 Z15.
N390 X218.533 Y202.824
N395 Z5.
N400 G1 Z3.1 F500.
N405 X218.561 Y202.82 Z2.918 F333.33
N410 X218.641 Y202.807 Z2.754
N415 X218.766 Y202.783 Z2.622
N420 X218.923 Y202.743 Z2.534
N425 X219.095 Y202.689 Z2.5
N430 G2 X217.205 Y197.311 Z2.187 I-0.945 J-2.689
N435 X219.095 Y202.689 Z1.875 I0.945 J2.689
N440 X217.205 Y197.311 Z1.562 I-0.945 J-2.689
N445 X219.095 Y202.689 Z1.249 I0.945 J2.689
N450 X217.205 Y197.311 Z0.937 I-0.945 J-2.689
N455 X219.095 Y202.689 Z0.624 I0.945 J2.689
N460 X217.205 Y197.311 Z0.311 I-0.945 J-2.689
N465 X219.095 Y202.689 Z-0.001 I0.945 J2.689
N470 X217.205 Y197.311 Z-0.314 I-0.945 J-2.689
N475 X219.095 Y202.689 Z-0.627 I0.945 J2.689
N480 X217.205 Y197.311 Z-0.939 I-0.945 J-2.689
N485 X219.095 Y202.689 Z-1.252 I0.945 J2.689
N490 X217.205 Y197.311 Z-1.565 I-0.945 J-2.689
N495 X219.095 Y202.689 Z-1.877 I0.945 J2.689
N500 X221. Y200. Z-2. I-0.945 J-2.689
N505 X219. I-1. J0. F600.
N510 X226.5 I3.75 J0.
N515 X213.5 I-6.5 J0.
N520 X232. I9.25 J0.
N525 X208. I-12. J0.
N530 X237.5 I14.75 J0.
N535 X202.5 I-17.5 J0.
N540 X243. I20.25 J0.
N545 X197. I-23. J0.
N550 X248.5 I25.75 J0.
N555 X191.5 I-28.5 J0.
N560 X254. I31.25 J0.
N565 X186. I-34. J0.
N570 X254. I34. J0.
N575 X253.755 Y199.705 I-0.3 J0.
N580 G1 X227.495 Y194.834
N585 X227.436 Y194.817
N590 G2 X227.126 Y194.869 I-0.113 J0.278
N595 G1 X218.766 Y202.191
N600 G2 X219.059 Y202.701 I0.198 J0.226
N605 X217.241 Y197.299 Z-2.313 I-0.909 J-2.701 F333.33
N610 X219.059 Y202.701 Z-2.625 I0.909 J2.701
N615 X217.241 Y197.299 Z-2.938 I-0.909 J-2.701
N620 X219.059 Y202.701 Z-3.251 I0.909 J2.701
N625 X217.241 Y197.299 Z-3.563 I-0.909 J-2.701
N630 X219.059 Y202.701 Z-3.876 I0.909 J2.701
N635 X221. Y200. Z-4. I-0.909 J-2.701
N640 X219. I-1. J0. F600.
N645 X226.5 I3.75 J0.
N650 X213.5 I-6.5 J0.
N655 X232. I9.25 J0.
N660 X208. I-12. J0.
N665 X237.5 I14.75 J0.
N670 X202.5 I-17.5 J0.
N675 X243. I20.25 J0.
N680 X197. I-23. J0.
N685 X248.5 I25.75 J0.
N690 X191.5 I-28.5 J0.
N695 X254. I31.25 J0.
N700 X186. I-34. J0.
N705 X254. I34. J0.
N710 G1 X253.993 Y199.908 Z-3.985 F500.
N715 X253.972 Y199.818 Z-3.971
N720 X253.941 Y199.74 Z-3.928
N725 X253.899 Y199.667 Z-3.885
N730 X253.86 Y199.614 Z-3.819
N735 X253.814 Y199.566 Z-3.753
N740 X253.748 Y199.512 Z-3.585
N745 X253.724 Y199.495 Z-3.4
N750 G0 Z15.
N755 X220.033 Y322.824
N760 Z5.
N765 G1 Z3.1 F500.
N770 X220.061 Y322.82 Z2.918 F333.33
N775 X220.141 Y322.807 Z2.754
N780 X220.266 Y322.783 Z2.622
N785 X220.423 Y322.743 Z2.534
N790 X220.595 Y322.689 Z2.5
N795 G2 X218.705 Y317.311 Z2.187 I-0.945 J-2.689
N800 X220.595 Y322.689 Z1.875 I0.945 J2.689
N805 X218.705 Y317.311 Z1.562 I-0.945 J-2.689
N810 X220.595 Y322.689 Z1.249 I0.945 J2.689
N815 X218.705 Y317.311 Z0.937 I-0.945 J-2.689
N820 X220.595 Y322.689 Z0.624 I0.945 J2.689
N825 X218.705 Y317.311 Z0.311 I-0.945 J-2.689
N830 X220.595 Y322.689 Z-0.001 I0.945 J2.689
N835 X218.705 Y317.311 Z-0.314 I-0.945 J-2.689
N840 X220.595 Y322.689 Z-0.627 I0.945 J2.689
N845 X218.705 Y317.311 Z-0.939 I-0.945 J-2.689
N850 X220.595 Y322.689 Z-1.252 I0.945 J2.689
N855 X218.705 Y317.311 Z-1.565 I-0.945 J-2.689
N860 X220.595 Y322.689 Z-1.877 I0.945 J2.689
N865 X222.5 Y320. Z-2. I-0.945 J-2.689
N870 X217.5 I-2.5 J0. F600.
N875 X228. I5.25 J0.
N880 X212. I-8. J0.
N885 X233.5 I10.75 J0.
N890 X206.5 I-13.5 J0.
N895 X239. I16.25 J0.
N900 X201. I-19. J0.
N905 X244.5 I21.75 J0.
N910 X195.5 I-24.5 J0.
N915 X250. I27.25 J0.
N920 X190. I-30. J0.
N925 X255.5 I32.75 J0.
N930 X184.5 I-35.5 J0.
N935 X261. I38.25 J0.
N940 X179. I-41. J0.
N945 X266.5 I43.75 J0.
N950 X173.5 I-46.5 J0.
N955 X266.5 I46.5 J0.
N960 G1 X266.493 Y319.908 Z-1.985 F500.
N965 X266.472 Y319.818 Z-1.971
N970 X266.441 Y319.74 Z-1.928
N975 X266.399 Y319.667 Z-1.885
N980 X266.36 Y319.614 Z-1.819
N985 X266.314 Y319.566 Z-1.753
N990 X266.249 Y319.512 Z-1.585
N995 X266.224 Y319.495 Z-1.4
N1000 Z1.1
N1005 X220.033 Y322.824 F600.
N1010 X220.061 Y322.82 Z0.918 F333.33
N1015 X220.141 Y322.807 Z0.754
N1020 X220.266 Y322.783 Z0.622
N1025 X220.423 Y322.743 Z0.534
N1030 X220.595 Y322.689 Z0.5
N1035 G2 X218.705 Y317.311 Z0.187 I-0.945 J-2.689
N1040 X220.595 Y322.689 Z-0.125 I0.945 J2.689
N1045 X218.705 Y317.311 Z-0.438 I-0.945 J-2.689
N1050 X220.595 Y322.689 Z-0.751 I0.945 J2.689
N1055 X218.705 Y317.311 Z-1.063 I-0.945 J-2.689
N1060 X220.595 Y322.689 Z-1.376 I0.945 J2.689
N1065 X218.705 Y317.311 Z-1.689 I-0.945 J-2.689
N1070 X220.595 Y322.689 Z-2.001 I0.945 J2.689
N1075 X218.705 Y317.311 Z-2.314 I-0.945 J-2.689
N1080 X220.595 Y322.689 Z-2.627 I0.945 J2.689
N1085 X218.705 Y317.311 Z-2.939 I-0.945 J-2.689
N1090 X220.595 Y322.689 Z-3.252 I0.945 J2.689
N1095 X218.705 Y317.311 Z-3.565 I-0.945 J-2.689
N1100 X220.595 Y322.689 Z-3.877 I0.945 J2.689
N1105 X222.5 Y320. Z-4. I-0.945 J-2.689
N1110 X217.5 I-2.5 J0. F600.
N1115 X228. I5.25 J0.
N1120 X212. I-8. J0.
N1125 X233.5 I10.75 J0.
N1130 X206.5 I-13.5 J0.
N1135 X239. I16.25 J0.
N1140 X201. I-19. J0.
N1145 X244.5 I21.75 J0.
N1150 X195.5 I-24.5 J0.
N1155 X250. I27.25 J0.
N1160 X190. I-30. J0.
N1165 X255.5 I32.75 J0.
N1170 X184.5 I-35.5 J0.
N1175 X261. I38.25 J0.
N1180 X179. I-41. J0.
N1185 X266.5 I43.75 J0.
N1190 X173.5 I-46.5 J0.
N1195 X266.5 I46.5 J0.
N1200 G1 X266.493 Y319.908 Z-3.985 F500.
N1205 X266.472 Y319.818 Z-3.971
N1210 X266.441 Y319.74 Z-3.928
N1215 X266.399 Y319.667 Z-3.885
N1220 X266.36 Y319.614 Z-3.819
N1225 X266.314 Y319.566 Z-3.753
N1230 X266.249 Y319.512 Z-3.585
N1235 X266.224 Y319.495 Z-3.4
N1240 G0 Z15.
N1245 X221.389 Y476.695
N1250 Z5.
N1255 G1 Z3.1 F500.
N1260 X221.361 Y476.699 Z2.918 F333.33
N1265 X221.281 Y476.711 Z2.754
N1270 X221.156 Y476.736 Z2.622
N1275 X220.999 Y476.774 Z2.534
N1280 X220.827 Y476.828 Z2.5
N1285 G2 X222.697 Y482.212 Z2.187 I0.935 J2.692
N1290 X220.827 Y476.828 Z1.875 I-0.935 J-2.692
N1295 X222.697 Y482.212 Z1.562 I0.935 J2.692
N1300 X220.827 Y476.828 Z1.249 I-0.935 J-2.692
N1305 X222.697 Y482.212 Z0.937 I0.935 J2.692
N1310 X220.827 Y476.828 Z0.624 I-0.935 J-2.692
N1315 X222.697 Y482.212 Z0.311 I0.935 J2.692
N1320 X220.827 Y476.828 Z-0.001 I-0.935 J-2.692
N1325 X222.697 Y482.212 Z-0.314 I0.935 J2.692
N1330 X220.827 Y476.828 Z-0.627 I-0.935 J-2.692
N1335 X222.697 Y482.212 Z-0.939 I0.935 J2.692
N1340 X220.827 Y476.828 Z-1.252 I-0.935 J-2.692
N1345 X222.697 Y482.212 Z-1.565 I0.935 J2.692
N1350 X220.827 Y476.828 Z-1.877 I-0.935 J-2.692
N1355 X218.912 Y479.51 Z-2. I0.935 J2.692
N1360 X218.92 Y481.479 I129.006 J0.464 F600.
N1365 X219.196 Y488.864 I142.303 J-1.624
N1370 X219.897 Y496.221 I116.6 J-7.396
N1375 G1 X219.908 Y496.257
N1380 X219.931 Y496.286
N1385 X219.963 Y496.305
N1390 X220. Y496.312
N1395 X220.037 Y496.305
N1400 X220.069 Y496.286
N1405 X220.092 Y496.257
N1410 X220.103 Y496.221
N1415 G2 X220.314 Y465.887 I-126.055 J-16.046
N1420 G3 X220.215 Y464.829 I29.697 J-3.313
N1425 G2 X220.104 Y463.772 I-17.946 J1.358
N1430 G1 X220.092 Y463.737
N1435 X220.069 Y463.708
N1440 X220.037 Y463.688
N1445 X220. Y463.682
N1450 X219.963 Y463.688
N1455 X219.931 Y463.708
N1460 X219.908 Y463.737
N1465 X219.896 Y463.772
N1470 G2 X219.568 Y466.733 I61.133 J8.278
N1475 X219.321 Y469.701 I449.754 J38.918
N1480 X218.912 Y479.51 I128.597 J10.273
N1485 G3 X217.307 Y481.917 I-2.621 J-0.009
N1490 G2 X215.746 Y484.352 I0.989 J2.352
N1495 X216.019 Y489.561 I133.007 J-4.355
N1500 X217.395 Y501.12 I125.231 J-9.052
N1505 X218.478 Y506.763 I125.869 J-21.214
N1510 X219.879 Y512.336 I81.961 J-17.64
N1515 G1 X219.896 Y512.373
N1520 X219.924 Y512.402
N1525 X219.96 Y512.421
N1530 X220. Y512.428
N1535 X220.04 Y512.421
N1540 X220.076 Y512.402
N1545 X220.104 Y512.373
N1550 X220.121 Y512.336
N1555 G2 X222.474 Y502.029 I-90.541 J-26.089
N1560 X223.823 Y491.542 I-129.14 J-21.939
N1565 X224.278 Y483.537 I-130.033 J-11.413
N1570 X224.248 Y475.453 I-133.451 J-3.539
N1575 X223.3 Y463.589 I-130.348 J4.445
N1580 X221.368 Y452.65 I-114.518 J14.583
N1585 X220.788 Y450.179 I-276.362 J63.608
N1590 X220.14 Y447.725 I-54.441 J13.045
N1595 G1 X220.132 Y447.691
N1600 X220.123 Y447.658
N1605 X220.105 Y447.621
N1610 X220.076 Y447.591
N1615 X220.04 Y447.573
N1620 X220. Y447.566
N1625 X219.96 Y447.573
N1630 X219.924 Y447.591
N1635 X219.895 Y447.621
N1640 X219.877 Y447.658
N1645 G2 X219.438 Y449.305 I28.232 J8.416
N1650 G3 X219.036 Y450.962 I-137.956 J-32.567
N1655 G2 X216.959 Y461.68 I101.103 J25.155
N1660 X215.837 Y473.442 I123.363 J17.705
N1665 X215.683 Y481.516 I132.945 J6.559
N1670 X215.746 Y484.352 I133.07 J-1.518
N1675 G3 X214.022 Y487.156 I-2.983 J0.098
N1680 G2 X212.355 Y489.994 I1.221 J2.626
N1685 X212.505 Y491.865 I135.594 J-9.963
N1690 X214.094 Y503.618 I126.139 J-11.071
N1695 X216.333 Y513.303 I112.007 J-20.796
N1700 X219.671 Y522.666 I66.96 J-18.593
N1705 G1 X219.764 Y522.89
N1710 X219.857 Y523.114
N1715 G2 X220.143 I0.143 J-0.065
N1720 X222.214 Y517.861 I-51.641 J-23.394
N1725 X223.874 Y512.464 I-98.047 J-33.116
N1730 X226.24 Y501.733 I-97.744 J-27.174
N1735 X227.658 Y489.826 I-122.166 J-20.59
N1740 X228.003 Y481.558 I-135.405 J-9.787
N1745 X227.845 Y473.26 I-136.656 J-1.559
N1750 X227.195 Y465.119 I-133.923 J6.607
N1755 X225.357 Y453.619 I-122.365 J13.652
N1760 X223.179 Y445.115 I-102.715 J21.783
N1765 X220.141 Y436.878 I-69.266 J20.867
N1770 X219.859 I-0.141 J0.062
N1775 X216.549 Y446.008 I67.197 J29.529
N1780 X214.271 Y455.448 I103.962 J30.079
N1785 X212.597 Y467.126 I117.061 J22.741
N1790 X212.068 Y475.327 I131.933 J12.624
N1795 X212.037 Y483.635 I136.959 J4.671
N1800 X212.355 Y489.994 I135.911 J-3.604
N1805 G3 X210.57 Y493.181 I-3.304 J0.243
N1810 G2 X208.86 Y496.408 I1.469 J2.846
N1815 X209.722 Y502.413 I129.355 J-15.515
N1820 X211.97 Y512.841 I115.915 J-19.536
N1825 X215.373 Y522.95 I77.071 J-20.316
N1830 X217.395 Y527.388 I63.173 J-26.091
N1835 X219.828 Y531.615 I36.827 J-18.385
N1840 X220.172 I0.172 J-0.113
N1845 X223.997 Y524.494 I-38.124 J-25.064
N1850 X226.819 Y516.92 I-78.08 J-33.399
N1855 X230.44 Y501.572 I-97.322 J-31.066
N1860 X231.984 Y485.878 I-138.209 J-21.521
N1865 X232.081 Y477.325 I-140.744 J-5.869
N1870 X231.662 Y468.823 I-140.722 J2.667
N1875 X230.744 Y460.574 I-132.711 J10.602
N1880 X228.515 Y449.083 I-118.261 J16.973
N1885 X225.823 Y440.092 I-96.635 J24.043
N1890 X222.009 Y431.516 I-55.196 J19.409
N1895 X221.13 Y429.932 I-103.77 J56.519
N1900 X220.175 Y428.392 I-19.225 J10.856
N1905 X219.825 I-0.175 J0.119
N1910 X218.224 Y431.041 I24.334 J16.511
N1915 X216.823 Y433.801 I65.322 J34.914
N1920 X213.16 Y443.099 I61.058 J29.423
N1925 X210.637 Y452.769 I103.208 J32.093
N1930 X209.256 Y460.574 I114.294 J24.239
N1935 X208.338 Y468.823 I129.806 J18.629
N1940 X207.919 Y477.325 I139.031 J11.107
N1945 X208.016 Y485.878 I141.325 J2.679
N1950 X208.625 Y494.305 I138.6 J-5.779
N1955 X208.86 Y496.408 I129.59 J-13.412
N1960 G3 X207.042 Y500.043 I-3.664 J0.439
N1965 G2 X205.318 Y503.724 I1.777 J3.076
N1970 X205.582 Y505.199 I129.665 J-22.401
N1975 X208.073 Y515.846 I116.25 J-21.583
N1980 X211.772 Y526.137 I76.342 J-21.63
N1985 X214.04 Y530.782 I58.722 J-25.803
N1990 X216.79 Y535.161 I34.462 J-18.587
N1995 X218.183 Y536.965 I29.944 J-21.685
N2000 X219.746 Y538.625 I13.144 J-10.814
N2005 X220.254 I0.254 J-0.273
N2010 X222.514 Y536.122 I-13.062 J-14.068
N2015 X224.436 Y533.353 I-33.791 J-25.508
N2020 X228.651 Y525.214 I-43.417 J-27.643
N2025 X231.7 Y516.572 I-85.794 J-35.133
N2030 X234.418 Y505.199 I-101.591 J-30.291
N2035 X235.676 Y496.911 I-124.993 J-23.207
N2040 X236.435 Y488.263 I-138.04 J-16.469
N2045 X236.668 Y479.449 I-144.669 J-8.247
N2050 X236.368 Y470.639 I-145.873 J0.564
N2055 X235.545 Y462.03 I-139.862 J9.024
N2060 X234.228 Y453.797 I-129.33 J16.469
N2065 X231.677 Y443.299 I-114.076 J22.161
N2070 X227.919 Y433.17 I-73.695 J21.581
N2075 X225.654 Y428.669 I-56.719 J25.717
N2080 X222.916 Y424.439 I-32.404 J17.982
N2085 X221.658 Y422.837 I-35.726 J26.748
N2090 X220.246 Y421.369 I-10.16 J8.357
N2095 X219.754 I-0.246 J0.277
N2100 X218.342 Y422.837 I8.748 J9.825
N2105 X217.084 Y424.439 I34.468 J28.35
N2110 X212.818 Y431.535 I32.772 J24.537
N2115 X209.674 Y439.194 I74.103 J34.895
N2120 X205.572 Y454.709 I94.087 J33.173
N2125 X203.632 Y470.639 I139.232 J25.039
N2130 X203.332 Y479.449 I144.957 J9.353
N2135 X203.565 Y488.263 I145.132 J0.561
N2140 X204.324 Y496.911 I141.77 J-8.081
N2145 X205.318 Y503.724 I130.659 J-15.588
N2150 G3 X203.474 Y507.958 I-4.14 J0.715
N2155 G2 X201.762 Y512.247 I2.194 J3.362
N2160 X202.588 Y515.532 I123.423 J-29.294
N2165 X206.351 Y526.676 I86.224 J-22.913
N2170 X208.847 Y532.086 I68.092 J-28.123
N2175 X211.881 Y537.213 I42.895 J-21.928
N2180 X214.201 Y540.296 I32.697 J-22.193
N2185 X216.941 Y543.012 I15.487 J-12.886
N2190 X218.203 Y543.949 I10.783 J-13.198
N2195 X219.628 Y544.608 I2.766 J-4.107
N2200 X220.344 Y544.61 I0.36 J-1.281
N2205 X221.016 Y544.359 I-1.117 J-4.019
N2210 X223.03 Y543.057 I-3.935 J-8.295
N2215 X224.776 Y541.411 I-15.316 J-18.001
N2220 X227.744 Y537.771 I-21.137 J-20.262
N2225 X230.23 Y533.786 I-42.148 J-29.063
N2230 X234.618 Y524.262 I-57.092 J-32.077
N2235 X237.739 Y514.252 I-99.745 J-36.591
N2240 X239.529 Y506.148 I-113.194 J-29.249
N2245 X240.837 Y497.527 I-130.093 J-24.153
N2250 X241.624 Y488.559 I-143.197 J-17.084
N2255 X241.867 Y479.429 I-149.86 J-8.542
N2260 X241.555 Y470.305 I-151.071 J0.584
N2265 X240.702 Y461.373 I-145.054 J9.359
N2270 X239.331 Y452.805 I-134.498 J17.127
N2275 X236.629 Y441.719 I-118.882 J23.095
N2280 X232.653 Y431.023 I-78.509 J23.098
N2285 X230.129 Y426.022 I-61.02 J27.667
N2290 X227.077 Y421.324 I-36.706 J20.499
N2295 X224.889 Y418.689 I-27.258 J20.409
N2300 X222.321 Y416.424 I-12.055 J11.081
N2305 X221.315 Y415.771 I-8.247 J11.601
N2310 X220.192 Y415.349 I-1.758 J2.975
N2315 X219.296 Y415.472 I-0.263 J1.408
N2320 X218.498 Y415.897 I6.293 J12.783
N2325 X218.11 Y416.132 I4.452 J7.759
N2330 X215.681 Y418.106 I7.572 J11.803
N2335 X213.602 Y420.447 I22.052 J21.673
N2340 X208.89 Y427.779 I32.662 J26.168
N2345 X205.391 Y435.762 I72.483 J36.529
N2350 X200.869 Y451.667 I94.073 J35.343
N2355 X198.608 Y468.046 I141.211 J27.841
N2360 X198.16 Y477.14 I148.752 J11.884
N2365 X198.263 Y486.285 I151.094 J2.864
N2370 X198.916 Y495.31 I148.357 J-6.186
N2375 X200.097 Y504.036 I139.315 J-14.418
N2380 X201.762 Y512.247 I125.087 J-21.082
N2385 G3 X200.131 Y516.746 I-4.244 J1.007
N2390 G2 X198.659 Y521.3 I2.484 J3.318
N2395 X199.112 Y522.721 I114.464 J-35.725
N2400 X203.536 Y533.543 I76.065 J-24.783
N2405 X206.371 Y538.657 I58.245 J-28.947
N2410 X209.778 Y543.409 I35.244 J-21.665
N2415 X212.426 Y546.248 I25.738 J-21.356
N2420 X215.507 Y548.61 I12.433 J-13.028
N2425 X218.117 Y549.788 I6.102 J-10.042
N2430 X220.973 Y549.998 I1.88 J-6.042
N2435 X223.148 Y549.33 I-1.229 J-7.881
N2440 X225.124 Y548.205 I-6.328 J-13.409
N2445 X228.296 Y545.55 I-11.335 J-16.765
N2450 X231.008 Y542.429 I-26.367 J-25.649
N2455 X236.169 Y534.183 I-38.585 J-29.891
N2460 X239.996 Y525.24 I-79.023 J-39.101
N2465 X244.61 Y508.466 I-101.412 J-36.915
N2470 X246.864 Y491.214 I-147.984 J-28.11
N2475 X247.258 Y481.777 I-154.61 J-11.175
N2480 X247.078 Y472.311 I-155.902 J-1.779
N2485 X246.332 Y462.984 I-153.166 J7.557
N2490 X245.037 Y453.963 I-144.076 J16.075
N2495 X242.334 Y442.002 I-128.265 J22.707
N2500 X238.289 Y430.425 I-88.634 J24.472
N2505 X235.532 Y424.642 I-70.25 J29.938
N2510 X232.19 Y419.178 I-45.53 J24.097
N2515 X229.404 Y415.627 I-34.292 J24.029
N2520 X226.125 Y412.525 I-18.054 J15.804
N2525 X222.534 Y410.435 I-9.423 J12.057
N2530 X218.39 Y410.131 I-2.533 J6.145
N2535 X217.062 Y410.582 I2.06 J8.247
N2540 X215.809 Y411.211 I5.038 J11.593
N2545 X212.78 Y413.428 I8.449 J14.724
N2550 X210.17 Y416.125 I21.418 J23.339
N2555 X204.933 Y423.742 I32.712 J28.102
N2560 X201.014 Y432.114 I71.176 J38.421
N2565 X196.036 Y448.432 I93.765 J37.521
N2570 X193.428 Y465.292 I143.737 J30.864
N2575 X192.823 Y474.671 I151.074 J14.456
N2580 X192.787 Y484.146 I156.187 J5.326
N2585 X193.322 Y493.548 I155.183 J-4.115
N2590 X194.415 Y502.702 I147.102 J-12.911
N2595 X196.037 Y511.442 I134.274 J-20.396
N2600 X198.659 Y521.3 I117.086 J-25.867
N2605 G3 X197.352 Y525.892 I-4.16 J1.298
N2610 G2 X196.251 Y530.538 I2.674 J3.087
N2615 X197.902 Y534.289 I83.203 J-34.365
N2620 X202.403 Y542.517 I67.063 J-31.344
N2625 X208.325 Y549.79 I33.264 J-21.04
N2630 X214.087 Y554.002 I18.206 J-18.853
N2635 X221.081 Y555.426 I5.849 J-10.841
N2640 X226.315 Y553.799 I-1.231 J-13.19
N2645 X230.78 Y550.62 I-12.314 J-22.024
N2650 X234.656 Y546.53 I-22.148 J-24.874
N2655 X237.933 Y541.946 I-41.189 J-32.896
N2660 X243.204 Y531.86 I-56.319 J-35.858
N2665 X247.032 Y521.144 I-98.587 J-41.254
N2670 X249.236 Y512.607 I-114.091 J-34.019
N2675 X250.924 Y503.513 I-133.114 J-29.408
N2680 X252.057 Y494.02 I-147.83 J-22.455
N2685 X252.611 Y484.289 I-158.234 J-13.888
N2690 X252.574 Y474.487 I-161.81 J-4.291
N2695 X251.947 Y464.778 I-160.23 J5.464
N2700 X250.743 Y455.324 I-151.591 J14.506
N2705 X248.989 Y446.293 I-137.406 J22.007
N2710 X245.653 Y434.519 I-119.597 J27.527
N2715 X240.892 Y423.245 I-78.82 J26.644
N2720 X237.724 Y417.719 I-59.945 J30.691
N2725 X233.927 Y412.606 I-37.866 J24.154
N2730 X230.662 Y409.266 I-27.592 J23.703
N2735 X226.879 Y406.526 I-14.788 J16.439
N2740 X222.512 Y404.82 I-7.889 J13.748
N2745 X217.824 Y404.728 I-2.566 J11.263
N2750 X215.838 Y405.265 I2.377 J12.721
N2755 X213.948 Y406.079 I5.524 J15.426
N2760 X210.216 Y408.526 I9.14 J18.014
N2765 X206.975 Y411.594 I21.215 J25.657
N2770 X201.141 Y419.511 I32.695 J30.199
N2775 X196.743 Y428.308 I70.139 J40.562
N2780 X191.277 Y445.038 I93.088 J39.671
N2785 X188.301 Y462.385 I145.869 J33.954
N2790 X187.528 Y472.045 I153.924 J17.173
N2795 X187.343 Y481.839 I161.266 J7.956
N2800 X187.75 Y491.604 I161.411 J-1.842
N2805 X188.739 Y501.171 I155.359 J-11.229
N2810 X190.291 Y510.379 I143.287 J-19.415
N2815 X193.388 Y522.56 I126.975 J-25.798
N2820 X196.251 Y530.538 I86.067 J-26.387
N2825 G3 X195.358 Y535.258 I-4.059 J1.676
N2830 G2 X194.658 Y540.01 I2.982 J2.867
N2835 G1 X194.699 Y540.089
N2840 X195.602 Y541.746
N2845 X196.526 Y543.341
N2850 X197.47 Y544.873
N2855 X198.434 Y546.34
N2860 X199.416 Y547.742
N2865 X200.413 Y549.074
N2870 X201.427 Y550.339
N2875 X202.454 Y551.534
N2880 X203.491 Y552.659
N2885 X204.539 Y553.711
N2890 X205.595 Y554.691
N2895 X206.658 Y555.599
N2900 X207.726 Y556.434
N2905 X208.797 Y557.196
N2910 X209.871 Y557.885
N2915 X210.945 Y558.502
N2920 X212.018 Y559.047
N2925 X213.09 Y559.52
N2930 X214.16 Y559.924
N2935 X215.226 Y560.258
N2940 X216.291 Y560.524
N2945 X217.354 Y560.723
N2950 X218.412 Y560.855
N2955 X219.47 Y560.921
N2960 X220.53
N2965 X221.588 Y560.855
N2970 X222.646 Y560.723
N2975 X223.709 Y560.524
N2980 X224.774 Y560.258
N2985 X225.84 Y559.924
N2990 X226.91 Y559.52
N2995 X227.982 Y559.047
N3000 X229.055 Y558.502
N3005 X230.129 Y557.885
N3010 X231.203 Y557.196
N3015 X232.274 Y556.434
N3020 X233.342 Y555.599
N3025 X234.405 Y554.691
N3030 X235.461 Y553.711
N3035 X236.509 Y552.659
N3040 X237.546 Y551.534
N3045 X238.573 Y550.339
N3050 X239.587 Y549.074
N3055 X240.584 Y547.742
N3060 X241.566 Y546.34
N3065 X242.53 Y544.873
N3070 X243.474 Y543.341
N3075 X244.398 Y541.746
N3080 X245.301 Y540.089
N3085 X246.181 Y538.372
N3090 X247.036 Y536.597
N3095 X247.865 Y534.766
N3100 X248.669 Y532.88
N3105 X249.445 Y530.941
N3110 X250.192 Y528.952
N3115 X250.91 Y526.913
N3120 X251.599 Y524.83
N3125 X252.255 Y522.701
N3130 X252.881 Y520.529
N3135 X253.473 Y518.317
N3140 X254.033 Y516.068
N3145 X254.558 Y513.783
N3150 X255.05 Y511.464
N3155 X255.507 Y509.114
N3160 X255.928 Y506.736
N3165 X256.313 Y504.331
N3170 X256.662 Y501.903
N3175 X256.974 Y499.452
N3180 X257.249 Y496.983
N3185 X257.486 Y494.497
N3190 X257.686 Y491.997
N3195 X257.849 Y489.484
N3200 X257.973 Y486.962
N3205 X258.059 Y484.433
N3210 X258.107 Y481.901
N3215 X258.117 Y479.367
N3220 X258.088 Y476.832
N3225 X258.021 Y474.301
N3230 X257.915 Y471.776
N3235 X257.772 Y469.258
N3240 X257.591 Y466.752
N3245 X257.373 Y464.258
N3250 X257.115 Y461.781
N3255 X256.822 Y459.32
N3260 X256.491 Y456.879
N3265 X256.125 Y454.463
N3270 X255.721 Y452.071
N3275 X255.283 Y449.706
N3280 X254.809 Y447.373
N3285 X254.3 Y445.07
N3290 X253.757 Y442.803
N3295 X253.181 Y440.573
N3300 X252.572 Y438.381
N3305 X251.93 Y436.23
N3310 X251.258 Y434.123
N3315 X250.555 Y432.062
N3320 X249.821 Y430.047
N3325 X249.06 Y428.082
N3330 X248.271 Y426.171
N3335 X247.454 Y424.312
N3340 X246.611 Y422.509
N3345 X245.743 Y420.761
N3350 X244.853 Y419.074
N3355 X243.94 Y417.448
N3360 X243.005 Y415.886
N3365 X242.05 Y414.386
N3370 X241.076 Y412.951
N3375 X240.087 Y411.583
N3380 X239.081 Y410.285
N3385 X238.062 Y409.054
N3390 X237.03 Y407.895
N3395 X235.986 Y406.806
N3400 X234.934 Y405.79
N3405 X233.875 Y404.846
N3410 X232.808 Y403.974
N3415 X231.739 Y403.175
N3420 X230.667 Y402.451
N3425 X229.592 Y401.798
N3430 X228.519 Y401.217
N3435 X227.446 Y400.708
N3440 X226.375 Y400.269
N3445 X225.306 Y399.9
N3450 X224.241 Y399.6
N3455 X223.178 Y399.368
N3460 X222.118 Y399.203
N3465 X221.057 Y399.104
N3470 X220. Y399.071
N3475 X218.943 Y399.104
N3480 X217.882 Y399.203
N3485 X216.822 Y399.368
N3490 X215.759 Y399.6
N3495 X214.694 Y399.9
N3500 X213.625 Y400.269
N3505 X212.554 Y400.708
N3510 X211.481 Y401.217
N3515 X210.408 Y401.798
N3520 X209.333 Y402.451
N3525 X208.261 Y403.175
N3530 X207.192 Y403.974
N3535 X206.125 Y404.846
N3540 X205.066 Y405.79
N3545 X204.014 Y406.806
N3550 X202.97 Y407.895
N3555 X201.938 Y409.054
N3560 X200.919 Y410.285
N3565 X199.913 Y411.583
N3570 X198.924 Y412.951
N3575 X197.95 Y414.386
N3580 X196.995 Y415.886
N3585 X196.06 Y417.448
N3590 X195.147 Y419.074
N3595 X194.257 Y420.761
N3600 X193.389 Y422.509
N3605 X192.546 Y424.312
N3610 X191.729 Y426.171
N3615 X190.94 Y428.082
N3620 X190.179 Y430.047
N3625 X189.445 Y432.062
N3630 X188.742 Y434.123
N3635 X188.07 Y436.23
N3640 X187.428 Y438.381
N3645 X186.819 Y440.573
N3650 X186.243 Y442.803
N3655 X185.7 Y445.07
N3660 X185.191 Y447.373
N3665 X184.717 Y449.706
N3670 X184.279 Y452.071
N3675 X183.875 Y454.463
N3680 X183.509 Y456.879
N3685 X183.178 Y459.32
N3690 X182.885 Y461.781
N3695 X182.627 Y464.258
N3700 X182.409 Y466.752
N3705 X182.228 Y469.258
N3710 X182.085 Y471.776
N3715 X181.979 Y474.301
N3720 X181.912 Y476.832
N3725 X181.883 Y479.367
N3730 X181.893 Y481.901
N3735 X181.941 Y484.433
N3740 X182.027 Y486.962
N3745 X182.151 Y489.484
N3750 X182.314 Y491.997
N3755 X182.514 Y494.497
N3760 X182.752 Y496.983
N3765 X183.026 Y499.452
N3770 X183.338 Y501.903
N3775 X183.687 Y504.331
N3780 X184.072 Y506.736
N3785 X184.493 Y509.114
N3790 X184.95 Y511.464
N3795 X185.442 Y513.783
N3800 X185.967 Y516.068
N3805 X186.527 Y518.317
N3810 X187.119 Y520.529
N3815 X187.745 Y522.701
N3820 X188.401 Y524.83
N3825 X189.09 Y526.913
N3830 X189.808 Y528.952
N3835 X190.555 Y530.941
N3840 X191.331 Y532.88
N3845 X192.135 Y534.766
N3850 X192.964 Y536.597
N3855 X193.819 Y538.372
N3860 X194.658 Y540.01
N3865 X194.707 Y540.089 Z-1.985 F500.
N3870 X194.767 Y540.159 Z-1.971
N3875 X194.83 Y540.215 Z-1.928
N3880 X194.9 Y540.26 Z-1.885
N3885 X194.959 Y540.289 Z-1.819
N3890 X195.022 Y540.312 Z-1.753
N3895 X195.105 Y540.33 Z-1.585
N3900 X195.134 Y540.334 Z-1.4
N3905 G0 Z5.
N3910 X221.389 Y476.695
N3915 G1 Z1.1 F500.
N3920 X221.361 Y476.699 Z0.918 F333.33
N3925 X221.281 Y476.711 Z0.754
N3930 X221.156 Y476.736 Z0.622
N3935 X220.999 Y476.774 Z0.534
N3940 X220.827 Y476.828 Z0.5
N3945 G2 X222.697 Y482.212 Z0.187 I0.935 J2.692
N3950 X220.827 Y476.828 Z-0.125 I-0.935 J-2.692
N3955 X222.697 Y482.212 Z-0.438 I0.935 J2.692
N3960 X220.827 Y476.828 Z-0.751 I-0.935 J-2.692
N3965 X222.697 Y482.212 Z-1.063 I0.935 J2.692
N3970 X220.827 Y476.828 Z-1.376 I-0.935 J-2.692
N3975 X222.697 Y482.212 Z-1.689 I0.935 J2.692
N3980 X220.827 Y476.828 Z-2.001 I-0.935 J-2.692
N3985 X222.697 Y482.212 Z-2.314 I0.935 J2.692
N3990 X220.827 Y476.828 Z-2.627 I-0.935 J-2.692
N3995 X222.697 Y482.212 Z-2.939 I0.935 J2.692
N4000 X220.827 Y476.828 Z-3.252 I-0.935 J-2.692
N4005 X222.697 Y482.212 Z-3.565 I0.935 J2.692
N4010 X220.827 Y476.828 Z-3.877 I-0.935 J-2.692
N4015 X218.912 Y479.51 Z-4. I0.935 J2.692
N4020 X218.92 Y481.479 I129.006 J0.464 F600.
N4025 X219.196 Y488.864 I142.303 J-1.624
N4030 X219.897 Y496.221 I116.6 J-7.396
N4035 G1 X219.908 Y496.257
N4040 X219.931 Y496.286
N4045 X219.963 Y496.305
N4050 X220. Y496.312
N4055 X220.037 Y496.305
N4060 X220.069 Y496.286
N4065 X220.092 Y496.257
N4070 X220.103 Y496.221
N4075 G2 X220.314 Y465.887 I-126.055 J-16.046
N4080 G3 X220.215 Y464.829 I29.697 J-3.313
N4085 G2 X220.104 Y463.772 I-17.946 J1.358
N4090 G1 X220.092 Y463.737
N4095 X220.069 Y463.708
N4100 X220.037 Y463.688
N4105 X220. Y463.682
N4110 X219.963 Y463.688
N4115 X219.931 Y463.708
N4120 X219.908 Y463.737
N4125 X219.896 Y463.772
N4130 G2 X219.568 Y466.733 I61.133 J8.278
N4135 X219.321 Y469.701 I449.754 J38.918
N4140 X218.912 Y479.51 I128.597 J10.273
N4145 G3 X217.307 Y481.917 I-2.621 J-0.009
N4150 G2 X215.746 Y484.352 I0.989 J2.352
N4155 X216.019 Y489.561 I133.007 J-4.355
N4160 X217.395 Y501.12 I125.231 J-9.052
N4165 X218.478 Y506.763 I125.869 J-21.214
N4170 X219.879 Y512.336 I81.961 J-17.64
N4175 G1 X219.896 Y512.373
N4180 X219.924 Y512.402
N4185 X219.96 Y512.421
N4190 X220. Y512.428
N4195 X220.04 Y512.421
N4200 X220.076 Y512.402
N4205 X220.104 Y512.373
N4210 X220.121 Y512.336
N4215 G2 X222.474 Y502.029 I-90.541 J-26.089
N4220 X223.823 Y491.542 I-129.14 J-21.939
N4225 X224.278 Y483.537 I-130.033 J-11.413
N4230 X224.248 Y475.453 I-133.451 J-3.539
N4235 X223.3 Y463.589 I-130.348 J4.445
N4240 X221.368 Y452.65 I-114.518 J14.583
N4245 X220.788 Y450.179 I-276.362 J63.608
N4250 X220.14 Y447.725 I-54.441 J13.045
N4255 G1 X220.132 Y447.691
N4260 X220.123 Y447.658
N4265 X220.105 Y447.621
N4270 X220.076 Y447.591
N4275 X220.04 Y447.573
N4280 X220. Y447.566
N4285 X219.96 Y447.573
N4290 X219.924 Y447.591
N4295 X219.895 Y447.621
N4300 X219.877 Y447.658
N4305 G2 X219.438 Y449.305 I28.232 J8.416
N4310 G3 X219.036 Y450.962 I-137.956 J-32.567
N4315 G2 X216.959 Y461.68 I101.103 J25.155
N4320 X215.837 Y473.442 I123.363 J17.705
N4325 X215.683 Y481.516 I132.945 J6.559
N4330 X215.746 Y484.352 I133.07 J-1.518
N4335 G3 X214.022 Y487.156 I-2.983 J0.098
N4340 G2 X212.355 Y489.994 I1.221 J2.626
N4345 X212.505 Y491.865 I135.594 J-9.963
N4350 X214.094 Y503.618 I126.139 J-11.071
N4355 X216.333 Y513.303 I112.007 J-20.796
N4360 X219.671 Y522.666 I66.96 J-18.593
N4365 G1 X219.764 Y522.89
N4370 X219.857 Y523.114
N4375 G2 X220.143 I0.143 J-0.065
N4380 X222.214 Y517.861 I-51.641 J-23.394
N4385 X223.874 Y512.464 I-98.047 J-33.116
N4390 X226.24 Y501.733 I-97.744 J-27.174
N4395 X227.658 Y489.826 I-122.166 J-20.59
N4400 X228.003 Y481.558 I-135.405 J-9.787
N4405 X227.845 Y473.26 I-136.656 J-1.559
N4410 X227.195 Y465.119 I-133.923 J6.607
N4415 X225.357 Y453.619 I-122.365 J13.652
N4420 X223.179 Y445.115 I-102.715 J21.783
N4425 X220.141 Y436.878 I-69.266 J20.867
N4430 X219.859 I-0.141 J0.062
N4435 X216.549 Y446.008 I67.197 J29.529
N4440 X214.271 Y455.448 I103.962 J30.079
N4445 X212.597 Y467.126 I117.061 J22.741
N4450 X212.068 Y475.327 I131.933 J12.624
N4455 X212.037 Y483.635 I136.959 J4.671
N4460 X212.355 Y489.994 I135.911 J-3.604
N4465 G3 X210.57 Y493.181 I-3.304 J0.243
N4470 G2 X208.86 Y496.408 I1.469 J2.846
N4475 X209.722 Y502.413 I129.355 J-15.515
N4480 X211.97 Y512.841 I115.915 J-19.536
N4485 X215.373 Y522.95 I77.071 J-20.316
N4490 X217.395 Y527.388 I63.173 J-26.091
N4495 X219.828 Y531.615 I36.827 J-18.385
N4500 X220.172 I0.172 J-0.113
N4505 X223.997 Y524.494 I-38.124 J-25.064
N4510 X226.819 Y516.92 I-78.08 J-33.399
N4515 X230.44 Y501.572 I-97.322 J-31.066
N4520 X231.984 Y485.878 I-138.209 J-21.521
N4525 X232.081 Y477.325 I-140.744 J-5.869
N4530 X231.662 Y468.823 I-140.722 J2.667
N4535 X230.744 Y460.574 I-132.711 J10.602
N4540 X228.515 Y449.083 I-118.261 J16.973
N4545 X225.823 Y440.092 I-96.635 J24.043
N4550 X222.009 Y431.516 I-55.196 J19.409
N4555 X221.13 Y429.932 I-103.77 J56.519
N4560 X220.175 Y428.392 I-19.225 J10.856
N4565 X219.825 I-0.175 J0.119
N4570 X218.224 Y431.041 I24.334 J16.511
N4575 X216.823 Y433.801 I65.322 J34.914
N4580 X213.16 Y443.099 I61.058 J29.423
N4585 X210.637 Y452.769 I103.208 J32.093
N4590 X209.256 Y460.574 I114.294 J24.239
N4595 X208.338 Y468.823 I129.806 J18.629
N4600 X207.919 Y477.325 I139.031 J11.107
N4605 X208.016 Y485.878 I141.325 J2.679
N4610 X208.625 Y494.305 I138.6 J-5.779
N4615 X208.86 Y496.408 I129.59 J-13.412
N4620 G3 X207.042 Y500.043 I-3.664 J0.439
N4625 G2 X205.318 Y503.724 I1.777 J3.076
N4630 X205.582 Y505.199 I129.665 J-22.401
N4635 X208.073 Y515.846 I116.25 J-21.583
N4640 X211.772 Y526.137 I76.342 J-21.63
N4645 X214.04 Y530.782 I58.722 J-25.803
N4650 X216.79 Y535.161 I34.462 J-18.587
N4655 X218.183 Y536.965 I29.944 J-21.685
N4660 X219.746 Y538.625 I13.144 J-10.814
N4665 X220.254 I0.254 J-0.273
N4670 X222.514 Y536.122 I-13.062 J-14.068
N4675 X224.436 Y533.353 I-33.791 J-25.508
N4680 X228.651 Y525.214 I-43.417 J-27.643
N4685 X231.7 Y516.572 I-85.794 J-35.133
N4690 X234.418 Y505.199 I-101.591 J-30.291
N4695 X235.676 Y496.911 I-124.993 J-23.207
N4700 X236.435 Y488.263 I-138.04 J-16.469
N4705 X236.668 Y479.449 I-144.669 J-8.247
N4710 X236.368 Y470.639 I-145.873 J0.564
N4715 X235.545 Y462.03 I-139.862 J9.024
N4720 X234.228 Y453.797 I-129.33 J16.469
N4725 X231.677 Y443.299 I-114.076 J22.161
N4730 X227.919 Y433.17 I-73.695 J21.581
N4735 X225.654 Y428.669 I-56.719 J25.717
N4740 X222.916 Y424.439 I-32.404 J17.982
N4745 X221.658 Y422.837 I-35.726 J26.748
N4750 X220.246 Y421.369 I-10.16 J8.357
N4755 X219.754 I-0.246 J0.277
N4760 X218.342 Y422.837 I8.748 J9.825
N4765 X217.084 Y424.439 I34.468 J28.35
N4770 X212.818 Y431.535 I32.772 J24.537
N4775 X209.674 Y439.194 I74.103 J34.895
N4780 X205.572 Y454.709 I94.087 J33.173
N4785 X203.632 Y470.639 I139.232 J25.039
N4790 X203.332 Y479.449 I144.957 J9.353
N4795 X203.565 Y488.263 I145.132 J0.561
N4800 X204.324 Y496.911 I141.77 J-8.081
N4805 X205.318 Y503.724 I130.659 J-15.588
N4810 G3 X203.474 Y507.958 I-4.14 J0.715
N4815 G2 X201.762 Y512.247 I2.194 J3.362
N4820 X202.588 Y515.532 I123.423 J-29.294
N4825 X206.351 Y526.676 I86.224 J-22.913
N4830 X208.847 Y532.086 I68.092 J-28.123
N4835 X211.881 Y537.213 I42.895 J-21.928
N4840 X214.201 Y540.296 I32.697 J-22.193
N4845 X216.941 Y543.012 I15.487 J-12.886
N4850 X218.203 Y543.949 I10.783 J-13.198
N4855 X219.628 Y544.608 I2.766 J-4.107
N4860 X220.344 Y544.61 I0.36 J-1.281
N4865 X221.016 Y544.359 I-1.117 J-4.019
N4870 X223.03 Y543.057 I-3.935 J-8.295
N4875 X224.776 Y541.411 I-15.316 J-18.001
N4880 X227.744 Y537.771 I-21.137 J-20.262
N4885 X230.23 Y533.786 I-42.148 J-29.063
N4890 X234.618 Y524.262 I-57.092 J-32.077
N4895 X237.739 Y514.252 I-99.745 J-36.591
N4900 X239.529 Y506.148 I-113.194 J-29.249
N4905 X240.837 Y497.527 I-130.093 J-24.153
N4910 X241.624 Y488.559 I-143.197 J-17.084
N4915 X241.867 Y479.429 I-149.86 J-8.542
N4920 X241.555 Y470.305 I-151.071 J0.584
N4925 X240.702 Y461.373 I-145.054 J9.359
N4930 X239.331 Y452.805 I-134.498 J17.127
N4935 X236.629 Y441.719 I-118.882 J23.095
N4940 X232.653 Y431.023 I-78.509 J23.098
N4945 X230.129 Y426.022 I-61.02 J27.667
N4950 X227.077 Y421.324 I-36.706 J20.499
N4955 X224.889 Y418.689 I-27.258 J20.409
N4960 X222.321 Y416.424 I-12.055 J11.081
N4965 X221.315 Y415.771 I-8.247 J11.601
N4970 X220.192 Y415.349 I-1.758 J2.975
N4975 X219.296 Y415.472 I-0.263 J1.408
N4980 X218.498 Y415.897 I6.293 J12.783
N4985 X218.11 Y416.132 I4.452 J7.759
N4990 X215.681 Y418.106 I7.572 J11.803
N4995 X213.602 Y420.447 I22.052 J21.673
N5000 X208.89 Y427.779 I32.662 J26.168
N5005 X205.391 Y435.762 I72.483 J36.529
N5010 X200.869 Y451.667 I94.073 J35.343
N5015 X198.608 Y468.046 I141.211 J27.841
N5020 X198.16 Y477.14 I148.752 J11.884
N5025 X198.263 Y486.285 I151.094 J2.864
N5030 X198.916 Y495.31 I148.357 J-6.186
N5035 X200.097 Y504.036 I139.315 J-14.418
N5040 X201.762 Y512.247 I125.087 J-21.082
N5045 G3 X200.131 Y516.746 I-4.244 J1.007
N5050 G2 X198.659 Y521.3 I2.484 J3.318
N5055 X199.112 Y522.721 I114.464 J-35.725
N5060 X203.536 Y533.543 I76.065 J-24.783
N5065 X206.371 Y538.657 I58.245 J-28.947
N5070 X209.778 Y543.409 I35.244 J-21.665
N5075 X212.426 Y546.248 I25.738 J-21.356
N5080 X215.507 Y548.61 I12.433 J-13.028
N5085 X218.117 Y549.788 I6.102 J-10.042
N5090 X220.973 Y549.998 I1.88 J-6.042
N5095 X223.148 Y549.33 I-1.229 J-7.881
N5100 X225.124 Y548.205 I-6.328 J-13.409
N5105 X228.296 Y545.55 I-11.335 J-16.765
N5110 X231.008 Y542.429 I-26.367 J-25.649
N5115 X236.169 Y534.183 I-38.585 J-29.891
N5120 X239.996 Y525.24 I-79.023 J-39.101
N5125 X244.61 Y508.466 I-101.412 J-36.915
N5130 X246.864 Y491.214 I-147.984 J-28.11
N5135 X247.258 Y481.777 I-154.61 J-11.175
N5140 X247.078 Y472.311 I-155.902 J-1.779
N5145 X246.332 Y462.984 I-153.166 J7.557
N5150 X245.037 Y453.963 I-144.076 J16.075
N5155 X242.334 Y442.002 I-128.265 J22.707
N5160 X238.289 Y430.425 I-88.634 J24.472
N5165 X235.532 Y424.642 I-70.25 J29.938
N5170 X232.19 Y419.178 I-45.53 J24.097
N5175 X229.404 Y415.627 I-34.292 J24.029
N5180 X226.125 Y412.525 I-18.054 J15.804
N5185 X222.534 Y410.435 I-9.423 J12.057
N5190 X218.39 Y410.131 I-2.533 J6.145
N5195 X217.062 Y410.582 I2.06 J8.247
N5200 X215.809 Y411.211 I5.038 J11.593
N5205 X212.78 Y413.428 I8.449 J14.724
N5210 X210.17 Y416.125 I21.418 J23.339
N5215 X204.933 Y423.742 I32.712 J28.102
N5220 X201.014 Y432.114 I71.176 J38.421
N5225 X196.036 Y448.432 I93.765 J37.521
N5230 X193.428 Y465.292 I143.737 J30.864
N5235 X192.823 Y474.671 I151.074 J14.456
N5240 X192.787 Y484.146 I156.187 J5.326
N5245 X193.322 Y493.548 I155.183 J-4.115
N5250 X194.415 Y502.702 I147.102 J-12.911
N5255 X196.037 Y511.442 I134.274 J-20.396
N5260 X198.659 Y521.3 I117.086 J-25.867
N5265 G3 X197.352 Y525.892 I-4.16 J1.298
N5270 G2 X196.251 Y530.538 I2.674 J3.087
N5275 X197.902 Y534.289 I83.203 J-34.365
N5280 X202.403 Y542.517 I67.063 J-31.344
N5285 X208.325 Y549.79 I33.264 J-21.04
N5290 X214.087 Y554.002 I18.206 J-18.853
N5295 X221.081 Y555.426 I5.849 J-10.841
N5300 X226.315 Y553.799 I-1.231 J-13.19
N5305 X230.78 Y550.62 I-12.314 J-22.024
N5310 X234.656 Y546.53 I-22.148 J-24.874
N5315 X237.933 Y541.946 I-41.189 J-32.896
N5320 X243.204 Y531.86 I-56.319 J-35.858
N5325 X247.032 Y521.144 I-98.587 J-41.254
N5330 X249.236 Y512.607 I-114.091 J-34.019
N5335 X250.924 Y503.513 I-133.114 J-29.408
N5340 X252.057 Y494.02 I-147.83 J-22.455
N5345 X252.611 Y484.289 I-158.234 J-13.888
N5350 X252.574 Y474.487 I-161.81 J-4.291
N5355 X251.947 Y464.778 I-160.23 J5.464
N5360 X250.743 Y455.324 I-151.591 J14.506
N5365 X248.989 Y446.293 I-137.406 J22.007
N5370 X245.653 Y434.519 I-119.597 J27.527
N5375 X240.892 Y423.245 I-78.82 J26.644
N5380 X237.724 Y417.719 I-59.945 J30.691
N5385 X233.927 Y412.606 I-37.866 J24.154
N5390 X230.662 Y409.266 I-27.592 J23.703
N5395 X226.879 Y406.526 I-14.788 J16.439
N5400 X222.512 Y404.82 I-7.889 J13.748
N5405 X217.824 Y404.728 I-2.566 J11.263
N5410 X215.838 Y405.265 I2.377 J12.721
N5415 X213.948 Y406.079 I5.524 J15.426
N5420 X210.216 Y408.526 I9.14 J18.014
N5425 X206.975 Y411.594 I21.215 J25.657
N5430 X201.141 Y419.511 I32.695 J30.199
N5435 X196.743 Y428.308 I70.139 J40.562
N5440 X191.277 Y445.038 I93.088 J39.671
N5445 X188.301 Y462.385 I145.869 J33.954
N5450 X187.528 Y472.045 I153.924 J17.173
N5455 X187.343 Y481.839 I161.266 J7.956
N5460 X187.75 Y491.604 I161.411 J-1.842
N5465 X188.739 Y501.171 I155.359 J-11.229
N5470 X190.291 Y510.379 I143.287 J-19.415
N5475 X193.388 Y522.56 I126.975 J-25.798
N5480 X196.251 Y530.538 I86.067 J-26.387
N5485 G3 X195.358 Y535.258 I-4.059 J1.676
N5490 G2 X194.658 Y540.01 I2.982 J2.867
N5495 G1 X194.699 Y540.089
N5500 X195.602 Y541.746
N5505 X196.526 Y543.341
N5510 X197.47 Y544.873
N5515 X198.434 Y546.34
N5520 X199.416 Y547.742
N5525 X200.413 Y549.074
N5530 X201.427 Y550.339
N5535 X202.454 Y551.534
N5540 X203.491 Y552.659
N5545 X204.539 Y553.711
N5550 X205.595 Y554.691
N5555 X206.658 Y555.599
N5560 X207.726 Y556.434
N5565 X208.797 Y557.196
N5570 X209.871 Y557.885
N5575 X210.945 Y558.502
N5580 X212.018 Y559.047
N5585 X213.09 Y559.52
N5590 X214.16 Y559.924
N5595 X215.226 Y560.258
N5600 X216.291 Y560.524
N5605 X217.354 Y560.723
N5610 X218.412 Y560.855
N5615 X219.47 Y560.921
N5620 X220.53
N5625 X221.588 Y560.855
N5630 X222.646 Y560.723
N5635 X223.709 Y560.524
N5640 X224.774 Y560.258
N5645 X225.84 Y559.924
N5650 X226.91 Y559.52
N5655 X227.982 Y559.047
N5660 X229.055 Y558.502
N5665 X230.129 Y557.885
N5670 X231.203 Y557.196
N5675 X232.274 Y556.434
N5680 X233.342 Y555.599
N5685 X234.405 Y554.691
N5690 X235.461 Y553.711
N5695 X236.509 Y552.659
N5700 X237.546 Y551.534
N5705 X238.573 Y550.339
N5710 X239.587 Y549.074
N5715 X240.584 Y547.742
N5720 X241.566 Y546.34
N5725 X242.53 Y544.873
N5730 X243.474 Y543.341
N5735 X244.398 Y541.746
N5740 X245.301 Y540.089
N5745 X246.181 Y538.372
N5750 X247.036 Y536.597
N5755 X247.865 Y534.766
N5760 X248.669 Y532.88
N5765 X249.445 Y530.941
N5770 X250.192 Y528.952
N5775 X250.91 Y526.913
N5780 X251.599 Y524.83
N5785 X252.255 Y522.701
N5790 X252.881 Y520.529
N5795 X253.473 Y518.317
N5800 X254.033 Y516.068
N5805 X254.558 Y513.783
N5810 X255.05 Y511.464
N5815 X255.507 Y509.114
N5820 X255.928 Y506.736
N5825 X256.313 Y504.331
N5830 X256.662 Y501.903
N5835 X256.974 Y499.452
N5840 X257.249 Y496.983
N5845 X257.486 Y494.497
N5850 X257.686 Y491.997
N5855 X257.849 Y489.484
N5860 X257.973 Y486.962
N5865 X258.059 Y484.433
N5870 X258.107 Y481.901
N5875 X258.117 Y479.367
N5880 X258.088 Y476.832
N5885 X258.021 Y474.301
N5890 X257.915 Y471.776
N5895 X257.772 Y469.258
N5900 X257.591 Y466.752
N5905 X257.373 Y464.258
N5910 X257.115 Y461.781
N5915 X256.822 Y459.32
N5920 X256.491 Y456.879
N5925 X256.125 Y454.463
N5930 X255.721 Y452.071
N5935 X255.283 Y449.706
N5940 X254.809 Y447.373
N5945 X254.3 Y445.07
N5950 X253.757 Y442.803
N5955 X253.181 Y440.573
N5960 X252.572 Y438.381
N5965 X251.93 Y436.23
N5970 X251.258 Y434.123
N5975 X250.555 Y432.062
N5980 X249.821 Y430.047
N5985 X249.06 Y428.082
N5990 X248.271 Y426.171
N5995 X247.454 Y424.312
N6000 X246.611 Y422.509
N6005 X245.743 Y420.761
N6010 X244.853 Y419.074
N6015 X243.94 Y417.448
N6020 X243.005 Y415.886
N6025 X242.05 Y414.386
N6030 X241.076 Y412.951
N6035 X240.087 Y411.583
N6040 X239.081 Y410.285
N6045 X238.062 Y409.054
N6050 X237.03 Y407.895
N6055 X235.986 Y406.806
N6060 X234.934 Y405.79
N6065 X233.875 Y404.846
N6070 X232.808 Y403.974
N6075 X231.739 Y403.175
N6080 X230.667 Y402.451
N6085 X229.592 Y401.798
N6090 X228.519 Y401.217
N6095 X227.446 Y400.708
N6100 X226.375 Y400.269
N6105 X225.306 Y399.9
N6110 X224.241 Y399.6
N6115 X223.178 Y399.368
N6120 X222.118 Y399.203
N6125 X221.057 Y399.104
N6130 X220. Y399.071
N6135 X218.943 Y399.104
N6140 X217.882 Y399.203
N6145 X216.822 Y399.368
N6150 X215.759 Y399.6
N6155 X214.694 Y399.9
N6160 X213.625 Y400.269
N6165 X212.554 Y400.708
N6170 X211.481 Y401.217
N6175 X210.408 Y401.798
N6180 X209.333 Y402.451
N6185 X208.261 Y403.175
N6190 X207.192 Y403.974
N6195 X206.125 Y404.846
N6200 X205.066 Y405.79
N6205 X204.014 Y406.806
N6210 X202.97 Y407.895
N6215 X201.938 Y409.054
N6220 X200.919 Y410.285
N6225 X199.913 Y411.583
N6230 X198.924 Y412.951
N6235 X197.95 Y414.386
N6240 X196.995 Y415.886
N6245 X196.06 Y417.448
N6250 X195.147 Y419.074
N6255 X194.257 Y420.761
N6260 X193.389 Y422.509
N6265 X192.546 Y424.312
N6270 X191.729 Y426.171
N6275 X190.94 Y428.082
N6280 X190.179 Y430.047
N6285 X189.445 Y432.062
N6290 X188.742 Y434.123
N6295 X188.07 Y436.23
N6300 X187.428 Y438.381
N6305 X186.819 Y440.573
N6310 X186.243 Y442.803
N6315 X185.7 Y445.07
N6320 X185.191 Y447.373
N6325 X184.717 Y449.706
N6330 X184.279 Y452.071
N6335 X183.875 Y454.463
N6340 X183.509 Y456.879
N6345 X183.178 Y459.32
N6350 X182.885 Y461.781
N6355 X182.627 Y464.258
N6360 X182.409 Y466.752
N6365 X182.228 Y469.258
N6370 X182.085 Y471.776
N6375 X181.979 Y474.301
N6380 X181.912 Y476.832
N6385 X181.883 Y479.367
N6390 X181.893 Y481.901
N6395 X181.941 Y484.433
N6400 X182.027 Y486.962
N6405 X182.151 Y489.484
N6410 X182.314 Y491.997
N6415 X182.514 Y494.497
N6420 X182.752 Y496.983
N6425 X183.026 Y499.452
N6430 X183.338 Y501.903
N6435 X183.687 Y504.331
N6440 X184.072 Y506.736
N6445 X184.493 Y509.114
N6450 X184.95 Y511.464
N6455 X185.442 Y513.783
N6460 X185.967 Y516.068
N6465 X186.527 Y518.317
N6470 X187.119 Y520.529
N6475 X187.745 Y522.701
N6480 X188.401 Y524.83
N6485 X189.09 Y526.913
N6490 X189.808 Y528.952
N6495 X190.555 Y530.941
N6500 X191.331 Y532.88
N6505 X192.135 Y534.766
N6510 X192.964 Y536.597
N6515 X193.819 Y538.372
N6520 X194.658 Y540.01
N6525 X194.707 Y540.089 Z-3.985 F500.
N6530 X194.767 Y540.159 Z-3.971
N6535 X194.83 Y540.215 Z-3.928
N6540 X194.9 Y540.26 Z-3.885
N6545 X194.959 Y540.289 Z-3.819
N6550 X195.022 Y540.312 Z-3.753
N6555 X195.105 Y540.33 Z-3.585
N6560 X195.134 Y540.334 Z-3.4
N6565 G0 Z15.
(2D CONTOUR2)
N6570 G0 X265.2 Y320.6
N6575 Z15.
N6580 Z5.
N6585 G1 Z2. F333.33
N6590 Z-0.4
N6595 G18 G2 X265.8 Z-1. I0.6 K0.
N6600 G1 X266.4 F500.
N6605 G17 G2 X267. Y320. I0. J-0.6
N6610 X173. I-47. J0. F600.
N6615 X220. Y367. I47. J0.
N6620 X267. Y320. I0. J-47.
N6625 X266.4 Y319.4 I-0.6 J0. F500.
N6630 G1 X265.8
N6635 G18 G3 X265.2 Z-0.4 I0. K0.6
N6640 G0 Z5.
N6645 Y320.6
N6650 G1 Z1. F333.33
N6655 Z-1.4
N6660 G2 X265.8 Z-2. I0.6 K0.
N6665 G1 X266.4 F500.
N6670 G17 G2 X267. Y320. I0. J-0.6
N6675 X173. I-47. J0. F600.
N6680 X220. Y367. I47. J0.
N6685 X267. Y320. I0. J-47.
N6690 X266.4 Y319.4 I-0.6 J0. F500.
N6695 G1 X265.8
N6700 G18 G3 X265.2 Z-1.4 I0. K0.6
N6705 G0 Z5.
N6710 Y320.6
N6715 G1 Z0. F333.33
N6720 Z-2.4
N6725 G2 X265.8 Z-3. I0.6 K0.
N6730 G1 X266.4 F500.
N6735 G17 G2 X267. Y320. I0. J-0.6
N6740 X173. I-47. J0. F600.
N6745 X220. Y367. I47. J0.
N6750 X267. Y320. I0. J-47.
N6755 X266.4 Y319.4 I-0.6 J0. F500.
N6760 G1 X265.8
N6765 G18 G3 X265.2 Z-2.4 I0. K0.6
N6770 G0 Z5.
N6775 Y320.6
N6780 G1 Z-1. F333.33
N6785 Z-3.4
N6790 G2 X265.8 Z-4. I0.6 K0.
N6795 G1 X266.4 F500.
N6800 G17 G2 X267. Y320. I0. J-0.6
N6805 X173. I-47. J0. F600.
N6810 X220. Y367. I47. J0.
N6815 X267. Y320. I0. J-47.
N6820 X266.4 Y319.4 I-0.6 J0. F500.
N6825 G1 X265.8
N6830 G18 G3 X265.2 Z-3.4 I0. K0.6
N6835 G0 Z5.
N6840 X256.813 Y480.256
N6845 G1 Z2. F333.33
N6850 Z-0.4
N6855 X256.821 Z-0.494
N6860 X256.843 Z-0.585
N6865 X256.879 Z-0.672
N6870 X256.928 Y480.257 Z-0.753
N6875 X256.989 Z-0.824
N6880 X257.061 Z-0.885
N6885 X257.141 Z-0.935
N6890 X257.228 Y480.258 Z-0.971
N6895 X257.32 Z-0.993
N6900 X257.413 Z-1.
N6905 X258.013 Y480.261 F500.
N6910 G17 G2 X258.616 Y479.663 I0.002 J-0.6
N6915 G1 X258.617 Y479.365 F600.
N6920 X258.587 Y476.823
N6925 X258.521 Y474.284
N6930 X258.415 Y471.752
N6935 X258.271 Y469.226
N6940 X258.089 Y466.712
N6945 X257.871 Y464.211
N6950 X257.612 Y461.726
N6955 X257.318 Y459.257
N6960 X256.986 Y456.808
N6965 X256.619 Y454.383
N6970 X256.214 Y451.984
N6975 X255.774 Y449.611
N6980 X255.298 Y447.269
N6985 X254.787 Y444.958
N6990 X254.243 Y442.682
N6995 X253.664 Y440.443
N7000 X253.052 Y438.243
N7005 X252.408 Y436.083
N7010 X251.733 Y433.966
N7015 X251.027 Y431.896
N7020 X250.29 Y429.871
N7025 X249.525 Y427.897
N7030 X248.731 Y425.975
N7035 X247.91 Y424.106
N7040 X247.061 Y422.291
N7045 X246.188 Y420.533
N7050 X245.292 Y418.835
N7055 X244.372 Y417.198
N7060 X243.431 Y415.623
N7065 X242.468 Y414.111
N7070 X241.486 Y412.664
N7075 X240.487 Y411.283
N7080 X239.471 Y409.972
N7085 X238.441 Y408.728
N7090 X237.397 Y407.556
N7095 X236.341 Y406.453
N7100 X235.274 Y405.423
N7105 X234.199 Y404.466
N7110 X233.116 Y403.58
N7115 X232.028 Y402.768
N7120 X230.937 Y402.03
N7125 X229.841 Y401.364
N7130 X228.745 Y400.771
N7135 X227.648 Y400.25
N7140 X226.551 Y399.801
N7145 X225.456 Y399.423
N7150 X224.363 Y399.115
N7155 X223.27 Y398.876
N7160 X222.179 Y398.706
N7165 X221.088 Y398.605
N7170 X220. Y398.57
N7175 X218.912 Y398.605
N7180 X217.821 Y398.706
N7185 X216.73 Y398.876
N7190 X215.637 Y399.115
N7195 X214.544 Y399.423
N7200 X213.449 Y399.801
N7205 X212.352 Y400.25
N7210 X211.255 Y400.771
N7215 X210.159 Y401.364
N7220 X209.063 Y402.03
N7225 X207.972 Y402.768
N7230 X206.884 Y403.58
N7235 X205.801 Y404.466
N7240 X204.726 Y405.423
N7245 X203.659 Y406.453
N7250 X202.603 Y407.556
N7255 X201.559 Y408.728
N7260 X200.529 Y409.972
N7265 X199.513 Y411.283
N7270 X198.514 Y412.664
N7275 X197.532 Y414.111
N7280 X196.569 Y415.623
N7285 X195.628 Y417.198
N7290 X194.708 Y418.835
N7295 X193.812 Y420.533
N7300 X192.939 Y422.291
N7305 X192.09 Y424.106
N7310 X191.269 Y425.975
N7315 X190.475 Y427.897
N7320 X189.71 Y429.871
N7325 X188.973 Y431.896
N7330 X188.267 Y433.966
N7335 X187.592 Y436.083
N7340 X186.948 Y438.243
N7345 X186.336 Y440.443
N7350 X185.757 Y442.682
N7355 X185.213 Y444.958
N7360 X184.702 Y447.269
N7365 X184.226 Y449.611
N7370 X183.786 Y451.984
N7375 X183.381 Y454.383
N7380 X183.014 Y456.808
N7385 X182.682 Y459.257
N7390 X182.388 Y461.726
N7395 X182.129 Y464.211
N7400 X181.911 Y466.712
N7405 X181.729 Y469.226
N7410 X181.585 Y471.752
N7415 X181.479 Y474.284
N7420 X181.413 Y476.823
N7425 X181.383 Y479.365
N7430 X181.393 Y481.907
N7435 X181.441 Y484.446
N7440 X181.527 Y486.983
N7445 X181.652 Y489.512
N7450 X181.815 Y492.033
N7455 X182.016 Y494.541
N7460 X182.254 Y497.034
N7465 X182.53 Y499.512
N7470 X182.843 Y501.97
N7475 X183.193 Y504.406
N7480 X183.579 Y506.819
N7485 X184.002 Y509.205
N7490 X184.46 Y511.564
N7495 X184.953 Y513.891
N7500 X185.481 Y516.185
N7505 X186.043 Y518.442
N7510 X186.638 Y520.662
N7515 X187.266 Y522.844
N7520 X187.925 Y524.982
N7525 X188.616 Y527.075
N7530 X189.338 Y529.123
N7535 X190.089 Y531.122
N7540 X190.869 Y533.071
N7545 X191.677 Y534.967
N7550 X192.511 Y536.809
N7555 X193.372 Y538.595
N7560 X194.257 Y540.322
N7565 X195.166 Y541.991
N7570 X196.096 Y543.598
N7575 X197.048 Y545.142
N7580 X198.021 Y546.621
N7585 X199.011 Y548.035
N7590 X200.018 Y549.38
N7595 X201.042 Y550.658
N7600 X202.08 Y551.867
N7605 X203.13 Y553.005
N7610 X204.191 Y554.071
N7615 X205.262 Y555.065
N7620 X206.341 Y555.986
N7625 X207.427 Y556.835
N7630 X208.517 Y557.61
N7635 X209.611 Y558.312
N7640 X210.707 Y558.942
N7645 X211.803 Y559.499
N7650 X212.9 Y559.983
N7655 X213.997 Y560.397
N7660 X215.091 Y560.74
N7665 X216.184 Y561.013
N7670 X217.277 Y561.217
N7675 X218.366 Y561.354
N7680 X219.455 Y561.421
N7685 X220.545
N7690 X221.634 Y561.354
N7695 X222.723 Y561.217
N7700 X223.816 Y561.013
N7705 X224.909 Y560.74
N7710 X226.003 Y560.397
N7715 X227.1 Y559.983
N7720 X228.197 Y559.499
N7725 X229.293 Y558.942
N7730 X230.389 Y558.312
N7735 X231.483 Y557.61
N7740 X232.573 Y556.835
N7745 X233.659 Y555.986
N7750 X234.738 Y555.065
N7755 X235.809 Y554.071
N7760 X236.87 Y553.005
N7765 X237.92 Y551.867
N7770 X238.958 Y550.658
N7775 X239.982 Y549.38
N7780 X240.989 Y548.035
N7785 X241.979 Y546.621
N7790 X242.952 Y545.142
N7795 X243.904 Y543.598
N7800 X244.834 Y541.991
N7805 X245.743 Y540.322
N7810 X246.628 Y538.595
N7815 X247.489 Y536.809
N7820 X248.323 Y534.967
N7825 X249.131 Y533.071
N7830 X249.911 Y531.122
N7835 X250.662 Y529.123
N7840 X251.384 Y527.075
N7845 X252.075 Y524.982
N7850 X252.734 Y522.844
N7855 X253.362 Y520.662
N7860 X253.957 Y518.442
N7865 X254.519 Y516.185
N7870 X255.047 Y513.891
N7875 X255.54 Y511.564
N7880 X255.998 Y509.205
N7885 X256.421 Y506.819
N7890 X256.807 Y504.406
N7895 X257.157 Y501.97
N7900 X257.47 Y499.512
N7905 X257.746 Y497.034
N7910 X257.984 Y494.541
N7915 X258.185 Y492.033
N7920 X258.348 Y489.512
N7925 X258.473 Y486.983
N7930 X258.559 Y484.446
N7935 X258.607 Y481.907
N7940 X258.616 Y479.663
N7945 G2 X258.018 Y479.061 I-0.6 J-0.002 F500.
N7950 G1 X257.418 Y479.058
N7955 X257.324 Z-0.993
N7960 X257.233 Z-0.971
N7965 X257.146 Y479.057 Z-0.935
N7970 X257.065 Z-0.885
N7975 X256.994 Z-0.824
N7980 X256.933 Z-0.753
N7985 X256.884 Y479.056 Z-0.672
N7990 X256.847 Z-0.585
N7995 X256.826 Z-0.494
N8000 X256.818 Z-0.4
N8005 G0 Z5.
N8010 X256.813 Y480.256
N8015 G1 Z1. F333.33
N8020 Z-1.4
N8025 X256.821 Z-1.494
N8030 X256.843 Z-1.585
N8035 X256.879 Z-1.672
N8040 X256.928 Y480.257 Z-1.753
N8045 X256.989 Z-1.824
N8050 X257.061 Z-1.885
N8055 X257.141 Z-1.935
N8060 X257.228 Y480.258 Z-1.971
N8065 X257.32 Z-1.993
N8070 X257.413 Z-2.
N8075 X258.013 Y480.261 F500.
N8080 G2 X258.616 Y479.663 I0.002 J-0.6
N8085 G1 X258.617 Y479.365 F600.
N8090 X258.587 Y476.823
N8095 X258.521 Y474.284
N8100 X258.415 Y471.752
N8105 X258.271 Y469.226
N8110 X258.089 Y466.712
N8115 X257.871 Y464.211
N8120 X257.612 Y461.726
N8125 X257.318 Y459.257
N8130 X256.986 Y456.808
N8135 X256.619 Y454.383
N8140 X256.214 Y451.984
N8145 X255.774 Y449.611
N8150 X255.298 Y447.269
N8155 X254.787 Y444.958
N8160 X254.243 Y442.682
N8165 X253.664 Y440.443
N8170 X253.052 Y438.243
N8175 X252.408 Y436.083
N8180 X251.733 Y433.966
N8185 X251.027 Y431.896
N8190 X250.29 Y429.871
N8195 X249.525 Y427.897
N8200 X248.731 Y425.975
N8205 X247.91 Y424.106
N8210 X247.061 Y422.291
N8215 X246.188 Y420.533
N8220 X245.292 Y418.835
N8225 X244.372 Y417.198
N8230 X243.431 Y415.623
N8235 X242.468 Y414.111
N8240 X241.486 Y412.664
N8245 X240.487 Y411.283
N8250 X239.471 Y409.972
N8255 X238.441 Y408.728
N8260 X237.397 Y407.556
N8265 X236.341 Y406.453
N8270 X235.274 Y405.423
N8275 X234.199 Y404.466
N8280 X233.116 Y403.58
N8285 X232.028 Y402.768
N8290 X230.937 Y402.03
N8295 X229.841 Y401.364
N8300 X228.745 Y400.771
N8305 X227.648 Y400.25
N8310 X226.551 Y399.801
N8315 X225.456 Y399.423
N8320 X224.363 Y399.115
N8325 X223.27 Y398.876
N8330 X222.179 Y398.706
N8335 X221.088 Y398.605
N8340 X220. Y398.57
N8345 X218.912 Y398.605
N8350 X217.821 Y398.706
N8355 X216.73 Y398.876
N8360 X215.637 Y399.115
N8365 X214.544 Y399.423
N8370 X213.449 Y399.801
N8375 X212.352 Y400.25
N8380 X211.255 Y400.771
N8385 X210.159 Y401.364
N8390 X209.063 Y402.03
N8395 X207.972 Y402.768
N8400 X206.884 Y403.58
N8405 X205.801 Y404.466
N8410 X204.726 Y405.423
N8415 X203.659 Y406.453
N8420 X202.603 Y407.556
N8425 X201.559 Y408.728
N8430 X200.529 Y409.972
N8435 X199.513 Y411.283
N8440 X198.514 Y412.664
N8445 X197.532 Y414.111
N8450 X196.569 Y415.623
N8455 X195.628 Y417.198
N8460 X194.708 Y418.835
N8465 X193.812 Y420.533
N8470 X192.939 Y422.291
N8475 X192.09 Y424.106
N8480 X191.269 Y425.975
N8485 X190.475 Y427.897
N8490 X189.71 Y429.871
N8495 X188.973 Y431.896
N8500 X188.267 Y433.966
N8505 X187.592 Y436.083
N8510 X186.948 Y438.243
N8515 X186.336 Y440.443
N8520 X185.757 Y442.682
N8525 X185.213 Y444.958
N8530 X184.702 Y447.269
N8535 X184.226 Y449.611
N8540 X183.786 Y451.984
N8545 X183.381 Y454.383
N8550 X183.014 Y456.808
N8555 X182.682 Y459.257
N8560 X182.388 Y461.726
N8565 X182.129 Y464.211
N8570 X181.911 Y466.712
N8575 X181.729 Y469.226
N8580 X181.585 Y471.752
N8585 X181.479 Y474.284
N8590 X181.413 Y476.823
N8595 X181.383 Y479.365
N8600 X181.393 Y481.907
N8605 X181.441 Y484.446
N8610 X181.527 Y486.983
N8615 X181.652 Y489.512
N8620 X181.815 Y492.033
N8625 X182.016 Y494.541
N8630 X182.254 Y497.034
N8635 X182.53 Y499.512
N8640 X182.843 Y501.97
N8645 X183.193 Y504.406
N8650 X183.579 Y506.819
N8655 X184.002 Y509.205
N8660 X184.46 Y511.564
N8665 X184.953 Y513.891
N8670 X185.481 Y516.185
N8675 X186.043 Y518.442
N8680 X186.638 Y520.662
N8685 X187.266 Y522.844
N8690 X187.925 Y524.982
N8695 X188.616 Y527.075
N8700 X189.338 Y529.123
N8705 X190.089 Y531.122
N8710 X190.869 Y533.071
N8715 X191.677 Y534.967
N8720 X192.511 Y536.809
N8725 X193.372 Y538.595
N8730 X194.257 Y540.322
N8735 X195.166 Y541.991
N8740 X196.096 Y543.598
N8745 X197.048 Y545.142
N8750 X198.021 Y546.621
N8755 X199.011 Y548.035
N8760 X200.018 Y549.38
N8765 X201.042 Y550.658
N8770 X202.08 Y551.867
N8775 X203.13 Y553.005
N8780 X204.191 Y554.071
N8785 X205.262 Y555.065
N8790 X206.341 Y555.986
N8795 X207.427 Y556.835
N8800 X208.517 Y557.61
N8805 X209.611 Y558.312
N8810 X210.707 Y558.942
N8815 X211.803 Y559.499
N8820 X212.9 Y559.983
N8825 X213.997 Y560.397
N8830 X215.091 Y560.74
N8835 X216.184 Y561.013
N8840 X217.277 Y561.217
N8845 X218.366 Y561.354
N8850 X219.455 Y561.421
N8855 X220.545
N8860 X221.634 Y561.354
N8865 X222.723 Y561.217
N8870 X223.816 Y561.013
N8875 X224.909 Y560.74
N8880 X226.003 Y560.397
N8885 X227.1 Y559.983
N8890 X228.197 Y559.499
N8895 X229.293 Y558.942
N8900 X230.389 Y558.312
N8905 X231.483 Y557.61
N8910 X232.573 Y556.835
N8915 X233.659 Y555.986
N8920 X234.738 Y555.065
N8925 X235.809 Y554.071
N8930 X236.87 Y553.005
N8935 X237.92 Y551.867
N8940 X238.958 Y550.658
N8945 X239.982 Y549.38
N8950 X240.989 Y548.035
N8955 X241.979 Y546.621
N8960 X242.952 Y545.142
N8965 X243.904 Y543.598
N8970 X244.834 Y541.991
N8975 X245.743 Y540.322
N8980 X246.628 Y538.595
N8985 X247.489 Y536.809
N8990 X248.323 Y534.967
N8995 X249.131 Y533.071
N9000 X249.911 Y531.122
N9005 X250.662 Y529.123
N9010 X251.384 Y527.075
N9015 X252.075 Y524.982
N9020 X252.734 Y522.844
N9025 X253.362 Y520.662
N9030 X253.957 Y518.442
N9035 X254.519 Y516.185
N9040 X255.047 Y513.891
N9045 X255.54 Y511.564
N9050 X255.998 Y509.205
N9055 X256.421 Y506.819
N9060 X256.807 Y504.406
N9065 X257.157 Y501.97
N9070 X257.47 Y499.512
N9075 X257.746 Y497.034
N9080 X257.984 Y494.541
N9085 X258.185 Y492.033
N9090 X258.348 Y489.512
N9095 X258.473 Y486.983
N9100 X258.559 Y484.446
N9105 X258.607 Y481.907
N9110 X258.616 Y479.663
N9115 G2 X258.018 Y479.061 I-0.6 J-0.002 F500.
N9120 G1 X257.418 Y479.058
N9125 X257.324 Z-1.993
N9130 X257.233 Z-1.971
N9135 X257.146 Y479.057 Z-1.935
N9140 X257.065 Z-1.885
N9145 X256.994 Z-1.824
N9150 X256.933 Z-1.753
N9155 X256.884 Y479.056 Z-1.672
N9160 X256.847 Z-1.585
N9165 X256.826 Z-1.494
N9170 X256.818 Z-1.4
N9175 G0 Z5.
N9180 X256.813 Y480.256
N9185 G1 Z0. F333.33
N9190 Z-2.4
N9195 X256.821 Z-2.494
N9200 X256.843 Z-2.585
N9205 X256.879 Z-2.672
N9210 X256.928 Y480.257 Z-2.753
N9215 X256.989 Z-2.824
N9220 X257.061 Z-2.885
N9225 X257.141 Z-2.935
N9230 X257.228 Y480.258 Z-2.971
N9235 X257.32 Z-2.993
N9240 X257.413 Z-3.
N9245 X258.013 Y480.261 F500.
N9250 G2 X258.616 Y479.663 I0.002 J-0.6
N9255 G1 X258.617 Y479.365 F600.
N9260 X258.587 Y476.823
N9265 X258.521 Y474.284
N9270 X258.415 Y471.752
N9275 X258.271 Y469.226
N9280 X258.089 Y466.712
N9285 X257.871 Y464.211
N9290 X257.612 Y461.726
N9295 X257.318 Y459.257
N9300 X256.986 Y456.808
N9305 X256.619 Y454.383
N9310 X256.214 Y451.984
N9315 X255.774 Y449.611
N9320 X255.298 Y447.269
N9325 X254.787 Y444.958
N9330 X254.243 Y442.682
N9335 X253.664 Y440.443
N9340 X253.052 Y438.243
N9345 X252.408 Y436.083
N9350 X251.733 Y433.966
N9355 X251.027 Y431.896
N9360 X250.29 Y429.871
N9365 X249.525 Y427.897
N9370 X248.731 Y425.975
N9375 X247.91 Y424.106
N9380 X247.061 Y422.291
N9385 X246.188 Y420.533
N9390 X245.292 Y418.835
N9395 X244.372 Y417.198
N9400 X243.431 Y415.623
N9405 X242.468 Y414.111
N9410 X241.486 Y412.664
N9415 X240.487 Y411.283
N9420 X239.471 Y409.972
N9425 X238.441 Y408.728
N9430 X237.397 Y407.556
N9435 X236.341 Y406.453
N9440 X235.274 Y405.423
N9445 X234.199 Y404.466
N9450 X233.116 Y403.58
N9455 X232.028 Y402.768
N9460 X230.937 Y402.03
N9465 X229.841 Y401.364
N9470 X228.745 Y400.771
N9475 X227.648 Y400.25
N9480 X226.551 Y399.801
N9485 X225.456 Y399.423
N9490 X224.363 Y399.115
N9495 X223.27 Y398.876
N9500 X222.179 Y398.706
N9505 X221.088 Y398.605
N9510 X220. Y398.57
N9515 X218.912 Y398.605
N9520 X217.821 Y398.706
N9525 X216.73 Y398.876
N9530 X215.637 Y399.115
N9535 X214.544 Y399.423
N9540 X213.449 Y399.801
N9545 X212.352 Y400.25
N9550 X211.255 Y400.771
N9555 X210.159 Y401.364
N9560 X209.063 Y402.03
N9565 X207.972 Y402.768
N9570 X206.884 Y403.58
N9575 X205.801 Y404.466
N9580 X204.726 Y405.423
N9585 X203.659 Y406.453
N9590 X202.603 Y407.556
N9595 X201.559 Y408.728
N9600 X200.529 Y409.972
N9605 X199.513 Y411.283
N9610 X198.514 Y412.664
N9615 X197.532 Y414.111
N9620 X196.569 Y415.623
N9625 X195.628 Y417.198
N9630 X194.708 Y418.835
N9635 X193.812 Y420.533
N9640 X192.939 Y422.291
N9645 X192.09 Y424.106
N9650 X191.269 Y425.975
N9655 X190.475 Y427.897
N9660 X189.71 Y429.871
N9665 X188.973 Y431.896
N9670 X188.267 Y433.966
N9675 X187.592 Y436.083
N9680 X186.948 Y438.243
N9685 X186.336 Y440.443
N9690 X185.757 Y442.682
N9695 X185.213 Y444.958
N9700 X184.702 Y447.269
N9705 X184.226 Y449.611
N9710 X183.786 Y451.984
N9715 X183.381 Y454.383
N9720 X183.014 Y456.808
N9725 X182.682 Y459.257
N9730 X182.388 Y461.726
N9735 X182.129 Y464.211
N9740 X181.911 Y466.712
N9745 X181.729 Y469.226
N9750 X181.585 Y471.752
N9755 X181.479 Y474.284
N9760 X181.413 Y476.823
N9765 X181.383 Y479.365
N9770 X181.393 Y481.907
N9775 X181.441 Y484.446
N9780 X181.527 Y486.983
N9785 X181.652 Y489.512
N9790 X181.815 Y492.033
N9795 X182.016 Y494.541
N9800 X182.254 Y497.034
N9805 X182.53 Y499.512
N9810 X182.843 Y501.97
N9815 X183.193 Y504.406
N9820 X183.579 Y506.819
N9825 X184.002 Y509.205
N9830 X184.46 Y511.564
N9835 X184.953 Y513.891
N9840 X185.481 Y516.185
N9845 X186.043 Y518.442
N9850 X186.638 Y520.662
N9855 X187.266 Y522.844
N9860 X187.925 Y524.982
N9865 X188.616 Y527.075
N9870 X189.338 Y529.123
N9875 X190.089 Y531.122
N9880 X190.869 Y533.071
N9885 X191.677 Y534.967
N9890 X192.511 Y536.809
N9895 X193.372 Y538.595
N9900 X194.257 Y540.322
N9905 X195.166 Y541.991
N9910 X196.096 Y543.598
N9915 X197.048 Y545.142
N9920 X198.021 Y546.621
N9925 X199.011 Y548.035
N9930 X200.018 Y549.38
N9935 X201.042 Y550.658
N9940 X202.08 Y551.867
N9945 X203.13 Y553.005
N9950 X204.191 Y554.071
N9955 X205.262 Y555.065
N9960 X206.341 Y555.986
N9965 X207.427 Y556.835
N9970 X208.517 Y557.61
N9975 X209.611 Y558.312
N9980 X210.707 Y558.942
N9985 X211.803 Y559.499
N9990 X212.9 Y559.983
N9995 X213.997 Y560.397
N10000 X215.091 Y560.74
N10005 X216.184 Y561.013
N10010 X217.277 Y561.217
N10015 X218.366 Y561.354
N10020 X219.455 Y561.421
N10025 X220.545
N10030 X221.634 Y561.354
N10035 X222.723 Y561.217
N10040 X223.816 Y561.013
N10045 X224.909 Y560.74
N10050 X226.003 Y560.397
N10055 X227.1 Y559.983
N10060 X228.197 Y559.499
N10065 X229.293 Y558.942
N10070 X230.389 Y558.312
N10075 X231.483 Y557.61
N10080 X232.573 Y556.835
N10085 X233.659 Y555.986
N10090 X234.738 Y555.065
N10095 X235.809 Y554.071
N10100 X236.87 Y553.005
N10105 X237.92 Y551.867
N10110 X238.958 Y550.658
N10115 X239.982 Y549.38
N10120 X240.989 Y548.035
N10125 X241.979 Y546.621
N10130 X242.952 Y545.142
N10135 X243.904 Y543.598
N10140 X244.834 Y541.991
N10145 X245.743 Y540.322
N10150 X246.628 Y538.595
N10155 X247.489 Y536.809
N10160 X248.323 Y534.967
N10165 X249.131 Y533.071
N10170 X249.911 Y531.122
N10175 X250.662 Y529.123
N10180 X251.384 Y527.075
N10185 X252.075 Y524.982
N10190 X252.734 Y522.844
N10195 X253.362 Y520.662
N10200 X253.957 Y518.442
N10205 X254.519 Y516.185
N10210 X255.047 Y513.891
N10215 X255.54 Y511.564
N10220 X255.998 Y509.205
N10225 X256.421 Y506.819
N10230 X256.807 Y504.406
N10235 X257.157 Y501.97
N10240 X257.47 Y499.512
N10245 X257.746 Y497.034
N10250 X257.984 Y494.541
N10255 X258.185 Y492.033
N10260 X258.348 Y489.512
N10265 X258.473 Y486.983
N10270 X258.559 Y484.446
N10275 X258.607 Y481.907
N10280 X258.616 Y479.663
N10285 G2 X258.018 Y479.061 I-0.6 J-0.002 F500.
N10290 G1 X257.418 Y479.058
N10295 X257.324 Z-2.993
N10300 X257.233 Z-2.971
N10305 X257.146 Y479.057 Z-2.935
N10310 X257.065 Z-2.885
N10315 X256.994 Z-2.824
N10320 X256.933 Z-2.753
N10325 X256.884 Y479.056 Z-2.672
N10330 X256.847 Z-2.585
N10335 X256.826 Z-2.494
N10340 X256.818 Z-2.4
N10345 G0 Z5.
N10350 X256.813 Y480.256
N10355 G1 Z-1. F333.33
N10360 Z-3.4
N10365 X256.821 Z-3.494
N10370 X256.843 Z-3.585
N10375 X256.879 Z-3.672
N10380 X256.928 Y480.257 Z-3.753
N10385 X256.989 Z-3.824
N10390 X257.061 Z-3.885
N10395 X257.141 Z-3.935
N10400 X257.228 Y480.258 Z-3.971
N10405 X257.32 Z-3.993
N10410 X257.413 Z-4.
N10415 X258.013 Y480.261 F500.
N10420 G2 X258.616 Y479.663 I0.002 J-0.6
N10425 G1 X258.617 Y479.365 F600.
N10430 X258.587 Y476.823
N10435 X258.521 Y474.284
N10440 X258.415 Y471.752
N10445 X258.271 Y469.226
N10450 X258.089 Y466.712
N10455 X257.871 Y464.211
N10460 X257.612 Y461.726
N10465 X257.318 Y459.257
N10470 X256.986 Y456.808
N10475 X256.619 Y454.383
N10480 X256.214 Y451.984
N10485 X255.774 Y449.611
N10490 X255.298 Y447.269
N10495 X254.787 Y444.958
N10500 X254.243 Y442.682
N10505 X253.664 Y440.443
N10510 X253.052 Y438.243
N10515 X252.408 Y436.083
N10520 X251.733 Y433.966
N10525 X251.027 Y431.896
N10530 X250.29 Y429.871
N10535 X249.525 Y427.897
N10540 X248.731 Y425.975
N10545 X247.91 Y424.106
N10550 X247.061 Y422.291
N10555 X246.188 Y420.533
N10560 X245.292 Y418.835
N10565 X244.372 Y417.198
N10570 X243.431 Y415.623
N10575 X242.468 Y414.111
N10580 X241.486 Y412.664
N10585 X240.487 Y411.283
N10590 X239.471 Y409.972
N10595 X238.441 Y408.728
N10600 X237.397 Y407.556
N10605 X236.341 Y406.453
N10610 X235.274 Y405.423
N10615 X234.199 Y404.466
N10620 X233.116 Y403.58
N10625 X232.028 Y402.768
N10630 X230.937 Y402.03
N10635 X229.841 Y401.364
N10640 X228.745 Y400.771
N10645 X227.648 Y400.25
N10650 X226.551 Y399.801
N10655 X225.456 Y399.423
N10660 X224.363 Y399.115
N10665 X223.27 Y398.876
N10670 X222.179 Y398.706
N10675 X221.088 Y398.605
N10680 X220. Y398.57
N10685 X218.912 Y398.605
N10690 X217.821 Y398.706
N10695 X216.73 Y398.876
N10700 X215.637 Y399.115
N10705 X214.544 Y399.423
N10710 X213.449 Y399.801
N10715 X212.352 Y400.25
N10720 X211.255 Y400.771
N10725 X210.159 Y401.364
N10730 X209.063 Y402.03
N10735 X207.972 Y402.768
N10740 X206.884 Y403.58
N10745 X205.801 Y404.466
N10750 X204.726 Y405.423
N10755 X203.659 Y406.453
N10760 X202.603 Y407.556
N10765 X201.559 Y408.728
N10770 X200.529 Y409.972
N10775 X199.513 Y411.283
N10780 X198.514 Y412.664
N10785 X197.532 Y414.111
N10790 X196.569 Y415.623
N10795 X195.628 Y417.198
N10800 X194.708 Y418.835
N10805 X193.812 Y420.533
N10810 X192.939 Y422.291
N10815 X192.09 Y424.106
N10820 X191.269 Y425.975
N10825 X190.475 Y427.897
N10830 X189.71 Y429.871
N10835 X188.973 Y431.896
N10840 X188.267 Y433.966
N10845 X187.592 Y436.083
N10850 X186.948 Y438.243
N10855 X186.336 Y440.443
N10860 X185.757 Y442.682
N10865 X185.213 Y444.958
N10870 X184.702 Y447.269
N10875 X184.226 Y449.611
N10880 X183.786 Y451.984
N10885 X183.381 Y454.383
N10890 X183.014 Y456.808
N10895 X182.682 Y459.257
N10900 X182.388 Y461.726
N10905 X182.129 Y464.211
N10910 X181.911 Y466.712
N10915 X181.729 Y469.226
N10920 X181.585 Y471.752
N10925 X181.479 Y474.284
N10930 X181.413 Y476.823
N10935 X181.383 Y479.365
N10940 X181.393 Y481.907
N10945 X181.441 Y484.446
N10950 X181.527 Y486.983
N10955 X181.652 Y489.512
N10960 X181.815 Y492.033
N10965 X182.016 Y494.541
N10970 X182.254 Y497.034
N10975 X182.53 Y499.512
N10980 X182.843 Y501.97
N10985 X183.193 Y504.406
N10990 X183.579 Y506.819
N10995 X184.002 Y509.205
N11000 X184.46 Y511.564
N11005 X184.953 Y513.891
N11010 X185.481 Y516.185
N11015 X186.043 Y518.442
N11020 X186.638 Y520.662
N11025 X187.266 Y522.844
N11030 X187.925 Y524.982
N11035 X188.616 Y527.075
N11040 X189.338 Y529.123
N11045 X190.089 Y531.122
N11050 X190.869 Y533.071
N11055 X191.677 Y534.967
N11060 X192.511 Y536.809
N11065 X193.372 Y538.595
N11070 X194.257 Y540.322
N11075 X195.166 Y541.991
N11080 X196.096 Y543.598
N11085 X197.048 Y545.142
N11090 X198.021 Y546.621
N11095 X199.011 Y548.035
N11100 X200.018 Y549.38
N11105 X201.042 Y550.658
N11110 X202.08 Y551.867
N11115 X203.13 Y553.005
N11120 X204.191 Y554.071
N11125 X205.262 Y555.065
N11130 X206.341 Y555.986
N11135 X207.427 Y556.835
N11140 X208.517 Y557.61
N11145 X209.611 Y558.312
N11150 X210.707 Y558.942
N11155 X211.803 Y559.499
N11160 X212.9 Y559.983
N11165 X213.997 Y560.397
N11170 X215.091 Y560.74
N11175 X216.184 Y561.013
N11180 X217.277 Y561.217
N11185 X218.366 Y561.354
N11190 X219.455 Y561.421
N11195 X220.545
N11200 X221.634 Y561.354
N11205 X222.723 Y561.217
N11210 X223.816 Y561.013
N11215 X224.909 Y560.74
N11220 X226.003 Y560.397
N11225 X227.1 Y559.983
N11230 X228.197 Y559.499
N11235 X229.293 Y558.942
N11240 X230.389 Y558.312
N11245 X231.483 Y557.61
N11250 X232.573 Y556.835
N11255 X233.659 Y555.986
N11260 X234.738 Y555.065
N11265 X235.809 Y554.071
N11270 X236.87 Y553.005
N11275 X237.92 Y551.867
N11280 X238.958 Y550.658
N11285 X239.982 Y549.38
N11290 X240.989 Y548.035
N11295 X241.979 Y546.621
N11300 X242.952 Y545.142
N11305 X243.904 Y543.598
N11310 X244.834 Y541.991
N11315 X245.743 Y540.322
N11320 X246.628 Y538.595
N11325 X247.489 Y536.809
N11330 X248.323 Y534.967
N11335 X249.131 Y533.071
N11340 X249.911 Y531.122
N11345 X250.662 Y529.123
N11350 X251.384 Y527.075
N11355 X252.075 Y524.982
N11360 X252.734 Y522.844
N11365 X253.362 Y520.662
N11370 X253.957 Y518.442
N11375 X254.519 Y516.185
N11380 X255.047 Y513.891
N11385 X255.54 Y511.564
N11390 X255.998 Y509.205
N11395 X256.421 Y506.819
N11400 X256.807 Y504.406
N11405 X257.157 Y501.97
N11410 X257.47 Y499.512
N11415 X257.746 Y497.034
N11420 X257.984 Y494.541
N11425 X258.185 Y492.033
N11430 X258.348 Y489.512
N11435 X258.473 Y486.983
N11440 X258.559 Y484.446
N11445 X258.607 Y481.907
N11450 X258.616 Y479.663
N11455 G2 X258.018 Y479.061 I-0.6 J-0.002 F500.
N11460 G1 X257.418 Y479.058
N11465 X257.324 Z-3.993
N11470 X257.233 Z-3.971
N11475 X257.146 Y479.057 Z-3.935
N11480 X257.065 Z-3.885
N11485 X256.994 Z-3.824
N11490 X256.933 Z-3.753
N11495 X256.884 Y479.056 Z-3.672
N11500 X256.847 Z-3.585
N11505 X256.826 Z-3.494
N11510 X256.818 Z-3.4
N11515 G0 Z5.
N11520 X252.7 Y200.6
N11525 G1 Z2. F333.33
N11530 Z-0.4
N11535 G18 G2 X253.3 Z-1. I0.6 K0.
N11540 G1 X253.9 F500.
N11545 G17 G2 X254.5 Y200. I0. J-0.6
N11550 X185.5 I-34.5 J0. F600.
N11555 X254.5 I34.5 J0.
N11560 X253.9 Y199.4 I-0.6 J0. F500.
N11565 G1 X253.3
N11570 G18 G3 X252.7 Z-0.4 I0. K0.6
N11575 G0 Z5.
N11580 Y200.6
N11585 G1 Z1. F333.33
N11590 Z-1.4
N11595 G2 X253.3 Z-2. I0.6 K0.
N11600 G1 X253.9 F500.
N11605 G17 G2 X254.5 Y200. I0. J-0.6
N11610 X185.5 I-34.5 J0. F600.
N11615 X254.5 I34.5 J0.
N11620 X253.9 Y199.4 I-0.6 J0. F500.
N11625 G1 X253.3
N11630 G18 G3 X252.7 Z-1.4 I0. K0.6
N11635 G0 Z5.
N11640 Y200.6
N11645 G1 Z0. F333.33
N11650 Z-2.4
N11655 G2 X253.3 Z-3. I0.6 K0.
N11660 G1 X253.9 F500.
N11665 G17 G2 X254.5 Y200. I0. J-0.6
N11670 X185.5 I-34.5 J0. F600.
N11675 X254.5 I34.5 J0.
N11680 X253.9 Y199.4 I-0.6 J0. F500.
N11685 G1 X253.3
N11690 G18 G3 X252.7 Z-2.4 I0. K0.6
N11695 G0 Z5.
N11700 Y200.6
N11705 G1 Z-1. F333.33
N11710 Z-3.4
N11715 G2 X253.3 Z-4. I0.6 K0.
N11720 G1 X253.9 F500.
N11725 G17 G2 X254.5 Y200. I0. J-0.6
N11730 X185.5 I-34.5 J0. F600.
N11735 X254.5 I34.5 J0.
N11740 X253.9 Y199.4 I-0.6 J0. F500.
N11745 G1 X253.3
N11750 G18 G3 X252.7 Z-3.4 I0. K0.6
N11755 G0 Z5.
N11760 X240.2 Y100.6
N11765 G1 Z2. F333.33
N11770 Z-0.4
N11775 G2 X240.8 Z-1. I0.6 K0.
N11780 G1 X241.4 F500.
N11785 G17 G2 X242. Y100. I0. J-0.6
N11790 X198. I-22. J0. F600.
N11795 X242. I22. J0.
N11800 X241.4 Y99.4 I-0.6 J0. F500.
N11805 G1 X240.8
N11810 G18 G3 X240.2 Z-0.4 I0. K0.6
N11815 G0 Z5.
N11820 Y100.6
N11825 G1 Z1. F333.33
N11830 Z-1.4
N11835 G2 X240.8 Z-2. I0.6 K0.
N11840 G1 X241.4 F500.
N11845 G17 G2 X242. Y100. I0. J-0.6
N11850 X198. I-22. J0. F600.
N11855 X242. I22. J0.
N11860 X241.4 Y99.4 I-0.6 J0. F500.
N11865 G1 X240.8
N11870 G18 G3 X240.2 Z-1.4 I0. K0.6
N11875 G0 Z5.
N11880 Y100.6
N11885 G1 Z0. F333.33
N11890 Z-2.4
N11895 G2 X240.8 Z-3. I0.6 K0.
N11900 G1 X241.4 F500.
N11905 G17 G2 X242. Y100. I0. J-0.6
N11910 X198. I-22. J0. F600.
N11915 X242. I22. J0.
N11920 X241.4 Y99.4 I-0.6 J0. F500.
N11925 G1 X240.8
N11930 G18 G3 X240.2 Z-2.4 I0. K0.6
N11935 G0 Z5.
N11940 Y100.6
N11945 G1 Z-1. F333.33
N11950 Z-3.4
N11955 G2 X240.8 Z-4. I0.6 K0.
N11960 G1 X241.4 F500.
N11965 G17 G2 X242. Y100. I0. J-0.6
N11970 X198. I-22. J0. F600.
N11975 X242. I22. J0.
N11980 X241.4 Y99.4 I-0.6 J0. F500.
N11985 G1 X240.8
N11990 G18 G3 X240.2 Z-3.4 I0. K0.6
N11995 G0 Z15.
N12000 G17
N12005 G53 G0 Z0.
N12010 M30
%
