%
(4_HOLE_TRIAL)
(5.1MM DRILL)
(T3  D=5.1 CR=0. TAPER=118DEG - ZMIN=-18. - DRILL)
N10 G90 G94 G17 G91.1
N15 G21
N20 G53 G0 Z0.
(DRILL2)
N25 M9
N30 T3 M6
N35 S5000 M3
N40 G54
N45 G0 X110. Y110.
N50 G43 Z15. H3
N55 G0 Z5.
N60 G98 G81 X110. Y110. Z-18. R-1. F1000.
N65 X70.
N70 X30.
N75 Y180.
N80 X70.
N85 X110.
N90 Y250.
N95 X70.
N100 X30.
N105 G80
N110 G0 Y320.1 Z5.
N115 G81 X30. Y320.1 Z-18. R-1.2 F1000.
N120 X70.
N125 X110.
N130 G80
N135 G0 Z15.
N140 G53 Z0.
N145 M30
%
