%
(1001)
(MACHINE)
(  MODEL LASER SNAKE V2)
(  DESCRIPTION 3-AXIS ROUTER)
(T1  D=3.175 CR=0. - ZMIN=-18.25 - FLAT END MILL)
N10 G90 G94 G17 G91.1
N15 G21
(WHEN USING FUSION 360 FOR PERSONAL USE, THE FEEDRATE OF)
(RAPID MOVES IS REDUCED TO MATCH THE FEEDRATE OF CUTTING)
(MOVES, WHICH CAN INCREASE MACHINING TIME. UNRESTRICTED RAPID)
(MOVES ARE AVAILABLE WITH A FUSION 360 SUBSCRIPTION.)
N20 G53 G0 Z0.
(2D POCKET1)
N25 T1 M6
N30 S18000 M3
N35 G54
N40 G0 X235.805 Y-25.683
N45 G43 Z15. H1
N50 G1 Z5. F1500.
N55 Z-3.682 F100.
N60 G19 G2 Y-26. Z-4. J-0.317 K0.
N65 G17 G2 X233.93 I-0.938 J0. F1500.
N70 X237.71 I1.89 J0.
N75 X232.025 I-2.842 J0.
N80 X239.615 I3.795 J0.
N85 X230.12 I-4.747 J0.
N90 X241.52 I5.7 J0.
N95 X228.215 I-6.652 J0.
N100 X243.426 I7.605 J0.
N105 X226.311 I-8.558 J0.
N110 X245.331 I9.51 J0.
N115 X224.405 I-10.463 J0.
N120 X245.331 I10.463 J0.
N125 G1 X245.324 Y-26.044
N130 X245.306 Y-26.085
N135 X245.277 Y-26.119
N140 X245.24 Y-26.143
N145 X245.198 Y-26.157
N150 X245.153 Y-26.158
N155 X243.551 Y-25.968
N160 X235.805 Y-25.683
N165 Z-7.682 F100.
N170 G19 G2 Y-26. Z-8. J-0.317 K0.
N175 G17 G2 X233.93 I-0.938 J0. F1500.
N180 X237.71 I1.89 J0.
N185 X232.025 I-2.842 J0.
N190 X239.615 I3.795 J0.
N195 X230.12 I-4.747 J0.
N200 X241.52 I5.7 J0.
N205 X228.215 I-6.652 J0.
N210 X243.426 I7.605 J0.
N215 X226.311 I-8.558 J0.
N220 X245.331 I9.51 J0.
N225 X224.405 I-10.463 J0.
N230 X245.331 I10.463 J0.
N235 G1 X245.324 Y-26.044
N240 X245.306 Y-26.085
N245 X245.277 Y-26.119
N250 X245.24 Y-26.143
N255 X245.198 Y-26.157
N260 X245.153 Y-26.158
N265 X243.551 Y-25.968
N270 X235.805 Y-25.683
N275 Z-11.682 F100.
N280 G19 G2 Y-26. Z-12. J-0.317 K0.
N285 G17 G2 X233.93 I-0.938 J0. F1500.
N290 X237.71 I1.89 J0.
N295 X232.025 I-2.842 J0.
N300 X239.615 I3.795 J0.
N305 X230.12 I-4.747 J0.
N310 X241.52 I5.7 J0.
N315 X228.215 I-6.652 J0.
N320 X243.426 I7.605 J0.
N325 X226.311 I-8.558 J0.
N330 X245.331 I9.51 J0.
N335 X224.405 I-10.463 J0.
N340 X245.331 I10.463 J0.
N345 G1 X245.325 Y-26.06 Z-11.988 F250.
N350 X245.308 Y-26.119 Z-11.976
N355 X245.285 Y-26.165 Z-11.941
N360 X245.254 Y-26.206 Z-11.907
N365 X245.204 Y-26.253 Z-11.804
N370 X245.185 Y-26.267 Z-11.682
N375 Z15. F1500.
N380 X315.393 Y-25.683
N385 Z5.
N390 Z-3.682 F100.
N395 G19 G2 Y-26. Z-4. J-0.317 K0.
N400 G17 G2 X313.518 I-0.938 J0. F1500.
N405 X317.298 I1.89 J0.
N410 X311.613 I-2.842 J0.
N415 X319.203 I3.795 J0.
N420 X309.708 I-4.747 J0.
N425 X321.108 I5.7 J0.
N430 X307.803 I-6.652 J0.
N435 X323.013 I7.605 J0.
N440 X305.898 I-8.557 J0.
N445 X324.918 I9.51 J0.
N450 X303.993 I-10.462 J0.
N455 X324.918 I10.462 J0.
N460 G1 X324.912 Y-26.044
N465 X324.894 Y-26.085
N470 X324.865 Y-26.119
N475 X324.828 Y-26.143
N480 X324.786 Y-26.157
N485 X324.741 Y-26.158
N490 X323.139 Y-25.968
N495 X315.393 Y-25.683
N500 Z-7.682 F100.
N505 G19 G2 Y-26. Z-8. J-0.317 K0.
N510 G17 G2 X313.518 I-0.938 J0. F1500.
N515 X317.298 I1.89 J0.
N520 X311.613 I-2.842 J0.
N525 X319.203 I3.795 J0.
N530 X309.708 I-4.747 J0.
N535 X321.108 I5.7 J0.
N540 X307.803 I-6.652 J0.
N545 X323.013 I7.605 J0.
N550 X305.898 I-8.557 J0.
N555 X324.918 I9.51 J0.
N560 X303.993 I-10.462 J0.
N565 X324.918 I10.462 J0.
N570 G1 X324.912 Y-26.044
N575 X324.894 Y-26.085
N580 X324.865 Y-26.119
N585 X324.828 Y-26.143
N590 X324.786 Y-26.157
N595 X324.741 Y-26.158
N600 X323.139 Y-25.968
N605 X315.393 Y-25.683
N610 Z-11.682 F100.
N615 G19 G2 Y-26. Z-12. J-0.317 K0.
N620 G17 G2 X313.518 I-0.938 J0. F1500.
N625 X317.298 I1.89 J0.
N630 X311.613 I-2.842 J0.
N635 X319.203 I3.795 J0.
N640 X309.708 I-4.747 J0.
N645 X321.108 I5.7 J0.
N650 X307.803 I-6.652 J0.
N655 X323.013 I7.605 J0.
N660 X305.898 I-8.557 J0.
N665 X324.918 I9.51 J0.
N670 X303.993 I-10.462 J0.
N675 X324.918 I10.462 J0.
N680 G1 X324.913 Y-26.06 Z-11.988 F250.
N685 X324.896 Y-26.119 Z-11.976
N690 X324.873 Y-26.165 Z-11.941
N695 X324.842 Y-26.206 Z-11.907
N700 X324.792 Y-26.253 Z-11.804
N705 X324.773 Y-26.267 Z-11.682
N710 Z15. F1500.
(WHEN USING FUSION 360 FOR PERSONAL USE, THE FEEDRATE OF)
(RAPID MOVES IS REDUCED TO MATCH THE FEEDRATE OF CUTTING)
(MOVES, WHICH CAN INCREASE MACHINING TIME. UNRESTRICTED RAPID)
(MOVES ARE AVAILABLE WITH A FUSION 360 SUBSCRIPTION.)
(BORE1)
N715 G0 X224.699 Y-26.317
N720 G1 Z15. F1500.
N725 Z2.
N730 Z0.317 F250.
N735 G18 G3 X224.382 Z0. I-0.318 K0.
N740 G1 X224.223
N745 G17 G2 X223.905 Y-26. I0. J0.317
N750 X245.83 Z-0.438 I10.962 J0. F1500.
N755 X223.905 Z-0.877 I-10.962 J0.
N760 X245.83 Z-1.315 I10.962 J0.
N765 X223.905 Z-1.753 I-10.962 J0.
N770 X245.83 Z-2.191 I10.962 J0.
N775 X223.905 Z-2.63 I-10.962 J0.
N780 X245.83 Z-3.068 I10.962 J0.
N785 X223.905 Z-3.506 I-10.962 J0.
N790 X245.83 Z-3.944 I10.962 J0.
N795 X223.905 Z-4.383 I-10.962 J0.
N800 X245.83 Z-4.821 I10.962 J0.
N805 X223.905 Z-5.259 I-10.962 J0.
N810 X245.83 Z-5.697 I10.962 J0.
N815 X223.905 Z-6.136 I-10.962 J0.
N820 X245.83 Z-6.574 I10.962 J0.
N825 X223.905 Z-7.012 I-10.962 J0.
N830 X245.83 Z-7.45 I10.962 J0.
N835 X223.905 Z-7.889 I-10.962 J0.
N840 X245.83 Z-8.327 I10.963 J0.
N845 X223.905 Z-8.765 I-10.963 J0.
N850 X245.83 Z-9.203 I10.963 J0.
N855 X223.905 Z-9.642 I-10.963 J0.
N860 X245.83 Z-10.08 I10.963 J0.
N865 X223.905 Z-10.518 I-10.963 J0.
N870 X245.83 Z-10.956 I10.963 J0.
N875 X223.905 Z-11.395 I-10.963 J0.
N880 X245.83 Z-11.833 I10.963 J0.
N885 X238.862 Y-36.209 Z-12. I-10.963 J0.
N890 X230.873 Y-15.791 I-3.995 J10.209
N895 X238.862 Y-36.209 I3.995 J-10.209
N900 X238.451 Y-36.029 I-0.116 J0.296 F250.
N905 G1 X238.393 Y-35.881
N910 X238.367 Y-35.815 Z-11.992
N915 X238.343 Y-35.753 Z-11.969
N920 X238.321 Y-35.697 Z-11.931
N925 X238.303 Y-35.65 Z-11.88
N930 X238.289 Y-35.615 Z-11.82
N935 X238.28 Y-35.593 Z-11.753
N940 X238.278 Y-35.585 Z-11.682
N945 Z5. F1500.
N950 X304.287 Y-26.317
N955 Z2.
N960 Z0.317 F250.
N965 G18 G3 X303.969 Z0. I-0.317 K0.
N970 G1 X303.811
N975 G17 G2 X303.493 Y-26. I0. J0.317
N980 X325.418 Z-0.438 I10.962 J0. F1500.
N985 X303.493 Z-0.877 I-10.962 J0.
N990 X325.418 Z-1.315 I10.962 J0.
N995 X303.493 Z-1.753 I-10.962 J0.
N1000 X325.418 Z-2.191 I10.962 J0.
N1005 X303.493 Z-2.63 I-10.962 J0.
N1010 X325.418 Z-3.068 I10.962 J0.
N1015 X303.493 Z-3.506 I-10.962 J0.
N1020 X325.418 Z-3.944 I10.962 J0.
N1025 X303.493 Z-4.383 I-10.962 J0.
N1030 X325.418 Z-4.821 I10.962 J0.
N1035 X303.493 Z-5.259 I-10.962 J0.
N1040 X325.418 Z-5.697 I10.962 J0.
N1045 X303.493 Z-6.136 I-10.962 J0.
N1050 X325.418 Z-6.574 I10.962 J0.
N1055 X303.493 Z-7.012 I-10.962 J0.
N1060 X325.418 Z-7.45 I10.962 J0.
N1065 X303.493 Z-7.889 I-10.962 J0.
N1070 X325.418 Z-8.327 I10.962 J0.
N1075 X303.493 Z-8.765 I-10.962 J0.
N1080 X325.418 Z-9.203 I10.962 J0.
N1085 X303.493 Z-9.642 I-10.962 J0.
N1090 X325.418 Z-10.08 I10.962 J0.
N1095 X303.493 Z-10.518 I-10.962 J0.
N1100 X325.418 Z-10.956 I10.962 J0.
N1105 X303.493 Z-11.395 I-10.962 J0.
N1110 X325.418 Z-11.833 I10.962 J0.
N1115 X318.45 Y-36.209 Z-12. I-10.962 J0.
N1120 X310.461 Y-15.791 I-3.995 J10.209
N1125 X318.45 Y-36.209 I3.995 J-10.209
N1130 X318.039 Y-36.029 I-0.116 J0.296 F250.
N1135 G1 X317.981 Y-35.881
N1140 X317.955 Y-35.815 Z-11.992
N1145 X317.931 Y-35.753 Z-11.969
N1150 X317.909 Y-35.697 Z-11.931
N1155 X317.89 Y-35.65 Z-11.88
N1160 X317.877 Y-35.615 Z-11.82
N1165 X317.868 Y-35.593 Z-11.753
N1170 X317.865 Y-35.585 Z-11.682
N1175 Z15. F1500.
(WHEN USING FUSION 360 FOR PERSONAL USE, THE FEEDRATE OF)
(RAPID MOVES IS REDUCED TO MATCH THE FEEDRATE OF CUTTING)
(MOVES, WHICH CAN INCREASE MACHINING TIME. UNRESTRICTED RAPID)
(MOVES ARE AVAILABLE WITH A FUSION 360 SUBSCRIPTION.)
(2D CONTOUR1)
N1180 G0 X-0.235 Y-83.09
N1185 G1 Z15. F1500.
N1190 Z5.
N1195 Z-3.683 F100.
N1200 X-0.233 Y-83.083 Z-3.753 F250.
N1205 X-0.225 Y-83.061 Z-3.82
N1210 X-0.212 Y-83.025 Z-3.88
N1215 X-0.195 Y-82.978 Z-3.931
N1220 X-0.174 Y-82.922 Z-3.969
N1225 X-0.151 Y-82.859 Z-3.992
N1230 X-0.127 Y-82.792 Z-4.
N1235 X-0.018 Y-82.494
N1240 G2 X0.389 Y-82.304 I0.298 J-0.109
N1245 G1 X5.087 Y-84.014 F1500.
N1250 G3 X7.378 Y-82.946 I0.611 J1.68
N1255 G2 X24.313 Y-75.049 I12.416 J-4.519
N1260 G1 X237.602 Y-152.68
N1265 G3 X239.973 Y-151.31 I0.611 J1.68
N1270 G1 X266.422 Y-1.31
N1275 G3 X264.662 Y0.788 I-1.76 J0.31
N1280 G1 X64.662
N1285 G3 X63.398 Y0.264 I0. J-1.788
N1290 G1 X-0.264 Y-63.398
N1295 G3 X-0.788 Y-64.662 I1.264 J-1.264
N1300 G1 Y-80.624
N1305 G3 X0.389 Y-82.304 I1.788 J0.
N1310 G2 X0.578 Y-82.711 I-0.109 J-0.298 F250.
N1315 G1 X0.47 Y-83.009
N1320 X0.446 Y-83.076 Z-3.992
N1325 X0.423 Y-83.139 Z-3.969
N1330 X0.402 Y-83.195 Z-3.931
N1335 X0.385 Y-83.243 Z-3.88
N1340 X0.372 Y-83.278 Z-3.82
N1345 X0.364 Y-83.3 Z-3.753
N1350 X0.361 Y-83.308 Z-3.683
N1355 Z5. F1500.
N1360 X-0.235 Y-83.09
N1365 Z-7.683 F100.
N1370 X-0.233 Y-83.083 Z-7.753 F250.
N1375 X-0.225 Y-83.061 Z-7.82
N1380 X-0.212 Y-83.025 Z-7.88
N1385 X-0.195 Y-82.978 Z-7.931
N1390 X-0.174 Y-82.922 Z-7.969
N1395 X-0.151 Y-82.859 Z-7.992
N1400 X-0.127 Y-82.792 Z-8.
N1405 X-0.018 Y-82.494
N1410 G2 X0.389 Y-82.304 I0.298 J-0.109
N1415 G1 X5.087 Y-84.014 F1500.
N1420 G3 X7.378 Y-82.946 I0.611 J1.68
N1425 G2 X24.313 Y-75.049 I12.416 J-4.519
N1430 G1 X237.602 Y-152.68
N1435 G3 X239.973 Y-151.31 I0.611 J1.68
N1440 G1 X266.422 Y-1.31
N1445 G3 X264.662 Y0.788 I-1.76 J0.31
N1450 G1 X64.662
N1455 G3 X63.398 Y0.264 I0. J-1.788
N1460 G1 X-0.264 Y-63.398
N1465 G3 X-0.788 Y-64.662 I1.264 J-1.264
N1470 G1 Y-80.624
N1475 G3 X0.389 Y-82.304 I1.788 J0.
N1480 G2 X0.578 Y-82.711 I-0.109 J-0.298 F250.
N1485 G1 X0.47 Y-83.009
N1490 X0.446 Y-83.076 Z-7.992
N1495 X0.423 Y-83.139 Z-7.969
N1500 X0.402 Y-83.195 Z-7.931
N1505 X0.385 Y-83.243 Z-7.88
N1510 X0.372 Y-83.278 Z-7.82
N1515 X0.364 Y-83.3 Z-7.753
N1520 X0.361 Y-83.308 Z-7.683
N1525 Z5. F1500.
N1530 X-0.235 Y-83.09
N1535 Z-11.683 F100.
N1540 X-0.233 Y-83.083 Z-11.753 F250.
N1545 X-0.225 Y-83.061 Z-11.82
N1550 X-0.212 Y-83.025 Z-11.88
N1555 X-0.195 Y-82.978 Z-11.931
N1560 X-0.174 Y-82.922 Z-11.969
N1565 X-0.151 Y-82.859 Z-11.992
N1570 X-0.127 Y-82.792 Z-12.
N1575 X-0.018 Y-82.494
N1580 G2 X0.389 Y-82.304 I0.298 J-0.109
N1585 G1 X5.087 Y-84.014 F1500.
N1590 G3 X7.378 Y-82.946 I0.611 J1.68
N1595 G2 X24.313 Y-75.049 I12.416 J-4.519
N1600 G1 X237.602 Y-152.68
N1605 G3 X239.973 Y-151.31 I0.611 J1.68
N1610 G1 X266.422 Y-1.31
N1615 G3 X264.662 Y0.788 I-1.76 J0.31
N1620 G1 X64.662
N1625 G3 X63.398 Y0.264 I0. J-1.788
N1630 G1 X-0.264 Y-63.398
N1635 G3 X-0.788 Y-64.662 I1.264 J-1.264
N1640 G1 Y-80.624
N1645 G3 X0.389 Y-82.304 I1.788 J0.
N1650 G2 X0.578 Y-82.711 I-0.109 J-0.298 F250.
N1655 G1 X0.47 Y-83.009
N1660 X0.446 Y-83.076 Z-11.992
N1665 X0.423 Y-83.139 Z-11.969
N1670 X0.402 Y-83.195 Z-11.931
N1675 X0.385 Y-83.243 Z-11.88
N1680 X0.372 Y-83.278 Z-11.82
N1685 X0.364 Y-83.3 Z-11.753
N1690 X0.361 Y-83.308 Z-11.683
N1695 Z5. F1500.
N1700 X-0.235 Y-83.09
N1705 Z-15.683 F100.
N1710 X-0.233 Y-83.083 Z-15.753 F250.
N1715 X-0.225 Y-83.061 Z-15.82
N1720 X-0.212 Y-83.025 Z-15.88
N1725 X-0.195 Y-82.978 Z-15.931
N1730 X-0.174 Y-82.922 Z-15.969
N1735 X-0.151 Y-82.859 Z-15.992
N1740 X-0.127 Y-82.792 Z-16.
N1745 X-0.018 Y-82.494
N1750 G2 X0.389 Y-82.304 I0.298 J-0.109
N1755 G1 X5.087 Y-84.014 F1500.
N1760 G3 X7.378 Y-82.946 I0.611 J1.68
N1765 G2 X24.313 Y-75.049 I12.416 J-4.519
N1770 G1 X237.602 Y-152.68
N1775 G3 X239.973 Y-151.31 I0.611 J1.68
N1780 G1 X266.422 Y-1.31
N1785 G3 X264.662 Y0.788 I-1.76 J0.31
N1790 G1 X64.662
N1795 G3 X63.398 Y0.264 I0. J-1.788
N1800 G1 X-0.264 Y-63.398
N1805 G3 X-0.788 Y-64.662 I1.264 J-1.264
N1810 G1 Y-80.624
N1815 G3 X0.389 Y-82.304 I1.788 J0.
N1820 G2 X0.578 Y-82.711 I-0.109 J-0.298 F250.
N1825 G1 X0.47 Y-83.009
N1830 X0.446 Y-83.076 Z-15.992
N1835 X0.423 Y-83.139 Z-15.969
N1840 X0.402 Y-83.195 Z-15.931
N1845 X0.385 Y-83.243 Z-15.88
N1850 X0.372 Y-83.278 Z-15.82
N1855 X0.364 Y-83.3 Z-15.753
N1860 X0.361 Y-83.308 Z-15.683
N1865 Z5. F1500.
N1870 X-0.235 Y-83.09
N1875 Z-17.933 F100.
N1880 X-0.233 Y-83.083 Z-18.003 F250.
N1885 X-0.225 Y-83.061 Z-18.07
N1890 X-0.212 Y-83.025 Z-18.13
N1895 X-0.195 Y-82.978 Z-18.181
N1900 X-0.174 Y-82.922 Z-18.219
N1905 X-0.151 Y-82.859 Z-18.242
N1910 X-0.127 Y-82.792 Z-18.25
N1915 X-0.018 Y-82.494
N1920 G2 X0.389 Y-82.304 I0.298 J-0.109
N1925 G1 X5.087 Y-84.014 F1500.
N1930 G3 X7.378 Y-82.946 I0.611 J1.68
N1935 G2 X24.313 Y-75.049 I12.416 J-4.519
N1940 G1 X237.602 Y-152.68
N1945 G3 X239.973 Y-151.31 I0.611 J1.68
N1950 G1 X266.422 Y-1.31
N1955 G3 X264.662 Y0.788 I-1.76 J0.31
N1960 G1 X64.662
N1965 G3 X63.398 Y0.264 I0. J-1.788
N1970 G1 X-0.264 Y-63.398
N1975 G3 X-0.788 Y-64.662 I1.264 J-1.264
N1980 G1 Y-80.624
N1985 G3 X0.389 Y-82.304 I1.788 J0.
N1990 G2 X0.578 Y-82.711 I-0.109 J-0.298 F250.
N1995 G1 X0.47 Y-83.009
N2000 X0.446 Y-83.076 Z-18.242
N2005 X0.423 Y-83.139 Z-18.219
N2010 X0.402 Y-83.195 Z-18.181
N2015 X0.385 Y-83.243 Z-18.13
N2020 X0.372 Y-83.278 Z-18.07
N2025 X0.364 Y-83.3 Z-18.003
N2030 X0.361 Y-83.308 Z-17.933
N2035 Z5. F1500.
N2040 X224.174 Y-70.87
N2045 Z-3.683 F100.
N2050 X224.182 Y-70.872 Z-3.753 F250.
N2055 X224.205 Y-70.876 Z-3.82
N2060 X224.242 Y-70.882 Z-3.88
N2065 X224.291 Y-70.891 Z-3.931
N2070 X224.351 Y-70.902 Z-3.969
N2075 X224.417 Y-70.913 Z-3.992
N2080 X224.486 Y-70.926 Z-4.
N2085 X224.799 Y-70.981
N2090 G2 X225.057 Y-71.349 I-0.055 J-0.313
N2095 G1 X217.376 Y-114.91 F1500.
N2100 X49.674 Y-53.871
N2105 X75.757 Y-27.788
N2110 X203.922
N2115 X228.418 Y-52.284
N2120 X225.057 Y-71.349
N2125 G2 X224.689 Y-71.606 I-0.313 J0.055 F250.
N2130 G1 X224.376 Y-71.551
N2135 X224.306 Y-71.539 Z-3.992
N2140 X224.24 Y-71.527 Z-3.969
N2145 X224.181 Y-71.517 Z-3.931
N2150 X224.132 Y-71.508 Z-3.88
N2155 X224.094 Y-71.501 Z-3.82
N2160 X224.071 Y-71.497 Z-3.753
N2165 X224.063 Y-71.496 Z-3.683
N2170 Z5. F1500.
N2175 X224.174 Y-70.87
N2180 Z-7.683 F100.
N2185 X224.182 Y-70.872 Z-7.753 F250.
N2190 X224.205 Y-70.876 Z-7.82
N2195 X224.242 Y-70.882 Z-7.88
N2200 X224.291 Y-70.891 Z-7.931
N2205 X224.351 Y-70.902 Z-7.969
N2210 X224.417 Y-70.913 Z-7.992
N2215 X224.486 Y-70.926 Z-8.
N2220 X224.799 Y-70.981
N2225 G2 X225.057 Y-71.349 I-0.055 J-0.313
N2230 G1 X217.376 Y-114.91 F1500.
N2235 X49.674 Y-53.871
N2240 X75.757 Y-27.788
N2245 X203.922
N2250 X228.418 Y-52.284
N2255 X225.057 Y-71.349
N2260 G2 X224.689 Y-71.606 I-0.313 J0.055 F250.
N2265 G1 X224.376 Y-71.551
N2270 X224.306 Y-71.539 Z-7.992
N2275 X224.24 Y-71.527 Z-7.969
N2280 X224.181 Y-71.517 Z-7.931
N2285 X224.132 Y-71.508 Z-7.88
N2290 X224.094 Y-71.501 Z-7.82
N2295 X224.071 Y-71.497 Z-7.753
N2300 X224.063 Y-71.496 Z-7.683
N2305 Z5. F1500.
N2310 X224.174 Y-70.87
N2315 Z-11.683 F100.
N2320 X224.182 Y-70.872 Z-11.753 F250.
N2325 X224.205 Y-70.876 Z-11.82
N2330 X224.242 Y-70.882 Z-11.88
N2335 X224.291 Y-70.891 Z-11.931
N2340 X224.351 Y-70.902 Z-11.969
N2345 X224.417 Y-70.913 Z-11.992
N2350 X224.486 Y-70.926 Z-12.
N2355 X224.799 Y-70.981
N2360 G2 X225.057 Y-71.349 I-0.055 J-0.313
N2365 G1 X217.376 Y-114.91 F1500.
N2370 X49.674 Y-53.871
N2375 X75.757 Y-27.788
N2380 X203.922
N2385 X228.418 Y-52.284
N2390 X225.057 Y-71.349
N2395 G2 X224.689 Y-71.606 I-0.313 J0.055 F250.
N2400 G1 X224.376 Y-71.551
N2405 X224.306 Y-71.539 Z-11.992
N2410 X224.24 Y-71.527 Z-11.969
N2415 X224.181 Y-71.517 Z-11.931
N2420 X224.132 Y-71.508 Z-11.88
N2425 X224.094 Y-71.501 Z-11.82
N2430 X224.071 Y-71.497 Z-11.753
N2435 X224.063 Y-71.496 Z-11.683
N2440 Z5. F1500.
N2445 X224.174 Y-70.87
N2450 Z-15.683 F100.
N2455 X224.182 Y-70.872 Z-15.753 F250.
N2460 X224.205 Y-70.876 Z-15.82
N2465 X224.242 Y-70.882 Z-15.88
N2470 X224.291 Y-70.891 Z-15.931
N2475 X224.351 Y-70.902 Z-15.969
N2480 X224.417 Y-70.913 Z-15.992
N2485 X224.486 Y-70.926 Z-16.
N2490 X224.799 Y-70.981
N2495 G2 X225.057 Y-71.349 I-0.055 J-0.313
N2500 G1 X217.376 Y-114.91 F1500.
N2505 X49.674 Y-53.871
N2510 X75.757 Y-27.788
N2515 X203.922
N2520 X228.418 Y-52.284
N2525 X225.057 Y-71.349
N2530 G2 X224.689 Y-71.606 I-0.313 J0.055 F250.
N2535 G1 X224.376 Y-71.551
N2540 X224.306 Y-71.539 Z-15.992
N2545 X224.24 Y-71.527 Z-15.969
N2550 X224.181 Y-71.517 Z-15.931
N2555 X224.132 Y-71.508 Z-15.88
N2560 X224.094 Y-71.501 Z-15.82
N2565 X224.071 Y-71.497 Z-15.753
N2570 X224.063 Y-71.496 Z-15.683
N2575 Z5. F1500.
N2580 X224.174 Y-70.87
N2585 Z-17.933 F100.
N2590 X224.182 Y-70.872 Z-18.003 F250.
N2595 X224.205 Y-70.876 Z-18.07
N2600 X224.242 Y-70.882 Z-18.13
N2605 X224.291 Y-70.891 Z-18.181
N2610 X224.351 Y-70.902 Z-18.219
N2615 X224.417 Y-70.913 Z-18.242
N2620 X224.486 Y-70.926 Z-18.25
N2625 X224.799 Y-70.981
N2630 G2 X225.057 Y-71.349 I-0.055 J-0.313
N2635 G1 X217.376 Y-114.91 F1500.
N2640 X49.674 Y-53.871
N2645 X75.757 Y-27.788
N2650 X203.922
N2655 X228.418 Y-52.284
N2660 X225.057 Y-71.349
N2665 G2 X224.689 Y-71.606 I-0.313 J0.055 F250.
N2670 G1 X224.376 Y-71.551
N2675 X224.306 Y-71.539 Z-18.242
N2680 X224.24 Y-71.527 Z-18.219
N2685 X224.181 Y-71.517 Z-18.181
N2690 X224.132 Y-71.508 Z-18.13
N2695 X224.094 Y-71.501 Z-18.07
N2700 X224.071 Y-71.497 Z-18.003
N2705 X224.063 Y-71.496 Z-17.933
N2710 Z5. F1500.
N2715 X551.063 Y-76.317
N2720 Z-3.683 F100.
N2725 G18 G3 X550.745 Z-4. I-0.318 K0. F250.
N2730 G1 X550.428
N2735 G17 G2 X550.11 Y-76. I0. J0.317
N2740 G1 Y-64.662 F1500.
N2745 G3 X549.587 Y-63.398 I-1.787 J0.
N2750 G1 X485.926 Y0.264
N2755 G3 X484.662 Y0.788 I-1.264 J-1.264
N2760 G1 X284.662
N2765 G3 X282.902 Y-1.31 I0. J-1.788
N2770 G1 X309.351 Y-151.31
N2775 G3 X311.722 Y-152.68 I1.76 J0.31
N2780 G1 X525.01 Y-75.049
N2785 G2 X541.945 Y-82.946 I4.519 J-12.416
N2790 G3 X544.236 Y-84.014 I1.68 J0.611
N2795 G1 X548.934 Y-82.304
N2800 G3 X550.11 Y-80.624 I-0.611 J1.68
N2805 G1 Y-76.
N2810 G2 X550.428 Y-75.683 I0.318 J0. F250.
N2815 G1 X550.745
N2820 G18 G2 X551.063 Z-3.683 I0. K0.318
N2825 G1 Z5. F1500.
N2830 Y-76.317
N2835 Z-7.683 F100.
N2840 G3 X550.745 Z-8. I-0.318 K0. F250.
N2845 G1 X550.428
N2850 G17 G2 X550.11 Y-76. I0. J0.317
N2855 G1 Y-64.662 F1500.
N2860 G3 X549.587 Y-63.398 I-1.787 J0.
N2865 G1 X485.926 Y0.264
N2870 G3 X484.662 Y0.788 I-1.264 J-1.264
N2875 G1 X284.662
N2880 G3 X282.902 Y-1.31 I0. J-1.788
N2885 G1 X309.351 Y-151.31
N2890 G3 X311.722 Y-152.68 I1.76 J0.31
N2895 G1 X525.01 Y-75.049
N2900 G2 X541.945 Y-82.946 I4.519 J-12.416
N2905 G3 X544.236 Y-84.014 I1.68 J0.611
N2910 G1 X548.934 Y-82.304
N2915 G3 X550.11 Y-80.624 I-0.611 J1.68
N2920 G1 Y-76.
N2925 G2 X550.428 Y-75.683 I0.318 J0. F250.
N2930 G1 X550.745
N2935 G18 G2 X551.063 Z-7.683 I0. K0.318
N2940 G1 Z5. F1500.
N2945 Y-76.317
N2950 Z-11.683 F100.
N2955 G3 X550.745 Z-12. I-0.318 K0. F250.
N2960 G1 X550.428
N2965 G17 G2 X550.11 Y-76. I0. J0.317
N2970 G1 Y-64.662 F1500.
N2975 G3 X549.587 Y-63.398 I-1.787 J0.
N2980 G1 X485.926 Y0.264
N2985 G3 X484.662 Y0.788 I-1.264 J-1.264
N2990 G1 X284.662
N2995 G3 X282.902 Y-1.31 I0. J-1.788
N3000 G1 X309.351 Y-151.31
N3005 G3 X311.722 Y-152.68 I1.76 J0.31
N3010 G1 X525.01 Y-75.049
N3015 G2 X541.945 Y-82.946 I4.519 J-12.416
N3020 G3 X544.236 Y-84.014 I1.68 J0.611
N3025 G1 X548.934 Y-82.304
N3030 G3 X550.11 Y-80.624 I-0.611 J1.68
N3035 G1 Y-76.
N3040 G2 X550.428 Y-75.683 I0.318 J0. F250.
N3045 G1 X550.745
N3050 G18 G2 X551.063 Z-11.683 I0. K0.318
N3055 G1 Z5. F1500.
N3060 Y-76.317
N3065 Z-15.683 F100.
N3070 G3 X550.745 Z-16. I-0.318 K0. F250.
N3075 G1 X550.428
N3080 G17 G2 X550.11 Y-76. I0. J0.317
N3085 G1 Y-64.662 F1500.
N3090 G3 X549.587 Y-63.398 I-1.787 J0.
N3095 G1 X485.926 Y0.264
N3100 G3 X484.662 Y0.788 I-1.264 J-1.264
N3105 G1 X284.662
N3110 G3 X282.902 Y-1.31 I0. J-1.788
N3115 G1 X309.351 Y-151.31
N3120 G3 X311.722 Y-152.68 I1.76 J0.31
N3125 G1 X525.01 Y-75.049
N3130 G2 X541.945 Y-82.946 I4.519 J-12.416
N3135 G3 X544.236 Y-84.014 I1.68 J0.611
N3140 G1 X548.934 Y-82.304
N3145 G3 X550.11 Y-80.624 I-0.611 J1.68
N3150 G1 Y-76.
N3155 G2 X550.428 Y-75.683 I0.318 J0. F250.
N3160 G1 X550.745
N3165 G18 G2 X551.063 Z-15.683 I0. K0.318
N3170 G1 Z5. F1500.
N3175 Y-76.317
N3180 Z-17.933 F100.
N3185 G3 X550.745 Z-18.25 I-0.318 K0. F250.
N3190 G1 X550.428
N3195 G17 G2 X550.11 Y-76. I0. J0.317
N3200 G1 Y-64.662 F1500.
N3205 G3 X549.587 Y-63.398 I-1.787 J0.
N3210 G1 X485.926 Y0.264
N3215 G3 X484.662 Y0.788 I-1.264 J-1.264
N3220 G1 X284.662
N3225 G3 X282.902 Y-1.31 I0. J-1.788
N3230 G1 X309.351 Y-151.31
N3235 G3 X311.722 Y-152.68 I1.76 J0.31
N3240 G1 X525.01 Y-75.049
N3245 G2 X541.945 Y-82.946 I4.519 J-12.416
N3250 G3 X544.236 Y-84.014 I1.68 J0.611
N3255 G1 X548.934 Y-82.304
N3260 G3 X550.11 Y-80.624 I-0.611 J1.68
N3265 G1 Y-76.
N3270 G2 X550.428 Y-75.683 I0.318 J0. F250.
N3275 G1 X550.745
N3280 G18 G2 X551.063 Z-17.933 I0. K0.317
N3285 G1 Z5. F1500.
N3290 X373.486 Y-98.777
N3295 Z-3.683 F100.
N3300 X373.488 Y-98.785 Z-3.753 F250.
N3305 X373.496 Y-98.807 Z-3.82
N3310 X373.509 Y-98.842 Z-3.88
N3315 X373.526 Y-98.89 Z-3.931
N3320 X373.547 Y-98.946 Z-3.969
N3325 X373.57 Y-99.009 Z-3.992
N3330 X373.594 Y-99.076 Z-4.
N3335 X373.703 Y-99.374
N3340 G17 G2 X373.513 Y-99.781 I-0.298 J-0.109
N3345 G1 X331.947 Y-114.91 F1500.
N3350 X320.905 Y-52.284
N3355 X345.402 Y-27.788
N3360 X473.566
N3365 X499.649 Y-53.871
N3370 X373.513 Y-99.781
N3375 G2 X373.106 Y-99.591 I-0.109 J0.298 F250.
N3380 G1 X372.997 Y-99.293
N3385 X372.973 Y-99.226 Z-3.992
N3390 X372.95 Y-99.163 Z-3.969
N3395 X372.93 Y-99.107 Z-3.931
N3400 X372.913 Y-99.06 Z-3.88
N3405 X372.9 Y-99.024 Z-3.82
N3410 X372.892 Y-99.002 Z-3.753
N3415 X372.889 Y-98.995 Z-3.683
N3420 Z5. F1500.
N3425 X373.486 Y-98.777
N3430 Z-7.683 F100.
N3435 X373.488 Y-98.785 Z-7.753 F250.
N3440 X373.496 Y-98.807 Z-7.82
N3445 X373.509 Y-98.842 Z-7.88
N3450 X373.526 Y-98.89 Z-7.931
N3455 X373.547 Y-98.946 Z-7.969
N3460 X373.57 Y-99.009 Z-7.992
N3465 X373.594 Y-99.076 Z-8.
N3470 X373.703 Y-99.374
N3475 G2 X373.513 Y-99.781 I-0.298 J-0.109
N3480 G1 X331.947 Y-114.91 F1500.
N3485 X320.905 Y-52.284
N3490 X345.402 Y-27.788
N3495 X473.566
N3500 X499.649 Y-53.871
N3505 X373.513 Y-99.781
N3510 G2 X373.106 Y-99.591 I-0.109 J0.298 F250.
N3515 G1 X372.997 Y-99.293
N3520 X372.973 Y-99.226 Z-7.992
N3525 X372.95 Y-99.163 Z-7.969
N3530 X372.93 Y-99.107 Z-7.931
N3535 X372.913 Y-99.06 Z-7.88
N3540 X372.9 Y-99.024 Z-7.82
N3545 X372.892 Y-99.002 Z-7.753
N3550 X372.889 Y-98.995 Z-7.683
N3555 Z5. F1500.
N3560 X373.486 Y-98.777
N3565 Z-11.683 F100.
N3570 X373.488 Y-98.785 Z-11.753 F250.
N3575 X373.496 Y-98.807 Z-11.82
N3580 X373.509 Y-98.842 Z-11.88
N3585 X373.526 Y-98.89 Z-11.931
N3590 X373.547 Y-98.946 Z-11.969
N3595 X373.57 Y-99.009 Z-11.992
N3600 X373.594 Y-99.076 Z-12.
N3605 X373.703 Y-99.374
N3610 G2 X373.513 Y-99.781 I-0.298 J-0.109
N3615 G1 X331.947 Y-114.91 F1500.
N3620 X320.905 Y-52.284
N3625 X345.402 Y-27.788
N3630 X473.566
N3635 X499.649 Y-53.871
N3640 X373.513 Y-99.781
N3645 G2 X373.106 Y-99.591 I-0.109 J0.298 F250.
N3650 G1 X372.997 Y-99.293
N3655 X372.973 Y-99.226 Z-11.992
N3660 X372.95 Y-99.163 Z-11.969
N3665 X372.93 Y-99.107 Z-11.931
N3670 X372.913 Y-99.06 Z-11.88
N3675 X372.9 Y-99.024 Z-11.82
N3680 X372.892 Y-99.002 Z-11.753
N3685 X372.889 Y-98.995 Z-11.683
N3690 Z5. F1500.
N3695 X373.486 Y-98.777
N3700 Z-15.683 F100.
N3705 X373.488 Y-98.785 Z-15.753 F250.
N3710 X373.496 Y-98.807 Z-15.82
N3715 X373.509 Y-98.842 Z-15.88
N3720 X373.526 Y-98.89 Z-15.931
N3725 X373.547 Y-98.946 Z-15.969
N3730 X373.57 Y-99.009 Z-15.992
N3735 X373.594 Y-99.076 Z-16.
N3740 X373.703 Y-99.374
N3745 G2 X373.513 Y-99.781 I-0.298 J-0.109
N3750 G1 X331.947 Y-114.91 F1500.
N3755 X320.905 Y-52.284
N3760 X345.402 Y-27.788
N3765 X473.566
N3770 X499.649 Y-53.871
N3775 X373.513 Y-99.781
N3780 G2 X373.106 Y-99.591 I-0.109 J0.298 F250.
N3785 G1 X372.997 Y-99.293
N3790 X372.973 Y-99.226 Z-15.992
N3795 X372.95 Y-99.163 Z-15.969
N3800 X372.93 Y-99.107 Z-15.931
N3805 X372.913 Y-99.06 Z-15.88
N3810 X372.9 Y-99.024 Z-15.82
N3815 X372.892 Y-99.002 Z-15.753
N3820 X372.889 Y-98.995 Z-15.683
N3825 Z5. F1500.
N3830 X373.486 Y-98.777
N3835 Z-17.933 F100.
N3840 X373.488 Y-98.785 Z-18.003 F250.
N3845 X373.496 Y-98.807 Z-18.07
N3850 X373.509 Y-98.842 Z-18.13
N3855 X373.526 Y-98.89 Z-18.181
N3860 X373.547 Y-98.946 Z-18.219
N3865 X373.57 Y-99.009 Z-18.242
N3870 X373.594 Y-99.076 Z-18.25
N3875 X373.703 Y-99.374
N3880 G2 X373.513 Y-99.781 I-0.298 J-0.109
N3885 G1 X331.947 Y-114.91 F1500.
N3890 X320.905 Y-52.284
N3895 X345.402 Y-27.788
N3900 X473.566
N3905 X499.649 Y-53.871
N3910 X373.513 Y-99.781
N3915 G2 X373.106 Y-99.591 I-0.109 J0.298 F250.
N3920 G1 X372.997 Y-99.293
N3925 X372.973 Y-99.226 Z-18.242
N3930 X372.95 Y-99.163 Z-18.219
N3935 X372.93 Y-99.107 Z-18.181
N3940 X372.913 Y-99.06 Z-18.13
N3945 X372.9 Y-99.024 Z-18.07
N3950 X372.892 Y-99.002 Z-18.003
N3955 X372.889 Y-98.995 Z-17.933
N3960 Z15. F1500.
N3965 G53 G0 Z0.
N3970 G53 G0 X0. Y0.
N3975 M30
%
