%
(1002)
(MACHINE)
(  MODEL LASER SNAKE V2)
(  DESCRIPTION 3-AXIS ROUTER)
(T1  D=3.175 CR=0. - ZMIN=-12. - FLAT END MILL)
N10 G90 G94 G17 G91.1
N15 G21
(WHEN USING FUSION 360 FOR PERSONAL USE, THE FEEDRATE OF)
(RAPID MOVES IS REDUCED TO MATCH THE FEEDRATE OF CUTTING)
(MOVES, WHICH CAN INCREASE MACHINING TIME. UNRESTRICTED RAPID)
(MOVES ARE AVAILABLE WITH A FUSION 360 SUBSCRIPTION.)
N20 G53 G0 Z0.
(BORE1)
N25 T1 M6
N30 S18000 M3
N35 G54
N40 G0 X224.549 Y-26.317
N45 G43 Z15. H1
N50 G1 Z2. F1500.
N55 Z0.317 F250.
N60 G18 G3 X224.232 Z0. I-0.317 K0.
N65 G1 X224.073
N70 G17 G2 X223.755 Y-26. I0. J0.317
N75 X245.98 Z-0.443 I11.113 J0. F1500.
N80 X223.755 Z-0.887 I-11.113 J0.
N85 X245.98 Z-1.33 I11.113 J0.
N90 X223.755 Z-1.774 I-11.113 J0.
N95 X245.98 Z-2.217 I11.113 J0.
N100 X223.755 Z-2.661 I-11.113 J0.
N105 X245.98 Z-3.104 I11.113 J0.
N110 X223.755 Z-3.548 I-11.113 J0.
N115 X245.98 Z-3.991 I11.113 J0.
N120 X223.755 Z-4.435 I-11.113 J0.
N125 X245.98 Z-4.878 I11.112 J0.
N130 X223.755 Z-5.322 I-11.112 J0.
N135 X245.98 Z-5.765 I11.112 J0.
N140 X223.755 Z-6.209 I-11.112 J0.
N145 X245.98 Z-6.652 I11.112 J0.
N150 X223.755 Z-7.096 I-11.112 J0.
N155 X245.98 Z-7.539 I11.112 J0.
N160 X223.755 Z-7.983 I-11.112 J0.
N165 X245.98 Z-8.426 I11.112 J0.
N170 X223.755 Z-8.87 I-11.112 J0.
N175 X245.98 Z-9.313 I11.112 J0.
N180 X223.755 Z-9.757 I-11.112 J0.
N185 X245.98 Z-10.2 I11.112 J0.
N190 X223.755 Z-10.644 I-11.112 J0.
N195 X245.98 Z-11.087 I11.112 J0.
N200 X223.755 Z-11.531 I-11.112 J0.
N205 X235.877 Y-14.933 Z-11.765 I11.112 J0.
N210 X245.797 Y-28.009 Z-12. I-1.009 J-11.067
N215 X223.939 Y-23.991 I-10.929 J2.009
N220 X245.797 Y-28.009 I10.929 J-2.009
N225 X245.427 Y-28.264 I-0.312 J0.057 F250.
N230 G1 X245.271 Y-28.236
N235 X245.202 Y-28.223 Z-11.992
N240 X245.136 Y-28.211 Z-11.969
N245 X245.077 Y-28.2 Z-11.931
N250 X245.027 Y-28.191 Z-11.88
N255 X244.99 Y-28.184 Z-11.82
N260 X244.967 Y-28.18 Z-11.753
N265 X244.959 Y-28.178 Z-11.682
N270 Z5. F1500.
N275 X304.137 Y-26.317
N280 Z2.
N285 Z0.317 F250.
N290 G18 G3 X303.819 Z0. I-0.318 K0.
N295 G1 X303.66
N300 G17 G2 X303.343 Y-26. I0. J0.317
N305 X325.568 Z-0.443 I11.112 J0. F1500.
N310 X303.343 Z-0.887 I-11.112 J0.
N315 X325.568 Z-1.33 I11.112 J0.
N320 X303.343 Z-1.774 I-11.112 J0.
N325 X325.568 Z-2.217 I11.112 J0.
N330 X303.343 Z-2.661 I-11.112 J0.
N335 X325.568 Z-3.104 I11.112 J0.
N340 X303.343 Z-3.548 I-11.112 J0.
N345 X325.568 Z-3.991 I11.112 J0.
N350 X303.343 Z-4.435 I-11.112 J0.
N355 X325.568 Z-4.878 I11.112 J0.
N360 X303.343 Z-5.322 I-11.112 J0.
N365 X325.568 Z-5.765 I11.112 J0.
N370 X303.343 Z-6.209 I-11.112 J0.
N375 X325.568 Z-6.652 I11.112 J0.
N380 X303.343 Z-7.096 I-11.112 J0.
N385 X325.568 Z-7.539 I11.113 J0.
N390 X303.343 Z-7.983 I-11.113 J0.
N395 X325.568 Z-8.426 I11.113 J0.
N400 X303.343 Z-8.87 I-11.113 J0.
N405 X325.568 Z-9.313 I11.113 J0.
N410 X303.343 Z-9.757 I-11.113 J0.
N415 X325.568 Z-10.2 I11.113 J0.
N420 X303.343 Z-10.644 I-11.113 J0.
N425 X325.568 Z-11.087 I11.113 J0.
N430 X303.343 Z-11.531 I-11.113 J0.
N435 X315.464 Y-14.933 Z-11.765 I11.113 J0.
N440 X325.385 Y-28.009 Z-12. I-1.009 J-11.067
N445 X303.526 Y-23.991 I-10.929 J2.009
N450 X325.385 Y-28.009 I10.929 J-2.009
N455 X325.015 Y-28.264 I-0.312 J0.057 F250.
N460 G1 X324.859 Y-28.236
N465 X324.79 Y-28.223 Z-11.992
N470 X324.724 Y-28.211 Z-11.969
N475 X324.664 Y-28.2 Z-11.931
N480 X324.615 Y-28.191 Z-11.88
N485 X324.578 Y-28.184 Z-11.82
N490 X324.555 Y-28.18 Z-11.753
N495 X324.547 Y-28.178 Z-11.682
N500 Z15. F1500.
N505 G53 G0 Z0.
N510 G53 G0 X0. Y0.
N515 M30
%
