%
(1003)
(MACHINE)
(  MODEL LASER SNAKE V2)
(  DESCRIPTION 3-AXIS ROUTER)
(T1  D=3.175 CR=0. - ZMIN=-18.25 - FLAT END MILL)
N10 G90 G94 G17 G91.1
N15 G21
(WHEN USING FUSION 360 FOR PERSONAL USE, THE FEEDRATE OF)
(RAPID MOVES IS REDUCED TO MATCH THE FEEDRATE OF CUTTING)
(MOVES, WHICH CAN INCREASE MACHINING TIME. UNRESTRICTED RAPID)
(MOVES ARE AVAILABLE WITH A FUSION 360 SUBSCRIPTION.)
N20 G53 G0 Z0.
(2D CONTOUR1 2)
N25 T1 M6
N30 S18000 M3
N35 G54
N40 G0 X-0.167 Y-82.903
N45 G43 Z15. H1
N50 G1 Z5. F750.
N55 Z-4.683 F100.
N60 X-0.164 Y-82.895 Z-4.753 F250.
N65 X-0.156 Y-82.873 Z-4.82
N70 X-0.143 Y-82.837 Z-4.88
N75 X-0.126 Y-82.79 Z-4.931
N80 X-0.106 Y-82.734 Z-4.969
N85 X-0.083 Y-82.671 Z-4.992
N90 X-0.058 Y-82.604 Z-5.
N95 X0.05 Y-82.306
N100 G2 X0.457 Y-82.116 I0.298 J-0.109
N105 G1 X5.156 Y-83.826 F750.
N110 G3 X7.19 Y-82.877 I0.543 J1.492
N115 G2 X24.381 Y-74.861 I12.604 J-4.587
N120 G1 X237.67 Y-152.492
N125 G3 X239.776 Y-151.276 I0.543 J1.492
N130 G1 X266.225 Y-1.276
N135 G3 X264.662 Y0.587 I-1.563 J0.276
N140 G1 X64.662
N145 G3 X63.539 Y0.123 I0. J-1.587
N150 G1 X-0.123 Y-63.539
N155 G3 X-0.587 Y-64.662 I1.123 J-1.123
N160 G1 Y-80.624
N165 G3 X0.457 Y-82.116 I1.587 J0.
N170 G2 X0.647 Y-82.523 I-0.109 J-0.298 F250.
N175 G1 X0.538 Y-82.821
N180 X0.514 Y-82.888 Z-4.992
N185 X0.491 Y-82.951 Z-4.969
N190 X0.471 Y-83.007 Z-4.931
N195 X0.453 Y-83.055 Z-4.88
N200 X0.44 Y-83.09 Z-4.82
N205 X0.432 Y-83.112 Z-4.753
N210 X0.43 Y-83.12 Z-4.683
N215 Z5. F750.
N220 X-0.167 Y-82.903
N225 Z-9.683 F100.
N230 X-0.164 Y-82.895 Z-9.753 F250.
N235 X-0.156 Y-82.873 Z-9.82
N240 X-0.143 Y-82.837 Z-9.88
N245 X-0.126 Y-82.79 Z-9.931
N250 X-0.106 Y-82.734 Z-9.969
N255 X-0.083 Y-82.671 Z-9.992
N260 X-0.058 Y-82.604 Z-10.
N265 X0.05 Y-82.306
N270 G2 X0.457 Y-82.116 I0.298 J-0.109
N275 G1 X5.156 Y-83.826 F750.
N280 G3 X7.19 Y-82.877 I0.543 J1.492
N285 G2 X24.381 Y-74.861 I12.604 J-4.587
N290 G1 X237.67 Y-152.492
N295 G3 X239.776 Y-151.276 I0.543 J1.492
N300 G1 X266.225 Y-1.276
N305 G3 X264.662 Y0.587 I-1.563 J0.276
N310 G1 X64.662
N315 G3 X63.539 Y0.123 I0. J-1.587
N320 G1 X-0.123 Y-63.539
N325 G3 X-0.587 Y-64.662 I1.123 J-1.123
N330 G1 Y-80.624
N335 G3 X0.457 Y-82.116 I1.587 J0.
N340 G2 X0.647 Y-82.523 I-0.109 J-0.298 F250.
N345 G1 X0.538 Y-82.821
N350 X0.514 Y-82.888 Z-9.992
N355 X0.491 Y-82.951 Z-9.969
N360 X0.471 Y-83.007 Z-9.931
N365 X0.453 Y-83.055 Z-9.88
N370 X0.44 Y-83.09 Z-9.82
N375 X0.432 Y-83.112 Z-9.753
N380 X0.43 Y-83.12 Z-9.683
N385 Z5. F750.
N390 X-0.167 Y-82.903
N395 Z-14.683 F100.
N400 X-0.164 Y-82.895 Z-14.753 F250.
N405 X-0.156 Y-82.873 Z-14.82
N410 X-0.143 Y-82.837 Z-14.88
N415 X-0.126 Y-82.79 Z-14.931
N420 X-0.106 Y-82.734 Z-14.969
N425 X-0.083 Y-82.671 Z-14.992
N430 X-0.058 Y-82.604 Z-15.
N435 X0.05 Y-82.306
N440 G2 X0.457 Y-82.116 I0.298 J-0.109
N445 G1 X5.156 Y-83.826 F750.
N450 G3 X7.19 Y-82.877 I0.543 J1.492
N455 G2 X24.381 Y-74.861 I12.604 J-4.587
N460 G1 X237.67 Y-152.492
N465 G3 X239.776 Y-151.276 I0.543 J1.492
N470 G1 X266.225 Y-1.276
N475 G3 X264.662 Y0.587 I-1.563 J0.276
N480 G1 X64.662
N485 G3 X63.539 Y0.123 I0. J-1.587
N490 G1 X-0.123 Y-63.539
N495 G3 X-0.587 Y-64.662 I1.123 J-1.123
N500 G1 Y-80.624
N505 G3 X0.457 Y-82.116 I1.587 J0.
N510 G2 X0.647 Y-82.523 I-0.109 J-0.298 F250.
N515 G1 X0.538 Y-82.821
N520 X0.514 Y-82.888 Z-14.992
N525 X0.491 Y-82.951 Z-14.969
N530 X0.471 Y-83.007 Z-14.931
N535 X0.453 Y-83.055 Z-14.88
N540 X0.44 Y-83.09 Z-14.82
N545 X0.432 Y-83.112 Z-14.753
N550 X0.43 Y-83.12 Z-14.683
N555 Z5. F750.
N560 X-0.167 Y-82.903
N565 Z-17.933 F100.
N570 X-0.164 Y-82.895 Z-18.003 F250.
N575 X-0.156 Y-82.873 Z-18.07
N580 X-0.143 Y-82.837 Z-18.13
N585 X-0.126 Y-82.79 Z-18.181
N590 X-0.106 Y-82.734 Z-18.219
N595 X-0.083 Y-82.671 Z-18.242
N600 X-0.058 Y-82.604 Z-18.25
N605 X0.05 Y-82.306
N610 G2 X0.457 Y-82.116 I0.298 J-0.109
N615 G1 X5.156 Y-83.826 F750.
N620 G3 X7.19 Y-82.877 I0.543 J1.492
N625 G2 X24.381 Y-74.861 I12.604 J-4.587
N630 G1 X237.67 Y-152.492
N635 G3 X239.776 Y-151.276 I0.543 J1.492
N640 G1 X266.225 Y-1.276
N645 G3 X264.662 Y0.587 I-1.563 J0.276
N650 G1 X64.662
N655 G3 X63.539 Y0.123 I0. J-1.587
N660 G1 X-0.123 Y-63.539
N665 G3 X-0.587 Y-64.662 I1.123 J-1.123
N670 G1 Y-80.624
N675 G3 X0.457 Y-82.116 I1.587 J0.
N680 G2 X0.647 Y-82.523 I-0.109 J-0.298 F250.
N685 G1 X0.538 Y-82.821
N690 X0.514 Y-82.888 Z-18.242
N695 X0.491 Y-82.951 Z-18.219
N700 X0.471 Y-83.007 Z-18.181
N705 X0.453 Y-83.055 Z-18.13
N710 X0.44 Y-83.09 Z-18.07
N715 X0.432 Y-83.112 Z-18.003
N720 X0.43 Y-83.12 Z-17.933
N725 Z5. F750.
N730 X224.371 Y-70.905
N735 Z-4.683 F100.
N740 X224.378 Y-70.907 Z-4.753 F250.
N745 X224.402 Y-70.911 Z-4.82
N750 X224.439 Y-70.917 Z-4.88
N755 X224.488 Y-70.926 Z-4.931
N760 X224.548 Y-70.936 Z-4.969
N765 X224.614 Y-70.948 Z-4.992
N770 X224.683 Y-70.96 Z-5.
N775 X224.996 Y-71.015
N780 G2 X225.254 Y-71.383 I-0.055 J-0.313
N785 G1 X217.531 Y-115.179 F750.
N790 X49.311 Y-53.952
N795 X75.675 Y-27.587
N800 X204.004
N805 X228.633 Y-52.217
N810 X225.254 Y-71.383
N815 G2 X224.886 Y-71.641 I-0.313 J0.055 F250.
N820 G1 X224.573 Y-71.586
N825 X224.503 Y-71.573 Z-4.992
N830 X224.437 Y-71.562 Z-4.969
N835 X224.378 Y-71.551 Z-4.931
N840 X224.329 Y-71.543 Z-4.88
N845 X224.291 Y-71.536 Z-4.82
N850 X224.268 Y-71.532 Z-4.753
N855 X224.26 Y-71.531 Z-4.683
N860 Z5. F750.
N865 X224.371 Y-70.905
N870 Z-9.683 F100.
N875 X224.378 Y-70.907 Z-9.753 F250.
N880 X224.402 Y-70.911 Z-9.82
N885 X224.439 Y-70.917 Z-9.88
N890 X224.488 Y-70.926 Z-9.931
N895 X224.548 Y-70.936 Z-9.969
N900 X224.614 Y-70.948 Z-9.992
N905 X224.683 Y-70.96 Z-10.
N910 X224.996 Y-71.015
N915 G2 X225.254 Y-71.383 I-0.055 J-0.313
N920 G1 X217.531 Y-115.179 F750.
N925 X49.311 Y-53.952
N930 X75.675 Y-27.587
N935 X204.004
N940 X228.633 Y-52.217
N945 X225.254 Y-71.383
N950 G2 X224.886 Y-71.641 I-0.313 J0.055 F250.
N955 G1 X224.573 Y-71.586
N960 X224.503 Y-71.573 Z-9.992
N965 X224.437 Y-71.562 Z-9.969
N970 X224.378 Y-71.551 Z-9.931
N975 X224.329 Y-71.543 Z-9.88
N980 X224.291 Y-71.536 Z-9.82
N985 X224.268 Y-71.532 Z-9.753
N990 X224.26 Y-71.531 Z-9.683
N995 Z5. F750.
N1000 X224.371 Y-70.905
N1005 Z-14.683 F100.
N1010 X224.378 Y-70.907 Z-14.753 F250.
N1015 X224.402 Y-70.911 Z-14.82
N1020 X224.439 Y-70.917 Z-14.88
N1025 X224.488 Y-70.926 Z-14.931
N1030 X224.548 Y-70.936 Z-14.969
N1035 X224.614 Y-70.948 Z-14.992
N1040 X224.683 Y-70.96 Z-15.
N1045 X224.996 Y-71.015
N1050 G2 X225.254 Y-71.383 I-0.055 J-0.313
N1055 G1 X217.531 Y-115.179 F750.
N1060 X49.311 Y-53.952
N1065 X75.675 Y-27.587
N1070 X204.004
N1075 X228.633 Y-52.217
N1080 X225.254 Y-71.383
N1085 G2 X224.886 Y-71.641 I-0.313 J0.055 F250.
N1090 G1 X224.573 Y-71.586
N1095 X224.503 Y-71.573 Z-14.992
N1100 X224.437 Y-71.562 Z-14.969
N1105 X224.378 Y-71.551 Z-14.931
N1110 X224.329 Y-71.543 Z-14.88
N1115 X224.291 Y-71.536 Z-14.82
N1120 X224.268 Y-71.532 Z-14.753
N1125 X224.26 Y-71.531 Z-14.683
N1130 Z5. F750.
N1135 X224.371 Y-70.905
N1140 Z-17.933 F100.
N1145 X224.378 Y-70.907 Z-18.003 F250.
N1150 X224.402 Y-70.911 Z-18.07
N1155 X224.439 Y-70.917 Z-18.13
N1160 X224.488 Y-70.926 Z-18.181
N1165 X224.548 Y-70.936 Z-18.219
N1170 X224.614 Y-70.948 Z-18.242
N1175 X224.683 Y-70.96 Z-18.25
N1180 X224.996 Y-71.015
N1185 G2 X225.254 Y-71.383 I-0.055 J-0.313
N1190 G1 X217.531 Y-115.179 F750.
N1195 X49.311 Y-53.952
N1200 X75.675 Y-27.587
N1205 X204.004
N1210 X228.633 Y-52.217
N1215 X225.254 Y-71.383
N1220 G2 X224.886 Y-71.641 I-0.313 J0.055 F250.
N1225 G1 X224.573 Y-71.586
N1230 X224.503 Y-71.573 Z-18.242
N1235 X224.437 Y-71.562 Z-18.219
N1240 X224.378 Y-71.551 Z-18.181
N1245 X224.329 Y-71.543 Z-18.13
N1250 X224.291 Y-71.536 Z-18.07
N1255 X224.268 Y-71.532 Z-18.003
N1260 X224.26 Y-71.531 Z-17.933
N1265 Z5. F750.
N1270 X550.863 Y-76.317
N1275 Z-4.683 F100.
N1280 G18 G3 X550.545 Z-5. I-0.318 K0. F250.
N1285 G1 X550.228
N1290 G17 G2 X549.911 Y-76. I0. J0.317
N1295 G1 Y-64.662 F750.
N1300 G3 X549.446 Y-63.539 I-1.588 J0.
N1305 G1 X485.785 Y0.123
N1310 G3 X484.662 Y0.587 I-1.123 J-1.123
N1315 G1 X284.662
N1320 G3 X283.099 Y-1.276 I0. J-1.587
N1325 G1 X309.548 Y-151.276
N1330 G3 X311.654 Y-152.492 I1.563 J0.276
N1335 G1 X524.942 Y-74.861
N1340 G2 X542.133 Y-82.877 I4.587 J-12.604
N1345 G3 X544.168 Y-83.826 I1.492 J0.543
N1350 G1 X548.866 Y-82.116
N1355 G3 X549.911 Y-80.624 I-0.543 J1.492
N1360 G1 Y-76.
N1365 G2 X550.228 Y-75.683 I0.318 J0. F250.
N1370 G1 X550.545
N1375 G18 G2 X550.863 Z-4.683 I0. K0.318
N1380 G1 Z5. F750.
N1385 Y-76.317
N1390 Z-9.683 F100.
N1395 G3 X550.545 Z-10. I-0.318 K0. F250.
N1400 G1 X550.228
N1405 G17 G2 X549.911 Y-76. I0. J0.317
N1410 G1 Y-64.662 F750.
N1415 G3 X549.446 Y-63.539 I-1.588 J0.
N1420 G1 X485.785 Y0.123
N1425 G3 X484.662 Y0.587 I-1.123 J-1.123
N1430 G1 X284.662
N1435 G3 X283.099 Y-1.276 I0. J-1.587
N1440 G1 X309.548 Y-151.276
N1445 G3 X311.654 Y-152.492 I1.563 J0.276
N1450 G1 X524.942 Y-74.861
N1455 G2 X542.133 Y-82.877 I4.587 J-12.604
N1460 G3 X544.168 Y-83.826 I1.492 J0.543
N1465 G1 X548.866 Y-82.116
N1470 G3 X549.911 Y-80.624 I-0.543 J1.492
N1475 G1 Y-76.
N1480 G2 X550.228 Y-75.683 I0.318 J0. F250.
N1485 G1 X550.545
N1490 G18 G2 X550.863 Z-9.683 I0. K0.318
N1495 G1 Z5. F750.
N1500 Y-76.317
N1505 Z-14.683 F100.
N1510 G3 X550.545 Z-15. I-0.318 K0. F250.
N1515 G1 X550.228
N1520 G17 G2 X549.911 Y-76. I0. J0.317
N1525 G1 Y-64.662 F750.
N1530 G3 X549.446 Y-63.539 I-1.588 J0.
N1535 G1 X485.785 Y0.123
N1540 G3 X484.662 Y0.587 I-1.123 J-1.123
N1545 G1 X284.662
N1550 G3 X283.099 Y-1.276 I0. J-1.587
N1555 G1 X309.548 Y-151.276
N1560 G3 X311.654 Y-152.492 I1.563 J0.276
N1565 G1 X524.942 Y-74.861
N1570 G2 X542.133 Y-82.877 I4.587 J-12.604
N1575 G3 X544.168 Y-83.826 I1.492 J0.543
N1580 G1 X548.866 Y-82.116
N1585 G3 X549.911 Y-80.624 I-0.543 J1.492
N1590 G1 Y-76.
N1595 G2 X550.228 Y-75.683 I0.318 J0. F250.
N1600 G1 X550.545
N1605 G18 G2 X550.863 Z-14.683 I0. K0.318
N1610 G1 Z5. F750.
N1615 Y-76.317
N1620 Z-17.933 F100.
N1625 G3 X550.545 Z-18.25 I-0.318 K0. F250.
N1630 G1 X550.228
N1635 G17 G2 X549.911 Y-76. I0. J0.317
N1640 G1 Y-64.662 F750.
N1645 G3 X549.446 Y-63.539 I-1.588 J0.
N1650 G1 X485.785 Y0.123
N1655 G3 X484.662 Y0.587 I-1.123 J-1.123
N1660 G1 X284.662
N1665 G3 X283.099 Y-1.276 I0. J-1.587
N1670 G1 X309.548 Y-151.276
N1675 G3 X311.654 Y-152.492 I1.563 J0.276
N1680 G1 X524.942 Y-74.861
N1685 G2 X542.133 Y-82.877 I4.587 J-12.604
N1690 G3 X544.168 Y-83.826 I1.492 J0.543
N1695 G1 X548.866 Y-82.116
N1700 G3 X549.911 Y-80.624 I-0.543 J1.492
N1705 G1 Y-76.
N1710 G2 X550.228 Y-75.683 I0.318 J0. F250.
N1715 G1 X550.545
N1720 G18 G2 X550.863 Z-17.933 I0. K0.317
N1725 G1 Z5. F750.
N1730 X373.554 Y-98.965
N1735 Z-4.683 F100.
N1740 X373.557 Y-98.973 Z-4.753 F250.
N1745 X373.565 Y-98.995 Z-4.82
N1750 X373.578 Y-99.03 Z-4.88
N1755 X373.595 Y-99.078 Z-4.931
N1760 X373.615 Y-99.134 Z-4.969
N1765 X373.638 Y-99.197 Z-4.992
N1770 X373.663 Y-99.264 Z-5.
N1775 X373.771 Y-99.562
N1780 G17 G2 X373.581 Y-99.969 I-0.298 J-0.109
N1785 G1 X331.792 Y-115.179 F750.
N1790 X320.69 Y-52.217
N1795 X345.32 Y-27.587
N1800 X473.648
N1805 X500.012 Y-53.952
N1810 X373.581 Y-99.969
N1815 G2 X373.174 Y-99.779 I-0.109 J0.298 F250.
N1820 G1 X373.066 Y-99.481
N1825 X373.042 Y-99.414 Z-4.992
N1830 X373.019 Y-99.351 Z-4.969
N1835 X372.998 Y-99.295 Z-4.931
N1840 X372.981 Y-99.248 Z-4.88
N1845 X372.968 Y-99.212 Z-4.82
N1850 X372.96 Y-99.19 Z-4.753
N1855 X372.957 Y-99.182 Z-4.683
N1860 Z5. F750.
N1865 X373.554 Y-98.965
N1870 Z-9.683 F100.
N1875 X373.557 Y-98.973 Z-9.753 F250.
N1880 X373.565 Y-98.995 Z-9.82
N1885 X373.578 Y-99.03 Z-9.88
N1890 X373.595 Y-99.078 Z-9.931
N1895 X373.615 Y-99.134 Z-9.969
N1900 X373.638 Y-99.197 Z-9.992
N1905 X373.663 Y-99.264 Z-10.
N1910 X373.771 Y-99.562
N1915 G2 X373.581 Y-99.969 I-0.298 J-0.109
N1920 G1 X331.792 Y-115.179 F750.
N1925 X320.69 Y-52.217
N1930 X345.32 Y-27.587
N1935 X473.648
N1940 X500.012 Y-53.952
N1945 X373.581 Y-99.969
N1950 G2 X373.174 Y-99.779 I-0.109 J0.298 F250.
N1955 G1 X373.066 Y-99.481
N1960 X373.042 Y-99.414 Z-9.992
N1965 X373.019 Y-99.351 Z-9.969
N1970 X372.998 Y-99.295 Z-9.931
N1975 X372.981 Y-99.248 Z-9.88
N1980 X372.968 Y-99.212 Z-9.82
N1985 X372.96 Y-99.19 Z-9.753
N1990 X372.957 Y-99.182 Z-9.683
N1995 Z5. F750.
N2000 X373.554 Y-98.965
N2005 Z-14.683 F100.
N2010 X373.557 Y-98.973 Z-14.753 F250.
N2015 X373.565 Y-98.995 Z-14.82
N2020 X373.578 Y-99.03 Z-14.88
N2025 X373.595 Y-99.078 Z-14.931
N2030 X373.615 Y-99.134 Z-14.969
N2035 X373.638 Y-99.197 Z-14.992
N2040 X373.663 Y-99.264 Z-15.
N2045 X373.771 Y-99.562
N2050 G2 X373.581 Y-99.969 I-0.298 J-0.109
N2055 G1 X331.792 Y-115.179 F750.
N2060 X320.69 Y-52.217
N2065 X345.32 Y-27.587
N2070 X473.648
N2075 X500.012 Y-53.952
N2080 X373.581 Y-99.969
N2085 G2 X373.174 Y-99.779 I-0.109 J0.298 F250.
N2090 G1 X373.066 Y-99.481
N2095 X373.042 Y-99.414 Z-14.992
N2100 X373.019 Y-99.351 Z-14.969
N2105 X372.998 Y-99.295 Z-14.931
N2110 X372.981 Y-99.248 Z-14.88
N2115 X372.968 Y-99.212 Z-14.82
N2120 X372.96 Y-99.19 Z-14.753
N2125 X372.957 Y-99.182 Z-14.683
N2130 Z5. F750.
N2135 X373.554 Y-98.965
N2140 Z-17.933 F100.
N2145 X373.557 Y-98.973 Z-18.003 F250.
N2150 X373.565 Y-98.995 Z-18.07
N2155 X373.578 Y-99.03 Z-18.13
N2160 X373.595 Y-99.078 Z-18.181
N2165 X373.615 Y-99.134 Z-18.219
N2170 X373.638 Y-99.197 Z-18.242
N2175 X373.663 Y-99.264 Z-18.25
N2180 X373.771 Y-99.562
N2185 G2 X373.581 Y-99.969 I-0.298 J-0.109
N2190 G1 X331.792 Y-115.179 F750.
N2195 X320.69 Y-52.217
N2200 X345.32 Y-27.587
N2205 X473.648
N2210 X500.012 Y-53.952
N2215 X373.581 Y-99.969
N2220 G2 X373.174 Y-99.779 I-0.109 J0.298 F250.
N2225 G1 X373.066 Y-99.481
N2230 X373.042 Y-99.414 Z-18.242
N2235 X373.019 Y-99.351 Z-18.219
N2240 X372.998 Y-99.295 Z-18.181
N2245 X372.981 Y-99.248 Z-18.13
N2250 X372.968 Y-99.212 Z-18.07
N2255 X372.96 Y-99.19 Z-18.003
N2260 X372.957 Y-99.182 Z-17.933
N2265 Z15. F750.
N2270 G53 G0 Z0.
N2275 G53 G0 X0. Y0.
N2280 M30
%
