%
(1001-2)
(6MM END MILL)
(T1  D=6. CR=0. - ZMIN=-6. - FLAT END MILL)
N10 G90 G94 G17 G91.1
N15 G21
N20 G53 G0 Z0.
(2D POCKET1)
N25 M9
N30 T1 M6
N35 S18000 M3
N40 G54
N45 G0 X51.645 Y1371.902
N50 G43 Z5. H1
N55 G1 Z-2.15 F1000.
N60 G19 G2 Y1371.302 Z-2.75 J-0.6 K0.
N65 G1 Y1367.891
N70 Y-2.894 F4500.
N75 Y-2.917 F1000.
N80 G2 Y-3.517 Z-2.15 J0. K0.6
N85 G0 Z5.
N90 X48.355 Y-6.871
N95 G1 Z-2.15 F1000.
N100 G3 Y-6.271 Z-2.75 J0.6 K0.
N105 G1 Y-2.891
N110 Y1367.894 F4500.
N115 Y1367.917 F1000.
N120 G3 Y1368.517 Z-2.15 J0. K0.6
N125 G0 Z5.
N130 X45. Y1371.904
N135 G1 Z-2.15 F1000.
N140 G2 Y1371.304 Z-2.75 J-0.6 K0.
N145 G1 Y1367.892
N150 Y-2.893 F4500.
N155 Y-5.775 F1000.
N160 G2 Y-6.375 Z-2.15 J0. K0.6
N165 G0 Z5.
N170 X43.623 Y-6.872
N175 G1 Z-2.21 F1000.
N180 X43.622 Y-6.866 Z-2.294
N185 X43.619 Y-6.846 Z-2.377
N190 X43.614 Y-6.814 Z-2.455
N195 X43.607 Y-6.77 Z-2.527
N200 X43.599 Y-6.716 Z-2.592
N205 X43.589 Y-6.652 Z-2.647
N210 X43.577 Y-6.581 Z-2.691
N215 X43.565 Y-6.504 Z-2.724
N220 X43.552 Y-6.422 Z-2.743
N225 X43.539 Y-6.339 Z-2.75
N230 X43.007 Y-2.982
N235 X43. Y-2.888
N240 Y1367.892 F4500.
N245 X43.007 Y1367.986 F1000.
N250 X43.477 Y1370.949
N255 X43.491 Y1371.042 Z-2.743
N260 X43.506 Y1371.132 Z-2.721
N265 X43.519 Y1371.218 Z-2.685
N270 X43.532 Y1371.298 Z-2.635
N275 X43.543 Y1371.368 Z-2.574
N280 X43.553 Y1371.429 Z-2.503
N285 X43.56 Y1371.477 Z-2.422
N290 X43.566 Y1371.513 Z-2.335
N295 X43.569 Y1371.535 Z-2.244
N300 X43.571 Y1371.542 Z-2.15
N305 G0 Z5.
N310 X55. Y1371.904
N315 G1 Z-2.15 F1000.
N320 G2 Y1371.304 Z-2.75 J-0.6 K0.
N325 G1 Y1367.893
N330 Y0. F4500.
N335 Y-2.892
N340 Y-5.775 F1000.
N345 G2 Y-6.375 Z-2.15 J0. K0.6
N350 G0 Z5.
N355 X56.377 Y-6.876
N360 G1 Z-2.21 F1000.
N365 X56.378 Y-6.87 Z-2.294
N370 X56.381 Y-6.85 Z-2.377
N375 X56.386 Y-6.818 Z-2.455
N380 X56.393 Y-6.774 Z-2.527
N385 X56.401 Y-6.72 Z-2.592
N390 X56.411 Y-6.656 Z-2.647
N395 X56.423 Y-6.585 Z-2.691
N400 X56.435 Y-6.508 Z-2.724
N405 X56.448 Y-6.426 Z-2.743
N410 X56.461 Y-6.343 Z-2.75
N415 X56.993 Y-2.986
N420 X57. Y-2.892
N425 Y1365. F4500.
N430 Y1367.888
N435 X56.993 Y1367.982 F1000.
N440 X56.523 Y1370.945
N445 X56.509 Y1371.038 Z-2.743
N450 X56.494 Y1371.128 Z-2.721
N455 X56.481 Y1371.214 Z-2.685
N460 X56.468 Y1371.294 Z-2.635
N465 X56.457 Y1371.364 Z-2.574
N470 X56.447 Y1371.425 Z-2.503
N475 X56.44 Y1371.473 Z-2.422
N480 X56.434 Y1371.509 Z-2.335
N485 X56.431 Y1371.531 Z-2.244
N490 X56.429 Y1371.538 Z-2.15
N495 G0 Z5.
N500 X51.645 Y1371.902
N505 G1 Z-4.9 F1000.
N510 G2 Y1371.302 Z-5.5 J-0.6 K0.
N515 G1 Y1367.891
N520 Y-2.894 F4500.
N525 Y-2.917 F1000.
N530 G2 Y-3.517 Z-4.9 J0. K0.6
N535 G0 Z5.
N540 X48.355 Y-6.871
N545 G1 Z-4.9 F1000.
N550 G3 Y-6.271 Z-5.5 J0.6 K0.
N555 G1 Y-2.891
N560 Y1367.894 F4500.
N565 Y1367.917 F1000.
N570 G3 Y1368.517 Z-4.9 J0. K0.6
N575 G0 Z5.
N580 X45. Y1371.904
N585 G1 Z-4.9 F1000.
N590 G2 Y1371.304 Z-5.5 J-0.6 K0.
N595 G1 Y1367.892
N600 Y-2.893 F4500.
N605 Y-5.775 F1000.
N610 G2 Y-6.375 Z-4.9 J0. K0.6
N615 G0 Z5.
N620 X43.623 Y-6.872
N625 G1 Z-4.96 F1000.
N630 X43.622 Y-6.866 Z-5.044
N635 X43.619 Y-6.846 Z-5.127
N640 X43.614 Y-6.814 Z-5.205
N645 X43.607 Y-6.77 Z-5.277
N650 X43.599 Y-6.716 Z-5.342
N655 X43.589 Y-6.652 Z-5.397
N660 X43.577 Y-6.581 Z-5.441
N665 X43.565 Y-6.504 Z-5.474
N670 X43.552 Y-6.422 Z-5.493
N675 X43.539 Y-6.339 Z-5.5
N680 X43.007 Y-2.982
N685 X43. Y-2.888
N690 Y1367.892 F4500.
N695 X43.007 Y1367.986 F1000.
N700 X43.477 Y1370.949
N705 X43.491 Y1371.042 Z-5.493
N710 X43.506 Y1371.132 Z-5.471
N715 X43.519 Y1371.218 Z-5.435
N720 X43.532 Y1371.298 Z-5.385
N725 X43.543 Y1371.368 Z-5.324
N730 X43.553 Y1371.429 Z-5.253
N735 X43.56 Y1371.477 Z-5.172
N740 X43.566 Y1371.513 Z-5.085
N745 X43.569 Y1371.535 Z-4.994
N750 X43.571 Y1371.542 Z-4.9
N755 G0 Z5.
N760 X55. Y1371.904
N765 G1 Z-4.9 F1000.
N770 G2 Y1371.304 Z-5.5 J-0.6 K0.
N775 G1 Y1367.893
N780 Y0. F4500.
N785 Y-2.892
N790 Y-5.775 F1000.
N795 G2 Y-6.375 Z-4.9 J0. K0.6
N800 G0 Z5.
N805 X56.377 Y-6.876
N810 G1 Z-4.96 F1000.
N815 X56.378 Y-6.87 Z-5.044
N820 X56.381 Y-6.85 Z-5.127
N825 X56.386 Y-6.818 Z-5.205
N830 X56.393 Y-6.774 Z-5.277
N835 X56.401 Y-6.72 Z-5.342
N840 X56.411 Y-6.656 Z-5.397
N845 X56.423 Y-6.585 Z-5.441
N850 X56.435 Y-6.508 Z-5.474
N855 X56.448 Y-6.426 Z-5.493
N860 X56.461 Y-6.343 Z-5.5
N865 X56.993 Y-2.986
N870 X57. Y-2.892
N875 Y1365. F4500.
N880 Y1367.888
N885 X56.993 Y1367.982 F1000.
N890 X56.523 Y1370.945
N895 X56.509 Y1371.038 Z-5.493
N900 X56.494 Y1371.128 Z-5.471
N905 X56.481 Y1371.214 Z-5.435
N910 X56.468 Y1371.294 Z-5.385
N915 X56.457 Y1371.364 Z-5.324
N920 X56.447 Y1371.425 Z-5.253
N925 X56.44 Y1371.473 Z-5.172
N930 X56.434 Y1371.509 Z-5.085
N935 X56.431 Y1371.531 Z-4.994
N940 X56.429 Y1371.538 Z-4.9
N945 G0 Z5.
N950 X51.645 Y1371.902
N955 G1 Z-5.4 F1000.
N960 G2 Y1371.302 Z-6. J-0.6 K0.
N965 G1 Y1367.891
N970 Y-2.894 F4500.
N975 Y-2.917 F1000.
N980 G2 Y-3.517 Z-5.4 J0. K0.6
N985 G0 Z5.
N990 X48.355 Y-6.871
N995 G1 Z-5.4 F1000.
N1000 G3 Y-6.271 Z-6. J0.6 K0.
N1005 G1 Y-2.891
N1010 Y1367.894 F4500.
N1015 Y1367.917 F1000.
N1020 G3 Y1368.517 Z-5.4 J0. K0.6
N1025 G0 Z5.
N1030 X45. Y1371.904
N1035 G1 Z-5.4 F1000.
N1040 G2 Y1371.304 Z-6. J-0.6 K0.
N1045 G1 Y1367.892
N1050 Y-2.893 F4500.
N1055 Y-5.775 F1000.
N1060 G2 Y-6.375 Z-5.4 J0. K0.6
N1065 G0 Z5.
N1070 X43.623 Y-6.872
N1075 G1 Z-5.46 F1000.
N1080 X43.622 Y-6.866 Z-5.544
N1085 X43.619 Y-6.846 Z-5.627
N1090 X43.614 Y-6.814 Z-5.705
N1095 X43.607 Y-6.77 Z-5.777
N1100 X43.599 Y-6.716 Z-5.842
N1105 X43.589 Y-6.652 Z-5.897
N1110 X43.577 Y-6.581 Z-5.941
N1115 X43.565 Y-6.504 Z-5.974
N1120 X43.552 Y-6.422 Z-5.993
N1125 X43.539 Y-6.339 Z-6.
N1130 X43.007 Y-2.982
N1135 X43. Y-2.888
N1140 Y1367.892 F4500.
N1145 X43.007 Y1367.986 F1000.
N1150 X43.477 Y1370.949
N1155 X43.491 Y1371.042 Z-5.993
N1160 X43.506 Y1371.132 Z-5.971
N1165 X43.519 Y1371.218 Z-5.935
N1170 X43.532 Y1371.298 Z-5.885
N1175 X43.543 Y1371.368 Z-5.824
N1180 X43.553 Y1371.429 Z-5.753
N1185 X43.56 Y1371.477 Z-5.672
N1190 X43.566 Y1371.513 Z-5.585
N1195 X43.569 Y1371.535 Z-5.494
N1200 X43.571 Y1371.542 Z-5.4
N1205 G0 Z5.
N1210 X55. Y1371.904
N1215 G1 Z-5.4 F1000.
N1220 G2 Y1371.304 Z-6. J-0.6 K0.
N1225 G1 Y1367.893
N1230 Y0. F4500.
N1235 Y-2.892
N1240 Y-5.775 F1000.
N1245 G2 Y-6.375 Z-5.4 J0. K0.6
N1250 G0 Z5.
N1255 X56.377 Y-6.876
N1260 G1 Z-5.46 F1000.
N1265 X56.378 Y-6.87 Z-5.544
N1270 X56.381 Y-6.85 Z-5.627
N1275 X56.386 Y-6.818 Z-5.705
N1280 X56.393 Y-6.774 Z-5.777
N1285 X56.401 Y-6.72 Z-5.842
N1290 X56.411 Y-6.656 Z-5.897
N1295 X56.423 Y-6.585 Z-5.941
N1300 X56.435 Y-6.508 Z-5.974
N1305 X56.448 Y-6.426 Z-5.993
N1310 X56.461 Y-6.343 Z-6.
N1315 X56.993 Y-2.986
N1320 X57. Y-2.892
N1325 Y1365. F4500.
N1330 Y1367.888
N1335 X56.993 Y1367.982 F1000.
N1340 X56.523 Y1370.945
N1345 X56.509 Y1371.038 Z-5.993
N1350 X56.494 Y1371.128 Z-5.971
N1355 X56.481 Y1371.214 Z-5.935
N1360 X56.468 Y1371.294 Z-5.885
N1365 X56.457 Y1371.364 Z-5.824
N1370 X56.447 Y1371.425 Z-5.753
N1375 X56.44 Y1371.473 Z-5.672
N1380 X56.434 Y1371.509 Z-5.585
N1385 X56.431 Y1371.531 Z-5.494
N1390 X56.429 Y1371.538 Z-5.4
N1395 G0 Z5.
N1400 G17
N1405 G53 G0 Z0.
N1410 M30
%
