%
(2001)
(6MM END MILL - 20MM SLOTS)
(T1  D=6. CR=0. - ZMIN=-6.3 - FLAT END MILL)
N10 G90 G94 G17 G91.1
N15 G21
N20 G53 G0 Z0.
(2D POCKET1)
N25 M9
N30 T1 M6
N35 S18000 M3
N40 G54
N45 G0 X51.602 Y1204.901
N50 G43 Z15. H1
N55 G0 Z5.
N60 G1 Z-2.4 F500.
N65 G19 G2 Y1204.301 Z-3. J-0.6 K0.
N70 G1 Y1202.897
N75 Y-2.898 F4000.
N80 G17 G2 X51.302 Y-3.198 I-0.3 J0.
N85 G1 X48.698
N90 G2 X48.398 Y-2.898 I0. J0.3
N95 G1 Y1202.898
N100 G3 X48.098 Y1203.198 I-0.3 J0.
N105 G1 X43.8 Y1203.192
N110 G3 X43.5 Y1202.892 I0. J-0.3
N115 G1 Y-2.894
N120 G2 X42.9 I-0.3 J0.
N125 G1 Y1200.
N130 Y1202.892
N135 X42.907 Y1202.986 F500.
N140 X43.113 Y1204.283
N145 X43.127 Y1204.375 Z-2.993
N150 X43.142 Y1204.466 Z-2.971
N155 X43.155 Y1204.552 Z-2.935
N160 X43.168 Y1204.631 Z-2.885
N165 X43.179 Y1204.702 Z-2.824
N170 X43.189 Y1204.762 Z-2.753
N175 X43.196 Y1204.811 Z-2.672
N180 X43.202 Y1204.846 Z-2.585
N185 X43.205 Y1204.868 Z-2.494
N190 X43.207 Y1204.875 Z-2.4
N195 G0 Z5.
N200 X56.5 Y1204.906
N205 G1 Z-2.4 F500.
N210 G19 G2 Y1204.306 Z-3. J-0.6 K0.
N215 G1 Y1202.894
N220 Y0. F4000.
N225 Y-2.892
N230 G17 G3 X57.1 I0.3 J0.
N235 G1 Y1202.894
N240 G3 X56.873 Y1203.185 I-0.3 J0.
N245 G1 X51.975 Y1204.412
N250 G3 X51.602 Y1204.121 I-0.073 J-0.291
N255 G19 G3 Y1203.521 Z-3.6 J0. K-0.6 F500.
N260 G1 Z-5.4
N265 G2 Y1202.921 Z-6. J-0.6 K0.
N270 G1 Y1202.897
N275 Y-2.898 F4000.
N280 G17 G2 X51.302 Y-3.198 I-0.3 J0.
N285 G1 X48.698
N290 G2 X48.398 Y-2.898 I0. J0.3
N295 G1 Y1202.898
N300 G3 X48.098 Y1203.198 I-0.3 J0.
N305 G1 X43.8 Y1203.192
N310 G3 X43.5 Y1202.892 I0. J-0.3
N315 G1 Y-2.894
N320 G2 X42.9 I-0.3 J0.
N325 G1 Y1200.
N330 Y1202.892
N335 X42.907 Y1202.986 F500.
N340 X43.113 Y1204.283
N345 X43.127 Y1204.375 Z-5.993
N350 X43.142 Y1204.466 Z-5.971
N355 X43.155 Y1204.552 Z-5.935
N360 X43.168 Y1204.631 Z-5.885
N365 X43.179 Y1204.702 Z-5.824
N370 X43.189 Y1204.762 Z-5.753
N375 X43.196 Y1204.811 Z-5.672
N380 X43.202 Y1204.846 Z-5.585
N385 X43.205 Y1204.868 Z-5.494
N390 X43.207 Y1204.875 Z-5.4
N395 G0 Z5.
N400 X56.5 Y1204.906
N405 G1 Z-5.4 F500.
N410 G19 G2 Y1204.306 Z-6. J-0.6 K0.
N415 G1 Y1202.894
N420 Y0. F4000.
N425 Y-2.892
N430 G17 G3 X57.1 I0.3 J0.
N435 G1 Y1202.894
N440 G3 X56.85 Y1203.19 I-0.3 J0.
N445 G1 X51.951 Y1204.01
N450 G3 X51.602 Y1203.715 I-0.05 J-0.296
N455 G19 G3 Y1203.318 Z-6.15 J0. K-0.6 F500.
N460 G2 Y1202.921 Z-6.3 J-0.397 K0.45
N465 G1 Y1202.897
N470 Y-2.898 F4000.
N475 G17 G2 X51.302 Y-3.198 I-0.3 J0.
N480 G1 X48.698
N485 G2 X48.398 Y-2.898 I0. J0.3
N490 G1 Y1202.898
N495 G3 X48.098 Y1203.198 I-0.3 J0.
N500 G1 X43.8 Y1203.192
N505 G3 X43.5 Y1202.892 I0. J-0.3
N510 G1 Y-2.894
N515 G2 X42.9 I-0.3 J0.
N520 G1 Y1200.
N525 Y1202.892
N530 X42.907 Y1202.986 F500.
N535 X43.113 Y1204.283
N540 X43.127 Y1204.375 Z-6.293
N545 X43.142 Y1204.466 Z-6.271
N550 X43.155 Y1204.552 Z-6.235
N555 X43.168 Y1204.631 Z-6.185
N560 X43.179 Y1204.702 Z-6.124
N565 X43.189 Y1204.762 Z-6.053
N570 X43.196 Y1204.811 Z-5.972
N575 X43.202 Y1204.846 Z-5.885
N580 X43.205 Y1204.868 Z-5.794
N585 X43.207 Y1204.875 Z-5.7
N590 G0 Z5.
N595 X56.5 Y1204.906
N600 G1 Z-5.7 F500.
N605 G19 G2 Y1204.306 Z-6.3 J-0.6 K0.
N610 G1 Y1202.894
N615 Y0. F4000.
N620 Y-2.892
N625 G17 G3 X57.1 I0.3 J0.
N630 G1 Y1202.894
N635 X57.093 Y1202.988 F500.
N640 X56.887 Y1204.284
N645 X56.873 Y1204.377 Z-6.293
N650 X56.858 Y1204.468 Z-6.271
N655 X56.845 Y1204.553 Z-6.235
N660 X56.832 Y1204.633 Z-6.185
N665 X56.821 Y1204.703 Z-6.124
N670 X56.811 Y1204.764 Z-6.053
N675 X56.804 Y1204.812 Z-5.972
N680 X56.798 Y1204.848 Z-5.885
N685 X56.795 Y1204.87 Z-5.794
N690 X56.793 Y1204.877 Z-5.7
N695 G0 Z15.
N700 G53 Z0.
N705 M30
%
