%
(3)
(T1  D=6. CR=0. - ZMIN=-22.5 - FLAT END MILL)
N10 G90 G94 G17 G91.1
N15 G21
N20 G53 G0 Z0.
(2D CONTOUR2)
N25 M9
N30 T1 M6
N35 S22000 M3
N40 G54
N45 G0 X37.47 Y513.915
N50 G43 Z15. H1
N55 G0 Z5.
N60 G1 Z2.5 F150.33
N65 Z1.6
N70 G18 G3 X36.87 Z1. I-0.6 K0.
N75 G1 X36.27 F300.
N80 G17 G2 X35.67 Y514.515 I0. J0.6
N85 G1 Y520.513 Z0.791 F150.
N90 G3 X31.17 Y525.013 Z0.544 I-4.5 J0.
N95 G1 X22.17 Z0.229
N100 G3 X17.67 Y520.513 Z-0.017 I0. J-4.5
N105 G1 Y509.846 Z-0.39
N110 G3 X1.687 Y484.023 Z-1.5 I14.5 J-26.833
N115 X17.67 Y456.18 I30.483 J-1.01 F650.
N120 G1 Y445.513
N125 G3 X22.17 Y441.013 I4.5 J0.
N130 G1 X31.17
N135 G3 X35.67 Y445.513 I0. J4.5
N140 G1 Y463.839
N145 G3 X31.404 Y468.333 I-4.5 J0.
N150 G2 Y497.693 I0.766 J14.68
N155 G3 X35.67 Y502.187 I-0.234 J4.494
N160 G1 Y520.513
N165 G3 X31.17 Y525.013 I-4.5 J0.
N170 G1 X22.17
N175 G3 X17.67 Y520.513 I0. J-4.5
N180 G1 Y509.846
N185 G3 X1.687 Y484.023 I14.5 J-26.833
N190 X2.42 Y482.859 I1.226 J-0.041
N195 G2 X3.199 Y481.724 I-0.523 J-1.193
N200 G3 X19.17 Y457.09 I28.971 J1.289
N205 G1 Y445.513
N210 G3 X22.17 Y442.513 I3. J0.
N215 G1 X31.17
N220 G3 X34.17 Y445.513 I0. J3.
N225 G1 Y463.839
N230 G3 X31.326 Y466.835 I-3. J0.
N235 G2 Y499.191 I0.844 J16.178
N240 G3 X34.17 Y502.187 I-0.156 J2.996
N245 G1 Y520.513
N250 G3 X31.17 Y523.513 I-3. J0.
N255 G1 X22.17
N260 G3 X19.17 Y520.513 I0. J-3.
N265 G1 Y508.936
N270 G3 X3.199 Y481.724 I13. J-25.923
N275 G2 X2.626 Y481.098 I-0.599 J-0.027 F300.
N280 G1 X2.027 Y481.071
N285 X1.933 Y481.067 Z-1.493
N290 X1.841 Y481.063 Z-1.471
N295 X1.754 Y481.059 Z-1.435
N300 X1.674 Y481.056 Z-1.385
N305 X1.603 Y481.053 Z-1.324
N310 X1.542 Y481.05 Z-1.253
N315 X1.492 Y481.048 Z-1.172
N320 X1.456 Y481.046 Z-1.085
N325 X1.434 Y481.045 Z-0.994
N330 X1.427 Z-0.9
N335 G0 Z5.
N340 X39.782 Y464.862
N345 G1 Z2.5 F150.33
N350 Z1.6
N355 G18 G2 X40.382 Z1. I0.6 K0.
N360 G1 X40.982 F300.
N365 G17 G2 X41.582 Y464.262 I0. J-0.6
N370 G1 Y458.264 Z0.791 F150.
N375 G3 X46.082 Y453.764 Z0.544 I4.5 J0.
N380 G1 X55.082 Z0.229
N385 G3 X59.582 Y458.264 Z-0.017 I0. J4.5
N390 G1 Y468.931 Z-0.39
N395 G3 X75.565 Y494.754 Z-1.5 I-14.5 J26.833
N400 X59.582 Y522.597 I-30.483 J1.01 F650.
N405 G1 Y533.264
N410 G3 X55.082 Y537.764 I-4.5 J0.
N415 G1 X46.082
N420 G3 X41.582 Y533.264 I0. J-4.5
N425 G1 Y514.938
N430 G3 X45.848 Y510.444 I4.5 J0.
N435 G2 Y481.084 I-0.766 J-14.68
N440 G3 X41.582 Y476.59 I0.234 J-4.494
N445 G1 Y458.264
N450 G3 X46.082 Y453.764 I4.5 J0.
N455 G1 X55.082
N460 G3 X59.582 Y458.264 I0. J4.5
N465 G1 Y468.931
N470 G3 X75.565 Y494.754 I-14.5 J26.833
N475 X74.832 Y495.918 I-1.226 J0.041
N480 G2 X74.053 Y497.053 I0.523 J1.193
N485 G3 X58.082 Y521.687 I-28.971 J-1.289
N490 G1 Y533.264
N495 G3 X55.082 Y536.264 I-3. J0.
N500 G1 X46.082
N505 G3 X43.082 Y533.264 I0. J-3.
N510 G1 Y514.938
N515 G3 X45.926 Y511.942 I3. J0.
N520 G2 Y479.586 I-0.844 J-16.178
N525 G3 X43.082 Y476.59 I0.156 J-2.996
N530 G1 Y458.264
N535 G3 X46.082 Y455.264 I3. J0.
N540 G1 X55.082
N545 G3 X58.082 Y458.264 I0. J3.
N550 G1 Y469.841
N555 G3 X74.053 Y497.053 I-13. J25.923
N560 G2 X74.626 Y497.679 I0.599 J0.027 F300.
N565 G1 X75.225 Y497.706
N570 X75.319 Y497.71 Z-1.493
N575 X75.411 Y497.714 Z-1.471
N580 X75.498 Y497.718 Z-1.435
N585 X75.578 Y497.721 Z-1.385
N590 X75.649 Y497.724 Z-1.324
N595 X75.71 Y497.727 Z-1.253
N600 X75.76 Y497.729 Z-1.172
N605 X75.796 Y497.731 Z-1.085
N610 X75.818 Y497.732 Z-0.994
N615 X75.825 Z-0.9
N620 G0 Z5.
N625 X39.782 Y464.862
N630 G1 Z1. F150.33
N635 Z0.1
N640 G18 G2 X40.382 Z-0.5 I0.6 K0.
N645 G1 X40.982 F300.
N650 G17 G2 X41.582 Y464.262 I0. J-0.6
N655 G1 Y458.264 Z-0.709 F150.
N660 G3 X46.082 Y453.764 Z-0.956 I4.5 J0.
N665 G1 X55.082 Z-1.271
N670 G3 X59.582 Y458.264 Z-1.517 I0. J4.5
N675 G1 Y468.931 Z-1.89
N680 G3 X75.565 Y494.754 Z-3. I-14.5 J26.833
N685 X59.582 Y522.597 I-30.483 J1.01 F650.
N690 G1 Y533.264
N695 G3 X55.082 Y537.764 I-4.5 J0.
N700 G1 X46.082
N705 G3 X41.582 Y533.264 I0. J-4.5
N710 G1 Y514.938
N715 G3 X45.848 Y510.444 I4.5 J0.
N720 G2 Y481.084 I-0.766 J-14.68
N725 G3 X41.582 Y476.59 I0.234 J-4.494
N730 G1 Y458.264
N735 G3 X46.082 Y453.764 I4.5 J0.
N740 G1 X55.082
N745 G3 X59.582 Y458.264 I0. J4.5
N750 G1 Y468.931
N755 G3 X75.565 Y494.754 I-14.5 J26.833
N760 X74.832 Y495.918 I-1.226 J0.041
N765 G2 X74.053 Y497.053 I0.523 J1.193
N770 G3 X58.082 Y521.687 I-28.971 J-1.289
N775 G1 Y533.264
N780 G3 X55.082 Y536.264 I-3. J0.
N785 G1 X46.082
N790 G3 X43.082 Y533.264 I0. J-3.
N795 G1 Y514.938
N800 G3 X45.926 Y511.942 I3. J0.
N805 G2 Y479.586 I-0.844 J-16.178
N810 G3 X43.082 Y476.59 I0.156 J-2.996
N815 G1 Y458.264
N820 G3 X46.082 Y455.264 I3. J0.
N825 G1 X55.082
N830 G3 X58.082 Y458.264 I0. J3.
N835 G1 Y469.841
N840 G3 X74.053 Y497.053 I-13. J25.923
N845 G2 X74.626 Y497.679 I0.599 J0.027 F300.
N850 G1 X75.225 Y497.706
N855 X75.319 Y497.71 Z-2.993
N860 X75.411 Y497.714 Z-2.971
N865 X75.498 Y497.718 Z-2.935
N870 X75.578 Y497.721 Z-2.885
N875 X75.649 Y497.724 Z-2.824
N880 X75.71 Y497.727 Z-2.753
N885 X75.76 Y497.729 Z-2.672
N890 X75.796 Y497.731 Z-2.585
N895 X75.818 Y497.732 Z-2.494
N900 X75.825 Z-2.4
N905 G0 Z5.
N910 X37.47 Y513.915
N915 G1 Z1. F150.33
N920 Z0.1
N925 G18 G3 X36.87 Z-0.5 I-0.6 K0.
N930 G1 X36.27 F300.
N935 G17 G2 X35.67 Y514.515 I0. J0.6
N940 G1 Y520.513 Z-0.709 F150.
N945 G3 X31.17 Y525.013 Z-0.956 I-4.5 J0.
N950 G1 X22.17 Z-1.271
N955 G3 X17.67 Y520.513 Z-1.517 I0. J-4.5
N960 G1 Y509.846 Z-1.89
N965 G3 X1.687 Y484.023 Z-3. I14.5 J-26.833
N970 X17.67 Y456.18 I30.483 J-1.01 F650.
N975 G1 Y445.513
N980 G3 X22.17 Y441.013 I4.5 J0.
N985 G1 X31.17
N990 G3 X35.67 Y445.513 I0. J4.5
N995 G1 Y463.839
N1000 G3 X31.404 Y468.333 I-4.5 J0.
N1005 G2 Y497.693 I0.766 J14.68
N1010 G3 X35.67 Y502.187 I-0.234 J4.494
N1015 G1 Y520.513
N1020 G3 X31.17 Y525.013 I-4.5 J0.
N1025 G1 X22.17
N1030 G3 X17.67 Y520.513 I0. J-4.5
N1035 G1 Y509.846
N1040 G3 X1.687 Y484.023 I14.5 J-26.833
N1045 X2.42 Y482.859 I1.226 J-0.041
N1050 G2 X3.199 Y481.724 I-0.523 J-1.193
N1055 G3 X19.17 Y457.09 I28.971 J1.289
N1060 G1 Y445.513
N1065 G3 X22.17 Y442.513 I3. J0.
N1070 G1 X31.17
N1075 G3 X34.17 Y445.513 I0. J3.
N1080 G1 Y463.839
N1085 G3 X31.326 Y466.835 I-3. J0.
N1090 G2 Y499.191 I0.844 J16.178
N1095 G3 X34.17 Y502.187 I-0.156 J2.996
N1100 G1 Y520.513
N1105 G3 X31.17 Y523.513 I-3. J0.
N1110 G1 X22.17
N1115 G3 X19.17 Y520.513 I0. J-3.
N1120 G1 Y508.936
N1125 G3 X3.199 Y481.724 I13. J-25.923
N1130 G2 X2.626 Y481.098 I-0.599 J-0.027 F300.
N1135 G1 X2.027 Y481.071
N1140 X1.933 Y481.067 Z-2.993
N1145 X1.841 Y481.063 Z-2.971
N1150 X1.754 Y481.059 Z-2.935
N1155 X1.674 Y481.056 Z-2.885
N1160 X1.603 Y481.053 Z-2.824
N1165 X1.542 Y481.05 Z-2.753
N1170 X1.492 Y481.048 Z-2.672
N1175 X1.456 Y481.046 Z-2.585
N1180 X1.434 Y481.045 Z-2.494
N1185 X1.427 Z-2.4
N1190 G0 Z5.
N1195 X37.47 Y513.915
N1200 G1 Z-0.5 F150.33
N1205 Z-1.4
N1210 G18 G3 X36.87 Z-2. I-0.6 K0.
N1215 G1 X36.27 F300.
N1220 G17 G2 X35.67 Y514.515 I0. J0.6
N1225 G1 Y520.513 Z-2.209 F150.
N1230 G3 X31.17 Y525.013 Z-2.456 I-4.5 J0.
N1235 G1 X22.17 Z-2.771
N1240 G3 X17.67 Y520.513 Z-3.017 I0. J-4.5
N1245 G1 Y509.846 Z-3.39
N1250 G3 X1.687 Y484.023 Z-4.5 I14.5 J-26.833
N1255 X17.67 Y456.18 I30.483 J-1.01 F650.
N1260 G1 Y445.513
N1265 G3 X22.17 Y441.013 I4.5 J0.
N1270 G1 X31.17
N1275 G3 X35.67 Y445.513 I0. J4.5
N1280 G1 Y463.839
N1285 G3 X31.404 Y468.333 I-4.5 J0.
N1290 G2 Y497.693 I0.766 J14.68
N1295 G3 X35.67 Y502.187 I-0.234 J4.494
N1300 G1 Y520.513
N1305 G3 X31.17 Y525.013 I-4.5 J0.
N1310 G1 X22.17
N1315 G3 X17.67 Y520.513 I0. J-4.5
N1320 G1 Y509.846
N1325 G3 X1.687 Y484.023 I14.5 J-26.833
N1330 X2.42 Y482.859 I1.226 J-0.041
N1335 G2 X3.199 Y481.724 I-0.523 J-1.193
N1340 G3 X19.17 Y457.09 I28.971 J1.289
N1345 G1 Y445.513
N1350 G3 X22.17 Y442.513 I3. J0.
N1355 G1 X31.17
N1360 G3 X34.17 Y445.513 I0. J3.
N1365 G1 Y463.839
N1370 G3 X31.326 Y466.835 I-3. J0.
N1375 G2 Y499.191 I0.844 J16.178
N1380 G3 X34.17 Y502.187 I-0.156 J2.996
N1385 G1 Y520.513
N1390 G3 X31.17 Y523.513 I-3. J0.
N1395 G1 X22.17
N1400 G3 X19.17 Y520.513 I0. J-3.
N1405 G1 Y508.936
N1410 G3 X3.199 Y481.724 I13. J-25.923
N1415 G2 X2.626 Y481.098 I-0.599 J-0.027 F300.
N1420 G1 X2.027 Y481.071
N1425 X1.933 Y481.067 Z-4.493
N1430 X1.841 Y481.063 Z-4.471
N1435 X1.754 Y481.059 Z-4.435
N1440 X1.674 Y481.056 Z-4.385
N1445 X1.603 Y481.053 Z-4.324
N1450 X1.542 Y481.05 Z-4.253
N1455 X1.492 Y481.048 Z-4.172
N1460 X1.456 Y481.046 Z-4.085
N1465 X1.434 Y481.045 Z-3.994
N1470 X1.427 Z-3.9
N1475 G0 Z5.
N1480 X39.782 Y464.862
N1485 G1 Z-0.5 F150.33
N1490 Z-1.4
N1495 G18 G2 X40.382 Z-2. I0.6 K0.
N1500 G1 X40.982 F300.
N1505 G17 G2 X41.582 Y464.262 I0. J-0.6
N1510 G1 Y458.264 Z-2.209 F150.
N1515 G3 X46.082 Y453.764 Z-2.456 I4.5 J0.
N1520 G1 X55.082 Z-2.771
N1525 G3 X59.582 Y458.264 Z-3.017 I0. J4.5
N1530 G1 Y468.931 Z-3.39
N1535 G3 X75.565 Y494.754 Z-4.5 I-14.5 J26.833
N1540 X59.582 Y522.597 I-30.483 J1.01 F650.
N1545 G1 Y533.264
N1550 G3 X55.082 Y537.764 I-4.5 J0.
N1555 G1 X46.082
N1560 G3 X41.582 Y533.264 I0. J-4.5
N1565 G1 Y514.938
N1570 G3 X45.848 Y510.444 I4.5 J0.
N1575 G2 Y481.084 I-0.766 J-14.68
N1580 G3 X41.582 Y476.59 I0.234 J-4.494
N1585 G1 Y458.264
N1590 G3 X46.082 Y453.764 I4.5 J0.
N1595 G1 X55.082
N1600 G3 X59.582 Y458.264 I0. J4.5
N1605 G1 Y468.931
N1610 G3 X75.565 Y494.754 I-14.5 J26.833
N1615 X74.832 Y495.918 I-1.226 J0.041
N1620 G2 X74.053 Y497.053 I0.523 J1.193
N1625 G3 X58.082 Y521.687 I-28.971 J-1.289
N1630 G1 Y533.264
N1635 G3 X55.082 Y536.264 I-3. J0.
N1640 G1 X46.082
N1645 G3 X43.082 Y533.264 I0. J-3.
N1650 G1 Y514.938
N1655 G3 X45.926 Y511.942 I3. J0.
N1660 G2 Y479.586 I-0.844 J-16.178
N1665 G3 X43.082 Y476.59 I0.156 J-2.996
N1670 G1 Y458.264
N1675 G3 X46.082 Y455.264 I3. J0.
N1680 G1 X55.082
N1685 G3 X58.082 Y458.264 I0. J3.
N1690 G1 Y469.841
N1695 G3 X74.053 Y497.053 I-13. J25.923
N1700 G2 X74.626 Y497.679 I0.599 J0.027 F300.
N1705 G1 X75.225 Y497.706
N1710 X75.319 Y497.71 Z-4.493
N1715 X75.411 Y497.714 Z-4.471
N1720 X75.498 Y497.718 Z-4.435
N1725 X75.578 Y497.721 Z-4.385
N1730 X75.649 Y497.724 Z-4.324
N1735 X75.71 Y497.727 Z-4.253
N1740 X75.76 Y497.729 Z-4.172
N1745 X75.796 Y497.731 Z-4.085
N1750 X75.818 Y497.732 Z-3.994
N1755 X75.825 Z-3.9
N1760 G0 Z5.
N1765 X39.782 Y464.862
N1770 G1 Z-2. F150.33
N1775 Z-2.9
N1780 G18 G2 X40.382 Z-3.5 I0.6 K0.
N1785 G1 X40.982 F300.
N1790 G17 G2 X41.582 Y464.262 I0. J-0.6
N1795 G1 Y458.264 Z-3.709 F150.
N1800 G3 X46.082 Y453.764 Z-3.956 I4.5 J0.
N1805 G1 X55.082 Z-4.271
N1810 G3 X59.582 Y458.264 Z-4.517 I0. J4.5
N1815 G1 Y468.931 Z-4.89
N1820 G3 X75.565 Y494.754 Z-6. I-14.5 J26.833
N1825 X59.582 Y522.597 I-30.483 J1.01 F650.
N1830 G1 Y533.264
N1835 G3 X55.082 Y537.764 I-4.5 J0.
N1840 G1 X46.082
N1845 G3 X41.582 Y533.264 I0. J-4.5
N1850 G1 Y514.938
N1855 G3 X45.848 Y510.444 I4.5 J0.
N1860 G2 Y481.084 I-0.766 J-14.68
N1865 G3 X41.582 Y476.59 I0.234 J-4.494
N1870 G1 Y458.264
N1875 G3 X46.082 Y453.764 I4.5 J0.
N1880 G1 X55.082
N1885 G3 X59.582 Y458.264 I0. J4.5
N1890 G1 Y468.931
N1895 G3 X75.565 Y494.754 I-14.5 J26.833
N1900 X74.832 Y495.918 I-1.226 J0.041
N1905 G2 X74.053 Y497.053 I0.523 J1.193
N1910 G3 X58.082 Y521.687 I-28.971 J-1.289
N1915 G1 Y533.264
N1920 G3 X55.082 Y536.264 I-3. J0.
N1925 G1 X46.082
N1930 G3 X43.082 Y533.264 I0. J-3.
N1935 G1 Y514.938
N1940 G3 X45.926 Y511.942 I3. J0.
N1945 G2 Y479.586 I-0.844 J-16.178
N1950 G3 X43.082 Y476.59 I0.156 J-2.996
N1955 G1 Y458.264
N1960 G3 X46.082 Y455.264 I3. J0.
N1965 G1 X55.082
N1970 G3 X58.082 Y458.264 I0. J3.
N1975 G1 Y469.841
N1980 G3 X74.053 Y497.053 I-13. J25.923
N1985 G2 X74.626 Y497.679 I0.599 J0.027 F300.
N1990 G1 X75.225 Y497.706
N1995 X75.319 Y497.71 Z-5.993
N2000 X75.411 Y497.714 Z-5.971
N2005 X75.498 Y497.718 Z-5.935
N2010 X75.578 Y497.721 Z-5.885
N2015 X75.649 Y497.724 Z-5.824
N2020 X75.71 Y497.727 Z-5.753
N2025 X75.76 Y497.729 Z-5.672
N2030 X75.796 Y497.731 Z-5.585
N2035 X75.818 Y497.732 Z-5.494
N2040 X75.825 Z-5.4
N2045 G0 Z5.
N2050 X37.47 Y513.915
N2055 G1 Z-2. F150.33
N2060 Z-2.9
N2065 G18 G3 X36.87 Z-3.5 I-0.6 K0.
N2070 G1 X36.27 F300.
N2075 G17 G2 X35.67 Y514.515 I0. J0.6
N2080 G1 Y520.513 Z-3.709 F150.
N2085 G3 X31.17 Y525.013 Z-3.956 I-4.5 J0.
N2090 G1 X22.17 Z-4.271
N2095 G3 X17.67 Y520.513 Z-4.517 I0. J-4.5
N2100 G1 Y509.846 Z-4.89
N2105 G3 X1.687 Y484.023 Z-6. I14.5 J-26.833
N2110 X17.67 Y456.18 I30.483 J-1.01 F650.
N2115 G1 Y445.513
N2120 G3 X22.17 Y441.013 I4.5 J0.
N2125 G1 X31.17
N2130 G3 X35.67 Y445.513 I0. J4.5
N2135 G1 Y463.839
N2140 G3 X31.404 Y468.333 I-4.5 J0.
N2145 G2 Y497.693 I0.766 J14.68
N2150 G3 X35.67 Y502.187 I-0.234 J4.494
N2155 G1 Y520.513
N2160 G3 X31.17 Y525.013 I-4.5 J0.
N2165 G1 X22.17
N2170 G3 X17.67 Y520.513 I0. J-4.5
N2175 G1 Y509.846
N2180 G3 X1.687 Y484.023 I14.5 J-26.833
N2185 X2.42 Y482.859 I1.226 J-0.041
N2190 G2 X3.199 Y481.724 I-0.523 J-1.193
N2195 G3 X19.17 Y457.09 I28.971 J1.289
N2200 G1 Y445.513
N2205 G3 X22.17 Y442.513 I3. J0.
N2210 G1 X31.17
N2215 G3 X34.17 Y445.513 I0. J3.
N2220 G1 Y463.839
N2225 G3 X31.326 Y466.835 I-3. J0.
N2230 G2 Y499.191 I0.844 J16.178
N2235 G3 X34.17 Y502.187 I-0.156 J2.996
N2240 G1 Y520.513
N2245 G3 X31.17 Y523.513 I-3. J0.
N2250 G1 X22.17
N2255 G3 X19.17 Y520.513 I0. J-3.
N2260 G1 Y508.936
N2265 G3 X3.199 Y481.724 I13. J-25.923
N2270 G2 X2.626 Y481.098 I-0.599 J-0.027 F300.
N2275 G1 X2.027 Y481.071
N2280 X1.933 Y481.067 Z-5.993
N2285 X1.841 Y481.063 Z-5.971
N2290 X1.754 Y481.059 Z-5.935
N2295 X1.674 Y481.056 Z-5.885
N2300 X1.603 Y481.053 Z-5.824
N2305 X1.542 Y481.05 Z-5.753
N2310 X1.492 Y481.048 Z-5.672
N2315 X1.456 Y481.046 Z-5.585
N2320 X1.434 Y481.045 Z-5.494
N2325 X1.427 Z-5.4
N2330 G0 Z5.
N2335 X37.47 Y513.915
N2340 G1 Z-3.5 F150.33
N2345 Z-4.4
N2350 G18 G3 X36.87 Z-5. I-0.6 K0.
N2355 G1 X36.27 F300.
N2360 G17 G2 X35.67 Y514.515 I0. J0.6
N2365 G1 Y520.513 Z-5.209 F150.
N2370 G3 X31.17 Y525.013 Z-5.456 I-4.5 J0.
N2375 G1 X22.17 Z-5.771
N2380 G3 X17.67 Y520.513 Z-6.017 I0. J-4.5
N2385 G1 Y509.846 Z-6.39
N2390 G3 X1.687 Y484.023 Z-7.5 I14.5 J-26.833
N2395 X17.67 Y456.18 I30.483 J-1.01 F650.
N2400 G1 Y445.513
N2405 G3 X22.17 Y441.013 I4.5 J0.
N2410 G1 X31.17
N2415 G3 X35.67 Y445.513 I0. J4.5
N2420 G1 Y463.839
N2425 G3 X31.404 Y468.333 I-4.5 J0.
N2430 G2 Y497.693 I0.766 J14.68
N2435 G3 X35.67 Y502.187 I-0.234 J4.494
N2440 G1 Y520.513
N2445 G3 X31.17 Y525.013 I-4.5 J0.
N2450 G1 X22.17
N2455 G3 X17.67 Y520.513 I0. J-4.5
N2460 G1 Y509.846
N2465 G3 X1.687 Y484.023 I14.5 J-26.833
N2470 X2.42 Y482.859 I1.226 J-0.041
N2475 G2 X3.199 Y481.724 I-0.523 J-1.193
N2480 G3 X19.17 Y457.09 I28.971 J1.289
N2485 G1 Y445.513
N2490 G3 X22.17 Y442.513 I3. J0.
N2495 G1 X31.17
N2500 G3 X34.17 Y445.513 I0. J3.
N2505 G1 Y463.839
N2510 G3 X31.326 Y466.835 I-3. J0.
N2515 G2 Y499.191 I0.844 J16.178
N2520 G3 X34.17 Y502.187 I-0.156 J2.996
N2525 G1 Y520.513
N2530 G3 X31.17 Y523.513 I-3. J0.
N2535 G1 X22.17
N2540 G3 X19.17 Y520.513 I0. J-3.
N2545 G1 Y508.936
N2550 G3 X3.199 Y481.724 I13. J-25.923
N2555 G2 X2.626 Y481.098 I-0.599 J-0.027 F300.
N2560 G1 X2.027 Y481.071
N2565 X1.933 Y481.067 Z-7.493
N2570 X1.841 Y481.063 Z-7.471
N2575 X1.754 Y481.059 Z-7.435
N2580 X1.674 Y481.056 Z-7.385
N2585 X1.603 Y481.053 Z-7.324
N2590 X1.542 Y481.05 Z-7.253
N2595 X1.492 Y481.048 Z-7.172
N2600 X1.456 Y481.046 Z-7.085
N2605 X1.434 Y481.045 Z-6.994
N2610 X1.427 Z-6.9
N2615 G0 Z5.
N2620 X39.782 Y464.862
N2625 G1 Z-3.5 F150.33
N2630 Z-4.4
N2635 G18 G2 X40.382 Z-5. I0.6 K0.
N2640 G1 X40.982 F300.
N2645 G17 G2 X41.582 Y464.262 I0. J-0.6
N2650 G1 Y458.264 Z-5.209 F150.
N2655 G3 X46.082 Y453.764 Z-5.456 I4.5 J0.
N2660 G1 X55.082 Z-5.771
N2665 G3 X59.582 Y458.264 Z-6.017 I0. J4.5
N2670 G1 Y468.931 Z-6.39
N2675 G3 X75.565 Y494.754 Z-7.5 I-14.5 J26.833
N2680 X59.582 Y522.597 I-30.483 J1.01 F650.
N2685 G1 Y533.264
N2690 G3 X55.082 Y537.764 I-4.5 J0.
N2695 G1 X46.082
N2700 G3 X41.582 Y533.264 I0. J-4.5
N2705 G1 Y514.938
N2710 G3 X45.848 Y510.444 I4.5 J0.
N2715 G2 Y481.084 I-0.766 J-14.68
N2720 G3 X41.582 Y476.59 I0.234 J-4.494
N2725 G1 Y458.264
N2730 G3 X46.082 Y453.764 I4.5 J0.
N2735 G1 X55.082
N2740 G3 X59.582 Y458.264 I0. J4.5
N2745 G1 Y468.931
N2750 G3 X75.565 Y494.754 I-14.5 J26.833
N2755 X74.832 Y495.918 I-1.226 J0.041
N2760 G2 X74.053 Y497.053 I0.523 J1.193
N2765 G3 X58.082 Y521.687 I-28.971 J-1.289
N2770 G1 Y533.264
N2775 G3 X55.082 Y536.264 I-3. J0.
N2780 G1 X46.082
N2785 G3 X43.082 Y533.264 I0. J-3.
N2790 G1 Y514.938
N2795 G3 X45.926 Y511.942 I3. J0.
N2800 G2 Y479.586 I-0.844 J-16.178
N2805 G3 X43.082 Y476.59 I0.156 J-2.996
N2810 G1 Y458.264
N2815 G3 X46.082 Y455.264 I3. J0.
N2820 G1 X55.082
N2825 G3 X58.082 Y458.264 I0. J3.
N2830 G1 Y469.841
N2835 G3 X74.053 Y497.053 I-13. J25.923
N2840 G2 X74.626 Y497.679 I0.599 J0.027 F300.
N2845 G1 X75.225 Y497.706
N2850 X75.319 Y497.71 Z-7.493
N2855 X75.411 Y497.714 Z-7.471
N2860 X75.498 Y497.718 Z-7.435
N2865 X75.578 Y497.721 Z-7.385
N2870 X75.649 Y497.724 Z-7.324
N2875 X75.71 Y497.727 Z-7.253
N2880 X75.76 Y497.729 Z-7.172
N2885 X75.796 Y497.731 Z-7.085
N2890 X75.818 Y497.732 Z-6.994
N2895 X75.825 Z-6.9
N2900 G0 Z5.
N2905 X39.782 Y464.862
N2910 G1 Z-5. F150.33
N2915 Z-5.9
N2920 G18 G2 X40.382 Z-6.5 I0.6 K0.
N2925 G1 X40.982 F300.
N2930 G17 G2 X41.582 Y464.262 I0. J-0.6
N2935 G1 Y458.264 Z-6.709 F150.
N2940 G3 X46.082 Y453.764 Z-6.956 I4.5 J0.
N2945 G1 X55.082 Z-7.271
N2950 G3 X59.582 Y458.264 Z-7.517 I0. J4.5
N2955 G1 Y468.931 Z-7.89
N2960 G3 X75.565 Y494.754 Z-9. I-14.5 J26.833
N2965 X59.582 Y522.597 I-30.483 J1.01 F650.
N2970 G1 Y533.264
N2975 G3 X55.082 Y537.764 I-4.5 J0.
N2980 G1 X46.082
N2985 G3 X41.582 Y533.264 I0. J-4.5
N2990 G1 Y514.938
N2995 G3 X45.848 Y510.444 I4.5 J0.
N3000 G2 Y481.084 I-0.766 J-14.68
N3005 G3 X41.582 Y476.59 I0.234 J-4.494
N3010 G1 Y458.264
N3015 G3 X46.082 Y453.764 I4.5 J0.
N3020 G1 X55.082
N3025 G3 X59.582 Y458.264 I0. J4.5
N3030 G1 Y468.931
N3035 G3 X75.565 Y494.754 I-14.5 J26.833
N3040 X74.832 Y495.918 I-1.226 J0.041
N3045 G2 X74.053 Y497.053 I0.523 J1.193
N3050 G3 X58.082 Y521.687 I-28.971 J-1.289
N3055 G1 Y533.264
N3060 G3 X55.082 Y536.264 I-3. J0.
N3065 G1 X46.082
N3070 G3 X43.082 Y533.264 I0. J-3.
N3075 G1 Y514.938
N3080 G3 X45.926 Y511.942 I3. J0.
N3085 G2 Y479.586 I-0.844 J-16.178
N3090 G3 X43.082 Y476.59 I0.156 J-2.996
N3095 G1 Y458.264
N3100 G3 X46.082 Y455.264 I3. J0.
N3105 G1 X55.082
N3110 G3 X58.082 Y458.264 I0. J3.
N3115 G1 Y469.841
N3120 G3 X74.053 Y497.053 I-13. J25.923
N3125 G2 X74.626 Y497.679 I0.599 J0.027 F300.
N3130 G1 X75.225 Y497.706
N3135 X75.319 Y497.71 Z-8.993
N3140 X75.411 Y497.714 Z-8.971
N3145 X75.498 Y497.718 Z-8.935
N3150 X75.578 Y497.721 Z-8.885
N3155 X75.649 Y497.724 Z-8.824
N3160 X75.71 Y497.727 Z-8.753
N3165 X75.76 Y497.729 Z-8.672
N3170 X75.796 Y497.731 Z-8.585
N3175 X75.818 Y497.732 Z-8.494
N3180 X75.825 Z-8.4
N3185 G0 Z5.
N3190 X37.47 Y513.915
N3195 G1 Z-5. F150.33
N3200 Z-5.9
N3205 G18 G3 X36.87 Z-6.5 I-0.6 K0.
N3210 G1 X36.27 F300.
N3215 G17 G2 X35.67 Y514.515 I0. J0.6
N3220 G1 Y520.513 Z-6.709 F150.
N3225 G3 X31.17 Y525.013 Z-6.956 I-4.5 J0.
N3230 G1 X22.17 Z-7.271
N3235 G3 X17.67 Y520.513 Z-7.517 I0. J-4.5
N3240 G1 Y509.846 Z-7.89
N3245 G3 X1.687 Y484.023 Z-9. I14.5 J-26.833
N3250 X17.67 Y456.18 I30.483 J-1.01 F650.
N3255 G1 Y445.513
N3260 G3 X22.17 Y441.013 I4.5 J0.
N3265 G1 X31.17
N3270 G3 X35.67 Y445.513 I0. J4.5
N3275 G1 Y463.839
N3280 G3 X31.404 Y468.333 I-4.5 J0.
N3285 G2 Y497.693 I0.766 J14.68
N3290 G3 X35.67 Y502.187 I-0.234 J4.494
N3295 G1 Y520.513
N3300 G3 X31.17 Y525.013 I-4.5 J0.
N3305 G1 X22.17
N3310 G3 X17.67 Y520.513 I0. J-4.5
N3315 G1 Y509.846
N3320 G3 X1.687 Y484.023 I14.5 J-26.833
N3325 X2.42 Y482.859 I1.226 J-0.041
N3330 G2 X3.199 Y481.724 I-0.523 J-1.193
N3335 G3 X19.17 Y457.09 I28.971 J1.289
N3340 G1 Y445.513
N3345 G3 X22.17 Y442.513 I3. J0.
N3350 G1 X31.17
N3355 G3 X34.17 Y445.513 I0. J3.
N3360 G1 Y463.839
N3365 G3 X31.326 Y466.835 I-3. J0.
N3370 G2 Y499.191 I0.844 J16.178
N3375 G3 X34.17 Y502.187 I-0.156 J2.996
N3380 G1 Y520.513
N3385 G3 X31.17 Y523.513 I-3. J0.
N3390 G1 X22.17
N3395 G3 X19.17 Y520.513 I0. J-3.
N3400 G1 Y508.936
N3405 G3 X3.199 Y481.724 I13. J-25.923
N3410 G2 X2.626 Y481.098 I-0.599 J-0.027 F300.
N3415 G1 X2.027 Y481.071
N3420 X1.933 Y481.067 Z-8.993
N3425 X1.841 Y481.063 Z-8.971
N3430 X1.754 Y481.059 Z-8.935
N3435 X1.674 Y481.056 Z-8.885
N3440 X1.603 Y481.053 Z-8.824
N3445 X1.542 Y481.05 Z-8.753
N3450 X1.492 Y481.048 Z-8.672
N3455 X1.456 Y481.046 Z-8.585
N3460 X1.434 Y481.045 Z-8.494
N3465 X1.427 Z-8.4
N3470 G0 Z5.
N3475 X37.47 Y513.915
N3480 G1 Z-6.5 F150.33
N3485 Z-7.4
N3490 G18 G3 X36.87 Z-8. I-0.6 K0.
N3495 G1 X36.27 F300.
N3500 G17 G2 X35.67 Y514.515 I0. J0.6
N3505 G1 Y520.513 Z-8.209 F150.
N3510 G3 X31.17 Y525.013 Z-8.456 I-4.5 J0.
N3515 G1 X22.17 Z-8.771
N3520 G3 X17.67 Y520.513 Z-9.017 I0. J-4.5
N3525 G1 Y509.846 Z-9.39
N3530 G3 X1.687 Y484.023 Z-10.5 I14.5 J-26.833
N3535 X17.67 Y456.18 I30.483 J-1.01 F650.
N3540 G1 Y445.513
N3545 G3 X22.17 Y441.013 I4.5 J0.
N3550 G1 X31.17
N3555 G3 X35.67 Y445.513 I0. J4.5
N3560 G1 Y463.839
N3565 G3 X31.404 Y468.333 I-4.5 J0.
N3570 G2 Y497.693 I0.766 J14.68
N3575 G3 X35.67 Y502.187 I-0.234 J4.494
N3580 G1 Y520.513
N3585 G3 X31.17 Y525.013 I-4.5 J0.
N3590 G1 X22.17
N3595 G3 X17.67 Y520.513 I0. J-4.5
N3600 G1 Y509.846
N3605 G3 X1.687 Y484.023 I14.5 J-26.833
N3610 X2.42 Y482.859 I1.226 J-0.041
N3615 G2 X3.199 Y481.724 I-0.523 J-1.193
N3620 G3 X19.17 Y457.09 I28.971 J1.289
N3625 G1 Y445.513
N3630 G3 X22.17 Y442.513 I3. J0.
N3635 G1 X31.17
N3640 G3 X34.17 Y445.513 I0. J3.
N3645 G1 Y463.839
N3650 G3 X31.326 Y466.835 I-3. J0.
N3655 G2 Y499.191 I0.844 J16.178
N3660 G3 X34.17 Y502.187 I-0.156 J2.996
N3665 G1 Y520.513
N3670 G3 X31.17 Y523.513 I-3. J0.
N3675 G1 X22.17
N3680 G3 X19.17 Y520.513 I0. J-3.
N3685 G1 Y508.936
N3690 G3 X3.199 Y481.724 I13. J-25.923
N3695 G2 X2.626 Y481.098 I-0.599 J-0.027 F300.
N3700 G1 X2.027 Y481.071
N3705 X1.933 Y481.067 Z-10.493
N3710 X1.841 Y481.063 Z-10.471
N3715 X1.754 Y481.059 Z-10.435
N3720 X1.674 Y481.056 Z-10.385
N3725 X1.603 Y481.053 Z-10.324
N3730 X1.542 Y481.05 Z-10.253
N3735 X1.492 Y481.048 Z-10.172
N3740 X1.456 Y481.046 Z-10.085
N3745 X1.434 Y481.045 Z-9.994
N3750 X1.427 Z-9.9
N3755 G0 Z5.
N3760 X39.782 Y464.862
N3765 G1 Z-6.5 F150.33
N3770 Z-7.4
N3775 G18 G2 X40.382 Z-8. I0.6 K0.
N3780 G1 X40.982 F300.
N3785 G17 G2 X41.582 Y464.262 I0. J-0.6
N3790 G1 Y458.264 Z-8.209 F150.
N3795 G3 X46.082 Y453.764 Z-8.456 I4.5 J0.
N3800 G1 X55.082 Z-8.771
N3805 G3 X59.582 Y458.264 Z-9.017 I0. J4.5
N3810 G1 Y468.931 Z-9.39
N3815 G3 X75.565 Y494.754 Z-10.5 I-14.5 J26.833
N3820 X59.582 Y522.597 I-30.483 J1.01 F650.
N3825 G1 Y533.264
N3830 G3 X55.082 Y537.764 I-4.5 J0.
N3835 G1 X46.082
N3840 G3 X41.582 Y533.264 I0. J-4.5
N3845 G1 Y514.938
N3850 G3 X45.848 Y510.444 I4.5 J0.
N3855 G2 Y481.084 I-0.766 J-14.68
N3860 G3 X41.582 Y476.59 I0.234 J-4.494
N3865 G1 Y458.264
N3870 G3 X46.082 Y453.764 I4.5 J0.
N3875 G1 X55.082
N3880 G3 X59.582 Y458.264 I0. J4.5
N3885 G1 Y468.931
N3890 G3 X75.565 Y494.754 I-14.5 J26.833
N3895 X74.832 Y495.918 I-1.226 J0.041
N3900 G2 X74.053 Y497.053 I0.523 J1.193
N3905 G3 X58.082 Y521.687 I-28.971 J-1.289
N3910 G1 Y533.264
N3915 G3 X55.082 Y536.264 I-3. J0.
N3920 G1 X46.082
N3925 G3 X43.082 Y533.264 I0. J-3.
N3930 G1 Y514.938
N3935 G3 X45.926 Y511.942 I3. J0.
N3940 G2 Y479.586 I-0.844 J-16.178
N3945 G3 X43.082 Y476.59 I0.156 J-2.996
N3950 G1 Y458.264
N3955 G3 X46.082 Y455.264 I3. J0.
N3960 G1 X55.082
N3965 G3 X58.082 Y458.264 I0. J3.
N3970 G1 Y469.841
N3975 G3 X74.053 Y497.053 I-13. J25.923
N3980 G2 X74.626 Y497.679 I0.599 J0.027 F300.
N3985 G1 X75.225 Y497.706
N3990 X75.319 Y497.71 Z-10.493
N3995 X75.411 Y497.714 Z-10.471
N4000 X75.498 Y497.718 Z-10.435
N4005 X75.578 Y497.721 Z-10.385
N4010 X75.649 Y497.724 Z-10.324
N4015 X75.71 Y497.727 Z-10.253
N4020 X75.76 Y497.729 Z-10.172
N4025 X75.796 Y497.731 Z-10.085
N4030 X75.818 Y497.732 Z-9.994
N4035 X75.825 Z-9.9
N4040 G0 Z5.
N4045 X39.782 Y464.862
N4050 G1 Z-8. F150.33
N4055 Z-8.9
N4060 G18 G2 X40.382 Z-9.5 I0.6 K0.
N4065 G1 X40.982 F300.
N4070 G17 G2 X41.582 Y464.262 I0. J-0.6
N4075 G1 Y458.264 Z-9.709 F150.
N4080 G3 X46.082 Y453.764 Z-9.956 I4.5 J0.
N4085 G1 X55.082 Z-10.271
N4090 G3 X59.582 Y458.264 Z-10.517 I0. J4.5
N4095 G1 Y468.931 Z-10.89
N4100 G3 X75.565 Y494.754 Z-12. I-14.5 J26.833
N4105 X59.582 Y522.597 I-30.483 J1.01 F650.
N4110 G1 Y533.264
N4115 G3 X55.082 Y537.764 I-4.5 J0.
N4120 G1 X46.082
N4125 G3 X41.582 Y533.264 I0. J-4.5
N4130 G1 Y514.938
N4135 G3 X45.848 Y510.444 I4.5 J0.
N4140 G2 Y481.084 I-0.766 J-14.68
N4145 G3 X41.582 Y476.59 I0.234 J-4.494
N4150 G1 Y458.264
N4155 G3 X46.082 Y453.764 I4.5 J0.
N4160 G1 X55.082
N4165 G3 X59.582 Y458.264 I0. J4.5
N4170 G1 Y468.931
N4175 G3 X75.565 Y494.754 I-14.5 J26.833
N4180 X74.832 Y495.918 I-1.226 J0.041
N4185 G2 X74.053 Y497.053 I0.523 J1.193
N4190 G3 X58.082 Y521.687 I-28.971 J-1.289
N4195 G1 Y533.264
N4200 G3 X55.082 Y536.264 I-3. J0.
N4205 G1 X46.082
N4210 G3 X43.082 Y533.264 I0. J-3.
N4215 G1 Y514.938
N4220 G3 X45.926 Y511.942 I3. J0.
N4225 G2 Y479.586 I-0.844 J-16.178
N4230 G3 X43.082 Y476.59 I0.156 J-2.996
N4235 G1 Y458.264
N4240 G3 X46.082 Y455.264 I3. J0.
N4245 G1 X55.082
N4250 G3 X58.082 Y458.264 I0. J3.
N4255 G1 Y469.841
N4260 G3 X74.053 Y497.053 I-13. J25.923
N4265 G2 X74.626 Y497.679 I0.599 J0.027 F300.
N4270 G1 X75.225 Y497.706
N4275 X75.319 Y497.71 Z-11.993
N4280 X75.411 Y497.714 Z-11.971
N4285 X75.498 Y497.718 Z-11.935
N4290 X75.578 Y497.721 Z-11.885
N4295 X75.649 Y497.724 Z-11.824
N4300 X75.71 Y497.727 Z-11.753
N4305 X75.76 Y497.729 Z-11.672
N4310 X75.796 Y497.731 Z-11.585
N4315 X75.818 Y497.732 Z-11.494
N4320 X75.825 Z-11.4
N4325 G0 Z5.
N4330 X37.47 Y513.915
N4335 G1 Z-8. F150.33
N4340 Z-8.9
N4345 G18 G3 X36.87 Z-9.5 I-0.6 K0.
N4350 G1 X36.27 F300.
N4355 G17 G2 X35.67 Y514.515 I0. J0.6
N4360 G1 Y520.513 Z-9.709 F150.
N4365 G3 X31.17 Y525.013 Z-9.956 I-4.5 J0.
N4370 G1 X22.17 Z-10.271
N4375 G3 X17.67 Y520.513 Z-10.517 I0. J-4.5
N4380 G1 Y509.846 Z-10.89
N4385 G3 X1.687 Y484.023 Z-12. I14.5 J-26.833
N4390 X17.67 Y456.18 I30.483 J-1.01 F650.
N4395 G1 Y445.513
N4400 G3 X22.17 Y441.013 I4.5 J0.
N4405 G1 X31.17
N4410 G3 X35.67 Y445.513 I0. J4.5
N4415 G1 Y463.839
N4420 G3 X31.404 Y468.333 I-4.5 J0.
N4425 G2 Y497.693 I0.766 J14.68
N4430 G3 X35.67 Y502.187 I-0.234 J4.494
N4435 G1 Y520.513
N4440 G3 X31.17 Y525.013 I-4.5 J0.
N4445 G1 X22.17
N4450 G3 X17.67 Y520.513 I0. J-4.5
N4455 G1 Y509.846
N4460 G3 X1.687 Y484.023 I14.5 J-26.833
N4465 X2.42 Y482.859 I1.226 J-0.041
N4470 G2 X3.199 Y481.724 I-0.523 J-1.193
N4475 G3 X19.17 Y457.09 I28.971 J1.289
N4480 G1 Y445.513
N4485 G3 X22.17 Y442.513 I3. J0.
N4490 G1 X31.17
N4495 G3 X34.17 Y445.513 I0. J3.
N4500 G1 Y463.839
N4505 G3 X31.326 Y466.835 I-3. J0.
N4510 G2 Y499.191 I0.844 J16.178
N4515 G3 X34.17 Y502.187 I-0.156 J2.996
N4520 G1 Y520.513
N4525 G3 X31.17 Y523.513 I-3. J0.
N4530 G1 X22.17
N4535 G3 X19.17 Y520.513 I0. J-3.
N4540 G1 Y508.936
N4545 G3 X3.199 Y481.724 I13. J-25.923
N4550 G2 X2.626 Y481.098 I-0.599 J-0.027 F300.
N4555 G1 X2.027 Y481.071
N4560 X1.933 Y481.067 Z-11.993
N4565 X1.841 Y481.063 Z-11.971
N4570 X1.754 Y481.059 Z-11.935
N4575 X1.674 Y481.056 Z-11.885
N4580 X1.603 Y481.053 Z-11.824
N4585 X1.542 Y481.05 Z-11.753
N4590 X1.492 Y481.048 Z-11.672
N4595 X1.456 Y481.046 Z-11.585
N4600 X1.434 Y481.045 Z-11.494
N4605 X1.427 Z-11.4
N4610 G0 Z5.
N4615 X37.47 Y513.915
N4620 G1 Z-9.5 F150.33
N4625 Z-10.4
N4630 G18 G3 X36.87 Z-11. I-0.6 K0.
N4635 G1 X36.27 F300.
N4640 G17 G2 X35.67 Y514.515 I0. J0.6
N4645 G1 Y520.513 Z-11.209 F150.
N4650 G3 X31.17 Y525.013 Z-11.456 I-4.5 J0.
N4655 G1 X22.17 Z-11.771
N4660 G3 X17.67 Y520.513 Z-12.017 I0. J-4.5
N4665 G1 Y509.846 Z-12.39
N4670 G3 X1.687 Y484.023 Z-13.5 I14.5 J-26.833
N4675 X17.67 Y456.18 I30.483 J-1.01 F650.
N4680 G1 Y445.513
N4685 G3 X22.17 Y441.013 I4.5 J0.
N4690 G1 X31.17
N4695 G3 X35.67 Y445.513 I0. J4.5
N4700 G1 Y463.839
N4705 G3 X31.404 Y468.333 I-4.5 J0.
N4710 G2 Y497.693 I0.766 J14.68
N4715 G3 X35.67 Y502.187 I-0.234 J4.494
N4720 G1 Y520.513
N4725 G3 X31.17 Y525.013 I-4.5 J0.
N4730 G1 X22.17
N4735 G3 X17.67 Y520.513 I0. J-4.5
N4740 G1 Y509.846
N4745 G3 X1.687 Y484.023 I14.5 J-26.833
N4750 X2.42 Y482.859 I1.226 J-0.041
N4755 G2 X3.199 Y481.724 I-0.523 J-1.193
N4760 G3 X19.17 Y457.09 I28.971 J1.289
N4765 G1 Y445.513
N4770 G3 X22.17 Y442.513 I3. J0.
N4775 G1 X31.17
N4780 G3 X34.17 Y445.513 I0. J3.
N4785 G1 Y463.839
N4790 G3 X31.326 Y466.835 I-3. J0.
N4795 G2 Y499.191 I0.844 J16.178
N4800 G3 X34.17 Y502.187 I-0.156 J2.996
N4805 G1 Y520.513
N4810 G3 X31.17 Y523.513 I-3. J0.
N4815 G1 X22.17
N4820 G3 X19.17 Y520.513 I0. J-3.
N4825 G1 Y508.936
N4830 G3 X3.199 Y481.724 I13. J-25.923
N4835 G2 X2.626 Y481.098 I-0.599 J-0.027 F300.
N4840 G1 X2.027 Y481.071
N4845 X1.933 Y481.067 Z-13.493
N4850 X1.841 Y481.063 Z-13.471
N4855 X1.754 Y481.059 Z-13.435
N4860 X1.674 Y481.056 Z-13.385
N4865 X1.603 Y481.053 Z-13.324
N4870 X1.542 Y481.05 Z-13.253
N4875 X1.492 Y481.048 Z-13.172
N4880 X1.456 Y481.046 Z-13.085
N4885 X1.434 Y481.045 Z-12.994
N4890 X1.427 Z-12.9
N4895 G0 Z5.
N4900 X39.782 Y464.862
N4905 G1 Z-9.5 F150.33
N4910 Z-10.4
N4915 G18 G2 X40.382 Z-11. I0.6 K0.
N4920 G1 X40.982 F300.
N4925 G17 G2 X41.582 Y464.262 I0. J-0.6
N4930 G1 Y458.264 Z-11.209 F150.
N4935 G3 X46.082 Y453.764 Z-11.456 I4.5 J0.
N4940 G1 X55.082 Z-11.771
N4945 G3 X59.582 Y458.264 Z-12.017 I0. J4.5
N4950 G1 Y468.931 Z-12.39
N4955 G3 X75.565 Y494.754 Z-13.5 I-14.5 J26.833
N4960 X59.582 Y522.597 I-30.483 J1.01 F650.
N4965 G1 Y533.264
N4970 G3 X55.082 Y537.764 I-4.5 J0.
N4975 G1 X46.082
N4980 G3 X41.582 Y533.264 I0. J-4.5
N4985 G1 Y514.938
N4990 G3 X45.848 Y510.444 I4.5 J0.
N4995 G2 Y481.084 I-0.766 J-14.68
N5000 G3 X41.582 Y476.59 I0.234 J-4.494
N5005 G1 Y458.264
N5010 G3 X46.082 Y453.764 I4.5 J0.
N5015 G1 X55.082
N5020 G3 X59.582 Y458.264 I0. J4.5
N5025 G1 Y468.931
N5030 G3 X75.565 Y494.754 I-14.5 J26.833
N5035 X74.832 Y495.918 I-1.226 J0.041
N5040 G2 X74.053 Y497.053 I0.523 J1.193
N5045 G3 X58.082 Y521.687 I-28.971 J-1.289
N5050 G1 Y533.264
N5055 G3 X55.082 Y536.264 I-3. J0.
N5060 G1 X46.082
N5065 G3 X43.082 Y533.264 I0. J-3.
N5070 G1 Y514.938
N5075 G3 X45.926 Y511.942 I3. J0.
N5080 G2 Y479.586 I-0.844 J-16.178
N5085 G3 X43.082 Y476.59 I0.156 J-2.996
N5090 G1 Y458.264
N5095 G3 X46.082 Y455.264 I3. J0.
N5100 G1 X55.082
N5105 G3 X58.082 Y458.264 I0. J3.
N5110 G1 Y469.841
N5115 G3 X74.053 Y497.053 I-13. J25.923
N5120 G2 X74.626 Y497.679 I0.599 J0.027 F300.
N5125 G1 X75.225 Y497.706
N5130 X75.319 Y497.71 Z-13.493
N5135 X75.411 Y497.714 Z-13.471
N5140 X75.498 Y497.718 Z-13.435
N5145 X75.578 Y497.721 Z-13.385
N5150 X75.649 Y497.724 Z-13.324
N5155 X75.71 Y497.727 Z-13.253
N5160 X75.76 Y497.729 Z-13.172
N5165 X75.796 Y497.731 Z-13.085
N5170 X75.818 Y497.732 Z-12.994
N5175 X75.825 Z-12.9
N5180 G0 Z5.
N5185 X39.782 Y464.862
N5190 G1 Z-11. F150.33
N5195 Z-11.9
N5200 G18 G2 X40.382 Z-12.5 I0.6 K0.
N5205 G1 X40.982 F300.
N5210 G17 G2 X41.582 Y464.262 I0. J-0.6
N5215 G1 Y458.264 Z-12.709 F150.
N5220 G3 X46.082 Y453.764 Z-12.956 I4.5 J0.
N5225 G1 X55.082 Z-13.271
N5230 G3 X59.582 Y458.264 Z-13.517 I0. J4.5
N5235 G1 Y468.931 Z-13.89
N5240 G3 X75.565 Y494.754 Z-15. I-14.5 J26.833
N5245 X59.582 Y522.597 I-30.483 J1.01 F650.
N5250 G1 Y533.264
N5255 G3 X55.082 Y537.764 I-4.5 J0.
N5260 G1 X46.082
N5265 G3 X41.582 Y533.264 I0. J-4.5
N5270 G1 Y514.938
N5275 G3 X45.848 Y510.444 I4.5 J0.
N5280 G2 Y481.084 I-0.766 J-14.68
N5285 G3 X41.582 Y476.59 I0.234 J-4.494
N5290 G1 Y458.264
N5295 G3 X46.082 Y453.764 I4.5 J0.
N5300 G1 X55.082
N5305 G3 X59.582 Y458.264 I0. J4.5
N5310 G1 Y468.931
N5315 G3 X75.565 Y494.754 I-14.5 J26.833
N5320 X74.832 Y495.918 I-1.226 J0.041
N5325 G2 X74.053 Y497.053 I0.523 J1.193
N5330 G3 X58.082 Y521.687 I-28.971 J-1.289
N5335 G1 Y533.264
N5340 G3 X55.082 Y536.264 I-3. J0.
N5345 G1 X46.082
N5350 G3 X43.082 Y533.264 I0. J-3.
N5355 G1 Y514.938
N5360 G3 X45.926 Y511.942 I3. J0.
N5365 G2 Y479.586 I-0.844 J-16.178
N5370 G3 X43.082 Y476.59 I0.156 J-2.996
N5375 G1 Y458.264
N5380 G3 X46.082 Y455.264 I3. J0.
N5385 G1 X55.082
N5390 G3 X58.082 Y458.264 I0. J3.
N5395 G1 Y469.841
N5400 G3 X74.053 Y497.053 I-13. J25.923
N5405 G2 X74.626 Y497.679 I0.599 J0.027 F300.
N5410 G1 X75.225 Y497.706
N5415 X75.319 Y497.71 Z-14.993
N5420 X75.411 Y497.714 Z-14.971
N5425 X75.498 Y497.718 Z-14.935
N5430 X75.578 Y497.721 Z-14.885
N5435 X75.649 Y497.724 Z-14.824
N5440 X75.71 Y497.727 Z-14.753
N5445 X75.76 Y497.729 Z-14.672
N5450 X75.796 Y497.731 Z-14.585
N5455 X75.818 Y497.732 Z-14.494
N5460 X75.825 Z-14.4
N5465 G0 Z5.
N5470 X37.47 Y513.915
N5475 G1 Z-11. F150.33
N5480 Z-11.9
N5485 G18 G3 X36.87 Z-12.5 I-0.6 K0.
N5490 G1 X36.27 F300.
N5495 G17 G2 X35.67 Y514.515 I0. J0.6
N5500 G1 Y520.513 Z-12.709 F150.
N5505 G3 X31.17 Y525.013 Z-12.956 I-4.5 J0.
N5510 G1 X22.17 Z-13.271
N5515 G3 X17.67 Y520.513 Z-13.517 I0. J-4.5
N5520 G1 Y509.846 Z-13.89
N5525 G3 X1.687 Y484.023 Z-15. I14.5 J-26.833
N5530 X17.67 Y456.18 I30.483 J-1.01 F650.
N5535 G1 Y445.513
N5540 G3 X22.17 Y441.013 I4.5 J0.
N5545 G1 X31.17
N5550 G3 X35.67 Y445.513 I0. J4.5
N5555 G1 Y463.839
N5560 G3 X31.404 Y468.333 I-4.5 J0.
N5565 G2 Y497.693 I0.766 J14.68
N5570 G3 X35.67 Y502.187 I-0.234 J4.494
N5575 G1 Y520.513
N5580 G3 X31.17 Y525.013 I-4.5 J0.
N5585 G1 X22.17
N5590 G3 X17.67 Y520.513 I0. J-4.5
N5595 G1 Y509.846
N5600 G3 X1.687 Y484.023 I14.5 J-26.833
N5605 X2.42 Y482.859 I1.226 J-0.041
N5610 G2 X3.199 Y481.724 I-0.523 J-1.193
N5615 G3 X19.17 Y457.09 I28.971 J1.289
N5620 G1 Y445.513
N5625 G3 X22.17 Y442.513 I3. J0.
N5630 G1 X31.17
N5635 G3 X34.17 Y445.513 I0. J3.
N5640 G1 Y463.839
N5645 G3 X31.326 Y466.835 I-3. J0.
N5650 G2 Y499.191 I0.844 J16.178
N5655 G3 X34.17 Y502.187 I-0.156 J2.996
N5660 G1 Y520.513
N5665 G3 X31.17 Y523.513 I-3. J0.
N5670 G1 X22.17
N5675 G3 X19.17 Y520.513 I0. J-3.
N5680 G1 Y508.936
N5685 G3 X3.199 Y481.724 I13. J-25.923
N5690 G2 X2.626 Y481.098 I-0.599 J-0.027 F300.
N5695 G1 X2.027 Y481.071
N5700 X1.933 Y481.067 Z-14.993
N5705 X1.841 Y481.063 Z-14.971
N5710 X1.754 Y481.059 Z-14.935
N5715 X1.674 Y481.056 Z-14.885
N5720 X1.603 Y481.053 Z-14.824
N5725 X1.542 Y481.05 Z-14.753
N5730 X1.492 Y481.048 Z-14.672
N5735 X1.456 Y481.046 Z-14.585
N5740 X1.434 Y481.045 Z-14.494
N5745 X1.427 Z-14.4
N5750 G0 Z5.
N5755 X37.47 Y513.915
N5760 G1 Z-12.5 F150.33
N5765 Z-13.4
N5770 G18 G3 X36.87 Z-14. I-0.6 K0.
N5775 G1 X36.27 F300.
N5780 G17 G2 X35.67 Y514.515 I0. J0.6
N5785 G1 Y520.513 Z-14.209 F150.
N5790 G3 X31.17 Y525.013 Z-14.456 I-4.5 J0.
N5795 G1 X22.17 Z-14.771
N5800 G3 X17.67 Y520.513 Z-15.017 I0. J-4.5
N5805 G1 Y509.846 Z-15.39
N5810 G3 X1.687 Y484.023 Z-16.5 I14.5 J-26.833
N5815 X17.67 Y456.18 I30.483 J-1.01 F650.
N5820 G1 Y445.513
N5825 G3 X22.17 Y441.013 I4.5 J0.
N5830 G1 X31.17
N5835 G3 X35.67 Y445.513 I0. J4.5
N5840 G1 Y463.839
N5845 G3 X31.404 Y468.333 I-4.5 J0.
N5850 G2 Y497.693 I0.766 J14.68
N5855 G3 X35.67 Y502.187 I-0.234 J4.494
N5860 G1 Y520.513
N5865 G3 X31.17 Y525.013 I-4.5 J0.
N5870 G1 X22.17
N5875 G3 X17.67 Y520.513 I0. J-4.5
N5880 G1 Y509.846
N5885 G3 X1.687 Y484.023 I14.5 J-26.833
N5890 X2.42 Y482.859 I1.226 J-0.041
N5895 G2 X3.199 Y481.724 I-0.523 J-1.193
N5900 G3 X19.17 Y457.09 I28.971 J1.289
N5905 G1 Y445.513
N5910 G3 X22.17 Y442.513 I3. J0.
N5915 G1 X31.17
N5920 G3 X34.17 Y445.513 I0. J3.
N5925 G1 Y463.839
N5930 G3 X31.326 Y466.835 I-3. J0.
N5935 G2 Y499.191 I0.844 J16.178
N5940 G3 X34.17 Y502.187 I-0.156 J2.996
N5945 G1 Y520.513
N5950 G3 X31.17 Y523.513 I-3. J0.
N5955 G1 X22.17
N5960 G3 X19.17 Y520.513 I0. J-3.
N5965 G1 Y508.936
N5970 G3 X3.199 Y481.724 I13. J-25.923
N5975 G2 X2.626 Y481.098 I-0.599 J-0.027 F300.
N5980 G1 X2.027 Y481.071
N5985 X1.933 Y481.067 Z-16.493
N5990 X1.841 Y481.063 Z-16.471
N5995 X1.754 Y481.059 Z-16.435
N6000 X1.674 Y481.056 Z-16.385
N6005 X1.603 Y481.053 Z-16.324
N6010 X1.542 Y481.05 Z-16.253
N6015 X1.492 Y481.048 Z-16.172
N6020 X1.456 Y481.046 Z-16.085
N6025 X1.434 Y481.045 Z-15.994
N6030 X1.427 Z-15.9
N6035 G0 Z5.
N6040 X39.782 Y464.862
N6045 G1 Z-12.5 F150.33
N6050 Z-13.4
N6055 G18 G2 X40.382 Z-14. I0.6 K0.
N6060 G1 X40.982 F300.
N6065 G17 G2 X41.582 Y464.262 I0. J-0.6
N6070 G1 Y458.264 Z-14.209 F150.
N6075 G3 X46.082 Y453.764 Z-14.456 I4.5 J0.
N6080 G1 X55.082 Z-14.771
N6085 G3 X59.582 Y458.264 Z-15.017 I0. J4.5
N6090 G1 Y468.931 Z-15.39
N6095 G3 X75.565 Y494.754 Z-16.5 I-14.5 J26.833
N6100 X59.582 Y522.597 I-30.483 J1.01 F650.
N6105 G1 Y533.264
N6110 G3 X55.082 Y537.764 I-4.5 J0.
N6115 G1 X46.082
N6120 G3 X41.582 Y533.264 I0. J-4.5
N6125 G1 Y514.938
N6130 G3 X45.848 Y510.444 I4.5 J0.
N6135 G2 Y481.084 I-0.766 J-14.68
N6140 G3 X41.582 Y476.59 I0.234 J-4.494
N6145 G1 Y458.264
N6150 G3 X46.082 Y453.764 I4.5 J0.
N6155 G1 X55.082
N6160 G3 X59.582 Y458.264 I0. J4.5
N6165 G1 Y468.931
N6170 G3 X75.565 Y494.754 I-14.5 J26.833
N6175 X74.832 Y495.918 I-1.226 J0.041
N6180 G2 X74.053 Y497.053 I0.523 J1.193
N6185 G3 X58.082 Y521.687 I-28.971 J-1.289
N6190 G1 Y533.264
N6195 G3 X55.082 Y536.264 I-3. J0.
N6200 G1 X46.082
N6205 G3 X43.082 Y533.264 I0. J-3.
N6210 G1 Y514.938
N6215 G3 X45.926 Y511.942 I3. J0.
N6220 G2 Y479.586 I-0.844 J-16.178
N6225 G3 X43.082 Y476.59 I0.156 J-2.996
N6230 G1 Y458.264
N6235 G3 X46.082 Y455.264 I3. J0.
N6240 G1 X55.082
N6245 G3 X58.082 Y458.264 I0. J3.
N6250 G1 Y469.841
N6255 G3 X74.053 Y497.053 I-13. J25.923
N6260 G2 X74.626 Y497.679 I0.599 J0.027 F300.
N6265 G1 X75.225 Y497.706
N6270 X75.319 Y497.71 Z-16.493
N6275 X75.411 Y497.714 Z-16.471
N6280 X75.498 Y497.718 Z-16.435
N6285 X75.578 Y497.721 Z-16.385
N6290 X75.649 Y497.724 Z-16.324
N6295 X75.71 Y497.727 Z-16.253
N6300 X75.76 Y497.729 Z-16.172
N6305 X75.796 Y497.731 Z-16.085
N6310 X75.818 Y497.732 Z-15.994
N6315 X75.825 Z-15.9
N6320 G0 Z5.
N6325 X39.782 Y464.862
N6330 G1 Z-14. F150.33
N6335 Z-14.9
N6340 G18 G2 X40.382 Z-15.5 I0.6 K0.
N6345 G1 X40.982 F300.
N6350 G17 G2 X41.582 Y464.262 I0. J-0.6
N6355 G1 Y458.264 Z-15.709 F150.
N6360 G3 X46.082 Y453.764 Z-15.956 I4.5 J0.
N6365 G1 X55.082 Z-16.271
N6370 G3 X59.582 Y458.264 Z-16.517 I0. J4.5
N6375 G1 Y468.931 Z-16.89
N6380 G3 X75.565 Y494.754 Z-18. I-14.5 J26.833
N6385 X59.582 Y522.597 I-30.483 J1.01 F650.
N6390 G1 Y533.264
N6395 G3 X55.082 Y537.764 I-4.5 J0.
N6400 G1 X46.082
N6405 G3 X41.582 Y533.264 I0. J-4.5
N6410 G1 Y514.938
N6415 G3 X45.848 Y510.444 I4.5 J0.
N6420 G2 Y481.084 I-0.766 J-14.68
N6425 G3 X41.582 Y476.59 I0.234 J-4.494
N6430 G1 Y458.264
N6435 G3 X46.082 Y453.764 I4.5 J0.
N6440 G1 X55.082
N6445 G3 X59.582 Y458.264 I0. J4.5
N6450 G1 Y468.931
N6455 G3 X75.565 Y494.754 I-14.5 J26.833
N6460 X74.832 Y495.918 I-1.226 J0.041
N6465 G2 X74.053 Y497.053 I0.523 J1.193
N6470 G3 X58.082 Y521.687 I-28.971 J-1.289
N6475 G1 Y533.264
N6480 G3 X55.082 Y536.264 I-3. J0.
N6485 G1 X46.082
N6490 G3 X43.082 Y533.264 I0. J-3.
N6495 G1 Y514.938
N6500 G3 X45.926 Y511.942 I3. J0.
N6505 G2 Y479.586 I-0.844 J-16.178
N6510 G3 X43.082 Y476.59 I0.156 J-2.996
N6515 G1 Y458.264
N6520 G3 X46.082 Y455.264 I3. J0.
N6525 G1 X55.082
N6530 G3 X58.082 Y458.264 I0. J3.
N6535 G1 Y469.841
N6540 G3 X74.053 Y497.053 I-13. J25.923
N6545 G2 X74.626 Y497.679 I0.599 J0.027 F300.
N6550 G1 X75.225 Y497.706
N6555 X75.319 Y497.71 Z-17.993
N6560 X75.411 Y497.714 Z-17.971
N6565 X75.498 Y497.718 Z-17.935
N6570 X75.578 Y497.721 Z-17.885
N6575 X75.649 Y497.724 Z-17.824
N6580 X75.71 Y497.727 Z-17.753
N6585 X75.76 Y497.729 Z-17.672
N6590 X75.796 Y497.731 Z-17.585
N6595 X75.818 Y497.732 Z-17.494
N6600 X75.825 Z-17.4
N6605 G0 Z5.
N6610 X37.47 Y513.915
N6615 G1 Z-14. F150.33
N6620 Z-14.9
N6625 G18 G3 X36.87 Z-15.5 I-0.6 K0.
N6630 G1 X36.27 F300.
N6635 G17 G2 X35.67 Y514.515 I0. J0.6
N6640 G1 Y520.513 Z-15.709 F150.
N6645 G3 X31.17 Y525.013 Z-15.956 I-4.5 J0.
N6650 G1 X22.17 Z-16.271
N6655 G3 X17.67 Y520.513 Z-16.517 I0. J-4.5
N6660 G1 Y509.846 Z-16.89
N6665 G3 X1.687 Y484.023 Z-18. I14.5 J-26.833
N6670 X17.67 Y456.18 I30.483 J-1.01 F650.
N6675 G1 Y445.513
N6680 G3 X22.17 Y441.013 I4.5 J0.
N6685 G1 X31.17
N6690 G3 X35.67 Y445.513 I0. J4.5
N6695 G1 Y463.839
N6700 G3 X31.404 Y468.333 I-4.5 J0.
N6705 G2 Y497.693 I0.766 J14.68
N6710 G3 X35.67 Y502.187 I-0.234 J4.494
N6715 G1 Y520.513
N6720 G3 X31.17 Y525.013 I-4.5 J0.
N6725 G1 X22.17
N6730 G3 X17.67 Y520.513 I0. J-4.5
N6735 G1 Y509.846
N6740 G3 X1.687 Y484.023 I14.5 J-26.833
N6745 X2.42 Y482.859 I1.226 J-0.041
N6750 G2 X3.199 Y481.724 I-0.523 J-1.193
N6755 G3 X19.17 Y457.09 I28.971 J1.289
N6760 G1 Y445.513
N6765 G3 X22.17 Y442.513 I3. J0.
N6770 G1 X31.17
N6775 G3 X34.17 Y445.513 I0. J3.
N6780 G1 Y463.839
N6785 G3 X31.326 Y466.835 I-3. J0.
N6790 G2 Y499.191 I0.844 J16.178
N6795 G3 X34.17 Y502.187 I-0.156 J2.996
N6800 G1 Y520.513
N6805 G3 X31.17 Y523.513 I-3. J0.
N6810 G1 X22.17
N6815 G3 X19.17 Y520.513 I0. J-3.
N6820 G1 Y508.936
N6825 G3 X3.199 Y481.724 I13. J-25.923
N6830 G2 X2.626 Y481.098 I-0.599 J-0.027 F300.
N6835 G1 X2.027 Y481.071
N6840 X1.933 Y481.067 Z-17.993
N6845 X1.841 Y481.063 Z-17.971
N6850 X1.754 Y481.059 Z-17.935
N6855 X1.674 Y481.056 Z-17.885
N6860 X1.603 Y481.053 Z-17.824
N6865 X1.542 Y481.05 Z-17.753
N6870 X1.492 Y481.048 Z-17.672
N6875 X1.456 Y481.046 Z-17.585
N6880 X1.434 Y481.045 Z-17.494
N6885 X1.427 Z-17.4
N6890 G0 Z5.
N6895 X37.47 Y513.915
N6900 G1 Z-15.5 F150.33
N6905 Z-16.4
N6910 G18 G3 X36.87 Z-17. I-0.6 K0.
N6915 G1 X36.27 F300.
N6920 G17 G2 X35.67 Y514.515 I0. J0.6
N6925 G1 Y520.513 Z-17.209 F150.
N6930 G3 X31.17 Y525.013 Z-17.456 I-4.5 J0.
N6935 G1 X22.17 Z-17.771
N6940 G3 X17.67 Y520.513 Z-18.017 I0. J-4.5
N6945 G1 Y509.846 Z-18.39
N6950 G3 X1.687 Y484.023 Z-19.5 I14.5 J-26.833
N6955 X17.67 Y456.18 I30.483 J-1.01 F650.
N6960 G1 Y445.513
N6965 G3 X22.17 Y441.013 I4.5 J0.
N6970 G1 X31.17
N6975 G3 X35.67 Y445.513 I0. J4.5
N6980 G1 Y463.839
N6985 G3 X31.404 Y468.333 I-4.5 J0.
N6990 G2 Y497.693 I0.766 J14.68
N6995 G3 X35.67 Y502.187 I-0.234 J4.494
N7000 G1 Y520.513
N7005 G3 X31.17 Y525.013 I-4.5 J0.
N7010 G1 X22.17
N7015 G3 X17.67 Y520.513 I0. J-4.5
N7020 G1 Y509.846
N7025 G3 X1.687 Y484.023 I14.5 J-26.833
N7030 X2.42 Y482.859 I1.226 J-0.041
N7035 G2 X3.199 Y481.724 I-0.523 J-1.193
N7040 G3 X19.17 Y457.09 I28.971 J1.289
N7045 G1 Y445.513
N7050 G3 X22.17 Y442.513 I3. J0.
N7055 G1 X31.17
N7060 G3 X34.17 Y445.513 I0. J3.
N7065 G1 Y463.839
N7070 G3 X31.326 Y466.835 I-3. J0.
N7075 G2 Y499.191 I0.844 J16.178
N7080 G3 X34.17 Y502.187 I-0.156 J2.996
N7085 G1 Y520.513
N7090 G3 X31.17 Y523.513 I-3. J0.
N7095 G1 X22.17
N7100 G3 X19.17 Y520.513 I0. J-3.
N7105 G1 Y508.936
N7110 G3 X3.199 Y481.724 I13. J-25.923
N7115 G2 X2.626 Y481.098 I-0.599 J-0.027 F300.
N7120 G1 X2.027 Y481.071
N7125 X1.933 Y481.067 Z-19.493
N7130 X1.841 Y481.063 Z-19.471
N7135 X1.754 Y481.059 Z-19.435
N7140 X1.674 Y481.056 Z-19.385
N7145 X1.603 Y481.053 Z-19.324
N7150 X1.542 Y481.05 Z-19.253
N7155 X1.492 Y481.048 Z-19.172
N7160 X1.456 Y481.046 Z-19.085
N7165 X1.434 Y481.045 Z-18.994
N7170 X1.427 Z-18.9
N7175 G0 Z5.
N7180 X39.782 Y464.862
N7185 G1 Z-15.5 F150.33
N7190 Z-16.4
N7195 G18 G2 X40.382 Z-17. I0.6 K0.
N7200 G1 X40.982 F300.
N7205 G17 G2 X41.582 Y464.262 I0. J-0.6
N7210 G1 Y458.264 Z-17.209 F150.
N7215 G3 X46.082 Y453.764 Z-17.456 I4.5 J0.
N7220 G1 X55.082 Z-17.771
N7225 G3 X59.582 Y458.264 Z-18.017 I0. J4.5
N7230 G1 Y468.931 Z-18.39
N7235 G3 X75.565 Y494.754 Z-19.5 I-14.5 J26.833
N7240 X59.582 Y522.597 I-30.483 J1.01 F650.
N7245 G1 Y533.264
N7250 G3 X55.082 Y537.764 I-4.5 J0.
N7255 G1 X46.082
N7260 G3 X41.582 Y533.264 I0. J-4.5
N7265 G1 Y514.938
N7270 G3 X45.848 Y510.444 I4.5 J0.
N7275 G2 Y481.084 I-0.766 J-14.68
N7280 G3 X41.582 Y476.59 I0.234 J-4.494
N7285 G1 Y458.264
N7290 G3 X46.082 Y453.764 I4.5 J0.
N7295 G1 X55.082
N7300 G3 X59.582 Y458.264 I0. J4.5
N7305 G1 Y468.931
N7310 G3 X75.565 Y494.754 I-14.5 J26.833
N7315 X74.832 Y495.918 I-1.226 J0.041
N7320 G2 X74.053 Y497.053 I0.523 J1.193
N7325 G3 X58.082 Y521.687 I-28.971 J-1.289
N7330 G1 Y533.264
N7335 G3 X55.082 Y536.264 I-3. J0.
N7340 G1 X46.082
N7345 G3 X43.082 Y533.264 I0. J-3.
N7350 G1 Y514.938
N7355 G3 X45.926 Y511.942 I3. J0.
N7360 G2 Y479.586 I-0.844 J-16.178
N7365 G3 X43.082 Y476.59 I0.156 J-2.996
N7370 G1 Y458.264
N7375 G3 X46.082 Y455.264 I3. J0.
N7380 G1 X55.082
N7385 G3 X58.082 Y458.264 I0. J3.
N7390 G1 Y469.841
N7395 G3 X74.053 Y497.053 I-13. J25.923
N7400 G2 X74.626 Y497.679 I0.599 J0.027 F300.
N7405 G1 X75.225 Y497.706
N7410 X75.319 Y497.71 Z-19.493
N7415 X75.411 Y497.714 Z-19.471
N7420 X75.498 Y497.718 Z-19.435
N7425 X75.578 Y497.721 Z-19.385
N7430 X75.649 Y497.724 Z-19.324
N7435 X75.71 Y497.727 Z-19.253
N7440 X75.76 Y497.729 Z-19.172
N7445 X75.796 Y497.731 Z-19.085
N7450 X75.818 Y497.732 Z-18.994
N7455 X75.825 Z-18.9
N7460 G0 Z5.
N7465 X39.782 Y464.862
N7470 G1 Z-17. F150.33
N7475 Z-17.9
N7480 G18 G2 X40.382 Z-18.5 I0.6 K0.
N7485 G1 X40.982 F300.
N7490 G17 G2 X41.582 Y464.262 I0. J-0.6
N7495 G1 Y458.264 Z-18.709 F150.
N7500 G3 X46.082 Y453.764 Z-18.956 I4.5 J0.
N7505 G1 X55.082 Z-19.271
N7510 G3 X59.582 Y458.264 Z-19.517 I0. J4.5
N7515 G1 Y468.931 Z-19.89
N7520 G3 X75.565 Y494.754 Z-21. I-14.5 J26.833
N7525 X62.582 Y520.744 I-30.483 J1.01 F650.
N7530 G1 Z-20.5
N7535 G3 X59.582 Y522.597 I-17.5 J-24.98
N7540 G1 Y532.744
N7545 Z-21. F150.33
N7550 Y533.264 F650.
N7555 G3 X55.283 Y537.76 I-4.5 J0.
N7560 G1 Z-20.5
N7565 X55.082 Y537.764
N7570 X46.082
N7575 G3 X43.283 Y536.787 I0. J-4.5
N7580 G1 Z-21. F150.33
N7585 G3 X41.582 Y533.264 I2.799 J-3.523 F650.
N7590 G1 Y527.832
N7595 Z-20.5
N7600 Y515.832
N7605 Z-21. F150.33
N7610 Y514.938 F650.
N7615 G3 X45.848 Y510.444 I4.5 J0.
N7620 G2 Y481.084 I-0.766 J-14.68
N7625 G3 X41.582 Y476.59 I0.234 J-4.494
N7630 G1 Y461.04
N7635 Z-20.5
N7640 Y458.264
N7645 G3 X42.67 Y455.33 I4.5 J0.
N7650 G1 Z-21. F150.33
N7655 G3 X43.82 Y454.374 I3.412 J2.934 F650.
N7660 G1 Z-20.5
N7665 G3 X46.082 Y453.764 I2.262 J3.89
N7670 G1 X55.082
N7675 G3 X55.82 Y453.825 I0. J4.5
N7680 G1 Z-21. F150.33
N7685 G3 X59.582 Y458.264 I-0.738 J4.439 F650.
N7690 G1 Y458.511
N7695 Z-20.5
N7700 Y468.931
N7705 G3 X62.185 Y470.511 I-14.5 J26.833
N7710 G1 Z-21. F150.33
N7715 G3 X75.565 Y494.754 I-17.103 J25.253 F650.
N7720 X74.832 Y495.918 I-1.226 J0.041
N7725 G2 X74.053 Y497.053 I0.523 J1.193
N7730 G3 X59.813 Y520.744 I-28.971 J-1.289
N7735 G1 Z-20.5
N7740 G3 X58.082 Y521.687 I-14.73 J-24.98
N7745 G1 Y532.744
N7750 Z-21. F150.33
N7755 Y533.264 F650.
N7760 G3 X55.283 Y536.257 I-3. J0.
N7765 G1 Z-20.5
N7770 X55.082 Y536.264
N7775 X46.082
N7780 G3 X43.283 Y534.343 I0. J-3.
N7785 G1 Z-21. F150.33
N7790 G3 X43.082 Y533.264 I2.799 J-1.079 F650.
N7795 G1 Y527.832
N7800 Z-20.5
N7805 Y515.832
N7810 Z-21. F150.33
N7815 Y514.938 F650.
N7820 G3 X45.926 Y511.942 I3. J0.
N7825 G2 Y479.586 I-0.844 J-16.178
N7830 G3 X43.082 Y476.59 I0.156 J-2.996
N7835 G1 Y458.264
N7840 G3 X43.82 Y456.293 I3. J0.
N7845 G1 Z-20.5
N7850 G3 X46.082 Y455.264 I2.262 J1.971
N7855 G1 X55.082
N7860 G3 X55.82 Y455.356 I0. J3.
N7865 G1 Z-21. F150.33
N7870 G3 X58.082 Y458.264 I-0.738 J2.908 F650.
N7875 G1 Y458.511
N7880 Z-20.5
N7885 Y469.841
N7890 G3 X59.34 Y470.511 I-13. J25.923
N7895 G1 Z-21. F150.33
N7900 G3 X74.053 Y497.053 I-14.258 J25.253 F650.
N7905 G2 X74.626 Y497.679 I0.599 J0.027 F300.
N7910 G1 X75.225 Y497.706
N7915 X75.319 Y497.71 Z-20.993
N7920 X75.411 Y497.714 Z-20.971
N7925 X75.498 Y497.718 Z-20.935
N7930 X75.578 Y497.721 Z-20.885
N7935 X75.649 Y497.724 Z-20.824
N7940 X75.71 Y497.727 Z-20.753
N7945 X75.76 Y497.729 Z-20.672
N7950 X75.796 Y497.731 Z-20.585
N7955 X75.818 Y497.732 Z-20.494
N7960 X75.825 Z-20.4
N7965 G0 Z5.
N7970 X37.47 Y513.915
N7975 G1 Z-17. F150.33
N7980 Z-17.9
N7985 G18 G3 X36.87 Z-18.5 I-0.6 K0.
N7990 G1 X36.27 F300.
N7995 G17 G2 X35.67 Y514.515 I0. J0.6
N8000 G1 Y520.513 Z-18.709 F150.
N8005 G3 X31.17 Y525.013 Z-18.956 I-4.5 J0.
N8010 G1 X22.17 Z-19.271
N8015 G3 X17.67 Y520.513 Z-19.517 I0. J-4.5
N8020 G1 Y509.846 Z-19.89
N8025 G3 X1.687 Y484.023 Z-21. I14.5 J-26.833
N8030 X17.67 Y456.18 I30.483 J-1.01 F650.
N8035 G1 Y455.325
N8040 Z-20.5
N8045 Y445.513
N8050 G3 X18.238 Y443.325 I4.5 J0.
N8055 G1 Z-21. F150.33
N8060 G3 X21.249 Y441.108 I3.932 J2.188 F650.
N8065 G1 Z-20.5
N8070 G3 X22.17 Y441.013 I0.921 J4.405
N8075 G1 X31.17
N8080 G3 X33.249 Y441.522 I0. J4.5
N8085 G1 Z-21. F150.33
N8090 G3 X35.67 Y445.513 I-2.079 J3.991 F650.
N8095 G1 Y449.04
N8100 Z-20.5
N8105 Y461.04
N8110 Z-21. F150.33
N8115 Y463.839 F650.
N8120 G3 X31.404 Y468.333 I-4.5 J0.
N8125 G2 Y497.693 I0.766 J14.68
N8130 G3 X35.67 Y502.187 I-0.234 J4.494
N8135 G1 Y515.832
N8140 Z-20.5
N8145 Y520.513
N8150 G3 X34.582 Y523.447 I-4.5 J0.
N8155 G1 Z-21. F150.33
N8160 G3 X31.306 Y525.011 I-3.412 J-2.934 F650.
N8165 G1 Z-20.5
N8170 X31.17 Y525.013
N8175 X22.17
N8180 G3 X19.306 Y523.984 I0. J-4.5
N8185 G1 Z-21. F150.33
N8190 G3 X17.67 Y520.513 I2.864 J-3.471 F650.
N8195 G1 Y519.761
N8200 Z-20.5
N8205 Y509.846
N8210 G3 X14.344 Y507.761 I14.5 J-26.833
N8215 G1 Z-21. F150.33
N8220 G3 X1.687 Y484.023 I17.826 J-24.748 F650.
N8225 X2.42 Y482.859 I1.226 J-0.041
N8230 G2 X3.199 Y481.724 I-0.523 J-1.193
N8235 G3 X19.17 Y457.09 I28.971 J1.289
N8240 G1 Y455.325
N8245 Z-20.5
N8250 Y445.513
N8255 G3 X20.117 Y443.325 I3. J0.
N8260 G1 Z-21. F150.33
N8265 G3 X21.249 Y442.658 I2.052 J2.188 F650.
N8270 G1 Z-20.5
N8275 G3 X22.17 Y442.513 I0.921 J2.855
N8280 G1 X31.17
N8285 G3 X33.249 Y443.35 I0. J3.
N8290 G1 Z-21. F150.33
N8295 G3 X34.17 Y445.513 I-2.079 J2.163 F650.
N8300 G1 Y449.04
N8305 Z-20.5
N8310 Y461.04
N8315 Z-21. F150.33
N8320 Y463.839 F650.
N8325 G3 X31.326 Y466.835 I-3. J0.
N8330 G2 Y499.191 I0.844 J16.178
N8335 G3 X34.17 Y502.187 I-0.156 J2.996
N8340 G1 Y520.513
N8345 G3 X31.306 Y523.51 I-3. J0.
N8350 G1 Z-20.5
N8355 X31.17 Y523.513
N8360 X22.17
N8365 G3 X19.306 Y521.406 I0. J-3.
N8370 G1 Z-21. F150.33
N8375 G3 X19.17 Y520.513 I2.864 J-0.893 F650.
N8380 G1 Y519.761
N8385 Z-20.5
N8390 Y508.936
N8395 G3 X17.052 Y507.761 I13. J-25.923
N8400 G1 Z-21. F150.33
N8405 G3 X3.199 Y481.724 I15.117 J-24.748 F650.
N8410 G2 X2.626 Y481.098 I-0.599 J-0.027 F300.
N8415 G1 X2.027 Y481.071
N8420 X1.933 Y481.067 Z-20.993
N8425 X1.841 Y481.063 Z-20.971
N8430 X1.754 Y481.059 Z-20.935
N8435 X1.674 Y481.056 Z-20.885
N8440 X1.603 Y481.053 Z-20.824
N8445 X1.542 Y481.05 Z-20.753
N8450 X1.492 Y481.048 Z-20.672
N8455 X1.456 Y481.046 Z-20.585
N8460 X1.434 Y481.045 Z-20.494
N8465 X1.427 Z-20.4
N8470 G0 Z5.
N8475 X37.47 Y513.915
N8480 G1 Z-18.5 F150.33
N8485 Z-19.4
N8490 G18 G3 X36.87 Z-20. I-0.6 K0.
N8495 G1 X36.27 F300.
N8500 G17 G2 X35.67 Y514.515 I0. J0.6
N8505 G1 Y520.513 Z-20.209 F150.
N8510 G3 X31.17 Y525.013 Z-20.456 I-4.5 J0.
N8515 G1 X29.918 Z-20.5
N8520 X22.17
N8525 G3 X19.306 Y523.984 I0. J-4.5
N8530 G1 Z-20.879 F150.33
N8535 G3 X17.67 Y520.513 Z-21.017 I2.864 J-3.471 F150.
N8540 G1 Y519.761 Z-21.044
N8545 Z-20.5
N8550 Y509.846
N8555 G3 X14.344 Y507.761 I14.5 J-26.833
N8560 G1 Z-21.527 F150.33
N8565 G3 X1.687 Y484.023 Z-22.5 I17.826 J-24.748 F150.
N8570 X17.67 Y456.18 I30.483 J-1.01 F650.
N8575 G1 Y455.325
N8580 Z-20.5
N8585 Y445.513
N8590 G3 X18.238 Y443.325 I4.5 J0.
N8595 G1 Z-22.5 F150.33
N8600 G3 X21.249 Y441.108 I3.932 J2.188 F650.
N8605 G1 Z-20.5
N8610 G3 X22.17 Y441.013 I0.921 J4.405
N8615 G1 X31.17
N8620 G3 X33.249 Y441.522 I0. J4.5
N8625 G1 Z-22.5 F150.33
N8630 G3 X35.67 Y445.513 I-2.079 J3.991 F650.
N8635 G1 Y449.04
N8640 Z-20.5
N8645 Y461.04
N8650 Z-22.5 F150.33
N8655 Y463.839 F650.
N8660 G3 X31.404 Y468.333 I-4.5 J0.
N8665 G2 Y497.693 I0.766 J14.68
N8670 G3 X35.67 Y502.187 I-0.234 J4.494
N8675 G1 Y515.832
N8680 Z-20.5
N8685 Y520.513
N8690 G3 X34.582 Y523.447 I-4.5 J0.
N8695 G1 Z-22.5 F150.33
N8700 G3 X31.306 Y525.011 I-3.412 J-2.934 F650.
N8705 G1 Z-20.5
N8710 X31.17 Y525.013
N8715 X22.17
N8720 G3 X19.306 Y523.984 I0. J-4.5
N8725 G1 Z-22.5 F150.33
N8730 G3 X17.67 Y520.513 I2.864 J-3.471 F650.
N8735 G1 Y519.761
N8740 Z-20.5
N8745 Y509.846
N8750 G3 X14.344 Y507.761 I14.5 J-26.833
N8755 G1 Z-22.5 F150.33
N8760 G3 X1.687 Y484.023 I17.826 J-24.748 F650.
N8765 X2.42 Y482.859 I1.226 J-0.041
N8770 G2 X3.199 Y481.724 I-0.523 J-1.193
N8775 G3 X19.17 Y457.09 I28.971 J1.289
N8780 G1 Y455.325
N8785 Z-20.5
N8790 Y445.513
N8795 G3 X20.117 Y443.325 I3. J0.
N8800 G1 Z-22.5 F150.33
N8805 G3 X21.249 Y442.658 I2.052 J2.188 F650.
N8810 G1 Z-20.5
N8815 G3 X22.17 Y442.513 I0.921 J2.855
N8820 G1 X31.17
N8825 G3 X33.249 Y443.35 I0. J3.
N8830 G1 Z-22.5 F150.33
N8835 G3 X34.17 Y445.513 I-2.079 J2.163 F650.
N8840 G1 Y449.04
N8845 Z-20.5
N8850 Y461.04
N8855 Z-22.5 F150.33
N8860 Y463.839 F650.
N8865 G3 X31.326 Y466.835 I-3. J0.
N8870 G2 Y499.191 I0.844 J16.178
N8875 G3 X34.17 Y502.187 I-0.156 J2.996
N8880 G1 Y520.513
N8885 G3 X31.306 Y523.51 I-3. J0.
N8890 G1 Z-20.5
N8895 X31.17 Y523.513
N8900 X22.17
N8905 G3 X19.306 Y521.406 I0. J-3.
N8910 G1 Z-22.5 F150.33
N8915 G3 X19.17 Y520.513 I2.864 J-0.893 F650.
N8920 G1 Y519.761
N8925 Z-20.5
N8930 Y508.936
N8935 G3 X17.052 Y507.761 I13. J-25.923
N8940 G1 Z-22.5 F150.33
N8945 G3 X3.199 Y481.724 I15.117 J-24.748 F650.
N8950 G2 X2.626 Y481.098 I-0.599 J-0.027 F300.
N8955 G1 X2.027 Y481.071
N8960 X1.933 Y481.067 Z-22.493
N8965 X1.841 Y481.063 Z-22.471
N8970 X1.754 Y481.059 Z-22.435
N8975 X1.674 Y481.056 Z-22.385
N8980 X1.603 Y481.053 Z-22.324
N8985 X1.542 Y481.05 Z-22.253
N8990 X1.492 Y481.048 Z-22.172
N8995 X1.456 Y481.046 Z-22.085
N9000 X1.434 Y481.045 Z-21.994
N9005 X1.427 Z-21.9
N9010 G0 Z5.
N9015 X39.782 Y464.862
N9020 G1 Z-18.5 F150.33
N9025 Z-19.4
N9030 G18 G2 X40.382 Z-20. I0.6 K0.
N9035 G1 X40.982 F300.
N9040 G17 G2 X41.582 Y464.262 I0. J-0.6
N9045 G1 Y458.264 Z-20.209 F150.
N9050 G3 X46.082 Y453.764 Z-20.456 I4.5 J0.
N9055 G1 X47.334 Z-20.5
N9060 X55.082
N9065 G3 X55.82 Y453.825 I0. J4.5
N9070 G1 Z-20.796 F150.33
N9075 G3 X59.582 Y458.264 Z-21.017 I-0.738 J4.439 F150.
N9080 G1 Y458.511 Z-21.026
N9085 Z-20.5
N9090 Y468.931
N9095 G3 X62.185 Y470.511 I-14.5 J26.833
N9100 G1 Z-21.496 F150.33
N9105 G3 X75.565 Y494.754 Z-22.5 I-17.103 J25.253 F150.
N9110 X62.582 Y520.744 I-30.483 J1.01 F650.
N9115 G1 Z-20.5
N9120 G3 X59.582 Y522.597 I-17.5 J-24.98
N9125 G1 Y532.744
N9130 Z-22.5 F150.33
N9135 Y533.264 F650.
N9140 G3 X55.283 Y537.76 I-4.5 J0.
N9145 G1 Z-20.5
N9150 X55.082 Y537.764
N9155 X46.082
N9160 G3 X43.283 Y536.787 I0. J-4.5
N9165 G1 Z-22.5 F150.33
N9170 G3 X41.582 Y533.264 I2.799 J-3.523 F650.
N9175 G1 Y527.832
N9180 Z-20.5
N9185 Y515.832
N9190 Z-22.5 F150.33
N9195 Y514.938 F650.
N9200 G3 X45.848 Y510.444 I4.5 J0.
N9205 G2 Y481.084 I-0.766 J-14.68
N9210 G3 X41.582 Y476.59 I0.234 J-4.494
N9215 G1 Y461.04
N9220 Z-20.5
N9225 Y458.264
N9230 G3 X42.67 Y455.33 I4.5 J0.
N9235 G1 Z-22.5 F150.33
N9240 G3 X43.82 Y454.374 I3.412 J2.934 F650.
N9245 G1 Z-20.5
N9250 G3 X46.082 Y453.764 I2.262 J3.89
N9255 G1 X55.082
N9260 G3 X55.82 Y453.825 I0. J4.5
N9265 G1 Z-22.5 F150.33
N9270 G3 X59.582 Y458.264 I-0.738 J4.439 F650.
N9275 G1 Y458.511
N9280 Z-20.5
N9285 Y468.931
N9290 G3 X62.185 Y470.511 I-14.5 J26.833
N9295 G1 Z-22.5 F150.33
N9300 G3 X75.565 Y494.754 I-17.103 J25.253 F650.
N9305 X74.832 Y495.918 I-1.226 J0.041
N9310 G2 X74.053 Y497.053 I0.523 J1.193
N9315 G3 X59.813 Y520.744 I-28.971 J-1.289
N9320 G1 Z-20.5
N9325 G3 X58.082 Y521.687 I-14.73 J-24.98
N9330 G1 Y532.744
N9335 Z-22.5 F150.33
N9340 Y533.264 F650.
N9345 G3 X55.283 Y536.257 I-3. J0.
N9350 G1 Z-20.5
N9355 X55.082 Y536.264
N9360 X46.082
N9365 G3 X43.283 Y534.343 I0. J-3.
N9370 G1 Z-22.5 F150.33
N9375 G3 X43.082 Y533.264 I2.799 J-1.079 F650.
N9380 G1 Y527.832
N9385 Z-20.5
N9390 Y515.832
N9395 Z-22.5 F150.33
N9400 Y514.938 F650.
N9405 G3 X45.926 Y511.942 I3. J0.
N9410 G2 Y479.586 I-0.844 J-16.178
N9415 G3 X43.082 Y476.59 I0.156 J-2.996
N9420 G1 Y458.264
N9425 G3 X43.82 Y456.293 I3. J0.
N9430 G1 Z-20.5
N9435 G3 X46.082 Y455.264 I2.262 J1.971
N9440 G1 X55.082
N9445 G3 X55.82 Y455.356 I0. J3.
N9450 G1 Z-22.5 F150.33
N9455 G3 X58.082 Y458.264 I-0.738 J2.908 F650.
N9460 G1 Y458.511
N9465 Z-20.5
N9470 Y469.841
N9475 G3 X59.34 Y470.511 I-13. J25.923
N9480 G1 Z-22.5 F150.33
N9485 G3 X74.053 Y497.053 I-14.258 J25.253 F650.
N9490 G2 X74.626 Y497.679 I0.599 J0.027 F300.
N9495 G1 X75.225 Y497.706
N9500 X75.319 Y497.71 Z-22.493
N9505 X75.411 Y497.714 Z-22.471
N9510 X75.498 Y497.718 Z-22.435
N9515 X75.578 Y497.721 Z-22.385
N9520 X75.649 Y497.724 Z-22.324
N9525 X75.71 Y497.727 Z-22.253
N9530 X75.76 Y497.729 Z-22.172
N9535 X75.796 Y497.731 Z-22.085
N9540 X75.818 Y497.732 Z-21.994
N9545 X75.825 Z-21.9
N9550 G0 Z15.
N9555 G53 Z0.
N9560 M30
%
