%
(4)
(T1  D=6. CR=0. - ZMIN=-22.5 - FLAT END MILL)
N10 G90 G94 G17 G91.1
N15 G21
N20 G53 G0 Z0.
(2D CONTOUR2 2)
N25 M9
N30 T1 M6
N35 S22000 M3
N40 G54
N45 G0 X37.769 Y593.83
N50 G43 Z15. H1
N55 G0 Z5.
N60 G1 Z2.5 F150.33
N65 Z1.6
N70 X37.776 Y593.831 Z1.506
N75 X37.798 Y593.837 Z1.415
N80 X37.833 Y593.845 Z1.328
N85 X37.88 Y593.857 Z1.247
N90 X37.94 Y593.872 Z1.176
N95 X38.009 Y593.889 Z1.115
N100 X38.087 Y593.908 Z1.065
N105 X38.172 Y593.929 Z1.029
N110 X38.261 Y593.951 Z1.007
N115 X38.352 Y593.973 Z1.
N120 X38.934 Y594.116 F300.
N125 G2 X39.66 Y593.677 I0.143 J-0.583
N130 G3 X44.03 Y590.252 Z0.791 I4.37 J1.075 F150.
N135 G1 X53.03 Z0.477
N140 G3 X57.53 Y594.752 Z0.23 I0. J4.5
N145 G1 Y605.002 Z-0.128
N150 X65.13 Z-0.393
N155 G3 X72.63 Y612.502 Z-0.805 I0. J7.5
N160 G1 Y632.41 Z-1.5
N165 Y652.002 F650.
N170 G3 X65.13 Y659.502 I-7.5 J0.
N175 G1 X57.53
N180 Y669.752
N185 G3 X53.03 Y674.252 I-4.5 J0.
N190 G1 X44.03
N195 G3 X39.53 Y669.752 I0. J-4.5
N200 G1 Y647.352
N205 G3 X44.03 Y642.852 I4.5 J0.
N210 G1 X53.63
N215 Y621.652
N220 X44.03
N225 G3 X39.53 Y617.152 I0. J-4.5
N230 G1 Y594.752
N235 G3 X44.03 Y590.252 I4.5 J0.
N240 G1 X53.03
N245 G3 X57.53 Y594.752 I0. J4.5
N250 G1 Y605.002
N255 X65.13
N260 G3 X72.63 Y612.502 I0. J7.5
N265 G1 Y632.41
N270 G3 X71.88 Y633.535 I-1.219 J0.
N275 G2 X71.13 Y634.66 I0.469 J1.125
N280 G1 Y652.002
N285 G3 X65.13 Y658.002 I-6. J0.
N290 G1 X56.03
N295 Y669.752
N300 G3 X53.03 Y672.752 I-3. J0.
N305 G1 X44.03
N310 G3 X41.03 Y669.752 I0. J-3.
N315 G1 Y647.352
N320 G3 X44.03 Y644.352 I3. J0.
N325 G1 X55.13
N330 Y620.152
N335 X44.03
N340 G3 X41.03 Y617.152 I0. J-3.
N345 G1 Y594.752
N350 G3 X44.03 Y591.752 I3. J0.
N355 G1 X53.03
N360 G3 X56.03 Y594.752 I0. J3.
N365 G1 Y606.502
N370 X65.13
N375 G3 X71.13 Y612.502 I0. J6.
N380 G1 Y634.66
N385 G2 X71.73 Y635.26 I0.6 J0. F300.
N390 G1 X72.33
N395 G18 G2 X72.93 Z-0.9 I0. K0.6
N400 G0 Z5.
N405 X37.769 Y593.83
N410 G1 Z1. F150.33
N415 Z0.1
N420 X37.776 Y593.831 Z0.006
N425 X37.798 Y593.837 Z-0.085
N430 X37.833 Y593.845 Z-0.172
N435 X37.88 Y593.857 Z-0.253
N440 X37.94 Y593.872 Z-0.324
N445 X38.009 Y593.889 Z-0.385
N450 X38.087 Y593.908 Z-0.435
N455 X38.172 Y593.929 Z-0.471
N460 X38.261 Y593.951 Z-0.493
N465 X38.352 Y593.973 Z-0.5
N470 X38.934 Y594.116 F300.
N475 G17 G2 X39.66 Y593.677 I0.143 J-0.583
N480 G3 X44.03 Y590.252 Z-0.709 I4.37 J1.075 F150.
N485 G1 X53.03 Z-1.023
N490 G3 X57.53 Y594.752 Z-1.27 I0. J4.5
N495 G1 Y605.002 Z-1.628
N500 X65.13 Z-1.893
N505 G3 X72.63 Y612.502 Z-2.305 I0. J7.5
N510 G1 Y632.41 Z-3.
N515 Y652.002 F650.
N520 G3 X65.13 Y659.502 I-7.5 J0.
N525 G1 X57.53
N530 Y669.752
N535 G3 X53.03 Y674.252 I-4.5 J0.
N540 G1 X44.03
N545 G3 X39.53 Y669.752 I0. J-4.5
N550 G1 Y647.352
N555 G3 X44.03 Y642.852 I4.5 J0.
N560 G1 X53.63
N565 Y621.652
N570 X44.03
N575 G3 X39.53 Y617.152 I0. J-4.5
N580 G1 Y594.752
N585 G3 X44.03 Y590.252 I4.5 J0.
N590 G1 X53.03
N595 G3 X57.53 Y594.752 I0. J4.5
N600 G1 Y605.002
N605 X65.13
N610 G3 X72.63 Y612.502 I0. J7.5
N615 G1 Y632.41
N620 G3 X71.88 Y633.535 I-1.219 J0.
N625 G2 X71.13 Y634.66 I0.469 J1.125
N630 G1 Y652.002
N635 G3 X65.13 Y658.002 I-6. J0.
N640 G1 X56.03
N645 Y669.752
N650 G3 X53.03 Y672.752 I-3. J0.
N655 G1 X44.03
N660 G3 X41.03 Y669.752 I0. J-3.
N665 G1 Y647.352
N670 G3 X44.03 Y644.352 I3. J0.
N675 G1 X55.13
N680 Y620.152
N685 X44.03
N690 G3 X41.03 Y617.152 I0. J-3.
N695 G1 Y594.752
N700 G3 X44.03 Y591.752 I3. J0.
N705 G1 X53.03
N710 G3 X56.03 Y594.752 I0. J3.
N715 G1 Y606.502
N720 X65.13
N725 G3 X71.13 Y612.502 I0. J6.
N730 G1 Y634.66
N735 G2 X71.73 Y635.26 I0.6 J0. F300.
N740 G1 X72.33
N745 G18 G2 X72.93 Z-2.4 I0. K0.6
N750 G0 Z5.
N755 X37.769 Y593.83
N760 G1 Z-0.5 F150.33
N765 Z-1.4
N770 X37.776 Y593.831 Z-1.494
N775 X37.798 Y593.837 Z-1.585
N780 X37.833 Y593.845 Z-1.672
N785 X37.88 Y593.857 Z-1.753
N790 X37.94 Y593.872 Z-1.824
N795 X38.009 Y593.889 Z-1.885
N800 X38.087 Y593.908 Z-1.935
N805 X38.172 Y593.929 Z-1.971
N810 X38.261 Y593.951 Z-1.993
N815 X38.352 Y593.973 Z-2.
N820 X38.934 Y594.116 F300.
N825 G17 G2 X39.66 Y593.677 I0.143 J-0.583
N830 G3 X44.03 Y590.252 Z-2.209 I4.37 J1.075 F150.
N835 G1 X53.03 Z-2.523
N840 G3 X57.53 Y594.752 Z-2.77 I0. J4.5
N845 G1 Y605.002 Z-3.128
N850 X65.13 Z-3.393
N855 G3 X72.63 Y612.502 Z-3.805 I0. J7.5
N860 G1 Y632.41 Z-4.5
N865 Y652.002 F650.
N870 G3 X65.13 Y659.502 I-7.5 J0.
N875 G1 X57.53
N880 Y669.752
N885 G3 X53.03 Y674.252 I-4.5 J0.
N890 G1 X44.03
N895 G3 X39.53 Y669.752 I0. J-4.5
N900 G1 Y647.352
N905 G3 X44.03 Y642.852 I4.5 J0.
N910 G1 X53.63
N915 Y621.652
N920 X44.03
N925 G3 X39.53 Y617.152 I0. J-4.5
N930 G1 Y594.752
N935 G3 X44.03 Y590.252 I4.5 J0.
N940 G1 X53.03
N945 G3 X57.53 Y594.752 I0. J4.5
N950 G1 Y605.002
N955 X65.13
N960 G3 X72.63 Y612.502 I0. J7.5
N965 G1 Y632.41
N970 G3 X71.88 Y633.535 I-1.219 J0.
N975 G2 X71.13 Y634.66 I0.469 J1.125
N980 G1 Y652.002
N985 G3 X65.13 Y658.002 I-6. J0.
N990 G1 X56.03
N995 Y669.752
N1000 G3 X53.03 Y672.752 I-3. J0.
N1005 G1 X44.03
N1010 G3 X41.03 Y669.752 I0. J-3.
N1015 G1 Y647.352
N1020 G3 X44.03 Y644.352 I3. J0.
N1025 G1 X55.13
N1030 Y620.152
N1035 X44.03
N1040 G3 X41.03 Y617.152 I0. J-3.
N1045 G1 Y594.752
N1050 G3 X44.03 Y591.752 I3. J0.
N1055 G1 X53.03
N1060 G3 X56.03 Y594.752 I0. J3.
N1065 G1 Y606.502
N1070 X65.13
N1075 G3 X71.13 Y612.502 I0. J6.
N1080 G1 Y634.66
N1085 G2 X71.73 Y635.26 I0.6 J0. F300.
N1090 G1 X72.33
N1095 G18 G2 X72.93 Z-3.9 I0. K0.6
N1100 G0 Z5.
N1105 X37.769 Y593.83
N1110 G1 Z-2. F150.33
N1115 Z-2.9
N1120 X37.776 Y593.831 Z-2.994
N1125 X37.798 Y593.837 Z-3.085
N1130 X37.833 Y593.845 Z-3.172
N1135 X37.88 Y593.857 Z-3.253
N1140 X37.94 Y593.872 Z-3.324
N1145 X38.009 Y593.889 Z-3.385
N1150 X38.087 Y593.908 Z-3.435
N1155 X38.172 Y593.929 Z-3.471
N1160 X38.261 Y593.951 Z-3.493
N1165 X38.352 Y593.973 Z-3.5
N1170 X38.934 Y594.116 F300.
N1175 G17 G2 X39.66 Y593.677 I0.143 J-0.583
N1180 G3 X44.03 Y590.252 Z-3.709 I4.37 J1.075 F150.
N1185 G1 X53.03 Z-4.023
N1190 G3 X57.53 Y594.752 Z-4.27 I0. J4.5
N1195 G1 Y605.002 Z-4.628
N1200 X65.13 Z-4.893
N1205 G3 X72.63 Y612.502 Z-5.305 I0. J7.5
N1210 G1 Y632.41 Z-6.
N1215 Y652.002 F650.
N1220 G3 X65.13 Y659.502 I-7.5 J0.
N1225 G1 X57.53
N1230 Y669.752
N1235 G3 X53.03 Y674.252 I-4.5 J0.
N1240 G1 X44.03
N1245 G3 X39.53 Y669.752 I0. J-4.5
N1250 G1 Y647.352
N1255 G3 X44.03 Y642.852 I4.5 J0.
N1260 G1 X53.63
N1265 Y621.652
N1270 X44.03
N1275 G3 X39.53 Y617.152 I0. J-4.5
N1280 G1 Y594.752
N1285 G3 X44.03 Y590.252 I4.5 J0.
N1290 G1 X53.03
N1295 G3 X57.53 Y594.752 I0. J4.5
N1300 G1 Y605.002
N1305 X65.13
N1310 G3 X72.63 Y612.502 I0. J7.5
N1315 G1 Y632.41
N1320 G3 X71.88 Y633.535 I-1.219 J0.
N1325 G2 X71.13 Y634.66 I0.469 J1.125
N1330 G1 Y652.002
N1335 G3 X65.13 Y658.002 I-6. J0.
N1340 G1 X56.03
N1345 Y669.752
N1350 G3 X53.03 Y672.752 I-3. J0.
N1355 G1 X44.03
N1360 G3 X41.03 Y669.752 I0. J-3.
N1365 G1 Y647.352
N1370 G3 X44.03 Y644.352 I3. J0.
N1375 G1 X55.13
N1380 Y620.152
N1385 X44.03
N1390 G3 X41.03 Y617.152 I0. J-3.
N1395 G1 Y594.752
N1400 G3 X44.03 Y591.752 I3. J0.
N1405 G1 X53.03
N1410 G3 X56.03 Y594.752 I0. J3.
N1415 G1 Y606.502
N1420 X65.13
N1425 G3 X71.13 Y612.502 I0. J6.
N1430 G1 Y634.66
N1435 G2 X71.73 Y635.26 I0.6 J0. F300.
N1440 G1 X72.33
N1445 G18 G2 X72.93 Z-5.4 I0. K0.6
N1450 G0 Z5.
N1455 X37.769 Y593.83
N1460 G1 Z-3.5 F150.33
N1465 Z-4.4
N1470 X37.776 Y593.831 Z-4.494
N1475 X37.798 Y593.837 Z-4.585
N1480 X37.833 Y593.845 Z-4.672
N1485 X37.88 Y593.857 Z-4.753
N1490 X37.94 Y593.872 Z-4.824
N1495 X38.009 Y593.889 Z-4.885
N1500 X38.087 Y593.908 Z-4.935
N1505 X38.172 Y593.929 Z-4.971
N1510 X38.261 Y593.951 Z-4.993
N1515 X38.352 Y593.973 Z-5.
N1520 X38.934 Y594.116 F300.
N1525 G17 G2 X39.66 Y593.677 I0.143 J-0.583
N1530 G3 X44.03 Y590.252 Z-5.209 I4.37 J1.075 F150.
N1535 G1 X53.03 Z-5.523
N1540 G3 X57.53 Y594.752 Z-5.77 I0. J4.5
N1545 G1 Y605.002 Z-6.128
N1550 X65.13 Z-6.393
N1555 G3 X72.63 Y612.502 Z-6.805 I0. J7.5
N1560 G1 Y632.41 Z-7.5
N1565 Y652.002 F650.
N1570 G3 X65.13 Y659.502 I-7.5 J0.
N1575 G1 X57.53
N1580 Y669.752
N1585 G3 X53.03 Y674.252 I-4.5 J0.
N1590 G1 X44.03
N1595 G3 X39.53 Y669.752 I0. J-4.5
N1600 G1 Y647.352
N1605 G3 X44.03 Y642.852 I4.5 J0.
N1610 G1 X53.63
N1615 Y621.652
N1620 X44.03
N1625 G3 X39.53 Y617.152 I0. J-4.5
N1630 G1 Y594.752
N1635 G3 X44.03 Y590.252 I4.5 J0.
N1640 G1 X53.03
N1645 G3 X57.53 Y594.752 I0. J4.5
N1650 G1 Y605.002
N1655 X65.13
N1660 G3 X72.63 Y612.502 I0. J7.5
N1665 G1 Y632.41
N1670 G3 X71.88 Y633.535 I-1.219 J0.
N1675 G2 X71.13 Y634.66 I0.469 J1.125
N1680 G1 Y652.002
N1685 G3 X65.13 Y658.002 I-6. J0.
N1690 G1 X56.03
N1695 Y669.752
N1700 G3 X53.03 Y672.752 I-3. J0.
N1705 G1 X44.03
N1710 G3 X41.03 Y669.752 I0. J-3.
N1715 G1 Y647.352
N1720 G3 X44.03 Y644.352 I3. J0.
N1725 G1 X55.13
N1730 Y620.152
N1735 X44.03
N1740 G3 X41.03 Y617.152 I0. J-3.
N1745 G1 Y594.752
N1750 G3 X44.03 Y591.752 I3. J0.
N1755 G1 X53.03
N1760 G3 X56.03 Y594.752 I0. J3.
N1765 G1 Y606.502
N1770 X65.13
N1775 G3 X71.13 Y612.502 I0. J6.
N1780 G1 Y634.66
N1785 G2 X71.73 Y635.26 I0.6 J0. F300.
N1790 G1 X72.33
N1795 G18 G2 X72.93 Z-6.9 I0. K0.6
N1800 G0 Z5.
N1805 X37.769 Y593.83
N1810 G1 Z-5. F150.33
N1815 Z-5.9
N1820 X37.776 Y593.831 Z-5.994
N1825 X37.798 Y593.837 Z-6.085
N1830 X37.833 Y593.845 Z-6.172
N1835 X37.88 Y593.857 Z-6.253
N1840 X37.94 Y593.872 Z-6.324
N1845 X38.009 Y593.889 Z-6.385
N1850 X38.087 Y593.908 Z-6.435
N1855 X38.172 Y593.929 Z-6.471
N1860 X38.261 Y593.951 Z-6.493
N1865 X38.352 Y593.973 Z-6.5
N1870 X38.934 Y594.116 F300.
N1875 G17 G2 X39.66 Y593.677 I0.143 J-0.583
N1880 G3 X44.03 Y590.252 Z-6.709 I4.37 J1.075 F150.
N1885 G1 X53.03 Z-7.023
N1890 G3 X57.53 Y594.752 Z-7.27 I0. J4.5
N1895 G1 Y605.002 Z-7.628
N1900 X65.13 Z-7.893
N1905 G3 X72.63 Y612.502 Z-8.305 I0. J7.5
N1910 G1 Y632.41 Z-9.
N1915 Y652.002 F650.
N1920 G3 X65.13 Y659.502 I-7.5 J0.
N1925 G1 X57.53
N1930 Y669.752
N1935 G3 X53.03 Y674.252 I-4.5 J0.
N1940 G1 X44.03
N1945 G3 X39.53 Y669.752 I0. J-4.5
N1950 G1 Y647.352
N1955 G3 X44.03 Y642.852 I4.5 J0.
N1960 G1 X53.63
N1965 Y621.652
N1970 X44.03
N1975 G3 X39.53 Y617.152 I0. J-4.5
N1980 G1 Y594.752
N1985 G3 X44.03 Y590.252 I4.5 J0.
N1990 G1 X53.03
N1995 G3 X57.53 Y594.752 I0. J4.5
N2000 G1 Y605.002
N2005 X65.13
N2010 G3 X72.63 Y612.502 I0. J7.5
N2015 G1 Y632.41
N2020 G3 X71.88 Y633.535 I-1.219 J0.
N2025 G2 X71.13 Y634.66 I0.469 J1.125
N2030 G1 Y652.002
N2035 G3 X65.13 Y658.002 I-6. J0.
N2040 G1 X56.03
N2045 Y669.752
N2050 G3 X53.03 Y672.752 I-3. J0.
N2055 G1 X44.03
N2060 G3 X41.03 Y669.752 I0. J-3.
N2065 G1 Y647.352
N2070 G3 X44.03 Y644.352 I3. J0.
N2075 G1 X55.13
N2080 Y620.152
N2085 X44.03
N2090 G3 X41.03 Y617.152 I0. J-3.
N2095 G1 Y594.752
N2100 G3 X44.03 Y591.752 I3. J0.
N2105 G1 X53.03
N2110 G3 X56.03 Y594.752 I0. J3.
N2115 G1 Y606.502
N2120 X65.13
N2125 G3 X71.13 Y612.502 I0. J6.
N2130 G1 Y634.66
N2135 G2 X71.73 Y635.26 I0.6 J0. F300.
N2140 G1 X72.33
N2145 G18 G2 X72.93 Z-8.4 I0. K0.6
N2150 G0 Z5.
N2155 X37.769 Y593.83
N2160 G1 Z-6.5 F150.33
N2165 Z-7.4
N2170 X37.776 Y593.831 Z-7.494
N2175 X37.798 Y593.837 Z-7.585
N2180 X37.833 Y593.845 Z-7.672
N2185 X37.88 Y593.857 Z-7.753
N2190 X37.94 Y593.872 Z-7.824
N2195 X38.009 Y593.889 Z-7.885
N2200 X38.087 Y593.908 Z-7.935
N2205 X38.172 Y593.929 Z-7.971
N2210 X38.261 Y593.951 Z-7.993
N2215 X38.352 Y593.973 Z-8.
N2220 X38.934 Y594.116 F300.
N2225 G17 G2 X39.66 Y593.677 I0.143 J-0.583
N2230 G3 X44.03 Y590.252 Z-8.209 I4.37 J1.075 F150.
N2235 G1 X53.03 Z-8.523
N2240 G3 X57.53 Y594.752 Z-8.77 I0. J4.5
N2245 G1 Y605.002 Z-9.128
N2250 X65.13 Z-9.393
N2255 G3 X72.63 Y612.502 Z-9.805 I0. J7.5
N2260 G1 Y632.41 Z-10.5
N2265 Y652.002 F650.
N2270 G3 X65.13 Y659.502 I-7.5 J0.
N2275 G1 X57.53
N2280 Y669.752
N2285 G3 X53.03 Y674.252 I-4.5 J0.
N2290 G1 X44.03
N2295 G3 X39.53 Y669.752 I0. J-4.5
N2300 G1 Y647.352
N2305 G3 X44.03 Y642.852 I4.5 J0.
N2310 G1 X53.63
N2315 Y621.652
N2320 X44.03
N2325 G3 X39.53 Y617.152 I0. J-4.5
N2330 G1 Y594.752
N2335 G3 X44.03 Y590.252 I4.5 J0.
N2340 G1 X53.03
N2345 G3 X57.53 Y594.752 I0. J4.5
N2350 G1 Y605.002
N2355 X65.13
N2360 G3 X72.63 Y612.502 I0. J7.5
N2365 G1 Y632.41
N2370 G3 X71.88 Y633.535 I-1.219 J0.
N2375 G2 X71.13 Y634.66 I0.469 J1.125
N2380 G1 Y652.002
N2385 G3 X65.13 Y658.002 I-6. J0.
N2390 G1 X56.03
N2395 Y669.752
N2400 G3 X53.03 Y672.752 I-3. J0.
N2405 G1 X44.03
N2410 G3 X41.03 Y669.752 I0. J-3.
N2415 G1 Y647.352
N2420 G3 X44.03 Y644.352 I3. J0.
N2425 G1 X55.13
N2430 Y620.152
N2435 X44.03
N2440 G3 X41.03 Y617.152 I0. J-3.
N2445 G1 Y594.752
N2450 G3 X44.03 Y591.752 I3. J0.
N2455 G1 X53.03
N2460 G3 X56.03 Y594.752 I0. J3.
N2465 G1 Y606.502
N2470 X65.13
N2475 G3 X71.13 Y612.502 I0. J6.
N2480 G1 Y634.66
N2485 G2 X71.73 Y635.26 I0.6 J0. F300.
N2490 G1 X72.33
N2495 G18 G2 X72.93 Z-9.9 I0. K0.6
N2500 G0 Z5.
N2505 X37.769 Y593.83
N2510 G1 Z-8. F150.33
N2515 Z-8.9
N2520 X37.776 Y593.831 Z-8.994
N2525 X37.798 Y593.837 Z-9.085
N2530 X37.833 Y593.845 Z-9.172
N2535 X37.88 Y593.857 Z-9.253
N2540 X37.94 Y593.872 Z-9.324
N2545 X38.009 Y593.889 Z-9.385
N2550 X38.087 Y593.908 Z-9.435
N2555 X38.172 Y593.929 Z-9.471
N2560 X38.261 Y593.951 Z-9.493
N2565 X38.352 Y593.973 Z-9.5
N2570 X38.934 Y594.116 F300.
N2575 G17 G2 X39.66 Y593.677 I0.143 J-0.583
N2580 G3 X44.03 Y590.252 Z-9.709 I4.37 J1.075 F150.
N2585 G1 X53.03 Z-10.023
N2590 G3 X57.53 Y594.752 Z-10.27 I0. J4.5
N2595 G1 Y605.002 Z-10.628
N2600 X65.13 Z-10.893
N2605 G3 X72.63 Y612.502 Z-11.305 I0. J7.5
N2610 G1 Y632.41 Z-12.
N2615 Y652.002 F650.
N2620 G3 X65.13 Y659.502 I-7.5 J0.
N2625 G1 X57.53
N2630 Y669.752
N2635 G3 X53.03 Y674.252 I-4.5 J0.
N2640 G1 X44.03
N2645 G3 X39.53 Y669.752 I0. J-4.5
N2650 G1 Y647.352
N2655 G3 X44.03 Y642.852 I4.5 J0.
N2660 G1 X53.63
N2665 Y621.652
N2670 X44.03
N2675 G3 X39.53 Y617.152 I0. J-4.5
N2680 G1 Y594.752
N2685 G3 X44.03 Y590.252 I4.5 J0.
N2690 G1 X53.03
N2695 G3 X57.53 Y594.752 I0. J4.5
N2700 G1 Y605.002
N2705 X65.13
N2710 G3 X72.63 Y612.502 I0. J7.5
N2715 G1 Y632.41
N2720 G3 X71.88 Y633.535 I-1.219 J0.
N2725 G2 X71.13 Y634.66 I0.469 J1.125
N2730 G1 Y652.002
N2735 G3 X65.13 Y658.002 I-6. J0.
N2740 G1 X56.03
N2745 Y669.752
N2750 G3 X53.03 Y672.752 I-3. J0.
N2755 G1 X44.03
N2760 G3 X41.03 Y669.752 I0. J-3.
N2765 G1 Y647.352
N2770 G3 X44.03 Y644.352 I3. J0.
N2775 G1 X55.13
N2780 Y620.152
N2785 X44.03
N2790 G3 X41.03 Y617.152 I0. J-3.
N2795 G1 Y594.752
N2800 G3 X44.03 Y591.752 I3. J0.
N2805 G1 X53.03
N2810 G3 X56.03 Y594.752 I0. J3.
N2815 G1 Y606.502
N2820 X65.13
N2825 G3 X71.13 Y612.502 I0. J6.
N2830 G1 Y634.66
N2835 G2 X71.73 Y635.26 I0.6 J0. F300.
N2840 G1 X72.33
N2845 G18 G2 X72.93 Z-11.4 I0. K0.6
N2850 G0 Z5.
N2855 X37.769 Y593.83
N2860 G1 Z-9.5 F150.33
N2865 Z-10.4
N2870 X37.776 Y593.831 Z-10.494
N2875 X37.798 Y593.837 Z-10.585
N2880 X37.833 Y593.845 Z-10.672
N2885 X37.88 Y593.857 Z-10.753
N2890 X37.94 Y593.872 Z-10.824
N2895 X38.009 Y593.889 Z-10.885
N2900 X38.087 Y593.908 Z-10.935
N2905 X38.172 Y593.929 Z-10.971
N2910 X38.261 Y593.951 Z-10.993
N2915 X38.352 Y593.973 Z-11.
N2920 X38.934 Y594.116 F300.
N2925 G17 G2 X39.66 Y593.677 I0.143 J-0.583
N2930 G3 X44.03 Y590.252 Z-11.209 I4.37 J1.075 F150.
N2935 G1 X53.03 Z-11.523
N2940 G3 X57.53 Y594.752 Z-11.77 I0. J4.5
N2945 G1 Y605.002 Z-12.128
N2950 X65.13 Z-12.393
N2955 G3 X72.63 Y612.502 Z-12.805 I0. J7.5
N2960 G1 Y632.41 Z-13.5
N2965 Y652.002 F650.
N2970 G3 X65.13 Y659.502 I-7.5 J0.
N2975 G1 X57.53
N2980 Y669.752
N2985 G3 X53.03 Y674.252 I-4.5 J0.
N2990 G1 X44.03
N2995 G3 X39.53 Y669.752 I0. J-4.5
N3000 G1 Y647.352
N3005 G3 X44.03 Y642.852 I4.5 J0.
N3010 G1 X53.63
N3015 Y621.652
N3020 X44.03
N3025 G3 X39.53 Y617.152 I0. J-4.5
N3030 G1 Y594.752
N3035 G3 X44.03 Y590.252 I4.5 J0.
N3040 G1 X53.03
N3045 G3 X57.53 Y594.752 I0. J4.5
N3050 G1 Y605.002
N3055 X65.13
N3060 G3 X72.63 Y612.502 I0. J7.5
N3065 G1 Y632.41
N3070 G3 X71.88 Y633.535 I-1.219 J0.
N3075 G2 X71.13 Y634.66 I0.469 J1.125
N3080 G1 Y652.002
N3085 G3 X65.13 Y658.002 I-6. J0.
N3090 G1 X56.03
N3095 Y669.752
N3100 G3 X53.03 Y672.752 I-3. J0.
N3105 G1 X44.03
N3110 G3 X41.03 Y669.752 I0. J-3.
N3115 G1 Y647.352
N3120 G3 X44.03 Y644.352 I3. J0.
N3125 G1 X55.13
N3130 Y620.152
N3135 X44.03
N3140 G3 X41.03 Y617.152 I0. J-3.
N3145 G1 Y594.752
N3150 G3 X44.03 Y591.752 I3. J0.
N3155 G1 X53.03
N3160 G3 X56.03 Y594.752 I0. J3.
N3165 G1 Y606.502
N3170 X65.13
N3175 G3 X71.13 Y612.502 I0. J6.
N3180 G1 Y634.66
N3185 G2 X71.73 Y635.26 I0.6 J0. F300.
N3190 G1 X72.33
N3195 G18 G2 X72.93 Z-12.9 I0. K0.6
N3200 G0 Z5.
N3205 X37.769 Y593.83
N3210 G1 Z-11. F150.33
N3215 Z-11.9
N3220 X37.776 Y593.831 Z-11.994
N3225 X37.798 Y593.837 Z-12.085
N3230 X37.833 Y593.845 Z-12.172
N3235 X37.88 Y593.857 Z-12.253
N3240 X37.94 Y593.872 Z-12.324
N3245 X38.009 Y593.889 Z-12.385
N3250 X38.087 Y593.908 Z-12.435
N3255 X38.172 Y593.929 Z-12.471
N3260 X38.261 Y593.951 Z-12.493
N3265 X38.352 Y593.973 Z-12.5
N3270 X38.934 Y594.116 F300.
N3275 G17 G2 X39.66 Y593.677 I0.143 J-0.583
N3280 G3 X44.03 Y590.252 Z-12.709 I4.37 J1.075 F150.
N3285 G1 X53.03 Z-13.023
N3290 G3 X57.53 Y594.752 Z-13.27 I0. J4.5
N3295 G1 Y605.002 Z-13.628
N3300 X65.13 Z-13.893
N3305 G3 X72.63 Y612.502 Z-14.305 I0. J7.5
N3310 G1 Y632.41 Z-15.
N3315 Y652.002 F650.
N3320 G3 X65.13 Y659.502 I-7.5 J0.
N3325 G1 X57.53
N3330 Y669.752
N3335 G3 X53.03 Y674.252 I-4.5 J0.
N3340 G1 X44.03
N3345 G3 X39.53 Y669.752 I0. J-4.5
N3350 G1 Y647.352
N3355 G3 X44.03 Y642.852 I4.5 J0.
N3360 G1 X53.63
N3365 Y621.652
N3370 X44.03
N3375 G3 X39.53 Y617.152 I0. J-4.5
N3380 G1 Y594.752
N3385 G3 X44.03 Y590.252 I4.5 J0.
N3390 G1 X53.03
N3395 G3 X57.53 Y594.752 I0. J4.5
N3400 G1 Y605.002
N3405 X65.13
N3410 G3 X72.63 Y612.502 I0. J7.5
N3415 G1 Y632.41
N3420 G3 X71.88 Y633.535 I-1.219 J0.
N3425 G2 X71.13 Y634.66 I0.469 J1.125
N3430 G1 Y652.002
N3435 G3 X65.13 Y658.002 I-6. J0.
N3440 G1 X56.03
N3445 Y669.752
N3450 G3 X53.03 Y672.752 I-3. J0.
N3455 G1 X44.03
N3460 G3 X41.03 Y669.752 I0. J-3.
N3465 G1 Y647.352
N3470 G3 X44.03 Y644.352 I3. J0.
N3475 G1 X55.13
N3480 Y620.152
N3485 X44.03
N3490 G3 X41.03 Y617.152 I0. J-3.
N3495 G1 Y594.752
N3500 G3 X44.03 Y591.752 I3. J0.
N3505 G1 X53.03
N3510 G3 X56.03 Y594.752 I0. J3.
N3515 G1 Y606.502
N3520 X65.13
N3525 G3 X71.13 Y612.502 I0. J6.
N3530 G1 Y634.66
N3535 G2 X71.73 Y635.26 I0.6 J0. F300.
N3540 G1 X72.33
N3545 G18 G2 X72.93 Z-14.4 I0. K0.6
N3550 G0 Z5.
N3555 X37.769 Y593.83
N3560 G1 Z-12.5 F150.33
N3565 Z-13.4
N3570 X37.776 Y593.831 Z-13.494
N3575 X37.798 Y593.837 Z-13.585
N3580 X37.833 Y593.845 Z-13.672
N3585 X37.88 Y593.857 Z-13.753
N3590 X37.94 Y593.872 Z-13.824
N3595 X38.009 Y593.889 Z-13.885
N3600 X38.087 Y593.908 Z-13.935
N3605 X38.172 Y593.929 Z-13.971
N3610 X38.261 Y593.951 Z-13.993
N3615 X38.352 Y593.973 Z-14.
N3620 X38.934 Y594.116 F300.
N3625 G17 G2 X39.66 Y593.677 I0.143 J-0.583
N3630 G3 X44.03 Y590.252 Z-14.209 I4.37 J1.075 F150.
N3635 G1 X53.03 Z-14.523
N3640 G3 X57.53 Y594.752 Z-14.77 I0. J4.5
N3645 G1 Y605.002 Z-15.128
N3650 X65.13 Z-15.393
N3655 G3 X72.63 Y612.502 Z-15.805 I0. J7.5
N3660 G1 Y632.41 Z-16.5
N3665 Y652.002 F650.
N3670 G3 X65.13 Y659.502 I-7.5 J0.
N3675 G1 X57.53
N3680 Y669.752
N3685 G3 X53.03 Y674.252 I-4.5 J0.
N3690 G1 X44.03
N3695 G3 X39.53 Y669.752 I0. J-4.5
N3700 G1 Y647.352
N3705 G3 X44.03 Y642.852 I4.5 J0.
N3710 G1 X53.63
N3715 Y621.652
N3720 X44.03
N3725 G3 X39.53 Y617.152 I0. J-4.5
N3730 G1 Y594.752
N3735 G3 X44.03 Y590.252 I4.5 J0.
N3740 G1 X53.03
N3745 G3 X57.53 Y594.752 I0. J4.5
N3750 G1 Y605.002
N3755 X65.13
N3760 G3 X72.63 Y612.502 I0. J7.5
N3765 G1 Y632.41
N3770 G3 X71.88 Y633.535 I-1.219 J0.
N3775 G2 X71.13 Y634.66 I0.469 J1.125
N3780 G1 Y652.002
N3785 G3 X65.13 Y658.002 I-6. J0.
N3790 G1 X56.03
N3795 Y669.752
N3800 G3 X53.03 Y672.752 I-3. J0.
N3805 G1 X44.03
N3810 G3 X41.03 Y669.752 I0. J-3.
N3815 G1 Y647.352
N3820 G3 X44.03 Y644.352 I3. J0.
N3825 G1 X55.13
N3830 Y620.152
N3835 X44.03
N3840 G3 X41.03 Y617.152 I0. J-3.
N3845 G1 Y594.752
N3850 G3 X44.03 Y591.752 I3. J0.
N3855 G1 X53.03
N3860 G3 X56.03 Y594.752 I0. J3.
N3865 G1 Y606.502
N3870 X65.13
N3875 G3 X71.13 Y612.502 I0. J6.
N3880 G1 Y634.66
N3885 G2 X71.73 Y635.26 I0.6 J0. F300.
N3890 G1 X72.33
N3895 G18 G2 X72.93 Z-15.9 I0. K0.6
N3900 G0 Z5.
N3905 X37.769 Y593.83
N3910 G1 Z-14. F150.33
N3915 Z-14.9
N3920 X37.776 Y593.831 Z-14.994
N3925 X37.798 Y593.837 Z-15.085
N3930 X37.833 Y593.845 Z-15.172
N3935 X37.88 Y593.857 Z-15.253
N3940 X37.94 Y593.872 Z-15.324
N3945 X38.009 Y593.889 Z-15.385
N3950 X38.087 Y593.908 Z-15.435
N3955 X38.172 Y593.929 Z-15.471
N3960 X38.261 Y593.951 Z-15.493
N3965 X38.352 Y593.973 Z-15.5
N3970 X38.934 Y594.116 F300.
N3975 G17 G2 X39.66 Y593.677 I0.143 J-0.583
N3980 G3 X44.03 Y590.252 Z-15.709 I4.37 J1.075 F150.
N3985 G1 X53.03 Z-16.023
N3990 G3 X57.53 Y594.752 Z-16.27 I0. J4.5
N3995 G1 Y605.002 Z-16.628
N4000 X65.13 Z-16.893
N4005 G3 X72.63 Y612.502 Z-17.305 I0. J7.5
N4010 G1 Y632.41 Z-18.
N4015 Y652.002 F650.
N4020 G3 X65.13 Y659.502 I-7.5 J0.
N4025 G1 X57.53
N4030 Y669.752
N4035 G3 X53.03 Y674.252 I-4.5 J0.
N4040 G1 X44.03
N4045 G3 X39.53 Y669.752 I0. J-4.5
N4050 G1 Y647.352
N4055 G3 X44.03 Y642.852 I4.5 J0.
N4060 G1 X53.63
N4065 Y621.652
N4070 X44.03
N4075 G3 X39.53 Y617.152 I0. J-4.5
N4080 G1 Y594.752
N4085 G3 X44.03 Y590.252 I4.5 J0.
N4090 G1 X53.03
N4095 G3 X57.53 Y594.752 I0. J4.5
N4100 G1 Y605.002
N4105 X65.13
N4110 G3 X72.63 Y612.502 I0. J7.5
N4115 G1 Y632.41
N4120 G3 X71.88 Y633.535 I-1.219 J0.
N4125 G2 X71.13 Y634.66 I0.469 J1.125
N4130 G1 Y652.002
N4135 G3 X65.13 Y658.002 I-6. J0.
N4140 G1 X56.03
N4145 Y669.752
N4150 G3 X53.03 Y672.752 I-3. J0.
N4155 G1 X44.03
N4160 G3 X41.03 Y669.752 I0. J-3.
N4165 G1 Y647.352
N4170 G3 X44.03 Y644.352 I3. J0.
N4175 G1 X55.13
N4180 Y620.152
N4185 X44.03
N4190 G3 X41.03 Y617.152 I0. J-3.
N4195 G1 Y594.752
N4200 G3 X44.03 Y591.752 I3. J0.
N4205 G1 X53.03
N4210 G3 X56.03 Y594.752 I0. J3.
N4215 G1 Y606.502
N4220 X65.13
N4225 G3 X71.13 Y612.502 I0. J6.
N4230 G1 Y634.66
N4235 G2 X71.73 Y635.26 I0.6 J0. F300.
N4240 G1 X72.33
N4245 G18 G2 X72.93 Z-17.4 I0. K0.6
N4250 G0 Z5.
N4255 X37.769 Y593.83
N4260 G1 Z-15.5 F150.33
N4265 Z-16.4
N4270 X37.776 Y593.831 Z-16.494
N4275 X37.798 Y593.837 Z-16.585
N4280 X37.833 Y593.845 Z-16.672
N4285 X37.88 Y593.857 Z-16.753
N4290 X37.94 Y593.872 Z-16.824
N4295 X38.009 Y593.889 Z-16.885
N4300 X38.087 Y593.908 Z-16.935
N4305 X38.172 Y593.929 Z-16.971
N4310 X38.261 Y593.951 Z-16.993
N4315 X38.352 Y593.973 Z-17.
N4320 X38.934 Y594.116 F300.
N4325 G17 G2 X39.66 Y593.677 I0.143 J-0.583
N4330 G3 X44.03 Y590.252 Z-17.209 I4.37 J1.075 F150.
N4335 G1 X53.03 Z-17.523
N4340 G3 X57.53 Y594.752 Z-17.77 I0. J4.5
N4345 G1 Y605.002 Z-18.128
N4350 X65.13 Z-18.393
N4355 G3 X72.63 Y612.502 Z-18.805 I0. J7.5
N4360 G1 Y632.41 Z-19.5
N4365 Y652.002 F650.
N4370 G3 X65.13 Y659.502 I-7.5 J0.
N4375 G1 X57.53
N4380 Y669.752
N4385 G3 X53.03 Y674.252 I-4.5 J0.
N4390 G1 X44.03
N4395 G3 X39.53 Y669.752 I0. J-4.5
N4400 G1 Y647.352
N4405 G3 X44.03 Y642.852 I4.5 J0.
N4410 G1 X53.63
N4415 Y621.652
N4420 X44.03
N4425 G3 X39.53 Y617.152 I0. J-4.5
N4430 G1 Y594.752
N4435 G3 X44.03 Y590.252 I4.5 J0.
N4440 G1 X53.03
N4445 G3 X57.53 Y594.752 I0. J4.5
N4450 G1 Y605.002
N4455 X65.13
N4460 G3 X72.63 Y612.502 I0. J7.5
N4465 G1 Y632.41
N4470 G3 X71.88 Y633.535 I-1.219 J0.
N4475 G2 X71.13 Y634.66 I0.469 J1.125
N4480 G1 Y652.002
N4485 G3 X65.13 Y658.002 I-6. J0.
N4490 G1 X56.03
N4495 Y669.752
N4500 G3 X53.03 Y672.752 I-3. J0.
N4505 G1 X44.03
N4510 G3 X41.03 Y669.752 I0. J-3.
N4515 G1 Y647.352
N4520 G3 X44.03 Y644.352 I3. J0.
N4525 G1 X55.13
N4530 Y620.152
N4535 X44.03
N4540 G3 X41.03 Y617.152 I0. J-3.
N4545 G1 Y594.752
N4550 G3 X44.03 Y591.752 I3. J0.
N4555 G1 X53.03
N4560 G3 X56.03 Y594.752 I0. J3.
N4565 G1 Y606.502
N4570 X65.13
N4575 G3 X71.13 Y612.502 I0. J6.
N4580 G1 Y634.66
N4585 G2 X71.73 Y635.26 I0.6 J0. F300.
N4590 G1 X72.33
N4595 G18 G2 X72.93 Z-18.9 I0. K0.6
N4600 G0 Z5.
N4605 X37.769 Y593.83
N4610 G1 Z-17. F150.33
N4615 Z-17.9
N4620 X37.776 Y593.831 Z-17.994
N4625 X37.798 Y593.837 Z-18.085
N4630 X37.833 Y593.845 Z-18.172
N4635 X37.88 Y593.857 Z-18.253
N4640 X37.94 Y593.872 Z-18.324
N4645 X38.009 Y593.889 Z-18.385
N4650 X38.087 Y593.908 Z-18.435
N4655 X38.172 Y593.929 Z-18.471
N4660 X38.261 Y593.951 Z-18.493
N4665 X38.352 Y593.973 Z-18.5
N4670 X38.934 Y594.116 F300.
N4675 G17 G2 X39.66 Y593.677 I0.143 J-0.583
N4680 G3 X44.03 Y590.252 Z-18.709 I4.37 J1.075 F150.
N4685 G1 X53.03 Z-19.023
N4690 G3 X57.53 Y594.752 Z-19.27 I0. J4.5
N4695 G1 Y605.002 Z-19.628
N4700 X65.13 Z-19.893
N4705 G3 X72.63 Y612.502 Z-20.305 I0. J7.5
N4710 G1 Y632.41 Z-21.
N4715 Y652.002 F650.
N4720 G3 X65.13 Y659.502 I-7.5 J0.
N4725 G1 X57.53
N4730 Y669.752
N4735 G3 X54.077 Y674.128 I-4.5 J0.
N4740 G1 Z-20.5
N4745 G3 X53.03 Y674.252 I-1.047 J-4.376
N4750 G1 X44.03
N4755 G3 X42.077 Y673.806 I0. J-4.5
N4760 G1 Z-21. F150.33
N4765 G3 X39.53 Y669.752 I1.953 J-4.054 F650.
N4770 G1 Y647.352
N4775 G3 X44.03 Y642.852 I4.5 J0.
N4780 G1 X53.63
N4785 Y637.875
N4790 Z-20.5
N4795 Y625.875
N4800 Z-21. F150.33
N4805 Y621.652 F650.
N4810 X44.03
N4815 G3 X39.53 Y617.152 I0. J-4.5
N4820 G1 Y594.752
N4825 G3 X42.625 Y590.477 I4.5 J0.
N4830 G1 Z-20.5
N4835 G3 X44.03 Y590.252 I1.405 J4.275
N4840 G1 X53.03
N4845 G3 X54.625 Y590.544 I0. J4.5
N4850 G1 Z-21. F150.33
N4855 G3 X57.53 Y594.752 I-1.595 J4.208 F650.
N4860 G1 Y605.002
N4865 X65.13
N4870 G3 X72.63 Y612.502 I0. J7.5
N4875 G1 Y632.41
N4880 G3 X71.88 Y633.535 I-1.219 J0.
N4885 G2 X71.13 Y634.66 I0.469 J1.125
N4890 G1 Y652.002
N4895 G3 X65.13 Y658.002 I-6. J0.
N4900 G1 X56.03
N4905 Y669.752
N4910 G3 X54.077 Y672.563 I-3. J0.
N4915 G1 Z-20.5
N4920 G3 X53.03 Y672.752 I-1.047 J-2.811
N4925 G1 X44.03
N4930 G3 X42.077 Y672.03 I0. J-3.
N4935 G1 Z-21. F150.33
N4940 G3 X41.03 Y669.752 I1.953 J-2.278 F650.
N4945 G1 Y647.352
N4950 G3 X44.03 Y644.352 I3. J0.
N4955 G1 X55.13
N4960 Y637.875
N4965 Z-20.5
N4970 Y625.875
N4975 Z-21. F150.33
N4980 Y620.152 F650.
N4985 X44.03
N4990 G3 X41.03 Y617.152 I0. J-3.
N4995 G1 Y594.752
N5000 G3 X42.625 Y592.102 I3. J0.
N5005 G1 Z-20.5
N5010 G3 X44.03 Y591.752 I1.405 J2.65
N5015 G1 X53.03
N5020 G3 X54.625 Y592.211 I0. J3.
N5025 G1 Z-21. F150.33
N5030 G3 X56.03 Y594.752 I-1.595 J2.541 F650.
N5035 G1 Y606.502
N5040 X65.13
N5045 G3 X71.13 Y612.502 I0. J6.
N5050 G1 Y634.66
N5055 G2 X71.73 Y635.26 I0.6 J0. F300.
N5060 G1 X72.33
N5065 G18 G2 X72.93 Z-20.4 I0. K0.6
N5070 G0 Z5.
N5075 X37.769 Y593.83
N5080 G1 Z-18.5 F150.33
N5085 Z-19.4
N5090 X37.776 Y593.831 Z-19.494
N5095 X37.798 Y593.837 Z-19.585
N5100 X37.833 Y593.845 Z-19.672
N5105 X37.88 Y593.857 Z-19.753
N5110 X37.94 Y593.872 Z-19.824
N5115 X38.009 Y593.889 Z-19.885
N5120 X38.087 Y593.908 Z-19.935
N5125 X38.172 Y593.929 Z-19.971
N5130 X38.261 Y593.951 Z-19.993
N5135 X38.352 Y593.973 Z-20.
N5140 X38.934 Y594.116 F300.
N5145 G17 G2 X39.66 Y593.677 I0.143 J-0.583
N5150 G3 X44.03 Y590.252 Z-20.209 I4.37 J1.075 F150.
N5155 G1 X52.365 Z-20.5
N5160 X53.03
N5165 G3 X54.625 Y590.544 I0. J4.5
N5170 G1 Z-20.58 F150.33
N5175 G3 X57.53 Y594.752 Z-20.77 I-1.595 J4.208 F150.
N5180 G1 Y605.002 Z-21.128
N5185 X65.13 Z-21.393
N5190 G3 X72.63 Y612.502 Z-21.805 I0. J7.5
N5195 G1 Y632.41 Z-22.5
N5200 Y652.002 F650.
N5205 G3 X65.13 Y659.502 I-7.5 J0.
N5210 G1 X57.53
N5215 Y669.752
N5220 G3 X54.077 Y674.128 I-4.5 J0.
N5225 G1 Z-20.5
N5230 G3 X53.03 Y674.252 I-1.047 J-4.376
N5235 G1 X44.03
N5240 G3 X42.077 Y673.806 I0. J-4.5
N5245 G1 Z-22.5 F150.33
N5250 G3 X39.53 Y669.752 I1.953 J-4.054 F650.
N5255 G1 Y647.352
N5260 G3 X44.03 Y642.852 I4.5 J0.
N5265 G1 X53.63
N5270 Y637.875
N5275 Z-20.5
N5280 Y625.875
N5285 Z-22.5 F150.33
N5290 Y621.652 F650.
N5295 X44.03
N5300 G3 X39.53 Y617.152 I0. J-4.5
N5305 G1 Y594.752
N5310 G3 X42.625 Y590.477 I4.5 J0.
N5315 G1 Z-20.5
N5320 G3 X44.03 Y590.252 I1.405 J4.275
N5325 G1 X53.03
N5330 G3 X54.625 Y590.544 I0. J4.5
N5335 G1 Z-22.5 F150.33
N5340 G3 X57.53 Y594.752 I-1.595 J4.208 F650.
N5345 G1 Y605.002
N5350 X65.13
N5355 G3 X72.63 Y612.502 I0. J7.5
N5360 G1 Y632.41
N5365 G3 X71.88 Y633.535 I-1.219 J0.
N5370 G2 X71.13 Y634.66 I0.469 J1.125
N5375 G1 Y652.002
N5380 G3 X65.13 Y658.002 I-6. J0.
N5385 G1 X56.03
N5390 Y669.752
N5395 G3 X54.077 Y672.563 I-3. J0.
N5400 G1 Z-20.5
N5405 G3 X53.03 Y672.752 I-1.047 J-2.811
N5410 G1 X44.03
N5415 G3 X42.077 Y672.03 I0. J-3.
N5420 G1 Z-22.5 F150.33
N5425 G3 X41.03 Y669.752 I1.953 J-2.278 F650.
N5430 G1 Y647.352
N5435 G3 X44.03 Y644.352 I3. J0.
N5440 G1 X55.13
N5445 Y637.875
N5450 Z-20.5
N5455 Y625.875
N5460 Z-22.5 F150.33
N5465 Y620.152 F650.
N5470 X44.03
N5475 G3 X41.03 Y617.152 I0. J-3.
N5480 G1 Y594.752
N5485 G3 X42.625 Y592.102 I3. J0.
N5490 G1 Z-20.5
N5495 G3 X44.03 Y591.752 I1.405 J2.65
N5500 G1 X53.03
N5505 G3 X54.625 Y592.211 I0. J3.
N5510 G1 Z-22.5 F150.33
N5515 G3 X56.03 Y594.752 I-1.595 J2.541 F650.
N5520 G1 Y606.502
N5525 X65.13
N5530 G3 X71.13 Y612.502 I0. J6.
N5535 G1 Y634.66
N5540 G2 X71.73 Y635.26 I0.6 J0. F300.
N5545 G1 X72.33
N5550 G18 G2 X72.93 Z-21.9 I0. K0.6
N5555 G0 Z5.
N5560 X34.399 Y670.99
N5565 G1 Z2.5 F150.33
N5570 Z1.6
N5575 X34.392 Y670.989 Z1.506
N5580 X34.371 Y670.983 Z1.415
N5585 X34.336 Y670.975 Z1.328
N5590 X34.288 Y670.963 Z1.247
N5595 X34.229 Y670.948 Z1.176
N5600 X34.159 Y670.931 Z1.115
N5605 X34.081 Y670.912 Z1.065
N5610 X33.997 Y670.891 Z1.029
N5615 X33.908 Y670.869 Z1.007
N5620 X33.817 Y670.847 Z1.
N5625 X33.234 Y670.704 F300.
N5630 G17 G2 X32.508 Y671.143 I-0.143 J0.583
N5635 G3 X28.138 Y674.568 Z0.791 I-4.37 J-1.075 F150.
N5640 G1 X19.138 Z0.477
N5645 G3 X14.638 Y670.068 Z0.23 I0. J-4.5
N5650 G1 Y659.818 Z-0.128
N5655 X7.038 Z-0.393
N5660 G3 X-0.462 Y652.318 Z-0.805 I0. J-7.5
N5665 G1 Y632.41 Z-1.5
N5670 Y612.818 F650.
N5675 G3 X7.038 Y605.318 I7.5 J0.
N5680 G1 X14.638
N5685 Y595.068
N5690 G3 X19.138 Y590.568 I4.5 J0.
N5695 G1 X28.138
N5700 G3 X32.638 Y595.068 I0. J4.5
N5705 G1 Y617.468
N5710 G3 X28.138 Y621.968 I-4.5 J0.
N5715 G1 X18.538
N5720 Y643.168
N5725 X28.138
N5730 G3 X32.638 Y647.668 I0. J4.5
N5735 G1 Y670.068
N5740 G3 X28.138 Y674.568 I-4.5 J0.
N5745 G1 X19.138
N5750 G3 X14.638 Y670.068 I0. J-4.5
N5755 G1 Y659.818
N5760 X7.038
N5765 G3 X-0.462 Y652.318 I0. J-7.5
N5770 G1 Y632.41
N5775 G3 X0.288 Y631.285 I1.219 J0.
N5780 G2 X1.038 Y630.16 I-0.469 J-1.125
N5785 G1 Y612.818
N5790 G3 X7.038 Y606.818 I6. J0.
N5795 G1 X16.138
N5800 Y595.068
N5805 G3 X19.138 Y592.068 I3. J0.
N5810 G1 X28.138
N5815 G3 X31.138 Y595.068 I0. J3.
N5820 G1 Y617.152
N5825 Y617.468
N5830 G3 X28.138 Y620.468 I-3. J0.
N5835 G1 X17.038
N5840 Y644.668
N5845 X28.138
N5850 G3 X31.138 Y647.668 I0. J3.
N5855 G1 Y670.068
N5860 G3 X28.138 Y673.068 I-3. J0.
N5865 G1 X19.138
N5870 G3 X16.138 Y670.068 I0. J-3.
N5875 G1 Y658.318
N5880 X7.038
N5885 G3 X1.038 Y652.318 I0. J-6.
N5890 G1 Y630.16
N5895 G2 X0.438 Y629.56 I-0.6 J0. F300.
N5900 G1 X-0.162
N5905 G18 G3 X-0.762 Z-0.9 I0. K0.6
N5910 G0 Z5.
N5915 X34.399 Y670.99
N5920 G1 Z1. F150.33
N5925 Z0.1
N5930 X34.392 Y670.989 Z0.006
N5935 X34.371 Y670.983 Z-0.085
N5940 X34.336 Y670.975 Z-0.172
N5945 X34.288 Y670.963 Z-0.253
N5950 X34.229 Y670.948 Z-0.324
N5955 X34.159 Y670.931 Z-0.385
N5960 X34.081 Y670.912 Z-0.435
N5965 X33.997 Y670.891 Z-0.471
N5970 X33.908 Y670.869 Z-0.493
N5975 X33.817 Y670.847 Z-0.5
N5980 X33.234 Y670.704 F300.
N5985 G17 G2 X32.508 Y671.143 I-0.143 J0.583
N5990 G3 X28.138 Y674.568 Z-0.709 I-4.37 J-1.075 F150.
N5995 G1 X19.138 Z-1.023
N6000 G3 X14.638 Y670.068 Z-1.27 I0. J-4.5
N6005 G1 Y659.818 Z-1.628
N6010 X7.038 Z-1.893
N6015 G3 X-0.462 Y652.318 Z-2.305 I0. J-7.5
N6020 G1 Y632.41 Z-3.
N6025 Y612.818 F650.
N6030 G3 X7.038 Y605.318 I7.5 J0.
N6035 G1 X14.638
N6040 Y595.068
N6045 G3 X19.138 Y590.568 I4.5 J0.
N6050 G1 X28.138
N6055 G3 X32.638 Y595.068 I0. J4.5
N6060 G1 Y617.468
N6065 G3 X28.138 Y621.968 I-4.5 J0.
N6070 G1 X18.538
N6075 Y643.168
N6080 X28.138
N6085 G3 X32.638 Y647.668 I0. J4.5
N6090 G1 Y670.068
N6095 G3 X28.138 Y674.568 I-4.5 J0.
N6100 G1 X19.138
N6105 G3 X14.638 Y670.068 I0. J-4.5
N6110 G1 Y659.818
N6115 X7.038
N6120 G3 X-0.462 Y652.318 I0. J-7.5
N6125 G1 Y632.41
N6130 G3 X0.288 Y631.285 I1.219 J0.
N6135 G2 X1.038 Y630.16 I-0.469 J-1.125
N6140 G1 Y612.818
N6145 G3 X7.038 Y606.818 I6. J0.
N6150 G1 X16.138
N6155 Y595.068
N6160 G3 X19.138 Y592.068 I3. J0.
N6165 G1 X28.138
N6170 G3 X31.138 Y595.068 I0. J3.
N6175 G1 Y617.152
N6180 Y617.468
N6185 G3 X28.138 Y620.468 I-3. J0.
N6190 G1 X17.038
N6195 Y644.668
N6200 X28.138
N6205 G3 X31.138 Y647.668 I0. J3.
N6210 G1 Y670.068
N6215 G3 X28.138 Y673.068 I-3. J0.
N6220 G1 X19.138
N6225 G3 X16.138 Y670.068 I0. J-3.
N6230 G1 Y658.318
N6235 X7.038
N6240 G3 X1.038 Y652.318 I0. J-6.
N6245 G1 Y630.16
N6250 G2 X0.438 Y629.56 I-0.6 J0. F300.
N6255 G1 X-0.162
N6260 G18 G3 X-0.762 Z-2.4 I0. K0.6
N6265 G0 Z5.
N6270 X34.399 Y670.99
N6275 G1 Z-0.5 F150.33
N6280 Z-1.4
N6285 X34.392 Y670.989 Z-1.494
N6290 X34.371 Y670.983 Z-1.585
N6295 X34.336 Y670.975 Z-1.672
N6300 X34.288 Y670.963 Z-1.753
N6305 X34.229 Y670.948 Z-1.824
N6310 X34.159 Y670.931 Z-1.885
N6315 X34.081 Y670.912 Z-1.935
N6320 X33.997 Y670.891 Z-1.971
N6325 X33.908 Y670.869 Z-1.993
N6330 X33.817 Y670.847 Z-2.
N6335 X33.234 Y670.704 F300.
N6340 G17 G2 X32.508 Y671.143 I-0.143 J0.583
N6345 G3 X28.138 Y674.568 Z-2.209 I-4.37 J-1.075 F150.
N6350 G1 X19.138 Z-2.523
N6355 G3 X14.638 Y670.068 Z-2.77 I0. J-4.5
N6360 G1 Y659.818 Z-3.128
N6365 X7.038 Z-3.393
N6370 G3 X-0.462 Y652.318 Z-3.805 I0. J-7.5
N6375 G1 Y632.41 Z-4.5
N6380 Y612.818 F650.
N6385 G3 X7.038 Y605.318 I7.5 J0.
N6390 G1 X14.638
N6395 Y595.068
N6400 G3 X19.138 Y590.568 I4.5 J0.
N6405 G1 X28.138
N6410 G3 X32.638 Y595.068 I0. J4.5
N6415 G1 Y617.468
N6420 G3 X28.138 Y621.968 I-4.5 J0.
N6425 G1 X18.538
N6430 Y643.168
N6435 X28.138
N6440 G3 X32.638 Y647.668 I0. J4.5
N6445 G1 Y670.068
N6450 G3 X28.138 Y674.568 I-4.5 J0.
N6455 G1 X19.138
N6460 G3 X14.638 Y670.068 I0. J-4.5
N6465 G1 Y659.818
N6470 X7.038
N6475 G3 X-0.462 Y652.318 I0. J-7.5
N6480 G1 Y632.41
N6485 G3 X0.288 Y631.285 I1.219 J0.
N6490 G2 X1.038 Y630.16 I-0.469 J-1.125
N6495 G1 Y612.818
N6500 G3 X7.038 Y606.818 I6. J0.
N6505 G1 X16.138
N6510 Y595.068
N6515 G3 X19.138 Y592.068 I3. J0.
N6520 G1 X28.138
N6525 G3 X31.138 Y595.068 I0. J3.
N6530 G1 Y617.152
N6535 Y617.468
N6540 G3 X28.138 Y620.468 I-3. J0.
N6545 G1 X17.038
N6550 Y644.668
N6555 X28.138
N6560 G3 X31.138 Y647.668 I0. J3.
N6565 G1 Y670.068
N6570 G3 X28.138 Y673.068 I-3. J0.
N6575 G1 X19.138
N6580 G3 X16.138 Y670.068 I0. J-3.
N6585 G1 Y658.318
N6590 X7.038
N6595 G3 X1.038 Y652.318 I0. J-6.
N6600 G1 Y630.16
N6605 G2 X0.438 Y629.56 I-0.6 J0. F300.
N6610 G1 X-0.162
N6615 G18 G3 X-0.762 Z-3.9 I0. K0.6
N6620 G0 Z5.
N6625 X34.399 Y670.99
N6630 G1 Z-2. F150.33
N6635 Z-2.9
N6640 X34.392 Y670.989 Z-2.994
N6645 X34.371 Y670.983 Z-3.085
N6650 X34.336 Y670.975 Z-3.172
N6655 X34.288 Y670.963 Z-3.253
N6660 X34.229 Y670.948 Z-3.324
N6665 X34.159 Y670.931 Z-3.385
N6670 X34.081 Y670.912 Z-3.435
N6675 X33.997 Y670.891 Z-3.471
N6680 X33.908 Y670.869 Z-3.493
N6685 X33.817 Y670.847 Z-3.5
N6690 X33.234 Y670.704 F300.
N6695 G17 G2 X32.508 Y671.143 I-0.143 J0.583
N6700 G3 X28.138 Y674.568 Z-3.709 I-4.37 J-1.075 F150.
N6705 G1 X19.138 Z-4.023
N6710 G3 X14.638 Y670.068 Z-4.27 I0. J-4.5
N6715 G1 Y659.818 Z-4.628
N6720 X7.038 Z-4.893
N6725 G3 X-0.462 Y652.318 Z-5.305 I0. J-7.5
N6730 G1 Y632.41 Z-6.
N6735 Y612.818 F650.
N6740 G3 X7.038 Y605.318 I7.5 J0.
N6745 G1 X14.638
N6750 Y595.068
N6755 G3 X19.138 Y590.568 I4.5 J0.
N6760 G1 X28.138
N6765 G3 X32.638 Y595.068 I0. J4.5
N6770 G1 Y617.468
N6775 G3 X28.138 Y621.968 I-4.5 J0.
N6780 G1 X18.538
N6785 Y643.168
N6790 X28.138
N6795 G3 X32.638 Y647.668 I0. J4.5
N6800 G1 Y670.068
N6805 G3 X28.138 Y674.568 I-4.5 J0.
N6810 G1 X19.138
N6815 G3 X14.638 Y670.068 I0. J-4.5
N6820 G1 Y659.818
N6825 X7.038
N6830 G3 X-0.462 Y652.318 I0. J-7.5
N6835 G1 Y632.41
N6840 G3 X0.288 Y631.285 I1.219 J0.
N6845 G2 X1.038 Y630.16 I-0.469 J-1.125
N6850 G1 Y612.818
N6855 G3 X7.038 Y606.818 I6. J0.
N6860 G1 X16.138
N6865 Y595.068
N6870 G3 X19.138 Y592.068 I3. J0.
N6875 G1 X28.138
N6880 G3 X31.138 Y595.068 I0. J3.
N6885 G1 Y617.152
N6890 Y617.468
N6895 G3 X28.138 Y620.468 I-3. J0.
N6900 G1 X17.038
N6905 Y644.668
N6910 X28.138
N6915 G3 X31.138 Y647.668 I0. J3.
N6920 G1 Y670.068
N6925 G3 X28.138 Y673.068 I-3. J0.
N6930 G1 X19.138
N6935 G3 X16.138 Y670.068 I0. J-3.
N6940 G1 Y658.318
N6945 X7.038
N6950 G3 X1.038 Y652.318 I0. J-6.
N6955 G1 Y630.16
N6960 G2 X0.438 Y629.56 I-0.6 J0. F300.
N6965 G1 X-0.162
N6970 G18 G3 X-0.762 Z-5.4 I0. K0.6
N6975 G0 Z5.
N6980 X34.399 Y670.99
N6985 G1 Z-3.5 F150.33
N6990 Z-4.4
N6995 X34.392 Y670.989 Z-4.494
N7000 X34.371 Y670.983 Z-4.585
N7005 X34.336 Y670.975 Z-4.672
N7010 X34.288 Y670.963 Z-4.753
N7015 X34.229 Y670.948 Z-4.824
N7020 X34.159 Y670.931 Z-4.885
N7025 X34.081 Y670.912 Z-4.935
N7030 X33.997 Y670.891 Z-4.971
N7035 X33.908 Y670.869 Z-4.993
N7040 X33.817 Y670.847 Z-5.
N7045 X33.234 Y670.704 F300.
N7050 G17 G2 X32.508 Y671.143 I-0.143 J0.583
N7055 G3 X28.138 Y674.568 Z-5.209 I-4.37 J-1.075 F150.
N7060 G1 X19.138 Z-5.523
N7065 G3 X14.638 Y670.068 Z-5.77 I0. J-4.5
N7070 G1 Y659.818 Z-6.128
N7075 X7.038 Z-6.393
N7080 G3 X-0.462 Y652.318 Z-6.805 I0. J-7.5
N7085 G1 Y632.41 Z-7.5
N7090 Y612.818 F650.
N7095 G3 X7.038 Y605.318 I7.5 J0.
N7100 G1 X14.638
N7105 Y595.068
N7110 G3 X19.138 Y590.568 I4.5 J0.
N7115 G1 X28.138
N7120 G3 X32.638 Y595.068 I0. J4.5
N7125 G1 Y617.468
N7130 G3 X28.138 Y621.968 I-4.5 J0.
N7135 G1 X18.538
N7140 Y643.168
N7145 X28.138
N7150 G3 X32.638 Y647.668 I0. J4.5
N7155 G1 Y670.068
N7160 G3 X28.138 Y674.568 I-4.5 J0.
N7165 G1 X19.138
N7170 G3 X14.638 Y670.068 I0. J-4.5
N7175 G1 Y659.818
N7180 X7.038
N7185 G3 X-0.462 Y652.318 I0. J-7.5
N7190 G1 Y632.41
N7195 G3 X0.288 Y631.285 I1.219 J0.
N7200 G2 X1.038 Y630.16 I-0.469 J-1.125
N7205 G1 Y612.818
N7210 G3 X7.038 Y606.818 I6. J0.
N7215 G1 X16.138
N7220 Y595.068
N7225 G3 X19.138 Y592.068 I3. J0.
N7230 G1 X28.138
N7235 G3 X31.138 Y595.068 I0. J3.
N7240 G1 Y617.152
N7245 Y617.468
N7250 G3 X28.138 Y620.468 I-3. J0.
N7255 G1 X17.038
N7260 Y644.668
N7265 X28.138
N7270 G3 X31.138 Y647.668 I0. J3.
N7275 G1 Y670.068
N7280 G3 X28.138 Y673.068 I-3. J0.
N7285 G1 X19.138
N7290 G3 X16.138 Y670.068 I0. J-3.
N7295 G1 Y658.318
N7300 X7.038
N7305 G3 X1.038 Y652.318 I0. J-6.
N7310 G1 Y630.16
N7315 G2 X0.438 Y629.56 I-0.6 J0. F300.
N7320 G1 X-0.162
N7325 G18 G3 X-0.762 Z-6.9 I0. K0.6
N7330 G0 Z5.
N7335 X34.399 Y670.99
N7340 G1 Z-5. F150.33
N7345 Z-5.9
N7350 X34.392 Y670.989 Z-5.994
N7355 X34.371 Y670.983 Z-6.085
N7360 X34.336 Y670.975 Z-6.172
N7365 X34.288 Y670.963 Z-6.253
N7370 X34.229 Y670.948 Z-6.324
N7375 X34.159 Y670.931 Z-6.385
N7380 X34.081 Y670.912 Z-6.435
N7385 X33.997 Y670.891 Z-6.471
N7390 X33.908 Y670.869 Z-6.493
N7395 X33.817 Y670.847 Z-6.5
N7400 X33.234 Y670.704 F300.
N7405 G17 G2 X32.508 Y671.143 I-0.143 J0.583
N7410 G3 X28.138 Y674.568 Z-6.709 I-4.37 J-1.075 F150.
N7415 G1 X19.138 Z-7.023
N7420 G3 X14.638 Y670.068 Z-7.27 I0. J-4.5
N7425 G1 Y659.818 Z-7.628
N7430 X7.038 Z-7.893
N7435 G3 X-0.462 Y652.318 Z-8.305 I0. J-7.5
N7440 G1 Y632.41 Z-9.
N7445 Y612.818 F650.
N7450 G3 X7.038 Y605.318 I7.5 J0.
N7455 G1 X14.638
N7460 Y595.068
N7465 G3 X19.138 Y590.568 I4.5 J0.
N7470 G1 X28.138
N7475 G3 X32.638 Y595.068 I0. J4.5
N7480 G1 Y617.468
N7485 G3 X28.138 Y621.968 I-4.5 J0.
N7490 G1 X18.538
N7495 Y643.168
N7500 X28.138
N7505 G3 X32.638 Y647.668 I0. J4.5
N7510 G1 Y670.068
N7515 G3 X28.138 Y674.568 I-4.5 J0.
N7520 G1 X19.138
N7525 G3 X14.638 Y670.068 I0. J-4.5
N7530 G1 Y659.818
N7535 X7.038
N7540 G3 X-0.462 Y652.318 I0. J-7.5
N7545 G1 Y632.41
N7550 G3 X0.288 Y631.285 I1.219 J0.
N7555 G2 X1.038 Y630.16 I-0.469 J-1.125
N7560 G1 Y612.818
N7565 G3 X7.038 Y606.818 I6. J0.
N7570 G1 X16.138
N7575 Y595.068
N7580 G3 X19.138 Y592.068 I3. J0.
N7585 G1 X28.138
N7590 G3 X31.138 Y595.068 I0. J3.
N7595 G1 Y617.152
N7600 Y617.468
N7605 G3 X28.138 Y620.468 I-3. J0.
N7610 G1 X17.038
N7615 Y644.668
N7620 X28.138
N7625 G3 X31.138 Y647.668 I0. J3.
N7630 G1 Y670.068
N7635 G3 X28.138 Y673.068 I-3. J0.
N7640 G1 X19.138
N7645 G3 X16.138 Y670.068 I0. J-3.
N7650 G1 Y658.318
N7655 X7.038
N7660 G3 X1.038 Y652.318 I0. J-6.
N7665 G1 Y630.16
N7670 G2 X0.438 Y629.56 I-0.6 J0. F300.
N7675 G1 X-0.162
N7680 G18 G3 X-0.762 Z-8.4 I0. K0.6
N7685 G0 Z5.
N7690 X34.399 Y670.99
N7695 G1 Z-6.5 F150.33
N7700 Z-7.4
N7705 X34.392 Y670.989 Z-7.494
N7710 X34.371 Y670.983 Z-7.585
N7715 X34.336 Y670.975 Z-7.672
N7720 X34.288 Y670.963 Z-7.753
N7725 X34.229 Y670.948 Z-7.824
N7730 X34.159 Y670.931 Z-7.885
N7735 X34.081 Y670.912 Z-7.935
N7740 X33.997 Y670.891 Z-7.971
N7745 X33.908 Y670.869 Z-7.993
N7750 X33.817 Y670.847 Z-8.
N7755 X33.234 Y670.704 F300.
N7760 G17 G2 X32.508 Y671.143 I-0.143 J0.583
N7765 G3 X28.138 Y674.568 Z-8.209 I-4.37 J-1.075 F150.
N7770 G1 X19.138 Z-8.523
N7775 G3 X14.638 Y670.068 Z-8.77 I0. J-4.5
N7780 G1 Y659.818 Z-9.128
N7785 X7.038 Z-9.393
N7790 G3 X-0.462 Y652.318 Z-9.805 I0. J-7.5
N7795 G1 Y632.41 Z-10.5
N7800 Y612.818 F650.
N7805 G3 X7.038 Y605.318 I7.5 J0.
N7810 G1 X14.638
N7815 Y595.068
N7820 G3 X19.138 Y590.568 I4.5 J0.
N7825 G1 X28.138
N7830 G3 X32.638 Y595.068 I0. J4.5
N7835 G1 Y617.468
N7840 G3 X28.138 Y621.968 I-4.5 J0.
N7845 G1 X18.538
N7850 Y643.168
N7855 X28.138
N7860 G3 X32.638 Y647.668 I0. J4.5
N7865 G1 Y670.068
N7870 G3 X28.138 Y674.568 I-4.5 J0.
N7875 G1 X19.138
N7880 G3 X14.638 Y670.068 I0. J-4.5
N7885 G1 Y659.818
N7890 X7.038
N7895 G3 X-0.462 Y652.318 I0. J-7.5
N7900 G1 Y632.41
N7905 G3 X0.288 Y631.285 I1.219 J0.
N7910 G2 X1.038 Y630.16 I-0.469 J-1.125
N7915 G1 Y612.818
N7920 G3 X7.038 Y606.818 I6. J0.
N7925 G1 X16.138
N7930 Y595.068
N7935 G3 X19.138 Y592.068 I3. J0.
N7940 G1 X28.138
N7945 G3 X31.138 Y595.068 I0. J3.
N7950 G1 Y617.152
N7955 Y617.468
N7960 G3 X28.138 Y620.468 I-3. J0.
N7965 G1 X17.038
N7970 Y644.668
N7975 X28.138
N7980 G3 X31.138 Y647.668 I0. J3.
N7985 G1 Y670.068
N7990 G3 X28.138 Y673.068 I-3. J0.
N7995 G1 X19.138
N8000 G3 X16.138 Y670.068 I0. J-3.
N8005 G1 Y658.318
N8010 X7.038
N8015 G3 X1.038 Y652.318 I0. J-6.
N8020 G1 Y630.16
N8025 G2 X0.438 Y629.56 I-0.6 J0. F300.
N8030 G1 X-0.162
N8035 G18 G3 X-0.762 Z-9.9 I0. K0.6
N8040 G0 Z5.
N8045 X34.399 Y670.99
N8050 G1 Z-8. F150.33
N8055 Z-8.9
N8060 X34.392 Y670.989 Z-8.994
N8065 X34.371 Y670.983 Z-9.085
N8070 X34.336 Y670.975 Z-9.172
N8075 X34.288 Y670.963 Z-9.253
N8080 X34.229 Y670.948 Z-9.324
N8085 X34.159 Y670.931 Z-9.385
N8090 X34.081 Y670.912 Z-9.435
N8095 X33.997 Y670.891 Z-9.471
N8100 X33.908 Y670.869 Z-9.493
N8105 X33.817 Y670.847 Z-9.5
N8110 X33.234 Y670.704 F300.
N8115 G17 G2 X32.508 Y671.143 I-0.143 J0.583
N8120 G3 X28.138 Y674.568 Z-9.709 I-4.37 J-1.075 F150.
N8125 G1 X19.138 Z-10.023
N8130 G3 X14.638 Y670.068 Z-10.27 I0. J-4.5
N8135 G1 Y659.818 Z-10.628
N8140 X7.038 Z-10.893
N8145 G3 X-0.462 Y652.318 Z-11.305 I0. J-7.5
N8150 G1 Y632.41 Z-12.
N8155 Y612.818 F650.
N8160 G3 X7.038 Y605.318 I7.5 J0.
N8165 G1 X14.638
N8170 Y595.068
N8175 G3 X19.138 Y590.568 I4.5 J0.
N8180 G1 X28.138
N8185 G3 X32.638 Y595.068 I0. J4.5
N8190 G1 Y617.468
N8195 G3 X28.138 Y621.968 I-4.5 J0.
N8200 G1 X18.538
N8205 Y643.168
N8210 X28.138
N8215 G3 X32.638 Y647.668 I0. J4.5
N8220 G1 Y670.068
N8225 G3 X28.138 Y674.568 I-4.5 J0.
N8230 G1 X19.138
N8235 G3 X14.638 Y670.068 I0. J-4.5
N8240 G1 Y659.818
N8245 X7.038
N8250 G3 X-0.462 Y652.318 I0. J-7.5
N8255 G1 Y632.41
N8260 G3 X0.288 Y631.285 I1.219 J0.
N8265 G2 X1.038 Y630.16 I-0.469 J-1.125
N8270 G1 Y612.818
N8275 G3 X7.038 Y606.818 I6. J0.
N8280 G1 X16.138
N8285 Y595.068
N8290 G3 X19.138 Y592.068 I3. J0.
N8295 G1 X28.138
N8300 G3 X31.138 Y595.068 I0. J3.
N8305 G1 Y617.152
N8310 Y617.468
N8315 G3 X28.138 Y620.468 I-3. J0.
N8320 G1 X17.038
N8325 Y644.668
N8330 X28.138
N8335 G3 X31.138 Y647.668 I0. J3.
N8340 G1 Y670.068
N8345 G3 X28.138 Y673.068 I-3. J0.
N8350 G1 X19.138
N8355 G3 X16.138 Y670.068 I0. J-3.
N8360 G1 Y658.318
N8365 X7.038
N8370 G3 X1.038 Y652.318 I0. J-6.
N8375 G1 Y630.16
N8380 G2 X0.438 Y629.56 I-0.6 J0. F300.
N8385 G1 X-0.162
N8390 G18 G3 X-0.762 Z-11.4 I0. K0.6
N8395 G0 Z5.
N8400 X34.399 Y670.99
N8405 G1 Z-9.5 F150.33
N8410 Z-10.4
N8415 X34.392 Y670.989 Z-10.494
N8420 X34.371 Y670.983 Z-10.585
N8425 X34.336 Y670.975 Z-10.672
N8430 X34.288 Y670.963 Z-10.753
N8435 X34.229 Y670.948 Z-10.824
N8440 X34.159 Y670.931 Z-10.885
N8445 X34.081 Y670.912 Z-10.935
N8450 X33.997 Y670.891 Z-10.971
N8455 X33.908 Y670.869 Z-10.993
N8460 X33.817 Y670.847 Z-11.
N8465 X33.234 Y670.704 F300.
N8470 G17 G2 X32.508 Y671.143 I-0.143 J0.583
N8475 G3 X28.138 Y674.568 Z-11.209 I-4.37 J-1.075 F150.
N8480 G1 X19.138 Z-11.523
N8485 G3 X14.638 Y670.068 Z-11.77 I0. J-4.5
N8490 G1 Y659.818 Z-12.128
N8495 X7.038 Z-12.393
N8500 G3 X-0.462 Y652.318 Z-12.805 I0. J-7.5
N8505 G1 Y632.41 Z-13.5
N8510 Y612.818 F650.
N8515 G3 X7.038 Y605.318 I7.5 J0.
N8520 G1 X14.638
N8525 Y595.068
N8530 G3 X19.138 Y590.568 I4.5 J0.
N8535 G1 X28.138
N8540 G3 X32.638 Y595.068 I0. J4.5
N8545 G1 Y617.468
N8550 G3 X28.138 Y621.968 I-4.5 J0.
N8555 G1 X18.538
N8560 Y643.168
N8565 X28.138
N8570 G3 X32.638 Y647.668 I0. J4.5
N8575 G1 Y670.068
N8580 G3 X28.138 Y674.568 I-4.5 J0.
N8585 G1 X19.138
N8590 G3 X14.638 Y670.068 I0. J-4.5
N8595 G1 Y659.818
N8600 X7.038
N8605 G3 X-0.462 Y652.318 I0. J-7.5
N8610 G1 Y632.41
N8615 G3 X0.288 Y631.285 I1.219 J0.
N8620 G2 X1.038 Y630.16 I-0.469 J-1.125
N8625 G1 Y612.818
N8630 G3 X7.038 Y606.818 I6. J0.
N8635 G1 X16.138
N8640 Y595.068
N8645 G3 X19.138 Y592.068 I3. J0.
N8650 G1 X28.138
N8655 G3 X31.138 Y595.068 I0. J3.
N8660 G1 Y617.152
N8665 Y617.468
N8670 G3 X28.138 Y620.468 I-3. J0.
N8675 G1 X17.038
N8680 Y644.668
N8685 X28.138
N8690 G3 X31.138 Y647.668 I0. J3.
N8695 G1 Y670.068
N8700 G3 X28.138 Y673.068 I-3. J0.
N8705 G1 X19.138
N8710 G3 X16.138 Y670.068 I0. J-3.
N8715 G1 Y658.318
N8720 X7.038
N8725 G3 X1.038 Y652.318 I0. J-6.
N8730 G1 Y630.16
N8735 G2 X0.438 Y629.56 I-0.6 J0. F300.
N8740 G1 X-0.162
N8745 G18 G3 X-0.762 Z-12.9 I0. K0.6
N8750 G0 Z5.
N8755 X34.399 Y670.99
N8760 G1 Z-11. F150.33
N8765 Z-11.9
N8770 X34.392 Y670.989 Z-11.994
N8775 X34.371 Y670.983 Z-12.085
N8780 X34.336 Y670.975 Z-12.172
N8785 X34.288 Y670.963 Z-12.253
N8790 X34.229 Y670.948 Z-12.324
N8795 X34.159 Y670.931 Z-12.385
N8800 X34.081 Y670.912 Z-12.435
N8805 X33.997 Y670.891 Z-12.471
N8810 X33.908 Y670.869 Z-12.493
N8815 X33.817 Y670.847 Z-12.5
N8820 X33.234 Y670.704 F300.
N8825 G17 G2 X32.508 Y671.143 I-0.143 J0.583
N8830 G3 X28.138 Y674.568 Z-12.709 I-4.37 J-1.075 F150.
N8835 G1 X19.138 Z-13.023
N8840 G3 X14.638 Y670.068 Z-13.27 I0. J-4.5
N8845 G1 Y659.818 Z-13.628
N8850 X7.038 Z-13.893
N8855 G3 X-0.462 Y652.318 Z-14.305 I0. J-7.5
N8860 G1 Y632.41 Z-15.
N8865 Y612.818 F650.
N8870 G3 X7.038 Y605.318 I7.5 J0.
N8875 G1 X14.638
N8880 Y595.068
N8885 G3 X19.138 Y590.568 I4.5 J0.
N8890 G1 X28.138
N8895 G3 X32.638 Y595.068 I0. J4.5
N8900 G1 Y617.468
N8905 G3 X28.138 Y621.968 I-4.5 J0.
N8910 G1 X18.538
N8915 Y643.168
N8920 X28.138
N8925 G3 X32.638 Y647.668 I0. J4.5
N8930 G1 Y670.068
N8935 G3 X28.138 Y674.568 I-4.5 J0.
N8940 G1 X19.138
N8945 G3 X14.638 Y670.068 I0. J-4.5
N8950 G1 Y659.818
N8955 X7.038
N8960 G3 X-0.462 Y652.318 I0. J-7.5
N8965 G1 Y632.41
N8970 G3 X0.288 Y631.285 I1.219 J0.
N8975 G2 X1.038 Y630.16 I-0.469 J-1.125
N8980 G1 Y612.818
N8985 G3 X7.038 Y606.818 I6. J0.
N8990 G1 X16.138
N8995 Y595.068
N9000 G3 X19.138 Y592.068 I3. J0.
N9005 G1 X28.138
N9010 G3 X31.138 Y595.068 I0. J3.
N9015 G1 Y617.152
N9020 Y617.468
N9025 G3 X28.138 Y620.468 I-3. J0.
N9030 G1 X17.038
N9035 Y644.668
N9040 X28.138
N9045 G3 X31.138 Y647.668 I0. J3.
N9050 G1 Y670.068
N9055 G3 X28.138 Y673.068 I-3. J0.
N9060 G1 X19.138
N9065 G3 X16.138 Y670.068 I0. J-3.
N9070 G1 Y658.318
N9075 X7.038
N9080 G3 X1.038 Y652.318 I0. J-6.
N9085 G1 Y630.16
N9090 G2 X0.438 Y629.56 I-0.6 J0. F300.
N9095 G1 X-0.162
N9100 G18 G3 X-0.762 Z-14.4 I0. K0.6
N9105 G0 Z5.
N9110 X34.399 Y670.99
N9115 G1 Z-12.5 F150.33
N9120 Z-13.4
N9125 X34.392 Y670.989 Z-13.494
N9130 X34.371 Y670.983 Z-13.585
N9135 X34.336 Y670.975 Z-13.672
N9140 X34.288 Y670.963 Z-13.753
N9145 X34.229 Y670.948 Z-13.824
N9150 X34.159 Y670.931 Z-13.885
N9155 X34.081 Y670.912 Z-13.935
N9160 X33.997 Y670.891 Z-13.971
N9165 X33.908 Y670.869 Z-13.993
N9170 X33.817 Y670.847 Z-14.
N9175 X33.234 Y670.704 F300.
N9180 G17 G2 X32.508 Y671.143 I-0.143 J0.583
N9185 G3 X28.138 Y674.568 Z-14.209 I-4.37 J-1.075 F150.
N9190 G1 X19.138 Z-14.523
N9195 G3 X14.638 Y670.068 Z-14.77 I0. J-4.5
N9200 G1 Y659.818 Z-15.128
N9205 X7.038 Z-15.393
N9210 G3 X-0.462 Y652.318 Z-15.805 I0. J-7.5
N9215 G1 Y632.41 Z-16.5
N9220 Y612.818 F650.
N9225 G3 X7.038 Y605.318 I7.5 J0.
N9230 G1 X14.638
N9235 Y595.068
N9240 G3 X19.138 Y590.568 I4.5 J0.
N9245 G1 X28.138
N9250 G3 X32.638 Y595.068 I0. J4.5
N9255 G1 Y617.468
N9260 G3 X28.138 Y621.968 I-4.5 J0.
N9265 G1 X18.538
N9270 Y643.168
N9275 X28.138
N9280 G3 X32.638 Y647.668 I0. J4.5
N9285 G1 Y670.068
N9290 G3 X28.138 Y674.568 I-4.5 J0.
N9295 G1 X19.138
N9300 G3 X14.638 Y670.068 I0. J-4.5
N9305 G1 Y659.818
N9310 X7.038
N9315 G3 X-0.462 Y652.318 I0. J-7.5
N9320 G1 Y632.41
N9325 G3 X0.288 Y631.285 I1.219 J0.
N9330 G2 X1.038 Y630.16 I-0.469 J-1.125
N9335 G1 Y612.818
N9340 G3 X7.038 Y606.818 I6. J0.
N9345 G1 X16.138
N9350 Y595.068
N9355 G3 X19.138 Y592.068 I3. J0.
N9360 G1 X28.138
N9365 G3 X31.138 Y595.068 I0. J3.
N9370 G1 Y617.152
N9375 Y617.468
N9380 G3 X28.138 Y620.468 I-3. J0.
N9385 G1 X17.038
N9390 Y644.668
N9395 X28.138
N9400 G3 X31.138 Y647.668 I0. J3.
N9405 G1 Y670.068
N9410 G3 X28.138 Y673.068 I-3. J0.
N9415 G1 X19.138
N9420 G3 X16.138 Y670.068 I0. J-3.
N9425 G1 Y658.318
N9430 X7.038
N9435 G3 X1.038 Y652.318 I0. J-6.
N9440 G1 Y630.16
N9445 G2 X0.438 Y629.56 I-0.6 J0. F300.
N9450 G1 X-0.162
N9455 G18 G3 X-0.762 Z-15.9 I0. K0.6
N9460 G0 Z5.
N9465 X34.399 Y670.99
N9470 G1 Z-14. F150.33
N9475 Z-14.9
N9480 X34.392 Y670.989 Z-14.994
N9485 X34.371 Y670.983 Z-15.085
N9490 X34.336 Y670.975 Z-15.172
N9495 X34.288 Y670.963 Z-15.253
N9500 X34.229 Y670.948 Z-15.324
N9505 X34.159 Y670.931 Z-15.385
N9510 X34.081 Y670.912 Z-15.435
N9515 X33.997 Y670.891 Z-15.471
N9520 X33.908 Y670.869 Z-15.493
N9525 X33.817 Y670.847 Z-15.5
N9530 X33.234 Y670.704 F300.
N9535 G17 G2 X32.508 Y671.143 I-0.143 J0.583
N9540 G3 X28.138 Y674.568 Z-15.709 I-4.37 J-1.075 F150.
N9545 G1 X19.138 Z-16.023
N9550 G3 X14.638 Y670.068 Z-16.27 I0. J-4.5
N9555 G1 Y659.818 Z-16.628
N9560 X7.038 Z-16.893
N9565 G3 X-0.462 Y652.318 Z-17.305 I0. J-7.5
N9570 G1 Y632.41 Z-18.
N9575 Y612.818 F650.
N9580 G3 X7.038 Y605.318 I7.5 J0.
N9585 G1 X14.638
N9590 Y595.068
N9595 G3 X19.138 Y590.568 I4.5 J0.
N9600 G1 X28.138
N9605 G3 X32.638 Y595.068 I0. J4.5
N9610 G1 Y617.468
N9615 G3 X28.138 Y621.968 I-4.5 J0.
N9620 G1 X18.538
N9625 Y643.168
N9630 X28.138
N9635 G3 X32.638 Y647.668 I0. J4.5
N9640 G1 Y670.068
N9645 G3 X28.138 Y674.568 I-4.5 J0.
N9650 G1 X19.138
N9655 G3 X14.638 Y670.068 I0. J-4.5
N9660 G1 Y659.818
N9665 X7.038
N9670 G3 X-0.462 Y652.318 I0. J-7.5
N9675 G1 Y632.41
N9680 G3 X0.288 Y631.285 I1.219 J0.
N9685 G2 X1.038 Y630.16 I-0.469 J-1.125
N9690 G1 Y612.818
N9695 G3 X7.038 Y606.818 I6. J0.
N9700 G1 X16.138
N9705 Y595.068
N9710 G3 X19.138 Y592.068 I3. J0.
N9715 G1 X28.138
N9720 G3 X31.138 Y595.068 I0. J3.
N9725 G1 Y617.152
N9730 Y617.468
N9735 G3 X28.138 Y620.468 I-3. J0.
N9740 G1 X17.038
N9745 Y644.668
N9750 X28.138
N9755 G3 X31.138 Y647.668 I0. J3.
N9760 G1 Y670.068
N9765 G3 X28.138 Y673.068 I-3. J0.
N9770 G1 X19.138
N9775 G3 X16.138 Y670.068 I0. J-3.
N9780 G1 Y658.318
N9785 X7.038
N9790 G3 X1.038 Y652.318 I0. J-6.
N9795 G1 Y630.16
N9800 G2 X0.438 Y629.56 I-0.6 J0. F300.
N9805 G1 X-0.162
N9810 G18 G3 X-0.762 Z-17.4 I0. K0.6
N9815 G0 Z5.
N9820 X34.399 Y670.99
N9825 G1 Z-15.5 F150.33
N9830 Z-16.4
N9835 X34.392 Y670.989 Z-16.494
N9840 X34.371 Y670.983 Z-16.585
N9845 X34.336 Y670.975 Z-16.672
N9850 X34.288 Y670.963 Z-16.753
N9855 X34.229 Y670.948 Z-16.824
N9860 X34.159 Y670.931 Z-16.885
N9865 X34.081 Y670.912 Z-16.935
N9870 X33.997 Y670.891 Z-16.971
N9875 X33.908 Y670.869 Z-16.993
N9880 X33.817 Y670.847 Z-17.
N9885 X33.234 Y670.704 F300.
N9890 G17 G2 X32.508 Y671.143 I-0.143 J0.583
N9895 G3 X28.138 Y674.568 Z-17.209 I-4.37 J-1.075 F150.
N9900 G1 X19.138 Z-17.523
N9905 G3 X14.638 Y670.068 Z-17.77 I0. J-4.5
N9910 G1 Y659.818 Z-18.128
N9915 X7.038 Z-18.393
N9920 G3 X-0.462 Y652.318 Z-18.805 I0. J-7.5
N9925 G1 Y632.41 Z-19.5
N9930 Y612.818 F650.
N9935 G3 X7.038 Y605.318 I7.5 J0.
N9940 G1 X14.638
N9945 Y595.068
N9950 G3 X19.138 Y590.568 I4.5 J0.
N9955 G1 X28.138
N9960 G3 X32.638 Y595.068 I0. J4.5
N9965 G1 Y617.468
N9970 G3 X28.138 Y621.968 I-4.5 J0.
N9975 G1 X18.538
N9980 Y643.168
N9985 X28.138
N9990 G3 X32.638 Y647.668 I0. J4.5
N9995 G1 Y670.068
N10000 G3 X28.138 Y674.568 I-4.5 J0.
N10005 G1 X19.138
N10010 G3 X14.638 Y670.068 I0. J-4.5
N10015 G1 Y659.818
N10020 X7.038
N10025 G3 X-0.462 Y652.318 I0. J-7.5
N10030 G1 Y632.41
N10035 G3 X0.288 Y631.285 I1.219 J0.
N10040 G2 X1.038 Y630.16 I-0.469 J-1.125
N10045 G1 Y612.818
N10050 G3 X7.038 Y606.818 I6. J0.
N10055 G1 X16.138
N10060 Y595.068
N10065 G3 X19.138 Y592.068 I3. J0.
N10070 G1 X28.138
N10075 G3 X31.138 Y595.068 I0. J3.
N10080 G1 Y617.152
N10085 Y617.468
N10090 G3 X28.138 Y620.468 I-3. J0.
N10095 G1 X17.038
N10100 Y644.668
N10105 X28.138
N10110 G3 X31.138 Y647.668 I0. J3.
N10115 G1 Y670.068
N10120 G3 X28.138 Y673.068 I-3. J0.
N10125 G1 X19.138
N10130 G3 X16.138 Y670.068 I0. J-3.
N10135 G1 Y658.318
N10140 X7.038
N10145 G3 X1.038 Y652.318 I0. J-6.
N10150 G1 Y630.16
N10155 G2 X0.438 Y629.56 I-0.6 J0. F300.
N10160 G1 X-0.162
N10165 G18 G3 X-0.762 Z-18.9 I0. K0.6
N10170 G0 Z5.
N10175 X34.399 Y670.99
N10180 G1 Z-17. F150.33
N10185 Z-17.9
N10190 X34.392 Y670.989 Z-17.994
N10195 X34.371 Y670.983 Z-18.085
N10200 X34.336 Y670.975 Z-18.172
N10205 X34.288 Y670.963 Z-18.253
N10210 X34.229 Y670.948 Z-18.324
N10215 X34.159 Y670.931 Z-18.385
N10220 X34.081 Y670.912 Z-18.435
N10225 X33.997 Y670.891 Z-18.471
N10230 X33.908 Y670.869 Z-18.493
N10235 X33.817 Y670.847 Z-18.5
N10240 X33.234 Y670.704 F300.
N10245 G17 G2 X32.508 Y671.143 I-0.143 J0.583
N10250 G3 X28.138 Y674.568 Z-18.709 I-4.37 J-1.075 F150.
N10255 G1 X19.138 Z-19.023
N10260 G3 X14.638 Y670.068 Z-19.27 I0. J-4.5
N10265 G1 Y659.818 Z-19.628
N10270 X7.038 Z-19.893
N10275 G3 X-0.462 Y652.318 Z-20.305 I0. J-7.5
N10280 G1 Y632.41 Z-21.
N10285 Y612.818 F650.
N10290 G3 X7.038 Y605.318 I7.5 J0.
N10295 G1 X14.638
N10300 Y595.068
N10305 G3 X18.476 Y590.617 I4.5 J0.
N10310 G1 Z-20.5
N10315 G3 X19.138 Y590.568 I0.662 J4.451
N10320 G1 X28.138
N10325 G3 X30.476 Y591.223 I0. J4.5
N10330 G1 Z-21. F150.33
N10335 G3 X32.638 Y595.068 I-2.338 J3.845 F650.
N10340 G1 Y617.468
N10345 G3 X28.138 Y621.968 I-4.5 J0.
N10350 G1 X18.538
N10355 Y625.765
N10360 Z-20.5
N10365 Y637.765
N10370 Z-21. F150.33
N10375 Y643.168 F650.
N10380 X28.138
N10385 G3 X32.638 Y647.668 I0. J4.5
N10390 G1 Y670.068
N10395 G3 X29.32 Y674.41 I-4.5 J0.
N10400 G1 Z-20.5
N10405 G3 X28.138 Y674.568 I-1.182 J-4.342
N10410 G1 X19.138
N10415 G3 X17.32 Y674.184 I0. J-4.5
N10420 G1 Z-21. F150.33
N10425 G3 X14.638 Y670.068 I1.818 J-4.116 F650.
N10430 G1 Y659.818
N10435 X7.038
N10440 G3 X-0.462 Y652.318 I0. J-7.5
N10445 G1 Y632.41
N10450 G3 X0.288 Y631.285 I1.219 J0.
N10455 G2 X1.038 Y630.16 I-0.469 J-1.125
N10460 G1 Y612.818
N10465 G3 X7.038 Y606.818 I6. J0.
N10470 G1 X16.138
N10475 Y595.068
N10480 G3 X18.476 Y592.142 I3. J0.
N10485 G1 Z-20.5
N10490 G3 X19.138 Y592.068 I0.662 J2.926
N10495 G1 X28.138
N10500 G3 X30.476 Y593.188 I0. J3.
N10505 G1 Z-21. F150.33
N10510 G3 X31.138 Y595.068 I-2.338 J1.88 F650.
N10515 G1 Y617.468
N10520 G3 X28.138 Y620.468 I-3. J0.
N10525 G1 X17.038
N10530 Y625.765
N10535 Z-20.5
N10540 Y637.765
N10545 Z-21. F150.33
N10550 Y644.668 F650.
N10555 X28.138
N10560 G3 X31.138 Y647.668 I0. J3.
N10565 G1 Y670.068
N10570 G3 X29.32 Y672.825 I-3. J0.
N10575 G1 Z-20.5
N10580 G3 X28.138 Y673.068 I-1.182 J-2.757
N10585 G1 X19.138
N10590 G3 X17.32 Y672.454 I0. J-3.
N10595 G1 Z-21. F150.33
N10600 G3 X16.138 Y670.068 I1.818 J-2.386 F650.
N10605 G1 Y658.318
N10610 X7.038
N10615 G3 X1.038 Y652.318 I0. J-6.
N10620 G1 Y630.16
N10625 G2 X0.438 Y629.56 I-0.6 J0. F300.
N10630 G1 X-0.162
N10635 G18 G3 X-0.762 Z-20.4 I0. K0.6
N10640 G0 Z5.
N10645 X34.399 Y670.99
N10650 G1 Z-18.5 F150.33
N10655 Z-19.4
N10660 X34.392 Y670.989 Z-19.494
N10665 X34.371 Y670.983 Z-19.585
N10670 X34.336 Y670.975 Z-19.672
N10675 X34.288 Y670.963 Z-19.753
N10680 X34.229 Y670.948 Z-19.824
N10685 X34.159 Y670.931 Z-19.885
N10690 X34.081 Y670.912 Z-19.935
N10695 X33.997 Y670.891 Z-19.971
N10700 X33.908 Y670.869 Z-19.993
N10705 X33.817 Y670.847 Z-20.
N10710 X33.234 Y670.704 F300.
N10715 G17 G2 X32.508 Y671.143 I-0.143 J0.583
N10720 G3 X28.138 Y674.568 Z-20.209 I-4.37 J-1.075 F150.
N10725 G1 X19.803 Z-20.5
N10730 X19.138
N10735 G3 X17.32 Y674.184 I0. J-4.5
N10740 G1 Z-20.589 F150.33
N10745 G3 X14.638 Y670.068 Z-20.77 I1.818 J-4.116 F150.
N10750 G1 Y659.818 Z-21.128
N10755 X7.038 Z-21.393
N10760 G3 X-0.462 Y652.318 Z-21.805 I0. J-7.5
N10765 G1 Y632.41 Z-22.5
N10770 Y612.818 F650.
N10775 G3 X7.038 Y605.318 I7.5 J0.
N10780 G1 X14.638
N10785 Y595.068
N10790 G3 X18.476 Y590.617 I4.5 J0.
N10795 G1 Z-20.5
N10800 G3 X19.138 Y590.568 I0.662 J4.451
N10805 G1 X28.138
N10810 G3 X30.476 Y591.223 I0. J4.5
N10815 G1 Z-22.5 F150.33
N10820 G3 X32.638 Y595.068 I-2.338 J3.845 F650.
N10825 G1 Y617.468
N10830 G3 X28.138 Y621.968 I-4.5 J0.
N10835 G1 X18.538
N10840 Y625.765
N10845 Z-20.5
N10850 Y637.765
N10855 Z-22.5 F150.33
N10860 Y643.168 F650.
N10865 X28.138
N10870 G3 X32.638 Y647.668 I0. J4.5
N10875 G1 Y670.068
N10880 G3 X29.32 Y674.41 I-4.5 J0.
N10885 G1 Z-20.5
N10890 G3 X28.138 Y674.568 I-1.182 J-4.342
N10895 G1 X19.138
N10900 G3 X17.32 Y674.184 I0. J-4.5
N10905 G1 Z-22.5 F150.33
N10910 G3 X14.638 Y670.068 I1.818 J-4.116 F650.
N10915 G1 Y659.818
N10920 X7.038
N10925 G3 X-0.462 Y652.318 I0. J-7.5
N10930 G1 Y632.41
N10935 G3 X0.288 Y631.285 I1.219 J0.
N10940 G2 X1.038 Y630.16 I-0.469 J-1.125
N10945 G1 Y612.818
N10950 G3 X7.038 Y606.818 I6. J0.
N10955 G1 X16.138
N10960 Y595.068
N10965 G3 X18.476 Y592.142 I3. J0.
N10970 G1 Z-20.5
N10975 G3 X19.138 Y592.068 I0.662 J2.926
N10980 G1 X28.138
N10985 G3 X30.476 Y593.188 I0. J3.
N10990 G1 Z-22.5 F150.33
N10995 G3 X31.138 Y595.068 I-2.338 J1.88 F650.
N11000 G1 Y617.468
N11005 G3 X28.138 Y620.468 I-3. J0.
N11010 G1 X17.038
N11015 Y625.765
N11020 Z-20.5
N11025 Y637.765
N11030 Z-22.5 F150.33
N11035 Y644.668 F650.
N11040 X28.138
N11045 G3 X31.138 Y647.668 I0. J3.
N11050 G1 Y670.068
N11055 G3 X29.32 Y672.825 I-3. J0.
N11060 G1 Z-20.5
N11065 G3 X28.138 Y673.068 I-1.182 J-2.757
N11070 G1 X19.138
N11075 G3 X17.32 Y672.454 I0. J-3.
N11080 G1 Z-22.5 F150.33
N11085 G3 X16.138 Y670.068 I1.818 J-2.386 F650.
N11090 G1 Y658.318
N11095 X7.038
N11100 G3 X1.038 Y652.318 I0. J-6.
N11105 G1 Y630.16
N11110 G2 X0.438 Y629.56 I-0.6 J0. F300.
N11115 G1 X-0.162
N11120 G18 G3 X-0.762 Z-21.9 I0. K0.6
N11125 G0 Z15.
N11130 G17
N11135 G53 G0 Z0.
N11140 M30
%
