%
(5MM_HOLES)
(T3  D=5. CR=0. TAPER=118DEG - ZMIN=-24. - DRILL)
N10 G90 G94 G17 G91.1
N15 G21
N20 G53 G0 Z0.
(DRILL1)
N25 M9
N30 T3 M6
N35 S12000 M3
N40 G54
N45 G0 X1120. Y2420.
N50 G43 Z15. H3
N55 G0 Z5.
N60 G98 G81 X1120. Y2420. Z-24. R-1. F100.
N65 Y2220.
N70 Y2020.
N75 Y1820.
N80 Y1620.
N85 Y1420.
N90 Y1220.
N95 Y1020.
N100 Y820.
N105 Y620.
N110 Y420.
N115 Y220.
N120 Y20.
N125 X780.
N130 Y220.
N135 Y420.
N140 Y620.
N145 Y820.
N150 Y1020.
N155 Y1220.
N160 Y1420.
N165 Y1620.
N170 Y1820.
N175 Y2020.
N180 Y2220.
N185 Y2420.
N190 X440.
N195 Y2220.
N200 Y2020.
N205 Y1820.
N210 Y1620.
N215 Y1420.
N220 Y1220.
N225 Y1020.
N230 Y820.
N235 Y620.
N240 Y420.
N245 Y220.
N250 Y20.
N255 X100.
N260 Y220.
N265 Y420.
N270 Y620.
N275 Y820.
N280 Y1020.
N285 Y1220.
N290 Y1420.
N295 Y1620.
N300 Y1820.
N305 Y2020.
N310 Y2220.
N315 Y2420.
N320 G80
N325 G0 Z15.
N330 G53 Z0.
N335 M30
%
