(Exported by FreeCAD)
(Post Processor: linuxcnc_post)
(Output Time:2019-06-12 12:26:32.977882)
(begin preamble)
G17 G54 G40 G49 G80 G90
G21
(begin operation: T1: 6mm end mill003)
(machine: not set, mm/min)
(T1: 6mm end mill003)
M6 T1
M3 S18000
(finish operation: T1: 6mm end mill003)
(begin operation: TagDressup007)
(machine: not set, mm/min)
G0 Z15.000
G0 X171.322 Y190.524 Z15.000
G0 X171.322 Y190.524 Z10.000
G1 X171.322 Y190.524 Z0.000 F600.000
G2 X175.061 Y179.501 Z-0.000 I-22.309 J-13.714 F600.000
G1 X191.638 Y13.743 Z-0.000 F600.000
G2 X176.605 Y-2.998 Z-0.000 I-15.154 J-1.512 F600.000
G1 X0.000 Y-3.000 Z0.000 F600.000
G2 X-3.000 Y0.000 Z0.000 I0.000 J3.000 F600.000
G1 X-3.000 Y200.058 Z0.000 F600.000
G2 X0.001 Y203.058 Z0.000 I3.000 J0.000 F600.000
G1 X149.026 Y202.997 Z-0.000 F600.000
G2 X171.322 Y190.524 Z-0.000 I-0.013 J-26.186 F600.000
G1 X171.322 Y190.524 Z-2.000 F600.000
G2 X175.061 Y179.501 Z-2.000 I-22.309 J-13.714 F600.000
G1 X191.638 Y13.743 Z-2.000 F600.000
G2 X176.605 Y-2.998 Z-2.000 I-15.154 J-1.512 F600.000
G1 X0.000 Y-3.000 Z-2.000 F600.000
G2 X-3.000 Y0.000 Z-2.000 I0.000 J3.000 F600.000
G1 X-3.000 Y200.058 Z-2.000 F600.000
G2 X0.001 Y203.058 Z-2.000 I3.000 J0.000 F600.000
G1 X149.026 Y202.997 Z-2.000 F600.000
G2 X171.322 Y190.524 Z-2.000 I-0.013 J-26.186 F600.000
G1 X171.322 Y190.524 Z-4.000 F600.000
G2 X175.061 Y179.501 Z-4.000 I-22.309 J-13.714 F600.000
G1 X191.638 Y13.743 Z-4.000 F600.000
G2 X176.605 Y-2.998 Z-4.000 I-15.154 J-1.512 F600.000
G1 X0.000 Y-3.000 Z-4.000 F600.000
G2 X-3.000 Y0.000 Z-4.000 I0.000 J3.000 F600.000
G1 X-3.000 Y200.058 Z-4.000 F600.000
G2 X0.001 Y203.058 Z-4.000 I3.000 J0.000 F600.000
G1 X149.026 Y202.997 Z-4.000 F600.000
G2 X171.322 Y190.524 Z-4.000 I-0.013 J-26.186 F600.000
G1 X171.322 Y190.524 Z-6.000 F600.000
G2 X175.061 Y179.501 Z-6.000 I-22.309 J-13.714 F600.000
G1 X191.638 Y13.743 Z-6.000 F600.000
G2 X176.605 Y-2.998 Z-6.000 I-15.154 J-1.512 F600.000
G1 X0.000 Y-3.000 Z-6.000 F600.000
G2 X-3.000 Y0.000 Z-6.000 I0.000 J3.000 F600.000
G1 X-3.000 Y200.058 Z-6.000 F600.000
G2 X0.001 Y203.058 Z-6.000 I3.000 J0.000 F600.000
G1 X149.026 Y202.997 Z-6.000 F600.000
G2 X171.322 Y190.524 Z-6.000 I-0.013 J-26.186 F600.000
G1 X171.322 Y190.524 Z-8.000 F600.000
G2 X175.061 Y179.501 Z-8.000 I-22.309 J-13.714 F600.000
G1 X191.638 Y13.743 Z-8.000 F600.000
G2 X176.605 Y-2.998 Z-8.000 I-15.154 J-1.512 F600.000
G1 X0.000 Y-3.000 Z-8.000 F600.000
G2 X-3.000 Y0.000 Z-8.000 I0.000 J3.000 F600.000
G1 X-3.000 Y200.058 Z-8.000 F600.000
G2 X0.001 Y203.058 Z-8.000 I3.000 J0.000 F600.000
G1 X149.026 Y202.997 Z-8.000 F600.000
G2 X171.322 Y190.524 Z-8.000 I-0.013 J-26.186 F600.000
G1 X171.322 Y190.524 Z-10.000 F600.000
G2 X175.061 Y179.501 Z-10.000 I-22.309 J-13.714 F600.000
G1 X191.638 Y13.743 Z-10.000 F600.000
G2 X176.605 Y-2.998 Z-10.000 I-15.154 J-1.512 F600.000
G1 X0.000 Y-3.000 Z-10.000 F600.000
G2 X-3.000 Y0.000 Z-10.000 I0.000 J3.000 F600.000
G1 X-3.000 Y200.058 Z-10.000 F600.000
G2 X0.001 Y203.058 Z-10.000 I3.000 J0.000 F600.000
G1 X149.026 Y202.997 Z-10.000 F600.000
G2 X171.322 Y190.524 Z-10.000 I-0.013 J-26.186 F600.000
G1 X171.322 Y190.524 Z-12.000 F600.000
G2 X175.061 Y179.501 Z-12.000 I-22.309 J-13.714 F600.000
G1 X191.638 Y13.743 Z-12.000 F600.000
G2 X176.605 Y-2.998 Z-12.000 I-15.154 J-1.512 F600.000
G1 X0.000 Y-3.000 Z-12.000 F600.000
G2 X-3.000 Y0.000 Z-12.000 I0.000 J3.000 F600.000
G1 X-3.000 Y200.058 Z-12.000 F600.000
G2 X0.001 Y203.058 Z-12.000 I3.000 J0.000 F600.000
G1 X149.026 Y202.997 Z-12.000 F600.000
G2 X171.322 Y190.524 Z-12.000 I-0.013 J-26.186 F600.000
G1 X171.322 Y190.524 Z-14.000 F600.000
G2 X175.061 Y179.501 Z-14.000 I-22.309 J-13.714 F600.000
G1 X191.638 Y13.743 Z-14.000 F600.000
G2 X176.605 Y-2.998 Z-14.000 I-15.154 J-1.512 F600.000
G1 X0.000 Y-3.000 Z-14.000 F600.000
G2 X-3.000 Y0.000 Z-14.000 I0.000 J3.000 F600.000
G1 X-3.000 Y200.058 Z-14.000 F600.000
G2 X0.001 Y203.058 Z-14.000 I3.000 J0.000 F600.000
G1 X149.026 Y202.997 Z-14.000 F600.000
G2 X171.322 Y190.524 Z-14.000 I-0.013 J-26.186 F600.000
G1 X171.322 Y190.524 Z-16.000 F600.000
G2 X175.061 Y179.501 Z-16.000 I-22.309 J-13.714 F600.000
G1 X191.638 Y13.743 Z-16.000 F600.000
G2 X176.605 Y-2.998 Z-16.000 I-15.154 J-1.512 F600.000
G1 X0.000 Y-3.000 Z-16.000 F600.000
G2 X-3.000 Y0.000 Z-16.000 I0.000 J3.000 F600.000
G1 X-3.000 Y200.058 Z-16.000 F600.000
G2 X0.001 Y203.058 Z-16.000 I3.000 J0.000 F600.000
G1 X149.026 Y202.997 Z-16.000 F600.000
G2 X171.322 Y190.524 Z-16.000 I-0.013 J-26.186 F600.000
G1 X171.322 Y190.524 Z-18.000 F600.000
G2 X175.061 Y179.501 Z-18.000 I-22.309 J-13.714 F600.000
G1 X191.638 Y13.743 Z-18.000 F600.000
G2 X176.605 Y-2.998 Z-18.000 I-15.154 J-1.512 F600.000
G1 X0.000 Y-3.000 Z-18.000 F600.000
G2 X-3.000 Y0.000 Z-18.000 I0.000 J3.000 F600.000
G1 X-3.000 Y200.058 Z-18.000 F600.000
G2 X0.001 Y203.058 Z-18.000 I3.000 J0.000 F600.000
G1 X149.026 Y202.997 Z-18.000 F600.000
G2 X171.322 Y190.524 Z-18.000 I-0.013 J-26.186 F600.000
G1 X171.322 Y190.524 Z-20.000 F600.000
G2 X175.061 Y179.501 Z-20.000 I-22.309 J-13.714 F600.000
G1 X175.586 Y174.252 Z-20.000 F600.000
G1 X175.656 Y173.555 Z-19.300 F600.000
G1 X177.641 Y153.704 Z-19.300 F600.000
G1 X177.711 Y153.008 Z-20.000 F600.000
G1 X186.776 Y62.362 Z-20.000 F600.000
G1 X186.845 Y61.665 Z-19.300 F600.000
G1 X188.831 Y41.814 Z-19.300 F600.000
G1 X188.900 Y41.118 Z-20.000 F600.000
G1 X191.638 Y13.743 Z-20.000 F600.000
G2 X176.605 Y-2.998 Z-20.000 I-15.154 J-1.512 F600.000
G1 X98.977 Y-2.999 Z-20.000 F600.000
G1 X98.277 Y-2.999 Z-19.300 F600.000
G1 X78.327 Y-2.999 Z-19.300 F600.000
G1 X77.627 Y-2.999 Z-20.000 F600.000
G1 X0.000 Y-3.000 Z-20.000 F600.000
G2 X-3.000 Y0.000 Z-20.000 I0.000 J3.000 F600.000
G1 X-3.000 Y200.058 Z-20.000 F600.000
G2 X0.001 Y203.058 Z-20.000 I3.000 J0.000 F600.000
G1 X40.755 Y203.042 Z-20.000 F600.000
G1 X41.455 Y203.041 Z-19.300 F600.000
G1 X61.405 Y203.033 Z-19.300 F600.000
G1 X62.105 Y203.033 Z-20.000 F600.000
G1 X149.026 Y202.997 Z-20.000 F600.000
G2 X171.322 Y190.524 Z-20.000 I-0.013 J-26.186 F600.000
G1 X171.322 Y190.524 Z-22.000 F600.000
G2 X175.061 Y179.501 Z-22.000 I-22.309 J-13.714 F600.000
G1 X175.387 Y176.242 Z-22.000 F600.000
G1 X175.656 Y173.555 Z-19.300 F600.000
G1 X177.641 Y153.704 Z-19.300 F600.000
G1 X177.910 Y151.018 Z-22.000 F600.000
G1 X186.577 Y64.352 Z-22.000 F600.000
G1 X186.845 Y61.665 Z-19.300 F600.000
G1 X188.831 Y41.814 Z-19.300 F600.000
G1 X189.099 Y39.128 Z-22.000 F600.000
G1 X191.638 Y13.743 Z-22.000 F600.000
G2 X176.605 Y-2.998 Z-22.000 I-15.154 J-1.512 F600.000
G1 X100.977 Y-2.999 Z-22.000 F600.000
G1 X98.277 Y-2.999 Z-19.300 F600.000
G1 X78.327 Y-2.999 Z-19.300 F600.000
G1 X75.627 Y-2.999 Z-22.000 F600.000
G1 X0.000 Y-3.000 Z-22.000 F600.000
G2 X-3.000 Y0.000 Z-22.000 I0.000 J3.000 F600.000
G1 X-3.000 Y200.058 Z-22.000 F600.000
G2 X0.001 Y203.058 Z-22.000 I3.000 J0.000 F600.000
G1 X38.755 Y203.042 Z-22.000 F600.000
G1 X41.455 Y203.041 Z-19.300 F600.000
G1 X61.405 Y203.033 Z-19.300 F600.000
G1 X64.105 Y203.032 Z-22.000 F600.000
G1 X149.026 Y202.997 Z-22.000 F600.000
G2 X171.322 Y190.524 Z-22.000 I-0.013 J-26.186 F600.000
G1 X171.322 Y190.524 Z-22.300 F600.000
G2 X175.061 Y179.501 Z-22.300 I-22.309 J-13.714 F600.000
G1 X175.357 Y176.540 Z-22.300 F600.000
G1 X175.656 Y173.555 Z-19.300 F600.000
G1 X177.641 Y153.704 Z-19.300 F600.000
G1 X177.940 Y150.719 Z-22.300 F600.000
G1 X186.547 Y64.650 Z-22.300 F600.000
G1 X186.845 Y61.665 Z-19.300 F600.000
G1 X188.831 Y41.814 Z-19.300 F600.000
G1 X189.129 Y38.829 Z-22.300 F600.000
G1 X191.638 Y13.743 Z-22.300 F600.000
G2 X176.605 Y-2.998 Z-22.300 I-15.154 J-1.512 F600.000
G1 X101.277 Y-2.999 Z-22.300 F600.000
G1 X98.277 Y-2.999 Z-19.300 F600.000
G1 X78.327 Y-2.999 Z-19.300 F600.000
G1 X75.327 Y-2.999 Z-22.300 F600.000
G1 X0.000 Y-3.000 Z-22.300 F600.000
G2 X-3.000 Y0.000 Z-22.300 I0.000 J3.000 F600.000
G1 X-3.000 Y200.058 Z-22.300 F600.000
G2 X0.001 Y203.058 Z-22.300 I3.000 J0.000 F600.000
G1 X38.455 Y203.043 Z-22.300 F600.000
G1 X41.455 Y203.041 Z-19.300 F600.000
G1 X61.405 Y203.033 Z-19.300 F600.000
G1 X64.405 Y203.032 Z-22.300 F600.000
G1 X149.026 Y202.997 Z-22.300 F600.000
G2 X171.322 Y190.524 Z-22.300 I-0.013 J-26.186 F600.000
G0 X171.322 Y190.524 Z15.000
(finish operation: TagDressup007)
(begin postamble)
M05
G17 G54 G90 G80 G40
M2
