%
(CONTOUR_NEW)
(T1  D=6. CR=3. - ZMIN=-16. - BALL END MILL)
N10 G90 G94 G17 G91.1
N15 G21
N20 G53 G0 Z0.
(CONTOUR1)
N25 M9
N30 T1 M6
N35 S22000 M3
N40 G54
N45 G0 X30.984 Y69.186
N50 G43 Z44. H1
N55 G0 Z9.613
N60 G1 Z8.75 F500.
N65 G3 X30.006 Y68.664 I-0.381 J-0.464
N70 G1 X30.018 Y68.546 F1400.
N75 G3 X69.981 Y72.954 I19.982 J2.204
N80 X30.005 Y68.663 I-19.982 J-2.204
N85 G1 X30.006 Y68.664
N90 X30.008 Y68.642
N95 X30.01 Y68.62
N100 X30.014 Y68.576
N105 X30.026 Y68.49
N110 X30.05 Y68.316 Z8.749
N115 X30.075 Y68.151 Z8.747
N120 X30.101 Y67.987 Z8.746
N125 X30.129 Y67.813 Z8.743
N130 X30.161 Y67.641 Z8.74
N135 X30.196 Y67.478 Z8.737
N140 X30.233 Y67.315 Z8.733
N145 X30.27 Y67.152 Z8.729
N150 X30.307 Y66.99 Z8.725
N155 X30.35 Y66.82 Z8.72
N160 X30.398 Y66.652 Z8.715
N165 X30.444 Y66.491 Z8.709
N170 X30.491 Y66.331 Z8.704
N175 X30.538 Y66.167 Z8.698
N180 X30.588 Y66.004 Z8.692
N185 X30.642 Y65.843 Z8.686
N190 X30.697 Y65.681 Z8.68
N195 X30.75 Y65.523 Z8.674
N200 X30.804 Y65.365 Z8.668
N205 X30.859 Y65.201 Z8.662
N210 X30.921 Y65.04 Z8.656
N215 X30.981 Y64.884 Z8.65
N220 X31.04 Y64.729 Z8.645
N225 X31.1 Y64.572 Z8.639
N230 X31.16 Y64.416 Z8.633
N235 X31.227 Y64.259 Z8.627
N240 X31.294 Y64.102 Z8.621
N245 X31.36 Y63.948 Z8.615
N250 X31.426 Y63.795 Z8.609
N255 X31.493 Y63.638 Z8.603
N260 X31.566 Y63.484 Z8.597
N265 X31.638 Y63.334 Z8.591
N270 X31.71 Y63.183 Z8.586
N275 X31.782 Y63.033 Z8.58
N280 X31.854 Y62.882 Z8.574
N285 X31.931 Y62.732 Z8.568
N290 X32.01 Y62.583 Z8.562
N295 X32.089 Y62.435 Z8.556
N300 X32.167 Y62.288 Z8.551
N305 X32.245 Y62.139 Z8.545
N310 X32.327 Y61.992 Z8.539
N315 X32.411 Y61.848 Z8.534
N320 X32.494 Y61.703 Z8.529
N325 X32.576 Y61.558 Z8.524
N330 X32.659 Y61.413 Z8.52
N335 X32.743 Y61.269 Z8.516
N340 X32.831 Y61.127 Z8.512
N345 X32.917 Y60.984 Z8.509
N350 X33.004 Y60.842 Z8.506
N355 X33.089 Y60.699 Z8.504
N360 X33.176 Y60.557 Z8.502
N365 X33.267 Y60.417 Z8.501
N370 X33.357 Y60.277 Z8.5
N375 X33.4 Y60.209
N380 X33.422 Y60.175
N385 X33.443 Y60.141
N390 G3 X66.56 Y81.361 I16.558 J10.61
N395 X33.158 Y60.599 I-16.558 J-10.61
N400 G1 X33.443 Y60.141
N405 X33.466 Y60.104
N410 X33.489 Y60.068
N415 X33.536 Y59.995
N420 X33.631 Y59.85 Z8.499
N425 X33.728 Y59.714 Z8.497
N430 X33.825 Y59.579 Z8.496
N435 X33.923 Y59.444 Z8.493
N440 X34.021 Y59.309 Z8.491
N445 X34.124 Y59.171 Z8.487
N450 X34.233 Y59.036 Z8.484
N455 X34.338 Y58.907 Z8.48
N460 X34.444 Y58.778 Z8.475
N465 X34.551 Y58.648 Z8.47
N470 X34.66 Y58.518 Z8.465
N475 X34.774 Y58.392 Z8.46
N480 X34.889 Y58.267 Z8.454
N485 X35.001 Y58.143 Z8.448
N490 X35.114 Y58.02 Z8.443
N495 X35.23 Y57.894 Z8.437
N500 X35.351 Y57.772 Z8.431
N505 X35.468 Y57.654 Z8.425
N510 X35.586 Y57.536 Z8.419
N515 X35.704 Y57.416 Z8.413
N520 X35.823 Y57.297 Z8.407
N525 X35.947 Y57.182 Z8.401
N530 X36.072 Y57.067 Z8.395
N535 X36.194 Y56.954 Z8.39
N540 X36.316 Y56.841 Z8.384
N545 X36.441 Y56.725 Z8.378
N550 X36.571 Y56.615 Z8.372
N555 X36.698 Y56.507 Z8.366
N560 X36.824 Y56.399 Z8.36
N565 X36.952 Y56.291 Z8.354
N570 X37.079 Y56.183 Z8.349
N575 X37.212 Y56.079 Z8.343
N580 X37.345 Y55.975 Z8.337
N585 X37.476 Y55.872 Z8.331
N590 X37.608 Y55.769 Z8.325
N595 X37.74 Y55.666 Z8.319
N600 X37.877 Y55.568 Z8.313
N605 X38.013 Y55.471 Z8.307
N610 X38.148 Y55.373 Z8.302
N615 X38.284 Y55.276 Z8.296
N620 X38.42 Y55.179 Z8.29
N625 X38.559 Y55.086 Z8.285
N630 X38.699 Y54.994 Z8.28
N635 X38.838 Y54.902 Z8.275
N640 X38.976 Y54.809 Z8.271
N645 X39.115 Y54.716 Z8.267
N650 X39.257 Y54.628 Z8.263
N655 X39.399 Y54.541 Z8.26
N660 X39.54 Y54.453 Z8.257
N665 X39.681 Y54.364 Z8.255
N670 X39.822 Y54.276 Z8.253
N675 X39.966 Y54.192 Z8.251
N680 X40.111 Y54.108 Z8.25
N685 X40.195 Y54.059
N690 X40.237 Y54.034
N695 X40.28 Y54.01
N700 G3 X59.722 Y87.494 I9.721 J16.742
N705 X40.28 Y54.01 I-9.721 J-16.742
N710 G1 X40.316 Y53.988
N715 X40.353 Y53.967
N720 X40.426 Y53.924
N725 X40.574 Y53.839 Z8.249
N730 X40.723 Y53.762 Z8.248
N735 X40.873 Y53.684 Z8.246
N740 X41.021 Y53.609 Z8.243
N745 X41.169 Y53.533 Z8.241
N750 X41.323 Y53.456 Z8.237
N755 X41.479 Y53.386 Z8.234
N760 X41.631 Y53.318 Z8.23
N765 X41.784 Y53.251 Z8.225
N770 X41.939 Y53.182 Z8.221
N775 X42.095 Y53.115 Z8.215
N780 X42.252 Y53.055 Z8.21
N785 X42.408 Y52.994 Z8.204
N790 X42.564 Y52.935 Z8.199
N795 X42.72 Y52.875 Z8.193
N800 X42.879 Y52.815 Z8.187
N805 X43.041 Y52.761 Z8.181
N810 X43.199 Y52.708 Z8.175
N815 X43.357 Y52.655 Z8.169
N820 X43.518 Y52.601 Z8.163
N825 X43.679 Y52.548 Z8.157
N830 X43.839 Y52.502 Z8.152
N835 X43.999 Y52.456 Z8.146
N840 X44.159 Y52.41 Z8.14
N845 X44.32 Y52.364 Z8.134
N850 X44.482 Y52.318 Z8.128
N855 X44.647 Y52.278 Z8.122
N860 X44.809 Y52.239 Z8.117
N865 X44.971 Y52.199 Z8.111
N870 X45.134 Y52.159 Z8.105
N875 X45.298 Y52.121 Z8.099
N880 X45.462 Y52.089 Z8.093
N885 X45.625 Y52.056 Z8.087
N890 X45.789 Y52.024 Z8.081
N895 X45.952 Y51.991 Z8.076
N900 X46.117 Y51.96 Z8.07
N905 X46.283 Y51.934 Z8.064
N910 X46.448 Y51.909 Z8.058
N915 X46.613 Y51.883 Z8.052
N920 X46.778 Y51.858 Z8.046
N925 X46.943 Y51.834 Z8.041
N930 X47.109 Y51.815 Z8.035
N935 X47.275 Y51.796 Z8.03
N940 X47.441 Y51.776 Z8.026
N945 X47.606 Y51.757 Z8.021
N950 X47.772 Y51.739 Z8.017
N955 X47.938 Y51.726 Z8.013
N960 X48.105 Y51.712 Z8.01
N965 X48.271 Y51.698 Z8.007
N970 X48.437 Y51.684 Z8.005
N975 X48.603 Y51.672 Z8.003
N980 X48.769 Y51.664 Z8.001
N985 X48.936 Y51.656 Z8.
N990 X49.042 Y51.65
N995 X49.096 Y51.647
N1000 X49.149 Y51.644
N1005 G3 X50.851 Y89.859 I0.851 J19.107
N1010 X49.149 Y51.644 I-0.851 J-19.107
N1015 G1 X49.192 Y51.642
N1020 X49.234 Y51.64
N1025 X49.319 Y51.635
N1030 X49.489 Y51.632 Z7.999
N1035 X49.656 Y51.631 Z7.998
N1040 X49.823 Z7.996
N1045 X49.99 Z7.993
N1050 X50.156 Z7.991
N1055 X50.327 Y51.637 Z7.987
N1060 X50.497 Y51.646 Z7.984
N1065 X50.663 Y51.654 Z7.98
N1070 X50.83 Y51.663 Z7.975
N1075 X50.999 Y51.673 Z7.971
N1080 X51.169 Y51.688 Z7.966
N1085 X51.335 Y51.705 Z7.96
N1090 X51.5 Y51.722 Z7.955
N1095 X51.667 Y51.739 Z7.949
N1100 X51.834 Y51.756 Z7.943
N1105 X52.001 Y51.78 Z7.937
N1110 X52.168 Y51.805 Z7.931
N1115 X52.333 Y51.829 Z7.925
N1120 X52.497 Y51.853 Z7.92
N1125 X52.665 Y51.878 Z7.914
N1130 X52.831 Y51.909 Z7.908
N1135 X52.995 Y51.94 Z7.902
N1140 X53.158 Y51.972 Z7.896
N1145 X53.324 Y52.003 Z7.89
N1150 X53.49 Y52.035 Z7.884
N1155 X53.652 Y52.073 Z7.878
N1160 X53.976 Y52.15 Z7.867
N1165 X54.138 Y52.188 Z7.861
N1170 X54.302 Y52.227 Z7.855
N1175 X54.464 Y52.272 Z7.849
N1180 X54.624 Y52.317 Z7.843
N1185 X54.785 Y52.362 Z7.838
N1190 X54.946 Y52.408 Z7.832
N1195 X55.107 Y52.454 Z7.826
N1200 X55.266 Y52.506 Z7.82
N1205 X55.424 Y52.558 Z7.814
N1210 X55.583 Y52.61 Z7.808
N1215 X55.741 Y52.662 Z7.803
N1220 X55.899 Y52.715 Z7.797
N1225 X56.056 Y52.774 Z7.791
N1230 X56.212 Y52.833 Z7.786
N1235 X56.368 Y52.891 Z7.781
N1240 X56.525 Y52.949 Z7.776
N1245 X56.681 Y53.009 Z7.771
N1250 X56.834 Y53.073 Z7.767
N1255 X56.988 Y53.137 Z7.764
N1260 X57.142 Y53.2 Z7.76
N1265 X57.296 Y53.264 Z7.757
N1270 X57.449 Y53.329 Z7.755
N1275 X57.601 Y53.399 Z7.753
N1280 X57.752 Y53.468 Z7.751
N1285 X57.904 Y53.537 Z7.75
N1290 X58.007 Y53.583
N1295 X58.058 Y53.606
N1300 X58.109 Y53.63
N1305 Y53.631
N1310 G3 X41.891 Y87.87 I-8.109 J17.12
N1315 X58.033 Y53.595 I8.109 J-17.12
N1320 G1 X58.109 Y53.631
N1325 Y53.63
N1330 X58.128 Y53.638
N1335 X58.147 Y53.647
N1340 X58.185 Y53.666
N1345 X58.26 Y53.704
N1350 X58.409 Y53.779 Z7.749
N1355 X58.557 Y53.855 Z7.748
N1360 X58.706 Y53.931 Z7.746
N1365 X58.857 Y54.008 Z7.743
N1370 X59.004 Y54.092 Z7.741
N1375 X59.149 Y54.175 Z7.737
N1380 X59.293 Y54.258 Z7.734
N1385 X59.439 Y54.343 Z7.73
N1390 X59.586 Y54.428 Z7.725
N1395 X59.726 Y54.518 Z7.721
N1400 X59.866 Y54.608 Z7.716
N1405 X60.007 Y54.699 Z7.711
N1410 X60.147 Y54.789 Z7.705
N1415 X60.288 Y54.882 Z7.699
N1420 X60.426 Y54.979 Z7.693
N1425 X60.562 Y55.076 Z7.687
N1430 X60.698 Y55.172 Z7.682
N1435 X60.835 Y55.269 Z7.676
N1440 X60.971 Y55.368 Z7.67
N1445 X61.103 Y55.471 Z7.664
N1450 X61.235 Y55.573 Z7.658
N1455 X61.367 Y55.675 Z7.652
N1460 X61.498 Y55.777 Z7.646
N1465 X61.63 Y55.882 Z7.641
N1470 X61.758 Y55.991 Z7.635
N1475 X62.012 Y56.207 Z7.623
N1480 X62.141 Y56.315 Z7.617
N1485 X62.267 Y56.426 Z7.611
N1490 X62.389 Y56.539 Z7.605
N1495 X62.511 Y56.652 Z7.6
N1500 X62.634 Y56.765 Z7.594
N1505 X62.756 Y56.878 Z7.588
N1510 X62.877 Y56.995 Z7.582
N1515 X62.995 Y57.114 Z7.576
N1520 X63.112 Y57.232 Z7.57
N1525 X63.23 Y57.35 Z7.565
N1530 X63.348 Y57.469 Z7.559
N1535 X63.462 Y57.59 Z7.553
N1540 X63.574 Y57.714 Z7.547
N1545 X63.687 Y57.837 Z7.541
N1550 X63.799 Y57.96 Z7.536
N1555 X63.912 Y58.082 Z7.531
N1560 X64.021 Y58.209 Z7.526
N1565 X64.128 Y58.337 Z7.522
N1570 X64.236 Y58.464 Z7.518
N1575 X64.344 Y58.591 Z7.514
N1580 X64.452 Y58.718 Z7.511
N1585 X64.555 Y58.849 Z7.508
N1590 X64.658 Y58.98 Z7.505
N1595 X64.76 Y59.111 Z7.503
N1600 X64.863 Y59.242 Z7.502
N1605 X64.967 Y59.373 Z7.501
N1610 X65.037 Y59.469 Z7.5
N1615 X65.071 Y59.517
N1620 X65.106 Y59.565
N1625 G3 X34.891 Y81.936 I-15.108 J11.186
N1630 X65.106 Y59.565 I15.108 J-11.186
N1635 G1 X65.131 Y59.599
N1640 X65.155 Y59.633
N1645 X65.204 Y59.7
N1650 X65.302 Y59.835 Z7.499
N1655 X65.4 Y59.972 Z7.498
N1660 X65.495 Y60.111 Z7.496
N1665 X65.586 Y60.251 Z7.493
N1670 X65.678 Y60.391 Z7.491
N1675 X65.769 Y60.532 Z7.488
N1680 X65.86 Y60.672 Z7.484
N1685 X65.947 Y60.816 Z7.48
N1690 X66.031 Y60.961 Z7.476
N1695 X66.115 Y61.105 Z7.471
N1700 X66.199 Y61.249 Z7.466
N1705 X66.284 Y61.395 Z7.461
N1710 X66.363 Y61.544 Z7.455
N1715 X66.44 Y61.691 Z7.449
N1720 X66.517 Y61.839 Z7.443
N1725 X66.595 Y61.987 Z7.438
N1730 X66.672 Y62.136 Z7.432
N1735 X66.743 Y62.287 Z7.426
N1740 X66.815 Y62.439 Z7.42
N1745 X66.885 Y62.59 Z7.414
N1750 X66.956 Y62.741 Z7.408
N1755 X67.027 Y62.893 Z7.402
N1760 X67.092 Y63.048 Z7.397
N1765 X67.156 Y63.202 Z7.391
N1770 X67.22 Y63.356 Z7.385
N1775 X67.285 Y63.51 Z7.379
N1780 X67.348 Y63.666 Z7.373
N1785 X67.405 Y63.822 Z7.367
N1790 X67.463 Y63.979 Z7.362
N1795 X67.52 Y64.135 Z7.356
N1800 X67.578 Y64.292 Z7.35
N1805 X67.633 Y64.45 Z7.344
N1810 X67.684 Y64.609 Z7.338
N1815 X67.735 Y64.767 Z7.332
N1820 X67.786 Y64.926 Z7.327
N1825 X67.837 Y65.085 Z7.321
N1830 X67.884 Y65.246 Z7.315
N1835 X67.928 Y65.406 Z7.309
N1840 X67.972 Y65.567 Z7.303
N1845 X68.016 Y65.728 Z7.297
N1850 X68.06 Y65.889 Z7.292
N1855 X68.1 Y66.051 Z7.286
N1860 X68.137 Y66.213 Z7.281
N1865 X68.175 Y66.376 Z7.276
N1870 X68.212 Y66.538 Z7.272
N1875 X68.25 Y66.7 Z7.268
N1880 X68.282 Y66.864 Z7.264
N1885 X68.313 Y67.028 Z7.261
N1890 X68.344 Y67.191 Z7.258
N1895 X68.376 Y67.355 Z7.255
N1900 X68.407 Y67.519 Z7.253
N1905 X68.432 Y67.683 Z7.252
N1910 X68.457 Y67.848 Z7.251
N1915 X68.475 Y67.969 Z7.25
N1920 X68.485 Y68.03
N1925 X68.494 Y68.091
N1930 G3 X31.503 Y73.41 I-18.495 J2.66
N1935 X68.494 Y68.091 I18.495 J-2.66
N1940 G1 X68.5 Y68.132
N1945 X68.506 Y68.174
N1950 X68.519 Y68.257
N1955 X68.54 Y68.424 Z7.249
N1960 X68.558 Y68.59 Z7.248
N1965 X68.575 Y68.755 Z7.246
N1970 X68.592 Y68.922 Z7.243
N1975 X68.609 Y69.088 Z7.241
N1980 X68.621 Y69.255 Z7.238
N1985 X68.63 Y69.423 Z7.234
N1990 X68.64 Y69.589 Z7.23
N1995 X68.649 Y69.756 Z7.226
N2000 X68.658 Y69.923 Z7.221
N2005 X68.66 Y70.092 Z7.216
N2010 X68.662 Y70.258 Z7.211
N2015 X68.664 Y70.425 Z7.205
N2020 X68.665 Y70.593 Z7.199
N2025 X68.666 Y70.761 Z7.193
N2030 X68.66 Y70.927 Z7.188
N2035 X68.655 Y71.094 Z7.182
N2040 X68.649 Y71.26 Z7.176
N2045 X68.643 Y71.427 Z7.17
N2050 X68.636 Y71.594 Z7.164
N2055 X68.623 Y71.762 Z7.158
N2060 X68.61 Y71.928 Z7.153
N2065 X68.597 Y72.094 Z7.147
N2070 X68.584 Y72.261 Z7.141
N2075 X68.569 Y72.427 Z7.135
N2080 X68.529 Y72.758 Z7.123
N2085 X68.509 Y72.924 Z7.118
N2090 X68.489 Y73.089 Z7.112
N2095 X68.465 Y73.255 Z7.106
N2100 X68.438 Y73.42 Z7.1
N2105 X68.411 Y73.584 Z7.094
N2110 X68.384 Y73.749 Z7.088
N2115 X68.357 Y73.914 Z7.083
N2120 X68.325 Y74.078 Z7.077
N2125 X68.291 Y74.241 Z7.071
N2130 X68.257 Y74.404 Z7.065
N2135 X68.223 Y74.567 Z7.059
N2140 X68.188 Y74.73 Z7.053
N2145 X68.148 Y74.892 Z7.048
N2150 X68.107 Y75.054 Z7.042
N2155 X68.066 Y75.215 Z7.036
N2160 X68.026 Y75.377 Z7.031
N2165 X67.985 Y75.538 Z7.027
N2170 X67.937 Y75.698 Z7.022
N2175 X67.89 Y75.858 Z7.018
N2180 X67.842 Y76.018 Z7.014
N2185 X67.795 Y76.177 Z7.011
N2190 X67.747 Y76.337 Z7.008
N2195 X67.693 Y76.494 Z7.005
N2200 X67.639 Y76.652 Z7.003
N2205 X67.585 Y76.81 Z7.002
N2210 X67.532 Y76.968 Z7.001
N2215 X67.491 Y77.086 Z7.
N2220 X67.468 Y77.145
N2225 X67.446 Y77.203
N2230 G3 X32.553 Y64.296 I-17.446 J-6.453
N2235 X67.446 Y77.203 I17.446 J6.453
N2240 G1 X67.431 Y77.242
N2245 X67.416 Y77.281
N2250 X67.386 Y77.359
N2255 X67.326 Y77.514 Z6.999
N2260 X67.265 Y77.67 Z6.998
N2265 X67.204 Y77.826 Z6.996
N2270 X67.137 Y77.979 Z6.993
N2275 X67.069 Y78.131 Z6.991
N2280 X67.002 Y78.284 Z6.988
N2285 X66.934 Y78.436 Z6.984
N2290 X66.865 Y78.589 Z6.98
N2295 X66.79 Y78.739 Z6.976
N2300 X66.716 Y78.888 Z6.971
N2305 X66.641 Y79.037 Z6.966
N2310 X66.566 Y79.187 Z6.961
N2315 X66.489 Y79.335 Z6.955
N2320 X66.408 Y79.481 Z6.949
N2325 X66.327 Y79.627 Z6.944
N2330 X66.246 Y79.773 Z6.938
N2335 X66.165 Y79.919 Z6.932
N2340 X66.08 Y80.063 Z6.926
N2345 X65.993 Y80.205 Z6.92
N2350 X65.905 Y80.347 Z6.914
N2355 X65.818 Y80.489 Z6.909
N2360 X65.731 Y80.632 Z6.903
N2365 X65.639 Y80.771 Z6.897
N2370 X65.546 Y80.909 Z6.891
N2375 X65.453 Y81.048 Z6.885
N2380 X65.266 Y81.325 Z6.874
N2385 X65.167 Y81.459 Z6.868
N2390 X65.068 Y81.593 Z6.862
N2395 X64.969 Y81.727 Z6.856
N2400 X64.87 Y81.861 Z6.85
N2405 X64.771 Y81.995 Z6.844
N2410 X64.666 Y82.125 Z6.839
N2415 X64.561 Y82.255 Z6.833
N2420 X64.456 Y82.384 Z6.827
N2425 X64.352 Y82.514 Z6.821
N2430 X64.245 Y82.643 Z6.815
N2435 X64.135 Y82.768 Z6.809
N2440 X64.025 Y82.893 Z6.804
N2445 X63.915 Y83.018 Z6.798
N2450 X63.805 Y83.143 Z6.792
N2455 X63.692 Y83.266 Z6.787
N2460 X63.577 Y83.386 Z6.782
N2465 X63.462 Y83.507 Z6.777
N2470 X63.347 Y83.627 Z6.772
N2475 X63.231 Y83.747 Z6.768
N2480 X63.113 Y83.865 Z6.764
N2485 X62.993 Y83.98 Z6.761
N2490 X62.873 Y84.096 Z6.758
N2495 X62.753 Y84.211 Z6.755
N2500 X62.633 Y84.327 Z6.753
N2505 X62.509 Y84.438 Z6.752
N2510 X62.384 Y84.549 Z6.751
N2515 X62.288 Y84.634 Z6.75
N2520 X62.239 Y84.677
N2525 X62.191 Y84.72
N2530 G3 X37.807 Y56.777 I-12.192 J-13.971
N2535 X62.191 Y84.72 I12.192 J13.971
N2540 G1 X62.16 Y84.748
N2545 X62.128 Y84.776
N2550 X62.066 Y84.831
N2555 X61.938 Y84.939 Z6.749
N2560 X61.809 Y85.044 Z6.748
N2565 X61.679 Y85.149 Z6.746
N2570 X61.55 Y85.254 Z6.743
N2575 X61.42 Y85.358 Z6.741
N2580 X61.287 Y85.459 Z6.738
N2585 X61.152 Y85.559 Z6.734
N2590 X61.018 Y85.658 Z6.73
N2595 X60.884 Y85.756 Z6.726
N2600 X60.749 Y85.855 Z6.721
N2605 X60.611 Y85.949 Z6.716
N2610 X60.472 Y86.042 Z6.711
N2615 X60.334 Y86.135 Z6.705
N2620 X60.195 Y86.228 Z6.7
N2625 X60.056 Y86.32 Z6.694
N2630 X59.914 Y86.407 Z6.688
N2635 X59.771 Y86.493 Z6.682
N2640 X59.629 Y86.58 Z6.676
N2645 X59.487 Y86.667 Z6.67
N2650 X59.343 Y86.752 Z6.665
N2655 X59.197 Y86.833 Z6.659
N2660 X59.051 Y86.913 Z6.653
N2665 X58.905 Y86.993 Z6.647
N2670 X58.759 Y87.074 Z6.641
N2675 X58.611 Y87.152 Z6.635
N2680 X58.313 Y87.3 Z6.624
N2685 X58.015 Y87.448 Z6.612
N2690 X57.863 Y87.518 Z6.606
N2695 X57.711 Y87.586 Z6.6
N2700 X57.558 Y87.654 Z6.595
N2705 X57.406 Y87.721 Z6.589
N2710 X57.254 Y87.789 Z6.583
N2715 X57.099 Y87.852 Z6.577
N2720 X56.944 Y87.913 Z6.571
N2725 X56.789 Y87.974 Z6.566
N2730 X56.634 Y88.035 Z6.56
N2735 X56.479 Y88.096 Z6.554
N2740 X56.321 Y88.15 Z6.548
N2745 X56.164 Y88.204 Z6.542
N2750 X56.006 Y88.259 Z6.537
N2755 X55.849 Y88.313 Z6.532
N2760 X55.691 Y88.366 Z6.527
N2765 X55.531 Y88.414 Z6.522
N2770 X55.372 Y88.462 Z6.518
N2775 X55.212 Y88.509 Z6.514
N2780 X55.052 Y88.557 Z6.511
N2785 X54.892 Y88.602 Z6.508
N2790 X54.731 Y88.643 Z6.505
N2795 X54.569 Y88.684 Z6.503
N2800 X54.408 Y88.725 Z6.502
N2805 X54.246 Y88.766 Z6.501
N2810 X54.118 Y88.796 Z6.5
N2815 X54.053 Y88.809
N2820 X53.989 Y88.823
N2825 G3 X46.01 Y52.675 I-3.989 J-18.074
N2830 X53.989 Y88.823 I3.989 J18.074
N2835 G1 X53.948 Y88.831
N2840 X53.907 Y88.84
N2845 X53.826 Y88.857
N2850 X53.663 Y88.891 Z6.499
N2855 X53.5 Y88.925 Z6.498
N2860 X53.336 Y88.956 Z6.496
N2865 X53.171 Y88.983 Z6.494
N2870 X53.007 Y89.01 Z6.491
N2875 X52.842 Y89.036 Z6.488
N2880 X52.678 Y89.063 Z6.484
N2885 X52.513 Y89.086 Z6.48
N2890 X52.347 Y89.105 Z6.476
N2895 X52.182 Y89.125 Z6.471
N2900 X52.016 Y89.144 Z6.466
N2905 X51.851 Y89.164 Z6.461
N2910 X51.684 Y89.178 Z6.455
N2915 X51.518 Y89.19 Z6.45
N2920 X51.352 Y89.202 Z6.444
N2925 X51.186 Y89.215 Z6.438
N2930 X51.02 Y89.227 Z6.432
N2935 X50.853 Y89.233 Z6.426
N2940 X50.687 Y89.238 Z6.42
N2945 X50.52 Y89.243 Z6.415
N2950 X50.354 Y89.248 Z6.409
N2955 X50.187 Y89.252 Z6.403
N2960 X50.02 Y89.25 Z6.397
N2965 X49.854 Y89.248 Z6.391
N2970 X49.687 Y89.246 Z6.386
N2975 X49.52 Y89.244 Z6.38
N2980 X49.354 Y89.24 Z6.374
N2985 X49.188 Y89.231 Z6.368
N2990 X49.021 Y89.221 Z6.362
N2995 X48.855 Y89.212 Z6.356
N3000 X48.689 Y89.203 Z6.351
N3005 X48.522 Y89.19 Z6.345
N3010 X48.357 Y89.174 Z6.339
N3015 X48.191 Y89.158 Z6.333
N3020 X48.025 Y89.141 Z6.327
N3025 X47.859 Y89.125 Z6.321
N3030 X47.694 Y89.104 Z6.316
N3035 X47.529 Y89.08 Z6.31
N3040 X47.364 Y89.057 Z6.304
N3045 X47.199 Y89.033 Z6.298
N3050 X47.034 Y89.01 Z6.292
N3055 X46.87 Y88.98 Z6.287
N3060 X46.707 Y88.95 Z6.282
N3065 X46.543 Y88.919 Z6.277
N3070 X46.379 Y88.889 Z6.273
N3075 X46.215 Y88.858 Z6.268
N3080 X46.053 Y88.82 Z6.265
N3085 X45.891 Y88.783 Z6.261
N3090 X45.729 Y88.745 Z6.258
N3095 X45.566 Y88.708 Z6.256
N3100 X45.404 Y88.669 Z6.253
N3105 X45.244 Y88.624 Z6.252
N3110 X45.083 Y88.58 Z6.251
N3115 X44.953 Y88.543 Z6.25
N3120 X44.888 Y88.525
N3125 X44.823 Y88.507
N3130 G3 X55.177 Y52.991 I5.177 J-17.758
N3135 X44.823 Y88.507 I-5.177 J17.758
N3140 G1 X44.783 Y88.496
N3145 X44.743 Y88.485
N3150 X44.663 Y88.463
N3155 X44.504 Y88.411 Z6.249
N3160 X44.346 Y88.36 Z6.248
N3165 X44.188 Y88.308 Z6.246
N3170 X44.029 Y88.257 Z6.244
N3175 X43.871 Y88.204 Z6.241
N3180 X43.715 Y88.146 Z6.238
N3185 X43.559 Y88.087 Z6.234
N3190 X43.403 Y88.029 Z6.23
N3195 X43.247 Y87.971 Z6.226
N3200 X43.092 Y87.91 Z6.221
N3205 X42.939 Y87.845 Z6.216
N3210 X42.785 Y87.78 Z6.211
N3215 X42.632 Y87.715 Z6.205
N3220 X42.478 Y87.65 Z6.2
N3225 X42.327 Y87.581 Z6.194
N3230 X42.176 Y87.509 Z6.188
N3235 X42.026 Y87.438 Z6.182
N3240 X41.875 Y87.366 Z6.176
N3245 X41.725 Y87.295 Z6.17
N3250 X41.577 Y87.218 Z6.165
N3255 X41.43 Y87.14 Z6.159
N3260 X41.283 Y87.062 Z6.153
N3265 X41.136 Y86.984 Z6.147
N3270 X40.988 Y86.906 Z6.141
N3275 X40.845 Y86.822 Z6.136
N3280 X40.414 Y86.569 Z6.118
N3285 X40.27 Y86.483 Z6.112
N3290 X40.131 Y86.393 Z6.106
N3295 X39.991 Y86.303 Z6.101
N3300 X39.851 Y86.212 Z6.095
N3305 X39.711 Y86.122 Z6.089
N3310 X39.572 Y86.029 Z6.083
N3315 X39.437 Y85.933 Z6.077
N3320 X39.301 Y85.836 Z6.072
N3325 X39.165 Y85.74 Z6.066
N3330 X39.029 Y85.643 Z6.06
N3335 X38.896 Y85.544 Z6.054
N3340 X38.764 Y85.442 Z6.048
N3345 X38.633 Y85.339 Z6.043
N3350 X38.501 Y85.237 Z6.037
N3355 X38.37 Y85.135 Z6.032
N3360 X38.241 Y85.029 Z6.027
N3365 X38.114 Y84.921 Z6.023
N3370 X37.987 Y84.813 Z6.018
N3375 X37.86 Y84.705 Z6.015
N3380 X37.733 Y84.597 Z6.011
N3385 X37.611 Y84.484 Z6.008
N3390 X37.489 Y84.371 Z6.006
N3395 X37.366 Y84.258 Z6.003
N3400 X37.244 Y84.145 Z6.002
N3405 X37.123 Y84.031 Z6.001
N3410 X37.027 Y83.934 Z6.
N3415 X36.979 Y83.886
N3420 X36.931 Y83.837
N3425 G3 X63.071 Y57.66 I13.07 J-13.089
N3430 X36.931 Y83.838 I-13.07 J13.089
N3435 G1 Y83.837
N3440 X36.902 Y83.808
N3445 X36.873 Y83.778
N3450 X36.814 Y83.719
N3455 X36.697 Y83.601 Z5.999
N3460 X36.58 Y83.482 Z5.998
N3465 X36.467 Y83.359 Z5.996
N3470 X36.355 Y83.236 Z5.994
N3475 X36.243 Y83.112 Z5.991
N3480 X36.132 Y82.989 Z5.988
N3485 X36.02 Y82.865 Z5.984
N3490 X35.914 Y82.737 Z5.98
N3495 X35.807 Y82.609 Z5.976
N3500 X35.701 Y82.481 Z5.971
N3505 X35.594 Y82.353 Z5.966
N3510 X35.489 Y82.223 Z5.961
N3515 X35.389 Y82.091 Z5.955
N3520 X35.288 Y81.958 Z5.95
N3525 X35.187 Y81.825 Z5.944
N3530 X35.086 Y81.693 Z5.938
N3535 X34.988 Y81.558 Z5.932
N3540 X34.893 Y81.421 Z5.926
N3545 X34.798 Y81.284 Z5.92
N3550 X34.703 Y81.147 Z5.915
N3555 X34.608 Y81.011 Z5.909
N3560 X34.517 Y80.871 Z5.903
N3565 X34.428 Y80.73 Z5.897
N3570 X34.339 Y80.589 Z5.891
N3575 X34.25 Y80.449 Z5.886
N3580 X34.162 Y80.308 Z5.88
N3585 X34.078 Y80.164 Z5.874
N3590 X33.83 Y79.73 Z5.856
N3595 X33.747 Y79.585 Z5.851
N3600 X33.671 Y79.437 Z5.845
N3605 X33.594 Y79.289 Z5.839
N3610 X33.518 Y79.141 Z5.833
N3615 X33.441 Y78.993 Z5.827
N3620 X33.366 Y78.844 Z5.822
N3625 X33.296 Y78.693 Z5.816
N3630 X33.226 Y78.542 Z5.81
N3635 X33.157 Y78.391 Z5.804
N3640 X33.087 Y78.24 Z5.798
N3645 X33.019 Y78.087 Z5.793
N3650 X32.956 Y77.933 Z5.787
N3655 X32.893 Y77.779 Z5.782
N3660 X32.829 Y77.625 Z5.777
N3665 X32.766 Y77.471 Z5.773
N3670 X32.707 Y77.315 Z5.768
N3675 X32.65 Y77.158 Z5.765
N3680 X32.594 Y77.002 Z5.761
N3685 X32.537 Y76.845 Z5.758
N3690 X32.48 Y76.688 Z5.756
N3695 X32.429 Y76.53 Z5.753
N3700 X32.38 Y76.371 Z5.752
N3705 X32.33 Y76.212 Z5.751
N3710 X32.289 Y76.082 Z5.75
N3715 X32.269 Y76.017
N3720 X32.248 Y75.952
N3725 G3 X67.752 Y65.548 I17.752 J-5.202
N3730 X32.249 Y75.952 I-17.751 J5.202
N3735 G1 X32.248
N3740 X32.236 Y75.913
N3745 X32.224 Y75.873
N3750 X32.203 Y75.792
N3755 X32.16 Y75.631 Z5.749
N3760 X32.117 Y75.47 Z5.748
N3765 X32.075 Y75.309 Z5.746
N3770 X32.032 Y75.148 Z5.744
N3775 X31.995 Y74.986 Z5.741
N3780 X31.959 Y74.823 Z5.738
N3785 X31.923 Y74.66 Z5.734
N3790 X31.887 Y74.498 Z5.73
N3795 X31.851 Y74.335 Z5.726
N3800 X31.823 Y74.171 Z5.721
N3805 X31.794 Y74.007 Z5.716
N3810 X31.765 Y73.843 Z5.711
N3815 X31.736 Y73.679 Z5.705
N3820 X31.709 Y73.514 Z5.7
N3825 X31.687 Y73.349 Z5.694
N3830 X31.666 Y73.184 Z5.688
N3835 X31.644 Y73.019 Z5.682
N3840 X31.623 Y72.853 Z5.676
N3845 X31.604 Y72.688 Z5.67
N3850 X31.589 Y72.522 Z5.665
N3855 X31.575 Y72.356 Z5.659
N3860 X31.56 Y72.19 Z5.653
N3865 X31.546 Y72.024 Z5.647
N3870 X31.536 Y71.858 Z5.641
N3875 X31.528 Y71.691 Z5.636
N3880 X31.507 Y71.192 Z5.618
N3885 X31.505 Y71.026 Z5.612
N3890 Y70.859 Z5.606
N3895 Y70.692 Z5.601
N3900 Y70.526 Z5.595
N3905 Y70.359 Z5.589
N3910 X31.512 Y70.193 Z5.583
N3915 X31.519 Y70.026 Z5.577
N3920 X31.526 Y69.86 Z5.572
N3925 X31.533 Y69.693 Z5.566
N3930 X31.542 Y69.527 Z5.56
N3935 X31.556 Y69.361 Z5.554
N3940 X31.57 Y69.195 Z5.548
N3945 X31.585 Y69.029 Z5.543
N3950 X31.599 Y68.863 Z5.537
N3955 X31.616 Y68.697 Z5.532
N3960 X31.638 Y68.532 Z5.527
N3965 X31.659 Y68.367 Z5.523
N3970 X31.681 Y68.202 Z5.518
N3975 X31.702 Y68.037 Z5.515
N3980 X31.728 Y67.872 Z5.511
N3985 X31.756 Y67.708 Z5.508
N3990 X31.785 Y67.544 Z5.506
N3995 X31.814 Y67.38 Z5.503
N4000 X31.842 Y67.216 Z5.502
N4005 X31.876 Y67.053 Z5.501
N4010 X31.905 Y66.92 Z5.5
N4015 X31.92 Y66.853
N4020 X31.935 Y66.787
N4025 G3 X68.069 Y74.714 I18.067 J3.964
N4030 X31.935 Y66.787 I-18.067 J-3.964
N4035 G1 X31.944 Y66.746
N4040 X31.952 Y66.706
N4045 X31.97 Y66.624
N4050 X32.006 Y66.462 Z5.499
N4055 X32.046 Y66.3 Z5.498
N4060 X32.088 Y66.139 Z5.496
N4065 X32.131 Y65.978 Z5.494
N4070 X32.174 Y65.817 Z5.491
N4075 X32.217 Y65.656 Z5.488
N4080 X32.265 Y65.496 Z5.484
N4085 X32.314 Y65.337 Z5.48
N4090 X32.364 Y65.178 Z5.476
N4095 X32.414 Y65.019 Z5.471
N4100 X32.464 Y64.86 Z5.466
N4105 X32.52 Y64.703 Z5.461
N4110 X32.576 Y64.547 Z5.455
N4115 X32.633 Y64.39 Z5.45
N4120 X32.689 Y64.233 Z5.444
N4125 X32.747 Y64.077 Z5.438
N4130 X32.81 Y63.923 Z5.432
N4135 X32.873 Y63.769 Z5.426
N4140 X32.937 Y63.614 Z5.42
N4145 X33. Y63.46 Z5.415
N4150 X33.065 Y63.307 Z5.409
N4155 X33.135 Y63.156 Z5.403
N4160 X33.205 Y63.005 Z5.397
N4165 X33.275 Y62.854 Z5.391
N4170 X33.345 Y62.702 Z5.386
N4175 X33.418 Y62.553 Z5.38
N4180 X33.723 Y61.961 Z5.356
N4185 X33.804 Y61.815 Z5.351
N4190 X33.887 Y61.67 Z5.345
N4195 X33.969 Y61.526 Z5.339
N4200 X34.052 Y61.381 Z5.333
N4205 X34.135 Y61.236 Z5.327
N4210 X34.223 Y61.095 Z5.322
N4215 X34.312 Y60.954 Z5.316
N4220 X34.401 Y60.813 Z5.31
N4225 X34.49 Y60.672 Z5.304
N4230 X34.579 Y60.532 Z5.298
N4235 X34.674 Y60.395 Z5.293
N4240 X34.769 Y60.258 Z5.287
N4245 X34.864 Y60.121 Z5.282
N4250 X34.959 Y59.984 Z5.277
N4255 X35.055 Y59.848 Z5.273
N4260 X35.156 Y59.716 Z5.268
N4265 X35.257 Y59.583 Z5.265
N4270 X35.358 Y59.45 Z5.261
N4275 X35.458 Y59.318 Z5.258
N4280 X35.561 Y59.187 Z5.256
N4285 X35.668 Y59.059 Z5.253
N4290 X35.774 Y58.931 Z5.252
N4295 X35.881 Y58.803 Z5.251
N4300 X35.968 Y58.698 Z5.25
N4305 X36.011 Y58.646
N4310 X36.033 Y58.62
N4315 X36.056 Y58.594
N4320 G3 X63.943 Y82.905 I13.944 J12.155
N4325 X36.028 Y58.626 I-13.944 J-12.155
N4330 G1 X36.056 Y58.594
N4335 X36.084 Y58.563
N4340 X36.112 Y58.533
N4345 X36.168 Y58.471
N4350 X36.28 Y58.348 Z5.249
N4355 X36.392 Y58.224 Z5.248
N4360 X36.504 Y58.101 Z5.246
N4365 X36.618 Y57.979 Z5.244
N4370 X36.735 Y57.861 Z5.241
N4375 X36.852 Y57.743 Z5.238
N4380 X36.969 Y57.624 Z5.234
N4385 X37.086 Y57.506 Z5.23
N4390 X37.206 Y57.39 Z5.226
N4395 X37.329 Y57.277 Z5.221
N4400 X37.451 Y57.164 Z5.216
N4405 X37.573 Y57.051 Z5.211
N4410 X37.695 Y56.937 Z5.205
N4415 X37.821 Y56.828 Z5.2
N4420 X37.948 Y56.72 Z5.194
N4425 X38.075 Y56.613 Z5.188
N4430 X38.202 Y56.505 Z5.182
N4435 X38.329 Y56.397 Z5.176
N4440 X38.46 Y56.295 Z5.17
N4445 X38.592 Y56.192 Z5.165
N4450 X38.723 Y56.09 Z5.159
N4455 X38.855 Y55.988 Z5.153
N4460 X38.987 Y55.887 Z5.147
N4465 X39.123 Y55.79 Z5.141
N4470 X39.259 Y55.694 Z5.136
N4475 X39.53 Y55.501 Z5.124
N4480 X39.668 Y55.406 Z5.118
N4485 X39.808 Y55.316 Z5.112
N4490 X39.947 Y55.225 Z5.106
N4495 X40.087 Y55.135 Z5.101
N4500 X40.227 Y55.044 Z5.095
N4505 X40.369 Y54.957 Z5.089
N4510 X40.513 Y54.873 Z5.083
N4515 X40.656 Y54.789 Z5.077
N4520 X40.8 Y54.704 Z5.072
N4525 X40.944 Y54.62 Z5.066
N4530 X41.09 Y54.54 Z5.06
N4535 X41.237 Y54.462 Z5.054
N4540 X41.384 Y54.384 Z5.048
N4545 X41.532 Y54.306 Z5.043
N4550 X41.679 Y54.228 Z5.037
N4555 X41.829 Y54.156 Z5.032
N4560 X41.979 Y54.084 Z5.027
N4565 X42.13 Y54.013 Z5.023
N4570 X42.28 Y53.941 Z5.018
N4575 X42.431 Y53.87 Z5.015
N4580 X42.584 Y53.805 Z5.011
N4585 X42.738 Y53.74 Z5.008
N4590 X42.891 Y53.675 Z5.006
N4595 X43.045 Y53.61 Z5.003
N4600 X43.199 Y53.547 Z5.002
N4605 X43.355 Y53.489 Z5.001
N4610 X43.482 Y53.441 Z5.
N4615 X43.546 Y53.418
N4620 X43.61 Y53.394
N4625 G3 X56.391 Y88.11 I6.391 J17.358
N4630 X43.61 Y53.394 I-6.391 J-17.358
N4635 G1 X43.649 Y53.379
N4640 X43.688 Y53.365
N4645 X43.766 Y53.336
N4650 X43.922 Y53.278 Z4.999
N4655 X44.081 Y53.227 Z4.998
N4660 X44.239 Y53.175 Z4.996
N4665 X44.397 Y53.124 Z4.994
N4670 X44.556 Y53.072 Z4.991
N4675 X44.715 Y53.023 Z4.988
N4680 X44.875 Y52.978 Z4.984
N4685 X45.036 Y52.934 Z4.98
N4690 X45.196 Y52.889 Z4.976
N4695 X45.357 Y52.844 Z4.971
N4700 X45.518 Y52.803 Z4.966
N4705 X45.681 Y52.766 Z4.961
N4710 X45.843 Y52.728 Z4.955
N4715 X46.005 Y52.691 Z4.95
N4720 X46.168 Y52.653 Z4.944
N4725 X46.331 Y52.62 Z4.938
N4730 X46.495 Y52.59 Z4.932
N4735 X46.658 Y52.559 Z4.926
N4740 X46.822 Y52.529 Z4.92
N4745 X46.986 Y52.498 Z4.915
N4750 X47.151 Y52.474 Z4.909
N4755 X47.316 Y52.451 Z4.903
N4760 X47.481 Y52.427 Z4.897
N4765 X47.646 Y52.404 Z4.891
N4770 X47.811 Y52.381 Z4.886
N4775 X48.474 Y52.316 Z4.862
N4780 X48.64 Y52.302 Z4.856
N4785 X48.806 Y52.293 Z4.851
N4790 X48.972 Y52.284 Z4.845
N4795 X49.139 Y52.275 Z4.839
N4800 X49.305 Y52.266 Z4.833
N4805 X49.471 Y52.26 Z4.827
N4810 X49.638 Y52.258 Z4.822
N4815 X49.805 Y52.256 Z4.816
N4820 X49.971 Y52.254 Z4.81
N4825 X50.138 Y52.252 Z4.804
N4830 X50.304 Y52.255 Z4.798
N4835 X50.471 Y52.261 Z4.793
N4840 X50.637 Y52.266 Z4.787
N4845 X50.804 Y52.271 Z4.782
N4850 X50.97 Y52.277 Z4.777
N4855 X51.137 Y52.288 Z4.773
N4860 X51.303 Y52.301 Z4.768
N4865 X51.469 Y52.313 Z4.765
N4870 X51.635 Y52.326 Z4.761
N4875 X51.801 Y52.339 Z4.758
N4880 X51.966 Y52.358 Z4.756
N4885 X52.132 Y52.378 Z4.753
N4890 X52.297 Y52.398 Z4.752
N4895 X52.463 Y52.418 Z4.751
N4900 X52.598 Y52.434 Z4.75
N4905 X52.665 Y52.445
N4910 X52.732 Y52.456
N4915 G3 X47.268 Y89.045 I-2.732 J18.295
N4920 X52.732 Y52.456 I2.732 J-18.295
N4925 G1 X52.773 Y52.463
N4930 X52.814 Y52.469
N4935 X52.896 Y52.483
N4940 X53.061 Y52.51 Z4.749
N4945 X53.225 Y52.537 Z4.748
N4950 X53.39 Y52.564 Z4.746
N4955 X53.553 Y52.598 Z4.744
N4960 X53.716 Y52.632 Z4.741
N4965 X53.879 Y52.666 Z4.738
N4970 X54.042 Y52.7 Z4.734
N4975 X54.205 Y52.736 Z4.73
N4980 X54.366 Y52.777 Z4.726
N4985 X54.528 Y52.818 Z4.721
N4990 X54.689 Y52.859 Z4.716
N4995 X54.85 Y52.9 Z4.711
N5000 X55.011 Y52.944 Z4.705
N5005 X55.171 Y52.992 Z4.7
N5010 X55.33 Y53.04 Z4.694
N5015 X55.49 Y53.088 Z4.688
N5020 X55.649 Y53.136 Z4.682
N5025 X55.807 Y53.188 Z4.676
N5030 X55.965 Y53.243 Z4.67
N5035 X56.122 Y53.298 Z4.665
N5040 X56.279 Y53.352 Z4.659
N5045 X56.437 Y53.407 Z4.653
N5050 X56.592 Y53.467 Z4.647
N5055 X56.747 Y53.529 Z4.641
N5060 X56.901 Y53.591 Z4.636
N5065 X57.211 Y53.714 Z4.624
N5070 X57.363 Y53.782 Z4.618
N5075 X57.515 Y53.85 Z4.612
N5080 X57.667 Y53.919 Z4.606
N5085 X57.819 Y53.987 Z4.601
N5090 X57.97 Y54.056 Z4.595
N5095 X58.119 Y54.131 Z4.589
N5100 X58.268 Y54.206 Z4.583
N5105 X58.417 Y54.281 Z4.577
N5110 X58.566 Y54.356 Z4.572
N5115 X58.713 Y54.432 Z4.566
N5120 X58.859 Y54.514 Z4.56
N5125 X59.004 Y54.595 Z4.554
N5130 X59.15 Y54.676 Z4.548
N5135 X59.295 Y54.757 Z4.543
N5140 X59.439 Y54.842 Z4.537
N5145 X59.581 Y54.929 Z4.532
N5150 X59.722 Y55.017 Z4.527
N5155 X59.864 Y55.104 Z4.523
N5160 X60.006 Y55.191 Z4.518
N5165 X60.145 Y55.283 Z4.515
N5170 X60.283 Y55.377 Z4.511
N5175 X60.421 Y55.47 Z4.508
N5180 X60.559 Y55.564 Z4.506
N5185 X60.697 Y55.657 Z4.503
N5190 X60.831 Y55.756 Z4.502
N5195 X60.964 Y55.855 Z4.501
N5200 X61.074 Y55.936 Z4.5
N5205 X61.128 Y55.977
N5210 X61.183 Y56.018
N5215 G3 X38.815 Y85.484 I-11.184 J14.733
N5220 X61.183 Y56.018 I11.184 J-14.733
N5225 G1 X61.216 Y56.042
N5230 X61.25 Y56.067
N5235 X61.317 Y56.117
N5240 X61.447 Y56.22 Z4.499
N5245 X61.576 Y56.325 Z4.498
N5250 X61.706 Y56.431 Z4.496
N5255 X61.835 Y56.536 Z4.494
N5260 X61.964 Y56.641 Z4.491
N5265 X62.089 Y56.751 Z4.488
N5270 X62.214 Y56.861 Z4.484
N5275 X62.338 Y56.972 Z4.48
N5280 X62.463 Y57.082 Z4.476
N5285 X62.587 Y57.194 Z4.471
N5290 X62.707 Y57.309 Z4.466
N5295 X62.827 Y57.425 Z4.461
N5300 X62.946 Y57.541 Z4.455
N5305 X63.066 Y57.657 Z4.45
N5310 X63.184 Y57.774 Z4.444
N5315 X63.299 Y57.895 Z4.438
N5320 X63.413 Y58.016 Z4.432
N5325 X63.528 Y58.137 Z4.426
N5330 X63.642 Y58.258 Z4.42
N5335 X63.754 Y58.381 Z4.415
N5340 X63.864 Y58.507 Z4.409
N5345 X63.973 Y58.633 Z4.403
N5350 X64.082 Y58.759 Z4.397
N5355 X64.191 Y58.885 Z4.391
N5360 X64.297 Y59.013 Z4.386
N5365 X64.712 Y59.535 Z4.362
N5370 X64.81 Y59.669 Z4.356
N5375 X64.908 Y59.804 Z4.351
N5380 X65.006 Y59.939 Z4.345
N5385 X65.104 Y60.073 Z4.339
N5390 X65.202 Y60.208 Z4.333
N5395 X65.294 Y60.347 Z4.327
N5400 X65.386 Y60.486 Z4.322
N5405 X65.478 Y60.625 Z4.316
N5410 X65.57 Y60.764 Z4.31
N5415 X65.66 Y60.904 Z4.304
N5420 X65.746 Y61.046 Z4.298
N5425 X65.832 Y61.189 Z4.293
N5430 X65.918 Y61.332 Z4.287
N5435 X66.004 Y61.475 Z4.282
N5440 X66.087 Y61.619 Z4.277
N5445 X66.167 Y61.765 Z4.273
N5450 X66.246 Y61.912 Z4.268
N5455 X66.326 Y62.058 Z4.265
N5460 X66.406 Y62.204 Z4.261
N5465 X66.481 Y62.353 Z4.258
N5470 X66.555 Y62.502 Z4.256
N5475 X66.628 Y62.652 Z4.253
N5480 X66.701 Y62.801 Z4.252
N5485 X66.774 Y62.951 Z4.251
N5490 X66.83 Y63.075 Z4.25
N5495 X66.857 Y63.137
N5500 X66.885 Y63.2
N5505 G3 X33.113 Y78.301 I-16.886 J7.551
N5510 X66.885 Y63.2 I16.886 J-7.551
N5515 G1 X66.901 Y63.238
N5520 X66.918 Y63.276
N5525 X66.951 Y63.352
N5530 X67.018 Y63.505 Z4.249
N5535 X67.084 Y63.658 Z4.248
N5540 X67.147 Y63.812 Z4.246
N5545 X67.207 Y63.968 Z4.244
N5550 X67.267 Y64.123 Z4.241
N5555 X67.327 Y64.278 Z4.238
N5560 X67.387 Y64.434 Z4.234
N5565 X67.442 Y64.591 Z4.23
N5570 X67.495 Y64.749 Z4.226
N5575 X67.548 Y64.907 Z4.221
N5580 X67.601 Y65.065 Z4.216
N5585 X67.654 Y65.223 Z4.211
N5590 X67.701 Y65.383 Z4.205
N5595 X67.747 Y65.543 Z4.2
N5600 X67.793 Y65.703 Z4.194
N5605 X67.84 Y65.863 Z4.188
N5610 X67.885 Y66.023 Z4.182
N5615 X67.924 Y66.185 Z4.176
N5620 X67.963 Y66.347 Z4.17
N5625 X68.003 Y66.509 Z4.165
N5630 X68.042 Y66.671 Z4.159
N5635 X68.079 Y66.833 Z4.153
N5640 X68.111 Y66.997 Z4.147
N5645 X68.143 Y67.16 Z4.141
N5650 X68.176 Y67.323 Z4.136
N5655 X68.208 Y67.487 Z4.13
N5660 X68.236 Y67.651 Z4.124
N5665 X68.312 Y68.145 Z4.106
N5670 X68.337 Y68.31 Z4.101
N5675 X68.357 Y68.475 Z4.095
N5680 X68.375 Y68.641 Z4.089
N5685 X68.393 Y68.806 Z4.083
N5690 X68.411 Y68.972 Z4.077
N5695 X68.429 Y69.138 Z4.072
N5700 X68.44 Y69.304 Z4.066
N5705 X68.451 Y69.47 Z4.06
N5710 X68.462 Y69.636 Z4.054
N5715 X68.472 Y69.802 Z4.048
N5720 X68.482 Y69.969 Z4.043
N5725 X68.486 Y70.135 Z4.037
N5730 X68.49 Y70.302 Z4.032
N5735 X68.493 Y70.468 Z4.027
N5740 X68.497 Y70.635 Z4.023
N5745 X68.498 Y70.802 Z4.018
N5750 X68.495 Y70.968 Z4.015
N5755 X68.491 Y71.135 Z4.011
N5760 X68.487 Y71.301 Z4.008
N5765 X68.484 Y71.468 Z4.006
N5770 X68.477 Y71.634 Z4.003
N5775 X68.466 Y71.8 Z4.002
N5780 X68.455 Y71.967 Z4.001
N5785 X68.446 Y72.102 Z4.
N5790 X68.442 Y72.17
N5795 X68.437 Y72.238
N5800 G3 X31.562 Y69.262 I-18.438 J-1.488
N5805 X68.437 Y72.238 I18.438 J1.488
N5810 G1 X68.435 Y72.28
N5815 X68.432 Y72.321
N5820 X68.424 Y72.404
N5825 X68.406 Y72.57 Z3.999
N5830 X68.388 Y72.735 Z3.998
N5835 X68.37 Y72.901 Z3.996
N5840 X68.352 Y73.067 Z3.994
N5845 X68.33 Y73.232 Z3.991
N5850 X68.305 Y73.396 Z3.988
N5855 X68.28 Y73.561 Z3.984
N5860 X68.255 Y73.726 Z3.98
N5865 X68.23 Y73.89 Z3.976
N5870 X68.2 Y74.054 Z3.971
N5875 X68.167 Y74.218 Z3.966
N5880 X68.135 Y74.381 Z3.961
N5885 X68.103 Y74.545 Z3.955
N5890 X68.071 Y74.708 Z3.95
N5895 X68.032 Y74.87 Z3.944
N5900 X67.993 Y75.032 Z3.938
N5905 X67.953 Y75.194 Z3.932
N5910 X67.914 Y75.356 Z3.926
N5915 X67.874 Y75.517 Z3.92
N5920 X67.828 Y75.677 Z3.915
N5925 X67.782 Y75.837 Z3.909
N5930 X67.735 Y75.997 Z3.903
N5935 X67.689 Y76.158 Z3.897
N5940 X67.641 Y76.317 Z3.891
N5945 X67.588 Y76.475 Z3.886
N5950 X67.428 Y76.948 Z3.868
N5955 X67.372 Y77.105 Z3.862
N5960 X67.312 Y77.261 Z3.856
N5965 X67.252 Y77.416 Z3.851
N5970 X67.192 Y77.571 Z3.845
N5975 X67.132 Y77.727 Z3.839
N5980 X67.068 Y77.881 Z3.833
N5985 X67.001 Y78.033 Z3.827
N5990 X66.934 Y78.186 Z3.822
N5995 X66.868 Y78.339 Z3.816
N6000 X66.801 Y78.491 Z3.81
N6005 X66.729 Y78.641 Z3.804
N6010 X66.656 Y78.791 Z3.798
N6015 X66.583 Y78.941 Z3.793
N6020 X66.509 Y79.09 Z3.787
N6025 X66.436 Y79.24 Z3.782
N6030 X66.356 Y79.386 Z3.777
N6035 X66.277 Y79.533 Z3.773
N6040 X66.197 Y79.679 Z3.768
N6045 X66.118 Y79.825 Z3.765
N6050 X66.037 Y79.971 Z3.761
N6055 X65.951 Y80.114 Z3.758
N6060 X65.865 Y80.256 Z3.756
N6065 X65.779 Y80.399 Z3.753
N6070 X65.693 Y80.542 Z3.752
N6075 X65.605 Y80.683 Z3.751
N6080 X65.53 Y80.797 Z3.75
N6085 X65.492 Y80.853
N6090 X65.455 Y80.91
N6095 G3 X34.543 Y60.588 I-15.456 J-10.161
N6100 X65.455 Y80.91 I15.456 J10.161
N6105 G1 X65.432 Y80.945
N6110 X65.409 Y80.979
N6115 X65.363 Y81.049
N6120 X65.271 Y81.188 Z3.749
N6125 X65.177 Y81.326 Z3.748
N6130 X65.079 Y81.461 Z3.746
N6135 X64.982 Y81.595 Z3.744
N6140 X64.884 Y81.73 Z3.741
N6145 X64.786 Y81.865 Z3.738
N6150 X64.685 Y81.998 Z3.734
N6155 X64.582 Y82.128 Z3.73
N6160 X64.478 Y82.259 Z3.726
N6165 X64.374 Y82.389 Z3.721
N6170 X64.271 Y82.519 Z3.716
N6175 X64.164 Y82.647 Z3.711
N6180 X64.055 Y82.773 Z3.705
N6185 X63.945 Y82.899 Z3.7
N6190 X63.836 Y83.025 Z3.694
N6195 X63.727 Y83.15 Z3.688
N6200 X63.614 Y83.272 Z3.682
N6205 X63.499 Y83.393 Z3.676
N6210 X63.384 Y83.514 Z3.67
N6215 X63.27 Y83.635 Z3.665
N6220 X63.155 Y83.756 Z3.659
N6225 X63.036 Y83.872 Z3.653
N6230 X62.916 Y83.988 Z3.647
N6235 X62.796 Y84.104 Z3.641
N6240 X62.677 Y84.22 Z3.636
N6245 X62.556 Y84.335 Z3.63
N6250 X62.432 Y84.445 Z3.624
N6255 X62.058 Y84.777 Z3.606
N6260 X61.932 Y84.886 Z3.601
N6265 X61.802 Y84.991 Z3.595
N6270 X61.673 Y85.096 Z3.589
N6275 X61.544 Y85.201 Z3.583
N6280 X61.414 Y85.306 Z3.577
N6285 X61.283 Y85.408 Z3.572
N6290 X61.149 Y85.507 Z3.566
N6295 X61.015 Y85.607 Z3.56
N6300 X60.882 Y85.706 Z3.554
N6305 X60.748 Y85.806 Z3.548
N6310 X60.611 Y85.901 Z3.543
N6315 X60.473 Y85.994 Z3.537
N6320 X60.336 Y86.088 Z3.532
N6325 X60.198 Y86.181 Z3.527
N6330 X60.06 Y86.275 Z3.523
N6335 X59.918 Y86.363 Z3.518
N6340 X59.776 Y86.45 Z3.515
N6345 X59.635 Y86.538 Z3.511
N6350 X59.493 Y86.625 Z3.508
N6355 X59.35 Y86.711 Z3.506
N6360 X59.205 Y86.793 Z3.503
N6365 X59.06 Y86.874 Z3.502
N6370 X58.914 Y86.955 Z3.501
N6375 X58.796 Y87.022 Z3.5
N6380 X58.736 Y87.055
N6385 X58.684 Y87.084
N6390 X58.68 Y87.086
N6395 X58.677 Y87.088
N6400 X58.676 Y87.087
N6405 G3 X41.324 Y54.414 I-8.676 J-16.337
N6410 X58.821 Y87.01 I8.676 J16.337
N6415 G1 X58.676 Y87.087
N6420 X58.677 Y87.088
N6425 X58.64 Y87.107
N6430 X58.603 Y87.126
N6435 X58.528 Y87.163
N6440 X58.379 Y87.238 Z3.499
N6445 X58.23 Y87.313 Z3.498
N6450 X58.082 Y87.388 Z3.496
N6455 X57.932 Y87.461 Z3.494
N6460 X57.781 Y87.53 Z3.491
N6465 X57.629 Y87.599 Z3.488
N6470 X57.477 Y87.667 Z3.484
N6475 X57.325 Y87.735 Z3.48
N6480 X57.172 Y87.801 Z3.476
N6485 X57.017 Y87.863 Z3.471
N6490 X56.862 Y87.925 Z3.466
N6495 X56.708 Y87.986 Z3.461
N6500 X56.553 Y88.048 Z3.455
N6505 X56.397 Y88.106 Z3.45
N6510 X56.24 Y88.161 Z3.444
N6515 X56.082 Y88.216 Z3.438
N6520 X55.925 Y88.271 Z3.432
N6525 X55.768 Y88.326 Z3.426
N6530 X55.609 Y88.376 Z3.42
N6535 X55.449 Y88.424 Z3.415
N6540 X55.29 Y88.472 Z3.409
N6545 X55.13 Y88.52 Z3.403
N6550 X54.971 Y88.568 Z3.397
N6555 X54.81 Y88.611 Z3.391
N6560 X54.648 Y88.652 Z3.386
N6565 X54.325 Y88.734 Z3.374
N6570 X54.164 Y88.774 Z3.368
N6575 X54.001 Y88.809 Z3.362
N6580 X53.838 Y88.843 Z3.356
N6585 X53.675 Y88.877 Z3.351
N6590 X53.512 Y88.911 Z3.345
N6595 X53.348 Y88.943 Z3.339
N6600 X53.184 Y88.97 Z3.333
N6605 X53.019 Y88.997 Z3.327
N6610 X52.855 Y89.024 Z3.322
N6615 X52.691 Y89.051 Z3.316
N6620 X52.526 Y89.075 Z3.31
N6625 X52.36 Y89.095 Z3.304
N6630 X52.195 Y89.114 Z3.298
N6635 X52.029 Y89.134 Z3.293
N6640 X51.864 Y89.154 Z3.287
N6645 X51.698 Y89.169 Z3.282
N6650 X51.532 Y89.182 Z3.277
N6655 X51.366 Y89.195 Z3.273
N6660 X51.2 Y89.207 Z3.268
N6665 X51.034 Y89.22 Z3.265
N6670 X50.867 Y89.227 Z3.261
N6675 X50.701 Y89.232 Z3.258
N6680 X50.534 Y89.237 Z3.256
N6685 X50.368 Y89.243 Z3.253
N6690 X50.201 Y89.248 Z3.252
N6695 X50.035 Y89.246 Z3.251
N6700 X49.899 Y89.245 Z3.25
N6705 X49.831 Y89.244
N6710 X49.763
N6715 G3 X50.237 Y52.253 I0.237 J-18.495
N6720 X49.763 Y89.244 I-0.237 J18.495
N6725 G1 X49.721 Y89.243
N6730 X49.679
N6735 X49.596 Y89.242
N6740 X49.43 Y89.24 Z3.249
N6745 X49.263 Y89.232 Z3.248
N6750 X49.097 Y89.223 Z3.246
N6755 X48.93 Y89.214 Z3.244
N6760 X48.764 Y89.205 Z3.241
N6765 X48.598 Y89.195 Z3.238
N6770 X48.432 Y89.18 Z3.234
N6775 X48.266 Y89.164 Z3.23
N6780 X48.1 Y89.147 Z3.226
N6785 X47.935 Y89.131 Z3.221
N6790 X47.769 Y89.113 Z3.216
N6795 X47.604 Y89.09 Z3.211
N6800 X47.439 Y89.067 Z3.205
N6805 X47.274 Y89.043 Z3.2
N6810 X47.109 Y89.02 Z3.194
N6815 X46.945 Y88.994 Z3.188
N6820 X46.781 Y88.963 Z3.182
N6825 X46.617 Y88.933 Z3.176
N6830 X46.453 Y88.902 Z3.17
N6835 X46.29 Y88.872 Z3.165
N6840 X46.127 Y88.837 Z3.159
N6845 X45.964 Y88.8 Z3.153
N6850 X45.802 Y88.762 Z3.147
N6855 X45.64 Y88.725 Z3.141
N6860 X45.477 Y88.687 Z3.136
N6865 X45.316 Y88.644 Z3.13
N6870 X44.835 Y88.511 Z3.112
N6875 X44.674 Y88.465 Z3.106
N6880 X44.516 Y88.415 Z3.101
N6885 X44.357 Y88.363 Z3.095
N6890 X44.199 Y88.312 Z3.089
N6895 X44.04 Y88.26 Z3.083
N6900 X43.883 Y88.207 Z3.077
N6905 X43.726 Y88.15 Z3.072
N6910 X43.57 Y88.091 Z3.066
N6915 X43.414 Y88.033 Z3.06
N6920 X43.258 Y87.975 Z3.054
N6925 X43.103 Y87.914 Z3.048
N6930 X42.95 Y87.849 Z3.043
N6935 X42.796 Y87.784 Z3.037
N6940 X42.643 Y87.719 Z3.032
N6945 X42.489 Y87.654 Z3.027
N6950 X42.337 Y87.586 Z3.023
N6955 X42.187 Y87.514 Z3.018
N6960 X42.037 Y87.443 Z3.015
N6965 X41.886 Y87.371 Z3.011
N6970 X41.736 Y87.3 Z3.008
N6975 X41.588 Y87.224 Z3.006
N6980 X41.44 Y87.146 Z3.003
N6985 X41.293 Y87.067 Z3.002
N6990 X41.146 Y86.989 Z3.001
N6995 X41.026 Y86.926 Z3.
N7000 X40.967 Y86.893
N7005 X40.915 Y86.863
N7010 X40.908 Y86.859
N7015 Y86.858
N7020 G3 X59.092 Y54.641 I9.092 J-16.108
N7025 X41.028 Y86.926 I-9.092 J16.108
N7030 G1 X40.908 Y86.858
N7035 Y86.859
N7040 X40.872 Y86.838
N7045 X40.836 Y86.817
N7050 X40.764 Y86.774
N7055 X40.62 Y86.69 Z2.999
N7060 X40.477 Y86.606 Z2.998
N7065 X40.333 Y86.521 Z2.996
N7070 X40.192 Y86.433 Z2.994
N7075 X40.052 Y86.342 Z2.991
N7080 X39.912 Y86.252 Z2.988
N7085 X39.772 Y86.161 Z2.984
N7090 X39.633 Y86.07 Z2.98
N7095 X39.496 Y85.975 Z2.976
N7100 X39.36 Y85.878 Z2.971
N7105 X39.224 Y85.782 Z2.966
N7110 X39.089 Y85.686 Z2.961
N7115 X38.954 Y85.588 Z2.955
N7120 X38.822 Y85.486 Z2.95
N7125 X38.69 Y85.384 Z2.944
N7130 X38.559 Y85.282 Z2.938
N7135 X38.427 Y85.18 Z2.932
N7140 X38.297 Y85.075 Z2.926
N7145 X38.17 Y84.968 Z2.92
N7150 X38.043 Y84.86 Z2.915
N7155 X37.916 Y84.752 Z2.909
N7160 X37.789 Y84.644 Z2.903
N7165 X37.664 Y84.534 Z2.897
N7170 X37.542 Y84.421 Z2.891
N7175 X37.42 Y84.308 Z2.886
N7180 X37.176 Y84.081 Z2.874
N7185 X37.057 Y83.964 Z2.868
N7190 X36.939 Y83.846 Z2.862
N7195 X36.822 Y83.727 Z2.856
N7200 X36.705 Y83.609 Z2.851
N7205 X36.588 Y83.491 Z2.845
N7210 X36.475 Y83.368 Z2.839
N7215 X36.363 Y83.245 Z2.833
N7220 X36.251 Y83.121 Z2.827
N7225 X36.139 Y82.998 Z2.822
N7230 X36.028 Y82.874 Z2.816
N7235 X35.921 Y82.746 Z2.81
N7240 X35.815 Y82.618 Z2.804
N7245 X35.708 Y82.49 Z2.798
N7250 X35.602 Y82.362 Z2.793
N7255 X35.497 Y82.232 Z2.787
N7260 X35.396 Y82.1 Z2.782
N7265 X35.295 Y81.967 Z2.777
N7270 X35.194 Y81.835 Z2.773
N7275 X35.093 Y81.702 Z2.768
N7280 X34.995 Y81.568 Z2.765
N7285 X34.9 Y81.431 Z2.761
N7290 X34.805 Y81.294 Z2.758
N7295 X34.71 Y81.157 Z2.756
N7300 X34.615 Y81.02 Z2.753
N7305 X34.524 Y80.881 Z2.752
N7310 X34.435 Y80.74 Z2.751
N7315 X34.362 Y80.625 Z2.75
N7320 X34.326 Y80.568
N7325 X34.289 Y80.51
N7330 G3 X65.713 Y60.988 I15.712 J-9.761
N7335 X34.289 Y80.51 I-15.712 J9.761
N7340 G1 X34.267 Y80.475
N7345 X34.245 Y80.44
N7350 X34.2 Y80.369
N7355 X34.114 Y80.227 Z2.749
N7360 X34.031 Y80.082 Z2.748
N7365 X33.949 Y79.938 Z2.746
N7370 X33.866 Y79.793 Z2.744
N7375 X33.783 Y79.649 Z2.741
N7380 X33.704 Y79.502 Z2.738
N7385 X33.628 Y79.354 Z2.734
N7390 X33.551 Y79.206 Z2.73
N7395 X33.475 Y79.058 Z2.726
N7400 X33.398 Y78.91 Z2.721
N7405 X33.327 Y78.759 Z2.716
N7410 X33.257 Y78.608 Z2.711
N7415 X33.187 Y78.457 Z2.705
N7420 X33.117 Y78.306 Z2.7
N7425 X33.048 Y78.154 Z2.694
N7430 X32.984 Y78. Z2.688
N7435 X32.92 Y77.846 Z2.682
N7440 X32.857 Y77.692 Z2.676
N7445 X32.794 Y77.538 Z2.67
N7450 X32.732 Y77.383 Z2.665
N7455 X32.675 Y77.227 Z2.659
N7460 X32.618 Y77.07 Z2.653
N7465 X32.562 Y76.914 Z2.647
N7470 X32.505 Y76.757 Z2.641
N7475 X32.451 Y76.599 Z2.636
N7480 X32.401 Y76.44 Z2.63
N7485 X32.252 Y75.964 Z2.612
N7490 X32.206 Y75.803 Z2.606
N7495 X32.163 Y75.642 Z2.601
N7500 X32.12 Y75.481 Z2.595
N7505 X32.078 Y75.32 Z2.589
N7510 X32.035 Y75.159 Z2.583
N7515 X31.997 Y74.997 Z2.577
N7520 X31.961 Y74.834 Z2.572
N7525 X31.925 Y74.672 Z2.566
N7530 X31.89 Y74.509 Z2.56
N7535 X31.854 Y74.346 Z2.554
N7540 X31.825 Y74.182 Z2.548
N7545 X31.796 Y74.018 Z2.543
N7550 X31.767 Y73.854 Z2.537
N7555 X31.738 Y73.69 Z2.532
N7560 X31.711 Y73.526 Z2.527
N7565 X31.689 Y73.361 Z2.523
N7570 X31.667 Y73.196 Z2.518
N7575 X31.646 Y73.03 Z2.515
N7580 X31.624 Y72.865 Z2.511
N7585 X31.605 Y72.7 Z2.508
N7590 X31.59 Y72.534 Z2.506
N7595 X31.576 Y72.368 Z2.503
N7600 X31.561 Y72.202 Z2.502
N7605 X31.547 Y72.036 Z2.501
N7610 X31.538 Y71.9 Z2.5
N7615 X31.535 Y71.832
N7620 X31.532 Y71.764
N7625 G3 X68.47 Y69.736 I18.469 J-1.014
N7630 X31.531 Y71.764 I-18.469 J1.014
N7635 G1 X31.532
N7640 X31.53 Y71.723
N7645 X31.528 Y71.681
N7650 X31.524 Y71.598
N7655 X31.517 Y71.431 Z2.499
N7660 X31.51 Y71.265 Z2.498
N7665 X31.505 Y71.098 Z2.496
N7670 Y70.932 Z2.494
N7675 Y70.765 Z2.491
N7680 Y70.599 Z2.488
N7685 Y70.432 Z2.484
N7690 X31.509 Y70.266 Z2.48
N7695 X31.516 Y70.099 Z2.476
N7700 X31.523 Y69.933 Z2.471
N7705 X31.53 Y69.766 Z2.466
N7710 X31.537 Y69.6 Z2.461
N7715 X31.55 Y69.434 Z2.455
N7720 X31.564 Y69.268 Z2.45
N7725 X31.579 Y69.102 Z2.444
N7730 X31.593 Y68.936 Z2.438
N7735 X31.608 Y68.77 Z2.432
N7740 X31.628 Y68.605 Z2.426
N7745 X31.65 Y68.439 Z2.42
N7750 X31.671 Y68.274 Z2.415
N7755 X31.693 Y68.109 Z2.409
N7760 X31.716 Y67.944 Z2.403
N7765 X31.744 Y67.78 Z2.397
N7770 X31.772 Y67.616 Z2.391
N7775 X31.801 Y67.452 Z2.386
N7780 X31.83 Y67.287 Z2.38
N7785 X31.861 Y67.124 Z2.374
N7790 X31.896 Y66.961 Z2.368
N7795 X31.932 Y66.798 Z2.362
N7800 X31.968 Y66.636 Z2.356
N7805 X32.004 Y66.473 Z2.351
N7810 X32.043 Y66.311 Z2.345
N7815 X32.085 Y66.15 Z2.339
N7820 X32.128 Y65.989 Z2.333
N7825 X32.171 Y65.828 Z2.327
N7830 X32.214 Y65.667 Z2.322
N7835 X32.261 Y65.507 Z2.316
N7840 X32.311 Y65.348 Z2.31
N7845 X32.361 Y65.189 Z2.304
N7850 X32.41 Y65.03 Z2.298
N7855 X32.46 Y64.871 Z2.293
N7860 X32.516 Y64.714 Z2.287
N7865 X32.572 Y64.558 Z2.282
N7870 X32.629 Y64.401 Z2.277
N7875 X32.685 Y64.244 Z2.273
N7880 X32.743 Y64.088 Z2.268
N7885 X32.805 Y63.933 Z2.265
N7890 X32.869 Y63.779 Z2.261
N7895 X32.932 Y63.625 Z2.258
N7900 X32.995 Y63.471 Z2.256
N7905 X33.061 Y63.318 Z2.253
N7910 X33.13 Y63.166 Z2.252
N7915 X33.2 Y63.015 Z2.251
N7920 X33.257 Y62.892 Z2.25
N7925 X33.286 Y62.83
N7930 X33.314 Y62.768
N7935 G3 X66.687 Y78.732 I16.686 J7.982
N7940 X33.314 Y62.769 I-16.686 J-7.982
N7945 G1 Y62.768
N7950 X33.332 Y62.731
N7955 X33.349 Y62.693
N7960 X33.385 Y62.618
N7965 X33.461 Y62.469 Z2.249
N7970 X33.537 Y62.321 Z2.248
N7975 X33.614 Y62.173 Z2.246
N7980 X33.69 Y62.025 Z2.244
N7985 X33.768 Y61.878 Z2.241
N7990 X33.851 Y61.733 Z2.238
N7995 X33.933 Y61.589 Z2.234
N8000 X34.016 Y61.444 Z2.23
N8005 X34.099 Y61.3 Z2.226
N8010 X34.185 Y61.157 Z2.221
N8015 X34.273 Y61.016 Z2.216
N8020 X34.362 Y60.875 Z2.211
N8025 X34.451 Y60.734 Z2.205
N8030 X34.54 Y60.593 Z2.2
N8035 X34.633 Y60.455 Z2.194
N8040 X34.727 Y60.318 Z2.188
N8045 X34.822 Y60.181 Z2.182
N8050 X34.917 Y60.044 Z2.176
N8055 X35.012 Y59.907 Z2.17
N8060 X35.112 Y59.774 Z2.165
N8065 X35.213 Y59.641 Z2.159
N8070 X35.314 Y59.508 Z2.153
N8075 X35.414 Y59.376 Z2.147
N8080 X35.516 Y59.244 Z2.141
N8085 X35.621 Y59.115 Z2.136
N8090 X35.941 Y58.73 Z2.118
N8095 X36.049 Y58.604 Z2.112
N8100 X36.16 Y58.48 Z2.106
N8105 X36.272 Y58.356 Z2.101
N8110 X36.384 Y58.233 Z2.095
N8115 X36.496 Y58.109 Z2.089
N8120 X36.61 Y57.988 Z2.083
N8125 X36.727 Y57.869 Z2.077
N8130 X36.844 Y57.751 Z2.072
N8135 X36.961 Y57.632 Z2.066
N8140 X37.078 Y57.514 Z2.06
N8145 X37.198 Y57.398 Z2.054
N8150 X37.32 Y57.285 Z2.048
N8155 X37.442 Y57.172 Z2.043
N8160 X37.565 Y57.058 Z2.037
N8165 X37.687 Y56.945 Z2.032
N8170 X37.812 Y56.836 Z2.027
N8175 X37.939 Y56.728 Z2.023
N8180 X38.066 Y56.62 Z2.018
N8185 X38.193 Y56.512 Z2.015
N8190 X38.321 Y56.405 Z2.011
N8195 X38.451 Y56.302 Z2.008
N8200 X38.583 Y56.199 Z2.006
N8205 X38.714 Y56.097 Z2.003
N8210 X38.846 Y55.995 Z2.002
N8215 X38.978 Y55.894 Z2.001
N8220 X39.089 Y55.814 Z2.
N8225 X39.144 Y55.775
N8230 X39.2 Y55.736
N8235 G3 X60.802 Y85.766 I10.801 J15.015
N8240 X39.2 Y55.736 I-10.801 J-15.015
N8245 G1 X39.234 Y55.712
N8250 X39.268 Y55.687
N8255 X39.335 Y55.639
N8260 X39.471 Y55.543 Z1.999
N8265 X39.608 Y55.447 Z1.998
N8270 X39.747 Y55.355 Z1.996
N8275 X39.887 Y55.265 Z1.994
N8280 X40.026 Y55.174 Z1.991
N8285 X40.166 Y55.084 Z1.988
N8290 X40.307 Y54.995 Z1.984
N8295 X40.45 Y54.91 Z1.98
N8300 X40.594 Y54.825 Z1.976
N8305 X40.738 Y54.741 Z1.971
N8310 X40.881 Y54.657 Z1.966
N8315 X41.026 Y54.575 Z1.961
N8320 X41.173 Y54.496 Z1.955
N8325 X41.32 Y54.418 Z1.95
N8330 X41.468 Y54.34 Z1.944
N8335 X41.615 Y54.262 Z1.938
N8340 X41.764 Y54.188 Z1.932
N8345 X41.914 Y54.116 Z1.926
N8350 X42.064 Y54.044 Z1.92
N8355 X42.215 Y53.972 Z1.915
N8360 X42.365 Y53.901 Z1.909
N8365 X42.518 Y53.834 Z1.903
N8370 X42.671 Y53.769 Z1.897
N8375 X42.824 Y53.704 Z1.891
N8380 X42.978 Y53.639 Z1.886
N8385 X43.131 Y53.574 Z1.88
N8390 X43.287 Y53.514 Z1.874
N8395 X43.755 Y53.34 Z1.856
N8400 X43.912 Y53.283 Z1.851
N8405 X44.07 Y53.23 Z1.845
N8410 X44.228 Y53.179 Z1.839
N8415 X44.387 Y53.127 Z1.833
N8420 X44.545 Y53.076 Z1.827
N8425 X44.704 Y53.027 Z1.822
N8430 X44.864 Y52.981 Z1.816
N8435 X45.025 Y52.937 Z1.81
N8440 X45.185 Y52.892 Z1.804
N8445 X45.346 Y52.848 Z1.798
N8450 X45.507 Y52.807 Z1.793
N8455 X45.67 Y52.768 Z1.787
N8460 X45.832 Y52.731 Z1.782
N8465 X45.994 Y52.693 Z1.777
N8470 X46.156 Y52.656 Z1.773
N8475 X46.32 Y52.623 Z1.768
N8480 X46.483 Y52.592 Z1.765
N8485 X46.647 Y52.561 Z1.761
N8490 X46.811 Y52.531 Z1.758
N8495 X46.975 Y52.501 Z1.756
N8500 X47.14 Y52.476 Z1.753
N8505 X47.304 Y52.452 Z1.752
N8510 X47.469 Y52.429 Z1.751
N8515 X47.604 Y52.41 Z1.75
N8520 X47.671 Y52.4
N8525 X47.739 Y52.391
N8530 G3 X52.261 Y89.108 I2.261 J18.358
N8535 X47.641 Y52.404 I-2.261 J-18.358
N8540 G1 X47.739 Y52.391
N8545 X47.749 Y52.389
N8550 X47.759 Y52.388
N8555 X47.822 Y52.381
N8560 X47.904 Y52.372
N8565 X48.07 Y52.355 Z1.749
N8570 X48.236 Y52.339 Z1.748
N8575 X48.402 Y52.323 Z1.746
N8580 X48.568 Y52.307 Z1.744
N8585 X48.734 Y52.296 Z1.741
N8590 X48.9 Y52.287 Z1.738
N8595 X49.066 Y52.278 Z1.734
N8600 X49.233 Y52.269 Z1.73
N8605 X49.399 Y52.262 Z1.726
N8610 X49.566 Y52.259 Z1.721
N8615 X49.732 Y52.257 Z1.716
N8620 X49.899 Y52.255 Z1.711
N8625 X50.065 Y52.253 Z1.705
N8630 X50.232 Y52.254 Z1.7
N8635 X50.399 Y52.258 Z1.694
N8640 X50.565 Y52.264 Z1.688
N8645 X50.732 Y52.269 Z1.682
N8650 X50.898 Y52.274 Z1.676
N8655 X51.064 Y52.283 Z1.67
N8660 X51.231 Y52.295 Z1.665
N8665 X51.397 Y52.308 Z1.659
N8670 X51.563 Y52.32 Z1.653
N8675 X51.729 Y52.333 Z1.647
N8680 X51.895 Y52.35 Z1.641
N8685 X52.06 Y52.37 Z1.636
N8690 X52.391 Y52.409 Z1.624
N8695 X52.556 Y52.429 Z1.618
N8700 X52.721 Y52.454 Z1.612
N8705 X52.885 Y52.481 Z1.606
N8710 X53.05 Y52.508 Z1.601
N8715 X53.214 Y52.535 Z1.595
N8720 X53.378 Y52.563 Z1.589
N8725 X53.542 Y52.596 Z1.583
N8730 X53.705 Y52.63 Z1.577
N8735 X53.868 Y52.664 Z1.572
N8740 X54.031 Y52.698 Z1.566
N8745 X54.193 Y52.734 Z1.56
N8750 X54.355 Y52.774 Z1.554
N8755 X54.517 Y52.815 Z1.548
N8760 X54.678 Y52.856 Z1.543
N8765 X54.84 Y52.897 Z1.537
N8770 X55. Y52.941 Z1.532
N8775 X55.16 Y52.988 Z1.527
N8780 X55.319 Y53.036 Z1.523
N8785 X55.479 Y53.085 Z1.518
N8790 X55.638 Y53.133 Z1.515
N8795 X55.797 Y53.185 Z1.511
N8800 X55.954 Y53.239 Z1.508
N8805 X56.111 Y53.294 Z1.506
N8810 X56.269 Y53.349 Z1.503
N8815 X56.426 Y53.404 Z1.502
N8820 X56.581 Y53.464 Z1.501
N8825 X56.708 Y53.514 Z1.5
N8830 X56.771 Y53.539
N8835 X56.834 Y53.564
N8840 G3 X43.165 Y87.938 I-6.835 J17.187
N8845 X56.834 Y53.564 I6.835 J-17.187
N8850 G1 X56.873 Y53.579
N8855 X56.912 Y53.595
N8860 X56.989 Y53.626
N8865 X57.144 Y53.687 Z1.499
N8870 X57.297 Y53.753 Z1.498
N8875 X57.449 Y53.821 Z1.496
N8880 X57.601 Y53.889 Z1.494
N8885 X57.753 Y53.957 Z1.491
N8890 X57.905 Y54.026 Z1.488
N8895 X58.055 Y54.099 Z1.484
N8900 X58.203 Y54.173 Z1.48
N8905 X58.352 Y54.248 Z1.476
N8910 X58.501 Y54.323 Z1.471
N8915 X58.65 Y54.399 Z1.466
N8920 X58.796 Y54.479 Z1.461
N8925 X58.941 Y54.56 Z1.455
N8930 X59.087 Y54.641 Z1.45
N8935 X59.232 Y54.722 Z1.444
N8940 X59.377 Y54.805 Z1.438
N8945 X59.519 Y54.891 Z1.432
N8950 X59.661 Y54.979 Z1.426
N8955 X59.803 Y55.066 Z1.42
N8960 X59.945 Y55.154 Z1.415
N8965 X60.085 Y55.244 Z1.409
N8970 X60.223 Y55.336 Z1.403
N8975 X60.361 Y55.43 Z1.397
N8980 X60.499 Y55.523 Z1.391
N8985 X60.637 Y55.617 Z1.386
N8990 X60.772 Y55.713 Z1.38
N8995 X60.907 Y55.812 Z1.374
N9000 X61.308 Y56.11 Z1.356
N9005 X61.438 Y56.214 Z1.351
N9010 X61.568 Y56.319 Z1.345
N9015 X61.697 Y56.424 Z1.339
N9020 X61.826 Y56.529 Z1.333
N9025 X61.955 Y56.634 Z1.327
N9030 X62.081 Y56.743 Z1.322
N9035 X62.206 Y56.854 Z1.316
N9040 X62.33 Y56.965 Z1.31
N9045 X62.455 Y57.075 Z1.304
N9050 X62.578 Y57.187 Z1.298
N9055 X62.699 Y57.302 Z1.293
N9060 X62.819 Y57.418 Z1.287
N9065 X62.938 Y57.534 Z1.282
N9070 X63.058 Y57.649 Z1.277
N9075 X63.176 Y57.767 Z1.273
N9080 X63.291 Y57.887 Z1.268
N9085 X63.406 Y58.008 Z1.265
N9090 X63.52 Y58.129 Z1.261
N9095 X63.635 Y58.25 Z1.258
N9100 X63.747 Y58.374 Z1.256
N9105 X63.857 Y58.499 Z1.253
N9110 X63.966 Y58.625 Z1.252
N9115 X64.075 Y58.75 Z1.251
N9120 X64.164 Y58.853 Z1.25
N9125 X64.208 Y58.905
N9130 X64.251 Y58.958
N9135 G3 X35.749 Y82.542 I-14.251 J11.792
N9140 X64.251 Y58.958 I14.251 J-11.792
N9145 G1 X64.277 Y58.99
N9150 X64.304 Y59.022
N9155 X64.356 Y59.087
N9160 X64.459 Y59.218 Z1.249
N9165 X64.563 Y59.348 Z1.248
N9170 X64.667 Y59.479 Z1.246
N9175 X64.767 Y59.611 Z1.244
N9180 X64.866 Y59.746 Z1.241
N9185 X64.964 Y59.88 Z1.238
N9190 X65.062 Y60.015 Z1.234
N9195 X65.16 Y60.15 Z1.23
N9200 X65.254 Y60.288 Z1.226
N9205 X65.346 Y60.426 Z1.221
N9210 X65.438 Y60.565 Z1.216
N9215 X65.53 Y60.704 Z1.211
N9220 X65.622 Y60.843 Z1.205
N9225 X65.709 Y60.985 Z1.2
N9230 X65.795 Y61.128 Z1.194
N9235 X65.881 Y61.27 Z1.188
N9240 X65.967 Y61.413 Z1.182
N9245 X66.051 Y61.557 Z1.176
N9250 X66.132 Y61.702 Z1.17
N9255 X66.212 Y61.848 Z1.165
N9260 X66.292 Y61.995 Z1.159
N9265 X66.371 Y62.141 Z1.153
N9270 X66.449 Y62.289 Z1.147
N9275 X66.523 Y62.438 Z1.141
N9280 X66.596 Y62.587 Z1.136
N9285 X66.743 Y62.887 Z1.124
N9290 X66.813 Y63.038 Z1.118
N9295 X66.88 Y63.19 Z1.112
N9300 X66.947 Y63.343 Z1.106
N9305 X67.014 Y63.495 Z1.101
N9310 X67.08 Y63.648 Z1.095
N9315 X67.143 Y63.802 Z1.089
N9320 X67.203 Y63.958 Z1.083
N9325 X67.263 Y64.113 Z1.077
N9330 X67.323 Y64.268 Z1.072
N9335 X67.383 Y64.424 Z1.066
N9340 X67.438 Y64.581 Z1.06
N9345 X67.491 Y64.739 Z1.054
N9350 X67.544 Y64.897 Z1.048
N9355 X67.598 Y65.055 Z1.043
N9360 X67.65 Y65.213 Z1.037
N9365 X67.698 Y65.372 Z1.032
N9370 X67.744 Y65.533 Z1.027
N9375 X67.79 Y65.693 Z1.023
N9380 X67.837 Y65.853 Z1.018
N9385 X67.881 Y66.013 Z1.015
N9390 X67.921 Y66.175 Z1.011
N9395 X67.961 Y66.337 Z1.008
N9400 X68. Y66.498 Z1.006
N9405 X68.039 Y66.66 Z1.003
N9410 X68.076 Y66.823 Z1.002
N9415 X68.109 Y66.986 Z1.001
N9420 X68.135 Y67.12 Z1.
N9425 X68.148 Y67.186
N9430 X68.162 Y67.253
N9435 G3 X31.836 Y74.247 I-18.163 J3.497
N9440 X68.162 Y67.253 I18.163 J-3.497
N9445 G1 X68.17 Y67.294
N9450 X68.178 Y67.335
N9455 X68.194 Y67.416
N9460 X68.224 Y67.58 Z0.999
N9465 X68.25 Y67.745 Z0.998
N9470 X68.276 Y67.909 Z0.996
N9475 X68.301 Y68.074 Z0.994
N9480 X68.326 Y68.239 Z0.991
N9485 X68.348 Y68.404 Z0.988
N9490 X68.367 Y68.569 Z0.984
N9495 X68.385 Y68.735 Z0.98
N9500 X68.403 Y68.901 Z0.976
N9505 X68.421 Y69.066 Z0.971
N9510 X68.435 Y69.232 Z0.966
N9515 X68.446 Y69.398 Z0.961
N9520 X68.457 Y69.565 Z0.955
N9525 X68.468 Y69.731 Z0.95
N9530 X68.479 Y69.897 Z0.944
N9535 X68.484 Y70.064 Z0.938
N9540 X68.488 Y70.23 Z0.932
N9545 X68.492 Y70.397 Z0.926
N9550 X68.495 Y70.563 Z0.92
N9555 X68.498 Y70.73 Z0.915
N9560 X68.496 Y70.896 Z0.909
N9565 X68.493 Y71.063 Z0.903
N9570 X68.489 Y71.23 Z0.897
N9575 X68.485 Y71.396 Z0.891
N9580 X68.48 Y71.563 Z0.886
N9585 X68.47 Y71.729 Z0.88
N9590 X68.438 Y72.228 Z0.862
N9595 X68.424 Y72.394 Z0.856
N9600 X68.407 Y72.559 Z0.851
N9605 X68.389 Y72.725 Z0.845
N9610 X68.371 Y72.891 Z0.839
N9615 X68.353 Y73.056 Z0.833
N9620 X68.331 Y73.221 Z0.827
N9625 X68.307 Y73.386 Z0.822
N9630 X68.282 Y73.551 Z0.816
N9635 X68.257 Y73.715 Z0.81
N9640 X68.231 Y73.88 Z0.804
N9645 X68.201 Y74.044 Z0.798
N9650 X68.169 Y74.207 Z0.793
N9655 X68.137 Y74.371 Z0.787
N9660 X68.105 Y74.534 Z0.782
N9665 X68.072 Y74.698 Z0.777
N9670 X68.034 Y74.86 Z0.773
N9675 X67.995 Y75.022 Z0.768
N9680 X67.956 Y75.184 Z0.765
N9685 X67.917 Y75.346 Z0.761
N9690 X67.875 Y75.507 Z0.758
N9695 X67.831 Y75.668 Z0.756
N9700 X67.785 Y75.828 Z0.753
N9705 X67.738 Y75.988 Z0.752
N9710 X67.692 Y76.148 Z0.751
N9715 X67.652 Y76.278 Z0.75
N9720 X67.631 Y76.342
N9725 X67.61 Y76.407
N9730 G3 X32.39 Y65.093 I-17.61 J-5.657
N9735 X67.61 Y76.407 I17.61 J5.657
N9740 G1 X67.604 Y76.427
N9745 X67.597 Y76.447
N9750 X67.584 Y76.486
N9755 X67.557 Y76.565
N9760 X67.504 Y76.723 Z0.749
N9765 X67.451 Y76.881 Z0.748
N9770 X67.396 Y77.038 Z0.746
N9775 X67.338 Y77.194 Z0.744
N9780 X67.278 Y77.349 Z0.741
N9785 X67.218 Y77.505 Z0.738
N9790 X67.158 Y77.66 Z0.734
N9795 X67.095 Y77.815 Z0.73
N9800 X67.03 Y77.968 Z0.726
N9805 X66.963 Y78.12 Z0.721
N9810 X66.896 Y78.273 Z0.716
N9815 X66.83 Y78.426 Z0.711
N9820 X66.759 Y78.577 Z0.705
N9825 X66.687 Y78.727 Z0.7
N9830 X66.614 Y78.877 Z0.694
N9835 X66.541 Y79.026 Z0.688
N9840 X66.468 Y79.176 Z0.682
N9845 X66.39 Y79.323 Z0.676
N9850 X66.311 Y79.47 Z0.67
N9855 X66.231 Y79.616 Z0.665
N9860 X66.152 Y79.763 Z0.659
N9865 X66.072 Y79.909 Z0.653
N9870 X65.987 Y80.052 Z0.647
N9875 X65.902 Y80.195 Z0.641
N9880 X65.816 Y80.338 Z0.636
N9885 X65.73 Y80.481 Z0.63
N9890 X65.643 Y80.623 Z0.624
N9895 X65.552 Y80.762 Z0.618
N9900 X65.46 Y80.901 Z0.612
N9905 X65.368 Y81.04 Z0.606
N9910 X65.276 Y81.179 Z0.601
N9915 X65.182 Y81.317 Z0.595
N9920 X65.085 Y81.452 Z0.589
N9925 X64.988 Y81.587 Z0.583
N9930 X64.89 Y81.722 Z0.577
N9935 X64.792 Y81.857 Z0.572
N9940 X64.691 Y81.989 Z0.566
N9945 X64.588 Y82.12 Z0.56
N9950 X64.484 Y82.251 Z0.554
N9955 X64.381 Y82.381 Z0.548
N9960 X64.277 Y82.512 Z0.543
N9965 X64.17 Y82.639 Z0.537
N9970 X64.061 Y82.765 Z0.532
N9975 X63.952 Y82.891 Z0.527
N9980 X63.843 Y83.017 Z0.523
N9985 X63.733 Y83.142 Z0.518
N9990 X63.62 Y83.265 Z0.515
N9995 X63.506 Y83.386 Z0.511
N10000 X63.391 Y83.507 Z0.508
N10005 X63.277 Y83.628 Z0.506
N10010 X63.161 Y83.748 Z0.503
N10015 X63.043 Y83.865 Z0.502
N10020 X62.923 Y83.981 Z0.501
N10025 X62.826 Y84.076 Z0.5
N10030 X62.777 Y84.123
N10035 X62.728 Y84.17
N10040 G3 X37.271 Y57.329 I-12.728 J-13.421
N10045 X62.756 Y84.143 I12.728 J13.421
N10050 G1 X62.728 Y84.17
N10055 X62.698 Y84.199
N10060 X62.668 Y84.228
N10065 X62.608 Y84.286
N10070 X62.485 Y84.398 Z0.499
N10075 X62.36 Y84.509 Z0.498
N10080 X62.236 Y84.619 Z0.496
N10085 X62.111 Y84.73 Z0.494
N10090 X61.986 Y84.839 Z0.491
N10095 X61.857 Y84.946 Z0.488
N10100 X61.728 Y85.051 Z0.484
N10105 X61.599 Y85.156 Z0.48
N10110 X61.47 Y85.261 Z0.476
N10115 X61.339 Y85.364 Z0.471
N10120 X61.206 Y85.465 Z0.466
N10125 X61.073 Y85.564 Z0.461
N10130 X60.939 Y85.664 Z0.455
N10135 X60.805 Y85.763 Z0.45
N10140 X60.669 Y85.86 Z0.444
N10145 X60.532 Y85.954 Z0.438
N10150 X60.394 Y86.048 Z0.432
N10155 X60.257 Y86.141 Z0.426
N10160 X60.119 Y86.235 Z0.42
N10165 X59.978 Y86.324 Z0.415
N10170 X59.837 Y86.413 Z0.409
N10175 X59.695 Y86.5 Z0.403
N10180 X59.553 Y86.588 Z0.397
N10185 X59.411 Y86.675 Z0.391
N10190 X59.267 Y86.758 Z0.386
N10195 X59.122 Y86.84 Z0.38
N10200 X58.831 Y87.002 Z0.368
N10205 X58.685 Y87.082 Z0.362
N10210 X58.537 Y87.158 Z0.356
N10215 X58.388 Y87.234 Z0.351
N10220 X58.239 Y87.309 Z0.345
N10225 X58.091 Y87.383 Z0.339
N10230 X57.941 Y87.456 Z0.333
N10235 X57.79 Y87.526 Z0.327
N10240 X57.638 Y87.594 Z0.322
N10245 X57.486 Y87.663 Z0.316
N10250 X57.334 Y87.731 Z0.31
N10255 X57.18 Y87.796 Z0.304
N10260 X57.026 Y87.859 Z0.298
N10265 X56.872 Y87.921 Z0.293
N10270 X56.717 Y87.983 Z0.287
N10275 X56.562 Y88.044 Z0.282
N10280 X56.406 Y88.102 Z0.277
N10285 X56.249 Y88.158 Z0.273
N10290 X56.092 Y88.213 Z0.268
N10295 X55.934 Y88.268 Z0.265
N10300 X55.777 Y88.323 Z0.261
N10305 X55.618 Y88.373 Z0.258
N10310 X55.459 Y88.422 Z0.256
N10315 X55.299 Y88.47 Z0.253
N10320 X55.14 Y88.518 Z0.252
N10325 X54.98 Y88.565 Z0.251
N10330 X54.849 Y88.6 Z0.25
N10335 X54.783 Y88.617
N10340 X54.75 Y88.626
N10345 X54.717 Y88.634
N10350 G3 X45.283 Y52.865 I-4.717 J-17.885
N10355 X54.726 Y88.632 I4.717 J17.885
N10360 G1 X54.717 Y88.634
N10365 X54.677 Y88.644
N10370 X54.636 Y88.655
N10375 X54.556 Y88.675
N10380 X54.394 Y88.716 Z0.249
N10385 X54.233 Y88.757 Z0.248
N10390 X54.07 Y88.793 Z0.246
N10395 X53.907 Y88.828 Z0.244
N10400 X53.744 Y88.862 Z0.241
N10405 X53.581 Y88.896 Z0.238
N10410 X53.418 Y88.929 Z0.234
N10415 X53.254 Y88.958 Z0.23
N10420 X53.089 Y88.985 Z0.226
N10425 X52.925 Y89.012 Z0.221
N10430 X52.761 Y89.039 Z0.216
N10435 X52.596 Y89.064 Z0.211
N10440 X52.431 Y89.086 Z0.205
N10445 X52.265 Y89.106 Z0.2
N10450 X52.1 Y89.126 Z0.194
N10455 X51.934 Y89.145 Z0.188
N10460 X51.769 Y89.162 Z0.182
N10465 X51.603 Y89.177 Z0.176
N10470 X51.437 Y89.189 Z0.17
N10475 X51.271 Y89.202 Z0.165
N10480 X51.104 Y89.214 Z0.159
N10485 X50.938 Y89.223 Z0.153
N10490 X50.772 Y89.23 Z0.147
N10495 X50.605 Y89.235 Z0.141
N10500 X50.439 Y89.241 Z0.136
N10505 X50.272 Y89.246 Z0.13
N10510 X50.105 Z0.124
N10515 X49.939 Y89.245 Z0.118
N10520 X49.772 Y89.244 Z0.112
N10525 X49.606 Y89.242 Z0.106
N10530 X49.439 Y89.239 Z0.101
N10535 X49.273 Y89.232 Z0.095
N10540 X49.106 Y89.224 Z0.089
N10545 X48.94 Y89.215 Z0.083
N10550 X48.774 Y89.206 Z0.077
N10555 X48.607 Y89.195 Z0.072
N10560 X48.442 Y89.18 Z0.066
N10565 X48.276 Y89.165 Z0.06
N10570 X48.11 Y89.148 Z0.054
N10575 X47.944 Y89.132 Z0.048
N10580 X47.779 Y89.113 Z0.043
N10585 X47.613 Y89.092 Z0.037
N10590 X47.448 Y89.068 Z0.032
N10595 X47.284 Y89.045 Z0.027
N10600 X47.119 Y89.021 Z0.023
N10605 X46.954 Y88.994 Z0.018
N10610 X46.79 Y88.965 Z0.015
N10615 X46.626 Y88.935 Z0.011
N10620 X46.463 Y88.904 Z0.008
N10625 X46.299 Y88.874 Z0.006
N10630 X46.136 Y88.838 Z0.003
N10635 X45.974 Y88.802 Z0.002
N10640 X45.811 Y88.764 Z0.001
N10645 X45.679 Y88.734 Z0.
N10650 X45.613 Y88.718
N10655 X45.546 Y88.703
N10660 G3 X54.454 Y52.798 I4.454 J-17.953
N10665 X45.546 Y88.703 I-4.454 J17.953
N10670 G1 X45.506 Y88.694
N10675 X45.465 Y88.683
N10680 X45.385 Y88.662
N10685 X45.224 Y88.619 Z-0.001
N10690 X45.063 Y88.574 Z-0.002
N10695 X44.903 Y88.529 Z-0.004
N10700 X44.742 Y88.485 Z-0.006
N10705 X44.583 Y88.436 Z-0.009
N10710 X44.425 Y88.385 Z-0.012
N10715 X44.266 Y88.334 Z-0.016
N10720 X44.108 Y88.282 Z-0.02
N10725 X43.949 Y88.23 Z-0.024
N10730 X43.793 Y88.174 Z-0.029
N10735 X43.636 Y88.116 Z-0.034
N10740 X43.48 Y88.058 Z-0.039
N10745 X43.324 Y88. Z-0.045
N10750 X43.169 Y87.94 Z-0.05
N10755 X43.015 Y87.876 Z-0.056
N10760 X42.861 Y87.812 Z-0.062
N10765 X42.708 Y87.747 Z-0.068
N10770 X42.554 Y87.682 Z-0.074
N10775 X42.402 Y87.615 Z-0.08
N10780 X42.251 Y87.545 Z-0.085
N10785 X42.1 Y87.473 Z-0.091
N10790 X41.95 Y87.402 Z-0.097
N10795 X41.799 Y87.33 Z-0.103
N10800 X41.651 Y87.255 Z-0.109
N10805 X41.503 Y87.179 Z-0.114
N10810 X41.061 Y86.944 Z-0.132
N10815 X40.916 Y86.862 Z-0.138
N10820 X40.772 Y86.779 Z-0.144
N10825 X40.628 Y86.695 Z-0.149
N10830 X40.485 Y86.61 Z-0.155
N10835 X40.341 Y86.526 Z-0.161
N10840 X40.2 Y86.437 Z-0.167
N10845 X40.06 Y86.347 Z-0.173
N10850 X39.92 Y86.257 Z-0.178
N10855 X39.78 Y86.166 Z-0.184
N10860 X39.641 Y86.075 Z-0.19
N10865 X39.504 Y85.98 Z-0.196
N10870 X39.368 Y85.884 Z-0.202
N10875 X39.232 Y85.787 Z-0.207
N10880 X39.096 Y85.691 Z-0.213
N10885 X38.962 Y85.593 Z-0.218
N10890 X38.829 Y85.492 Z-0.223
N10895 X38.697 Y85.39 Z-0.227
N10900 X38.566 Y85.288 Z-0.232
N10905 X38.434 Y85.185 Z-0.235
N10910 X38.305 Y85.08 Z-0.239
N10915 X38.177 Y84.974 Z-0.242
N10920 X38.05 Y84.866 Z-0.244
N10925 X37.923 Y84.758 Z-0.247
N10930 X37.796 Y84.65 Z-0.248
N10935 X37.672 Y84.539 Z-0.249
N10940 X37.571 Y84.448 Z-0.25
N10945 X37.521 Y84.402
N10950 X37.471 Y84.355
N10955 G3 X62.53 Y57.143 I12.529 J-13.606
N10960 X37.471 Y84.355 I-12.529 J13.606
N10965 G1 X37.441 Y84.327
N10970 X37.41 Y84.299
N10975 X37.349 Y84.242
N10980 X37.227 Y84.129 Z-0.251
N10985 X37.107 Y84.013 Z-0.252
N10990 X36.989 Y83.896 Z-0.254
N10995 X36.872 Y83.777 Z-0.256
N11000 X36.755 Y83.659 Z-0.259
N11005 X36.637 Y83.541 Z-0.262
N11010 X36.524 Y83.419 Z-0.266
N11015 X36.411 Y83.297 Z-0.27
N11020 X36.299 Y83.173 Z-0.274
N11025 X36.187 Y83.05 Z-0.279
N11030 X36.075 Y82.926 Z-0.284
N11035 X35.967 Y82.799 Z-0.289
N11040 X35.86 Y82.672 Z-0.295
N11045 X35.753 Y82.544 Z-0.3
N11050 X35.647 Y82.416 Z-0.306
N11055 X35.541 Y82.287 Z-0.312
N11060 X35.439 Y82.155 Z-0.318
N11065 X35.337 Y82.023 Z-0.324
N11070 X35.237 Y81.891 Z-0.33
N11075 X35.136 Y81.758 Z-0.335
N11080 X35.037 Y81.624 Z-0.341
N11085 X34.94 Y81.488 Z-0.347
N11090 X34.845 Y81.352 Z-0.353
N11095 X34.75 Y81.215 Z-0.359
N11100 X34.655 Y81.078 Z-0.364
N11105 X34.563 Y80.939 Z-0.37
N11110 X34.472 Y80.799 Z-0.376
N11115 X34.383 Y80.659 Z-0.382
N11120 X34.294 Y80.518 Z-0.388
N11125 X34.205 Y80.377 Z-0.394
N11130 X34.12 Y80.234 Z-0.399
N11135 X34.036 Y80.09 Z-0.405
N11140 X33.953 Y79.946 Z-0.411
N11145 X33.87 Y79.801 Z-0.417
N11150 X33.787 Y79.656 Z-0.423
N11155 X33.709 Y79.509 Z-0.428
N11160 X33.632 Y79.362 Z-0.434
N11165 X33.555 Y79.214 Z-0.44
N11170 X33.479 Y79.066 Z-0.446
N11175 X33.403 Y78.917 Z-0.452
N11180 X33.332 Y78.767 Z-0.457
N11185 X33.261 Y78.616 Z-0.463
N11190 X33.191 Y78.465 Z-0.468
N11195 X33.121 Y78.314 Z-0.473
N11200 X33.053 Y78.162 Z-0.477
N11205 X32.988 Y78.008 Z-0.482
N11210 X32.924 Y77.855 Z-0.485
N11215 X32.86 Y77.701 Z-0.489
N11220 X32.797 Y77.547 Z-0.492
N11225 X32.737 Y77.391 Z-0.494
N11230 X32.678 Y77.235 Z-0.497
N11235 X32.621 Y77.079 Z-0.498
N11240 X32.565 Y76.922 Z-0.499
N11245 X32.519 Y76.794 Z-0.5
N11250 X32.495 Y76.73
N11255 X32.485 Y76.698
N11260 X32.474 Y76.666
N11265 Y76.665
N11270 G3 X67.525 Y64.835 I17.525 J-5.915
N11275 X32.497 Y76.733 I-17.525 J5.915
N11280 G1 X32.474 Y76.665
N11285 Y76.666
N11290 X32.461 Y76.626
N11295 X32.449 Y76.586
N11300 X32.423 Y76.507
N11305 X32.372 Y76.348 Z-0.501
N11310 X32.323 Y76.189 Z-0.502
N11315 X32.273 Y76.03 Z-0.504
N11320 X32.226 Y75.87 Z-0.506
N11325 X32.182 Y75.71 Z-0.509
N11330 X32.138 Y75.549 Z-0.512
N11335 X32.096 Y75.388 Z-0.516
N11340 X32.053 Y75.227 Z-0.52
N11345 X32.014 Y75.065 Z-0.524
N11350 X31.976 Y74.903 Z-0.529
N11355 X31.941 Y74.74 Z-0.534
N11360 X31.905 Y74.577 Z-0.539
N11365 X31.869 Y74.415 Z-0.545
N11370 X31.838 Y74.251 Z-0.55
N11375 X31.808 Y74.087 Z-0.556
N11380 X31.779 Y73.923 Z-0.562
N11385 X31.75 Y73.759 Z-0.568
N11390 X31.722 Y73.595 Z-0.574
N11395 X31.699 Y73.43 Z-0.58
N11400 X31.676 Y73.265 Z-0.585
N11405 X31.655 Y73.1 Z-0.591
N11410 X31.633 Y72.934 Z-0.597
N11415 X31.613 Y72.769 Z-0.603
N11420 X31.597 Y72.603 Z-0.609
N11425 X31.582 Y72.437 Z-0.614
N11430 X31.553 Y72.105 Z-0.626
N11435 X31.541 Y71.939 Z-0.632
N11440 X31.532 Y71.773 Z-0.638
N11445 X31.525 Y71.607 Z-0.644
N11450 X31.518 Y71.44 Z-0.649
N11455 X31.51 Y71.274 Z-0.655
N11460 X31.507 Y71.107 Z-0.661
N11465 X31.505 Y70.941 Z-0.667
N11470 Y70.774 Z-0.673
N11475 Y70.607 Z-0.678
N11480 Y70.441 Z-0.684
N11485 X31.51 Y70.274 Z-0.69
N11490 X31.515 Y70.108 Z-0.696
N11495 X31.523 Y69.941 Z-0.702
N11500 X31.53 Y69.775 Z-0.707
N11505 X31.538 Y69.609 Z-0.713
N11510 X31.55 Y69.442 Z-0.718
N11515 X31.563 Y69.276 Z-0.723
N11520 X31.578 Y69.11 Z-0.727
N11525 X31.592 Y68.944 Z-0.732
N11530 X31.608 Y68.779 Z-0.735
N11535 X31.628 Y68.613 Z-0.739
N11540 X31.649 Y68.448 Z-0.742
N11545 X31.67 Y68.283 Z-0.744
N11550 X31.692 Y68.118 Z-0.747
N11555 X31.716 Y67.953 Z-0.748
N11560 X31.743 Y67.788 Z-0.749
N11565 X31.766 Y67.654 Z-0.75
N11570 X31.777 Y67.587
N11575 X31.789 Y67.52
N11580 G3 X68.212 Y73.98 I18.212 J3.23
N11585 X31.789 Y67.52 I-18.212 J-3.23
N11590 G1 X31.796 Y67.479
N11595 X31.803 Y67.438
N11600 X31.818 Y67.356
N11605 X31.848 Y67.192 Z-0.751
N11610 X31.882 Y67.029 Z-0.752
N11615 X31.917 Y66.866 Z-0.754
N11620 X31.953 Y66.704 Z-0.756
N11625 X31.989 Y66.541 Z-0.759
N11630 X32.027 Y66.379 Z-0.762
N11635 X32.068 Y66.218 Z-0.766
N11640 X32.11 Y66.056 Z-0.77
N11645 X32.153 Y65.895 Z-0.774
N11650 X32.196 Y65.734 Z-0.779
N11655 X32.242 Y65.574 Z-0.784
N11660 X32.29 Y65.415 Z-0.789
N11665 X32.34 Y65.256 Z-0.795
N11670 X32.39 Y65.097 Z-0.8
N11675 X32.439 Y64.938 Z-0.806
N11680 X32.494 Y64.78 Z-0.812
N11685 X32.549 Y64.623 Z-0.818
N11690 X32.605 Y64.466 Z-0.824
N11695 X32.662 Y64.31 Z-0.83
N11700 X32.719 Y64.153 Z-0.835
N11705 X32.78 Y63.998 Z-0.841
N11710 X32.842 Y63.844 Z-0.847
N11715 X32.906 Y63.69 Z-0.853
N11720 X32.969 Y63.536 Z-0.859
N11725 X33.033 Y63.382 Z-0.864
N11730 X33.102 Y63.23 Z-0.87
N11735 X33.171 Y63.078 Z-0.876
N11740 X33.311 Y62.776 Z-0.888
N11745 X33.383 Y62.626 Z-0.894
N11750 X33.458 Y62.477 Z-0.899
N11755 X33.533 Y62.329 Z-0.905
N11760 X33.61 Y62.181 Z-0.911
N11765 X33.686 Y62.033 Z-0.917
N11770 X33.766 Y61.886 Z-0.923
N11775 X33.847 Y61.741 Z-0.928
N11780 X33.929 Y61.596 Z-0.934
N11785 X34.012 Y61.451 Z-0.94
N11790 X34.095 Y61.307 Z-0.946
N11795 X34.181 Y61.165 Z-0.952
N11800 X34.269 Y61.023 Z-0.957
N11805 X34.358 Y60.882 Z-0.963
N11810 X34.447 Y60.741 Z-0.968
N11815 X34.536 Y60.6 Z-0.973
N11820 X34.629 Y60.462 Z-0.977
N11825 X34.723 Y60.325 Z-0.982
N11830 X34.818 Y60.188 Z-0.985
N11835 X34.913 Y60.051 Z-0.989
N11840 X35.008 Y59.915 Z-0.992
N11845 X35.108 Y59.781 Z-0.994
N11850 X35.208 Y59.647 Z-0.997
N11855 X35.308 Y59.515 Z-0.998
N11860 X35.409 Y59.382 Z-0.999
N11865 X35.492 Y59.275 Z-1.
N11870 X35.535 Y59.222
N11875 X35.578 Y59.169
N11880 G3 X64.422 Y82.331 I14.422 J11.581
N11885 X35.578 Y59.169 I-14.422 J-11.581
N11890 G1 X35.605 Y59.137
N11895 X35.631 Y59.104
N11900 X35.684 Y59.04
N11905 X35.79 Y58.912 Z-1.001
N11910 X35.896 Y58.784 Z-1.002
N11915 X36.004 Y58.656 Z-1.004
N11920 X36.114 Y58.532 Z-1.006
N11925 X36.225 Y58.408 Z-1.009
N11930 X36.337 Y58.284 Z-1.012
N11935 X36.449 Y58.161 Z-1.016
N11940 X36.563 Y58.039 Z-1.02
N11945 X36.679 Y57.919 Z-1.024
N11950 X36.795 Y57.8 Z-1.029
N11955 X36.912 Y57.682 Z-1.034
N11960 X37.029 Y57.563 Z-1.039
N11965 X37.149 Y57.447 Z-1.045
N11970 X37.27 Y57.332 Z-1.05
N11975 X37.391 Y57.219 Z-1.056
N11980 X37.514 Y57.106 Z-1.062
N11985 X37.636 Y56.992 Z-1.068
N11990 X37.761 Y56.882 Z-1.074
N11995 X37.887 Y56.773 Z-1.08
N12000 X38.013 Y56.665 Z-1.085
N12005 X38.14 Y56.557 Z-1.091
N12010 X38.267 Y56.449 Z-1.097
N12015 X38.398 Y56.345 Z-1.103
N12020 X38.528 Y56.242 Z-1.109
N12025 X38.66 Y56.14 Z-1.114
N12030 X38.791 Y56.037 Z-1.12
N12035 X38.923 Y55.936 Z-1.126
N12040 X39.058 Y55.838 Z-1.132
N12045 X39.193 Y55.74 Z-1.138
N12050 X39.329 Y55.644 Z-1.144
N12055 X39.465 Y55.547 Z-1.149
N12060 X39.602 Y55.453 Z-1.155
N12065 X39.74 Y55.361 Z-1.161
N12070 X39.88 Y55.269 Z-1.167
N12075 X40.02 Y55.179 Z-1.173
N12080 X40.16 Y55.088 Z-1.178
N12085 X40.301 Y55. Z-1.184
N12090 X40.444 Y54.914 Z-1.19
N12095 X40.587 Y54.829 Z-1.196
N12100 X40.731 Y54.745 Z-1.202
N12105 X40.874 Y54.661 Z-1.207
N12110 X41.02 Y54.58 Z-1.213
N12115 X41.166 Y54.5 Z-1.218
N12120 X41.313 Y54.422 Z-1.223
N12125 X41.46 Y54.344 Z-1.227
N12130 X41.608 Y54.266 Z-1.232
N12135 X41.757 Y54.192 Z-1.235
N12140 X41.907 Y54.119 Z-1.239
N12145 X42.057 Y54.047 Z-1.242
N12150 X42.208 Y53.976 Z-1.244
N12155 X42.358 Y53.905 Z-1.247
N12160 X42.511 Y53.838 Z-1.248
N12165 X42.664 Y53.772 Z-1.249
N12170 X42.789 Y53.719 Z-1.25
N12175 X42.852 Y53.692
N12180 X42.914 Y53.666
N12185 G3 X57.086 Y87.835 I7.086 J17.085
N12190 X42.914 Y53.666 I-7.086 J-17.085
N12195 G1 X42.952 Y53.649
N12200 X42.991 Y53.633
N12205 X43.068 Y53.601
N12210 X43.223 Y53.54 Z-1.251
N12215 X43.378 Y53.48 Z-1.252
N12220 X43.534 Y53.422 Z-1.254
N12225 X43.69 Y53.364 Z-1.256
N12230 X43.847 Y53.306 Z-1.259
N12235 X44.004 Y53.253 Z-1.262
N12240 X44.162 Y53.2 Z-1.266
N12245 X44.321 Y53.148 Z-1.27
N12250 X44.479 Y53.097 Z-1.274
N12255 X44.638 Y53.047 Z-1.279
N12260 X44.798 Y53.001 Z-1.284
N12265 X44.958 Y52.955 Z-1.289
N12270 X45.119 Y52.911 Z-1.295
N12275 X45.279 Y52.866 Z-1.3
N12280 X45.441 Y52.824 Z-1.306
N12285 X45.603 Y52.785 Z-1.312
N12290 X45.765 Y52.746 Z-1.318
N12295 X45.927 Y52.709 Z-1.324
N12300 X46.089 Y52.671 Z-1.33
N12305 X46.252 Y52.637 Z-1.335
N12310 X46.416 Y52.605 Z-1.341
N12315 X46.579 Y52.574 Z-1.347
N12320 X46.743 Y52.544 Z-1.353
N12325 X46.907 Y52.513 Z-1.359
N12330 X47.072 Y52.487 Z-1.364
N12335 X47.236 Y52.462 Z-1.37
N12340 X47.401 Y52.438 Z-1.376
N12345 X47.566 Y52.415 Z-1.382
N12350 X47.731 Y52.392 Z-1.388
N12355 X47.897 Y52.374 Z-1.394
N12360 X48.062 Y52.356 Z-1.399
N12365 X48.228 Y52.34 Z-1.405
N12370 X48.394 Y52.324 Z-1.411
N12375 X48.56 Y52.309 Z-1.417
N12380 X48.726 Y52.298 Z-1.423
N12385 X48.892 Y52.288 Z-1.428
N12390 X49.059 Y52.279 Z-1.434
N12395 X49.225 Y52.27 Z-1.44
N12400 X49.392 Y52.263 Z-1.446
N12405 X49.558 Y52.26 Z-1.452
N12410 X49.725 Y52.257 Z-1.457
N12415 X49.891 Y52.255 Z-1.463
N12420 X50.058 Y52.253 Z-1.468
N12425 X50.224 Y52.255 Z-1.473
N12430 X50.391 Y52.259 Z-1.477
N12435 X50.557 Y52.263 Z-1.482
N12440 X50.724 Y52.269 Z-1.485
N12445 X50.89 Y52.274 Z-1.489
N12450 X51.057 Y52.284 Z-1.492
N12455 X51.223 Y52.295 Z-1.494
N12460 X51.389 Y52.307 Z-1.497
N12465 X51.555 Y52.32 Z-1.498
N12470 X51.721 Y52.333 Z-1.499
N12475 X51.856 Y52.347 Z-1.5
N12480 X51.924 Y52.355
N12485 X51.992 Y52.362
N12490 G3 X48.008 Y89.139 I-1.992 J18.388
N12495 X51.992 Y52.362 I1.992 J-18.388
N12500 G1 X52.033 Y52.367
N12505 X52.074 Y52.371
N12510 X52.157 Y52.381
N12515 X52.323 Y52.401 Z-1.501
N12520 X52.488 Y52.421 Z-1.502
N12525 X52.653 Y52.445 Z-1.504
N12530 X52.817 Y52.47 Z-1.506
N12535 X52.982 Y52.497 Z-1.509
N12540 X53.146 Y52.524 Z-1.512
N12545 X53.311 Y52.551 Z-1.516
N12550 X53.474 Y52.583 Z-1.52
N12555 X53.637 Y52.616 Z-1.524
N12560 X53.801 Y52.65 Z-1.529
N12565 X53.964 Y52.684 Z-1.534
N12570 X54.126 Y52.719 Z-1.539
N12575 X54.288 Y52.758 Z-1.545
N12580 X54.45 Y52.798 Z-1.55
N12585 X54.611 Y52.839 Z-1.556
N12590 X54.773 Y52.88 Z-1.562
N12595 X54.934 Y52.923 Z-1.568
N12600 X55.094 Y52.97 Z-1.574
N12605 X55.254 Y53.017 Z-1.58
N12610 X55.413 Y53.065 Z-1.585
N12615 X55.573 Y53.113 Z-1.591
N12620 X55.731 Y53.164 Z-1.597
N12625 X55.889 Y53.217 Z-1.603
N12630 X56.047 Y53.271 Z-1.609
N12635 X56.204 Y53.326 Z-1.614
N12640 X56.361 Y53.381 Z-1.62
N12645 X56.517 Y53.44 Z-1.626
N12650 X56.672 Y53.5 Z-1.632
N12655 X56.827 Y53.561 Z-1.638
N12660 X56.982 Y53.623 Z-1.644
N12665 X57.137 Y53.685 Z-1.649
N12670 X57.29 Y53.751 Z-1.655
N12675 X57.442 Y53.818 Z-1.661
N12680 X57.594 Y53.886 Z-1.667
N12685 X57.746 Y53.954 Z-1.673
N12690 X57.898 Y54.024 Z-1.678
N12695 X58.047 Y54.097 Z-1.684
N12700 X58.197 Y54.17 Z-1.69
N12705 X58.346 Y54.245 Z-1.696
N12710 X58.494 Y54.32 Z-1.702
N12715 X58.642 Y54.396 Z-1.707
N12720 X58.789 Y54.476 Z-1.713
N12725 X58.935 Y54.556 Z-1.718
N12730 X59.08 Y54.637 Z-1.723
N12735 X59.226 Y54.718 Z-1.727
N12740 X59.37 Y54.802 Z-1.732
N12745 X59.512 Y54.888 Z-1.735
N12750 X59.655 Y54.975 Z-1.739
N12755 X59.796 Y55.062 Z-1.742
N12760 X59.938 Y55.15 Z-1.744
N12765 X60.078 Y55.241 Z-1.747
N12770 X60.217 Y55.333 Z-1.748
N12775 X60.355 Y55.426 Z-1.749
N12780 X60.468 Y55.502 Z-1.75
N12785 X60.524 Y55.54
N12790 X60.58 Y55.578
N12795 G3 X65.44 Y80.932 I-10.579 J15.171
N12800 X34.184 Y80.36 I-15.438 J-10.691
N12805 X31.673 Y73.27 I16.209 J-9.729
N12810 X60.58 Y55.578 I18.328 J-2.516
N12815 G1 X60.615 Y55.602
N12820 X60.649 Y55.625
N12825 X60.716 Y55.674
N12830 X60.851 Y55.772 Z-1.751
N12835 X60.985 Y55.871 Z-1.752
N12840 X61.119 Y55.97 Z-1.754
N12845 X61.253 Y56.069 Z-1.756
N12850 X61.384 Y56.172 Z-1.759
N12855 X61.514 Y56.276 Z-1.762
N12860 X61.644 Y56.38 Z-1.766
N12865 X61.773 Y56.485 Z-1.77
N12870 X61.902 Y56.591 Z-1.774
N12875 X62.028 Y56.7 Z-1.779
N12880 X62.154 Y56.809 Z-1.784
N12885 X62.279 Y56.919 Z-1.789
N12890 X62.404 Y57.03 Z-1.795
N12895 X62.528 Y57.141 Z-1.8
N12900 X62.649 Y57.255 Z-1.806
N12905 X62.77 Y57.37 Z-1.812
N12910 X62.889 Y57.486 Z-1.818
N12915 X63.009 Y57.602 Z-1.824
N12920 X63.127 Y57.719 Z-1.83
N12925 X63.243 Y57.839 Z-1.835
N12930 X63.359 Y57.959 Z-1.841
N12935 X63.473 Y58.08 Z-1.847
N12940 X63.588 Y58.2 Z-1.853
N12945 X63.7 Y58.323 Z-1.859
N12950 X63.811 Y58.448 Z-1.864
N12955 X63.921 Y58.573 Z-1.87
N12960 X64.139 Y58.825 Z-1.882
N12965 X64.246 Y58.953 Z-1.888
N12970 X64.351 Y59.082 Z-1.894
N12975 X64.455 Y59.212 Z-1.899
N12980 X64.559 Y59.343 Z-1.905
N12985 X64.662 Y59.473 Z-1.911
N12990 X64.762 Y59.606 Z-1.917
N12995 X64.861 Y59.74 Z-1.923
N13000 X64.96 Y59.875 Z-1.928
N13005 X65.058 Y60.009 Z-1.934
N13010 X65.155 Y60.144 Z-1.94
N13015 X65.249 Y60.282 Z-1.946
N13020 X65.342 Y60.42 Z-1.952
N13025 X65.434 Y60.559 Z-1.957
N13030 X65.526 Y60.698 Z-1.963
N13035 X65.617 Y60.838 Z-1.968
N13040 X65.704 Y60.979 Z-1.973
N13045 X65.791 Y61.121 Z-1.977
N13050 X65.877 Y61.264 Z-1.982
N13055 X65.963 Y61.407 Z-1.985
N13060 X66.047 Y61.551 Z-1.989
N13065 X66.128 Y61.696 Z-1.992
N13070 X66.209 Y61.842 Z-1.994
N13075 X66.288 Y61.988 Z-1.997
N13080 X66.368 Y62.135 Z-1.998
N13085 X66.444 Y62.283 Z-1.999
N13090 X66.505 Y62.404 Z-2.
N13095 X66.536 Y62.465
N13100 X66.551 Y62.495
N13105 X66.559 Y62.511
N13110 X66.566 Y62.526
N13115 G3 X68.396 Y72.64 I-16.509 J8.21
N13120 X52.723 Y88.535 I-18.28 J-2.35
N13125 X32.724 Y77.051 I-2.76 J-18.35
N13130 X31.496 Y70.75 I16.544 J-6.494
N13135 X66.57 Y62.524 I18.504 J0.01
N13140 G1 X66.566 Y62.526
N13145 X66.585 Y62.563
N13150 X66.603 Y62.601
N13155 X66.639 Y62.676
N13160 X66.713 Y62.825 Z-2.001
N13165 X66.783 Y62.976 Z-2.002
N13170 X66.852 Y63.128 Z-2.004
N13175 X66.92 Y63.28 Z-2.006
N13180 X66.986 Y63.433 Z-2.009
N13185 X67.053 Y63.585 Z-2.012
N13190 X67.116 Y63.74 Z-2.016
N13195 X67.178 Y63.894 Z-2.02
N13200 X67.239 Y64.049 Z-2.024
N13205 X67.299 Y64.205 Z-2.029
N13210 X67.359 Y64.36 Z-2.034
N13215 X67.414 Y64.517 Z-2.039
N13220 X67.469 Y64.675 Z-2.045
N13225 X67.523 Y64.832 Z-2.05
N13230 X67.576 Y64.99 Z-2.056
N13235 X67.629 Y65.148 Z-2.062
N13240 X67.677 Y65.308 Z-2.068
N13245 X67.725 Y65.467 Z-2.074
N13250 X67.771 Y65.627 Z-2.08
N13255 X67.818 Y65.788 Z-2.085
N13260 X67.863 Y65.948 Z-2.091
N13265 X67.904 Y66.11 Z-2.097
N13270 X67.945 Y66.271 Z-2.103
N13275 X67.984 Y66.433 Z-2.109
N13280 X68.024 Y66.596 Z-2.114
N13285 X68.061 Y66.758 Z-2.12
N13290 X68.095 Y66.921 Z-2.126
N13295 X68.128 Y67.085 Z-2.132
N13300 X68.161 Y67.249 Z-2.138
N13305 X68.193 Y67.413 Z-2.144
N13310 X68.222 Y67.577 Z-2.149
N13315 Y67.579 Z-2.15
N13320 X68.223 Y67.582
N13325 X68.246 Y67.742 Z-2.155
N13330 X68.268 Y67.908 Z-2.161
N13335 X68.285 Y68.074 Z-2.167
N13340 X68.302 Y68.24 Z-2.173
N13345 X68.319 Y68.407 Z-2.179
N13350 X68.336 Y68.573 Z-2.184
N13355 X68.347 Y68.739 Z-2.19
N13360 X68.357 Y68.906 Z-2.196
N13365 X68.366 Y69.072 Z-2.202
N13370 X68.376 Y69.238 Z-2.208
N13375 X68.384 Y69.405 Z-2.213
N13380 X68.387 Y69.572 Z-2.218
N13385 X68.389 Y69.739 Z-2.223
N13390 X68.393 Y69.905 Z-2.228
N13395 X68.396 Y70.072 Z-2.232
N13400 X68.394 Y70.239 Z-2.236
N13405 X68.39 Y70.405 Z-2.239
N13410 X68.387 Y70.572 Z-2.242
N13415 X68.384 Y70.739 Z-2.245
N13420 X68.38 Y70.905 Z-2.247
N13425 X68.37 Y71.071 Z-2.248
N13430 X68.36 Y71.238 Z-2.249
N13435 X68.353 Y71.369 Z-2.25
N13440 X68.349 Y71.435
N13445 X68.346 Y71.484
N13450 Y71.5
N13455 G3 X56.612 Y87.241 I-18.136 J-1.276
N13460 X33.495 Y78.311 I-6.628 J-17.23
N13465 X32.674 Y64.248 I16.056 J-7.993
N13470 X45.436 Y52.823 I17.371 J6.563
N13475 X67.751 Y65.552 I4.558 J17.934
N13480 X68.349 Y71.5 I-17.642 J4.777
N13485 G1 X68.346
N13490 X68.343 Y71.542
N13495 X68.341 Y71.585
N13500 X68.336 Y71.669
N13505 X68.319 Y71.837 Z-2.251
N13510 X68.302 Y72.003 Z-2.252
N13515 X68.284 Y72.169 Z-2.254
N13520 X68.266 Y72.338 Z-2.257
N13525 X68.244 Y72.506 Z-2.259
N13530 X68.219 Y72.671 Z-2.263
N13535 X68.193 Y72.835 Z-2.266
N13540 X68.167 Y73.003 Z-2.27
N13545 X68.14 Y73.17 Z-2.275
N13550 X68.107 Y73.334 Z-2.279
N13555 X68.074 Y73.497 Z-2.284
N13560 X68.039 Y73.662 Z-2.29
N13565 X68.005 Y73.827 Z-2.295
N13570 X67.968 Y73.99 Z-2.301
N13575 X67.926 Y74.153 Z-2.307
N13580 X67.885 Y74.314 Z-2.313
N13585 X67.843 Y74.475 Z-2.319
N13590 X67.801 Y74.639 Z-2.325
N13595 X67.753 Y74.802 Z-2.33
N13600 X67.705 Y74.961 Z-2.336
N13605 X67.656 Y75.12 Z-2.342
N13610 X67.607 Y75.282 Z-2.348
N13615 X67.556 Y75.443 Z-2.354
N13620 X67.5 Y75.6 Z-2.36
N13625 X67.445 Y75.757 Z-2.366
N13630 X67.333 Y76.073 Z-2.377
N13635 X67.272 Y76.229 Z-2.383
N13640 X67.21 Y76.385 Z-2.389
N13645 X67.147 Y76.539 Z-2.395
N13650 X67.085 Y76.694 Z-2.401
N13655 X67.021 Y76.85 Z-2.406
N13660 X66.952 Y77.003 Z-2.412
N13665 X66.882 Y77.154 Z-2.418
N13670 X66.813 Y77.306 Z-2.424
N13675 X66.744 Y77.459 Z-2.43
N13680 X66.67 Y77.609 Z-2.436
N13685 X66.595 Y77.758 Z-2.442
N13690 X66.519 Y77.906 Z-2.447
N13695 X66.443 Y78.055 Z-2.453
N13700 X66.367 Y78.204 Z-2.459
N13705 X66.285 Y78.35 Z-2.464
N13710 X66.203 Y78.495 Z-2.469
N13715 X66.122 Y78.64 Z-2.474
N13720 X66.041 Y78.786 Z-2.479
N13725 X65.957 Y78.93 Z-2.483
N13730 X65.87 Y79.073 Z-2.486
N13735 X65.783 Y79.215 Z-2.49
N13740 X65.697 Y79.357 Z-2.493
N13745 X65.611 Y79.5 Z-2.495
N13750 X65.521 Y79.64 Z-2.497
N13755 X65.429 Y79.779 Z-2.499
N13760 X65.338 Y79.919 Z-2.5
N13765 X65.276 Y80.013
N13770 X65.246 Y80.061
N13775 X65.215 Y80.108
N13780 G3 X33.969 Y78.784 I-15.216 J-10.26
N13785 X34.128 Y61.299 I15.572 J-8.601
N13790 X46.225 Y52.649 I15.777 J9.28
N13795 X65.072 Y60.037 I3.79 J18.064
N13800 X65.212 Y80.106 I-14.583 J10.137
N13805 X64.884 Y80.341 I-0.628 J-0.533 F333.33
N13810 G2 X64.68 Y80.503 I0.255 J0.53
N13815 G1 X64.668 Y80.52
N13820 X64.645 Y80.552 Z-2.502
N13825 X64.558 Y80.67 Z-2.507
N13830 X64.173 Y81.165 Z-2.529
N13835 X64.063 Y81.3 Z-2.535
N13840 X63.662 Y81.772 Z-2.556
N13845 X63.543 Y81.905 Z-2.563
N13850 X63.228 Y82.245 Z-2.579
N13855 X63.082 Y82.402 Z-2.586
N13860 X63.071 Y82.413 Z-2.587
N13865 X62.599 Y82.881 Z-2.61
N13870 X62.441 Y83.029 Z-2.618
N13875 X61.969 Y83.458 Z-2.64
N13880 X61.914 Y83.504 Z-2.642
N13885 X61.496 Y83.851 Z-2.661
N13890 X61.345 Y83.977 Z-2.668
N13895 X60.867 Y84.34 Z-2.689
N13900 X60.724 Y84.449 Z-2.696
N13905 X60.709 Y84.46
N13910 X60.237 Y84.787 Z-2.716
N13915 X60.079 Y84.896 Z-2.723
N13920 X60.041 Y84.921 Z-2.725
N13925 X59.45 Y85.295 Z-2.749
N13930 X59.433 Y85.305 Z-2.75
N13935 X59.415 Y85.315
N13940 G3 X34.88 Y79.89 I-9.412 J-15.628 F1400.
N13945 X32.148 Y66.97 I14.799 J-9.878
N13950 X45.124 Y52.919 I17.562 J3.202
N13955 X49.845 Y52.258 I4.769 J16.862
N13960 X64.893 Y59.881 I0.209 J18.251
N13965 X63.064 Y82.406 I-14.433 J10.165
N13970 X59.414 Y85.314 I-12.59 J-12.058
N13975 G1 X59.413 Y85.312
N13980 X59.395 Y85.322
N13985 X59.377 Y85.333
N13990 X59.341 Y85.353
N13995 X59.268 Y85.395
N14000 X59.123 Y85.477 Z-2.751
N14005 X58.978 Y85.558 Z-2.752
N14010 X58.832 Y85.64 Z-2.754
N14015 X58.681 Y85.721 Z-2.757
N14020 X58.527 Y85.797 Z-2.759
N14025 X58.377 Y85.87 Z-2.763
N14030 X58.228 Y85.944 Z-2.766
N14035 X58.073 Y86.019 Z-2.77
N14040 X57.917 Y86.089 Z-2.775
N14045 X57.763 Y86.155 Z-2.779
N14050 X57.61 Y86.22 Z-2.784
N14055 X57.453 Y86.287 Z-2.79
N14060 X57.295 Y86.353 Z-2.796
N14065 X57.138 Y86.411 Z-2.801
N14070 X56.982 Y86.469 Z-2.807
N14075 X56.823 Y86.527 Z-2.813
N14080 X56.665 Y86.585 Z-2.819
N14085 X56.506 Y86.641 Z-2.825
N14090 X56.345 Y86.693 Z-2.831
N14095 X56.186 Y86.743 Z-2.837
N14100 X56.027 Y86.794 Z-2.842
N14105 X55.865 Y86.846 Z-2.848
N14110 X55.702 Y86.893 Z-2.854
N14115 X55.541 Y86.936 Z-2.86
N14120 X55.38 Y86.98 Z-2.866
N14125 X55.216 Y87.025 Z-2.872
N14130 X55.053 Y87.069 Z-2.878
N14135 X54.89 Y87.106 Z-2.884
N14140 X54.728 Y87.143 Z-2.889
N14145 X54.565 Y87.179 Z-2.895
N14150 X54.402 Y87.216 Z-2.901
N14155 X54.237 Y87.251 Z-2.907
N14160 X54.071 Y87.281 Z-2.913
N14165 X53.907 Y87.311 Z-2.919
N14170 X53.743 Y87.341 Z-2.925
N14175 X53.577 Y87.371 Z-2.93
N14180 X53.411 Y87.396 Z-2.936
N14185 X53.246 Y87.418 Z-2.942
N14190 X53.08 Y87.441 Z-2.948
N14195 X52.914 Y87.463 Z-2.954
N14200 X52.748 Y87.486 Z-2.96
N14205 X52.582 Y87.502 Z-2.965
N14210 X52.416 Y87.518 Z-2.97
N14215 X52.251 Y87.535 Z-2.975
N14220 X52.085 Y87.551 Z-2.979
N14225 X51.918 Y87.566 Z-2.983
N14230 X51.752 Y87.577 Z-2.987
N14235 X51.585 Y87.588 Z-2.99
N14240 X51.419 Y87.599 Z-2.993
N14245 X51.253 Y87.611 Z-2.995
N14250 X51.086 Y87.62 Z-2.997
N14255 X50.92 Y87.625 Z-2.999
N14260 X50.753 Y87.632 Z-3.
N14265 X50.65 Y87.636
N14270 X50.599 Y87.638
N14275 X50.547 Y87.64
N14280 G3 X33.216 Y76.265 I-0.579 J-18.009
N14285 X33.112 Y63.821 I16.381 J-6.36
N14290 X47.799 Y52.395 I16.711 J6.328
N14295 X64.81 Y59.866 I2.251 J17.976
N14300 X62.578 Y82.553 I-14.353 J10.041
N14305 X59.448 Y84.988 I-11.671 J-11.771
N14310 X50.547 Y87.639 I-9.417 J-15.349
N14315 G1 Y87.64
N14320 X50.504 Y87.642
N14325 X50.461 Y87.644
N14330 X50.375 Y87.646
N14335 X50.202 Z-3.001
N14340 X50.036 Y87.644 Z-3.003
N14345 X49.869 Y87.642 Z-3.004
N14350 X49.699 Y87.639 Z-3.007
N14355 X49.53 Y87.633 Z-3.01
N14360 X49.361 Y87.622 Z-3.013
N14365 X49.192 Y87.611 Z-3.016
N14370 X49.022 Y87.599 Z-3.021
N14375 X48.853 Y87.587 Z-3.025
N14380 X48.685 Y87.568 Z-3.03
N14385 X48.518 Y87.548 Z-3.035
N14390 X48.352 Y87.527 Z-3.04
N14395 X48.187 Y87.507 Z-3.046
N14400 X48.017 Y87.485 Z-3.052
N14405 X47.848 Y87.456 Z-3.058
N14410 X47.684 Y87.428 Z-3.063
N14415 X47.519 Y87.4 Z-3.069
N14420 X47.352 Y87.372 Z-3.075
N14425 X47.186 Y87.341 Z-3.081
N14430 X47.021 Y87.305 Z-3.087
N14435 X46.857 Y87.27 Z-3.093
N14440 X46.694 Y87.235 Z-3.099
N14445 X46.531 Y87.2 Z-3.105
N14450 X46.366 Y87.159 Z-3.11
N14455 X46.202 Y87.116 Z-3.116
N14460 X45.878 Y87.032 Z-3.128
N14465 X45.715 Y86.988 Z-3.134
N14470 X45.553 Y86.939 Z-3.14
N14475 X45.394 Y86.89 Z-3.146
N14480 X45.234 Y86.841 Z-3.152
N14485 X45.073 Y86.791 Z-3.157
N14490 X44.913 Y86.739 Z-3.163
N14495 X44.756 Y86.683 Z-3.169
N14500 X44.599 Y86.627 Z-3.175
N14505 X44.441 Y86.571 Z-3.181
N14510 X44.283 Y86.516 Z-3.187
N14515 X44.127 Y86.455 Z-3.193
N14520 X43.972 Y86.392 Z-3.198
N14525 X43.817 Y86.33 Z-3.204
N14530 X43.662 Y86.268 Z-3.21
N14535 X43.507 Y86.205 Z-3.215
N14540 X43.354 Y86.137 Z-3.22
N14545 X43.202 Y86.069 Z-3.225
N14550 X43.05 Y86.001 Z-3.229
N14555 X42.897 Y85.934 Z-3.233
N14560 X42.745 Y85.864 Z-3.237
N14565 X42.595 Y85.791 Z-3.24
N14570 X42.445 Y85.719 Z-3.243
N14575 X42.295 Y85.646 Z-3.245
N14580 X42.145 Y85.575 Z-3.247
N14585 X41.997 Y85.499 Z-3.249
N14590 X41.849 Y85.421 Z-3.25
N14595 X41.762 Y85.376
N14600 X41.718 Y85.353
N14605 X41.675 Y85.331
N14610 G3 X32.153 Y69.49 I8.115 J-15.659
N14615 X42.434 Y53.91 I17.461 J0.341
N14620 X63.231 Y57.99 I7.572 J16.444
N14625 X67.837 Y70.278 I-12.808 J11.808
N14630 X55.668 Y86.451 I-17.651 J-0.616
N14635 X41.675 Y85.331 I-5.683 J-16.984
N14640 G1 X41.638 Y85.312
N14645 X41.6 Y85.292
N14650 X41.526 Y85.254
N14655 X41.377 Y85.175 Z-3.251
N14660 X41.23 Y85.089 Z-3.252
N14665 X41.083 Y85.002 Z-3.254
N14670 X40.939 Y84.918 Z-3.257
N14675 X40.796 Y84.832 Z-3.259
N14680 X40.651 Y84.74 Z-3.263
N14685 X40.507 Y84.646 Z-3.266
N14690 X40.369 Y84.553 Z-3.27
N14695 X40.23 Y84.461 Z-3.275
N14700 X40.088 Y84.364 Z-3.28
N14705 X39.95 Y84.263 Z-3.285
N14710 X39.816 Y84.164 Z-3.29
N14715 X39.683 Y84.064 Z-3.296
N14720 X39.547 Y83.963 Z-3.301
N14725 X39.414 Y83.86 Z-3.307
N14730 X39.283 Y83.753 Z-3.313
N14735 X39.152 Y83.646 Z-3.319
N14740 X39.023 Y83.541 Z-3.325
N14745 X38.894 Y83.436 Z-3.331
N14750 X38.765 Y83.324 Z-3.337
N14755 X38.638 Y83.211 Z-3.343
N14760 X38.514 Y83.1 Z-3.349
N14765 X38.389 Y82.99 Z-3.354
N14770 X38.263 Y82.877 Z-3.36
N14775 X38.141 Y82.759 Z-3.366
N14780 X37.781 Y82.41 Z-3.384
N14785 X37.662 Y82.291 Z-3.39
N14790 X37.547 Y82.169 Z-3.395
N14795 X37.432 Y82.047 Z-3.401
N14800 X37.317 Y81.926 Z-3.407
N14805 X37.202 Y81.805 Z-3.413
N14810 X37.091 Y81.679 Z-3.419
N14815 X36.981 Y81.552 Z-3.425
N14820 X36.871 Y81.426 Z-3.431
N14825 X36.762 Y81.3 Z-3.436
N14830 X36.653 Y81.173 Z-3.442
N14835 X36.548 Y81.041 Z-3.448
N14840 X36.444 Y80.911 Z-3.454
N14845 X36.34 Y80.781 Z-3.459
N14850 X36.236 Y80.65 Z-3.465
N14855 X36.134 Y80.518 Z-3.47
N14860 X36.035 Y80.384 Z-3.475
N14865 X35.935 Y80.25 Z-3.479
N14870 X35.836 Y80.116 Z-3.483
N14875 X35.736 Y79.982 Z-3.487
N14880 X35.641 Y79.845 Z-3.49
N14885 X35.547 Y79.708 Z-3.493
N14890 X35.452 Y79.571 Z-3.495
N14895 X35.357 Y79.434 Z-3.497
N14900 X35.263 Y79.296 Z-3.499
N14905 X35.173 Y79.156 Z-3.5
N14910 X35.118 Y79.069
N14915 X35.09 Y79.026
N14920 X35.062 Y78.983
N14925 G3 X39.773 Y55.445 I14.438 J-9.351
N14930 X63.171 Y57.989 I10.23 J14.781
N14935 X67.674 Y68.545 I-12.788 J11.694
N14940 X57.714 Y85.34 I-17.424 J1.018
N14945 X35.056 Y78.987 I-7.724 J-16.032
N14950 G1 X35.062 Y78.983
N14955 X35.039 Y78.948
N14960 X35.017 Y78.913
N14965 X34.971 Y78.843
N14970 X34.882 Y78.702 Z-3.501
N14975 X34.796 Y78.554 Z-3.502
N14980 X34.711 Y78.406 Z-3.504
N14985 X34.628 Y78.261 Z-3.507
N14990 X34.546 Y78.116 Z-3.509
N14995 X34.464 Y77.966 Z-3.513
N15000 X34.387 Y77.814 Z-3.516
N15005 X34.312 Y77.665 Z-3.52
N15010 X34.237 Y77.517 Z-3.525
N15015 X34.161 Y77.364 Z-3.529
N15020 X34.09 Y77.209 Z-3.535
N15025 X34.022 Y77.057 Z-3.54
N15030 X33.955 Y76.904 Z-3.545
N15035 X33.887 Y76.752 Z-3.551
N15040 X33.822 Y76.597 Z-3.557
N15045 X33.76 Y76.44 Z-3.563
N15050 X33.698 Y76.282 Z-3.569
N15055 X33.637 Y76.127 Z-3.575
N15060 X33.576 Y75.971 Z-3.581
N15065 X33.52 Y75.812 Z-3.586
N15070 X33.465 Y75.652 Z-3.592
N15075 X33.41 Y75.495 Z-3.598
N15080 X33.356 Y75.337 Z-3.604
N15085 X33.303 Y75.177 Z-3.61
N15090 X33.255 Y75.015 Z-3.616
N15095 X33.112 Y74.534 Z-3.633
N15100 X33.068 Y74.371 Z-3.639
N15105 X33.028 Y74.21 Z-3.645
N15110 X32.987 Y74.048 Z-3.651
N15115 X32.946 Y73.886 Z-3.657
N15120 X32.906 Y73.723 Z-3.663
N15125 X32.873 Y73.559 Z-3.668
N15130 X32.839 Y73.396 Z-3.674
N15135 X32.805 Y73.233 Z-3.68
N15140 X32.771 Y73.069 Z-3.686
N15145 X32.742 Y72.904 Z-3.692
N15150 X32.715 Y72.739 Z-3.698
N15155 X32.688 Y72.575 Z-3.703
N15160 X32.661 Y72.41 Z-3.709
N15165 X32.635 Y72.245 Z-3.714
N15170 X32.615 Y72.079 Z-3.72
N15175 X32.595 Y71.914 Z-3.724
N15180 X32.574 Y71.749 Z-3.729
N15185 X32.553 Y71.583 Z-3.733
N15190 X32.536 Y71.417 Z-3.736
N15195 X32.521 Y71.251 Z-3.74
N15200 X32.507 Y71.085 Z-3.743
N15205 X32.492 Y70.919 Z-3.745
N15210 X32.478 Y70.753 Z-3.747
N15215 X32.47 Y70.587 Z-3.749
N15220 X32.461 Y70.421 Z-3.75
N15225 X32.455 Y70.31
N15230 X32.452 Y70.255
N15235 X32.449 Y70.2
N15240 G3 X41.033 Y54.673 I17.074 J-0.697
N15245 X47.641 Y52.411 I8.817 J14.975
N15250 X64.023 Y59.077 I2.383 J17.605
N15255 X67.558 Y70.12 I-13.597 J10.44
N15260 X56.297 Y85.663 I-17.356 J-0.724
N15265 X33.897 Y76.422 I-6.313 J-16.466
N15270 X32.446 Y70.2 I16.082 J-7.031
N15275 G1 X32.449
N15280 X32.447 Y70.158
N15285 X32.445 Y70.116
N15290 X32.441 Y70.032
N15295 X32.439 Y69.863 Z-3.751
N15300 X32.438 Y69.696 Z-3.752
N15305 X32.437 Y69.528 Z-3.754
N15310 Y69.361 Z-3.757
N15315 X32.441 Y69.194 Z-3.759
N15320 X32.449 Y69.025 Z-3.763
N15325 X32.456 Y68.856 Z-3.766
N15330 X32.463 Y68.689 Z-3.77
N15335 X32.472 Y68.522 Z-3.775
N15340 X32.487 Y68.354 Z-3.779
N15345 X32.503 Y68.186 Z-3.784
N15350 X32.518 Y68.02 Z-3.79
N15355 X32.533 Y67.855 Z-3.795
N15360 X32.554 Y67.687 Z-3.801
N15365 X32.577 Y67.52 Z-3.807
N15370 X32.599 Y67.355 Z-3.813
N15375 X32.622 Y67.19 Z-3.819
N15380 X32.646 Y67.023 Z-3.824
N15385 X32.676 Y66.857 Z-3.83
N15390 X32.706 Y66.693 Z-3.836
N15395 X32.735 Y66.529 Z-3.842
N15400 X32.765 Y66.365 Z-3.848
N15405 X32.801 Y66.201 Z-3.854
N15410 X32.837 Y66.038 Z-3.859
N15415 X32.874 Y65.875 Z-3.865
N15420 X32.91 Y65.712 Z-3.871
N15425 X32.949 Y65.55 Z-3.877
N15430 X33.037 Y65.226 Z-3.889
N15435 X33.08 Y65.065 Z-3.895
N15440 X33.124 Y64.904 Z-3.9
N15445 X33.172 Y64.744 Z-3.906
N15450 X33.223 Y64.585 Z-3.912
N15455 X33.273 Y64.426 Z-3.918
N15460 X33.323 Y64.267 Z-3.924
N15465 X33.376 Y64.108 Z-3.93
N15470 X33.433 Y63.951 Z-3.935
N15475 X33.49 Y63.795 Z-3.941
N15480 X33.547 Y63.638 Z-3.947
N15485 X33.604 Y63.481 Z-3.953
N15490 X33.667 Y63.326 Z-3.959
N15495 X33.73 Y63.172 Z-3.964
N15500 X33.794 Y63.018 Z-3.969
N15505 X33.857 Y62.864 Z-3.974
N15510 X33.923 Y62.711 Z-3.978
N15515 X33.993 Y62.56 Z-3.982
N15520 X34.062 Y62.408 Z-3.986
N15525 X34.132 Y62.257 Z-3.989
N15530 X34.201 Y62.105 Z-3.992
N15535 X34.276 Y61.956 Z-3.995
N15540 X34.351 Y61.808 Z-3.997
N15545 X34.427 Y61.659 Z-3.998
N15550 X34.502 Y61.511 Z-3.999
N15555 X34.557 Y61.405 Z-4.
N15560 X34.586 Y61.353
N15565 X34.615 Y61.301
N15570 G3 X50.002 Y52.263 I15.269 J8.378
N15575 X65.48 Y61.456 I0.1 J17.457
N15580 X61.336 Y82.396 I-15.063 J7.899
N15585 X39.612 Y83.153 I-11.341 J-13.366
N15590 X32.861 Y66.182 I10.081 J-13.838
N15595 X34.613 Y61.3 I17.035 J3.356
N15600 G1 X34.615 Y61.301
N15605 X34.635 Y61.265
N15610 X34.656 Y61.228
N15615 X34.697 Y61.155
N15620 X34.779 Y61.009 Z-4.001
N15625 X34.86 Y60.863 Z-4.002
N15630 X34.946 Y60.719 Z-4.004
N15635 X35.035 Y60.577 Z-4.007
N15640 X35.123 Y60.435 Z-4.009
N15645 X35.211 Y60.294 Z-4.012
N15650 X35.301 Y60.153 Z-4.016
N15655 X35.396 Y60.015 Z-4.02
N15660 X35.491 Y59.876 Z-4.024
N15665 X35.585 Y59.739 Z-4.029
N15670 X35.679 Y59.602 Z-4.034
N15675 X35.779 Y59.467 Z-4.039
N15680 X35.88 Y59.333 Z-4.045
N15685 X35.98 Y59.2 Z-4.051
N15690 X36.081 Y59.067 Z-4.057
N15695 X36.182 Y58.934 Z-4.062
N15700 X36.289 Y58.805 Z-4.068
N15705 X36.395 Y58.677 Z-4.074
N15710 X36.501 Y58.548 Z-4.08
N15715 X36.607 Y58.419 Z-4.086
N15720 X36.717 Y58.294 Z-4.092
N15725 X36.829 Y58.17 Z-4.097
N15730 X36.94 Y58.045 Z-4.103
N15735 X37.052 Y57.921 Z-4.109
N15740 X37.165 Y57.798 Z-4.115
N15745 X37.631 Y57.322 Z-4.138
N15750 X37.752 Y57.206 Z-4.144
N15755 X37.874 Y57.092 Z-4.15
N15760 X37.995 Y56.978 Z-4.156
N15765 X38.117 Y56.864 Z-4.161
N15770 X38.239 Y56.751 Z-4.167
N15775 X38.366 Y56.642 Z-4.173
N15780 X38.492 Y56.534 Z-4.179
N15785 X38.618 Y56.425 Z-4.185
N15790 X38.745 Y56.316 Z-4.191
N15795 X38.874 Y56.211 Z-4.196
N15800 X39.005 Y56.108 Z-4.202
N15805 X39.136 Y56.005 Z-4.208
N15810 X39.267 Y55.902 Z-4.213
N15815 X39.398 Y55.799 Z-4.218
N15820 X39.533 Y55.702 Z-4.223
N15825 X39.668 Y55.604 Z-4.228
N15830 X39.803 Y55.507 Z-4.232
N15835 X39.938 Y55.409 Z-4.236
N15840 X40.076 Y55.315 Z-4.239
N15845 X40.215 Y55.223 Z-4.242
N15850 X40.354 Y55.131 Z-4.245
N15855 X40.493 Y55.04 Z-4.247
N15860 X40.632 Y54.948 Z-4.248
N15865 X40.775 Y54.862 Z-4.249
N15870 X40.885 Y54.796 Z-4.25
N15875 X40.94 Y54.763
N15880 X40.995 Y54.73
N15885 G3 X62.392 Y57.359 I9.004 J15.106
N15890 X67.297 Y69.175 I-11.968 J11.894
N15895 X57.084 Y84.769 I-17.069 J-0.038
N15900 X46.539 Y85.933 I-7.076 J-15.763
N15905 X33.021 Y72.484 I3.367 J-16.903
N15910 X40.998 Y54.735 I16.517 J-3.244
N15915 G1 X40.995 Y54.73
N15920 X41.031 Y54.708
N15925 X41.067 Y54.687
N15930 X41.138 Y54.644
N15935 X41.281 Y54.559 Z-4.251
N15940 X41.428 Y54.479 Z-4.252
N15945 X41.574 Y54.399 Z-4.254
N15950 X41.721 Y54.32 Z-4.257
N15955 X41.867 Y54.24 Z-4.259
N15960 X42.016 Y54.164 Z-4.262
N15965 X42.166 Y54.091 Z-4.266
N15970 X42.316 Y54.018 Z-4.27
N15975 X42.465 Y53.945 Z-4.274
N15980 X42.615 Y53.872 Z-4.279
N15985 X42.768 Y53.806 Z-4.284
N15990 X42.921 Y53.739 Z-4.289
N15995 X43.074 Y53.673 Z-4.295
N16000 X43.227 Y53.606 Z-4.3
N16005 X43.381 Y53.543 Z-4.306
N16010 X43.537 Y53.483 Z-4.312
N16015 X43.692 Y53.423 Z-4.318
N16020 X43.848 Y53.364 Z-4.324
N16025 X44.003 Y53.304 Z-4.33
N16030 X44.161 Y53.249 Z-4.335
N16035 X44.319 Y53.196 Z-4.341
N16040 X44.477 Y53.143 Z-4.347
N16045 X44.635 Y53.09 Z-4.353
N16050 X44.793 Y53.039 Z-4.359
N16055 X44.953 Y52.993 Z-4.365
N16060 X45.434 Y52.854 Z-4.382
N16065 X45.595 Y52.813 Z-4.388
N16070 X45.757 Y52.774 Z-4.394
N16075 X45.919 Y52.735 Z-4.399
N16080 X46.081 Y52.695 Z-4.405
N16085 X46.243 Y52.657 Z-4.411
N16090 X46.406 Y52.625 Z-4.417
N16095 X46.57 Y52.593 Z-4.423
N16100 X46.733 Y52.561 Z-4.429
N16105 X46.897 Y52.529 Z-4.434
N16110 X47.061 Y52.5 Z-4.44
N16115 X47.225 Y52.475 Z-4.446
N16120 X47.39 Y52.45 Z-4.452
N16125 X47.555 Y52.424 Z-4.458
N16130 X47.72 Y52.399 Z-4.463
N16135 X47.885 Y52.381 Z-4.468
N16140 X48.051 Y52.363 Z-4.473
N16145 X48.216 Y52.345 Z-4.478
N16150 X48.382 Y52.327 Z-4.482
N16155 X48.548 Y52.312 Z-4.485
N16160 X48.714 Y52.301 Z-4.489
N16165 X48.88 Y52.29 Z-4.492
N16170 X49.047 Y52.28 Z-4.494
N16175 X49.213 Y52.271 Z-4.497
N16180 X49.379 Y52.264 Z-4.498
N16185 X49.546 Y52.26 Z-4.499
N16190 X49.681 Y52.258 Z-4.5
N16195 X49.748 Y52.257
N16200 X49.815 Y52.256
N16205 G3 X64.88 Y60.668 I0.252 J17.244
N16210 X67.094 Y67.6 I-14.612 J8.485
N16215 X58.185 Y83.939 I-16.816 J1.429
N16220 X41.187 Y83.593 I-8.194 J-15.167
N16225 X32.931 Y67.285 I8.564 J-14.579
N16230 X43.393 Y53.556 I16.724 J1.894
N16235 X49.815 Y52.257 I6.523 J15.724
N16240 G1 Y52.256
N16245 X49.857 Y52.255
N16250 X49.898
N16255 X49.982 Y52.254
N16260 X50.148 Z-4.501
N16265 X50.315 Y52.257 Z-4.502
N16270 X50.481 Y52.261 Z-4.504
N16275 X50.648 Y52.266 Z-4.506
N16280 X50.814 Y52.272 Z-4.509
N16285 X50.981 Y52.281 Z-4.512
N16290 X51.147 Y52.292 Z-4.516
N16295 X51.313 Y52.303 Z-4.52
N16300 X51.479 Y52.314 Z-4.524
N16305 X51.645 Y52.33 Z-4.529
N16310 X51.811 Y52.348 Z-4.534
N16315 X51.976 Y52.366 Z-4.539
N16320 X52.142 Y52.384 Z-4.545
N16325 X52.308 Y52.404 Z-4.55
N16330 X52.472 Y52.429 Z-4.556
N16335 X52.637 Y52.454 Z-4.562
N16340 X52.802 Y52.48 Z-4.568
N16345 X52.966 Y52.505 Z-4.574
N16350 X53.13 Y52.535 Z-4.58
N16355 X53.293 Y52.568 Z-4.585
N16360 X53.457 Y52.6 Z-4.591
N16365 X53.62 Y52.632 Z-4.597
N16370 X53.784 Y52.666 Z-4.603
N16375 X53.945 Y52.705 Z-4.609
N16380 X54.107 Y52.744 Z-4.614
N16385 X54.431 Y52.823 Z-4.626
N16390 X54.592 Y52.867 Z-4.632
N16395 X54.752 Y52.914 Z-4.638
N16400 X54.912 Y52.96 Z-4.644
N16405 X55.072 Y53.006 Z-4.649
N16410 X55.231 Y53.054 Z-4.655
N16415 X55.389 Y53.108 Z-4.661
N16420 X55.547 Y53.161 Z-4.667
N16425 X55.705 Y53.214 Z-4.673
N16430 X55.863 Y53.268 Z-4.678
N16435 X56.019 Y53.326 Z-4.684
N16440 X56.174 Y53.386 Z-4.69
N16445 X56.329 Y53.446 Z-4.696
N16450 X56.485 Y53.507 Z-4.702
N16455 X56.64 Y53.568 Z-4.707
N16460 X56.792 Y53.635 Z-4.713
N16465 X56.945 Y53.702 Z-4.718
N16470 X57.097 Y53.769 Z-4.723
N16475 X57.25 Y53.836 Z-4.727
N16480 X57.4 Y53.907 Z-4.732
N16485 X57.55 Y53.981 Z-4.735
N16490 X57.699 Y54.054 Z-4.739
N16495 X57.849 Y54.128 Z-4.742
N16500 X57.997 Y54.203 Z-4.744
N16505 X58.144 Y54.283 Z-4.747
N16510 X58.29 Y54.363 Z-4.748
N16515 X58.436 Y54.442 Z-4.749
N16520 X58.555 Y54.507 Z-4.75
N16525 X58.615 Y54.541
N16530 X58.673 Y54.576
N16535 G3 X66.973 Y70.278 I-8.263 J14.413
N16540 X53.937 Y85.269 I-16.83 J-1.472
N16545 X34.408 Y75.677 I-3.962 J-16.609
N16550 X34.884 Y61.245 I15.14 J-6.724
N16555 X50.947 Y52.289 I15.024 J8.063
N16560 X58.672 Y54.577 I-0.831 J16.996
N16565 G1 X58.673 Y54.576
N16570 X58.708 Y54.597
N16575 X58.744 Y54.619
N16580 X58.815 Y54.661
N16585 X58.958 Y54.747 Z-4.751
N16590 X59.101 Y54.834 Z-4.752
N16595 X59.244 Y54.921 Z-4.754
N16600 X59.382 Y55.013 Z-4.757
N16605 X59.521 Y55.105 Z-4.759
N16610 X59.66 Y55.197 Z-4.762
N16615 X59.799 Y55.29 Z-4.766
N16620 X59.935 Y55.386 Z-4.77
N16625 X60.07 Y55.484 Z-4.774
N16630 X60.205 Y55.583 Z-4.779
N16635 X60.339 Y55.681 Z-4.784
N16640 X60.473 Y55.781 Z-4.789
N16645 X60.603 Y55.886 Z-4.795
