%
(CONTOUR_3)
(T1  D=6. CR=0. - ZMIN=-22.5 - FLAT END MILL)
N10 G90 G94 G17 G91.1
N15 G21
N20 G53 G0 Z0.
(2D CONTOUR2)
N25 M9
N30 T1 M6
N35 S22000 M3
N40 G54
N45 G0 X39.036 Y500.421
N50 G43 Z15. H1
N55 G0 Z5.
N60 G1 Z2.5 F150.33
N65 Z1.6
N70 G18 G2 X39.636 Z1. I0.6 K0.
N75 G1 X40.236 F300.
N80 G17 G2 X40.836 Y499.821 I0. J-0.6
N85 G1 Y492.57 Z0.747 F150.
N90 G3 X45.336 Y488.07 Z0.5 I4.5 J0.
N95 G1 X54.336 Z0.186
N100 G3 X58.836 Y492.57 Z-0.061 I0. J4.5
N105 G1 Y503.236 Z-0.434
N110 G3 X74.753 Y527.809 Z-1.5 I-14.5 J26.833
N115 X58.836 Y556.903 I-30.416 J2.261 F650.
N120 G1 Y567.57
N125 G3 X54.336 Y572.07 I-4.5 J0.
N130 G1 X45.336
N135 G3 X40.836 Y567.57 I0. J-4.5
N140 G1 Y549.243
N145 G3 X45.102 Y544.749 I4.5 J0.
N150 G2 Y515.39 I-0.766 J-14.68
N155 G3 X40.836 Y510.896 I0.234 J-4.494
N160 G1 Y492.57
N165 G3 X45.336 Y488.07 I4.5 J0.
N170 G1 X54.336
N175 G3 X58.836 Y492.57 I0. J4.5
N180 G1 Y503.236
N185 G3 X74.753 Y527.809 I-14.5 J26.833
N190 X74.067 Y529.002 I-1.223 J0.091
N195 G2 X73.336 Y530.168 I0.571 J1.17
N200 G3 X57.336 Y555.993 I-29. J-0.099
N205 G1 Y567.57
N210 G3 X54.336 Y570.57 I-3. J0.
N215 G1 X45.336
N220 G3 X42.336 Y567.57 I0. J-3.
N225 G1 Y549.243
N230 G3 X45.18 Y546.247 I3. J0.
N235 G2 Y513.892 I-0.844 J-16.178
N240 G3 X42.336 Y510.896 I0.156 J-2.996
N245 G1 Y492.57
N250 G3 X45.336 Y489.57 I3. J0.
N255 G1 X54.336
N260 G3 X57.336 Y492.57 I0. J3.
N265 G1 Y504.146
N270 G3 X73.336 Y530.168 I-13. J25.923
N275 G2 X73.934 Y530.77 I0.6 J0.002 F300.
N280 G1 X74.534 Y530.772
N285 X74.628 Z-1.493
N290 X74.72 Y530.773 Z-1.471
N295 X74.807 Z-1.435
N300 X74.887 Z-1.385
N305 X74.959 Y530.774 Z-1.324
N310 X75.02 Z-1.253
N315 X75.069 Z-1.172
N320 X75.105 Z-1.085
N325 X75.127 Z-0.994
N330 X75.134 Z-0.9
N335 G0 Z5.
N340 X37.47 Y512.662
N345 G1 Z2.5 F150.33
N350 Z1.6
N355 G18 G3 X36.87 Z1. I-0.6 K0.
N360 G1 X36.27 F300.
N365 G17 G2 X35.67 Y513.263 I0. J0.6
N370 G1 Y520.513 Z0.747 F150.
N375 G3 X31.17 Y525.013 Z0.5 I-4.5 J0.
N380 G1 X22.17 Z0.186
N385 G3 X17.67 Y520.513 Z-0.061 I0. J-4.5
N390 G1 Y509.846 Z-0.434
N395 G3 X1.754 Y485.274 Z-1.5 I14.5 J-26.833
N400 X17.67 Y456.18 I30.416 J-2.261 F650.
N405 G1 Y445.513
N410 G3 X22.17 Y441.013 I4.5 J0.
N415 G1 X31.17
N420 G3 X35.67 Y445.513 I0. J4.5
N425 G1 Y463.839
N430 G3 X31.404 Y468.333 I-4.5 J0.
N435 G2 Y497.693 I0.766 J14.68
N440 G3 X35.67 Y502.187 I-0.234 J4.494
N445 G1 Y520.513
N450 G3 X31.17 Y525.013 I-4.5 J0.
N455 G1 X22.17
N460 G3 X17.67 Y520.513 I0. J-4.5
N465 G1 Y509.846
N470 G3 X1.754 Y485.274 I14.5 J-26.833
N475 X2.439 Y484.08 I1.223 J-0.091
N480 G2 X3.17 Y482.915 I-0.571 J-1.17
N485 G3 X19.17 Y457.09 I29. J0.098
N490 G1 Y445.513
N495 G3 X22.17 Y442.513 I3. J0.
N500 G1 X31.17
N505 G3 X34.17 Y445.513 I0. J3.
N510 G1 Y463.839
N515 G3 X31.326 Y466.835 I-3. J0.
N520 G2 Y499.191 I0.844 J16.178
N525 G3 X34.17 Y502.187 I-0.156 J2.996
N530 G1 Y520.513
N535 G3 X31.17 Y523.513 I-3. J0.
N540 G1 X22.17
N545 G3 X19.17 Y520.513 I0. J-3.
N550 G1 Y508.936
N555 G3 X3.17 Y482.915 I13. J-25.923
N560 G2 X2.572 Y482.313 I-0.6 J-0.002 F300.
N565 G1 X1.972 Y482.311
N570 X1.878 Y482.31 Z-1.493
N575 X1.787 Z-1.471
N580 X1.7 Z-1.435
N585 X1.62 Y482.309 Z-1.385
N590 X1.548 Z-1.324
N595 X1.487 Z-1.253
N600 X1.438 Z-1.172
N605 X1.402 Z-1.085
N610 X1.38 Z-0.994
N615 X1.372 Z-0.9
N620 G0 Z5.
N625 X37.47 Y512.662
N630 G1 Z1. F150.33
N635 Z0.1
N640 G18 G3 X36.87 Z-0.5 I-0.6 K0.
N645 G1 X36.27 F300.
N650 G17 G2 X35.67 Y513.263 I0. J0.6
N655 G1 Y520.513 Z-0.753 F150.
N660 G3 X31.17 Y525.013 Z-1. I-4.5 J0.
N665 G1 X22.17 Z-1.314
N670 G3 X17.67 Y520.513 Z-1.561 I0. J-4.5
N675 G1 Y509.846 Z-1.934
N680 G3 X1.754 Y485.274 Z-3. I14.5 J-26.833
N685 X17.67 Y456.18 I30.416 J-2.261 F650.
N690 G1 Y445.513
N695 G3 X22.17 Y441.013 I4.5 J0.
N700 G1 X31.17
N705 G3 X35.67 Y445.513 I0. J4.5
N710 G1 Y463.839
N715 G3 X31.404 Y468.333 I-4.5 J0.
N720 G2 Y497.693 I0.766 J14.68
N725 G3 X35.67 Y502.187 I-0.234 J4.494
N730 G1 Y520.513
N735 G3 X31.17 Y525.013 I-4.5 J0.
N740 G1 X22.17
N745 G3 X17.67 Y520.513 I0. J-4.5
N750 G1 Y509.846
N755 G3 X1.754 Y485.274 I14.5 J-26.833
N760 X2.439 Y484.08 I1.223 J-0.091
N765 G2 X3.17 Y482.915 I-0.571 J-1.17
N770 G3 X19.17 Y457.09 I29. J0.098
N775 G1 Y445.513
N780 G3 X22.17 Y442.513 I3. J0.
N785 G1 X31.17
N790 G3 X34.17 Y445.513 I0. J3.
N795 G1 Y463.839
N800 G3 X31.326 Y466.835 I-3. J0.
N805 G2 Y499.191 I0.844 J16.178
N810 G3 X34.17 Y502.187 I-0.156 J2.996
N815 G1 Y520.513
N820 G3 X31.17 Y523.513 I-3. J0.
N825 G1 X22.17
N830 G3 X19.17 Y520.513 I0. J-3.
N835 G1 Y508.936
N840 G3 X3.17 Y482.915 I13. J-25.923
N845 G2 X2.572 Y482.313 I-0.6 J-0.002 F300.
N850 G1 X1.972 Y482.311
N855 X1.878 Y482.31 Z-2.993
N860 X1.787 Z-2.971
N865 X1.7 Z-2.935
N870 X1.62 Y482.309 Z-2.885
N875 X1.548 Z-2.824
N880 X1.487 Z-2.753
N885 X1.438 Z-2.672
N890 X1.402 Z-2.585
N895 X1.38 Z-2.494
N900 X1.372 Z-2.4
N905 G0 Z5.
N910 X39.036 Y500.421
N915 G1 Z1. F150.33
N920 Z0.1
N925 G18 G2 X39.636 Z-0.5 I0.6 K0.
N930 G1 X40.236 F300.
N935 G17 G2 X40.836 Y499.821 I0. J-0.6
N940 G1 Y492.57 Z-0.753 F150.
N945 G3 X45.336 Y488.07 Z-1. I4.5 J0.
N950 G1 X54.336 Z-1.314
N955 G3 X58.836 Y492.57 Z-1.561 I0. J4.5
N960 G1 Y503.236 Z-1.934
N965 G3 X74.753 Y527.809 Z-3. I-14.5 J26.833
N970 X58.836 Y556.903 I-30.416 J2.261 F650.
N975 G1 Y567.57
N980 G3 X54.336 Y572.07 I-4.5 J0.
N985 G1 X45.336
N990 G3 X40.836 Y567.57 I0. J-4.5
N995 G1 Y549.243
N1000 G3 X45.102 Y544.749 I4.5 J0.
N1005 G2 Y515.39 I-0.766 J-14.68
N1010 G3 X40.836 Y510.896 I0.234 J-4.494
N1015 G1 Y492.57
N1020 G3 X45.336 Y488.07 I4.5 J0.
N1025 G1 X54.336
N1030 G3 X58.836 Y492.57 I0. J4.5
N1035 G1 Y503.236
N1040 G3 X74.753 Y527.809 I-14.5 J26.833
N1045 X74.067 Y529.002 I-1.223 J0.091
N1050 G2 X73.336 Y530.168 I0.571 J1.17
N1055 G3 X57.336 Y555.993 I-29. J-0.099
N1060 G1 Y567.57
N1065 G3 X54.336 Y570.57 I-3. J0.
N1070 G1 X45.336
N1075 G3 X42.336 Y567.57 I0. J-3.
N1080 G1 Y549.243
N1085 G3 X45.18 Y546.247 I3. J0.
N1090 G2 Y513.892 I-0.844 J-16.178
N1095 G3 X42.336 Y510.896 I0.156 J-2.996
N1100 G1 Y492.57
N1105 G3 X45.336 Y489.57 I3. J0.
N1110 G1 X54.336
N1115 G3 X57.336 Y492.57 I0. J3.
N1120 G1 Y504.146
N1125 G3 X73.336 Y530.168 I-13. J25.923
N1130 G2 X73.934 Y530.77 I0.6 J0.002 F300.
N1135 G1 X74.534 Y530.772
N1140 X74.628 Z-2.993
N1145 X74.72 Y530.773 Z-2.971
N1150 X74.807 Z-2.935
N1155 X74.887 Z-2.885
N1160 X74.959 Y530.774 Z-2.824
N1165 X75.02 Z-2.753
N1170 X75.069 Z-2.672
N1175 X75.105 Z-2.585
N1180 X75.127 Z-2.494
N1185 X75.134 Z-2.4
N1190 G0 Z5.
N1195 X39.036 Y500.421
N1200 G1 Z-0.5 F150.33
N1205 Z-1.4
N1210 G18 G2 X39.636 Z-2. I0.6 K0.
N1215 G1 X40.236 F300.
N1220 G17 G2 X40.836 Y499.821 I0. J-0.6
N1225 G1 Y492.57 Z-2.253 F150.
N1230 G3 X45.336 Y488.07 Z-2.5 I4.5 J0.
N1235 G1 X54.336 Z-2.814
N1240 G3 X58.836 Y492.57 Z-3.061 I0. J4.5
N1245 G1 Y503.236 Z-3.434
N1250 G3 X74.753 Y527.809 Z-4.5 I-14.5 J26.833
N1255 X58.836 Y556.903 I-30.416 J2.261 F650.
N1260 G1 Y567.57
N1265 G3 X54.336 Y572.07 I-4.5 J0.
N1270 G1 X45.336
N1275 G3 X40.836 Y567.57 I0. J-4.5
N1280 G1 Y549.243
N1285 G3 X45.102 Y544.749 I4.5 J0.
N1290 G2 Y515.39 I-0.766 J-14.68
N1295 G3 X40.836 Y510.896 I0.234 J-4.494
N1300 G1 Y492.57
N1305 G3 X45.336 Y488.07 I4.5 J0.
N1310 G1 X54.336
N1315 G3 X58.836 Y492.57 I0. J4.5
N1320 G1 Y503.236
N1325 G3 X74.753 Y527.809 I-14.5 J26.833
N1330 X74.067 Y529.002 I-1.223 J0.091
N1335 G2 X73.336 Y530.168 I0.571 J1.17
N1340 G3 X57.336 Y555.993 I-29. J-0.099
N1345 G1 Y567.57
N1350 G3 X54.336 Y570.57 I-3. J0.
N1355 G1 X45.336
N1360 G3 X42.336 Y567.57 I0. J-3.
N1365 G1 Y549.243
N1370 G3 X45.18 Y546.247 I3. J0.
N1375 G2 Y513.892 I-0.844 J-16.178
N1380 G3 X42.336 Y510.896 I0.156 J-2.996
N1385 G1 Y492.57
N1390 G3 X45.336 Y489.57 I3. J0.
N1395 G1 X54.336
N1400 G3 X57.336 Y492.57 I0. J3.
N1405 G1 Y504.146
N1410 G3 X73.336 Y530.168 I-13. J25.923
N1415 G2 X73.934 Y530.77 I0.6 J0.002 F300.
N1420 G1 X74.534 Y530.772
N1425 X74.628 Z-4.493
N1430 X74.72 Y530.773 Z-4.471
N1435 X74.807 Z-4.435
N1440 X74.887 Z-4.385
N1445 X74.959 Y530.774 Z-4.324
N1450 X75.02 Z-4.253
N1455 X75.069 Z-4.172
N1460 X75.105 Z-4.085
N1465 X75.127 Z-3.994
N1470 X75.134 Z-3.9
N1475 G0 Z5.
N1480 X37.47 Y512.662
N1485 G1 Z-0.5 F150.33
N1490 Z-1.4
N1495 G18 G3 X36.87 Z-2. I-0.6 K0.
N1500 G1 X36.27 F300.
N1505 G17 G2 X35.67 Y513.263 I0. J0.6
N1510 G1 Y520.513 Z-2.253 F150.
N1515 G3 X31.17 Y525.013 Z-2.5 I-4.5 J0.
N1520 G1 X22.17 Z-2.814
N1525 G3 X17.67 Y520.513 Z-3.061 I0. J-4.5
N1530 G1 Y509.846 Z-3.434
N1535 G3 X1.754 Y485.274 Z-4.5 I14.5 J-26.833
N1540 X17.67 Y456.18 I30.416 J-2.261 F650.
N1545 G1 Y445.513
N1550 G3 X22.17 Y441.013 I4.5 J0.
N1555 G1 X31.17
N1560 G3 X35.67 Y445.513 I0. J4.5
N1565 G1 Y463.839
N1570 G3 X31.404 Y468.333 I-4.5 J0.
N1575 G2 Y497.693 I0.766 J14.68
N1580 G3 X35.67 Y502.187 I-0.234 J4.494
N1585 G1 Y520.513
N1590 G3 X31.17 Y525.013 I-4.5 J0.
N1595 G1 X22.17
N1600 G3 X17.67 Y520.513 I0. J-4.5
N1605 G1 Y509.846
N1610 G3 X1.754 Y485.274 I14.5 J-26.833
N1615 X2.439 Y484.08 I1.223 J-0.091
N1620 G2 X3.17 Y482.915 I-0.571 J-1.17
N1625 G3 X19.17 Y457.09 I29. J0.098
N1630 G1 Y445.513
N1635 G3 X22.17 Y442.513 I3. J0.
N1640 G1 X31.17
N1645 G3 X34.17 Y445.513 I0. J3.
N1650 G1 Y463.839
N1655 G3 X31.326 Y466.835 I-3. J0.
N1660 G2 Y499.191 I0.844 J16.178
N1665 G3 X34.17 Y502.187 I-0.156 J2.996
N1670 G1 Y520.513
N1675 G3 X31.17 Y523.513 I-3. J0.
N1680 G1 X22.17
N1685 G3 X19.17 Y520.513 I0. J-3.
N1690 G1 Y508.936
N1695 G3 X3.17 Y482.915 I13. J-25.923
N1700 G2 X2.572 Y482.313 I-0.6 J-0.002 F300.
N1705 G1 X1.972 Y482.311
N1710 X1.878 Y482.31 Z-4.493
N1715 X1.787 Z-4.471
N1720 X1.7 Z-4.435
N1725 X1.62 Y482.309 Z-4.385
N1730 X1.548 Z-4.324
N1735 X1.487 Z-4.253
N1740 X1.438 Z-4.172
N1745 X1.402 Z-4.085
N1750 X1.38 Z-3.994
N1755 X1.372 Z-3.9
N1760 G0 Z5.
N1765 X37.47 Y512.662
N1770 G1 Z-2. F150.33
N1775 Z-2.9
N1780 G18 G3 X36.87 Z-3.5 I-0.6 K0.
N1785 G1 X36.27 F300.
N1790 G17 G2 X35.67 Y513.263 I0. J0.6
N1795 G1 Y520.513 Z-3.753 F150.
N1800 G3 X31.17 Y525.013 Z-4. I-4.5 J0.
N1805 G1 X22.17 Z-4.314
N1810 G3 X17.67 Y520.513 Z-4.561 I0. J-4.5
N1815 G1 Y509.846 Z-4.934
N1820 G3 X1.754 Y485.274 Z-6. I14.5 J-26.833
N1825 X17.67 Y456.18 I30.416 J-2.261 F650.
N1830 G1 Y445.513
N1835 G3 X22.17 Y441.013 I4.5 J0.
N1840 G1 X31.17
N1845 G3 X35.67 Y445.513 I0. J4.5
N1850 G1 Y463.839
N1855 G3 X31.404 Y468.333 I-4.5 J0.
N1860 G2 Y497.693 I0.766 J14.68
N1865 G3 X35.67 Y502.187 I-0.234 J4.494
N1870 G1 Y520.513
N1875 G3 X31.17 Y525.013 I-4.5 J0.
N1880 G1 X22.17
N1885 G3 X17.67 Y520.513 I0. J-4.5
N1890 G1 Y509.846
N1895 G3 X1.754 Y485.274 I14.5 J-26.833
N1900 X2.439 Y484.08 I1.223 J-0.091
N1905 G2 X3.17 Y482.915 I-0.571 J-1.17
N1910 G3 X19.17 Y457.09 I29. J0.098
N1915 G1 Y445.513
N1920 G3 X22.17 Y442.513 I3. J0.
N1925 G1 X31.17
N1930 G3 X34.17 Y445.513 I0. J3.
N1935 G1 Y463.839
N1940 G3 X31.326 Y466.835 I-3. J0.
N1945 G2 Y499.191 I0.844 J16.178
N1950 G3 X34.17 Y502.187 I-0.156 J2.996
N1955 G1 Y520.513
N1960 G3 X31.17 Y523.513 I-3. J0.
N1965 G1 X22.17
N1970 G3 X19.17 Y520.513 I0. J-3.
N1975 G1 Y508.936
N1980 G3 X3.17 Y482.915 I13. J-25.923
N1985 G2 X2.572 Y482.313 I-0.6 J-0.002 F300.
N1990 G1 X1.972 Y482.311
N1995 X1.878 Y482.31 Z-5.993
N2000 X1.787 Z-5.971
N2005 X1.7 Z-5.935
N2010 X1.62 Y482.309 Z-5.885
N2015 X1.548 Z-5.824
N2020 X1.487 Z-5.753
N2025 X1.438 Z-5.672
N2030 X1.402 Z-5.585
N2035 X1.38 Z-5.494
N2040 X1.372 Z-5.4
N2045 G0 Z5.
N2050 X39.036 Y500.421
N2055 G1 Z-2. F150.33
N2060 Z-2.9
N2065 G18 G2 X39.636 Z-3.5 I0.6 K0.
N2070 G1 X40.236 F300.
N2075 G17 G2 X40.836 Y499.821 I0. J-0.6
N2080 G1 Y492.57 Z-3.753 F150.
N2085 G3 X45.336 Y488.07 Z-4. I4.5 J0.
N2090 G1 X54.336 Z-4.314
N2095 G3 X58.836 Y492.57 Z-4.561 I0. J4.5
N2100 G1 Y503.236 Z-4.934
N2105 G3 X74.753 Y527.809 Z-6. I-14.5 J26.833
N2110 X58.836 Y556.903 I-30.416 J2.261 F650.
N2115 G1 Y567.57
N2120 G3 X54.336 Y572.07 I-4.5 J0.
N2125 G1 X45.336
N2130 G3 X40.836 Y567.57 I0. J-4.5
N2135 G1 Y549.243
N2140 G3 X45.102 Y544.749 I4.5 J0.
N2145 G2 Y515.39 I-0.766 J-14.68
N2150 G3 X40.836 Y510.896 I0.234 J-4.494
N2155 G1 Y492.57
N2160 G3 X45.336 Y488.07 I4.5 J0.
N2165 G1 X54.336
N2170 G3 X58.836 Y492.57 I0. J4.5
N2175 G1 Y503.236
N2180 G3 X74.753 Y527.809 I-14.5 J26.833
N2185 X74.067 Y529.002 I-1.223 J0.091
N2190 G2 X73.336 Y530.168 I0.571 J1.17
N2195 G3 X57.336 Y555.993 I-29. J-0.099
N2200 G1 Y567.57
N2205 G3 X54.336 Y570.57 I-3. J0.
N2210 G1 X45.336
N2215 G3 X42.336 Y567.57 I0. J-3.
N2220 G1 Y549.243
N2225 G3 X45.18 Y546.247 I3. J0.
N2230 G2 Y513.892 I-0.844 J-16.178
N2235 G3 X42.336 Y510.896 I0.156 J-2.996
N2240 G1 Y492.57
N2245 G3 X45.336 Y489.57 I3. J0.
N2250 G1 X54.336
N2255 G3 X57.336 Y492.57 I0. J3.
N2260 G1 Y504.146
N2265 G3 X73.336 Y530.168 I-13. J25.923
N2270 G2 X73.934 Y530.77 I0.6 J0.002 F300.
N2275 G1 X74.534 Y530.772
N2280 X74.628 Z-5.993
N2285 X74.72 Y530.773 Z-5.971
N2290 X74.807 Z-5.935
N2295 X74.887 Z-5.885
N2300 X74.959 Y530.774 Z-5.824
N2305 X75.02 Z-5.753
N2310 X75.069 Z-5.672
N2315 X75.105 Z-5.585
N2320 X75.127 Z-5.494
N2325 X75.134 Z-5.4
N2330 G0 Z5.
N2335 X39.036 Y500.421
N2340 G1 Z-3.5 F150.33
N2345 Z-4.4
N2350 G18 G2 X39.636 Z-5. I0.6 K0.
N2355 G1 X40.236 F300.
N2360 G17 G2 X40.836 Y499.821 I0. J-0.6
N2365 G1 Y492.57 Z-5.253 F150.
N2370 G3 X45.336 Y488.07 Z-5.5 I4.5 J0.
N2375 G1 X54.336 Z-5.814
N2380 G3 X58.836 Y492.57 Z-6.061 I0. J4.5
N2385 G1 Y503.236 Z-6.434
N2390 G3 X74.753 Y527.809 Z-7.5 I-14.5 J26.833
N2395 X58.836 Y556.903 I-30.416 J2.261 F650.
N2400 G1 Y567.57
N2405 G3 X54.336 Y572.07 I-4.5 J0.
N2410 G1 X45.336
N2415 G3 X40.836 Y567.57 I0. J-4.5
N2420 G1 Y549.243
N2425 G3 X45.102 Y544.749 I4.5 J0.
N2430 G2 Y515.39 I-0.766 J-14.68
N2435 G3 X40.836 Y510.896 I0.234 J-4.494
N2440 G1 Y492.57
N2445 G3 X45.336 Y488.07 I4.5 J0.
N2450 G1 X54.336
N2455 G3 X58.836 Y492.57 I0. J4.5
N2460 G1 Y503.236
N2465 G3 X74.753 Y527.809 I-14.5 J26.833
N2470 X74.067 Y529.002 I-1.223 J0.091
N2475 G2 X73.336 Y530.168 I0.571 J1.17
N2480 G3 X57.336 Y555.993 I-29. J-0.099
N2485 G1 Y567.57
N2490 G3 X54.336 Y570.57 I-3. J0.
N2495 G1 X45.336
N2500 G3 X42.336 Y567.57 I0. J-3.
N2505 G1 Y549.243
N2510 G3 X45.18 Y546.247 I3. J0.
N2515 G2 Y513.892 I-0.844 J-16.178
N2520 G3 X42.336 Y510.896 I0.156 J-2.996
N2525 G1 Y492.57
N2530 G3 X45.336 Y489.57 I3. J0.
N2535 G1 X54.336
N2540 G3 X57.336 Y492.57 I0. J3.
N2545 G1 Y504.146
N2550 G3 X73.336 Y530.168 I-13. J25.923
N2555 G2 X73.934 Y530.77 I0.6 J0.002 F300.
N2560 G1 X74.534 Y530.772
N2565 X74.628 Z-7.493
N2570 X74.72 Y530.773 Z-7.471
N2575 X74.807 Z-7.435
N2580 X74.887 Z-7.385
N2585 X74.959 Y530.774 Z-7.324
N2590 X75.02 Z-7.253
N2595 X75.069 Z-7.172
N2600 X75.105 Z-7.085
N2605 X75.127 Z-6.994
N2610 X75.134 Z-6.9
N2615 G0 Z5.
N2620 X37.47 Y512.662
N2625 G1 Z-3.5 F150.33
N2630 Z-4.4
N2635 G18 G3 X36.87 Z-5. I-0.6 K0.
N2640 G1 X36.27 F300.
N2645 G17 G2 X35.67 Y513.263 I0. J0.6
N2650 G1 Y520.513 Z-5.253 F150.
N2655 G3 X31.17 Y525.013 Z-5.5 I-4.5 J0.
N2660 G1 X22.17 Z-5.814
N2665 G3 X17.67 Y520.513 Z-6.061 I0. J-4.5
N2670 G1 Y509.846 Z-6.434
N2675 G3 X1.754 Y485.274 Z-7.5 I14.5 J-26.833
N2680 X17.67 Y456.18 I30.416 J-2.261 F650.
N2685 G1 Y445.513
N2690 G3 X22.17 Y441.013 I4.5 J0.
N2695 G1 X31.17
N2700 G3 X35.67 Y445.513 I0. J4.5
N2705 G1 Y463.839
N2710 G3 X31.404 Y468.333 I-4.5 J0.
N2715 G2 Y497.693 I0.766 J14.68
N2720 G3 X35.67 Y502.187 I-0.234 J4.494
N2725 G1 Y520.513
N2730 G3 X31.17 Y525.013 I-4.5 J0.
N2735 G1 X22.17
N2740 G3 X17.67 Y520.513 I0. J-4.5
N2745 G1 Y509.846
N2750 G3 X1.754 Y485.274 I14.5 J-26.833
N2755 X2.439 Y484.08 I1.223 J-0.091
N2760 G2 X3.17 Y482.915 I-0.571 J-1.17
N2765 G3 X19.17 Y457.09 I29. J0.098
N2770 G1 Y445.513
N2775 G3 X22.17 Y442.513 I3. J0.
N2780 G1 X31.17
N2785 G3 X34.17 Y445.513 I0. J3.
N2790 G1 Y463.839
N2795 G3 X31.326 Y466.835 I-3. J0.
N2800 G2 Y499.191 I0.844 J16.178
N2805 G3 X34.17 Y502.187 I-0.156 J2.996
N2810 G1 Y520.513
N2815 G3 X31.17 Y523.513 I-3. J0.
N2820 G1 X22.17
N2825 G3 X19.17 Y520.513 I0. J-3.
N2830 G1 Y508.936
N2835 G3 X3.17 Y482.915 I13. J-25.923
N2840 G2 X2.572 Y482.313 I-0.6 J-0.002 F300.
N2845 G1 X1.972 Y482.311
N2850 X1.878 Y482.31 Z-7.493
N2855 X1.787 Z-7.471
N2860 X1.7 Z-7.435
N2865 X1.62 Y482.309 Z-7.385
N2870 X1.548 Z-7.324
N2875 X1.487 Z-7.253
N2880 X1.438 Z-7.172
N2885 X1.402 Z-7.085
N2890 X1.38 Z-6.994
N2895 X1.372 Z-6.9
N2900 G0 Z5.
N2905 X37.47 Y512.662
N2910 G1 Z-5. F150.33
N2915 Z-5.9
N2920 G18 G3 X36.87 Z-6.5 I-0.6 K0.
N2925 G1 X36.27 F300.
N2930 G17 G2 X35.67 Y513.263 I0. J0.6
N2935 G1 Y520.513 Z-6.753 F150.
N2940 G3 X31.17 Y525.013 Z-7. I-4.5 J0.
N2945 G1 X22.17 Z-7.314
N2950 G3 X17.67 Y520.513 Z-7.561 I0. J-4.5
N2955 G1 Y509.846 Z-7.934
N2960 G3 X1.754 Y485.274 Z-9. I14.5 J-26.833
N2965 X17.67 Y456.18 I30.416 J-2.261 F650.
N2970 G1 Y445.513
N2975 G3 X22.17 Y441.013 I4.5 J0.
N2980 G1 X31.17
N2985 G3 X35.67 Y445.513 I0. J4.5
N2990 G1 Y463.839
N2995 G3 X31.404 Y468.333 I-4.5 J0.
N3000 G2 Y497.693 I0.766 J14.68
N3005 G3 X35.67 Y502.187 I-0.234 J4.494
N3010 G1 Y520.513
N3015 G3 X31.17 Y525.013 I-4.5 J0.
N3020 G1 X22.17
N3025 G3 X17.67 Y520.513 I0. J-4.5
N3030 G1 Y509.846
N3035 G3 X1.754 Y485.274 I14.5 J-26.833
N3040 X2.439 Y484.08 I1.223 J-0.091
N3045 G2 X3.17 Y482.915 I-0.571 J-1.17
N3050 G3 X19.17 Y457.09 I29. J0.098
N3055 G1 Y445.513
N3060 G3 X22.17 Y442.513 I3. J0.
N3065 G1 X31.17
N3070 G3 X34.17 Y445.513 I0. J3.
N3075 G1 Y463.839
N3080 G3 X31.326 Y466.835 I-3. J0.
N3085 G2 Y499.191 I0.844 J16.178
N3090 G3 X34.17 Y502.187 I-0.156 J2.996
N3095 G1 Y520.513
N3100 G3 X31.17 Y523.513 I-3. J0.
N3105 G1 X22.17
N3110 G3 X19.17 Y520.513 I0. J-3.
N3115 G1 Y508.936
N3120 G3 X3.17 Y482.915 I13. J-25.923
N3125 G2 X2.572 Y482.313 I-0.6 J-0.002 F300.
N3130 G1 X1.972 Y482.311
N3135 X1.878 Y482.31 Z-8.993
N3140 X1.787 Z-8.971
N3145 X1.7 Z-8.935
N3150 X1.62 Y482.309 Z-8.885
N3155 X1.548 Z-8.824
N3160 X1.487 Z-8.753
N3165 X1.438 Z-8.672
N3170 X1.402 Z-8.585
N3175 X1.38 Z-8.494
N3180 X1.372 Z-8.4
N3185 G0 Z5.
N3190 X39.036 Y500.421
N3195 G1 Z-5. F150.33
N3200 Z-5.9
N3205 G18 G2 X39.636 Z-6.5 I0.6 K0.
N3210 G1 X40.236 F300.
N3215 G17 G2 X40.836 Y499.821 I0. J-0.6
N3220 G1 Y492.57 Z-6.753 F150.
N3225 G3 X45.336 Y488.07 Z-7. I4.5 J0.
N3230 G1 X54.336 Z-7.314
N3235 G3 X58.836 Y492.57 Z-7.561 I0. J4.5
N3240 G1 Y503.236 Z-7.934
N3245 G3 X74.753 Y527.809 Z-9. I-14.5 J26.833
N3250 X58.836 Y556.903 I-30.416 J2.261 F650.
N3255 G1 Y567.57
N3260 G3 X54.336 Y572.07 I-4.5 J0.
N3265 G1 X45.336
N3270 G3 X40.836 Y567.57 I0. J-4.5
N3275 G1 Y549.243
N3280 G3 X45.102 Y544.749 I4.5 J0.
N3285 G2 Y515.39 I-0.766 J-14.68
N3290 G3 X40.836 Y510.896 I0.234 J-4.494
N3295 G1 Y492.57
N3300 G3 X45.336 Y488.07 I4.5 J0.
N3305 G1 X54.336
N3310 G3 X58.836 Y492.57 I0. J4.5
N3315 G1 Y503.236
N3320 G3 X74.753 Y527.809 I-14.5 J26.833
N3325 X74.067 Y529.002 I-1.223 J0.091
N3330 G2 X73.336 Y530.168 I0.571 J1.17
N3335 G3 X57.336 Y555.993 I-29. J-0.099
N3340 G1 Y567.57
N3345 G3 X54.336 Y570.57 I-3. J0.
N3350 G1 X45.336
N3355 G3 X42.336 Y567.57 I0. J-3.
N3360 G1 Y549.243
N3365 G3 X45.18 Y546.247 I3. J0.
N3370 G2 Y513.892 I-0.844 J-16.178
N3375 G3 X42.336 Y510.896 I0.156 J-2.996
N3380 G1 Y492.57
N3385 G3 X45.336 Y489.57 I3. J0.
N3390 G1 X54.336
N3395 G3 X57.336 Y492.57 I0. J3.
N3400 G1 Y504.146
N3405 G3 X73.336 Y530.168 I-13. J25.923
N3410 G2 X73.934 Y530.77 I0.6 J0.002 F300.
N3415 G1 X74.534 Y530.772
N3420 X74.628 Z-8.993
N3425 X74.72 Y530.773 Z-8.971
N3430 X74.807 Z-8.935
N3435 X74.887 Z-8.885
N3440 X74.959 Y530.774 Z-8.824
N3445 X75.02 Z-8.753
N3450 X75.069 Z-8.672
N3455 X75.105 Z-8.585
N3460 X75.127 Z-8.494
N3465 X75.134 Z-8.4
N3470 G0 Z5.
N3475 X39.036 Y500.421
N3480 G1 Z-6.5 F150.33
N3485 Z-7.4
N3490 G18 G2 X39.636 Z-8. I0.6 K0.
N3495 G1 X40.236 F300.
N3500 G17 G2 X40.836 Y499.821 I0. J-0.6
N3505 G1 Y492.57 Z-8.253 F150.
N3510 G3 X45.336 Y488.07 Z-8.5 I4.5 J0.
N3515 G1 X54.336 Z-8.814
N3520 G3 X58.836 Y492.57 Z-9.061 I0. J4.5
N3525 G1 Y503.236 Z-9.434
N3530 G3 X74.753 Y527.809 Z-10.5 I-14.5 J26.833
N3535 X58.836 Y556.903 I-30.416 J2.261 F650.
N3540 G1 Y567.57
N3545 G3 X54.336 Y572.07 I-4.5 J0.
N3550 G1 X45.336
N3555 G3 X40.836 Y567.57 I0. J-4.5
N3560 G1 Y549.243
N3565 G3 X45.102 Y544.749 I4.5 J0.
N3570 G2 Y515.39 I-0.766 J-14.68
N3575 G3 X40.836 Y510.896 I0.234 J-4.494
N3580 G1 Y492.57
N3585 G3 X45.336 Y488.07 I4.5 J0.
N3590 G1 X54.336
N3595 G3 X58.836 Y492.57 I0. J4.5
N3600 G1 Y503.236
N3605 G3 X74.753 Y527.809 I-14.5 J26.833
N3610 X74.067 Y529.002 I-1.223 J0.091
N3615 G2 X73.336 Y530.168 I0.571 J1.17
N3620 G3 X57.336 Y555.993 I-29. J-0.099
N3625 G1 Y567.57
N3630 G3 X54.336 Y570.57 I-3. J0.
N3635 G1 X45.336
N3640 G3 X42.336 Y567.57 I0. J-3.
N3645 G1 Y549.243
N3650 G3 X45.18 Y546.247 I3. J0.
N3655 G2 Y513.892 I-0.844 J-16.178
N3660 G3 X42.336 Y510.896 I0.156 J-2.996
N3665 G1 Y492.57
N3670 G3 X45.336 Y489.57 I3. J0.
N3675 G1 X54.336
N3680 G3 X57.336 Y492.57 I0. J3.
N3685 G1 Y504.146
N3690 G3 X73.336 Y530.168 I-13. J25.923
N3695 G2 X73.934 Y530.77 I0.6 J0.002 F300.
N3700 G1 X74.534 Y530.772
N3705 X74.628 Z-10.493
N3710 X74.72 Y530.773 Z-10.471
N3715 X74.807 Z-10.435
N3720 X74.887 Z-10.385
N3725 X74.959 Y530.774 Z-10.324
N3730 X75.02 Z-10.253
N3735 X75.069 Z-10.172
N3740 X75.105 Z-10.085
N3745 X75.127 Z-9.994
N3750 X75.134 Z-9.9
N3755 G0 Z5.
N3760 X37.47 Y512.662
N3765 G1 Z-6.5 F150.33
N3770 Z-7.4
N3775 G18 G3 X36.87 Z-8. I-0.6 K0.
N3780 G1 X36.27 F300.
N3785 G17 G2 X35.67 Y513.263 I0. J0.6
N3790 G1 Y520.513 Z-8.253 F150.
N3795 G3 X31.17 Y525.013 Z-8.5 I-4.5 J0.
N3800 G1 X22.17 Z-8.814
N3805 G3 X17.67 Y520.513 Z-9.061 I0. J-4.5
N3810 G1 Y509.846 Z-9.434
N3815 G3 X1.754 Y485.274 Z-10.5 I14.5 J-26.833
N3820 X17.67 Y456.18 I30.416 J-2.261 F650.
N3825 G1 Y445.513
N3830 G3 X22.17 Y441.013 I4.5 J0.
N3835 G1 X31.17
N3840 G3 X35.67 Y445.513 I0. J4.5
N3845 G1 Y463.839
N3850 G3 X31.404 Y468.333 I-4.5 J0.
N3855 G2 Y497.693 I0.766 J14.68
N3860 G3 X35.67 Y502.187 I-0.234 J4.494
N3865 G1 Y520.513
N3870 G3 X31.17 Y525.013 I-4.5 J0.
N3875 G1 X22.17
N3880 G3 X17.67 Y520.513 I0. J-4.5
N3885 G1 Y509.846
N3890 G3 X1.754 Y485.274 I14.5 J-26.833
N3895 X2.439 Y484.08 I1.223 J-0.091
N3900 G2 X3.17 Y482.915 I-0.571 J-1.17
N3905 G3 X19.17 Y457.09 I29. J0.098
N3910 G1 Y445.513
N3915 G3 X22.17 Y442.513 I3. J0.
N3920 G1 X31.17
N3925 G3 X34.17 Y445.513 I0. J3.
N3930 G1 Y463.839
N3935 G3 X31.326 Y466.835 I-3. J0.
N3940 G2 Y499.191 I0.844 J16.178
N3945 G3 X34.17 Y502.187 I-0.156 J2.996
N3950 G1 Y520.513
N3955 G3 X31.17 Y523.513 I-3. J0.
N3960 G1 X22.17
N3965 G3 X19.17 Y520.513 I0. J-3.
N3970 G1 Y508.936
N3975 G3 X3.17 Y482.915 I13. J-25.923
N3980 G2 X2.572 Y482.313 I-0.6 J-0.002 F300.
N3985 G1 X1.972 Y482.311
N3990 X1.878 Y482.31 Z-10.493
N3995 X1.787 Z-10.471
N4000 X1.7 Z-10.435
N4005 X1.62 Y482.309 Z-10.385
N4010 X1.548 Z-10.324
N4015 X1.487 Z-10.253
N4020 X1.438 Z-10.172
N4025 X1.402 Z-10.085
N4030 X1.38 Z-9.994
N4035 X1.372 Z-9.9
N4040 G0 Z5.
N4045 X37.47 Y512.662
N4050 G1 Z-8. F150.33
N4055 Z-8.9
N4060 G18 G3 X36.87 Z-9.5 I-0.6 K0.
N4065 G1 X36.27 F300.
N4070 G17 G2 X35.67 Y513.263 I0. J0.6
N4075 G1 Y520.513 Z-9.753 F150.
N4080 G3 X31.17 Y525.013 Z-10. I-4.5 J0.
N4085 G1 X22.17 Z-10.314
N4090 G3 X17.67 Y520.513 Z-10.561 I0. J-4.5
N4095 G1 Y509.846 Z-10.934
N4100 G3 X1.754 Y485.274 Z-12. I14.5 J-26.833
N4105 X17.67 Y456.18 I30.416 J-2.261 F650.
N4110 G1 Y445.513
N4115 G3 X22.17 Y441.013 I4.5 J0.
N4120 G1 X31.17
N4125 G3 X35.67 Y445.513 I0. J4.5
N4130 G1 Y463.839
N4135 G3 X31.404 Y468.333 I-4.5 J0.
N4140 G2 Y497.693 I0.766 J14.68
N4145 G3 X35.67 Y502.187 I-0.234 J4.494
N4150 G1 Y520.513
N4155 G3 X31.17 Y525.013 I-4.5 J0.
N4160 G1 X22.17
N4165 G3 X17.67 Y520.513 I0. J-4.5
N4170 G1 Y509.846
N4175 G3 X1.754 Y485.274 I14.5 J-26.833
N4180 X2.439 Y484.08 I1.223 J-0.091
N4185 G2 X3.17 Y482.915 I-0.571 J-1.17
N4190 G3 X19.17 Y457.09 I29. J0.098
N4195 G1 Y445.513
N4200 G3 X22.17 Y442.513 I3. J0.
N4205 G1 X31.17
N4210 G3 X34.17 Y445.513 I0. J3.
N4215 G1 Y463.839
N4220 G3 X31.326 Y466.835 I-3. J0.
N4225 G2 Y499.191 I0.844 J16.178
N4230 G3 X34.17 Y502.187 I-0.156 J2.996
N4235 G1 Y520.513
N4240 G3 X31.17 Y523.513 I-3. J0.
N4245 G1 X22.17
N4250 G3 X19.17 Y520.513 I0. J-3.
N4255 G1 Y508.936
N4260 G3 X3.17 Y482.915 I13. J-25.923
N4265 G2 X2.572 Y482.313 I-0.6 J-0.002 F300.
N4270 G1 X1.972 Y482.311
N4275 X1.878 Y482.31 Z-11.993
N4280 X1.787 Z-11.971
N4285 X1.7 Z-11.935
N4290 X1.62 Y482.309 Z-11.885
N4295 X1.548 Z-11.824
N4300 X1.487 Z-11.753
N4305 X1.438 Z-11.672
N4310 X1.402 Z-11.585
N4315 X1.38 Z-11.494
N4320 X1.372 Z-11.4
N4325 G0 Z5.
N4330 X39.036 Y500.421
N4335 G1 Z-8. F150.33
N4340 Z-8.9
N4345 G18 G2 X39.636 Z-9.5 I0.6 K0.
N4350 G1 X40.236 F300.
N4355 G17 G2 X40.836 Y499.821 I0. J-0.6
N4360 G1 Y492.57 Z-9.753 F150.
N4365 G3 X45.336 Y488.07 Z-10. I4.5 J0.
N4370 G1 X54.336 Z-10.314
N4375 G3 X58.836 Y492.57 Z-10.561 I0. J4.5
N4380 G1 Y503.236 Z-10.934
N4385 G3 X74.753 Y527.809 Z-12. I-14.5 J26.833
N4390 X58.836 Y556.903 I-30.416 J2.261 F650.
N4395 G1 Y567.57
N4400 G3 X54.336 Y572.07 I-4.5 J0.
N4405 G1 X45.336
N4410 G3 X40.836 Y567.57 I0. J-4.5
N4415 G1 Y549.243
N4420 G3 X45.102 Y544.749 I4.5 J0.
N4425 G2 Y515.39 I-0.766 J-14.68
N4430 G3 X40.836 Y510.896 I0.234 J-4.494
N4435 G1 Y492.57
N4440 G3 X45.336 Y488.07 I4.5 J0.
N4445 G1 X54.336
N4450 G3 X58.836 Y492.57 I0. J4.5
N4455 G1 Y503.236
N4460 G3 X74.753 Y527.809 I-14.5 J26.833
N4465 X74.067 Y529.002 I-1.223 J0.091
N4470 G2 X73.336 Y530.168 I0.571 J1.17
N4475 G3 X57.336 Y555.993 I-29. J-0.099
N4480 G1 Y567.57
N4485 G3 X54.336 Y570.57 I-3. J0.
N4490 G1 X45.336
N4495 G3 X42.336 Y567.57 I0. J-3.
N4500 G1 Y549.243
N4505 G3 X45.18 Y546.247 I3. J0.
N4510 G2 Y513.892 I-0.844 J-16.178
N4515 G3 X42.336 Y510.896 I0.156 J-2.996
N4520 G1 Y492.57
N4525 G3 X45.336 Y489.57 I3. J0.
N4530 G1 X54.336
N4535 G3 X57.336 Y492.57 I0. J3.
N4540 G1 Y504.146
N4545 G3 X73.336 Y530.168 I-13. J25.923
N4550 G2 X73.934 Y530.77 I0.6 J0.002 F300.
N4555 G1 X74.534 Y530.772
N4560 X74.628 Z-11.993
N4565 X74.72 Y530.773 Z-11.971
N4570 X74.807 Z-11.935
N4575 X74.887 Z-11.885
N4580 X74.959 Y530.774 Z-11.824
N4585 X75.02 Z-11.753
N4590 X75.069 Z-11.672
N4595 X75.105 Z-11.585
N4600 X75.127 Z-11.494
N4605 X75.134 Z-11.4
N4610 G0 Z5.
N4615 X39.036 Y500.421
N4620 G1 Z-9.5 F150.33
N4625 Z-10.4
N4630 G18 G2 X39.636 Z-11. I0.6 K0.
N4635 G1 X40.236 F300.
N4640 G17 G2 X40.836 Y499.821 I0. J-0.6
N4645 G1 Y492.57 Z-11.253 F150.
N4650 G3 X45.336 Y488.07 Z-11.5 I4.5 J0.
N4655 G1 X54.336 Z-11.814
N4660 G3 X58.836 Y492.57 Z-12.061 I0. J4.5
N4665 G1 Y503.236 Z-12.434
N4670 G3 X74.753 Y527.809 Z-13.5 I-14.5 J26.833
N4675 X58.836 Y556.903 I-30.416 J2.261 F650.
N4680 G1 Y567.57
N4685 G3 X54.336 Y572.07 I-4.5 J0.
N4690 G1 X45.336
N4695 G3 X40.836 Y567.57 I0. J-4.5
N4700 G1 Y549.243
N4705 G3 X45.102 Y544.749 I4.5 J0.
N4710 G2 Y515.39 I-0.766 J-14.68
N4715 G3 X40.836 Y510.896 I0.234 J-4.494
N4720 G1 Y492.57
N4725 G3 X45.336 Y488.07 I4.5 J0.
N4730 G1 X54.336
N4735 G3 X58.836 Y492.57 I0. J4.5
N4740 G1 Y503.236
N4745 G3 X74.753 Y527.809 I-14.5 J26.833
N4750 X74.067 Y529.002 I-1.223 J0.091
N4755 G2 X73.336 Y530.168 I0.571 J1.17
N4760 G3 X57.336 Y555.993 I-29. J-0.099
N4765 G1 Y567.57
N4770 G3 X54.336 Y570.57 I-3. J0.
N4775 G1 X45.336
N4780 G3 X42.336 Y567.57 I0. J-3.
N4785 G1 Y549.243
N4790 G3 X45.18 Y546.247 I3. J0.
N4795 G2 Y513.892 I-0.844 J-16.178
N4800 G3 X42.336 Y510.896 I0.156 J-2.996
N4805 G1 Y492.57
N4810 G3 X45.336 Y489.57 I3. J0.
N4815 G1 X54.336
N4820 G3 X57.336 Y492.57 I0. J3.
N4825 G1 Y504.146
N4830 G3 X73.336 Y530.168 I-13. J25.923
N4835 G2 X73.934 Y530.77 I0.6 J0.002 F300.
N4840 G1 X74.534 Y530.772
N4845 X74.628 Z-13.493
N4850 X74.72 Y530.773 Z-13.471
N4855 X74.807 Z-13.435
N4860 X74.887 Z-13.385
N4865 X74.959 Y530.774 Z-13.324
N4870 X75.02 Z-13.253
N4875 X75.069 Z-13.172
N4880 X75.105 Z-13.085
N4885 X75.127 Z-12.994
N4890 X75.134 Z-12.9
N4895 G0 Z5.
N4900 X37.47 Y512.662
N4905 G1 Z-9.5 F150.33
N4910 Z-10.4
N4915 G18 G3 X36.87 Z-11. I-0.6 K0.
N4920 G1 X36.27 F300.
N4925 G17 G2 X35.67 Y513.263 I0. J0.6
N4930 G1 Y520.513 Z-11.253 F150.
N4935 G3 X31.17 Y525.013 Z-11.5 I-4.5 J0.
N4940 G1 X22.17 Z-11.814
N4945 G3 X17.67 Y520.513 Z-12.061 I0. J-4.5
N4950 G1 Y509.846 Z-12.434
N4955 G3 X1.754 Y485.274 Z-13.5 I14.5 J-26.833
N4960 X17.67 Y456.18 I30.416 J-2.261 F650.
N4965 G1 Y445.513
N4970 G3 X22.17 Y441.013 I4.5 J0.
N4975 G1 X31.17
N4980 G3 X35.67 Y445.513 I0. J4.5
N4985 G1 Y463.839
N4990 G3 X31.404 Y468.333 I-4.5 J0.
N4995 G2 Y497.693 I0.766 J14.68
N5000 G3 X35.67 Y502.187 I-0.234 J4.494
N5005 G1 Y520.513
N5010 G3 X31.17 Y525.013 I-4.5 J0.
N5015 G1 X22.17
N5020 G3 X17.67 Y520.513 I0. J-4.5
N5025 G1 Y509.846
N5030 G3 X1.754 Y485.274 I14.5 J-26.833
N5035 X2.439 Y484.08 I1.223 J-0.091
N5040 G2 X3.17 Y482.915 I-0.571 J-1.17
N5045 G3 X19.17 Y457.09 I29. J0.098
N5050 G1 Y445.513
N5055 G3 X22.17 Y442.513 I3. J0.
N5060 G1 X31.17
N5065 G3 X34.17 Y445.513 I0. J3.
N5070 G1 Y463.839
N5075 G3 X31.326 Y466.835 I-3. J0.
N5080 G2 Y499.191 I0.844 J16.178
N5085 G3 X34.17 Y502.187 I-0.156 J2.996
N5090 G1 Y520.513
N5095 G3 X31.17 Y523.513 I-3. J0.
N5100 G1 X22.17
N5105 G3 X19.17 Y520.513 I0. J-3.
N5110 G1 Y508.936
N5115 G3 X3.17 Y482.915 I13. J-25.923
N5120 G2 X2.572 Y482.313 I-0.6 J-0.002 F300.
N5125 G1 X1.972 Y482.311
N5130 X1.878 Y482.31 Z-13.493
N5135 X1.787 Z-13.471
N5140 X1.7 Z-13.435
N5145 X1.62 Y482.309 Z-13.385
N5150 X1.548 Z-13.324
N5155 X1.487 Z-13.253
N5160 X1.438 Z-13.172
N5165 X1.402 Z-13.085
N5170 X1.38 Z-12.994
N5175 X1.372 Z-12.9
N5180 G0 Z5.
N5185 X37.47 Y512.662
N5190 G1 Z-11. F150.33
N5195 Z-11.9
N5200 G18 G3 X36.87 Z-12.5 I-0.6 K0.
N5205 G1 X36.27 F300.
N5210 G17 G2 X35.67 Y513.263 I0. J0.6
N5215 G1 Y520.513 Z-12.753 F150.
N5220 G3 X31.17 Y525.013 Z-13. I-4.5 J0.
N5225 G1 X22.17 Z-13.314
N5230 G3 X17.67 Y520.513 Z-13.561 I0. J-4.5
N5235 G1 Y509.846 Z-13.934
N5240 G3 X1.754 Y485.274 Z-15. I14.5 J-26.833
N5245 X17.67 Y456.18 I30.416 J-2.261 F650.
N5250 G1 Y445.513
N5255 G3 X22.17 Y441.013 I4.5 J0.
N5260 G1 X31.17
N5265 G3 X35.67 Y445.513 I0. J4.5
N5270 G1 Y463.839
N5275 G3 X31.404 Y468.333 I-4.5 J0.
N5280 G2 Y497.693 I0.766 J14.68
N5285 G3 X35.67 Y502.187 I-0.234 J4.494
N5290 G1 Y520.513
N5295 G3 X31.17 Y525.013 I-4.5 J0.
N5300 G1 X22.17
N5305 G3 X17.67 Y520.513 I0. J-4.5
N5310 G1 Y509.846
N5315 G3 X1.754 Y485.274 I14.5 J-26.833
N5320 X2.439 Y484.08 I1.223 J-0.091
N5325 G2 X3.17 Y482.915 I-0.571 J-1.17
N5330 G3 X19.17 Y457.09 I29. J0.098
N5335 G1 Y445.513
N5340 G3 X22.17 Y442.513 I3. J0.
N5345 G1 X31.17
N5350 G3 X34.17 Y445.513 I0. J3.
N5355 G1 Y463.839
N5360 G3 X31.326 Y466.835 I-3. J0.
N5365 G2 Y499.191 I0.844 J16.178
N5370 G3 X34.17 Y502.187 I-0.156 J2.996
N5375 G1 Y520.513
N5380 G3 X31.17 Y523.513 I-3. J0.
N5385 G1 X22.17
N5390 G3 X19.17 Y520.513 I0. J-3.
N5395 G1 Y508.936
N5400 G3 X3.17 Y482.915 I13. J-25.923
N5405 G2 X2.572 Y482.313 I-0.6 J-0.002 F300.
N5410 G1 X1.972 Y482.311
N5415 X1.878 Y482.31 Z-14.993
N5420 X1.787 Z-14.971
N5425 X1.7 Z-14.935
N5430 X1.62 Y482.309 Z-14.885
N5435 X1.548 Z-14.824
N5440 X1.487 Z-14.753
N5445 X1.438 Z-14.672
N5450 X1.402 Z-14.585
N5455 X1.38 Z-14.494
N5460 X1.372 Z-14.4
N5465 G0 Z5.
N5470 X39.036 Y500.421
N5475 G1 Z-11. F150.33
N5480 Z-11.9
N5485 G18 G2 X39.636 Z-12.5 I0.6 K0.
N5490 G1 X40.236 F300.
N5495 G17 G2 X40.836 Y499.821 I0. J-0.6
N5500 G1 Y492.57 Z-12.753 F150.
N5505 G3 X45.336 Y488.07 Z-13. I4.5 J0.
N5510 G1 X54.336 Z-13.314
N5515 G3 X58.836 Y492.57 Z-13.561 I0. J4.5
N5520 G1 Y503.236 Z-13.934
N5525 G3 X74.753 Y527.809 Z-15. I-14.5 J26.833
N5530 X58.836 Y556.903 I-30.416 J2.261 F650.
N5535 G1 Y567.57
N5540 G3 X54.336 Y572.07 I-4.5 J0.
N5545 G1 X45.336
N5550 G3 X40.836 Y567.57 I0. J-4.5
N5555 G1 Y549.243
N5560 G3 X45.102 Y544.749 I4.5 J0.
N5565 G2 Y515.39 I-0.766 J-14.68
N5570 G3 X40.836 Y510.896 I0.234 J-4.494
N5575 G1 Y492.57
N5580 G3 X45.336 Y488.07 I4.5 J0.
N5585 G1 X54.336
N5590 G3 X58.836 Y492.57 I0. J4.5
N5595 G1 Y503.236
N5600 G3 X74.753 Y527.809 I-14.5 J26.833
N5605 X74.067 Y529.002 I-1.223 J0.091
N5610 G2 X73.336 Y530.168 I0.571 J1.17
N5615 G3 X57.336 Y555.993 I-29. J-0.099
N5620 G1 Y567.57
N5625 G3 X54.336 Y570.57 I-3. J0.
N5630 G1 X45.336
N5635 G3 X42.336 Y567.57 I0. J-3.
N5640 G1 Y549.243
N5645 G3 X45.18 Y546.247 I3. J0.
N5650 G2 Y513.892 I-0.844 J-16.178
N5655 G3 X42.336 Y510.896 I0.156 J-2.996
N5660 G1 Y492.57
N5665 G3 X45.336 Y489.57 I3. J0.
N5670 G1 X54.336
N5675 G3 X57.336 Y492.57 I0. J3.
N5680 G1 Y504.146
N5685 G3 X73.336 Y530.168 I-13. J25.923
N5690 G2 X73.934 Y530.77 I0.6 J0.002 F300.
N5695 G1 X74.534 Y530.772
N5700 X74.628 Z-14.993
N5705 X74.72 Y530.773 Z-14.971
N5710 X74.807 Z-14.935
N5715 X74.887 Z-14.885
N5720 X74.959 Y530.774 Z-14.824
N5725 X75.02 Z-14.753
N5730 X75.069 Z-14.672
N5735 X75.105 Z-14.585
N5740 X75.127 Z-14.494
N5745 X75.134 Z-14.4
N5750 G0 Z5.
N5755 X39.036 Y500.421
N5760 G1 Z-12.5 F150.33
N5765 Z-13.4
N5770 G18 G2 X39.636 Z-14. I0.6 K0.
N5775 G1 X40.236 F300.
N5780 G17 G2 X40.836 Y499.821 I0. J-0.6
N5785 G1 Y492.57 Z-14.253 F150.
N5790 G3 X45.336 Y488.07 Z-14.5 I4.5 J0.
N5795 G1 X54.336 Z-14.814
N5800 G3 X58.836 Y492.57 Z-15.061 I0. J4.5
N5805 G1 Y503.236 Z-15.434
N5810 G3 X74.753 Y527.809 Z-16.5 I-14.5 J26.833
N5815 X58.836 Y556.903 I-30.416 J2.261 F650.
N5820 G1 Y567.57
N5825 G3 X54.336 Y572.07 I-4.5 J0.
N5830 G1 X45.336
N5835 G3 X40.836 Y567.57 I0. J-4.5
N5840 G1 Y549.243
N5845 G3 X45.102 Y544.749 I4.5 J0.
N5850 G2 Y515.39 I-0.766 J-14.68
N5855 G3 X40.836 Y510.896 I0.234 J-4.494
N5860 G1 Y492.57
N5865 G3 X45.336 Y488.07 I4.5 J0.
N5870 G1 X54.336
N5875 G3 X58.836 Y492.57 I0. J4.5
N5880 G1 Y503.236
N5885 G3 X74.753 Y527.809 I-14.5 J26.833
N5890 X74.067 Y529.002 I-1.223 J0.091
N5895 G2 X73.336 Y530.168 I0.571 J1.17
N5900 G3 X57.336 Y555.993 I-29. J-0.099
N5905 G1 Y567.57
N5910 G3 X54.336 Y570.57 I-3. J0.
N5915 G1 X45.336
N5920 G3 X42.336 Y567.57 I0. J-3.
N5925 G1 Y549.243
N5930 G3 X45.18 Y546.247 I3. J0.
N5935 G2 Y513.892 I-0.844 J-16.178
N5940 G3 X42.336 Y510.896 I0.156 J-2.996
N5945 G1 Y492.57
N5950 G3 X45.336 Y489.57 I3. J0.
N5955 G1 X54.336
N5960 G3 X57.336 Y492.57 I0. J3.
N5965 G1 Y504.146
N5970 G3 X73.336 Y530.168 I-13. J25.923
N5975 G2 X73.934 Y530.77 I0.6 J0.002 F300.
N5980 G1 X74.534 Y530.772
N5985 X74.628 Z-16.493
N5990 X74.72 Y530.773 Z-16.471
N5995 X74.807 Z-16.435
N6000 X74.887 Z-16.385
N6005 X74.959 Y530.774 Z-16.324
N6010 X75.02 Z-16.253
N6015 X75.069 Z-16.172
N6020 X75.105 Z-16.085
N6025 X75.127 Z-15.994
N6030 X75.134 Z-15.9
N6035 G0 Z5.
N6040 X37.47 Y512.662
N6045 G1 Z-12.5 F150.33
N6050 Z-13.4
N6055 G18 G3 X36.87 Z-14. I-0.6 K0.
N6060 G1 X36.27 F300.
N6065 G17 G2 X35.67 Y513.263 I0. J0.6
N6070 G1 Y520.513 Z-14.253 F150.
N6075 G3 X31.17 Y525.013 Z-14.5 I-4.5 J0.
N6080 G1 X22.17 Z-14.814
N6085 G3 X17.67 Y520.513 Z-15.061 I0. J-4.5
N6090 G1 Y509.846 Z-15.434
N6095 G3 X1.754 Y485.274 Z-16.5 I14.5 J-26.833
N6100 X17.67 Y456.18 I30.416 J-2.261 F650.
N6105 G1 Y445.513
N6110 G3 X22.17 Y441.013 I4.5 J0.
N6115 G1 X31.17
N6120 G3 X35.67 Y445.513 I0. J4.5
N6125 G1 Y463.839
N6130 G3 X31.404 Y468.333 I-4.5 J0.
N6135 G2 Y497.693 I0.766 J14.68
N6140 G3 X35.67 Y502.187 I-0.234 J4.494
N6145 G1 Y520.513
N6150 G3 X31.17 Y525.013 I-4.5 J0.
N6155 G1 X22.17
N6160 G3 X17.67 Y520.513 I0. J-4.5
N6165 G1 Y509.846
N6170 G3 X1.754 Y485.274 I14.5 J-26.833
N6175 X2.439 Y484.08 I1.223 J-0.091
N6180 G2 X3.17 Y482.915 I-0.571 J-1.17
N6185 G3 X19.17 Y457.09 I29. J0.098
N6190 G1 Y445.513
N6195 G3 X22.17 Y442.513 I3. J0.
N6200 G1 X31.17
N6205 G3 X34.17 Y445.513 I0. J3.
N6210 G1 Y463.839
N6215 G3 X31.326 Y466.835 I-3. J0.
N6220 G2 Y499.191 I0.844 J16.178
N6225 G3 X34.17 Y502.187 I-0.156 J2.996
N6230 G1 Y520.513
N6235 G3 X31.17 Y523.513 I-3. J0.
N6240 G1 X22.17
N6245 G3 X19.17 Y520.513 I0. J-3.
N6250 G1 Y508.936
N6255 G3 X3.17 Y482.915 I13. J-25.923
N6260 G2 X2.572 Y482.313 I-0.6 J-0.002 F300.
N6265 G1 X1.972 Y482.311
N6270 X1.878 Y482.31 Z-16.493
N6275 X1.787 Z-16.471
N6280 X1.7 Z-16.435
N6285 X1.62 Y482.309 Z-16.385
N6290 X1.548 Z-16.324
N6295 X1.487 Z-16.253
N6300 X1.438 Z-16.172
N6305 X1.402 Z-16.085
N6310 X1.38 Z-15.994
N6315 X1.372 Z-15.9
N6320 G0 Z5.
N6325 X37.47 Y512.662
N6330 G1 Z-14. F150.33
N6335 Z-14.9
N6340 G18 G3 X36.87 Z-15.5 I-0.6 K0.
N6345 G1 X36.27 F300.
N6350 G17 G2 X35.67 Y513.263 I0. J0.6
N6355 G1 Y520.513 Z-15.753 F150.
N6360 G3 X31.17 Y525.013 Z-16. I-4.5 J0.
N6365 G1 X22.17 Z-16.314
N6370 G3 X17.67 Y520.513 Z-16.561 I0. J-4.5
N6375 G1 Y509.846 Z-16.934
N6380 G3 X1.754 Y485.274 Z-18. I14.5 J-26.833
N6385 X17.67 Y456.18 I30.416 J-2.261 F650.
N6390 G1 Y445.513
N6395 G3 X22.17 Y441.013 I4.5 J0.
N6400 G1 X31.17
N6405 G3 X35.67 Y445.513 I0. J4.5
N6410 G1 Y463.839
N6415 G3 X31.404 Y468.333 I-4.5 J0.
N6420 G2 Y497.693 I0.766 J14.68
N6425 G3 X35.67 Y502.187 I-0.234 J4.494
N6430 G1 Y520.513
N6435 G3 X31.17 Y525.013 I-4.5 J0.
N6440 G1 X22.17
N6445 G3 X17.67 Y520.513 I0. J-4.5
N6450 G1 Y509.846
N6455 G3 X1.754 Y485.274 I14.5 J-26.833
N6460 X2.439 Y484.08 I1.223 J-0.091
N6465 G2 X3.17 Y482.915 I-0.571 J-1.17
N6470 G3 X19.17 Y457.09 I29. J0.098
N6475 G1 Y445.513
N6480 G3 X22.17 Y442.513 I3. J0.
N6485 G1 X31.17
N6490 G3 X34.17 Y445.513 I0. J3.
N6495 G1 Y463.839
N6500 G3 X31.326 Y466.835 I-3. J0.
N6505 G2 Y499.191 I0.844 J16.178
N6510 G3 X34.17 Y502.187 I-0.156 J2.996
N6515 G1 Y520.513
N6520 G3 X31.17 Y523.513 I-3. J0.
N6525 G1 X22.17
N6530 G3 X19.17 Y520.513 I0. J-3.
N6535 G1 Y508.936
N6540 G3 X3.17 Y482.915 I13. J-25.923
N6545 G2 X2.572 Y482.313 I-0.6 J-0.002 F300.
N6550 G1 X1.972 Y482.311
N6555 X1.878 Y482.31 Z-17.993
N6560 X1.787 Z-17.971
N6565 X1.7 Z-17.935
N6570 X1.62 Y482.309 Z-17.885
N6575 X1.548 Z-17.824
N6580 X1.487 Z-17.753
N6585 X1.438 Z-17.672
N6590 X1.402 Z-17.585
N6595 X1.38 Z-17.494
N6600 X1.372 Z-17.4
N6605 G0 Z5.
N6610 X39.036 Y500.421
N6615 G1 Z-14. F150.33
N6620 Z-14.9
N6625 G18 G2 X39.636 Z-15.5 I0.6 K0.
N6630 G1 X40.236 F300.
N6635 G17 G2 X40.836 Y499.821 I0. J-0.6
N6640 G1 Y492.57 Z-15.753 F150.
N6645 G3 X45.336 Y488.07 Z-16. I4.5 J0.
N6650 G1 X54.336 Z-16.314
N6655 G3 X58.836 Y492.57 Z-16.561 I0. J4.5
N6660 G1 Y503.236 Z-16.934
N6665 G3 X74.753 Y527.809 Z-18. I-14.5 J26.833
N6670 X58.836 Y556.903 I-30.416 J2.261 F650.
N6675 G1 Y567.57
N6680 G3 X54.336 Y572.07 I-4.5 J0.
N6685 G1 X45.336
N6690 G3 X40.836 Y567.57 I0. J-4.5
N6695 G1 Y549.243
N6700 G3 X45.102 Y544.749 I4.5 J0.
N6705 G2 Y515.39 I-0.766 J-14.68
N6710 G3 X40.836 Y510.896 I0.234 J-4.494
N6715 G1 Y492.57
N6720 G3 X45.336 Y488.07 I4.5 J0.
N6725 G1 X54.336
N6730 G3 X58.836 Y492.57 I0. J4.5
N6735 G1 Y503.236
N6740 G3 X74.753 Y527.809 I-14.5 J26.833
N6745 X74.067 Y529.002 I-1.223 J0.091
N6750 G2 X73.336 Y530.168 I0.571 J1.17
N6755 G3 X57.336 Y555.993 I-29. J-0.099
N6760 G1 Y567.57
N6765 G3 X54.336 Y570.57 I-3. J0.
N6770 G1 X45.336
N6775 G3 X42.336 Y567.57 I0. J-3.
N6780 G1 Y549.243
N6785 G3 X45.18 Y546.247 I3. J0.
N6790 G2 Y513.892 I-0.844 J-16.178
N6795 G3 X42.336 Y510.896 I0.156 J-2.996
N6800 G1 Y492.57
N6805 G3 X45.336 Y489.57 I3. J0.
N6810 G1 X54.336
N6815 G3 X57.336 Y492.57 I0. J3.
N6820 G1 Y504.146
N6825 G3 X73.336 Y530.168 I-13. J25.923
N6830 G2 X73.934 Y530.77 I0.6 J0.002 F300.
N6835 G1 X74.534 Y530.772
N6840 X74.628 Z-17.993
N6845 X74.72 Y530.773 Z-17.971
N6850 X74.807 Z-17.935
N6855 X74.887 Z-17.885
N6860 X74.959 Y530.774 Z-17.824
N6865 X75.02 Z-17.753
N6870 X75.069 Z-17.672
N6875 X75.105 Z-17.585
N6880 X75.127 Z-17.494
N6885 X75.134 Z-17.4
N6890 G0 Z5.
N6895 X39.036 Y500.421
N6900 G1 Z-15.5 F150.33
N6905 Z-16.4
N6910 G18 G2 X39.636 Z-17. I0.6 K0.
N6915 G1 X40.236 F300.
N6920 G17 G2 X40.836 Y499.821 I0. J-0.6
N6925 G1 Y492.57 Z-17.253 F150.
N6930 G3 X45.336 Y488.07 Z-17.5 I4.5 J0.
N6935 G1 X54.336 Z-17.814
N6940 G3 X58.836 Y492.57 Z-18.061 I0. J4.5
N6945 G1 Y503.236 Z-18.434
N6950 G3 X74.753 Y527.809 Z-19.5 I-14.5 J26.833
N6955 X58.836 Y556.903 I-30.416 J2.261 F650.
N6960 G1 Y567.57
N6965 G3 X54.336 Y572.07 I-4.5 J0.
N6970 G1 X45.336
N6975 G3 X40.836 Y567.57 I0. J-4.5
N6980 G1 Y549.243
N6985 G3 X45.102 Y544.749 I4.5 J0.
N6990 G2 Y515.39 I-0.766 J-14.68
N6995 G3 X40.836 Y510.896 I0.234 J-4.494
N7000 G1 Y492.57
N7005 G3 X45.336 Y488.07 I4.5 J0.
N7010 G1 X54.336
N7015 G3 X58.836 Y492.57 I0. J4.5
N7020 G1 Y503.236
N7025 G3 X74.753 Y527.809 I-14.5 J26.833
N7030 X74.067 Y529.002 I-1.223 J0.091
N7035 G2 X73.336 Y530.168 I0.571 J1.17
N7040 G3 X57.336 Y555.993 I-29. J-0.099
N7045 G1 Y567.57
N7050 G3 X54.336 Y570.57 I-3. J0.
N7055 G1 X45.336
N7060 G3 X42.336 Y567.57 I0. J-3.
N7065 G1 Y549.243
N7070 G3 X45.18 Y546.247 I3. J0.
N7075 G2 Y513.892 I-0.844 J-16.178
N7080 G3 X42.336 Y510.896 I0.156 J-2.996
N7085 G1 Y492.57
N7090 G3 X45.336 Y489.57 I3. J0.
N7095 G1 X54.336
N7100 G3 X57.336 Y492.57 I0. J3.
N7105 G1 Y504.146
N7110 G3 X73.336 Y530.168 I-13. J25.923
N7115 G2 X73.934 Y530.77 I0.6 J0.002 F300.
N7120 G1 X74.534 Y530.772
N7125 X74.628 Z-19.493
N7130 X74.72 Y530.773 Z-19.471
N7135 X74.807 Z-19.435
N7140 X74.887 Z-19.385
N7145 X74.959 Y530.774 Z-19.324
N7150 X75.02 Z-19.253
N7155 X75.069 Z-19.172
N7160 X75.105 Z-19.085
N7165 X75.127 Z-18.994
N7170 X75.134 Z-18.9
N7175 G0 Z5.
N7180 X37.47 Y512.662
N7185 G1 Z-15.5 F150.33
N7190 Z-16.4
N7195 G18 G3 X36.87 Z-17. I-0.6 K0.
N7200 G1 X36.27 F300.
N7205 G17 G2 X35.67 Y513.263 I0. J0.6
N7210 G1 Y520.513 Z-17.253 F150.
N7215 G3 X31.17 Y525.013 Z-17.5 I-4.5 J0.
N7220 G1 X22.17 Z-17.814
N7225 G3 X17.67 Y520.513 Z-18.061 I0. J-4.5
N7230 G1 Y509.846 Z-18.434
N7235 G3 X1.754 Y485.274 Z-19.5 I14.5 J-26.833
N7240 X17.67 Y456.18 I30.416 J-2.261 F650.
N7245 G1 Y445.513
N7250 G3 X22.17 Y441.013 I4.5 J0.
N7255 G1 X31.17
N7260 G3 X35.67 Y445.513 I0. J4.5
N7265 G1 Y463.839
N7270 G3 X31.404 Y468.333 I-4.5 J0.
N7275 G2 Y497.693 I0.766 J14.68
N7280 G3 X35.67 Y502.187 I-0.234 J4.494
N7285 G1 Y520.513
N7290 G3 X31.17 Y525.013 I-4.5 J0.
N7295 G1 X22.17
N7300 G3 X17.67 Y520.513 I0. J-4.5
N7305 G1 Y509.846
N7310 G3 X1.754 Y485.274 I14.5 J-26.833
N7315 X2.439 Y484.08 I1.223 J-0.091
N7320 G2 X3.17 Y482.915 I-0.571 J-1.17
N7325 G3 X19.17 Y457.09 I29. J0.098
N7330 G1 Y445.513
N7335 G3 X22.17 Y442.513 I3. J0.
N7340 G1 X31.17
N7345 G3 X34.17 Y445.513 I0. J3.
N7350 G1 Y463.839
N7355 G3 X31.326 Y466.835 I-3. J0.
N7360 G2 Y499.191 I0.844 J16.178
N7365 G3 X34.17 Y502.187 I-0.156 J2.996
N7370 G1 Y520.513
N7375 G3 X31.17 Y523.513 I-3. J0.
N7380 G1 X22.17
N7385 G3 X19.17 Y520.513 I0. J-3.
N7390 G1 Y508.936
N7395 G3 X3.17 Y482.915 I13. J-25.923
N7400 G2 X2.572 Y482.313 I-0.6 J-0.002 F300.
N7405 G1 X1.972 Y482.311
N7410 X1.878 Y482.31 Z-19.493
N7415 X1.787 Z-19.471
N7420 X1.7 Z-19.435
N7425 X1.62 Y482.309 Z-19.385
N7430 X1.548 Z-19.324
N7435 X1.487 Z-19.253
N7440 X1.438 Z-19.172
N7445 X1.402 Z-19.085
N7450 X1.38 Z-18.994
N7455 X1.372 Z-18.9
N7460 G0 Z5.
N7465 X37.47 Y512.662
N7470 G1 Z-17. F150.33
N7475 Z-17.9
N7480 G18 G3 X36.87 Z-18.5 I-0.6 K0.
N7485 G1 X36.27 F300.
N7490 G17 G2 X35.67 Y513.263 I0. J0.6
N7495 G1 Y520.513 Z-18.753 F150.
N7500 G3 X31.17 Y525.013 Z-19. I-4.5 J0.
N7505 G1 X22.17 Z-19.314
N7510 G3 X17.67 Y520.513 Z-19.561 I0. J-4.5
N7515 G1 Y509.846 Z-19.934
N7520 G3 X1.754 Y485.274 Z-21. I14.5 J-26.833
N7525 X17.67 Y456.18 I30.416 J-2.261 F650.
N7530 G1 Y455.325
N7535 Z-20.5
N7540 Y445.513
N7545 G3 X18.238 Y443.325 I4.5 J0.
N7550 G1 Z-21. F150.33
N7555 G3 X21.249 Y441.108 I3.932 J2.188 F650.
N7560 G1 Z-20.5
N7565 G3 X22.17 Y441.013 I0.921 J4.405
N7570 G1 X31.17
N7575 G3 X33.249 Y441.522 I0. J4.5
N7580 G1 Z-21. F150.33
N7585 G3 X35.67 Y445.513 I-2.079 J3.991 F650.
N7590 G1 Y449.04
N7595 Z-20.5
N7600 Y461.04
N7605 Z-21. F150.33
N7610 Y463.839 F650.
N7615 G3 X31.404 Y468.333 I-4.5 J0.
N7620 G2 Y497.693 I0.766 J14.68
N7625 G3 X35.67 Y502.187 I-0.234 J4.494
N7630 G1 Y520.513
N7635 G3 X31.306 Y525.011 I-4.5 J0.
N7640 G1 Z-20.5
N7645 X31.17 Y525.013
N7650 X22.17
N7655 G3 X19.306 Y523.984 I0. J-4.5
N7660 G1 Z-21. F150.33
N7665 G3 X17.67 Y520.513 I2.864 J-3.471 F650.
N7670 G1 Y519.761
N7675 Z-20.5
N7680 Y509.846
N7685 G3 X14.344 Y507.761 I14.5 J-26.833
N7690 G1 Z-21. F150.33
N7695 G3 X1.754 Y485.274 I17.826 J-24.748 F650.
N7700 X2.439 Y484.08 I1.223 J-0.091
N7705 G2 X3.17 Y482.915 I-0.571 J-1.17
N7710 G3 X19.17 Y457.09 I29. J0.098
N7715 G1 Y455.325
N7720 Z-20.5
N7725 Y445.513
N7730 G3 X20.117 Y443.325 I3. J0.
N7735 G1 Z-21. F150.33
N7740 G3 X21.249 Y442.658 I2.052 J2.188 F650.
N7745 G1 Z-20.5
N7750 G3 X22.17 Y442.513 I0.921 J2.855
N7755 G1 X31.17
N7760 G3 X33.249 Y443.35 I0. J3.
N7765 G1 Z-21. F150.33
N7770 G3 X34.17 Y445.513 I-2.079 J2.163 F650.
N7775 G1 Y449.04
N7780 Z-20.5
N7785 Y461.04
N7790 Z-21. F150.33
N7795 Y463.839 F650.
N7800 G3 X31.326 Y466.835 I-3. J0.
N7805 G2 Y499.191 I0.844 J16.178
N7810 G3 X34.17 Y502.187 I-0.156 J2.996
N7815 G1 Y520.513
N7820 G3 X31.306 Y523.51 I-3. J0.
N7825 G1 Z-20.5
N7830 X31.17 Y523.513
N7835 X22.17
N7840 G3 X19.306 Y521.406 I0. J-3.
N7845 G1 Z-21. F150.33
N7850 G3 X19.17 Y520.513 I2.864 J-0.893 F650.
N7855 G1 Y519.761
N7860 Z-20.5
N7865 Y508.936
N7870 G3 X17.052 Y507.761 I13. J-25.923
N7875 G1 Z-21. F150.33
N7880 G3 X3.17 Y482.915 I15.117 J-24.748 F650.
N7885 G2 X2.572 Y482.313 I-0.6 J-0.002 F300.
N7890 G1 X1.972 Y482.311
N7895 X1.878 Y482.31 Z-20.993
N7900 X1.787 Z-20.971
N7905 X1.7 Z-20.935
N7910 X1.62 Y482.309 Z-20.885
N7915 X1.548 Z-20.824
N7920 X1.487 Z-20.753
N7925 X1.438 Z-20.672
N7930 X1.402 Z-20.585
N7935 X1.38 Z-20.494
N7940 X1.372 Z-20.4
N7945 G0 Z5.
N7950 X39.036 Y500.421
N7955 G1 Z-17. F150.33
N7960 Z-17.9
N7965 G18 G2 X39.636 Z-18.5 I0.6 K0.
N7970 G1 X40.236 F300.
N7975 G17 G2 X40.836 Y499.821 I0. J-0.6
N7980 G1 Y492.57 Z-18.753 F150.
N7985 G3 X45.336 Y488.07 Z-19. I4.5 J0.
N7990 G1 X54.336 Z-19.314
N7995 G3 X58.836 Y492.57 Z-19.561 I0. J4.5
N8000 G1 Y503.236 Z-19.934
N8005 G3 X74.753 Y527.809 Z-21. I-14.5 J26.833
N8010 X61.836 Y555.05 I-30.416 J2.261 F650.
N8015 G1 Z-20.5
N8020 G3 X58.836 Y556.903 I-17.5 J-24.98
N8025 G1 Y567.05
N8030 Z-21. F150.33
N8035 Y567.57 F650.
N8040 G3 X54.537 Y572.066 I-4.5 J0.
N8045 G1 Z-20.5
N8050 X54.336 Y572.07
N8055 X45.336
N8060 G3 X42.537 Y571.093 I0. J-4.5
N8065 G1 Z-21. F150.33
N8070 G3 X40.836 Y567.57 I2.799 J-3.523 F650.
N8075 G1 Y562.138
N8080 Z-20.5
N8085 Y550.138
N8090 Z-21. F150.33
N8095 Y549.243 F650.
N8100 G3 X45.102 Y544.749 I4.5 J0.
N8105 G2 Y515.39 I-0.766 J-14.68
N8110 G3 X40.836 Y510.896 I0.234 J-4.494
N8115 G1 Y492.57
N8120 G3 X43.075 Y488.68 I4.5 J0.
N8125 G1 Z-20.5
N8130 G3 X45.336 Y488.07 I2.262 J3.89
N8135 G1 X54.336
N8140 G3 X55.075 Y488.131 I0. J4.5
N8145 G1 Z-21. F150.33
N8150 G3 X58.836 Y492.57 I-0.738 J4.439 F650.
N8155 G1 Y492.816
N8160 Z-20.5
N8165 Y503.236
N8170 G3 X61.44 Y504.816 I-14.5 J26.833
N8175 G1 Z-21. F150.33
N8180 G3 X74.753 Y527.809 I-17.103 J25.254 F650.
N8185 X74.067 Y529.002 I-1.223 J0.091
N8190 G2 X73.336 Y530.168 I0.571 J1.17
N8195 G3 X59.067 Y555.05 I-29. J-0.099
N8200 G1 Z-20.5
N8205 G3 X57.336 Y555.993 I-14.73 J-24.98
N8210 G1 Y567.05
N8215 Z-21. F150.33
N8220 Y567.57 F650.
N8225 G3 X54.537 Y570.563 I-3. J0.
N8230 G1 Z-20.5
N8235 X54.336 Y570.57
N8240 X45.336
N8245 G3 X42.537 Y568.648 I0. J-3.
N8250 G1 Z-21. F150.33
N8255 G3 X42.336 Y567.57 I2.799 J-1.078 F650.
N8260 G1 Y562.138
N8265 Z-20.5
N8270 Y550.138
N8275 Z-21. F150.33
N8280 Y549.243 F650.
N8285 G3 X45.18 Y546.247 I3. J0.
N8290 G2 Y513.892 I-0.844 J-16.178
N8295 G3 X42.336 Y510.896 I0.156 J-2.996
N8300 G1 Y492.57
N8305 G3 X43.075 Y490.599 I3. J0.
N8310 G1 Z-20.5
N8315 G3 X45.336 Y489.57 I2.262 J1.971
N8320 G1 X54.336
N8325 G3 X55.075 Y489.662 I0. J3.
N8330 G1 Z-21. F150.33
N8335 G3 X57.336 Y492.57 I-0.738 J2.908 F650.
N8340 G1 Y492.816
N8345 Z-20.5
N8350 Y504.146
N8355 G3 X58.594 Y504.816 I-13. J25.923
N8360 G1 Z-21. F150.33
N8365 G3 X73.336 Y530.168 I-14.257 J25.254 F650.
N8370 G2 X73.934 Y530.77 I0.6 J0.002 F300.
N8375 G1 X74.534 Y530.772
N8380 X74.628 Z-20.993
N8385 X74.72 Y530.773 Z-20.971
N8390 X74.807 Z-20.935
N8395 X74.887 Z-20.885
N8400 X74.959 Y530.774 Z-20.824
N8405 X75.02 Z-20.753
N8410 X75.069 Z-20.672
N8415 X75.105 Z-20.585
N8420 X75.127 Z-20.494
N8425 X75.134 Z-20.4
N8430 G0 Z5.
N8435 X39.036 Y500.421
N8440 G1 Z-18.5 F150.33
N8445 Z-19.4
N8450 G18 G2 X39.636 Z-20. I0.6 K0.
N8455 G1 X40.236 F300.
N8460 G17 G2 X40.836 Y499.821 I0. J-0.6
N8465 G1 Y492.57 Z-20.253 F150.
N8470 G3 X45.335 Y488.07 Z-20.5 I4.5 J0.
N8475 G1 X45.336
N8480 X54.336
N8485 G3 X55.075 Y488.131 I0. J4.5
N8490 G1 Z-20.84 F150.33
N8495 G3 X58.836 Y492.57 Z-21.061 I-0.738 J4.439 F150.
N8500 G1 Y492.816 Z-21.07
N8505 Z-20.5
N8510 Y503.236
N8515 G3 X61.44 Y504.816 I-14.5 J26.833
N8520 G1 Z-21.54 F150.33
N8525 G3 X74.753 Y527.809 Z-22.5 I-17.103 J25.254 F150.
N8530 X61.836 Y555.05 I-30.416 J2.261 F650.
N8535 G1 Z-20.5
N8540 G3 X58.836 Y556.903 I-17.5 J-24.98
N8545 G1 Y567.05
N8550 Z-22.5 F150.33
N8555 Y567.57 F650.
N8560 G3 X54.537 Y572.066 I-4.5 J0.
N8565 G1 Z-20.5
N8570 X54.336 Y572.07
N8575 X45.336
N8580 G3 X42.537 Y571.093 I0. J-4.5
N8585 G1 Z-22.5 F150.33
N8590 G3 X40.836 Y567.57 I2.799 J-3.523 F650.
N8595 G1 Y562.138
N8600 Z-20.5
N8605 Y550.138
N8610 Z-22.5 F150.33
N8615 Y549.243 F650.
N8620 G3 X45.102 Y544.749 I4.5 J0.
N8625 G2 Y515.39 I-0.766 J-14.68
N8630 G3 X40.836 Y510.896 I0.234 J-4.494
N8635 G1 Y492.57
N8640 G3 X43.075 Y488.68 I4.5 J0.
N8645 G1 Z-20.5
N8650 G3 X45.336 Y488.07 I2.262 J3.89
N8655 G1 X54.336
N8660 G3 X55.075 Y488.131 I0. J4.5
N8665 G1 Z-22.5 F150.33
N8670 G3 X58.836 Y492.57 I-0.738 J4.439 F650.
N8675 G1 Y492.816
N8680 Z-20.5
N8685 Y503.236
N8690 G3 X61.44 Y504.816 I-14.5 J26.833
N8695 G1 Z-22.5 F150.33
N8700 G3 X74.753 Y527.809 I-17.103 J25.254 F650.
N8705 X74.067 Y529.002 I-1.223 J0.091
N8710 G2 X73.336 Y530.168 I0.571 J1.17
N8715 G3 X59.067 Y555.05 I-29. J-0.099
N8720 G1 Z-20.5
N8725 G3 X57.336 Y555.993 I-14.73 J-24.98
N8730 G1 Y567.05
N8735 Z-22.5 F150.33
N8740 Y567.57 F650.
N8745 G3 X54.537 Y570.563 I-3. J0.
N8750 G1 Z-20.5
N8755 X54.336 Y570.57
N8760 X45.336
N8765 G3 X42.537 Y568.648 I0. J-3.
N8770 G1 Z-22.5 F150.33
N8775 G3 X42.336 Y567.57 I2.799 J-1.078 F650.
N8780 G1 Y562.138
N8785 Z-20.5
N8790 Y550.138
N8795 Z-22.5 F150.33
N8800 Y549.243 F650.
N8805 G3 X45.18 Y546.247 I3. J0.
N8810 G2 Y513.892 I-0.844 J-16.178
N8815 G3 X42.336 Y510.896 I0.156 J-2.996
N8820 G1 Y492.57
N8825 G3 X43.075 Y490.599 I3. J0.
N8830 G1 Z-20.5
N8835 G3 X45.336 Y489.57 I2.262 J1.971
N8840 G1 X54.336
N8845 G3 X55.075 Y489.662 I0. J3.
N8850 G1 Z-22.5 F150.33
N8855 G3 X57.336 Y492.57 I-0.738 J2.908 F650.
N8860 G1 Y492.816
N8865 Z-20.5
N8870 Y504.146
N8875 G3 X58.594 Y504.816 I-13. J25.923
N8880 G1 Z-22.5 F150.33
N8885 G3 X73.336 Y530.168 I-14.257 J25.254 F650.
N8890 G2 X73.934 Y530.77 I0.6 J0.002 F300.
N8895 G1 X74.534 Y530.772
N8900 X74.628 Z-22.493
N8905 X74.72 Y530.773 Z-22.471
N8910 X74.807 Z-22.435
N8915 X74.887 Z-22.385
N8920 X74.959 Y530.774 Z-22.324
N8925 X75.02 Z-22.253
N8930 X75.069 Z-22.172
N8935 X75.105 Z-22.085
N8940 X75.127 Z-21.994
N8945 X75.134 Z-21.9
N8950 G0 Z5.
N8955 X37.47 Y512.662
N8960 G1 Z-18.5 F150.33
N8965 Z-19.4
N8970 G18 G3 X36.87 Z-20. I-0.6 K0.
N8975 G1 X36.27 F300.
N8980 G17 G2 X35.67 Y513.263 I0. J0.6
N8985 G1 Y520.513 Z-20.253 F150.
N8990 G3 X31.171 Y525.013 Z-20.5 I-4.5 J0.
N8995 G1 X31.17
N9000 X22.17
N9005 G3 X19.306 Y523.984 I0. J-4.5
N9010 G1 Z-20.923 F150.33
N9015 G3 X17.67 Y520.513 Z-21.061 I2.864 J-3.471 F150.
N9020 G1 Y519.761 Z-21.087
N9025 Z-20.5
N9030 Y509.846
N9035 G3 X14.344 Y507.761 I14.5 J-26.833
N9040 G1 Z-21.571 F150.33
N9045 G3 X1.754 Y485.274 Z-22.5 I17.826 J-24.748 F150.
N9050 X17.67 Y456.18 I30.416 J-2.261 F650.
N9055 G1 Y455.325
N9060 Z-20.5
N9065 Y445.513
N9070 G3 X18.238 Y443.325 I4.5 J0.
N9075 G1 Z-22.5 F150.33
N9080 G3 X21.249 Y441.108 I3.932 J2.188 F650.
N9085 G1 Z-20.5
N9090 G3 X22.17 Y441.013 I0.921 J4.405
N9095 G1 X31.17
N9100 G3 X33.249 Y441.522 I0. J4.5
N9105 G1 Z-22.5 F150.33
N9110 G3 X35.67 Y445.513 I-2.079 J3.991 F650.
N9115 G1 Y449.04
N9120 Z-20.5
N9125 Y461.04
N9130 Z-22.5 F150.33
N9135 Y463.839 F650.
N9140 G3 X31.404 Y468.333 I-4.5 J0.
N9145 G2 Y497.693 I0.766 J14.68
N9150 G3 X35.67 Y502.187 I-0.234 J4.494
N9155 G1 Y520.513
N9160 G3 X31.306 Y525.011 I-4.5 J0.
N9165 G1 Z-20.5
N9170 X31.17 Y525.013
N9175 X22.17
N9180 G3 X19.306 Y523.984 I0. J-4.5
N9185 G1 Z-22.5 F150.33
N9190 G3 X17.67 Y520.513 I2.864 J-3.471 F650.
N9195 G1 Y519.761
N9200 Z-20.5
N9205 Y509.846
N9210 G3 X14.344 Y507.761 I14.5 J-26.833
N9215 G1 Z-22.5 F150.33
N9220 G3 X1.754 Y485.274 I17.826 J-24.748 F650.
N9225 X2.439 Y484.08 I1.223 J-0.091
N9230 G2 X3.17 Y482.915 I-0.571 J-1.17
N9235 G3 X19.17 Y457.09 I29. J0.098
N9240 G1 Y455.325
N9245 Z-20.5
N9250 Y445.513
N9255 G3 X20.117 Y443.325 I3. J0.
N9260 G1 Z-22.5 F150.33
N9265 G3 X21.249 Y442.658 I2.052 J2.188 F650.
N9270 G1 Z-20.5
N9275 G3 X22.17 Y442.513 I0.921 J2.855
N9280 G1 X31.17
N9285 G3 X33.249 Y443.35 I0. J3.
N9290 G1 Z-22.5 F150.33
N9295 G3 X34.17 Y445.513 I-2.079 J2.163 F650.
N9300 G1 Y449.04
N9305 Z-20.5
N9310 Y461.04
N9315 Z-22.5 F150.33
N9320 Y463.839 F650.
N9325 G3 X31.326 Y466.835 I-3. J0.
N9330 G2 Y499.191 I0.844 J16.178
N9335 G3 X34.17 Y502.187 I-0.156 J2.996
N9340 G1 Y520.513
N9345 G3 X31.306 Y523.51 I-3. J0.
N9350 G1 Z-20.5
N9355 X31.17 Y523.513
N9360 X22.17
N9365 G3 X19.306 Y521.406 I0. J-3.
N9370 G1 Z-22.5 F150.33
N9375 G3 X19.17 Y520.513 I2.864 J-0.893 F650.
N9380 G1 Y519.761
N9385 Z-20.5
N9390 Y508.936
N9395 G3 X17.052 Y507.761 I13. J-25.923
N9400 G1 Z-22.5 F150.33
N9405 G3 X3.17 Y482.915 I15.117 J-24.748 F650.
N9410 G2 X2.572 Y482.313 I-0.6 J-0.002 F300.
N9415 G1 X1.972 Y482.311
N9420 X1.878 Y482.31 Z-22.493
N9425 X1.787 Z-22.471
N9430 X1.7 Z-22.435
N9435 X1.62 Y482.309 Z-22.385
N9440 X1.548 Z-22.324
N9445 X1.487 Z-22.253
N9450 X1.438 Z-22.172
N9455 X1.402 Z-22.085
N9460 X1.38 Z-21.994
N9465 X1.372 Z-21.9
N9470 G0 Z15.
N9475 G53 Z0.
N9480 M30
%
