%
(FINAL_SLOTS)
(T1  D=6. CR=0. - ZMIN=-6.3 - FLAT END MILL)
N10 G90 G94 G17 G91.1
N15 G21
N20 G53 G0 Z0.
(2D POCKET2)
N25 M9
N30 T1 M6
N35 S22000 M3
N40 G54
N45 G0 X1117.598 Y2446.902
N50 G43 Z20. H1
N55 G0 Z5.
N60 G1 Z-1.5 F500.
N65 G19 G2 Y2446.302 Z-2.1 J-0.6 K0.
N70 G1 Y2442.89
N75 Y-2.895 F1200.
N80 G17 G3 X1117.898 Y-3.195 I0.3 J0.
N85 G1 X1122.057 Y-3.192
N90 G3 X1122.357 Y-2.892 I0. J0.3
N95 G1 Y0.
N100 X1122.378 Y2442.895
N105 G2 X1122.678 Y2443.195 I0.3 J0.
N110 G1 X1127. Y2443.191
N115 G2 X1127.3 Y2442.891 I0. J-0.3
N120 G1 Y-2.892
N125 G2 X1127. Y-3.192 I-0.3 J0.
N130 G1 X1113. Y-3.191
N135 G2 X1112.7 Y-2.891 I0. J0.3
N140 G1 Y2442.892
N145 G2 X1112.918 Y2443.181 I0.3 J0.
N150 G1 X1117.216 Y2444.402
N155 G2 X1117.598 Y2444.114 I0.082 J-0.289
N160 G19 G3 Y2443.514 Z-2.7 J0. K-0.6 F500.
N165 G1 Z-3.6
N170 G2 Y2442.914 Z-4.2 J-0.6 K0.
N175 G1 Y2442.89
N180 Y-2.895 F1200.
N185 G17 G3 X1117.898 Y-3.195 I0.3 J0.
N190 G1 X1122.057 Y-3.192
N195 G3 X1122.357 Y-2.892 I0. J0.3
N200 G1 Y0.
N205 X1122.378 Y2442.895
N210 G2 X1122.678 Y2443.195 I0.3 J0.
N215 G1 X1127. Y2443.191
N220 G2 X1127.3 Y2442.891 I0. J-0.3
N225 G1 Y-2.892
N230 G2 X1127. Y-3.192 I-0.3 J0.
N235 G1 X1113. Y-3.191
N240 G2 X1112.7 Y-2.891 I0. J0.3
N245 G1 Y2442.892
N250 G2 X1112.918 Y2443.181 I0.3 J0.
N255 G1 X1117.216 Y2444.402
N260 G2 X1117.598 Y2444.114 I0.082 J-0.289
N265 G19 G3 Y2443.514 Z-4.8 J0. K-0.6 F500.
N270 G1 Z-5.7
N275 G2 Y2442.914 Z-6.3 J-0.6 K0.
N280 G1 Y2442.89
N285 Y-2.895 F1200.
N290 G17 G3 X1117.898 Y-3.195 I0.3 J0.
N295 G1 X1122.057 Y-3.192
N300 G3 X1122.357 Y-2.892 I0. J0.3
N305 G1 Y0.
N310 X1122.378 Y2442.895
N315 G2 X1122.678 Y2443.195 I0.3 J0.
N320 G1 X1127. Y2443.191
N325 G2 X1127.3 Y2442.891 I0. J-0.3
N330 G1 Y-2.892
N335 G2 X1127. Y-3.192 I-0.3 J0.
N340 G1 X1113. Y-3.191
N345 G2 X1112.7 Y-2.891 I0. J0.3
N350 G1 Y2442.892
N355 X1112.707 Y2442.986 F500.
N360 X1113.177 Y2445.949
N365 X1113.191 Y2446.042 Z-6.293
N370 X1113.206 Y2446.133 Z-6.271
N375 X1113.219 Y2446.218 Z-6.235
N380 X1113.232 Y2446.298 Z-6.185
N385 X1113.243 Y2446.368 Z-6.124
N390 X1113.253 Y2446.429 Z-6.053
N395 X1113.26 Y2446.477 Z-5.972
N400 X1113.266 Y2446.513 Z-5.885
N405 X1113.269 Y2446.535 Z-5.794
N410 X1113.271 Y2446.542 Z-5.7
N415 G0 Z20.
(2D POCKET2 3)
N420 G0 X97.598 Y2446.902
N425 Z20.
N430 Z5.
N435 G1 Z-1.5 F500.
N440 G19 G2 Y2446.302 Z-2.1 J-0.6 K0.
N445 G1 Y2442.89
N450 Y-2.895 F1200.
N455 G17 G3 X97.898 Y-3.195 I0.3 J0.
N460 G1 X102.057 Y-3.192
N465 G3 X102.357 Y-2.892 I0. J0.3
N470 G1 Y0.
N475 X102.378 Y2442.895
N480 G2 X102.678 Y2443.195 I0.3 J0.
N485 G1 X107. Y2443.191
N490 G2 X107.3 Y2442.891 I0. J-0.3
N495 G1 Y-2.892
N500 G2 X107. Y-3.192 I-0.3 J0.
N505 G1 X93. Y-3.191
N510 G2 X92.7 Y-2.891 I0. J0.3
N515 G1 Y2442.892
N520 G2 X92.918 Y2443.181 I0.3 J0.
N525 G1 X97.216 Y2444.402
N530 G2 X97.598 Y2444.114 I0.082 J-0.289
N535 G19 G3 Y2443.514 Z-2.7 J0. K-0.6 F500.
N540 G1 Z-3.6
N545 G2 Y2442.914 Z-4.2 J-0.6 K0.
N550 G1 Y2442.89
N555 Y-2.895 F1200.
N560 G17 G3 X97.898 Y-3.195 I0.3 J0.
N565 G1 X102.057 Y-3.192
N570 G3 X102.357 Y-2.892 I0. J0.3
N575 G1 Y0.
N580 X102.378 Y2442.895
N585 G2 X102.678 Y2443.195 I0.3 J0.
N590 G1 X107. Y2443.191
N595 G2 X107.3 Y2442.891 I0. J-0.3
N600 G1 Y-2.892
N605 G2 X107. Y-3.192 I-0.3 J0.
N610 G1 X93. Y-3.191
N615 G2 X92.7 Y-2.891 I0. J0.3
N620 G1 Y2442.892
N625 G2 X92.918 Y2443.181 I0.3 J0.
N630 G1 X97.216 Y2444.402
N635 G2 X97.598 Y2444.114 I0.082 J-0.289
N640 G19 G3 Y2443.514 Z-4.8 J0. K-0.6 F500.
N645 G1 Z-5.7
N650 G2 Y2442.914 Z-6.3 J-0.6 K0.
N655 G1 Y2442.89
N660 Y-2.895 F1200.
N665 G17 G3 X97.898 Y-3.195 I0.3 J0.
N670 G1 X102.057 Y-3.192
N675 G3 X102.357 Y-2.892 I0. J0.3
N680 G1 Y0.
N685 X102.378 Y2442.895
N690 G2 X102.678 Y2443.195 I0.3 J0.
N695 G1 X107. Y2443.191
N700 G2 X107.3 Y2442.891 I0. J-0.3
N705 G1 Y-2.892
N710 G2 X107. Y-3.192 I-0.3 J0.
N715 G1 X93. Y-3.191
N720 G2 X92.7 Y-2.891 I0. J0.3
N725 G1 Y2442.892
N730 X92.707 Y2442.986 F500.
N735 X93.177 Y2445.949
N740 X93.191 Y2446.042 Z-6.293
N745 X93.206 Y2446.133 Z-6.271
N750 X93.219 Y2446.218 Z-6.235
N755 X93.232 Y2446.298 Z-6.185
N760 X93.243 Y2446.368 Z-6.124
N765 X93.253 Y2446.429 Z-6.053
N770 X93.26 Y2446.477 Z-5.972
N775 X93.266 Y2446.513 Z-5.885
N780 X93.269 Y2446.535 Z-5.794
N785 X93.271 Y2446.542 Z-5.7
N790 G0 Z20.
N795 G53 Z0.
N800 M30
%
