%
(FUCKED_SLOT_FIX)
(T1  D=6. CR=0. - ZMIN=-9. - FLAT END MILL)
N10 G90 G94 G17 G91.1
N15 G21
N20 G53 G0 Z0.
(2D POCKET2 3)
N25 M9
N30 T1 M6
N35 S22000 M3
N40 G54
N45 G0 X442.057 Y-3.896
N50 G43 Z6. H1
N55 G0 Z-4.
N60 G1 Z-8.4 F500.
N65 G19 G3 Y-3.296 Z-9. J0.6 K0.
N70 G1 Y-2.892
N75 Y0. F1200.
N80 X442.078 Y2442.895
N85 G17 G2 X442.378 Y2443.195 I0.3 J0.
N90 G1 X446.7 Y2443.191
N95 G2 X447. Y2442.891 I0. J-0.3
N100 G1 Y-2.892
N105 X446.993 Y-2.986 F500.
N110 X446.941 Y-3.31
N115 X446.927 Y-3.403 Z-8.993
N120 X446.912 Y-3.494 Z-8.971
N125 X446.899 Y-3.579 Z-8.935
N130 X446.886 Y-3.659 Z-8.885
N135 X446.875 Y-3.729 Z-8.824
N140 X446.865 Y-3.79 Z-8.753
N145 X446.858 Y-3.838 Z-8.672
N150 X446.852 Y-3.874 Z-8.585
N155 X446.849 Y-3.896 Z-8.494
N160 X446.847 Y-3.903 Z-8.4
N165 G0 Z5.
N170 X437.898 Y2443.902
N175 Z-4.
N180 G1 Z-8.4 F500.
N185 G19 G2 Y2443.302 Z-9. J-0.6 K0.
N190 G1 Y2442.89
N195 Y-2.895 F1200.
N200 G17 G2 X437.598 Y-3.195 I-0.3 J0.
N205 G1 X433.3 Y-3.191
N210 G2 X433. Y-2.891 I0. J0.3
N215 G1 Y2442.892
N220 X433.007 Y2442.986 F500.
N225 X433.059 Y2443.31
N230 X433.073 Y2443.403 Z-8.993
N235 X433.088 Y2443.493 Z-8.971
N240 X433.101 Y2443.579 Z-8.935
N245 X433.114 Y2443.659 Z-8.885
N250 X433.125 Y2443.729 Z-8.824
N255 X433.135 Y2443.79 Z-8.753
N260 X433.142 Y2443.838 Z-8.672
N265 X433.148 Y2443.874 Z-8.585
N270 X433.151 Y2443.896 Z-8.494
N275 X433.153 Y2443.903 Z-8.4
N280 G0 Z6.
N285 G53 Z0.
N290 M30
%
