%
(POST_HOLDER)
(T1  D=6. CR=0. - ZMIN=-22.5 - FLAT END MILL)
N10 G90 G94 G17 G91.1
N15 G21
N20 G53 G0 Z0.
(2D CONTOUR2)
N25 M9
N30 T1 M6
N35 S22000 M3
N40 G54
N45 M8
N50 G0 X126.595 Y45.
N55 G43 Z15. H1
N60 G0 Z5.
N65 G1 Z3. F100.
N70 Z1.
N75 X212.504 Z-2. F333.33
N80 X342.213 F700.
N85 G3 X380.008 Y82.795 I0. J37.795
N90 G1 Y175.923
N95 G3 X361.019 Y194.912 I-18.989 J0.
N100 G1 X338.128
N105 G3 X305.605 Y179.123 I0. J-41.391
N110 G2 X118.122 Y180.711 I-93.128 J73.306
N115 G3 X89.49 Y194.912 I-28.632 J-21.763
N120 G1 X66.3
N125 G3 X45. Y173.611 I0. J-21.301
N130 G1 Y75.587
N135 G3 X75.587 Y45. I30.587 J0.
N140 G1 X212.504
N145 G3 X214.004 Y46. I0. J1.625
N150 G2 X215.504 Y47. I1.5 J-0.625
N155 G1 X342.213
N160 G3 X378.008 Y82.795 I0. J35.795
N165 G1 Y175.923
N170 G3 X361.019 Y192.912 I-16.989 J0.
N175 G1 X338.128
N180 G3 X307.177 Y177.886 I0. J-39.391
N185 G2 X116.529 Y179.5 I-94.699 J74.543
N190 G3 X89.49 Y192.912 I-27.04 J-20.552
N195 G1 X66.3
N200 G3 X47. Y173.611 I0. J-19.301
N205 G1 Y75.587
N210 G3 X75.587 Y47. I28.587 J0.
N215 G1 X215.504
N220 G0 Z5.
N225 X126.595 Y45.
N230 G1 Z1. F100.
N235 Z-1.
N240 X212.504 Z-4. F333.33
N245 X342.213 F700.
N250 G3 X380.008 Y82.795 I0. J37.795
N255 G1 Y175.923
N260 G3 X361.019 Y194.912 I-18.989 J0.
N265 G1 X338.128
N270 G3 X305.605 Y179.123 I0. J-41.391
N275 G2 X118.122 Y180.711 I-93.128 J73.306
N280 G3 X89.49 Y194.912 I-28.632 J-21.763
N285 G1 X66.3
N290 G3 X45. Y173.611 I0. J-21.301
N295 G1 Y75.587
N300 G3 X75.587 Y45. I30.587 J0.
N305 G1 X212.504
N310 G3 X214.004 Y46. I0. J1.625
N315 G2 X215.504 Y47. I1.5 J-0.625
N320 G1 X342.213
N325 G3 X378.008 Y82.795 I0. J35.795
N330 G1 Y175.923
N335 G3 X361.019 Y192.912 I-16.989 J0.
N340 G1 X338.128
N345 G3 X307.177 Y177.886 I0. J-39.391
N350 G2 X116.529 Y179.5 I-94.699 J74.543
N355 G3 X89.49 Y192.912 I-27.04 J-20.552
N360 G1 X66.3
N365 G3 X47. Y173.611 I0. J-19.301
N370 G1 Y75.587
N375 G3 X75.587 Y47. I28.587 J0.
N380 G1 X215.504
N385 G0 Z5.
N390 X126.595 Y45.
N395 G1 Z-1. F100.
N400 Z-3.
N405 X212.504 Z-6. F333.33
N410 X342.213 F700.
N415 G3 X380.008 Y82.795 I0. J37.795
N420 G1 Y175.923
N425 G3 X361.019 Y194.912 I-18.989 J0.
N430 G1 X338.128
N435 G3 X305.605 Y179.123 I0. J-41.391
N440 G2 X118.122 Y180.711 I-93.128 J73.306
N445 G3 X89.49 Y194.912 I-28.632 J-21.763
N450 G1 X66.3
N455 G3 X45. Y173.611 I0. J-21.301
N460 G1 Y75.587
N465 G3 X75.587 Y45. I30.587 J0.
N470 G1 X212.504
N475 G3 X214.004 Y46. I0. J1.625
N480 G2 X215.504 Y47. I1.5 J-0.625
N485 G1 X342.213
N490 G3 X378.008 Y82.795 I0. J35.795
N495 G1 Y175.923
N500 G3 X361.019 Y192.912 I-16.989 J0.
N505 G1 X338.128
N510 G3 X307.177 Y177.886 I0. J-39.391
N515 G2 X116.529 Y179.5 I-94.699 J74.543
N520 G3 X89.49 Y192.912 I-27.04 J-20.552
N525 G1 X66.3
N530 G3 X47. Y173.611 I0. J-19.301
N535 G1 Y75.587
N540 G3 X75.587 Y47. I28.587 J0.
N545 G1 X215.504
N550 G0 Z5.
N555 X126.595 Y45.
N560 G1 Z-3. F100.
N565 Z-5.
N570 X212.504 Z-8. F333.33
N575 X342.213 F700.
N580 G3 X380.008 Y82.795 I0. J37.795
N585 G1 Y175.923
N590 G3 X361.019 Y194.912 I-18.989 J0.
N595 G1 X338.128
N600 G3 X305.605 Y179.123 I0. J-41.391
N605 G2 X118.122 Y180.711 I-93.128 J73.306
N610 G3 X89.49 Y194.912 I-28.632 J-21.763
N615 G1 X66.3
N620 G3 X45. Y173.611 I0. J-21.301
N625 G1 Y75.587
N630 G3 X75.587 Y45. I30.587 J0.
N635 G1 X212.504
N640 G3 X214.004 Y46. I0. J1.625
N645 G2 X215.504 Y47. I1.5 J-0.625
N650 G1 X342.213
N655 G3 X378.008 Y82.795 I0. J35.795
N660 G1 Y175.923
N665 G3 X361.019 Y192.912 I-16.989 J0.
N670 G1 X338.128
N675 G3 X307.177 Y177.886 I0. J-39.391
N680 G2 X116.529 Y179.5 I-94.699 J74.543
N685 G3 X89.49 Y192.912 I-27.04 J-20.552
N690 G1 X66.3
N695 G3 X47. Y173.611 I0. J-19.301
N700 G1 Y75.587
N705 G3 X75.587 Y47. I28.587 J0.
N710 G1 X215.504
N715 G0 Z5.
N720 X126.595 Y45.
N725 G1 Z-5. F100.
N730 Z-7.
N735 X212.504 Z-10. F333.33
N740 X342.213 F700.
N745 G3 X380.008 Y82.795 I0. J37.795
N750 G1 Y175.923
N755 G3 X361.019 Y194.912 I-18.989 J0.
N760 G1 X338.128
N765 G3 X305.605 Y179.123 I0. J-41.391
N770 G2 X118.122 Y180.711 I-93.128 J73.306
N775 G3 X89.49 Y194.912 I-28.632 J-21.763
N780 G1 X66.3
N785 G3 X45. Y173.611 I0. J-21.301
N790 G1 Y75.587
N795 G3 X75.587 Y45. I30.587 J0.
N800 G1 X212.504
N805 G3 X214.004 Y46. I0. J1.625
N810 G2 X215.504 Y47. I1.5 J-0.625
N815 G1 X342.213
N820 G3 X378.008 Y82.795 I0. J35.795
N825 G1 Y175.923
N830 G3 X361.019 Y192.912 I-16.989 J0.
N835 G1 X338.128
N840 G3 X307.177 Y177.886 I0. J-39.391
N845 G2 X116.529 Y179.5 I-94.699 J74.543
N850 G3 X89.49 Y192.912 I-27.04 J-20.552
N855 G1 X66.3
N860 G3 X47. Y173.611 I0. J-19.301
N865 G1 Y75.587
N870 G3 X75.587 Y47. I28.587 J0.
N875 G1 X215.504
N880 G0 Z5.
N885 X126.595 Y45.
N890 G1 Z-7. F100.
N895 Z-9.
N900 X212.504 Z-12. F333.33
N905 X342.213 F700.
N910 G3 X380.008 Y82.795 I0. J37.795
N915 G1 Y175.923
N920 G3 X361.019 Y194.912 I-18.989 J0.
N925 G1 X338.128
N930 G3 X305.605 Y179.123 I0. J-41.391
N935 G2 X118.122 Y180.711 I-93.128 J73.306
N940 G3 X89.49 Y194.912 I-28.632 J-21.763
N945 G1 X66.3
N950 G3 X45. Y173.611 I0. J-21.301
N955 G1 Y75.587
N960 G3 X75.587 Y45. I30.587 J0.
N965 G1 X212.504
N970 G3 X214.004 Y46. I0. J1.625
N975 G2 X215.504 Y47. I1.5 J-0.625
N980 G1 X342.213
N985 G3 X378.008 Y82.795 I0. J35.795
N990 G1 Y175.923
N995 G3 X361.019 Y192.912 I-16.989 J0.
N1000 G1 X338.128
N1005 G3 X307.177 Y177.886 I0. J-39.391
N1010 G2 X116.529 Y179.5 I-94.699 J74.543
N1015 G3 X89.49 Y192.912 I-27.04 J-20.552
N1020 G1 X66.3
N1025 G3 X47. Y173.611 I0. J-19.301
N1030 G1 Y75.587
N1035 G3 X75.587 Y47. I28.587 J0.
N1040 G1 X215.504
N1045 G0 Z5.
N1050 X126.595 Y45.
N1055 G1 Z-9. F100.
N1060 Z-11.
N1065 X212.504 Z-14. F333.33
N1070 X342.213 F700.
N1075 G3 X380.008 Y82.795 I0. J37.795
N1080 G1 Y175.923
N1085 G3 X361.019 Y194.912 I-18.989 J0.
N1090 G1 X338.128
N1095 G3 X305.605 Y179.123 I0. J-41.391
N1100 G2 X118.122 Y180.711 I-93.128 J73.306
N1105 G3 X89.49 Y194.912 I-28.632 J-21.763
N1110 G1 X66.3
N1115 G3 X45. Y173.611 I0. J-21.301
N1120 G1 Y75.587
N1125 G3 X75.587 Y45. I30.587 J0.
N1130 G1 X212.504
N1135 G3 X214.004 Y46. I0. J1.625
N1140 G2 X215.504 Y47. I1.5 J-0.625
N1145 G1 X342.213
N1150 G3 X378.008 Y82.795 I0. J35.795
N1155 G1 Y175.923
N1160 G3 X361.019 Y192.912 I-16.989 J0.
N1165 G1 X338.128
N1170 G3 X307.177 Y177.886 I0. J-39.391
N1175 G2 X116.529 Y179.5 I-94.699 J74.543
N1180 G3 X89.49 Y192.912 I-27.04 J-20.552
N1185 G1 X66.3
N1190 G3 X47. Y173.611 I0. J-19.301
N1195 G1 Y75.587
N1200 G3 X75.587 Y47. I28.587 J0.
N1205 G1 X215.504
N1210 G0 Z5.
N1215 X126.595 Y45.
N1220 G1 Z-11. F100.
N1225 Z-13.
N1230 X212.504 Z-16. F333.33
N1235 X342.213 F700.
N1240 G3 X380.008 Y82.795 I0. J37.795
N1245 G1 Y175.923
N1250 G3 X361.019 Y194.912 I-18.989 J0.
N1255 G1 X338.128
N1260 G3 X305.605 Y179.123 I0. J-41.391
N1265 G2 X118.122 Y180.711 I-93.128 J73.306
N1270 G3 X89.49 Y194.912 I-28.632 J-21.763
N1275 G1 X66.3
N1280 G3 X45. Y173.611 I0. J-21.301
N1285 G1 Y75.587
N1290 G3 X75.587 Y45. I30.587 J0.
N1295 G1 X212.504
N1300 G3 X214.004 Y46. I0. J1.625
N1305 G2 X215.504 Y47. I1.5 J-0.625
N1310 G1 X342.213
N1315 G3 X378.008 Y82.795 I0. J35.795
N1320 G1 Y175.923
N1325 G3 X361.019 Y192.912 I-16.989 J0.
N1330 G1 X338.128
N1335 G3 X307.177 Y177.886 I0. J-39.391
N1340 G2 X116.529 Y179.5 I-94.699 J74.543
N1345 G3 X89.49 Y192.912 I-27.04 J-20.552
N1350 G1 X66.3
N1355 G3 X47. Y173.611 I0. J-19.301
N1360 G1 Y75.587
N1365 G3 X75.587 Y47. I28.587 J0.
N1370 G1 X215.504
N1375 G0 Z5.
N1380 X126.595 Y45.
N1385 G1 Z-13. F100.
N1390 Z-15.
N1395 X212.504 Z-18. F333.33
N1400 X342.213 F700.
N1405 G3 X380.008 Y82.795 I0. J37.795
N1410 G1 Y175.923
N1415 G3 X361.019 Y194.912 I-18.989 J0.
N1420 G1 X338.128
N1425 G3 X305.605 Y179.123 I0. J-41.391
N1430 G2 X118.122 Y180.711 I-93.128 J73.306
N1435 G3 X89.49 Y194.912 I-28.632 J-21.763
N1440 G1 X66.3
N1445 G3 X45. Y173.611 I0. J-21.301
N1450 G1 Y75.587
N1455 G3 X75.587 Y45. I30.587 J0.
N1460 G1 X212.504
N1465 G3 X214.004 Y46. I0. J1.625
N1470 G2 X215.504 Y47. I1.5 J-0.625
N1475 G1 X342.213
N1480 G3 X378.008 Y82.795 I0. J35.795
N1485 G1 Y175.923
N1490 G3 X361.019 Y192.912 I-16.989 J0.
N1495 G1 X338.128
N1500 G3 X307.177 Y177.886 I0. J-39.391
N1505 G2 X116.529 Y179.5 I-94.699 J74.543
N1510 G3 X89.49 Y192.912 I-27.04 J-20.552
N1515 G1 X66.3
N1520 G3 X47. Y173.611 I0. J-19.301
N1525 G1 Y75.587
N1530 G3 X75.587 Y47. I28.587 J0.
N1535 G1 X215.504
N1540 G0 Z5.
N1545 X126.595 Y45.
N1550 G1 Z-15. F100.
N1555 Z-17.
N1560 X212.504 Z-20. F333.33
N1565 X260.453 F700.
N1570 Z-19.5
N1575 X281.453
N1580 Z-20. F100.
N1585 X342.213 F700.
N1590 G3 X380.008 Y82.795 I0. J37.795
N1595 G1 Y116.764
N1600 Z-19.5
N1605 Y137.764
N1610 Z-20. F100.
N1615 Y175.923 F700.
N1620 G3 X361.864 Y194.893 I-18.989 J0.
N1625 G1 Z-19.5
N1630 G3 X361.019 Y194.912 I-0.845 J-18.97
N1635 G1 X340.864
N1640 Z-20. F100.
N1645 X338.128 F700.
N1650 G3 X305.605 Y179.123 I0. J-41.391
N1655 G2 X118.122 Y180.711 I-93.128 J73.306
N1660 G3 X89.49 Y194.912 I-28.632 J-21.763
N1665 G1 X88.8
N1670 Z-19.5
N1675 X67.8
N1680 Z-20. F100.
N1685 X66.3 F700.
N1690 G3 X45. Y173.611 I0. J-21.301
N1695 G1 Y130.215
N1700 Z-19.5
N1705 Y109.215
N1710 Z-20. F100.
N1715 Y75.587 F700.
N1720 G3 X75.587 Y45. I30.587 J0.
N1725 G1 X132.928
N1730 Z-19.5
N1735 X153.928
N1740 Z-20. F100.
N1745 X212.504 F700.
N1750 G3 X214.004 Y46. I0. J1.625
N1755 G2 X215.504 Y47. I1.5 J-0.625
N1760 G1 X260.453
N1765 Z-19.5
N1770 X281.453
N1775 Z-20. F100.
N1780 X342.213 F700.
N1785 G3 X378.008 Y82.795 I0. J35.795
N1790 G1 Y116.764
N1795 Z-19.5
N1800 Y137.764
N1805 Z-20. F100.
N1810 Y175.923 F700.
N1815 G3 X361.864 Y192.891 I-16.989 J0.
N1820 G1 Z-19.5
N1825 G3 X361.019 Y192.912 I-0.845 J-16.968
N1830 G1 X340.864
N1835 Z-20. F100.
N1840 X338.128 F700.
N1845 G3 X307.177 Y177.886 I0. J-39.391
N1850 G2 X116.529 Y179.5 I-94.699 J74.543
N1855 G3 X89.49 Y192.912 I-27.04 J-20.552
N1860 G1 X88.8
N1865 Z-19.5
N1870 X67.8
N1875 Z-20. F100.
N1880 X66.3 F700.
N1885 G3 X47. Y173.611 I0. J-19.301
N1890 G1 Y130.215
N1895 Z-19.5
N1900 Y109.215
N1905 Z-20. F100.
N1910 Y75.587 F700.
N1915 G3 X75.587 Y47. I28.587 J0.
N1920 G1 X132.928
N1925 Z-19.5
N1930 X153.928
N1935 Z-20. F100.
N1940 X215.504 F700.
N1945 G0 Z5.
N1950 X126.595 Y45.
N1955 G1 Z-17. F100.
N1960 Z-19.
N1965 X140.913 Z-19.5 F333.33
N1970 X153.928
N1975 Z-19.954 F100.
N1980 X212.504 Z-22. F333.33
N1985 X260.453 F700.
N1990 Z-19.5
N1995 X281.453
N2000 Z-22. F100.
N2005 X342.213 F700.
N2010 G3 X380.008 Y82.795 I0. J37.795
N2015 G1 Y116.764
N2020 Z-19.5
N2025 Y137.764
N2030 Z-22. F100.
N2035 Y175.923 F700.
N2040 G3 X361.864 Y194.893 I-18.989 J0.
N2045 G1 Z-19.5
N2050 G3 X361.019 Y194.912 I-0.845 J-18.97
N2055 G1 X340.864
N2060 Z-22. F100.
N2065 X338.128 F700.
N2070 G3 X305.605 Y179.123 I0. J-41.391
N2075 G2 X118.122 Y180.711 I-93.128 J73.306
N2080 G3 X89.49 Y194.912 I-28.632 J-21.763
N2085 G1 X88.8
N2090 Z-19.5
N2095 X67.8
N2100 Z-22. F100.
N2105 X66.3 F700.
N2110 G3 X45. Y173.611 I0. J-21.301
N2115 G1 Y130.215
N2120 Z-19.5
N2125 Y109.215
N2130 Z-22. F100.
N2135 Y75.587 F700.
N2140 G3 X75.587 Y45. I30.587 J0.
N2145 G1 X132.928
N2150 Z-19.5
N2155 X153.928
N2160 Z-22. F100.
N2165 X212.504 F700.
N2170 G3 X214.004 Y46. I0. J1.625
N2175 G2 X215.504 Y47. I1.5 J-0.625
N2180 G1 X260.453
N2185 Z-19.5
N2190 X281.453
N2195 Z-22. F100.
N2200 X342.213 F700.
N2205 G3 X378.008 Y82.795 I0. J35.795
N2210 G1 Y116.764
N2215 Z-19.5
N2220 Y137.764
N2225 Z-22. F100.
N2230 Y175.923 F700.
N2235 G3 X361.864 Y192.891 I-16.989 J0.
N2240 G1 Z-19.5
N2245 G3 X361.019 Y192.912 I-0.845 J-16.968
N2250 G1 X340.864
N2255 Z-22. F100.
N2260 X338.128 F700.
N2265 G3 X307.177 Y177.886 I0. J-39.391
N2270 G2 X116.529 Y179.5 I-94.699 J74.543
N2275 G3 X89.49 Y192.912 I-27.04 J-20.552
N2280 G1 X88.8
N2285 Z-19.5
N2290 X67.8
N2295 Z-22. F100.
N2300 X66.3 F700.
N2305 G3 X47. Y173.611 I0. J-19.301
N2310 G1 Y130.215
N2315 Z-19.5
N2320 Y109.215
N2325 Z-22. F100.
N2330 Y75.587 F700.
N2335 G3 X75.587 Y47. I28.587 J0.
N2340 G1 X132.928
N2345 Z-19.5
N2350 X153.928
N2355 Z-22. F100.
N2360 X215.504 F700.
N2365 G0 Z5.
N2370 X169.55 Y45.
N2375 G1 Z-19. F100.
N2380 Z-21.
N2385 X212.504 Z-22.5 F333.33
N2390 X260.453 F700.
N2395 Z-19.5
N2400 X281.453
N2405 Z-22.5 F100.
N2410 X342.213 F700.
N2415 G3 X380.008 Y82.795 I0. J37.795
N2420 G1 Y116.764
N2425 Z-19.5
N2430 Y137.764
N2435 Z-22.5 F100.
N2440 Y175.923 F700.
N2445 G3 X361.864 Y194.893 I-18.989 J0.
N2450 G1 Z-19.5
N2455 G3 X361.019 Y194.912 I-0.845 J-18.97
N2460 G1 X340.864
N2465 Z-22.5 F100.
N2470 X338.128 F700.
N2475 G3 X305.605 Y179.123 I0. J-41.391
N2480 G2 X118.122 Y180.711 I-93.128 J73.306
N2485 G3 X89.49 Y194.912 I-28.632 J-21.763
N2490 G1 X88.8
N2495 Z-19.5
N2500 X67.8
N2505 Z-22.5 F100.
N2510 X66.3 F700.
N2515 G3 X45. Y173.611 I0. J-21.301
N2520 G1 Y130.215
N2525 Z-19.5
N2530 Y109.215
N2535 Z-22.5 F100.
N2540 Y75.587 F700.
N2545 G3 X75.587 Y45. I30.587 J0.
N2550 G1 X132.928
N2555 Z-19.5
N2560 X153.928
N2565 Z-22.5 F100.
N2570 X212.504 F700.
N2575 G3 X214.004 Y46. I0. J1.625
N2580 G2 X215.504 Y47. I1.5 J-0.625
N2585 G1 X260.453
N2590 Z-19.5
N2595 X281.453
N2600 Z-22.5 F100.
N2605 X342.213 F700.
N2610 G3 X378.008 Y82.795 I0. J35.795
N2615 G1 Y116.764
N2620 Z-19.5
N2625 Y137.764
N2630 Z-22.5 F100.
N2635 Y175.923 F700.
N2640 G3 X361.864 Y192.891 I-16.989 J0.
N2645 G1 Z-19.5
N2650 G3 X361.019 Y192.912 I-0.845 J-16.968
N2655 G1 X340.864
N2660 Z-22.5 F100.
N2665 X338.128 F700.
N2670 G3 X307.177 Y177.886 I0. J-39.391
N2675 G2 X116.529 Y179.5 I-94.699 J74.543
N2680 G3 X89.49 Y192.912 I-27.04 J-20.552
N2685 G1 X88.8
N2690 Z-19.5
N2695 X67.8
N2700 Z-22.5 F100.
N2705 X66.3 F700.
N2710 G3 X47. Y173.611 I0. J-19.301
N2715 G1 Y130.215
N2720 Z-19.5
N2725 Y109.215
N2730 Z-22.5 F100.
N2735 Y75.587 F700.
N2740 G3 X75.587 Y47. I28.587 J0.
N2745 G1 X132.928
N2750 Z-19.5
N2755 X153.928
N2760 Z-22.5 F100.
N2765 X215.504 F700.
N2770 G0 Z15.
N2775 M9
N2780 G53 Z0.
N2785 M30
%
