(Exported by FreeCAD)
(Post Processor: linuxcnc_post)
(Output Time:2019-06-05 22:13:30.250043)
(begin preamble)
G17 G54 G40 G49 G80 G90
G21
(begin operation: T1: 6mm end mill)
(machine: not set, mm/min)
(T1: 6mm end mill)
M6 T1
M3 S24000
(finish operation: T1: 6mm end mill)
(begin operation: Profile_Edges)
(machine: not set, mm/min)
(Profile_Edges)
(Compensated Tool Path. Diameter: 6.0)
G0 Z15.000
G0 X16.422 Y335.336
G0 Z3.000
G1 X16.422 Y335.336 Z-0.000 F240.000
G3 X13.017 Y334.165 Z0.000 I-1.417 J-1.417 F900.000
G1 X12.997 Y333.833 Z0.000 F900.000
G1 X12.997 Y290.102 Z0.000 F900.000
G3 X15.619 Y288.106 Z-0.000 I2.006 J-0.084 F900.000
G3 X17.007 Y290.102 Z-0.000 I-0.630 J1.918 F900.000
G1 X17.007 Y333.833 Z-0.000 F900.000
G3 X16.422 Y335.336 Z-0.000 I-2.001 J0.087 F900.000
G1 X16.422 Y335.336 Z-3.000 F240.000
G3 X13.017 Y334.165 Z-3.000 I-1.417 J-1.417 F900.000
G1 X12.997 Y333.833 Z-3.000 F900.000
G1 X12.997 Y290.102 Z-3.000 F900.000
G3 X15.619 Y288.106 Z-3.000 I2.006 J-0.084 F900.000
G3 X17.007 Y290.102 Z-3.000 I-0.630 J1.918 F900.000
G1 X17.007 Y333.833 Z-3.000 F900.000
G3 X16.422 Y335.336 Z-3.000 I-2.001 J0.087 F900.000
G1 X16.422 Y335.336 Z-6.000 F240.000
G3 X13.017 Y334.165 Z-6.000 I-1.417 J-1.417 F900.000
G1 X12.997 Y333.833 Z-6.000 F900.000
G1 X12.997 Y290.102 Z-6.000 F900.000
G3 X15.619 Y288.106 Z-6.000 I2.006 J-0.084 F900.000
G3 X17.007 Y290.102 Z-6.000 I-0.630 J1.918 F900.000
G1 X17.007 Y333.833 Z-6.000 F900.000
G3 X16.422 Y335.336 Z-6.000 I-2.001 J0.087 F900.000
G1 X16.422 Y335.336 Z-9.000 F240.000
G3 X13.017 Y334.165 Z-9.000 I-1.417 J-1.417 F900.000
G1 X12.997 Y333.833 Z-9.000 F900.000
G1 X12.997 Y290.102 Z-9.000 F900.000
G3 X15.619 Y288.106 Z-9.000 I2.006 J-0.084 F900.000
G3 X17.007 Y290.102 Z-9.000 I-0.630 J1.918 F900.000
G1 X17.007 Y333.833 Z-9.000 F900.000
G3 X16.422 Y335.336 Z-9.000 I-2.001 J0.087 F900.000
G1 X16.422 Y335.336 Z-12.000 F240.000
G3 X13.017 Y334.165 Z-12.000 I-1.417 J-1.417 F900.000
G1 X12.997 Y333.833 Z-12.000 F900.000
G1 X12.997 Y290.102 Z-12.000 F900.000
G3 X15.619 Y288.106 Z-12.000 I2.006 J-0.084 F900.000
G3 X17.007 Y290.102 Z-12.000 I-0.630 J1.918 F900.000
G1 X17.007 Y333.833 Z-12.000 F900.000
G3 X16.422 Y335.336 Z-12.000 I-2.001 J0.087 F900.000
G1 X16.422 Y335.336 Z-15.000 F240.000
G3 X13.017 Y334.165 Z-15.000 I-1.417 J-1.417 F900.000
G1 X12.997 Y333.833 Z-15.000 F900.000
G1 X12.997 Y290.102 Z-15.000 F900.000
G3 X15.619 Y288.106 Z-15.000 I2.006 J-0.084 F900.000
G3 X17.007 Y290.102 Z-15.000 I-0.630 J1.918 F900.000
G1 X17.007 Y333.833 Z-15.000 F900.000
G3 X16.422 Y335.336 Z-15.000 I-2.001 J0.087 F900.000
G1 X16.422 Y335.336 Z-18.000 F240.000
G3 X13.017 Y334.165 Z-18.000 I-1.417 J-1.417 F900.000
G1 X12.997 Y333.833 Z-18.000 F900.000
G1 X12.997 Y290.102 Z-18.000 F900.000
G3 X15.619 Y288.106 Z-18.000 I2.006 J-0.084 F900.000
G3 X17.007 Y290.102 Z-18.000 I-0.630 J1.918 F900.000
G1 X17.007 Y333.833 Z-18.000 F900.000
G3 X16.422 Y335.336 Z-18.000 I-2.001 J0.087 F900.000
G0 Z15.000
G0 X16.405 Y270.354
G0 Z3.000
G1 X16.405 Y270.354 Z0.000 F240.000
G3 X13.000 Y269.182 Z0.000 I-1.417 J-1.417 F900.000
G1 X12.980 Y268.851 Z0.000 F900.000
G1 X12.980 Y225.120 Z0.000 F900.000
G3 X15.603 Y223.124 Z0.000 I2.006 J-0.084 F900.000
G3 X16.990 Y225.120 Z0.000 I-0.630 J1.918 F900.000
G1 X16.990 Y268.851 Z0.000 F900.000
G3 X16.405 Y270.354 Z0.000 I-2.001 J0.087 F900.000
G1 X16.405 Y270.354 Z-3.000 F240.000
G3 X13.000 Y269.182 Z-3.000 I-1.417 J-1.417 F900.000
G1 X12.980 Y268.851 Z-3.000 F900.000
G1 X12.980 Y225.120 Z-3.000 F900.000
G3 X15.603 Y223.124 Z-3.000 I2.006 J-0.084 F900.000
G3 X16.990 Y225.120 Z-3.000 I-0.630 J1.918 F900.000
G1 X16.990 Y268.851 Z-3.000 F900.000
G3 X16.405 Y270.354 Z-3.000 I-2.001 J0.087 F900.000
G1 X16.405 Y270.354 Z-6.000 F240.000
G3 X13.000 Y269.182 Z-6.000 I-1.417 J-1.417 F900.000
G1 X12.980 Y268.851 Z-6.000 F900.000
G1 X12.980 Y225.120 Z-6.000 F900.000
G3 X15.603 Y223.124 Z-6.000 I2.006 J-0.084 F900.000
G3 X16.990 Y225.120 Z-6.000 I-0.630 J1.918 F900.000
G1 X16.990 Y268.851 Z-6.000 F900.000
G3 X16.405 Y270.354 Z-6.000 I-2.001 J0.087 F900.000
G1 X16.405 Y270.354 Z-9.000 F240.000
G3 X13.000 Y269.182 Z-9.000 I-1.417 J-1.417 F900.000
G1 X12.980 Y268.851 Z-9.000 F900.000
G1 X12.980 Y225.120 Z-9.000 F900.000
G3 X15.603 Y223.124 Z-9.000 I2.006 J-0.084 F900.000
G3 X16.990 Y225.120 Z-9.000 I-0.630 J1.918 F900.000
G1 X16.990 Y268.851 Z-9.000 F900.000
G3 X16.405 Y270.354 Z-9.000 I-2.001 J0.087 F900.000
G1 X16.405 Y270.354 Z-12.000 F240.000
G3 X13.000 Y269.182 Z-12.000 I-1.417 J-1.417 F900.000
G1 X12.980 Y268.851 Z-12.000 F900.000
G1 X12.980 Y225.120 Z-12.000 F900.000
G3 X15.603 Y223.124 Z-12.000 I2.006 J-0.084 F900.000
G3 X16.990 Y225.120 Z-12.000 I-0.630 J1.918 F900.000
G1 X16.990 Y268.851 Z-12.000 F900.000
G3 X16.405 Y270.354 Z-12.000 I-2.001 J0.087 F900.000
G1 X16.405 Y270.354 Z-15.000 F240.000
G3 X13.000 Y269.182 Z-15.000 I-1.417 J-1.417 F900.000
G1 X12.980 Y268.851 Z-15.000 F900.000
G1 X12.980 Y225.120 Z-15.000 F900.000
G3 X15.603 Y223.124 Z-15.000 I2.006 J-0.084 F900.000
G3 X16.990 Y225.120 Z-15.000 I-0.630 J1.918 F900.000
G1 X16.990 Y268.851 Z-15.000 F900.000
G3 X16.405 Y270.354 Z-15.000 I-2.001 J0.087 F900.000
G1 X16.405 Y270.354 Z-18.000 F240.000
G3 X13.000 Y269.182 Z-18.000 I-1.417 J-1.417 F900.000
G1 X12.980 Y268.851 Z-18.000 F900.000
G1 X12.980 Y225.120 Z-18.000 F900.000
G3 X15.603 Y223.124 Z-18.000 I2.006 J-0.084 F900.000
G3 X16.990 Y225.120 Z-18.000 I-0.630 J1.918 F900.000
G1 X16.990 Y268.851 Z-18.000 F900.000
G3 X16.405 Y270.354 Z-18.000 I-2.001 J0.087 F900.000
G0 Z15.000
G0 X16.495 Y186.410
G0 Z3.000
G1 X16.495 Y186.410 Z0.000 F240.000
G3 X13.117 Y185.257 Z0.000 I-1.406 J-1.406 F900.000
G1 X13.095 Y184.914 Z0.000 F900.000
G1 X13.095 Y145.089 Z0.000 F900.000
G3 X15.698 Y143.107 Z0.000 I1.992 J-0.084 F900.000
G3 X17.076 Y145.089 Z0.000 I-0.625 J1.904 F900.000
G1 X17.076 Y184.914 Z0.000 F900.000
G3 X16.495 Y186.410 Z0.000 I-1.987 J0.090 F900.000
G1 X16.495 Y186.410 Z-3.000 F240.000
G3 X13.117 Y185.257 Z-3.000 I-1.406 J-1.406 F900.000
G1 X13.095 Y184.914 Z-3.000 F900.000
G1 X13.095 Y145.089 Z-3.000 F900.000
G3 X15.698 Y143.107 Z-3.000 I1.992 J-0.084 F900.000
G3 X17.076 Y145.089 Z-3.000 I-0.625 J1.904 F900.000
G1 X17.076 Y184.914 Z-3.000 F900.000
G3 X16.495 Y186.410 Z-3.000 I-1.987 J0.090 F900.000
G1 X16.495 Y186.410 Z-6.000 F240.000
G3 X13.117 Y185.257 Z-6.000 I-1.406 J-1.406 F900.000
G1 X13.095 Y184.914 Z-6.000 F900.000
G1 X13.095 Y145.089 Z-6.000 F900.000
G3 X15.698 Y143.107 Z-6.000 I1.992 J-0.084 F900.000
G3 X17.076 Y145.089 Z-6.000 I-0.625 J1.904 F900.000
G1 X17.076 Y184.914 Z-6.000 F900.000
G3 X16.495 Y186.410 Z-6.000 I-1.987 J0.090 F900.000
G1 X16.495 Y186.410 Z-9.000 F240.000
G3 X13.117 Y185.257 Z-9.000 I-1.406 J-1.406 F900.000
G1 X13.095 Y184.914 Z-9.000 F900.000
G1 X13.095 Y145.089 Z-9.000 F900.000
G3 X15.698 Y143.107 Z-9.000 I1.992 J-0.084 F900.000
G3 X17.076 Y145.089 Z-9.000 I-0.625 J1.904 F900.000
G1 X17.076 Y184.914 Z-9.000 F900.000
G3 X16.495 Y186.410 Z-9.000 I-1.987 J0.090 F900.000
G1 X16.495 Y186.410 Z-12.000 F240.000
G3 X13.117 Y185.257 Z-12.000 I-1.406 J-1.406 F900.000
G1 X13.095 Y184.914 Z-12.000 F900.000
G1 X13.095 Y145.089 Z-12.000 F900.000
G3 X15.698 Y143.107 Z-12.000 I1.992 J-0.084 F900.000
G3 X17.076 Y145.089 Z-12.000 I-0.625 J1.904 F900.000
G1 X17.076 Y184.914 Z-12.000 F900.000
G3 X16.495 Y186.410 Z-12.000 I-1.987 J0.090 F900.000
G1 X16.495 Y186.410 Z-15.000 F240.000
G3 X13.117 Y185.257 Z-15.000 I-1.406 J-1.406 F900.000
G1 X13.095 Y184.914 Z-15.000 F900.000
G1 X13.095 Y145.089 Z-15.000 F900.000
G3 X15.698 Y143.107 Z-15.000 I1.992 J-0.084 F900.000
G3 X17.076 Y145.089 Z-15.000 I-0.625 J1.904 F900.000
G1 X17.076 Y184.914 Z-15.000 F900.000
G3 X16.495 Y186.410 Z-15.000 I-1.987 J0.090 F900.000
G1 X16.495 Y186.410 Z-18.000 F240.000
G3 X13.117 Y185.257 Z-18.000 I-1.406 J-1.406 F900.000
G1 X13.095 Y184.914 Z-18.000 F900.000
G1 X13.095 Y145.089 Z-18.000 F900.000
G3 X15.698 Y143.107 Z-18.000 I1.992 J-0.084 F900.000
G3 X17.076 Y145.089 Z-18.000 I-0.625 J1.904 F900.000
G1 X17.076 Y184.914 Z-18.000 F900.000
G3 X16.495 Y186.410 Z-18.000 I-1.987 J0.090 F900.000
G0 Z15.000
G0 X16.418 Y56.430
G0 Z3.000
G1 X16.418 Y56.430 Z-0.000 F240.000
G3 X13.039 Y55.277 Z-0.000 I-1.406 J-1.406 F900.000
G1 X13.018 Y54.934 Z-0.000 F900.000
G1 X13.018 Y15.108 Z0.000 F900.000
G3 X16.977 Y14.765 Z0.000 I1.987 J-0.090 F900.000
G1 X16.998 Y15.108 Z0.000 F900.000
G1 X16.998 Y54.934 Z-0.000 F900.000
G3 X16.418 Y56.430 Z-0.000 I-1.987 J0.090 F900.000
G1 X16.418 Y56.430 Z-3.000 F240.000
G3 X13.039 Y55.277 Z-3.000 I-1.406 J-1.406 F900.000
G1 X13.018 Y54.934 Z-3.000 F900.000
G1 X13.018 Y15.108 Z-3.000 F900.000
G3 X16.977 Y14.765 Z-3.000 I1.987 J-0.090 F900.000
G1 X16.998 Y15.108 Z-3.000 F900.000
G1 X16.998 Y54.934 Z-3.000 F900.000
G3 X16.418 Y56.430 Z-3.000 I-1.987 J0.090 F900.000
G1 X16.418 Y56.430 Z-6.000 F240.000
G3 X13.039 Y55.277 Z-6.000 I-1.406 J-1.406 F900.000
G1 X13.018 Y54.934 Z-6.000 F900.000
G1 X13.018 Y15.108 Z-6.000 F900.000
G3 X16.977 Y14.765 Z-6.000 I1.987 J-0.090 F900.000
G1 X16.998 Y15.108 Z-6.000 F900.000
G1 X16.998 Y54.934 Z-6.000 F900.000
G3 X16.418 Y56.430 Z-6.000 I-1.987 J0.090 F900.000
G1 X16.418 Y56.430 Z-9.000 F240.000
G3 X13.039 Y55.277 Z-9.000 I-1.406 J-1.406 F900.000
G1 X13.018 Y54.934 Z-9.000 F900.000
G1 X13.018 Y15.108 Z-9.000 F900.000
G3 X16.977 Y14.765 Z-9.000 I1.987 J-0.090 F900.000
G1 X16.998 Y15.108 Z-9.000 F900.000
G1 X16.998 Y54.934 Z-9.000 F900.000
G3 X16.418 Y56.430 Z-9.000 I-1.987 J0.090 F900.000
G1 X16.418 Y56.430 Z-12.000 F240.000
G3 X13.039 Y55.277 Z-12.000 I-1.406 J-1.406 F900.000
G1 X13.018 Y54.934 Z-12.000 F900.000
G1 X13.018 Y15.108 Z-12.000 F900.000
G3 X16.977 Y14.765 Z-12.000 I1.987 J-0.090 F900.000
G1 X16.998 Y15.108 Z-12.000 F900.000
G1 X16.998 Y54.934 Z-12.000 F900.000
G3 X16.418 Y56.430 Z-12.000 I-1.987 J0.090 F900.000
G1 X16.418 Y56.430 Z-15.000 F240.000
G3 X13.039 Y55.277 Z-15.000 I-1.406 J-1.406 F900.000
G1 X13.018 Y54.934 Z-15.000 F900.000
G1 X13.018 Y15.108 Z-15.000 F900.000
G3 X16.977 Y14.765 Z-15.000 I1.987 J-0.090 F900.000
G1 X16.998 Y15.108 Z-15.000 F900.000
G1 X16.998 Y54.934 Z-15.000 F900.000
G3 X16.418 Y56.430 Z-15.000 I-1.987 J0.090 F900.000
G1 X16.418 Y56.430 Z-18.000 F240.000
G3 X13.039 Y55.277 Z-18.000 I-1.406 J-1.406 F900.000
G1 X13.018 Y54.934 Z-18.000 F900.000
G1 X13.018 Y15.108 Z-18.000 F900.000
G3 X16.977 Y14.765 Z-18.000 I1.987 J-0.090 F900.000
G1 X16.998 Y15.108 Z-18.000 F900.000
G1 X16.998 Y54.934 Z-18.000 F900.000
G3 X16.418 Y56.430 Z-18.000 I-1.987 J0.090 F900.000
G0 Z15.000
(finish operation: Profile_Edges)
(begin operation: Profile_Faces)
(machine: not set, mm/min)
(Profile_Faces)
(Compensated Tool Path. Diameter: 6.0)
G0 Z15.000
G0 X78.694 Y347.441
G0 Z3.000
G1 X78.694 Y347.441 Z-0.000 F240.000
G2 X79.590 Y344.217 Z-0.000 I-9.693 J-4.431 F900.000
G1 X92.269 Y217.332 Z-0.000 F900.000
G2 X83.064 Y206.982 Z-0.000 I-9.374 J-0.931 F900.000
G1 X0.081 Y206.977 Z0.000 F900.000
G2 X-2.919 Y209.977 Z0.000 I0.000 J3.000 F900.000
G1 X-2.919 Y350.667 Z0.000 F900.000
G2 X0.081 Y353.667 Z0.000 I3.000 J-0.000 F900.000
G1 X69.006 Y353.667 Z-0.000 F900.000
G2 X78.694 Y347.441 Z-0.000 I-0.005 J-10.658 F900.000
G1 X78.694 Y347.441 Z-4.000 F240.000
G2 X79.590 Y344.217 Z-4.000 I-9.693 J-4.431 F900.000
G1 X92.269 Y217.332 Z-4.000 F900.000
G2 X83.064 Y206.982 Z-4.000 I-9.374 J-0.931 F900.000
G1 X0.081 Y206.977 Z-4.000 F900.000
G2 X-2.919 Y209.977 Z-4.000 I0.000 J3.000 F900.000
G1 X-2.919 Y350.667 Z-4.000 F900.000
G2 X0.081 Y353.667 Z-4.000 I3.000 J-0.000 F900.000
G1 X69.006 Y353.667 Z-4.000 F900.000
G2 X78.694 Y347.441 Z-4.000 I-0.005 J-10.658 F900.000
G1 X78.694 Y347.441 Z-8.000 F240.000
G2 X79.590 Y344.217 Z-8.000 I-9.693 J-4.431 F900.000
G1 X92.269 Y217.332 Z-8.000 F900.000
G2 X83.064 Y206.982 Z-8.000 I-9.374 J-0.931 F900.000
G1 X0.081 Y206.977 Z-8.000 F900.000
G2 X-2.919 Y209.977 Z-8.000 I0.000 J3.000 F900.000
G1 X-2.919 Y350.667 Z-8.000 F900.000
G2 X0.081 Y353.667 Z-8.000 I3.000 J-0.000 F900.000
G1 X69.006 Y353.667 Z-8.000 F900.000
G2 X78.694 Y347.441 Z-8.000 I-0.005 J-10.658 F900.000
G1 X78.694 Y347.441 Z-12.000 F240.000
G2 X79.590 Y344.217 Z-12.000 I-9.693 J-4.431 F900.000
G1 X92.269 Y217.332 Z-12.000 F900.000
G2 X83.064 Y206.982 Z-12.000 I-9.374 J-0.931 F900.000
G1 X0.081 Y206.977 Z-12.000 F900.000
G2 X-2.919 Y209.977 Z-12.000 I0.000 J3.000 F900.000
G1 X-2.919 Y350.667 Z-12.000 F900.000
G2 X0.081 Y353.667 Z-12.000 I3.000 J-0.000 F900.000
G1 X69.006 Y353.667 Z-12.000 F900.000
G2 X78.694 Y347.441 Z-12.000 I-0.005 J-10.658 F900.000
G1 X78.694 Y347.441 Z-16.000 F240.000
G2 X79.590 Y344.217 Z-16.000 I-9.693 J-4.431 F900.000
G1 X92.269 Y217.332 Z-16.000 F900.000
G2 X83.064 Y206.982 Z-16.000 I-9.374 J-0.931 F900.000
G1 X0.081 Y206.977 Z-16.000 F900.000
G2 X-2.919 Y209.977 Z-16.000 I0.000 J3.000 F900.000
G1 X-2.919 Y350.667 Z-16.000 F900.000
G2 X0.081 Y353.667 Z-16.000 I3.000 J-0.000 F900.000
G1 X69.006 Y353.667 Z-16.000 F900.000
G2 X78.694 Y347.441 Z-16.000 I-0.005 J-10.658 F900.000
G1 X78.694 Y347.441 Z-18.000 F240.000
G2 X79.590 Y344.217 Z-18.000 I-9.693 J-4.431 F900.000
G1 X92.269 Y217.332 Z-18.000 F900.000
G2 X83.064 Y206.982 Z-18.000 I-9.374 J-0.931 F900.000
G1 X0.081 Y206.977 Z-18.000 F900.000
G2 X-2.919 Y209.977 Z-18.000 I0.000 J3.000 F900.000
G1 X-2.919 Y350.667 Z-18.000 F900.000
G2 X0.081 Y353.667 Z-18.000 I3.000 J-0.000 F900.000
G1 X69.006 Y353.667 Z-18.000 F900.000
G2 X78.694 Y347.441 Z-18.000 I-0.005 J-10.658 F900.000
G0 Z15.000
G0 X162.403 Y193.263
G0 Z3.000
G1 X162.403 Y193.263 Z0.000 F240.000
G2 X164.344 Y186.820 Z0.000 I-16.052 J-8.349 F900.000
G1 X181.035 Y19.945 Z0.000 F900.000
G2 X160.370 Y-2.998 Z0.000 I-20.766 J-2.074 F900.000
G1 X0.000 Y-3.000 Z0.000 F900.000
G2 X-3.000 Y0.000 Z0.000 I0.000 J3.000 F900.000
G1 X-3.000 Y200.007 Z0.000 F900.000
G2 X0.000 Y203.007 Z0.000 I3.000 J-0.000 F900.000
G1 X146.354 Y203.007 Z0.000 F900.000
G2 X162.403 Y193.263 Z0.000 I-0.003 J-18.093 F900.000
G1 X162.403 Y193.263 Z-4.000 F240.000
G2 X164.344 Y186.820 Z-4.000 I-16.052 J-8.349 F900.000
G1 X181.035 Y19.945 Z-4.000 F900.000
G2 X160.370 Y-2.998 Z-4.000 I-20.766 J-2.074 F900.000
G1 X0.000 Y-3.000 Z-4.000 F900.000
G2 X-3.000 Y0.000 Z-4.000 I0.000 J3.000 F900.000
G1 X-3.000 Y200.007 Z-4.000 F900.000
G2 X0.000 Y203.007 Z-4.000 I3.000 J-0.000 F900.000
G1 X146.354 Y203.007 Z-4.000 F900.000
G2 X162.403 Y193.263 Z-4.000 I-0.003 J-18.093 F900.000
G1 X162.403 Y193.263 Z-8.000 F240.000
G2 X164.344 Y186.820 Z-8.000 I-16.052 J-8.349 F900.000
G1 X181.035 Y19.945 Z-8.000 F900.000
G2 X160.370 Y-2.998 Z-8.000 I-20.766 J-2.074 F900.000
G1 X0.000 Y-3.000 Z-8.000 F900.000
G2 X-3.000 Y0.000 Z-8.000 I0.000 J3.000 F900.000
G1 X-3.000 Y200.007 Z-8.000 F900.000
G2 X0.000 Y203.007 Z-8.000 I3.000 J-0.000 F900.000
G1 X146.354 Y203.007 Z-8.000 F900.000
G2 X162.403 Y193.263 Z-8.000 I-0.003 J-18.093 F900.000
G1 X162.403 Y193.263 Z-12.000 F240.000
G2 X164.344 Y186.820 Z-12.000 I-16.052 J-8.349 F900.000
G1 X181.035 Y19.945 Z-12.000 F900.000
G2 X160.370 Y-2.998 Z-12.000 I-20.766 J-2.074 F900.000
G1 X0.000 Y-3.000 Z-12.000 F900.000
G2 X-3.000 Y0.000 Z-12.000 I0.000 J3.000 F900.000
G1 X-3.000 Y200.007 Z-12.000 F900.000
G2 X0.000 Y203.007 Z-12.000 I3.000 J-0.000 F900.000
G1 X146.354 Y203.007 Z-12.000 F900.000
G2 X162.403 Y193.263 Z-12.000 I-0.003 J-18.093 F900.000
G1 X162.403 Y193.263 Z-16.000 F240.000
G2 X164.344 Y186.820 Z-16.000 I-16.052 J-8.349 F900.000
G1 X181.035 Y19.945 Z-16.000 F900.000
G2 X160.370 Y-2.998 Z-16.000 I-20.766 J-2.074 F900.000
G1 X0.000 Y-3.000 Z-16.000 F900.000
G2 X-3.000 Y0.000 Z-16.000 I0.000 J3.000 F900.000
G1 X-3.000 Y200.007 Z-16.000 F900.000
G2 X0.000 Y203.007 Z-16.000 I3.000 J-0.000 F900.000
G1 X146.354 Y203.007 Z-16.000 F900.000
G2 X162.403 Y193.263 Z-16.000 I-0.003 J-18.093 F900.000
G1 X162.403 Y193.263 Z-18.000 F240.000
G2 X164.344 Y186.820 Z-18.000 I-16.052 J-8.349 F900.000
G1 X181.035 Y19.945 Z-18.000 F900.000
G2 X160.370 Y-2.998 Z-18.000 I-20.766 J-2.074 F900.000
G1 X0.000 Y-3.000 Z-18.000 F900.000
G2 X-3.000 Y0.000 Z-18.000 I0.000 J3.000 F900.000
G1 X-3.000 Y200.007 Z-18.000 F900.000
G2 X0.000 Y203.007 Z-18.000 I3.000 J-0.000 F900.000
G1 X146.354 Y203.007 Z-18.000 F900.000
G2 X162.403 Y193.263 Z-18.000 I-0.003 J-18.093 F900.000
G0 Z15.000
(finish operation: Profile_Faces)
(begin postamble)
M05
G17 G54 G90 G80 G40
M2
