%
(1001)
(T5  D=19.05 CR=9.525 - ZMIN=-40. - BALL END MILL)
N10 G90 G94 G17 G91.1
N15 G21
N20 G53 G0 Z0.
(PARALLEL3)
N25 M9
N30 T5 M6
N35 S24000 M3
N40 G54
N45 G0 X129.952 Y602.389
N50 G43 Z15. H5
N55 G0 Z-8.095
N60 G19 G2 Y600.484 Z-10. J-1.905 K0. F1000.
N65 G1 Y-0.484 F3000.
N70 G2 Y-0.903 Z-9.903 J0. K0.953
N75 G3 Y-1.322 Z-9.806 J-0.419 K-0.855
N80 G1 Y-5.838
N85 G17 G2 X127.095 Y-8.696 I-2.858 J0.
N90 G1 X123.288
N95 G2 X120.431 Y-5.838 I0. J2.858
N100 G19 G2 Y-5.419 Z-9.903 J0. K-0.952
N105 G3 Y-5. Z-10. J0.419 K0.855
N110 G1 Y605.
N115 G3 Y605.419 Z-9.903 J0. K0.953
N120 G2 Y605.838 Z-9.806 J0.419 K-0.855
N125 G17 G3 X117.573 Y608.696 I-2.857 J0.
N130 G1 X113.767
N135 G3 X110.909 Y605.838 I0. J-2.857
N140 G19 G3 Y605.419 Z-9.903 J0. K-0.952
N145 G2 Y605. Z-10. J-0.419 K0.855
N150 G1 Y-5.
N155 G2 Y-5.419 Z-9.903 J0. K0.953
N160 G3 Y-5.838 Z-9.806 J-0.419 K-0.855
N165 G17 G2 X108.052 Y-8.696 I-2.857 J0.
N170 G1 X104.245
N175 G2 X101.388 Y-5.838 I0. J2.858
N180 G19 G2 Y-5.419 Z-9.903 J0. K-0.952
N185 G3 Y-5. Z-10. J0.419 K0.855
N190 G1 Y160.677
N195 Y161.698 Z-9.9
N200 Y175.608 Z-8.713
N205 Y189.274 Z-7.785
N210 Y209.151 Z-6.706
N215 Y232.913 Z-5.774
N220 Y259.956 Z-5.058
N225 Y289.813 Z-4.606
N230 Y312.207 Z-4.546
N235 Y324.337 Z-4.709
N240 Y343.464 Z-5.297
N245 Y358.839 Z-5.999
N250 Y371.669 Z-6.726
N255 Y383.529 Z-7.537
N260 Y396.28 Z-8.654
N265 Y407.916 Z-9.97
N270 Y605. Z-10.
N275 G3 Y605.419 Z-9.903 J0. K0.953
N280 G2 Y605.839 Z-9.806 J0.419 K-0.855
N285 G17 G3 X98.53 Y608.696 I-2.858 J0.
N290 G1 X94.724
N295 G3 X91.866 Y605.839 I0. J-2.857
N300 G19 G3 Y605.419 Z-9.903 J0. K-0.952
N305 G2 Y605. Z-10. J-0.419 K0.855
N310 G1 Y453.844 Z-9.96
N315 Y445.056 Z-8.591
N320 Y435.083 Z-7.314
N325 Y425.079 Z-6.273
N330 Y413.698 Z-5.231
N335 Y399.559 Z-4.235
N340 Y382.892 Z-3.417
N345 Y362.365 Z-2.789
N350 Y340.905 Z-2.453
N355 Y317.578 Z-2.37
N360 Y285.854 Z-2.814
N365 Y228.004 Z-4.024
N370 Y173.887 Z-5.472
N375 Y148.701 Z-6.374
N380 Y129.521 Z-7.363
N385 Y113.958 Z-8.477
N390 Y101.084 Z-9.716
N395 Y98.595 Z-10.
N400 Y-5.
N405 G2 Y-5.419 Z-9.903 J0. K0.953
N410 G3 Y-5.838 Z-9.806 J-0.419 K-0.855
N415 G17 G2 X89.009 Y-8.696 I-2.857 J0.
N420 G1 X85.202
N425 G2 X82.345 Y-5.838 I0. J2.858
N430 G19 G2 Y-5.419 Z-9.903 J0. K-0.952
N435 G3 Y-5. Z-10. J0.419 K0.855
N440 G1 Y64.719
N445 Y66.355 Z-9.9
N450 Y77.832 Z-9.096
N455 Y96.915 Z-8.211
N460 Y126.544 Z-7.036
N465 Y158.527 Z-5.938
N470 Y210.771 Z-4.449
N475 Y268.621 Z-3.148
N480 Y310.609 Z-2.438
N485 Y332.069 Z-2.348
N490 Y357.262 Z-2.543
N495 Y382.454 Z-3.053
N500 Y399.228 Z-3.587
N505 Y415.651 Z-4.287
N510 Y429.915 Z-5.045
N515 Y442.772 Z-5.897
N520 Y452.799 Z-6.674
N525 Y461.898 Z-7.562
N530 Y470.968 Z-8.681
N535 Y479.145 Z-10.
N540 Y605.
N545 G3 Y605.419 Z-9.903 J0. K0.953
N550 G2 Y605.838 Z-9.806 J0.419 K-0.855
N555 G1 Y605.839
N560 G17 G3 X79.487 Y608.696 I-2.857 J0.
N565 G1 X75.681
N570 G3 X72.823 Y605.839 I0. J-2.858
N575 G19 G3 Y605.42 Z-9.903 J0. K-0.952
N580 G2 Y605. Z-10. J-0.419 K0.855
N585 G1 Y490.7 Z-9.958
N590 Y482.22 Z-8.971
N595 Y471.489 Z-7.883
N600 Y458.653 Z-6.766
N605 Y446.343 Z-5.854
N610 Y433.937 Z-5.068
N615 Y419.387 Z-4.298
N620 Y401.845 Z-3.568
N625 Y380.431 Z-2.932
N630 Y355.239 Z-2.503
N635 Y329.113 Z-2.375
N640 Y305.786 Z-2.541
N645 Y253.535 Z-3.486
N650 Y196.619 Z-4.837
N655 Y150.936 Z-6.19
N660 Y118.499 Z-7.338
N665 Y89.923 Z-8.517
N670 Y65.908 Z-9.68
N675 Y59.296 Z-10.
N680 Y-5.
N685 G2 Y-5.419 Z-9.903 J0. K0.953
N690 G3 Y-5.838 Z-9.806 J-0.419 K-0.855
N695 G17 G2 X69.966 Y-8.696 I-2.858 J0.
N700 G1 X66.159
N705 G2 X63.302 Y-5.838 I0. J2.858
N710 G19 G2 Y-5.419 Z-9.903 J0. K-0.952
N715 G3 Y-5. Z-10. J0.419 K0.855
N720 G1 Y59.663
N725 Y67.935 Z-9.574
N730 Y91.994 Z-8.425
N735 Y120.629 Z-7.257
N740 Y151.87 Z-6.163
N745 Y198.487 Z-4.792
N750 Y255.404 Z-3.454
N755 Y306.722 Z-2.539
N760 Y330.981 Z-2.375
N765 Y357.753 Z-2.503
N770 Y382.946 Z-2.937
N775 Y401.585 Z-3.476
N780 Y421.839 Z-4.306
N785 Y436.213 Z-5.062
N790 Y448.809 Z-5.858
N795 Y461.016 Z-6.76
N800 Y473.584 Z-7.84
N805 Y484.316 Z-8.9
N810 Y493.966 Z-9.978
N815 Y605. Z-10.
N820 G3 Y605.419 Z-9.903 J0. K0.953
N825 G2 Y605.839 Z-9.806 J0.419 K-0.855
N830 G17 G3 X60.444 Y608.696 I-2.858 J0.
N835 G1 X56.638
N840 G3 X53.78 Y605.839 I0. J-2.857
N845 G19 G3 Y605.419 Z-9.903 J0. K-0.952
N850 G2 Y605. Z-10. J-0.419 K0.855
N855 G1 Y495.832 Z-9.975
N860 Y485.274 Z-8.806
N865 Y473.442 Z-7.658
N870 Y460.873 Z-6.604
N875 Y448.105 Z-5.686
N880 Y434.045 Z-4.834
N885 Y418.792 Z-4.074
N890 Y400.083 Z-3.359
N895 Y380.492 Z-2.831
N900 Y355.299 Z-2.452
N905 Y329.115 Z-2.37
N910 Y302.989 Z-2.591
N915 Y248.872 Z-3.591
N920 Y192.888 Z-4.943
N925 Y150.936 Z-6.193
N930 Y118.87 Z-7.324
N935 Y90.294 Z-8.5
N940 Y67.934 Z-9.574
N945 Y59.663 Z-10.
N950 Y-5.
N955 G2 Y-5.419 Z-9.903 J0. K0.953
N960 G3 Y-5.838 Z-9.806 J-0.419 K-0.855
N965 G17 G2 X50.923 Y-8.696 I-2.858 J0.
N970 G1 X47.116
N975 G2 X44.259 Y-5.838 I0. J2.858
N980 G19 G2 Y-5.419 Z-9.903 J0. K-0.952
N985 G3 Y-5. Z-10. J0.419 K0.855
N990 G1 Y59.663
N995 Y66.275 Z-9.661
N1000 Y88.599 Z-8.576
N1005 Y117.004 Z-7.395
N1010 Y148.174 Z-6.284
N1015 Y184.491 Z-5.175
N1020 Y239.541 Z-3.794
N1025 Y298.324 Z-2.656
N1030 Y327.249 Z-2.37
N1035 Y354.479 Z-2.427
N1040 Y379.672 Z-2.783
N1045 Y403.873 Z-3.442
N1050 Y421.49 Z-4.141
N1055 Y436.102 Z-4.879
N1060 Y450.348 Z-5.754
N1065 Y462.473 Z-6.634
N1070 Y475.497 Z-7.733
N1075 Y486.417 Z-8.795
N1080 Y497.232 Z-9.991
N1085 Y605. Z-10.
N1090 G3 Y605.419 Z-9.903 J0. K0.953
N1095 G2 Y605.838 Z-9.806 J0.419 K-0.855
N1100 G1 Y605.839
N1105 G17 G3 X41.401 Y608.696 I-2.857 J0.
N1110 G1 X37.595
N1115 G3 X34.737 Y605.839 I0. J-2.857
N1120 G19 G3 Y605.42 Z-9.903 J0. K-0.952
N1125 G2 Y605. Z-10. J-0.419 K0.855
N1130 G1 Y497.698 Z-9.957
N1135 Y486.044 Z-8.68
N1140 Y475.122 Z-7.632
N1145 Y462.738 Z-6.596
N1150 Y450.343 Z-5.702
N1155 Y435.906 Z-4.824
N1160 Y421.094 Z-4.087
N1165 Y404.725 Z-3.442
N1170 Y380.517 Z-2.779
N1175 Y355.325 Z-2.423
N1180 Y329.115 Z-2.362
N1185 Y301.123 Z-2.617
N1190 Y245.139 Z-3.671
N1195 Y189.156 Z-5.045
N1200 Y150.003 Z-6.224
N1205 Y117.937 Z-7.359
N1210 Y90.294 Z-8.5
N1215 Y67.934 Z-9.574
N1220 Y59.663 Z-10.
N1225 Y-5.
N1230 G2 Y-5.419 Z-9.903 J0. K0.953
N1235 G3 Y-5.838 Z-9.806 J-0.419 K-0.855
N1240 G17 G2 X31.88 Y-8.696 I-2.857 J0.
N1245 G1 X28.073
N1250 G2 X25.216 Y-5.838 I0. J2.858
N1255 G19 G2 Y-5.419 Z-9.903 J0. K-0.952
N1260 G3 Y-5. Z-10. J0.419 K0.855
N1265 G1 Y59.662
N1270 Y79.809 Z-8.984
N1275 Y106.312 Z-7.818
N1280 Y137.085 Z-6.66
N1285 Y170.495 Z-5.582
N1290 Y224.612 Z-4.136
N1295 Y283.395 Z-2.913
N1300 Y316.752 Z-2.432
N1305 Y341.871 Z-2.348
N1310 Y368.93 Z-2.567
N1315 Y393.189 Z-3.069
N1320 Y408.901 Z-3.571
N1325 Y425.376 Z-4.26
N1330 Y439.57 Z-5.005
N1335 Y452.166 Z-5.795
N1340 Y464.932 Z-6.734
N1345 Y477.314 Z-7.792
N1350 Y487.863 Z-8.823
N1355 Y498.165 Z-9.96
N1360 Y605. Z-10.
N1365 G3 Y605.42 Z-9.903 J0. K0.953
N1370 G2 Y605.839 Z-9.806 J0.419 K-0.855
N1375 G17 G3 X22.358 Y608.696 I-2.857 J0.
N1380 G1 X18.552
N1385 G3 X15.694 Y605.839 I0. J-2.858
N1390 G1 Y605.838
N1395 G19 G3 Y605.419 Z-9.903 J0. K-0.952
N1400 G2 Y605. Z-10. J-0.419 K0.855
N1405 G1 Y498.631 Z-9.987
N1410 Y488.283 Z-8.842
N1415 Y477.364 Z-7.775
N1420 Y464.61 Z-6.689
N1425 Y450.763 Z-5.683
N1430 Y436.513 Z-4.817
N1435 Y422.253 Z-4.104
N1440 Y403.865 Z-3.384
N1445 Y381.517 Z-2.78
N1450 Y356.324 Z-2.419
N1455 Y330.048 Z-2.356
N1460 Y302.056 Z-2.604
N1465 Y246.072 Z-3.651
N1470 Y190.089 Z-5.02
N1475 Y150.003 Z-6.224
N1480 Y117.937 Z-7.359
N1485 Y90.294 Z-8.5
N1490 Y67.934 Z-9.574
N1495 Y59.662 Z-10.
N1500 Y-5.
N1505 G2 Y-5.419 Z-9.903 J0. K0.953
N1510 G3 Y-5.838 Z-9.806 J-0.419 K-0.855
N1515 G17 G2 X12.837 Y-8.696 I-2.858 J0.
N1520 G1 X9.03
N1525 G2 X6.173 Y-5.838 I0. J2.858
N1530 G19 G2 Y-5.419 Z-9.903 J0. K-0.952
N1535 G3 Y-5. Z-10. J0.419 K0.855
N1540 G1 Y59.662
N1545 Y67.934 Z-9.574
N1550 Y90.294 Z-8.5
N1555 Y117.937 Z-7.359
N1560 Y150.003 Z-6.224
N1565 Y190.089 Z-5.02
N1570 Y246.072 Z-3.651
N1575 Y302.056 Z-2.604
N1580 Y330.048 Z-2.356
N1585 Y351.436 Z-2.38
N1590 Y377.562 Z-2.701
N1595 Y401.821 Z-3.311
N1600 Y419.449 Z-3.973
N1605 Y435.241 Z-4.74
N1610 Y449.495 Z-5.592
N1615 Y463.715 Z-6.609
N1620 Y476.285 Z-7.666
N1625 Y488.468 Z-8.851
N1630 Y498.631 Z-9.975
N1635 Y605. Z-10.
N1640 G3 Y605.419 Z-9.903 J0. K0.953
N1645 G2 Y605.839 Z-9.806 J0.419 K-0.855
N1650 G17 G3 X3.315 Y608.696 I-2.858 J0.
N1655 G1 X-0.491
N1660 G3 X-3.349 Y605.839 I0. J-2.858
N1665 G19 G3 Y605.419 Z-9.903 J0. K-0.952
N1670 G2 Y605. Z-10. J-0.419 K0.855
N1675 G1 Y498.631 Z-9.973
N1680 Y487.912 Z-8.792
N1685 Y476.991 Z-7.73
N1690 Y466.059 Z-6.794
N1695 Y453.293 Z-5.846
N1700 Y440.513 Z-5.035
N1705 Y425.754 Z-4.258
N1710 Y403.363 Z-3.363
N1715 Y379.104 Z-2.73
N1720 Y353.911 Z-2.398
N1725 Y327.249 Z-2.365
N1730 Y297.391 Z-2.671
N1735 Y237.675 Z-3.836
N1740 Y182.624 Z-5.228
N1745 Y147.241 Z-6.315
N1750 Y115.253 Z-7.463
N1755 Y86.733 Z-8.661
N1760 Y66.275 Z-9.661
N1765 Y59.662 Z-10.
N1770 Y-5.
N1775 G2 Y-5.419 Z-9.903 J0. K0.953
N1780 G3 Y-5.838 Z-9.806 J-0.419 K-0.855
N1785 G17 G2 X-6.206 Y-8.696 I-2.858 J0.
N1790 G1 X-10.013
N1795 G2 X-12.87 Y-5.838 I0. J2.858
N1800 G19 G2 Y-5.419 Z-9.903 J0. K-0.952
N1805 G3 Y-5. Z-10. J0.419 K0.855
N1810 G1 Y59.662
N1815 Y66.275 Z-9.661
N1820 Y88.599 Z-8.576
N1825 Y117.004 Z-7.395
N1830 Y148.174 Z-6.284
N1835 Y184.491 Z-5.175
N1840 Y239.541 Z-3.794
N1845 Y298.324 Z-2.656
N1850 Y328.182 Z-2.362
N1855 Y353.913 Z-2.4
N1860 Y379.106 Z-2.732
N1865 Y403.365 Z-3.366
N1870 Y425.755 Z-4.263
N1875 Y440.514 Z-5.04
N1880 Y453.294 Z-5.852
N1885 Y466.059 Z-6.8
N1890 Y476.991 Z-7.736
N1895 Y487.912 Z-8.799
N1900 Y498.631 Z-9.982
N1905 Y605. Z-10.
N1910 G3 Y605.419 Z-9.903 J0. K0.953
N1915 G2 Y605.839 Z-9.806 J0.419 K-0.855
N1920 G17 G3 X-15.728 Y608.696 I-2.858 J0.
N1925 G1 X-19.534
N1930 G3 X-22.392 Y605.839 I0. J-2.857
N1935 G19 G3 Y605.419 Z-9.903 J0. K-0.952
N1940 G2 Y605. Z-10. J-0.419 K0.855
N1945 G1 Y498.398 Z-9.977
N1950 Y487.862 Z-8.814
N1955 Y476.942 Z-7.75
N1960 Y466.01 Z-6.812
N1965 Y453.245 Z-5.862
N1970 Y440.465 Z-5.05
N1975 Y425.71 Z-4.271
N1980 Y403.321 Z-3.373
N1985 Y379.061 Z-2.737
N1990 Y353.869 Z-2.403
N1995 Y327.249 Z-2.366
N2000 Y297.391 Z-2.671
N2005 Y237.675 Z-3.836
N2010 Y182.624 Z-5.228
N2015 Y147.241 Z-6.315
N2020 Y115.253 Z-7.463
N2025 Y86.733 Z-8.661
N2030 Y66.275 Z-9.661
N2035 Y59.662 Z-10.
N2040 Y-5.
N2045 G2 Y-5.419 Z-9.903 J0. K0.953
N2050 G3 Y-5.838 Z-9.806 J-0.419 K-0.855
N2055 G17 G2 X-25.249 Y-8.696 I-2.858 J0.
N2060 G1 X-29.056
N2065 G2 X-31.913 Y-5.838 I0. J2.858
N2070 G19 G2 Y-5.419 Z-9.903 J0. K-0.952
N2075 G3 Y-5. Z-10. J0.419 K0.855
N2080 G1 Y59.663
N2085 Y66.275 Z-9.661
N2090 Y86.733 Z-8.661
N2095 Y115.253 Z-7.463
N2100 Y147.241 Z-6.315
N2105 Y182.624 Z-5.228
N2110 Y237.675 Z-3.836
N2115 Y297.391 Z-2.671
N2120 Y327.249 Z-2.367
N2125 Y353.878 Z-2.409
N2130 Y379.071 Z-2.747
N2135 Y403.331 Z-3.388
N2140 Y425.719 Z-4.292
N2145 Y439.097 Z-4.995
N2150 Y453.246 Z-5.889
N2155 Y466.012 Z-6.843
N2160 Y476.943 Z-7.784
N2165 Y487.863 Z-8.853
N2170 Y498.165 Z-9.993
N2175 Y605. Z-10.
N2180 G3 Y605.419 Z-9.903 J0. K0.953
N2185 G2 Y605.838 Z-9.806 J0.419 K-0.855
N2190 G1 Y605.839
N2195 G17 G3 X-34.771 Y608.696 I-2.858 J0.
N2200 G1 X-38.577
N2205 G3 X-41.435 Y605.839 I0. J-2.858
N2210 G19 G3 Y605.42 Z-9.903 J0. K-0.952
N2215 G2 Y605. Z-10. J-0.419 K0.855
N2220 G1 Y497.232 Z-9.96
N2225 Y486.045 Z-8.729
N2230 Y475.123 Z-7.676
N2235 Y462.368 Z-6.605
N2240 Y449.6 Z-5.686
N2245 Y434.98 Z-4.801
N2250 Y419.21 Z-4.025
N2255 Y396.817 Z-3.206
N2260 Y372.557 Z-2.644
N2265 Y347.364 Z-2.378
N2270 Y324.45 Z-2.382
N2275 Y295.525 Z-2.703
N2280 Y236.742 Z-3.857
N2285 Y181.691 Z-5.255
N2290 Y146.308 Z-6.346
N2295 Y114.32 Z-7.499
N2300 Y86.733 Z-8.661
N2305 Y66.275 Z-9.661
N2310 Y59.663 Z-10.
N2315 Y-5.
N2320 G2 Y-5.419 Z-9.903 J0. K0.953
N2325 G3 Y-5.838 Z-9.806 J-0.419 K-0.855
N2330 G17 G2 X-44.292 Y-8.696 I-2.858 J0.
N2335 G1 X-48.099
N2340 G2 X-50.956 Y-5.838 I0. J2.858
N2345 G19 G2 Y-5.419 Z-9.903 J0. K-0.952
N2350 G3 Y-5. Z-10. J0.419 K0.855
N2355 G1 Y59.663
N2360 Y66.276 Z-9.661
N2365 Y86.733 Z-8.661
N2370 Y115.253 Z-7.463
N2375 Y147.241 Z-6.315
N2380 Y182.625 Z-5.228
N2385 Y237.675 Z-3.836
N2390 Y296.458 Z-2.687
N2395 Y324.45 Z-2.385
N2400 Y347.341 Z-2.39
N2405 Y372.533 Z-2.667
N2410 Y396.793 Z-3.242
N2415 Y419.186 Z-4.072
N2420 Y434.94 Z-4.858
N2425 Y449.555 Z-5.754
N2430 Y462.322 Z-6.684
N2435 Y475.077 Z-7.767
N2440 Y485.997 Z-8.835
N2445 Y496.299 Z-9.978
N2450 Y605. Z-10.
N2455 G3 Y605.419 Z-9.903 J0. K0.953
N2460 G2 Y605.839 Z-9.806 J0.419 K-0.855
N2465 G17 G3 X-53.814 Y608.696 I-2.857 J0.
N2470 G1 X-57.62
N2475 G3 X-60.478 Y605.839 I0. J-2.857
N2480 G19 G3 Y605.419 Z-9.903 J0. K-0.952
N2485 G2 Y605. Z-10. J-0.419 K0.855
N2490 G1 Y494.432 Z-9.96
N2495 Y484.13 Z-8.817
N2500 Y473.21 Z-7.75
N2505 Y462.278 Z-6.812
N2510 Y449.513 Z-5.863
N2515 Y434.901 Z-4.95
N2520 Y419.173 Z-4.149
N2525 Y396.78 Z-3.297
N2530 Y372.52 Z-2.704
N2535 Y347.327 Z-2.408
N2540 Y324.45 Z-2.388
N2545 Y296.458 Z-2.687
N2550 Y237.675 Z-3.836
N2555 Y182.625 Z-5.228
N2560 Y147.241 Z-6.315
N2565 Y115.253 Z-7.463
N2570 Y86.733 Z-8.661
N2575 Y66.276 Z-9.661
N2580 Y59.663 Z-10.
N2585 Y-5.
N2590 G2 Y-5.419 Z-9.903 J0. K0.953
N2595 G3 Y-5.838 Z-9.806 J-0.419 K-0.855
N2600 G17 G2 X-63.335 Y-8.696 I-2.857 J0.
N2605 G1 X-67.142
N2610 G2 X-69.999 Y-5.838 I0. J2.858
N2615 G19 G2 Y-5.419 Z-9.903 J0. K-0.952
N2620 G3 Y-5. Z-10. J0.419 K0.855
N2625 G1 Y59.671
N2630 Y66.284 Z-9.66
N2635 Y88.608 Z-8.576
N2640 Y117.013 Z-7.395
N2645 Y148.177 Z-6.283
N2650 Y184.491 Z-5.174
N2655 Y239.542 Z-3.792
N2660 Y298.324 Z-2.653
N2665 Y325.383 Z-2.385
N2670 Y348.37 Z-2.438
N2675 Y373.562 Z-2.77
N2680 Y397.822 Z-3.407
N2685 Y418.253 Z-4.211
N2690 Y433.039 Z-4.972
N2695 Y445.827 Z-5.764
N2700 Y458.594 Z-6.696
N2705 Y471.348 Z-7.787
N2710 Y482.267 Z-8.87
N2715 Y492.1 Z-9.984
N2720 Y605. Z-10.
N2725 G3 Y605.419 Z-9.903 J0. K0.953
N2730 G2 Y605.839 Z-9.806 J0.419 K-0.855
N2735 G17 G3 X-72.857 Y608.696 I-2.857 J0.
N2740 G1 X-76.663
N2745 G3 X-79.521 Y605.839 I0. J-2.857
N2750 G19 G3 Y605.419 Z-9.903 J0. K-0.952
N2755 G2 Y605. Z-10. J-0.419 K0.855
N2760 G1 Y484.271 Z-9.969
N2765 Y476.318 Z-8.819
N2770 Y467.803 Z-7.844
N2775 Y457.219 Z-6.882
N2780 Y446.281 Z-6.025
N2785 Y433.506 Z-5.181
N2790 Y420.647 Z-4.468
N2795 Y398.151 Z-3.507
N2800 Y374.008 Z-2.822
N2805 Y348.815 Z-2.442
N2810 Y322.69 Z-2.361
N2815 Y296.564 Z-2.646
N2820 Y236.848 Z-3.831
N2825 Y181.798 Z-5.238
N2830 Y148.296 Z-6.274
N2835 Y117.224 Z-7.387
N2840 Y88.819 Z-8.566
N2845 Y66.496 Z-9.649
N2850 Y59.909 Z-10.
N2855 Y-5.
N2860 G2 Y-5.419 Z-9.903 J0. K0.953
N2865 G3 Y-5.838 Z-9.806 J-0.419 K-0.855
N2870 G1 Y-5.839
N2875 G17 G2 X-82.378 Y-8.696 I-2.857 J0.
N2880 G1 X-86.185
N2885 G2 X-89.042 Y-5.839 I0. J2.857
N2890 G19 G2 Y-5.419 Z-9.903 J0. K-0.952
N2895 G3 Y-5. Z-10. J0.419 K0.855
N2900 G1 Y86.442 Z-9.98
N2905 Y98.553 Z-8.795
N2910 Y113.095 Z-7.763
N2915 Y130.751 Z-6.896
N2920 Y156.277 Z-6.012
N2925 Y200.1 Z-4.721
N2930 Y257.017 Z-3.369
N2935 Y307.402 Z-2.456
N2940 Y326.175 Z-2.333
N2945 Y353.078 Z-2.537
N2950 Y377.338 Z-3.038
N2955 Y397.865 Z-3.736
N2960 Y410.352 Z-4.364
N2965 Y424.5 Z-5.307
N2970 Y435.936 Z-6.358
N2975 Y446.859 Z-7.634
N2980 Y455.017 Z-8.7
N2985 Y463.138 Z-10.
N2990 Y605.
N2995 G3 Y605.419 Z-9.903 J0. K0.953
N3000 G2 Y605.838 Z-9.806 J0.419 K-0.855
N3005 G1 Y605.839
N3010 G17 G3 X-91.9 Y608.696 I-2.858 J0.
N3015 G1 X-95.706
N3020 G3 X-98.564 Y605.839 I0. J-2.858
N3025 G19 G3 Y605.419 Z-9.903 J0. K-0.952
N3030 G2 Y605. Z-10. J-0.419 K0.855
N3035 G1 Y425.689 Z-9.967
N3040 Y415.034 Z-8.628
N3045 Y405.939 Z-7.7
N3050 Y393.562 Z-6.59
N3055 Y381.255 Z-5.645
N3060 Y365.207 Z-4.728
N3065 Y345.613 Z-3.966
N3070 Y324.192 Z-3.433
N3075 Y311.129 Z-3.328
N3080 Y287.802 Z-3.494
N3085 Y254.212 Z-4.078
N3090 Y222.519 Z-4.934
N3095 Y197.581 Z-5.873
N3100 Y175.496 Z-6.974
N3105 Y158.283 Z-8.133
N3110 Y143.765 Z-9.419
N3115 Y138.184 Z-10.
N3120 Y-5.
N3125 G2 Y-5.419 Z-9.903 J0. K0.953
N3130 G3 Y-5.838 Z-9.806 J-0.419 K-0.855
N3135 G17 G2 X-101.421 Y-8.696 I-2.857 J0.
N3140 G1 X-105.228
N3145 G2 X-108.085 Y-5.838 I0. J2.858
N3150 G19 G2 Y-5.419 Z-9.903 J0. K-0.952
N3155 G3 Y-5. Z-10. J0.419 K0.855
N3160 G1 Y268.897
N3165 Y279.835 Z-9.87
N3170 Y299.896 Z-9.776
N3175 Y316.688 Z-9.98
N3180 Y605. Z-10.
N3185 G3 Y605.419 Z-9.903 J0. K0.953
N3190 G2 Y605.838 Z-9.806 J0.419 K-0.855
N3195 G17 G3 X-110.943 Y608.696 I-2.857 J0.
N3200 G1 X-114.749
N3205 G3 X-117.607 Y605.838 I0. J-2.857
N3210 G19 G3 Y605.419 Z-9.903 J0. K-0.952
N3215 G2 Y605. Z-10. J-0.419 K0.855
N3220 G1 Y-5.
N3225 G2 Y-5.419 Z-9.903 J0. K0.953
N3230 G3 Y-5.838 Z-9.806 J-0.419 K-0.855
N3235 G17 G2 X-120.464 Y-8.696 I-2.858 J0.
N3240 G1 X-124.271
N3245 G2 X-127.128 Y-5.838 I0. J2.858
N3250 G1 Y-5.343
N3255 G19 G2 Y-4.924 Z-9.903 J0. K-0.952
N3260 G3 Y-4.504 Z-10. J0.419 K0.855
N3265 G1 Y604.505
N3270 G3 Y606.409 Z-8.095 J0. K1.905 F1000.
N3275 G0 Z15.
N3280 G17
(PARALLEL3 2)
N3285 G0 X128.955 Y602.362
N3290 Z15.
N3295 Z-13.095
N3300 G19 G2 Y600.457 Z-15. J-1.905 K0. F1000.
N3305 G1 Y-0.457 F3000.
N3310 G2 Y-0.876 Z-14.903 J0. K0.953
N3315 G3 Y-1.295 Z-14.806 J-0.419 K-0.855
N3320 G1 Y-4.838
N3325 G17 G2 X126.098 Y-7.696 I-2.857 J0.
N3330 G1 X122.816
N3335 G2 X119.958 Y-4.838 I0. J2.858
N3340 G19 G2 Y-4.419 Z-14.903 J0. K-0.952
N3345 G3 Y-4. Z-15. J0.419 K0.855
N3350 G1 Y604.
N3355 G3 Y604.419 Z-14.903 J0. K0.953
N3360 G2 Y604.838 Z-14.806 J0.419 K-0.855
N3365 G17 G3 X117.101 Y607.696 I-2.857 J0.
N3370 G1 X113.819
N3375 G3 X110.961 Y604.838 I0. J-2.857
N3380 G19 G3 Y604.419 Z-14.903 J0. K-0.952
N3385 G2 Y604. Z-15. J-0.419 K0.855
N3390 G1 Y-4.
N3395 G2 Y-4.419 Z-14.903 J0. K0.953
N3400 G3 Y-4.838 Z-14.806 J-0.419 K-0.855
N3405 G17 G2 X108.104 Y-7.696 I-2.857 J0.
N3410 G1 X104.822
N3415 G2 X101.964 Y-4.838 I0. J2.858
N3420 G19 G2 Y-4.419 Z-14.903 J0. K-0.952
N3425 G3 Y-4. Z-15. J0.419 K0.855
N3430 G1 Y140.174
N3435 Y141.732 Z-14.738
N3440 Y149.628 Z-13.446
N3445 Y158.965 Z-12.218
N3450 Y170.977 Z-10.896
N3455 Y185.19 Z-9.702
N3460 Y202.028 Z-8.643
N3465 Y217.298 Z-7.881
N3470 Y237.992 Z-7.082
N3475 Y264.101 Z-6.407
N3480 Y291.111 Z-6.042
N3485 Y311.819 Z-6.035
N3490 Y324.424 Z-6.241
N3495 Y345.131 Z-6.922
N3500 Y363.956 Z-7.829
N3505 Y378.929 Z-8.846
N3510 Y392.108 Z-10.054
N3515 Y402.63 Z-11.207
N3520 Y410.511 Z-12.176
N3525 Y419.235 Z-13.459
N3530 Y427.231 Z-14.955
N3535 Y604. Z-15.
N3540 G3 Y604.419 Z-14.903 J0. K0.953
N3545 G2 Y604.839 Z-14.806 J0.419 K-0.855
N3550 G17 G3 X99.107 Y607.696 I-2.857 J0.
N3555 G1 X95.825
N3560 G3 X92.968 Y604.839 I0. J-2.857
N3565 G1 Y604.838
N3570 G19 G3 Y604.419 Z-14.903 J0. K-0.952
N3575 G2 Y604. Z-15. J-0.419 K0.855
N3580 G1 Y469.155
N3585 Y461.337 Z-13.19
N3590 Y454.418 Z-11.843
N3595 Y446.58 Z-10.589
N3600 Y435.884 Z-9.056
N3605 Y425.154 Z-7.782
N3610 Y415.054 Z-6.836
N3615 Y402.743 Z-5.834
N3620 Y388.189 Z-4.903
N3625 Y370.655 Z-4.15
N3630 Y350.847 Z-3.645
N3635 Y326.116 Z-3.379
N3640 Y308.532 Z-3.471
N3645 Y262.615 Z-4.268
N3650 Y204.993 Z-5.605
N3655 Y170.894 Z-6.626
N3660 Y149.135 Z-7.553
N3665 Y131.622 Z-8.596
N3670 Y117.406 Z-9.741
N3675 Y105.586 Z-10.997
N3680 Y95.33 Z-12.411
N3685 Y87.081 Z-13.846
N3690 Y81.744 Z-15.
N3695 Y-4.
N3700 G2 Y-4.419 Z-14.903 J0. K0.953
N3705 G3 Y-4.838 Z-14.806 J-0.419 K-0.855
N3710 G17 G2 X90.11 Y-7.696 I-2.857 J0.
N3715 G1 X86.828
N3720 G2 X83.971 Y-4.838 I0. J2.858
N3725 G19 G2 Y-4.419 Z-14.903 J0. K-0.952
N3730 G3 Y-4. Z-15. J0.419 K0.855
N3735 G1 Y44.223
N3740 Y49.883 Z-13.784
N3745 Y56.916 Z-12.579
N3750 Y65.559 Z-11.438
N3755 Y75.813 Z-10.442
N3760 Y88.105 Z-9.62
N3765 Y105.477 Z-8.853
N3770 Y137.1 Z-7.656
N3775 Y169.405 Z-6.599
N3780 Y223.425 Z-5.133
N3785 Y282.847 Z-3.871
N3790 Y316.16 Z-3.37
N3795 Y341.41 Z-3.387
N3800 Y367.519 Z-3.722
N3805 Y390.007 Z-4.299
N3810 Y406.91 Z-4.927
N3815 Y422.005 Z-5.663
N3820 Y435.951 Z-6.506
N3825 Y448.264 Z-7.469
N3830 Y457.918 Z-8.438
N3835 Y466.659 Z-9.606
N3840 Y476.237 Z-11.149
N3845 Y481.439 Z-12.107
N3850 Y486.605 Z-13.242
N3855 Y493.879 Z-14.997
N3860 Y604. Z-15.
N3865 G3 Y604.419 Z-14.903 J0. K0.953
N3870 G2 Y604.838 Z-14.806 J0.419 K-0.855
N3875 G17 G3 X81.113 Y607.696 I-2.858 J0.
N3880 G1 X77.831
N3885 G3 X74.974 Y604.838 I0. J-2.857
N3890 G19 G3 Y604.419 Z-14.903 J0. K-0.952
N3895 G2 Y604. Z-15. J-0.419 K0.855
N3900 G1 Y510.209
N3905 Y502.931 Z-13.267
N3910 Y496.552 Z-12.023
N3915 Y489.467 Z-10.965
N3920 Y482.024 Z-10.068
N3925 Y473.43 Z-9.157
N3930 Y461.089 Z-8.031
N3935 Y449.174 Z-7.104
N3940 Y435.264 Z-6.185
N3945 Y419.601 Z-5.34
N3950 Y400.971 Z-4.557
N3955 Y384.801 Z-4.056
N3960 Y359.591 Z-3.556
N3965 Y332.581 Z-3.368
N3970 Y309.456 Z-3.487
N3975 Y263.539 Z-4.276
N3980 Y205.918 Z-5.59
N3985 Y154.599 Z-7.07
N3990 Y122.666 Z-8.181
N3995 Y94.765 Z-9.304
N4000 Y69.596 Z-10.49
N4005 Y48.842 Z-11.648
N4010 Y38.559 Z-12.349
N4015 Y30.679 Z-13.196
N4020 Y23.433 Z-14.332
N4025 Y20.904 Z-14.888
N4030 Y20.516 Z-15.
N4035 Y-4.
N4040 G2 Y-4.419 Z-14.903 J0. K0.953
N4045 G3 Y-4.838 Z-14.806 J-0.419 K-0.855
N4050 G17 G2 X72.116 Y-7.696 I-2.857 J0.
N4055 G1 X68.834
N4060 G2 X65.977 Y-4.838 I0. J2.858
N4065 G19 G2 Y-4.419 Z-14.903 J0. K-0.952
N4070 G3 Y-4. Z-15. J0.419 K0.855
N4075 G1 Y15.006
N4080 Y16.791 Z-14.4
N4085 Y19.423 Z-13.836
N4090 Y26.726 Z-13.185
N4095 Y39.765 Z-12.23
N4100 Y58.402 Z-11.089
N4105 Y80.421 Z-9.956
N4110 Y106.88 Z-8.796
N4115 Y136.789 Z-7.671
N4120 Y168.152 Z-6.653
N4125 Y221.272 Z-5.217
N4130 Y279.793 Z-3.978
N4135 Y314.006 Z-3.46
N4140 Y338.803 Z-3.386
N4145 Y364.012 Z-3.594
N4150 Y389.221 Z-4.116
N4155 Y405.351 Z-4.637
N4160 Y426.755 Z-5.581
N4165 Y440.753 Z-6.373
N4170 Y454.838 Z-7.333
N4175 Y466.971 Z-8.306
N4180 Y478.911 Z-9.415
N4185 Y489.26 Z-10.517
N4190 Y499.59 Z-11.77
N4195 Y508.328 Z-12.977
N4200 Y515.121 Z-14.045
N4205 Y520.323 Z-14.998
N4210 Y604. Z-15.
N4215 G3 Y604.419 Z-14.903 J0. K0.953
N4220 G2 Y604.838 Z-14.806 J0.419 K-0.855
N4225 G1 Y604.839
N4230 G17 G3 X63.119 Y607.696 I-2.858 J0.
N4235 G1 X59.838
N4240 G3 X56.98 Y604.839 I0. J-2.857
N4245 G19 G3 Y604.419 Z-14.903 J0. K-0.952
N4250 G2 Y604. Z-15. J-0.419 K0.855
N4255 G1 Y523.42 Z-14.987
N4260 Y516.36 Z-13.838
N4265 Y507.632 Z-12.562
N4270 Y497.313 Z-11.229
N4275 Y486.973 Z-10.05
N4280 Y474.862 Z-8.842
N4285 Y462.556 Z-7.782
N4290 Y448.727 Z-6.766
N4295 Y434.901 Z-5.912
N4300 Y419.853 Z-5.149
N4305 Y400.097 Z-4.379
N4310 Y375.788 Z-3.75
N4315 Y349.679 Z-3.414
N4320 Y325.71 Z-3.38
N4325 Y296.899 Z-3.68
N4330 Y237.477 Z-4.84
N4335 Y182.557 Z-6.231
N4340 Y145.66 Z-7.368
N4345 Y113.751 Z-8.522
N4350 Y86.274 Z-9.683
N4355 Y63.078 Z-10.832
N4360 Y43.997 Z-11.952
N4365 Y29.77 Z-12.947
N4370 Y18.715 Z-13.876
N4375 Y13.984 Z-14.366
N4380 Y11.589 Z-14.93
N4385 Y11.229 Z-15.
N4390 Y-4.
N4395 G2 Y-4.419 Z-14.903 J0. K0.953
N4400 G3 Y-4.838 Z-14.806 J-0.419 K-0.855
N4405 G17 G2 X54.123 Y-7.696 I-2.858 J0.
N4410 G1 X50.841
N4415 G2 X47.983 Y-4.838 I0. J2.858
N4420 G19 G2 Y-4.419 Z-14.903 J0. K-0.952
N4425 G3 Y-4. Z-15. J0.419 K0.855
N4430 G1 Y10.239
N4435 Y12.407 Z-14.516
N4440 Y20.293 Z-13.732
N4445 Y31.35 Z-12.827
N4450 Y47.164 Z-11.752
N4455 Y66.284 Z-10.662
N4460 Y89.561 Z-9.534
N4465 Y118.157 Z-8.351
N4470 Y149.247 Z-7.249
N4475 Y196.062 Z-5.858
N4480 Y252.783 Z-4.509
N4485 Y305.002 Z-3.563
N4490 Y331.112 Z-3.362
N4495 Y357.328 Z-3.458
N4500 Y383.438 Z-3.877
N4505 Y406.847 Z-4.561
N4510 Y425.476 Z-5.348
N4515 Y439.378 Z-6.092
N4520 Y453.115 Z-6.975
N4525 Y465.073 Z-7.877
N4530 Y477.198 Z-8.933
N4535 Y487.554 Z-9.964
N4540 Y497.717 Z-11.106
N4545 Y507.683 Z-12.369
N4550 Y516.416 Z-13.614
N4555 Y524.996 Z-14.982
N4560 Y604. Z-15.
N4565 G3 Y604.419 Z-14.903 J0. K0.953
N4570 G2 Y604.839 Z-14.806 J0.419 K-0.855
N4575 G17 G3 X45.126 Y607.696 I-2.858 J0.
N4580 G1 X41.844
N4585 G3 X38.986 Y604.839 I0. J-2.857
N4590 G1 Y604.838
N4595 G19 G3 Y604.419 Z-14.903 J0. K-0.952
N4600 G2 Y604. Z-15. J-0.419 K0.855
N4605 G1 Y526.121 Z-14.995
N4610 Y517.977 Z-13.702
N4615 Y509.424 Z-12.48
N4620 Y499.101 Z-11.163
N4625 Y488.76 Z-9.999
N4630 Y478.226 Z-8.948
N4635 Y466.459 Z-7.919
N4640 Y454.143 Z-6.985
N4645 Y440.586 Z-6.11
N4650 Y425.809 Z-5.321
N4655 Y403.515 Z-4.413
N4660 Y379.206 Z-3.762
N4665 Y353.996 Z-3.416
N4670 Y326.61 Z-3.37
N4675 Y296.899 Z-3.68
N4680 Y237.477 Z-4.84
N4685 Y182.557 Z-6.231
N4690 Y145.66 Z-7.368
N4695 Y113.751 Z-8.522
N4700 Y86.274 Z-9.683
N4705 Y63.077 Z-10.832
N4710 Y43.997 Z-11.952
N4715 Y29.769 Z-12.947
N4720 Y18.715 Z-13.876
N4725 Y12.407 Z-14.508
N4730 Y10.179 Z-14.977
N4735 Y-4. Z-15.
N4740 G2 Y-4.421 Z-14.903 J-0.002 K0.952
N4745 G3 Y-4.84 Z-14.806 J-0.419 K-0.855
N4750 G17 G2 X36.129 Y-7.697 I-2.857 J0.
N4755 G1 X32.847
N4760 G2 X29.99 Y-4.84 I0. J2.858
N4765 G1 Y-4.838
N4770 G19 G2 Y-4.419 Z-14.903 J0. K-0.952
N4775 G3 Y-4. Z-15. J0.419 K0.855
N4780 G1 Y9.849
N4785 Y10.345 Z-14.895
N4790 Y12.407 Z-14.507
N4795 Y20.293 Z-13.732
N4800 Y31.349 Z-12.827
N4805 Y47.163 Z-11.752
N4810 Y66.284 Z-10.662
N4815 Y89.561 Z-9.534
N4820 Y117.257 Z-8.386
N4825 Y147.461 Z-7.309
N4830 Y194.261 Z-5.906
N4835 Y250.982 Z-4.547
N4840 Y304.102 Z-3.576
N4845 Y331.112 Z-3.355
N4850 Y357.327 Z-3.435
N4855 Y382.537 Z-3.816
N4860 Y405.945 Z-4.473
N4865 Y424.769 Z-5.241
N4870 Y439.589 Z-6.019
N4875 Y453.153 Z-6.879
N4880 Y465.291 Z-7.781
N4885 Y477.418 Z-8.824
N4890 Y489.172 Z-9.985
N4895 Y499.335 Z-11.127
N4900 Y509.48 Z-12.413
N4905 Y518.035 Z-13.625
N4910 Y526.571 Z-14.97
N4915 Y604. Z-15.
N4920 G3 Y604.42 Z-14.903 J0. K0.953
N4925 G2 Y604.839 Z-14.806 J0.419 K-0.855
N4930 G17 G3 X27.132 Y607.696 I-2.858 J0.
N4935 G1 X23.85
N4940 G3 X20.993 Y604.839 I0. J-2.858
N4945 G1 Y604.838
N4950 G19 G3 Y604.419 Z-14.903 J0. K-0.952
N4955 G2 Y604. Z-15. J-0.419 K0.855
N4960 G1 Y527.021 Z-14.992
N4965 Y518.212 Z-13.604
N4970 Y509.656 Z-12.394
N4975 Y499.332 Z-11.089
N4980 Y487.414 Z-9.769
N4985 Y475.298 Z-8.6
N4990 Y463.169 Z-7.586
N4995 Y449.627 Z-6.618
N5000 Y435.855 Z-5.789
N5005 Y420.078 Z-5.013
N5010 Y397.57 Z-4.191
N5015 Y373.261 Z-3.63
N5020 Y347.151 Z-3.364
N5025 Y319.407 Z-3.413
N5030 Y288.796 Z-3.817
N5035 Y229.374 Z-5.025
N5040 Y174.454 Z-6.465
N5045 Y141.185 Z-7.52
N5050 Y110.253 Z-8.66
N5055 Y82.836 Z-9.842
N5060 Y59.88 Z-11.007
N5065 Y40.834 Z-12.158
N5070 Y26.609 Z-13.195
N5075 Y15.56 Z-14.179
N5080 Y11.619 Z-14.61
N5085 Y9.758 Z-15.
N5090 Y-4.
N5095 G2 Y-4.419 Z-14.903 J0. K0.953
N5100 G3 Y-4.838 Z-14.806 J-0.419 K-0.855
N5105 G17 G2 X18.135 Y-7.696 I-2.858 J0.
N5110 G1 X14.853
N5115 G2 X11.996 Y-4.838 I0. J2.858
N5120 G19 G2 Y-4.419 Z-14.903 J0. K-0.952
N5125 G3 Y-4. Z-15. J0.419 K0.855
N5130 G1 Y9.75
N5135 Y11.619 Z-14.61
N5140 Y18.715 Z-13.876
N5145 Y29.769 Z-12.947
N5150 Y43.997 Z-11.952
N5155 Y63.077 Z-10.832
N5160 Y86.273 Z-9.683
N5165 Y113.751 Z-8.522
N5170 Y145.66 Z-7.368
N5175 Y181.656 Z-6.256
N5180 Y236.577 Z-4.861
N5185 Y295.098 Z-3.71
N5190 Y323.909 Z-3.383
N5195 Y351.463 Z-3.381
N5200 Y377.573 Z-3.703
N5205 Y401.882 Z-4.316
N5210 Y424.39 Z-5.198
N5215 Y439.58 Z-5.988
N5220 Y453.505 Z-6.867
N5225 Y465.464 Z-7.755
N5230 Y477.412 Z-8.778
N5235 Y489.167 Z-9.934
N5240 Y499.33 Z-11.07
N5245 Y509.834 Z-12.395
N5250 Y518.211 Z-13.58
N5255 Y527.021 Z-14.965
N5260 Y604. Z-15.
N5265 G3 Y604.42 Z-14.903 J0. K0.953
N5270 G2 Y604.839 Z-14.806 J0.419 K-0.855
N5275 G17 G3 X9.138 Y607.696 I-2.858 J0.
N5280 G1 X5.856
N5285 G3 X2.999 Y604.839 I0. J-2.857
N5290 G19 G3 Y604.42 Z-14.903 J0. K-0.952
N5295 G2 Y604. Z-15. J-0.419 K0.855
N5300 G1 Y527.021 Z-14.956
N5305 Y518.034 Z-13.545
N5310 Y509.656 Z-12.364
N5315 Y499.331 Z-11.063
N5320 Y487.412 Z-9.745
N5325 Y475.117 Z-8.563
N5330 Y462.987 Z-7.554
N5335 Y448.906 Z-6.555
N5340 Y434.943 Z-5.724
N5345 Y418.775 Z-4.944
N5350 Y396.266 Z-4.143
N5355 Y371.957 Z-3.604
N5360 Y346.748 Z-3.36
N5365 Y322.108 Z-3.395
N5370 Y293.298 Z-3.74
N5375 Y234.776 Z-4.902
N5380 Y179.856 Z-6.308
N5385 Y143.886 Z-7.428
N5390 Y113.751 Z-8.522
N5395 Y86.273 Z-9.683
N5400 Y63.077 Z-10.832
N5405 Y43.997 Z-11.952
N5410 Y29.769 Z-12.947
N5415 Y18.715 Z-13.876
N5420 Y11.619 Z-14.609
N5425 Y9.741 Z-15.
N5430 Y-4.
N5435 G2 Y-4.419 Z-14.903 J0. K0.953
N5440 G3 Y-4.838 Z-14.806 J-0.419 K-0.855
N5445 G17 G2 X0.141 Y-7.696 I-2.858 J0.
N5450 G1 X-3.14
N5455 G2 X-5.998 Y-4.838 I0. J2.858
N5460 G19 G2 Y-4.419 Z-14.903 J0. K-0.952
N5465 G3 Y-4. Z-15. J0.419 K0.855
N5470 G1 Y9.744
N5475 Y11.619 Z-14.609
N5480 Y18.715 Z-13.876
N5485 Y29.769 Z-12.947
N5490 Y43.997 Z-11.952
N5495 Y63.077 Z-10.832
N5500 Y86.273 Z-9.683
N5505 Y113.751 Z-8.522
N5510 Y145.66 Z-7.368
N5515 Y181.656 Z-6.256
N5520 Y236.577 Z-4.861
N5525 Y295.098 Z-3.71
N5530 Y323.909 Z-3.383
N5535 Y351.79 Z-3.382
N5540 Y377.899 Z-3.708
N5545 Y402.208 Z-4.325
N5550 Y424.717 Z-5.21
N5555 Y439.007 Z-5.952
N5560 Y453.113 Z-6.837
N5565 Y465.431 Z-7.748
N5570 Y477.737 Z-8.803
N5575 Y488.273 Z-9.836
N5580 Y498.796 Z-11.
N5585 Y509.299 Z-12.318
N5590 Y518.034 Z-13.546
N5595 Y527.021 Z-14.957
N5600 Y604. Z-15.
N5605 G3 Y604.42 Z-14.903 J0.001 K0.952
N5610 G2 Y604.839 Z-14.806 J0.419 K-0.855
N5615 G17 G3 X-8.855 Y607.696 I-2.858 J0.
N5620 G1 X-12.137
N5625 G3 X-14.995 Y604.839 I0. J-2.857
N5630 G19 G3 Y604.419 Z-14.903 J0. K-0.952
N5635 G2 Y604. Z-15. J-0.419 K0.855
N5640 G1 Y527.021 Z-14.972
N5645 Y518.034 Z-13.559
N5650 Y509.3 Z-12.33
N5655 Y498.796 Z-11.011
N5660 Y488.274 Z-9.845
N5665 Y477.738 Z-8.812
N5670 Y465.432 Z-7.756
N5675 Y453.114 Z-6.844
N5680 Y439.008 Z-5.959
N5685 Y424.719 Z-5.215
N5690 Y402.211 Z-4.329
N5695 Y377.902 Z-3.71
N5700 Y351.792 Z-3.384
N5705 Y323.909 Z-3.383
N5710 Y295.098 Z-3.71
N5715 Y236.577 Z-4.861
N5720 Y181.656 Z-6.256
N5725 Y145.66 Z-7.368
N5730 Y113.751 Z-8.522
N5735 Y86.273 Z-9.683
N5740 Y63.077 Z-10.832
N5745 Y43.997 Z-11.952
N5750 Y29.769 Z-12.947
N5755 Y18.715 Z-13.876
N5760 Y11.619 Z-14.61
N5765 Y9.753 Z-15.
N5770 Y-4.
N5775 G2 Y-4.419 Z-14.903 J0. K0.953
N5780 G3 Y-4.838 Z-14.806 J-0.419 K-0.855
N5785 G17 G2 X-17.852 Y-7.696 I-2.858 J0.
N5790 G1 X-21.134
N5795 G2 X-23.992 Y-4.838 I0. J2.858
N5800 G19 G2 Y-4.419 Z-14.903 J0. K-0.952
N5805 G3 Y-4. Z-15. J0.419 K0.855
N5810 G1 Y9.772
N5815 Y11.619 Z-14.611
N5820 Y18.715 Z-13.876
N5825 Y29.769 Z-12.947
N5830 Y43.997 Z-11.952
N5835 Y63.077 Z-10.832
N5840 Y86.274 Z-9.683
N5845 Y113.751 Z-8.522
N5850 Y145.66 Z-7.368
N5855 Y181.656 Z-6.256
N5860 Y236.577 Z-4.861
N5865 Y295.098 Z-3.71
N5870 Y323.909 Z-3.383
N5875 Y351.798 Z-3.387
N5880 Y377.908 Z-3.716
N5885 Y402.217 Z-4.338
N5890 Y424.725 Z-5.227
N5895 Y439.012 Z-5.972
N5900 Y453.116 Z-6.86
N5905 Y465.434 Z-7.774
N5910 Y477.74 Z-8.832
N5915 Y488.276 Z-9.867
N5920 Y498.798 Z-11.036
N5925 Y509.301 Z-12.358
N5930 Y518.034 Z-13.59
N5935 Y526.796 Z-14.969
N5940 Y604. Z-15.
N5945 G3 Y604.42 Z-14.903 J0. K0.953
N5950 G2 Y604.839 Z-14.806 J0.419 K-0.855
N5955 G17 G3 X-26.849 Y607.696 I-2.858 J0.
N5960 G1 X-30.131
N5965 G3 X-32.988 Y604.839 I0. J-2.857
N5970 G1 Y604.838
N5975 G19 G3 Y604.419 Z-14.903 J0. K-0.952
N5980 G2 Y604. Z-15. J-0.419 K0.855
N5985 G1 Y526.571 Z-14.998
N5990 Y518.036 Z-13.648
N5995 Y507.554 Z-12.175
N6000 Y497.048 Z-10.876
N6005 Y486.524 Z-9.725
N6010 Y474.23 Z-8.548
N6015 Y461.92 Z-7.529
N6020 Y449.6 Z-6.648
N6025 Y435.471 Z-5.795
N6030 Y420.235 Z-5.044
N6035 Y397.727 Z-4.213
N6040 Y373.418 Z-3.644
N6045 Y347.308 Z-3.371
N6050 Y320.308 Z-3.408
N6055 Y290.597 Z-3.786
N6060 Y231.175 Z-4.983
N6065 Y176.255 Z-6.412
N6070 Y142.085 Z-7.489
N6075 Y111.154 Z-8.624
N6080 Y84.473 Z-9.766
N6085 Y61.478 Z-10.919
N6090 Y42.415 Z-12.054
N6095 Y28.189 Z-13.069
N6100 Y17.137 Z-14.025
N6105 Y11.62 Z-14.619
N6110 Y9.897 Z-15.
N6115 Y-4.
N6120 G2 Y-4.419 Z-14.903 J0. K0.953
N6125 G3 Y-4.838 Z-14.806 J-0.419 K-0.855
N6130 G1 Y-4.839
N6135 G17 G2 X-35.846 Y-7.696 I-2.857 J0.
N6140 G1 X-39.128
N6145 G2 X-41.985 Y-4.839 I0. J2.858
N6150 G19 G2 Y-4.42 Z-14.903 J0. K-0.952
N6155 G3 Y-4. Z-15. J0.419 K0.855
N6160 G1 Y10.175 Z-14.995
N6165 Y12.407 Z-14.51
N6170 Y20.293 Z-13.732
N6175 Y31.349 Z-12.827
N6180 Y47.164 Z-11.752
N6185 Y66.284 Z-10.662
N6190 Y89.561 Z-9.534
N6195 Y117.257 Z-8.386
N6200 Y147.461 Z-7.309
N6205 Y194.261 Z-5.906
N6210 Y250.982 Z-4.547
N6215 Y304.102 Z-3.576
N6220 Y330.212 Z-3.362
N6225 Y351.769 Z-3.401
N6230 Y377.879 Z-3.743
N6235 Y402.188 Z-4.377
N6240 Y424.696 Z-5.278
N6245 Y438.969 Z-6.032
N6250 Y453.069 Z-6.928
N6255 Y465.386 Z-7.852
N6260 Y477.691 Z-8.921
N6265 Y488.225 Z-9.969
N6270 Y498.746 Z-11.151
N6275 Y509.247 Z-12.491
N6280 Y517.979 Z-13.743
N6285 Y525.671 Z-14.968
N6290 Y604. Z-15.
N6295 G3 Y604.42 Z-14.903 J0. K0.953
N6300 G2 Y604.839 Z-14.806 J0.419 K-0.855
N6305 G17 G3 X-44.843 Y607.696 I-2.857 J0.
N6310 G1 X-48.125
N6315 G3 X-50.982 Y604.839 I0. J-2.857
N6320 G19 G3 Y604.419 Z-14.903 J0. K-0.952
N6325 G2 Y604. Z-15. J-0.419 K0.855
N6330 G1 Y524.546 Z-14.986
N6335 Y516.179 Z-13.646
N6340 Y507.446 Z-12.395
N6345 Y498.696 Z-11.273
N6350 Y488.178 Z-10.073
N6355 Y477.645 Z-9.012
N6360 Y465.341 Z-7.93
N6365 Y453.025 Z-6.996
N6370 Y438.929 Z-6.089
N6375 Y423.768 Z-5.285
N6380 Y401.26 Z-4.382
N6385 Y376.951 Z-3.75
N6390 Y350.841 Z-3.408
N6395 Y329.311 Z-3.368
N6400 Y303.202 Z-3.588
N6405 Y249.182 Z-4.585
N6410 Y192.461 Z-5.955
N6415 Y147.461 Z-7.309
N6420 Y117.257 Z-8.386
N6425 Y89.561 Z-9.534
N6430 Y66.284 Z-10.662
N6435 Y47.164 Z-11.752
N6440 Y31.35 Z-12.827
N6445 Y20.294 Z-13.732
N6450 Y12.407 Z-14.521
N6455 Y10.328 Z-15.
N6460 Y-4.
N6465 G2 Y-4.419 Z-14.903 J0. K0.953
N6470 G3 Y-4.838 Z-14.806 J-0.419 K-0.855
N6475 G17 G2 X-53.84 Y-7.696 I-2.858 J0.
N6480 G1 X-57.122
N6485 G2 X-59.979 Y-4.838 I0. J2.858
N6490 G19 G2 Y-4.419 Z-14.903 J0. K-0.952
N6495 G3 Y-4. Z-15. J0.419 K0.855
N6500 G1 Y12.435
N6505 Y13.227 Z-14.739
N6510 Y15.56 Z-14.208
N6515 Y20.294 Z-13.732
N6520 Y31.35 Z-12.827
N6525 Y47.164 Z-11.752
N6530 Y66.284 Z-10.662
N6535 Y89.562 Z-9.534
N6540 Y117.257 Z-8.386
N6545 Y147.461 Z-7.309
N6550 Y194.262 Z-5.906
N6555 Y250.983 Z-4.547
N6560 Y304.102 Z-3.576
N6565 Y329.312 Z-3.374
N6570 Y349.93 Z-3.422
N6575 Y376.04 Z-3.768
N6580 Y400.349 Z-4.408
N6585 Y422.857 Z-5.318
N6590 Y437.129 Z-6.075
N6595 Y451.228 Z-6.978
N6600 Y463.544 Z-7.909
N6605 Y475.849 Z-8.989
N6610 Y486.382 Z-10.048
N6615 Y496.024 Z-11.143
N6620 Y505.649 Z-12.376
N6625 Y514.38 Z-13.634
N6630 Y522.492 Z-14.952
N6635 Y604. Z-15.
N6640 G3 Y604.42 Z-14.903 J0.001 K0.952
N6645 G2 Y604.839 Z-14.806 J0.419 K-0.855
N6650 G17 G3 X-62.837 Y607.696 I-2.858 J0.
N6655 G1 X-66.118
N6660 G3 X-68.976 Y604.839 I0. J-2.857
N6665 G1 Y604.838
N6670 G19 G3 Y604.419 Z-14.903 J0. K-0.952
N6675 G2 Y604. Z-15. J-0.419 K0.855
N6680 G1 Y517.856
N6685 Y512.684 Z-13.92
N6690 Y507.906 Z-13.095
N6695 Y499.613 Z-11.899
N6700 Y489.984 Z-10.698
N6705 Y479.461 Z-9.551
N6710 Y467.164 Z-8.389
N6715 Y454.853 Z-7.39
N6720 Y440.769 Z-6.419
N6725 Y426.601 Z-5.61
N6730 Y408.771 Z-4.795
N6735 Y385.362 Z-4.034
N6740 Y360.153 Z-3.551
N6745 Y332.913 Z-3.378
N6750 Y307.676 Z-3.524
N6755 Y257.285 Z-4.415
N6760 Y199.664 Z-5.761
N6765 Y149.248 Z-7.248
N6770 Y118.164 Z-8.351
N6775 Y89.568 Z-9.534
N6780 Y66.291 Z-10.661
N6785 Y47.17 Z-11.751
N6790 Y31.356 Z-12.826
N6795 Y21.781 Z-13.615
N6800 Y19.141 Z-14.131
N6805 Y16.681 Z-14.97
N6810 Y-4. Z-15.
N6815 G2 Y-4.421 Z-14.903 J-0.001 K0.952
N6820 G3 Y-4.84 Z-14.806 J-0.419 K-0.855
N6825 G17 G2 X-71.833 Y-7.697 I-2.857 J0.
N6830 G1 X-75.115
N6835 G2 X-77.973 Y-4.84 I0. J2.858
N6840 G1 Y-4.838
N6845 G19 G2 Y-4.419 Z-14.903 J0. K-0.952
N6850 G3 Y-4. Z-15. J0.419 K0.855
N6855 G1 Y26.927
N6860 Y28.089 Z-14.742
N6865 Y34.71 Z-13.48
N6870 Y41.774 Z-12.48
N6875 Y50.845 Z-11.589
N6880 Y61.751 Z-10.904
N6885 Y84.931 Z-9.745
N6890 Y112.512 Z-8.571
N6895 Y144.295 Z-7.409
N6900 Y181.184 Z-6.258
N6905 Y236.105 Z-4.852
N6910 Y295.527 Z-3.672
N6915 Y321.636 Z-3.372
N6920 Y347.746 Z-3.432
N6925 Y372.955 Z-3.793
N6930 Y397.264 Z-4.459
N6935 Y419.767 Z-5.395
N6940 Y433.994 Z-6.174
N6945 Y446.323 Z-6.981
N6950 Y459.518 Z-8.003
N6955 Y470.938 Z-9.065
N6960 Y477.733 Z-9.806
N6965 Y484.945 Z-10.757
N6970 Y491.897 Z-11.942
N6975 Y500.029 Z-13.65
N6980 Y505.476 Z-15.
N6985 Y604.
N6990 G3 Y604.419 Z-14.903 J0. K0.953
N6995 G2 Y604.838 Z-14.806 J0.419 K-0.855
N7000 G1 Y604.839
N7005 G17 G3 X-80.83 Y607.696 I-2.857 J0.
N7010 G1 X-84.112
N7015 G3 X-86.97 Y604.839 I0. J-2.858
N7020 G19 G3 Y604.419 Z-14.903 J0. K-0.952
N7025 G2 Y604. Z-15. J-0.419 K0.855
N7030 G1 Y486.812 Z-14.972
N7035 Y480.922 Z-13.561
N7040 Y472.465 Z-11.795
N7045 Y464.655 Z-10.392
N7050 Y455.926 Z-9.13
N7055 Y445.839 Z-7.837
N7060 Y435.25 Z-6.79
N7065 Y424.692 Z-6.005
N7070 Y409.601 Z-5.154
N7075 Y387.093 Z-4.264
N7080 Y363.684 Z-3.682
N7085 Y338.475 Z-3.375
N7090 Y319.536 Z-3.344
N7095 Y292.751 Z-3.684
N7100 Y233.329 Z-4.893
N7105 Y179.309 Z-6.303
N7110 Y142.482 Z-7.47
N7115 Y112.834 Z-8.566
N7120 Y98.334 Z-9.346
N7125 Y85.695 Z-10.34
N7130 Y75.453 Z-11.449
N7135 Y66.821 Z-12.678
N7140 Y59.023 Z-14.113
N7145 Y55.054 Z-15.
N7150 Y-4.
N7155 G2 Y-4.419 Z-14.903 J0. K0.953
N7160 G3 Y-4.838 Z-14.806 J-0.419 K-0.855
N7165 G17 G2 X-89.827 Y-7.696 I-2.858 J0.
N7170 G1 X-93.109
N7175 G2 X-95.966 Y-4.838 I0. J2.858
N7180 G19 G2 Y-4.419 Z-14.903 J0. K-0.952
N7185 G3 Y-4. Z-15. J0.419 K0.855
N7190 G1 Y98.193
N7195 Y100.145 Z-14.595
N7200 Y107.243 Z-13.239
N7205 Y116.646 Z-11.814
N7210 Y129.413 Z-10.279
N7215 Y142.826 Z-9.042
N7220 Y158.734 Z-7.934
N7225 Y180.189 Z-6.812
N7230 Y207.345 Z-5.785
N7235 Y244.259 Z-4.78
N7240 Y288.6 Z-3.923
N7245 Y316.285 Z-3.645
N7250 Y334.742 Z-3.834
N7255 Y355. Z-4.356
N7260 Y373.725 Z-5.164
N7265 Y387.549 Z-5.946
N7270 Y401.188 Z-6.924
N7275 Y413.743 Z-8.119
N7280 Y423.906 Z-9.262
N7285 Y432.481 Z-10.33
N7290 Y441.202 Z-11.645
N7295 Y451.246 Z-13.534
N7300 Y458.146 Z-14.994
N7305 Y604. Z-15.
N7310 G3 Y604.419 Z-14.903 J0. K0.953
N7315 G2 Y604.838 Z-14.806 J0.419 K-0.855
N7320 G17 G3 X-98.824 Y607.696 I-2.857 J0.
N7325 G1 X-102.106
N7330 G3 X-104.963 Y604.838 I0. J-2.857
N7335 G19 G3 Y604.419 Z-14.903 J0. K-0.952
N7340 G2 Y604. Z-15. J-0.419 K0.855
N7345 G1 Y404.497
N7350 Y395.218 Z-13.563
N7355 Y385.594 Z-12.356
N7360 Y374.182 Z-11.232
N7365 Y360.985 Z-10.248
N7370 Y348.98 Z-9.518
N7375 Y338.444 Z-8.976
N7380 Y322.238 Z-8.365
N7385 Y309.633 Z-8.13
N7390 Y290.726 Z-8.099
N7395 Y268.218 Z-8.379
N7400 Y246.16 Z-8.954
N7405 Y225.552 Z-9.826
N7410 Y208.848 Z-10.843
N7415 Y196.709 Z-11.762
N7420 Y184.087 Z-12.953
N7425 Y173.863 Z-14.225
N7430 Y168.831 Z-15.
N7435 Y-4.
N7440 G2 Y-4.419 Z-14.903 J0. K0.953
N7445 G3 Y-4.838 Z-14.806 J-0.419 K-0.855
N7450 G17 G2 X-107.821 Y-7.696 I-2.857 J0.
N7455 G1 X-111.103
N7460 G2 X-113.96 Y-4.838 I0. J2.858
N7465 G19 G2 Y-4.419 Z-14.903 J0. K-0.952
N7470 G3 Y-4. Z-15. J0.419 K0.855
N7475 G1 Y604.
N7480 G3 Y604.419 Z-14.903 J0. K0.953
N7485 G2 Y604.838 Z-14.806 J0.419 K-0.855
N7490 G17 G3 X-116.818 Y607.696 I-2.857 J0.
N7495 G1 X-120.1
N7500 G3 X-122.957 Y604.838 I0. J-2.857
N7505 G19 G3 Y604.419 Z-14.903 J0. K-0.952
N7510 G2 Y604. Z-15. J-0.419 K0.855
N7515 G1 Y-4.
N7520 G2 Y-5.905 Z-13.095 J0. K1.905 F1000.
N7525 G0 Z15.
N7530 G17
(PARALLEL3 3)
N7535 G0 X128.96 Y602.311
N7540 Z15.
N7545 Z-23.095
N7550 G19 G2 Y600.406 Z-25. J-1.905 K0. F1000.
N7555 G1 Y-0.406 F3000.
N7560 G2 Y-0.825 Z-24.903 J0. K0.952
N7565 G3 Y-1.244 Z-24.806 J-0.419 K-0.855
N7570 G1 Y-4.838
N7575 G17 G2 X126.103 Y-7.696 I-2.858 J0.
N7580 G1 X123.82
N7585 G2 X120.962 Y-4.838 I0. J2.858
N7590 G19 G2 Y-4.419 Z-24.903 J0. K-0.952
N7595 G3 Y-4. Z-25. J0.419 K0.855
N7600 G1 Y604.
N7605 G3 Y604.419 Z-24.903 J0. K0.952
N7610 G2 Y604.838 Z-24.806 J0.419 K-0.855
N7615 G17 G3 X118.105 Y607.696 I-2.857 J0.
N7620 G1 X115.822
N7625 G3 X112.965 Y604.838 I0. J-2.857
N7630 G19 G3 Y604.419 Z-24.903 J0. K-0.952
N7635 G2 Y604. Z-25. J-0.419 K0.855
N7640 G1 Y-4.
N7645 G2 Y-4.419 Z-24.903 J0. K0.952
N7650 G3 Y-4.838 Z-24.806 J-0.419 K-0.855
N7655 G17 G2 X110.107 Y-7.696 I-2.858 J0.
N7660 G1 X107.825
N7665 G2 X104.967 Y-4.838 I0. J2.858
N7670 G19 G2 Y-4.419 Z-24.903 J0. K-0.952
N7675 G3 Y-4. Z-25. J0.419 K0.855
N7680 G1 Y140.384
N7685 Y140.513 Z-24.759
N7690 Y141.989 Z-23.
N7695 Y142.687 Z-22.351
N7700 Y144.087 Z-21.47
N7705 Y145.553 Z-20.787
N7710 Y150.034 Z-19.156
N7715 Y153.837 Z-17.982
N7720 Y159.251 Z-16.728
N7725 Y167.227 Z-15.287
N7730 Y174.274 Z-14.171
N7735 Y184.498 Z-12.913
N7740 Y197.122 Z-11.732
N7745 Y210.482 Z-10.73
N7750 Y225.786 Z-9.818
N7755 Y246.564 Z-8.943
N7760 Y270.254 Z-8.341
N7765 Y292.762 Z-8.095
N7770 Y311.669 Z-8.159
N7775 Y323.373 Z-8.4
N7780 Y340.48 Z-9.076
N7785 Y352.944 Z-9.742
N7790 Y365.278 Z-10.547
N7795 Y378.467 Z-11.629
N7800 Y389.867 Z-12.86
N7805 Y398.604 Z-14.079
N7810 Y407.316 Z-15.461
N7815 Y413.382 Z-16.572
N7820 Y419.217 Z-17.905
N7825 Y423.933 Z-19.301
N7830 Y427.854 Z-20.619
N7835 Y430.94 Z-21.808
N7840 Y432.992 Z-22.895
N7845 Y434.195 Z-23.761
N7850 Y435.413 Z-24.993
N7855 Y604. Z-25.
N7860 G3 Y604.419 Z-24.903 J0. K0.952
N7865 G2 Y604.838 Z-24.806 J0.419 K-0.855
N7870 G1 Y604.839
N7875 G17 G3 X102.11 Y607.696 I-2.858 J0.
N7880 G1 X99.827
N7885 G3 X96.97 Y604.839 I0. J-2.858
N7890 G19 G3 Y604.419 Z-24.903 J0. K-0.952
N7895 G2 Y604. Z-25. J-0.419 K0.855
N7900 G1 Y479.286 Z-24.97
N7905 Y477.218 Z-23.489
N7910 Y472.94 Z-21.098
N7915 Y468.968 Z-19.421
N7920 Y465.802 Z-18.348
N7925 Y459.908 Z-16.524
N7930 Y454.8 Z-15.189
N7935 Y448.335 Z-13.81
N7940 Y440.098 Z-12.282
N7945 Y430.851 Z-10.77
N7950 Y420.463 Z-9.443
N7955 Y410.375 Z-8.36
N7960 Y398.957 Z-7.272
N7965 Y384.882 Z-6.205
N7970 Y367.017 Z-5.231
N7975 Y344.565 Z-4.373
N7980 Y324.757 Z-3.948
N7985 Y311.252 Z-3.885
N7990 Y286.043 Z-4.135
N7995 Y246.428 Z-4.889
N8000 Y212.221 Z-5.846
N8005 Y185.716 Z-6.878
N8010 Y167.797 Z-7.804
N8015 Y151.177 Z-8.92
N8020 Y136.971 Z-10.186
N8025 Y126.735 Z-11.349
N8030 Y116.53 Z-12.766
N8035 Y107.509 Z-14.36
N8040 Y101.173 Z-15.719
N8045 Y96.196 Z-17.091
N8050 Y90.935 Z-18.919
N8055 Y88.742 Z-19.893
N8060 Y86.633 Z-21.133
N8065 Y84.382 Z-22.8
N8070 Y83.502 Z-23.752
N8075 Y82.943 Z-24.857
N8080 Y82.887 Z-25.
N8085 Y-4.
N8090 G2 Y-4.419 Z-24.903 J0. K0.952
N8095 G3 Y-4.838 Z-24.806 J-0.419 K-0.855
N8100 G17 G2 X94.112 Y-7.696 I-2.857 J0.
N8105 G1 X91.83
N8110 G2 X88.972 Y-4.838 I0. J2.858
N8115 G19 G2 Y-4.419 Z-24.903 J0. K-0.952
N8120 G3 Y-4. Z-25. J0.419 K0.855
N8125 G1 Y43.402
N8130 Y43.839 Z-24.34
N8135 Y45.497 Z-22.411
N8140 Y47.257 Z-21.045
N8145 Y50.033 Z-19.43
N8150 Y52.952 Z-18.121
N8155 Y57.082 Z-16.667
N8160 Y62.822 Z-15.085
N8165 Y69.02 Z-13.727
N8170 Y76.83 Z-12.364
N8175 Y86.253 Z-11.08
N8180 Y97.288 Z-9.938
N8185 Y110.72 Z-8.916
N8190 Y126.841 Z-8.058
N8195 Y146.931 Z-7.321
N8200 Y197.316 Z-5.797
N8205 Y254.037 Z-4.431
N8210 Y306.256 Z-3.472
N8215 Y325.311 Z-3.334
N8220 Y351.421 Z-3.51
N8225 Y376.63 Z-4.019
N8230 Y397.337 Z-4.712
N8235 Y409.929 Z-5.34
N8240 Y423.977 Z-6.279
N8245 Y435.394 Z-7.34
N8250 Y446.785 Z-8.671
N8255 Y455.308 Z-9.808
N8260 Y464.222 Z-11.31
N8265 Y472.344 Z-12.856
N8270 Y478.903 Z-14.314
N8275 Y484.853 Z-15.937
N8280 Y489.917 Z-17.446
N8285 Y494.045 Z-18.919
N8290 Y498.08 Z-20.679
N8295 Y501.228 Z-22.21
N8300 Y503.444 Z-23.544
N8305 Y505.387 Z-24.999
N8310 Y604. Z-25.
N8315 G3 Y604.419 Z-24.903 J0. K0.952
N8320 G2 Y604.838 Z-24.806 J0.419 K-0.855
N8325 G17 G3 X86.115 Y607.696 I-2.857 J0.
N8330 G1 X83.832
N8335 G3 X80.975 Y604.838 I0. J-2.857
N8340 G19 G3 Y604.419 Z-24.903 J0. K-0.952
N8345 G2 Y604. Z-25. J-0.419 K0.855
N8350 G1 Y523.69
N8355 Y521.017 Z-23.247
N8360 Y517.977 Z-21.494
N8365 Y514.414 Z-19.853
N8370 Y509.082 Z-17.772
N8375 Y504.911 Z-16.392
N8380 Y498.97 Z-14.748
N8385 Y493.845 Z-13.44
N8390 Y488.671 Z-12.35
N8395 Y479.779 Z-10.703
N8400 Y471.714 Z-9.5
N8405 Y462.731 Z-8.485
N8410 Y453.725 Z-7.672
N8415 Y440.268 Z-6.657
N8420 Y425.879 Z-5.781
N8425 Y412.62 Z-5.113
N8430 Y394.786 Z-4.409
N8435 Y371.377 Z-3.779
N8440 Y346.168 Z-3.422
N8445 Y320.958 Z-3.362
N8450 Y294.849 Z-3.669
N8455 Y235.427 Z-4.859
N8460 Y180.506 Z-6.273
N8465 Y143.658 Z-7.43
N8470 Y111.141 Z-8.625
N8475 Y84.46 Z-9.766
N8480 Y69.701 Z-10.504
N8485 Y59.425 Z-11.279
N8490 Y50.365 Z-12.271
N8495 Y42.916 Z-13.376
N8500 Y36.882 Z-14.545
N8505 Y30.918 Z-16.054
N8510 Y26.004 Z-17.654
N8515 Y22.142 Z-19.26
N8520 Y20.176 Z-20.3
N8525 Y19.516 Z-20.789
N8530 Y18.856 Z-21.398
N8535 Y17.892 Z-22.612
N8540 Y17.339 Z-23.564
N8545 Y16.766 Z-25.
N8550 Y-4.
N8555 G2 Y-4.419 Z-24.903 J0. K0.952
N8560 G3 Y-4.838 Z-24.806 J-0.419 K-0.855
N8565 G17 G2 X78.117 Y-7.696 I-2.857 J0.
N8570 G1 X75.835
N8575 G2 X72.977 Y-4.838 I0. J2.858
N8580 G19 G2 Y-4.419 Z-24.903 J0. K-0.952
N8585 G3 Y-4. Z-25. J0.419 K0.855
N8590 G1 Y10.258
N8595 Y10.729 Z-23.358
N8600 Y11.461 Z-21.695
N8605 Y12.497 Z-20.048
N8610 Y13.997 Z-18.316
N8615 Y15.567 Z-16.958
N8620 Y17.614 Z-15.626
N8625 Y19.536 Z-14.718
N8630 Y21.748 Z-14.038
N8635 Y24.886 Z-13.561
N8640 Y32.769 Z-12.729
N8645 Y47.794 Z-11.713
N8650 Y67.116 Z-10.618
N8655 Y90.394 Z-9.497
N8660 Y118.09 Z-8.354
N8665 Y149.983 Z-7.222
N8670 Y199.495 Z-5.761
N8675 Y257.116 Z-4.412
N8680 Y307.535 Z-3.516
N8685 Y330.043 Z-3.374
N8690 Y356.153 Z-3.513
N8695 Y381.362 Z-3.954
N8700 Y404.771 Z-4.68
N8705 Y421.403 Z-5.402
N8710 Y435.635 Z-6.171
N8715 Y449.367 Z-7.071
N8720 Y461.323 Z-7.995
N8725 Y473.446 Z-9.082
N8730 Y484.236 Z-10.206
N8735 Y494.128 Z-11.413
N8740 Y502.489 Z-12.686
N8745 Y508.451 Z-13.89
N8750 Y514.864 Z-15.505
N8755 Y519.505 Z-16.851
N8760 Y524.908 Z-18.753
N8765 Y528.173 Z-20.037
N8770 Y532.134 Z-21.928
N8775 Y535.012 Z-23.484
N8780 Y537.246 Z-25.
N8785 Y604.
N8790 G3 Y604.419 Z-24.903 J0. K0.952
N8795 G2 Y604.838 Z-24.806 J0.419 K-0.855
N8800 G17 G3 X70.12 Y607.696 I-2.857 J0.
N8805 G1 X67.837
N8810 G3 X64.98 Y604.838 I0. J-2.857
N8815 G19 G3 Y604.419 Z-24.903 J0. K-0.952
N8820 G2 Y604. Z-25. J-0.419 K0.855
N8825 G1 Y547.738 Z-24.998
N8830 Y544.146 Z-22.777
N8835 Y541.822 Z-21.609
N8840 Y537.792 Z-19.823
N8845 Y534.508 Z-18.603
N8850 Y529.472 Z-17.003
N8855 Y525.219 Z-15.899
N8860 Y519.177 Z-14.671
N8865 Y513.09 Z-13.647
N8870 Y504.542 Z-12.393
N8875 Y496.151 Z-11.299
N8880 Y484.936 Z-10.013
N8885 Y473.882 Z-8.907
N8890 Y461.756 Z-7.853
N8895 Y449.798 Z-6.953
N8900 Y436.056 Z-6.077
N8905 Y421.968 Z-5.332
N8910 Y405.124 Z-4.62
N8915 Y388.994 Z-4.103
N8920 Y364.685 Z-3.599
N8925 Y339.476 Z-3.385
N8930 Y314.006 Z-3.46
N8935 Y279.793 Z-3.978
N8940 Y221.272 Z-5.217
N8945 Y168.152 Z-6.653
N8950 Y136.722 Z-7.674
N8955 Y106.97 Z-8.792
N8960 Y80.511 Z-9.951
N8965 Y58.492 Z-11.084
N8970 Y41.04 Z-12.145
N8975 Y26.816 Z-13.178
N8980 Y18.921 Z-13.874
N8985 Y16.577 Z-14.34
N8990 Y14.291 Z-15.112
N8995 Y11.997 Z-16.275
N9000 Y10.11 Z-17.621
N9005 Y8.412 Z-19.282
N9010 Y7.126 Z-21.022
N9015 Y6.258 Z-22.664
N9020 Y5.555 Z-24.727
N9025 Y5.482 Z-25.
N9030 Y-4.
N9035 G2 Y-4.419 Z-24.903 J0. K0.952
N9040 G3 Y-4.838 Z-24.806 J-0.419 K-0.855
N9045 G17 G2 X62.122 Y-7.696 I-2.858 J0.
N9050 G1 X59.84
N9055 G2 X56.982 Y-4.838 I0. J2.858
N9060 G19 G2 Y-4.419 Z-24.903 J0. K-0.952
N9065 G3 Y-4. Z-25. J0.419 K0.855
N9070 G1 Y1.876
N9075 Y1.895 Z-24.925
N9080 Y2.507 Z-22.989
N9085 Y3.299 Z-21.366
N9090 Y4.266 Z-19.921
N9095 Y5.456 Z-18.578
N9100 Y7.302 Z-17.042
N9105 Y9.398 Z-15.805
N9110 Y11.556 Z-14.941
N9115 Y14.033 Z-14.358
N9120 Y20.294 Z-13.732
N9125 Y31.35 Z-12.827
N9130 Y47.164 Z-11.752
N9135 Y66.284 Z-10.662
N9140 Y89.562 Z-9.534
N9145 Y118.158 Z-8.351
N9150 Y149.247 Z-7.249
N9155 Y198.763 Z-5.785
N9160 Y255.484 Z-4.453
N9165 Y306.803 Z-3.538
N9170 Y332.913 Z-3.366
N9175 Y360.119 Z-3.508
N9180 Y385.329 Z-3.959
N9185 Y406.885 Z-4.615
N9190 Y425.501 Z-5.417
N9195 Y439.379 Z-6.173
N9200 Y453.291 Z-7.083
N9205 Y465.068 Z-7.987
N9210 Y477.191 Z-9.062
N9215 Y487.546 Z-10.112
N9220 Y498.063 Z-11.32
N9225 Y506.812 Z-12.451
N9230 Y515.541 Z-13.712
N9235 Y524.246 Z-15.13
N9240 Y531.189 Z-16.383
N9245 Y536.374 Z-17.432
N9250 Y540.231 Z-18.329
N9255 Y544.234 Z-19.488
N9260 Y548.122 Z-20.984
N9265 Y551.412 Z-22.454
N9270 Y555.875 Z-25.
N9275 Y604.
N9280 G3 Y604.419 Z-24.903 J0. K0.952
N9285 G2 Y604.838 Z-24.806 J0.419 K-0.855
N9290 G17 G3 X54.125 Y607.696 I-2.858 J0.
N9295 G1 X51.842
N9300 G3 X48.985 Y604.838 I0. J-2.857
N9305 G19 G3 Y604.419 Z-24.903 J0. K-0.952
N9310 G2 Y604. Z-25. J-0.419 K0.855
N9315 G1 Y562.118
N9320 Y560.784 Z-24.246
N9325 Y558.077 Z-22.869
N9330 Y554.943 Z-21.602
N9335 Y551.062 Z-20.417
N9340 Y544.219 Z-18.731
N9345 Y539.047 Z-17.615
N9350 Y532.122 Z-16.263
N9355 Y525.173 Z-15.038
N9360 Y516.641 Z-13.67
N9365 Y507.908 Z-12.418
N9370 Y497.586 Z-11.106
N9375 Y487.064 Z-9.925
N9380 Y474.951 Z-8.736
N9385 Y462.823 Z-7.706
N9390 Y449.283 Z-6.721
N9395 Y435.164 Z-5.857
N9400 Y419.543 Z-5.078
N9405 Y401.67 Z-4.386
N9410 Y378.262 Z-3.769
N9415 Y353.052 Z-3.423
N9420 Y324.81 Z-3.382
N9425 Y295.999 Z-3.695
N9430 Y236.577 Z-4.861
N9435 Y181.657 Z-6.256
N9440 Y145.66 Z-7.368
N9445 Y113.751 Z-8.522
N9450 Y86.274 Z-9.683
N9455 Y63.077 Z-10.832
N9460 Y43.997 Z-11.952
N9465 Y29.769 Z-12.947
N9470 Y18.715 Z-13.876
N9475 Y12.407 Z-14.517
N9480 Y10.84 Z-14.845
N9485 Y9.311 Z-15.36
N9490 Y7.842 Z-16.059
N9495 Y6.454 Z-16.939
N9500 Y5.17 Z-17.993
N9505 Y4.009 Z-19.215
N9510 Y2.992 Z-20.599
N9515 Y2.136 Z-22.147
N9520 Y1.462 Z-23.883
N9525 Y1.156 Z-25.
N9530 Y-4.
N9535 G2 Y-4.419 Z-24.903 J0. K0.952
N9540 G3 Y-4.838 Z-24.806 J-0.419 K-0.855
N9545 G17 G2 X46.127 Y-7.696 I-2.857 J0.
N9550 G1 X43.845
N9555 G2 X40.987 Y-4.838 I0. J2.858
N9560 G19 G2 Y-4.419 Z-24.903 J0. K-0.952
N9565 G3 Y-4. Z-25. J0.419 K0.855
N9570 G1 Y0.91
N9575 Y1.066 Z-24.38
N9580 Y1.653 Z-22.678
N9585 Y2.447 Z-21.092
N9590 Y3.41 Z-19.665
N9595 Y4.522 Z-18.396
N9600 Y5.765 Z-17.29
N9605 Y7.117 Z-16.355
N9610 Y8.558 Z-15.597
N9615 Y10.211 Z-14.978
N9620 Y12.407 Z-14.509
N9625 Y18.715 Z-13.876
N9630 Y29.769 Z-12.947
N9635 Y45.58 Z-11.851
N9640 Y64.679 Z-10.747
N9645 Y87.915 Z-9.608
N9650 Y115.552 Z-8.452
N9655 Y146.56 Z-7.338
N9660 Y189.76 Z-6.029
N9665 Y245.58 Z-4.662
N9670 Y301.401 Z-3.613
N9675 Y328.411 Z-3.366
N9680 Y355.305 Z-3.43
N9685 Y380.514 Z-3.792
N9690 Y404.788 Z-4.462
N9695 Y421.677 Z-5.136
N9700 Y436.007 Z-5.858
N9705 Y449.771 Z-6.697
N9710 Y461.732 Z-7.557
N9715 Y474.041 Z-8.58
N9720 Y486.155 Z-9.742
N9725 Y496.321 Z-10.855
N9730 Y506.648 Z-12.131
N9735 Y515.386 Z-13.342
N9740 Y523.926 Z-14.664
N9745 Y531.749 Z-16.004
N9750 Y539.547 Z-17.496
N9755 Y546.443 Z-18.977
N9760 Y551.589 Z-20.2
N9765 Y556.702 Z-21.544
N9770 Y560.085 Z-22.531
N9775 Y563.417 Z-23.632
N9780 Y566.574 Z-24.973
N9785 Y604. Z-25.
N9790 G3 Y604.42 Z-24.903 J0.001 K0.952
N9795 G2 Y604.839 Z-24.806 J0.419 K-0.855
N9800 G17 G3 X38.13 Y607.697 I-2.857 J0.
N9805 G1 X35.847
N9810 G3 X32.99 Y604.839 I0. J-2.857
N9815 G19 G3 Y604.42 Z-24.903 J0. K-0.952
N9820 G2 Y604. Z-25. J-0.419 K0.855
N9825 G1 Y568.567 Z-24.97
N9830 Y565.079 Z-23.775
N9835 Y560.025 Z-22.234
N9840 Y554.923 Z-20.844
N9845 Y549.788 Z-19.578
N9850 Y542.794 Z-18.026
N9855 Y535.982 Z-16.669
N9860 Y529.038 Z-15.416
N9865 Y520.332 Z-13.997
N9870 Y511.782 Z-12.748
N9875 Y501.284 Z-11.381
N9880 Y491.126 Z-10.211
N9885 Y479.194 Z-9.002
N9890 Y467.07 Z-7.936
N9895 Y454.933 Z-7.013
N9900 Y441.195 Z-6.123
N9905 Y426.593 Z-5.339
N9910 Y406.87 Z-4.511
N9915 Y383.461 Z-3.841
N9920 Y357.351 Z-3.438
N9925 Y331.112 Z-3.356
N9930 Y304.102 Z-3.576
N9935 Y250.982 Z-4.547
N9940 Y194.261 Z-5.906
N9945 Y147.461 Z-7.309
N9950 Y117.257 Z-8.386
N9955 Y89.561 Z-9.534
N9960 Y66.284 Z-10.662
N9965 Y47.163 Z-11.752
N9970 Y31.349 Z-12.827
N9975 Y20.293 Z-13.732
N9980 Y12.014 Z-14.557
N9985 Y10.061 Z-14.986
N9990 Y8.546 Z-15.538
N9995 Y7.095 Z-16.274
N10000 Y5.731 Z-17.188
N10005 Y4.474 Z-18.273
N10010 Y3.345 Z-19.523
N10015 Y2.363 Z-20.932
N10020 Y1.548 Z-22.498
N10025 Y0.919 Z-24.244
N10030 Y0.722 Z-25.
N10035 Y-4.
N10040 G2 Y-4.419 Z-24.903 J0. K0.952
N10045 G3 Y-4.838 Z-24.806 J-0.419 K-0.855
N10050 G17 G2 X30.132 Y-7.696 I-2.858 J0.
N10055 G1 X27.85
N10060 G2 X24.992 Y-4.838 I0. J2.858
N10065 G19 G2 Y-4.419 Z-24.903 J0. K-0.952
N10070 G3 Y-4. Z-25. J0.419 K0.855
N10075 G1 Y0.593
N10080 Y0.833 Z-24.105
N10085 Y1.478 Z-22.376
N10090 Y2.079 Z-21.206
N10095 Y3.303 Z-19.428
N10100 Y4.443 Z-18.191
N10105 Y5.71 Z-17.12
N10110 Y7.082 Z-16.22
N10115 Y8.539 Z-15.499
N10120 Y10.059 Z-14.962
N10125 Y11.619 Z-14.612
N10130 Y15.56 Z-14.179
N10135 Y26.609 Z-13.195
N10140 Y40.834 Z-12.158
N10145 Y58.285 Z-11.096
N10150 Y80.304 Z-9.961
N10155 Y107.663 Z-8.764
N10160 Y138.522 Z-7.611
N10165 Y170.852 Z-6.572
N10170 Y224.872 Z-5.131
N10175 Y283.394 Z-3.914
N10180 Y316.706 Z-3.432
N10185 Y344.754 Z-3.356
N10190 Y370.864 Z-3.596
N10195 Y395.173 Z-4.124
N10200 Y413.097 Z-4.728
N10205 Y430.631 Z-5.519
N10210 Y444.283 Z-6.287
N10215 Y456.429 Z-7.095
N10220 Y468.745 Z-8.046
N10225 Y480.688 Z-9.112
N10230 Y492.439 Z-10.316
N10235 Y502.597 Z-11.499
N10240 Y512.736 Z-12.83
N10245 Y521.463 Z-14.117
N10250 Y529.99 Z-15.517
N10255 Y536.932 Z-16.779
N10260 Y543.849 Z-18.167
N10265 Y550.734 Z-19.703
N10270 Y555.87 Z-20.97
N10275 Y560.974 Z-22.355
N10280 Y566.031 Z-23.883
N10285 Y569.369 Z-24.999
N10290 Y604. Z-25.
N10295 G3 Y604.419 Z-24.903 J0. K0.952
N10300 G2 Y604.838 Z-24.806 J0.419 K-0.855
N10305 G17 G3 X22.135 Y607.696 I-2.858 J0.
N10310 G1 X19.852
N10315 G3 X16.995 Y604.838 I0. J-2.857
N10320 G19 G3 Y604.419 Z-24.903 J0. K-0.952
N10325 G2 Y604. Z-25. J-0.419 K0.855
N10330 G1 Y569.714 Z-24.999
N10335 Y563.767 Z-23.095
N10340 Y558.682 Z-21.65
N10345 Y553.56 Z-20.331
N10350 Y548.412 Z-19.117
N10355 Y541.514 Z-17.64
N10360 Y534.589 Z-16.301
N10365 Y525.901 Z-14.793
N10370 Y517.362 Z-13.465
N10375 Y507.233 Z-12.061
N10380 Y496.725 Z-10.775
N10385 Y485.162 Z-9.53
N10390 Y473.222 Z-8.41
N10395 Y461.27 Z-7.435
N10400 Y448.949 Z-6.568
N10405 Y434.988 Z-5.736
N10410 Y419.182 Z-4.968
N10415 Y401.402 Z-4.303
N10420 Y377.093 Z-3.696
N10425 Y350.983 Z-3.379
N10430 Y323.909 Z-3.383
N10435 Y295.098 Z-3.71
N10440 Y236.577 Z-4.861
N10445 Y181.656 Z-6.256
N10450 Y145.66 Z-7.368
N10455 Y113.751 Z-8.522
N10460 Y86.274 Z-9.683
N10465 Y63.077 Z-10.832
N10470 Y43.997 Z-11.952
N10475 Y29.769 Z-12.947
N10480 Y18.715 Z-13.876
N10485 Y11.619 Z-14.61
N10490 Y10.058 Z-14.957
N10495 Y8.537 Z-15.49
N10500 Y7.079 Z-16.207
N10505 Y5.705 Z-17.103
N10510 Y4.436 Z-18.172
N10515 Y3.293 Z-19.405
N10520 Y2.296 Z-20.797
N10525 Y1.462 Z-22.347
N10530 Y0.813 Z-24.072
N10535 Y0.562 Z-25.
N10540 Y-4.
N10545 G2 Y-4.419 Z-24.903 J0. K0.952
N10550 G3 Y-4.838 Z-24.806 J-0.419 K-0.855
N10555 G17 G2 X14.137 Y-7.696 I-2.858 J0.
N10560 G1 X11.855
N10565 G2 X8.997 Y-4.838 I0. J2.858
N10570 G19 G2 Y-4.419 Z-24.903 J0. K-0.952
N10575 G3 Y-4. Z-25. J0.419 K0.855
N10580 G1 Y0.553
N10585 Y0.807 Z-24.063
N10590 Y1.458 Z-22.339
N10595 Y2.292 Z-20.79
N10600 Y3.291 Z-19.399
N10605 Y4.434 Z-18.166
N10610 Y5.704 Z-17.099
N10615 Y7.078 Z-16.204
N10620 Y8.537 Z-15.488
N10625 Y10.058 Z-14.955
N10630 Y11.619 Z-14.609
N10635 Y18.715 Z-13.876
N10640 Y29.769 Z-12.947
N10645 Y43.997 Z-11.952
N10650 Y63.077 Z-10.832
N10655 Y86.273 Z-9.683
N10660 Y113.751 Z-8.522
N10665 Y145.66 Z-7.368
N10670 Y181.656 Z-6.256
N10675 Y236.577 Z-4.861
N10680 Y295.098 Z-3.71
N10685 Y324.809 Z-3.377
N10690 Y352.955 Z-3.392
N10695 Y378.164 Z-3.713
N10700 Y402.473 Z-4.335
N10705 Y424.981 Z-5.224
N10710 Y439.271 Z-5.969
N10715 Y453.197 Z-6.844
N10720 Y466.915 Z-7.868
N10725 Y478.861 Z-8.908
N10730 Y490.614 Z-10.085
N10735 Y500.954 Z-11.261
N10740 Y511.275 Z-12.587
N10745 Y519.57 Z-13.779
N10750 Y528.714 Z-15.244
N10755 Y535.662 Z-16.482
N10760 Y542.587 Z-17.84
N10765 Y549.48 Z-19.338
N10770 Y554.625 Z-20.57
N10775 Y559.741 Z-21.91
N10780 Y564.821 Z-23.378
N10785 Y569.787 Z-24.979
N10790 Y604. Z-25.
N10795 G3 Y604.42 Z-24.903 J0.001 K0.952
N10800 G2 Y604.839 Z-24.806 J0.419 K-0.855
N10805 G17 G3 X6.14 Y607.697 I-2.858 J0.
N10810 G1 X3.857
N10815 G3 X1. Y604.839 I0. J-2.857
N10820 G19 G3 Y604.42 Z-24.903 J0. K-0.952
N10825 G2 Y604. Z-25. J-0.419 K0.855
N10830 G1 Y569.787 Z-24.967
N10835 Y563.906 Z-23.092
N10840 Y559.777 Z-21.911
N10845 Y554.661 Z-20.571
N10850 Y549.516 Z-19.34
N10855 Y542.623 Z-17.841
N10860 Y535.698 Z-16.483
N10865 Y528.75 Z-15.245
N10870 Y519.605 Z-13.78
N10875 Y511.311 Z-12.588
N10880 Y501.169 Z-11.283
N10885 Y490.31 Z-10.049
N10890 Y478.898 Z-8.908
N10895 Y467.131 Z-7.882
N10900 Y453.592 Z-6.868
N10905 Y440.027 Z-6.009
N10910 Y424.478 Z-5.198
N10915 Y406.826 Z-4.479
N10920 Y389.742 Z-3.967
N10925 Y364.533 Z-3.5
N10930 Y338.423 Z-3.343
N10935 Y311.304 Z-3.488
N10940 Y272.59 Z-4.113
N10945 Y214.068 Z-5.393
N10950 Y161.849 Z-6.846
N10955 Y129.627 Z-7.926
N10960 Y99.935 Z-9.083
N10965 Y74.531 Z-10.241
N10970 Y53.51 Z-11.369
N10975 Y36.091 Z-12.483
N10980 Y23.451 Z-13.456
N10985 Y13.983 Z-14.34
N10990 Y11.226 Z-14.678
N10995 Y9.284 Z-15.198
N11000 Y7.789 Z-15.825
N11005 Y6.366 Z-16.633
N11010 Y5.039 Z-17.619
N11015 Y3.826 Z-18.775
N11020 Y2.75 Z-20.095
N11025 Y1.828 Z-21.578
N11030 Y1.079 Z-23.233
N11035 Y0.545 Z-25.
N11040 Y-4.
N11045 G2 Y-4.419 Z-24.903 J0. K0.952
N11050 G3 Y-4.838 Z-24.806 J-0.419 K-0.855
N11055 G17 G2 X-1.858 Y-7.696 I-2.858 J0.
N11060 G1 X-4.14
N11065 G2 X-6.998 Y-4.838 I0. J2.858
N11070 G19 G2 Y-4.419 Z-24.903 J0. K-0.952
N11075 G3 Y-4. Z-25. J0.419 K0.855
N11080 G1 Y0.551
N11085 Y0.806 Z-24.061
N11090 Y1.457 Z-22.337
N11095 Y2.291 Z-20.788
N11100 Y3.29 Z-19.397
N11105 Y4.434 Z-18.165
N11110 Y5.703 Z-17.098
N11115 Y7.078 Z-16.203
N11120 Y8.537 Z-15.487
N11125 Y10.058 Z-14.955
N11130 Y11.619 Z-14.609
N11135 Y18.715 Z-13.876
N11140 Y29.769 Z-12.947
N11145 Y43.997 Z-11.952
N11150 Y63.077 Z-10.832
N11155 Y86.273 Z-9.683
N11160 Y113.751 Z-8.522
N11165 Y145.66 Z-7.368
N11170 Y181.656 Z-6.256
N11175 Y236.577 Z-4.861
N11180 Y295.098 Z-3.71
N11185 Y324.809 Z-3.377
N11190 Y352.977 Z-3.392
N11195 Y378.186 Z-3.713
N11200 Y402.495 Z-4.335
N11205 Y425.004 Z-5.224
N11210 Y439.294 Z-5.969
N11215 Y453.4 Z-6.857
N11220 Y465.718 Z-7.772
N11225 Y478.024 Z-8.83
N11230 Y488.56 Z-9.866
N11235 Y499.081 Z-11.035
N11240 Y509.585 Z-12.357
N11245 Y518.319 Z-13.59
N11250 Y526.855 Z-14.93
N11255 Y535.543 Z-16.458
N11260 Y542.468 Z-17.813
N11265 Y549.362 Z-19.308
N11270 Y554.507 Z-20.537
N11275 Y559.623 Z-21.874
N11280 Y564.703 Z-23.338
N11285 Y569.787 Z-24.973
N11290 Y604. Z-25.
N11295 G3 Y604.42 Z-24.903 J0.001 K0.952
N11300 G2 Y604.839 Z-24.806 J0.419 K-0.855
N11305 G17 G3 X-9.855 Y607.697 I-2.858 J0.
N11310 G1 X-12.138
N11315 G3 X-14.995 Y604.839 I0. J-2.857
N11320 G1 Y604.838
N11325 G19 G3 Y604.419 Z-24.903 J0. K-0.952
N11330 G2 Y604. Z-25. J-0.419 K0.855
N11335 G1 Y569.759 Z-24.998
N11340 Y564.731 Z-23.373
N11345 Y559.652 Z-21.904
N11350 Y554.537 Z-20.565
N11355 Y549.392 Z-19.333
N11360 Y542.499 Z-17.835
N11365 Y535.574 Z-16.478
N11370 Y526.886 Z-14.949
N11375 Y518.172 Z-13.58
N11380 Y509.438 Z-12.348
N11385 Y498.716 Z-11.002
N11390 Y488.413 Z-9.86
N11395 Y477.877 Z-8.825
N11400 Y465.571 Z-7.767
N11405 Y453.253 Z-6.853
N11410 Y439.147 Z-5.966
N11415 Y424.858 Z-5.222
N11420 Y402.35 Z-4.334
N11425 Y378.041 Z-3.713
N11430 Y352.832 Z-3.392
N11435 Y324.809 Z-3.377
N11440 Y295.098 Z-3.71
N11445 Y236.577 Z-4.861
N11450 Y181.656 Z-6.256
N11455 Y145.66 Z-7.368
N11460 Y113.751 Z-8.522
N11465 Y86.273 Z-9.683
N11470 Y63.077 Z-10.832
N11475 Y43.997 Z-11.952
N11480 Y29.769 Z-12.947
N11485 Y18.715 Z-13.876
N11490 Y11.619 Z-14.61
N11495 Y10.058 Z-14.956
N11500 Y8.537 Z-15.489
N11505 Y7.079 Z-16.206
N11510 Y5.705 Z-17.102
N11515 Y4.436 Z-18.17
N11520 Y3.293 Z-19.403
N11525 Y2.295 Z-20.796
N11530 Y1.461 Z-22.345
N11535 Y0.812 Z-24.07
N11540 Y0.56 Z-25.
N11545 Y-4.
N11550 G2 Y-4.419 Z-24.903 J0. K0.952
N11555 G3 Y-4.838 Z-24.806 J-0.419 K-0.855
N11560 G17 G2 X-17.853 Y-7.696 I-2.858 J0.
N11565 G1 X-20.135
N11570 G2 X-22.993 Y-4.838 I0. J2.858
N11575 G19 G2 Y-4.419 Z-24.903 J0. K-0.952
N11580 G3 Y-4. Z-25. J0.419 K0.855
N11585 G1 Y0.57
N11590 Y0.818 Z-24.08
N11595 Y1.466 Z-22.354
N11600 Y2.299 Z-20.804
N11605 Y3.296 Z-19.411
N11610 Y4.438 Z-18.176
N11615 Y5.706 Z-17.107
N11620 Y7.08 Z-16.21
N11625 Y8.538 Z-15.492
N11630 Y10.058 Z-14.958
N11635 Y11.619 Z-14.61
N11640 Y18.715 Z-13.876
N11645 Y29.769 Z-12.947
N11650 Y43.997 Z-11.952
N11655 Y63.077 Z-10.832
N11660 Y86.274 Z-9.683
N11665 Y113.751 Z-8.522
N11670 Y145.66 Z-7.368
N11675 Y186.158 Z-6.129
N11680 Y241.979 Z-4.741
N11685 Y299.6 Z-3.638
N11690 Y328.411 Z-3.362
N11695 Y350.755 Z-3.38
N11700 Y376.865 Z-3.696
N11705 Y401.174 Z-4.302
N11710 Y424.133 Z-5.198
N11715 Y438.883 Z-5.963
N11720 Y452.987 Z-6.849
N11725 Y465.305 Z-7.761
N11730 Y477.611 Z-8.817
N11735 Y488.147 Z-9.851
N11740 Y498.669 Z-11.017
N11745 Y509.173 Z-12.337
N11750 Y517.908 Z-13.566
N11755 Y526.567 Z-14.925
N11760 Y535.31 Z-16.462
N11765 Y542.233 Z-17.817
N11770 Y549.127 Z-19.313
N11775 Y555.981 Z-20.979
N11780 Y561.084 Z-22.363
N11785 Y566.145 Z-23.887
N11790 Y569.487 Z-25.
N11795 Y604.
N11800 G3 Y604.419 Z-24.903 J0. K0.952
N11805 G2 Y604.838 Z-24.806 J0.419 K-0.855
N11810 G17 G3 X-25.85 Y607.696 I-2.858 J0.
N11815 G1 X-28.133
N11820 G3 X-30.99 Y604.838 I0. J-2.857
N11825 G19 G3 Y604.419 Z-24.903 J0. K-0.952
N11830 G2 Y604. Z-25. J-0.419 K0.855
N11835 G1 Y568.869 Z-24.998
N11840 Y564.661 Z-23.581
N11845 Y559.597 Z-22.065
N11850 Y554.491 Z-20.696
N11855 Y549.352 Z-19.446
N11860 Y542.463 Z-17.933
N11865 Y535.54 Z-16.565
N11870 Y528.594 Z-15.32
N11875 Y519.628 Z-13.873
N11880 Y511.335 Z-12.672
N11885 Y500.837 Z-11.314
N11890 Y490.318 Z-10.113
N11895 Y479.785 Z-9.049
N11900 Y467.482 Z-7.961
N11905 Y455.166 Z-7.022
N11910 Y441.068 Z-6.109
N11915 Y426.82 Z-5.344
N11920 Y404.312 Z-4.42
N11925 Y380.003 Z-3.764
N11930 Y354.794 Z-3.415
N11935 Y327.511 Z-3.366
N11940 Y297.8 Z-3.664
N11945 Y238.378 Z-4.82
N11950 Y183.457 Z-6.205
N11955 Y145.66 Z-7.368
N11960 Y113.751 Z-8.522
N11965 Y86.274 Z-9.683
N11970 Y63.077 Z-10.832
N11975 Y43.997 Z-11.952
N11980 Y29.769 Z-12.947
N11985 Y18.715 Z-13.876
N11990 Y12.407 Z-14.507
N11995 Y10.832 Z-14.775
N12000 Y9.289 Z-15.232
N12005 Y7.799 Z-15.875
N12010 Y6.384 Z-16.699
N12015 Y5.066 Z-17.7
N12020 Y3.865 Z-18.871
N12025 Y2.801 Z-20.206
N12030 Y1.894 Z-21.703
N12035 Y1.162 Z-23.375
N12040 Y0.684 Z-25.
N12045 Y-4.
N12050 G2 Y-4.419 Z-24.903 J0. K0.952
N12055 G3 Y-4.838 Z-24.806 J-0.419 K-0.855
N12060 G17 G2 X-33.848 Y-7.696 I-2.858 J0.
N12065 G1 X-36.13
N12070 G2 X-38.988 Y-4.838 I0. J2.858
N12075 G19 G2 Y-4.419 Z-24.903 J0. K-0.952
N12080 G3 Y-4. Z-25. J0.419 K0.855
N12085 G1 Y0.846
N12090 Y1.267 Z-23.554
N12095 Y1.979 Z-21.86
N12100 Y2.868 Z-20.345
N12105 Y3.915 Z-18.993
N12110 Y5.102 Z-17.803
N12115 Y6.408 Z-16.783
N12120 Y7.813 Z-15.939
N12125 Y9.296 Z-15.276
N12130 Y10.835 Z-14.798
N12135 Y12.407 Z-14.508
N12140 Y18.715 Z-13.876
N12145 Y29.769 Z-12.947
N12150 Y45.58 Z-11.851
N12155 Y64.679 Z-10.747
N12160 Y87.915 Z-9.608
N12165 Y115.552 Z-8.452
N12170 Y146.56 Z-7.338
N12175 Y187.959 Z-6.079
N12180 Y243.78 Z-4.701
N12185 Y300.501 Z-3.626
N12190 Y328.411 Z-3.365
N12195 Y355.105 Z-3.425
N12200 Y380.314 Z-3.783
N12205 Y404.623 Z-4.45
N12210 Y427.132 Z-5.386
N12215 Y441.372 Z-6.158
N12220 Y455.467 Z-7.079
N12225 Y467.782 Z-8.027
N12230 Y480.085 Z-9.125
N12235 Y490.617 Z-10.198
N12240 Y502.01 Z-11.517
N12245 Y511.632 Z-12.783
N12250 Y520.359 Z-14.066
N12255 Y529.063 Z-15.495
N12260 Y536.005 Z-16.76
N12265 Y543.03 Z-18.177
N12270 Y549.802 Z-19.708
N12275 Y554.93 Z-20.997
N12280 Y560.021 Z-22.421
N12285 Y563.716 Z-23.586
N12290 Y567.311 Z-24.969
N12295 Y604. Z-25.
N12300 G3 Y604.42 Z-24.903 J0.001 K0.952
N12305 G2 Y604.839 Z-24.806 J0.419 K-0.855
N12310 G17 G3 X-41.845 Y607.697 I-2.857 J0.
N12315 G1 X-44.128
N12320 G3 X-46.985 Y604.839 I0. J-2.857
N12325 G1 Y604.838
N12330 G19 G3 Y604.419 Z-24.903 J0. K-0.952
N12335 G2 Y604. Z-25. J-0.419 K0.855
N12340 G1 Y563.387 Z-24.999
N12345 Y560.262 Z-23.343
N12350 Y557.232 Z-22.116
N12355 Y553.253 Z-20.883
N12360 Y549.847 Z-19.985
N12365 Y543.842 Z-18.573
N12370 Y537.802 Z-17.299
N12375 Y530.868 Z-15.979
N12380 Y521.917 Z-14.45
N12385 Y513.634 Z-13.183
N12390 Y504.894 Z-11.983
N12395 Y494.386 Z-10.703
N12400 Y483.86 Z-9.57
N12405 Y471.562 Z-8.412
N12410 Y459.251 Z-7.411
N12415 Y445.168 Z-6.437
N12420 Y430.994 Z-5.62
N12425 Y409.403 Z-4.653
N12430 Y385.994 Z-3.933
N12435 Y360.785 Z-3.491
N12440 Y333.775 Z-3.355
N12445 Y306.803 Z-3.538
N12450 Y255.484 Z-4.453
N12455 Y198.763 Z-5.785
N12460 Y149.247 Z-7.249
N12465 Y118.157 Z-8.351
N12470 Y89.561 Z-9.534
N12475 Y66.284 Z-10.662
N12480 Y47.164 Z-11.752
N12485 Y31.35 Z-12.827
N12490 Y20.293 Z-13.732
N12495 Y12.309 Z-14.529
N12500 Y10.839 Z-14.833
N12505 Y9.307 Z-15.34
N12510 Y7.835 Z-16.031
N12515 Y6.443 Z-16.902
N12520 Y5.154 Z-17.949
N12525 Y3.987 Z-19.163
N12530 Y2.963 Z-20.541
N12535 Y2.1 Z-22.081
N12540 Y1.417 Z-23.806
N12545 Y1.084 Z-25.
N12550 Y-4.
N12555 G2 Y-4.419 Z-24.903 J0. K0.952
N12560 G3 Y-4.838 Z-24.806 J-0.419 K-0.855
N12565 G17 G2 X-49.843 Y-7.696 I-2.858 J0.
N12570 G1 X-52.125
N12575 G2 X-54.983 Y-4.838 I0. J2.858
N12580 G19 G2 Y-4.419 Z-24.903 J0. K-0.952
N12585 G3 Y-4. Z-25. J0.419 K0.855
N12590 G1 Y1.467
N12595 Y1.973 Z-23.276
N12600 Y2.702 Z-21.628
N12605 Y3.609 Z-20.145
N12610 Y4.673 Z-18.821
N12615 Y5.874 Z-17.659
N12620 Y7.193 Z-16.667
N12625 Y8.609 Z-15.852
N12630 Y10.569 Z-15.057
N12635 Y12.998 Z-14.469
N12640 Y17.138 Z-14.025
N12645 Y28.19 Z-13.069
N12650 Y42.416 Z-12.054
N12655 Y61.478 Z-10.919
N12660 Y84.473 Z-9.766
N12665 Y112.054 Z-8.589
N12670 Y142.986 Z-7.459
N12675 Y178.055 Z-6.36
N12680 Y232.976 Z-4.942
N12685 Y291.497 Z-3.771
N12690 Y320.308 Z-3.41
N12695 Y347.342 Z-3.397
N12700 Y372.551 Z-3.682
N12705 Y396.86 Z-4.265
N12710 Y419.368 Z-5.111
N12715 Y434.604 Z-5.876
N12720 Y448.725 Z-6.742
N12725 Y461.044 Z-7.636
N12730 Y473.352 Z-8.672
N12735 Y483.891 Z-9.689
N12740 Y494.415 Z-10.841
N12745 Y504.045 Z-12.032
N12750 Y513.656 Z-13.371
N12755 Y522.37 Z-14.739
N12760 Y531.055 Z-16.268
N12765 Y536.248 Z-17.285
N12770 Y541.417 Z-18.418
N12775 Y545.665 Z-19.547
N12780 Y549.328 Z-20.83
N12785 Y553.965 Z-22.91
N12790 Y557.563 Z-24.999
N12795 Y604. Z-25.
N12800 G3 Y604.419 Z-24.903 J0. K0.952
N12805 G2 Y604.838 Z-24.806 J0.419 K-0.855
N12810 G17 G3 X-57.84 Y607.696 I-2.857 J0.
N12815 G1 X-60.123
N12820 G3 X-62.98 Y604.838 I0. J-2.857
N12825 G19 G3 Y604.419 Z-24.903 J0. K-0.952
N12830 G2 Y604. Z-25. J-0.419 K0.855
N12835 G1 Y549.93 Z-24.999
N12840 Y547.255 Z-23.291
N12845 Y544.146 Z-21.705
N12850 Y540.959 Z-20.246
N12855 Y537.678 Z-19.014
N12860 Y533.497 Z-17.621
N12865 Y529.253 Z-16.496
N12870 Y524.078 Z-15.419
N12875 Y518.87 Z-14.483
N12880 Y511.902 Z-13.373
N12885 Y503.168 Z-12.135
N12890 Y492.664 Z-10.823
N12895 Y482.14 Z-9.671
N12900 Y471.601 Z-8.655
N12905 Y459.293 Z-7.621
N12910 Y445.213 Z-6.613
N12915 Y431.07 Z-5.771
N12920 Y416.714 Z-5.068
N12925 Y394.351 Z-4.24
N12930 Y370.042 Z-3.674
N12935 Y343.933 Z-3.394
N12940 Y316.707 Z-3.432
N12945 Y283.395 Z-3.914
N12950 Y224.873 Z-5.131
N12955 Y170.853 Z-6.572
N12960 Y138.523 Z-7.611
N12965 Y107.664 Z-8.764
N12970 Y80.304 Z-9.961
N12975 Y58.286 Z-11.096
N12980 Y40.834 Z-12.158
N12985 Y26.61 Z-13.195
N12990 Y17.927 Z-13.956
N12995 Y15.382 Z-14.444
N13000 Y13.012 Z-15.261
N13005 Y10.852 Z-16.381
N13010 Y8.889 Z-17.816
N13015 Y7.311 Z-19.402
N13020 Y6.066 Z-21.113
N13025 Y5.071 Z-23.087
N13030 Y4.465 Z-25.
N13035 Y-4.
N13040 G2 Y-4.419 Z-24.903 J0. K0.952
N13045 G3 Y-4.838 Z-24.806 J-0.419 K-0.855
N13050 G17 G2 X-65.838 Y-7.696 I-2.858 J0.
N13055 G1 X-68.12
N13060 G2 X-70.978 Y-4.838 I0. J2.858
N13065 G19 G2 Y-4.419 Z-24.903 J0. K-0.952
N13070 G3 Y-4. Z-25. J0.419 K0.855
N13075 G1 Y8.962
N13080 Y9.183 Z-24.137
N13085 Y9.899 Z-22.246
N13090 Y11.022 Z-20.326
N13095 Y12.369 Z-18.691
N13100 Y13.578 Z-17.558
N13105 Y15.559 Z-16.132
N13110 Y17.716 Z-15.001
N13115 Y19.972 Z-14.17
N13120 Y22.313 Z-13.632
N13125 Y29.416 Z-12.974
N13130 Y45.226 Z-11.873
N13135 Y64.324 Z-10.766
N13140 Y85.915 Z-9.699
N13145 Y113.392 Z-8.536
N13150 Y143.52 Z-7.439
N13155 Y180.388 Z-6.29
N13160 Y235.308 Z-4.887
N13165 Y294.73 Z-3.712
N13170 Y321.74 Z-3.401
N13175 Y347.85 Z-3.434
N13180 Y373.059 Z-3.765
N13185 Y397.368 Z-4.4
N13190 Y419.876 Z-5.3
N13195 Y435.051 Z-6.104
N13200 Y447.389 Z-6.892
N13205 Y459.707 Z-7.811
N13210 Y472.012 Z-8.882
N13215 Y482.546 Z-9.937
N13220 Y492.187 Z-11.045
N13225 Y500.931 Z-12.205
N13230 Y508.761 Z-13.486
N13235 Y514.047 Z-14.621
N13240 Y520.564 Z-16.376
N13245 Y523.923 Z-17.408
N13250 Y529.908 Z-19.613
N13255 Y533.465 Z-21.147
N13260 Y537.584 Z-23.323
N13265 Y540.167 Z-25.
N13270 Y604.
N13275 G3 Y604.419 Z-24.903 J0. K0.952
N13280 G2 Y604.838 Z-24.806 J0.419 K-0.855
N13285 G1 Y604.839
N13290 G17 G3 X-73.835 Y607.696 I-2.857 J0.
N13295 G1 X-76.118
N13300 G3 X-78.975 Y604.839 I0. J-2.857
N13305 G19 G3 Y604.42 Z-24.903 J0. K-0.952
N13310 G2 Y604. Z-25. J-0.419 K0.855
N13315 G1 Y527.361 Z-24.965
N13320 Y524.498 Z-23.091
N13325 Y522.237 Z-21.782
N13330 Y519.08 Z-20.294
N13335 Y514.2 Z-18.28
N13340 Y509.731 Z-16.763
N13345 Y502.601 Z-14.701
N13350 Y496.93 Z-13.327
N13355 Y488.138 Z-11.549
N13360 Y481.179 Z-10.401
N13365 Y473.305 Z-9.402
N13370 Y465.408 Z-8.588
N13375 Y453.323 Z-7.538
N13380 Y440.784 Z-6.63
N13385 Y428.435 Z-5.873
N13390 Y414.119 Z-5.145
N13395 Y391.61 Z-4.284
N13400 Y367.301 Z-3.687
N13405 Y341.192 Z-3.386
N13410 Y315.982 Z-3.397
N13415 Y282.67 Z-3.895
N13420 Y223.248 Z-5.149
N13425 Y169.228 Z-6.609
N13430 Y136.916 Z-7.663
N13435 Y105.363 Z-8.857
N13440 Y79.686 Z-9.991
N13445 Y59.771 Z-11.024
N13450 Y49.895 Z-11.812
N13455 Y41.236 Z-12.833
N13460 Y33.904 Z-14.056
N13465 Y27.611 Z-15.456
N13470 Y22.175 Z-17.029
N13475 Y20.392 Z-17.682
N13480 Y18.954 Z-18.479
N13485 Y17.641 Z-19.518
N13490 Y16.492 Z-20.792
N13495 Y15.543 Z-22.299
N13500 Y14.835 Z-24.044
N13505 Y14.56 Z-25.
N13510 Y-4.
N13515 G2 Y-4.419 Z-24.903 J0. K0.952
N13520 G3 Y-4.838 Z-24.806 J-0.419 K-0.855
N13525 G17 G2 X-81.833 Y-7.696 I-2.857 J0.
N13530 G1 X-84.116
N13535 G2 X-86.973 Y-4.838 I0. J2.858
N13540 G19 G2 Y-4.419 Z-24.903 J0. K-0.952
N13545 G3 Y-4. Z-25. J0.419 K0.855
N13550 G1 Y35.311
N13555 Y36.131 Z-23.888
N13560 Y37.109 Z-22.731
N13565 Y38.869 Z-21.282
N13570 Y41.048 Z-19.913
N13575 Y44.165 Z-18.425
N13580 Y47.894 Z-17.034
N13585 Y52.845 Z-15.567
N13590 Y59.025 Z-14.115
N13595 Y66.823 Z-12.68
N13600 Y75.455 Z-11.45
N13605 Y85.697 Z-10.341
N13610 Y98.336 Z-9.347
N13615 Y112.834 Z-8.566
N13620 Y142.482 Z-7.47
N13625 Y178.409 Z-6.329
N13630 Y232.429 Z-4.914
N13635 Y291.851 Z-3.699
N13640 Y319.311 Z-3.345
N13645 Y343.609 Z-3.411
N13650 Y369.719 Z-3.802
N13655 Y391.327 Z-4.408
N13660 Y413.486 Z-5.34
N13665 Y426.194 Z-6.109
N13670 Y438.506 Z-7.084
N13675 Y449.03 Z-8.223
N13680 Y459.164 Z-9.582
N13685 Y467.878 Z-10.932
N13690 Y476.355 Z-12.59
N13695 Y483.68 Z-14.182
N13700 Y489.208 Z-15.651
N13705 Y494.926 Z-17.423
N13710 Y499.067 Z-18.868
N13715 Y502.286 Z-20.239
N13720 Y506.219 Z-22.179
N13725 Y508.452 Z-23.474
N13730 Y510.529 Z-24.97
N13735 Y604. Z-25.
N13740 G3 Y604.419 Z-24.903 J0. K0.952
N13745 G2 Y604.839 Z-24.806 J0.419 K-0.855
N13750 G17 G3 X-89.831 Y607.696 I-2.857 J0.
N13755 G1 X-92.113
N13760 G3 X-94.971 Y604.839 I0. J-2.857
N13765 G19 G3 Y604.419 Z-24.903 J0. K-0.952
N13770 G2 Y604. Z-25. J-0.419 K0.855
N13775 G1 Y486.882 Z-24.981
N13780 Y485.156 Z-23.758
N13785 Y481.854 Z-21.751
N13790 Y478.79 Z-20.305
N13795 Y475.518 Z-19.048
N13800 Y468.591 Z-16.715
N13805 Y463.067 Z-15.24
N13810 Y457.905 Z-14.089
N13815 Y449.621 Z-12.386
N13820 Y441.308 Z-10.965
N13825 Y433.937 Z-9.942
N13830 Y423.79 Z-8.673
N13835 Y411.511 Z-7.353
N13840 Y397.442 Z-6.217
N13845 Y383.885 Z-5.338
N13850 Y366.97 Z-4.482
N13855 Y348.007 Z-3.882
N13860 Y325.948 Z-3.53
N13865 Y311.093 Z-3.536
N13870 Y279.694 Z-3.981
N13875 Y229.163 Z-5.049
N13880 Y194.08 Z-6.056
N13885 Y168.595 Z-7.075
N13890 Y148.963 Z-8.159
N13895 Y133.553 Z-9.296
N13900 Y120.935 Z-10.529
N13905 Y109.926 Z-11.902
N13910 Y100.919 Z-13.305
N13915 Y93.099 Z-14.861
N13920 Y87.952 Z-16.101
N13925 Y83.391 Z-17.493
N13930 Y78.942 Z-19.225
N13935 Y76.774 Z-20.292
N13940 Y74.907 Z-21.52
N13945 Y72.744 Z-23.405
N13950 Y72.05 Z-24.36
N13955 Y71.773 Z-25.
N13960 Y-4.
N13965 G2 Y-4.419 Z-24.903 J0. K0.952
N13970 G3 Y-4.838 Z-24.806 J-0.419 K-0.855
N13975 G17 G2 X-97.828 Y-7.696 I-2.857 J0.
N13980 G1 X-100.111
N13985 G2 X-102.968 Y-4.838 I0. J2.858
N13990 G19 G2 Y-4.419 Z-24.903 J0. K-0.952
N13995 G3 Y-4. Z-25. J0.419 K0.855
N14000 G1 Y123.285
N14005 Y124.151 Z-23.781
N14010 Y125.035 Z-22.744
N14015 Y126.383 Z-21.777
N14020 Y127.815 Z-21.023
N14025 Y131.842 Z-19.314
N14030 Y135.235 Z-18.159
N14035 Y139.933 Z-16.93
N14040 Y147.172 Z-15.367
N14045 Y154.198 Z-14.115
N14050 Y163.62 Z-12.815
N14055 Y174.573 Z-11.588
N14060 Y187.197 Z-10.426
N14065 Y203.809 Z-9.272
N14070 Y224.402 Z-8.246
N14075 Y242.875 Z-7.584
N14080 Y267.184 Z-6.987
N14085 Y291.493 Z-6.685
N14090 Y313.101 Z-6.706
N14095 Y327.506 Z-6.975
N14100 Y346.413 Z-7.64
N14105 Y362.448 Z-8.487
N14110 Y376.525 Z-9.52
N14115 Y386.711 Z-10.444
N14120 Y397.065 Z-11.5
N14125 Y407.569 Z-12.802
N14130 Y416.274 Z-14.192
N14135 Y424.582 Z-15.808
N14140 Y430.607 Z-17.111
N14145 Y435.701 Z-18.481
N14150 Y439.514 Z-19.785
N14155 Y444.078 Z-21.623
N14160 Y446.493 Z-22.794
N14165 Y448.221 Z-23.971
N14170 Y449.252 Z-25.
N14175 Y604.
N14180 G3 Y604.419 Z-24.903 J0. K0.952
N14185 G2 Y604.838 Z-24.806 J0.419 K-0.855
N14190 G17 G3 X-105.826 Y607.696 I-2.858 J0.
N14195 G1 X-108.108
N14200 G3 X-110.966 Y604.838 I0. J-2.857
N14205 G19 G3 Y604.419 Z-24.903 J0. K-0.952
N14210 G2 Y604. Z-25. J-0.419 K0.855
N14215 G1 Y360.467
N14220 Y360.46 Z-24.735
N14225 Y360.01 Z-24.06
N14230 Y359.109 Z-23.544
N14235 Y352.87 Z-21.22
N14240 Y350.602 Z-20.634
N14245 Y344.975 Z-19.627
N14250 Y337.725 Z-18.742
N14255 Y329.477 Z-18.007
N14260 Y324.378 Z-17.619
N14265 Y317.515 Z-17.16
N14270 Y305.562 Z-16.663
N14275 Y295.209 Z-16.469
N14280 Y285.305 Z-16.483
N14285 Y275.401 Z-16.678
N14290 Y264.76 Z-17.103
N14295 Y255.193 Z-17.687
N14300 Y246.577 Z-18.383
N14305 Y237.55 Z-19.347
N14310 Y231.14 Z-20.352
N14315 Y227.577 Z-21.242
N14320 Y225.07 Z-22.18
N14325 Y222.343 Z-23.36
N14330 Y221.981 Z-23.548
N14335 Y221.212 Z-24.146
N14340 Y221.022 Z-24.617
N14345 Y221.021 Z-25.
N14350 Y-4.
N14355 G2 Y-4.419 Z-24.903 J0. K0.952
N14360 G3 Y-4.838 Z-24.806 J-0.419 K-0.855
N14365 G17 G2 X-113.823 Y-7.696 I-2.857 J0.
N14370 G1 X-116.106
N14375 G2 X-118.963 Y-4.838 I0. J2.858
N14380 G19 G2 Y-4.419 Z-24.903 J0. K-0.952
N14385 G3 Y-4. Z-25. J0.419 K0.855
N14390 G1 Y604.
N14395 G3 Y604.419 Z-24.903 J0. K0.952
N14400 G2 Y604.838 Z-24.806 J0.419 K-0.855
N14405 G17 G3 X-121.821 Y607.696 I-2.857 J0.
N14410 G1 X-124.103
N14415 G3 X-126.961 Y604.838 I0. J-2.857
N14420 G1 Y604.304
N14425 G19 G3 Y603.885 Z-24.903 J0. K-0.952
N14430 G2 Y603.466 Z-25. J-0.419 K0.855
N14435 G1 Y-3.466
N14440 G2 Y-5.371 Z-23.095 J0. K1.905 F1000.
N14445 G0 Z15.
N14450 G17
(PARALLEL3 4)
N14455 G0 X129. Y298.182
N14460 Z15.
N14465 Z-38.095
N14470 G19 G2 Y296.277 Z-40. J-1.905 K0. F1000.
N14475 G1 Y282.655 F3000.
N14480 G2 Y280.75 Z-38.095 J0. K1.905 F1000.
N14485 G0 Z5.
N14490 X126. Y190.102
N14495 Z-38.095
N14500 G3 Y192.007 Z-40. J1.905 K0. F1000.
N14505 G1 Y389.817 F3000.
N14510 Y425.208
N14515 G17 G3 X123.001 I-1.5 J0.
N14520 G1 Y153.94
N14525 G19 G2 Y153.521 Z-39.903 J0. K0.952
N14530 G3 Y153.102 Z-39.806 J-0.419 K-0.855
N14535 G1 Y125.
N14540 G17 G2 X120.001 I-1.5 J0.
N14545 G19 G2 Y125.419 Z-39.903 J0. K-0.953
N14550 G3 Y125.838 Z-40. J0.419 K0.855
N14555 G1 Y449.15
N14560 G3 Y449.569 Z-39.903 J0. K0.952
N14565 G2 Y449.988 Z-39.806 J0.419 K-0.855
N14570 G1 Y468.191
N14575 G17 G3 X117.001 I-1.5 J0.
N14580 G19 G3 Y467.772 Z-39.903 J0. K-0.953
N14585 G2 Y467.353 Z-40. J-0.419 K0.855
N14590 G1 Y103.015
N14595 G2 Y102.596 Z-39.903 J0. K0.952
N14600 G3 Y102.176 Z-39.806 J-0.419 K-0.855
N14605 G1 Y82.807
N14610 G17 G2 X114.002 I-1.5 J0.
N14615 G19 G2 Y83.226 Z-39.903 J0. K-0.953
N14620 G3 Y83.645 Z-40. J0.419 K0.855
N14625 G1 Y482.113
N14630 G3 Y482.532 Z-39.903 J0. K0.952
N14635 G2 Y482.951 Z-39.806 J0.419 K-0.855
N14640 G1 Y495.334
N14645 G17 G3 X111.002 I-1.5 J0.
N14650 G19 G3 Y494.915 Z-39.903 J0. K-0.953
N14655 G2 Y494.496 Z-40. J-0.419 K0.855
N14660 G1 Y66.751
N14665 G2 Y66.332 Z-39.903 J0. K0.952
N14670 G3 Y65.913 Z-39.806 J-0.419 K-0.855
N14675 G1 Y50.945
N14680 G17 G2 X108.002 I-1.5 J0.
N14685 G19 G2 Y51.364 Z-39.903 J0. K-0.953
N14690 G3 Y51.784 Z-40. J0.419 K0.855
N14695 G1 Y234.695
N14700 Y234.722 Z-24.524
N14705 Y234.991 Z-24.097
N14710 Y235.636 Z-23.73
N14715 Y239.007 Z-22.546
N14720 Y242.68 Z-21.513
N14725 Y246.269 Z-20.854
N14730 Y252.989 Z-20.107
N14735 Y261.128 Z-19.514
N14740 Y268.591 Z-19.126
N14745 Y275.464 Z-18.87
N14750 Y285.538 Z-18.662
N14755 Y295.613 Z-18.653
N14760 Y304.986 Z-18.834
N14765 Y315.763 Z-19.262
N14770 Y326.231 Z-19.979
N14775 Y333.753 Z-20.864
N14780 Y336.501 Z-21.358
N14785 Y343.013 Z-23.147
N14790 Y344.896 Z-23.771
N14795 Y345.681 Z-24.242
N14800 Y345.854 Z-24.585
N14805 Z-40.
N14810 Y505.134
N14815 G3 Y505.553 Z-39.903 J0. K0.952
N14820 G2 Y505.973 Z-39.806 J0.419 K-0.855
N14825 G1 Y515.273
N14830 G17 G3 X105.003 I-1.5 J0.
N14835 G19 G3 Y514.853 Z-39.903 J0. K-0.953
N14840 G2 Y514.434 Z-40. J-0.419 K0.855
N14845 G1 Y401.916
N14850 Y401.868 Z-25.567
N14855 Y401.48 Z-24.993
N14860 Y398.619 Z-22.982
N14865 Y397.386 Z-22.339
N14870 Y394.863 Z-21.429
N14875 Y390.092 Z-20.272
N14880 Y382.145 Z-18.621
N14885 Y374.249 Z-17.389
N14890 Y364.264 Z-16.283
N14895 Y355.565 Z-15.508
N14900 Y344.96 Z-14.691
N14905 Y331.132 Z-13.87
N14910 Y317.182 Z-13.321
N14915 Y301.682 Z-13.097
N14920 Y283.083 Z-13.141
N14925 Y263.708 Z-13.491
N14930 Y246.413 Z-14.098
N14935 Y231.258 Z-14.937
N14940 Y222.406 Z-15.62
N14945 Y213.638 Z-16.42
N14950 Y206.022 Z-17.216
N14955 Y197.975 Z-18.32
N14960 Y191.885 Z-19.53
N14965 Y185.936 Z-20.934
N14970 Y183.647 Z-21.695
N14975 Y182.381 Z-22.295
N14980 Y179.85 Z-24.171
N14985 Y179.598 Z-24.443
N14990 Y179.377 Z-25.025
N14995 Y179.376 Z-40.
N15000 Y38.37
N15005 G2 Y37.951 Z-39.903 J0. K0.952
N15010 G3 Y37.532 Z-39.806 J-0.419 K-0.855
N15015 G1 Y25.391
N15020 G17 G2 X102.003 I-1.5 J0.
N15025 G19 G2 Y25.81 Z-39.903 J0. K-0.953
N15030 G3 Y26.229 Z-40. J0.419 K0.855
N15035 G1 Y145.552
N15040 Z-25.476
N15045 Y145.687 Z-24.956
N15050 Y145.945 Z-24.584
N15055 Y147.285 Z-23.136
N15060 Y148.268 Z-22.392
N15065 Y149.833 Z-21.623
N15070 Y154.169 Z-20.105
N15075 Y157.452 Z-19.127
N15080 Y162.122 Z-18.094
N15085 Y169.147 Z-16.858
N15090 Y176.568 Z-15.739
N15095 Y186.056 Z-14.655
N15100 Y196.71 Z-13.714
N15105 Y208.067 Z-12.856
N15110 Y224.881 Z-11.888
N15115 Y246.155 Z-11.059
N15120 Y270.18 Z-10.488
N15125 Y295.754 Z-10.221
N15130 Y315.129 Z-10.3
N15135 Y330.629 Z-10.693
N15140 Y347.678 Z-11.444
N15145 Y359.218 Z-12.136
N15150 Y371.357 Z-13.014
N15155 Y380.438 Z-13.776
N15160 Y391.007 Z-14.912
N15165 Y398.526 Z-15.956
N15170 Y407.526 Z-17.387
N15175 Y413.495 Z-18.494
N15180 Y419.083 Z-19.861
N15185 Y424.715 Z-21.663
N15190 Y427.243 Z-22.61
N15195 Y429.009 Z-23.494
N15200 Y430.107 Z-24.281
N15205 Y431.241 Z-25.435
N15210 Y432.016 Z-26.376
N15215 Y432.196 Z-27.047
N15220 Y432.197 Z-40.
N15225 Y522.689
N15230 G3 Y523.109 Z-39.903 J0. K0.952
N15235 G2 Y523.528 Z-39.806 J0.419 K-0.855
N15240 G1 Y530.906
N15245 G17 G3 X99.003 I-1.5 J0.
N15250 G19 G3 Y530.486 Z-39.903 J0. K-0.953
N15255 G2 Y530.067 Z-40. J-0.419 K0.855
N15260 G1 Y453.614
N15265 Y453.613 Z-28.106
N15270 Y453.538 Z-27.659
N15275 Y453.053 Z-26.789
N15280 Y452.064 Z-25.493
N15285 Y451.205 Z-24.664
N15290 Y450.137 Z-23.952
N15295 Y447.59 Z-22.714
N15300 Y444.244 Z-21.304
N15305 Y440.828 Z-20.106
N15310 Y435.7 Z-18.751
N15315 Y427.733 Z-16.987
N15320 Y421.582 Z-15.826
N15325 Y412.571 Z-14.5
N15330 Y402.021 Z-13.192
N15335 Y392.962 Z-12.205
N15340 Y380.858 Z-11.163
N15345 Y370.181 Z-10.459
N15350 Y356.268 Z-9.693
N15355 Y336.118 Z-8.852
N15360 Y319.068 Z-8.437
N15365 Y299.694 Z-8.388
N15370 Y270.244 Z-8.727
N15375 Y240.795 Z-9.383
N15380 Y216.056 Z-10.228
N15385 Y195.856 Z-11.215
N15390 Y180.927 Z-12.164
N15395 Y167.324 Z-13.277
N15400 Y156.476 Z-14.476
N15405 Y147.535 Z-15.679
N15410 Y140.805 Z-16.811
N15415 Y136.133 Z-17.825
N15420 Y130.679 Z-19.165
N15425 Y127.418 Z-20.214
N15430 Y123.331 Z-21.991
N15435 Y121.802 Z-22.858
N15440 Y120.965 Z-23.598
N15445 Y119.899 Z-25.113
N15450 Y119.716 Z-25.482
N15455 Y119.635 Z-25.942
N15460 Y119.634 Z-40.
N15465 Y15.306
N15470 G2 Y14.887 Z-39.903 J0. K0.952
N15475 G3 Y14.468 Z-39.806 J-0.419 K-0.855
N15480 G1 Y7.97
N15485 G17 G2 X96.004 I-1.5 J0.
N15490 G19 G2 Y8.389 Z-39.903 J0. K-0.953
N15495 G3 Y8.808 Z-40. J0.419 K0.855
N15500 G1 Y98.211
N15505 Y98.272 Z-26.172
N15510 Y99.12 Z-24.329
N15515 Y99.78 Z-23.471
N15520 Y100.916 Z-22.616
N15525 Y102.689 Z-21.577
N15530 Y104.231 Z-20.762
N15535 Y107.121 Z-19.656
N15540 Y112.366 Z-18.128
N15545 Y117.022 Z-17.037
N15550 Y123.735 Z-15.814
N15555 Y131.147 Z-14.631
N15560 Y140.986 Z-13.427
N15565 Y154.361 Z-12.165
N15570 Y169.412 Z-11.111
N15575 Y186.4 Z-10.221
N15580 Y211.693 Z-9.231
N15585 Y246.664 Z-8.266
N15590 Y288.416 Z-7.475
N15595 Y313.99 Z-7.243
N15600 Y331.04 Z-7.417
N15605 Y350.415 Z-7.946
N15610 Y371.339 Z-8.829
N15615 Y385.93 Z-9.713
N15620 Y397.287 Z-10.632
N15625 Y409.384 Z-11.769
N15630 Y417.688 Z-12.662
N15635 Y426.903 Z-13.908
N15640 Y436.459 Z-15.464
N15645 Y443.923 Z-16.845
N15650 Y449.092 Z-18.047
N15655 Y455.67 Z-19.872
N15660 Y458.559 Z-20.778
N15665 Y461.37 Z-21.848
N15670 Y464.091 Z-23.156
N15675 Y466.598 Z-24.517
N15680 Y468.238 Z-25.708
N15685 Y469.031 Z-26.626
N15690 Y470.079 Z-28.397
N15695 Y470.23 Z-29.107
N15700 Y470.231 Z-40.
N15705 Y536.728
N15710 G3 Y537.147 Z-39.903 J0. K0.952
N15715 G2 Y537.566 Z-39.806 J0.419 K-0.855
N15720 G1 Y543.634
N15725 G17 G3 X93.004 I-1.5 J0.
N15730 G19 G3 Y543.215 Z-39.903 J0. K-0.953
N15735 G2 Y542.796 Z-40. J-0.419 K0.855
N15740 G1 Y483.803
N15745 Y483.753 Z-29.659
N15750 Y483.316 Z-28.606
N15755 Y482.735 Z-27.569
N15760 Y482.253 Z-26.914
N15765 Y481.365 Z-26.042
N15770 Y479.761 Z-24.901
N15775 Y477.245 Z-23.394
N15780 Y475.251 Z-22.398
N15785 Y471.741 Z-21.023
N15790 Y466.706 Z-19.343
N15795 Y462.337 Z-18.094
N15800 Y456.419 Z-16.746
N15805 Y448.234 Z-15.081
N15810 Y440.752 Z-13.813
N15815 Y430.971 Z-12.485
N15820 Y420.417 Z-11.204
N15825 Y409.08 Z-10.104
N15830 Y396.199 Z-9.129
N15835 Y383.958 Z-8.348
N15840 Y368.459 Z-7.644
N15845 Y350.634 Z-7.159
N15850 Y325.835 Z-6.882
N15855 Y308.785 Z-6.97
N15860 Y263.836 Z-7.745
N15865 Y206.487 Z-9.067
N15870 Y173.938 Z-10.04
N15875 Y153.859 Z-10.919
N15880 Y137.942 Z-11.905
N15885 Y125.027 Z-13.01
N15890 Y114.185 Z-14.262
N15895 Y105.932 Z-15.471
N15900 Y98.424 Z-16.902
N15905 Y93.751 Z-18.
N15910 Y89.825 Z-19.206
N15915 Y85.989 Z-20.671
N15920 Y84.148 Z-21.634
N15925 Y81.907 Z-23.275
N15930 Y81.364 Z-23.757
N15935 Y80.884 Z-24.337
N15940 Y80.404 Z-25.421
N15945 Y79.952 Z-26.811
N15950 Y79.942 Z-40.
N15955 Y4.754
N15960 G2 Y4.335 Z-39.903 J0. K0.952
N15965 G3 Y3.916 Z-39.806 J-0.419 K-0.855
N15970 G1 Y0.952
N15975 G17 G2 X90.004 I-1.5 J0.
N15980 G19 G2 Y1.372 Z-39.903 J0. K-0.953
N15985 G3 Y1.791 Z-40. J0.419 K0.855
N15990 G1 Y63.922
N15995 Y63.929 Z-27.348
N16000 Y64.466 Z-25.37
N16005 Y65.028 Z-24.354
N16010 Y65.274 Z-24.073
N16015 Y66.522 Z-22.89
N16020 Y67.515 Z-22.081
N16025 Y69.483 Z-20.954
N16030 Y72.622 Z-19.584
N16035 Y75.705 Z-18.53
N16040 Y80.496 Z-17.272
N16045 Y86.507 Z-16.001
N16050 Y94.589 Z-14.691
N16055 Y103.389 Z-13.593
N16060 Y114.51 Z-12.556
N16065 Y128.704 Z-11.618
N16070 Y145.401 Z-10.879
N16075 Y195.388 Z-9.352
N16080 Y251.962 Z-7.977
N16085 Y304.66 Z-6.996
N16090 Y324.035 Z-6.838
N16095 Y349.61 Z-7.013
N16100 Y375.184 Z-7.512
N16105 Y393.009 Z-8.147
N16110 Y406.913 Z-8.884
N16115 Y419.224 Z-9.843
N16120 Y431.882 Z-11.098
N16125 Y440.648 Z-12.117
N16130 Y448.443 Z-13.264
N16135 Y457.437 Z-14.727
N16140 Y463.403 Z-15.848
N16145 Y469.316 Z-17.223
N16150 Y475.2 Z-18.711
N16155 Y479.541 Z-20.038
N16160 Y483.787 Z-21.644
N16165 Y487.249 Z-23.113
N16170 Y489.218 Z-24.19
N16175 Y491.558 Z-25.772
N16180 Y493.188 Z-27.097
N16185 Y494.06 Z-28.123
N16190 Y494.932 Z-29.863
N16195 Y495.182 Z-30.973
N16200 Y495.183 Z-40.
N16205 Y548.309
N16210 G3 Y548.728 Z-39.903 J0. K0.952
N16215 G2 Y549.147 Z-39.806 J0.419 K-0.855
N16220 G1 Y554.258
N16225 G17 G3 X87.005 I-1.5 J0.
N16230 G19 G3 Y553.839 Z-39.903 J0. K-0.953
N16235 G2 Y553.42 Z-40. J-0.419 K0.855
N16240 G1 Y504.98
N16245 Y504.979 Z-31.858
N16250 Y504.79 Z-30.824
N16255 Y504.208 Z-29.44
N16260 Y503.454 Z-28.261
N16265 Y502.164 Z-26.997
N16270 Y499.501 Z-24.972
N16275 Y497.081 Z-23.59
N16280 Y492.43 Z-21.508
N16285 Y489.259 Z-20.304
N16290 Y486.372 Z-19.397
N16295 Y479.431 Z-17.434
N16300 Y473.895 Z-16.147
N16305 Y465.697 Z-14.55
N16310 Y458.97 Z-13.361
N16315 Y452.207 Z-12.399
N16320 Y441.658 Z-11.08
N16325 Y431.838 Z-10.09
N16330 Y421.975 Z-9.365
N16335 Y411.187 Z-8.738
N16340 Y394.234 Z-8.016
N16345 Y372.535 Z-7.367
N16350 Y347.735 Z-6.955
N16355 Y322.936 Z-6.836
N16360 Y301.236 Z-7.046
N16365 Y244.662 Z-8.137
N16370 Y188.863 Z-9.531
N16375 Y139.264 Z-11.083
N16380 Y113.78 Z-12.032
N16385 Y100.374 Z-12.785
N16390 Y89.495 Z-13.702
N16395 Y80.349 Z-14.778
N16400 Y72.598 Z-16.01
N16405 Y66.58 Z-17.248
N16410 Y61.301 Z-18.662
N16415 Y58.062 Z-19.788
N16420 Y55.324 Z-21.046
N16425 Y53.152 Z-22.334
N16430 Y51.917 Z-23.388
N16435 Y50.631 Z-24.882
N16440 Y50.125 Z-25.954
N16445 Y49.695 Z-28.008
N16450 Y49.694 Z-40.
N16455 Y-0.546
N16460 G2 Y-0.965 Z-39.903 J0. K0.952
N16465 G3 Y-1.384 Z-39.806 J-0.419 K-0.855
N16470 G1 Y-3.511
N16475 G17 G2 X84.005 I-1.5 J0.
N16480 G19 G2 Y-3.092 Z-39.903 J0. K-0.953
N16485 G3 Y-2.672 Z-40. J0.419 K0.855
N16490 G1 Y36.918
N16495 Y36.919 Z-28.531
N16500 Y37.277 Z-26.567
N16505 Y37.735 Z-25.455
N16510 Y38.613 Z-24.252
N16515 Y39.633 Z-23.171
N16520 Y41.631 Z-21.749
N16525 Y43.772 Z-20.624
N16530 Y46.315 Z-19.584
N16535 Y50.225 Z-18.334
N16540 Y55.53 Z-17.023
N16545 Y62.239 Z-15.764
N16550 Y69.671 Z-14.72
N16555 Y78.493 Z-13.816
N16560 Y89.494 Z-13.059
N16565 Y104.533 Z-12.395
N16570 Y133.092 Z-11.3
N16575 Y181.141 Z-9.753
N16580 Y236.165 Z-8.335
N16585 Y295.839 Z-7.14
N16590 Y321.414 Z-6.848
N16595 Y346.658 Z-6.931
N16600 Y371.458 Z-7.305
N16605 Y394.707 Z-7.957
N16610 Y411.711 Z-8.646
N16615 Y426.112 Z-9.406
N16620 Y438.35 Z-10.188
N16625 Y448.188 Z-11.01
N16630 Y457.242 Z-12.007
N16635 Y465.508 Z-13.199
N16640 Y473.004 Z-14.401
N16645 Y478.956 Z-15.59
N16650 Y486.365 Z-17.247
N16655 Y490.216 Z-18.229
N16660 Y495.106 Z-19.752
N16665 Y499.412 Z-21.209
N16670 Y502.194 Z-22.363
N16675 Y505.749 Z-24.115
N16680 Y508.153 Z-25.522
N16685 Y509.907 Z-26.886
N16690 Y511.745 Z-28.6
N16695 Y512.568 Z-29.733
N16700 Y513.344 Z-31.585
N16705 Y513.534 Z-32.68
N16710 Y513.535 Z-40.
N16715 Y558.1
N16720 G3 Y558.519 Z-39.903 J0. K0.952
N16725 G2 Y558.938 Z-39.806 J0.419 K-0.855
N16730 G1 Y563.295
N16735 G17 G3 X81.005 I-1.5 J0.
N16740 G19 G3 Y562.876 Z-39.903 J0. K-0.953
N16745 G2 Y562.457 Z-40. J-0.419 K0.855
N16750 G1 Y521.094
N16755 Y521.092 Z-33.423
N16760 Y520.899 Z-32.296
N16765 Y520.342 Z-30.79
N16770 Y519.545 Z-29.511
N16775 Y517.782 Z-27.689
N16780 Y516.519 Z-26.591
N16785 Y514.358 Z-25.153
N16790 Y510.71 Z-23.171
N16795 Y507.957 Z-21.956
N16800 Y502.349 Z-19.902
N16805 Y498.651 Z-18.741
N16810 Y492.777 Z-17.214
N16815 Y487.611 Z-15.972
N16820 Y482.402 Z-14.948
N16825 Y474.175 Z-13.513
N16830 Y466.658 Z-12.467
N16835 Y458.352 Z-11.591
N16840 Y447.756 Z-10.718
N16845 Y437.284 Z-9.973
N16850 Y423.724 Z-9.17
N16855 Y406.884 Z-8.368
N16860 Y384.441 Z-7.596
N16865 Y359.641 Z-7.071
N16870 Y333.292 Z-6.852
N16875 Y310.817 Z-6.942
N16880 Y269.743 Z-7.632
N16885 Y211.232 Z-8.942
N16890 Y158.92 Z-10.429
N16895 Y115.54 Z-11.955
N16900 Y89.599 Z-13.036
N16905 Y70.885 Z-13.945
N16910 Y61.331 Z-14.696
N16915 Y53.539 Z-15.613
N16920 Y46.803 Z-16.707
N16925 Y41.13 Z-17.936
N16930 Y37.184 Z-19.067
N16935 Y33.65 Z-20.378
N16940 Y30.785 Z-21.782
N16945 Y28.828 Z-23.095
N16950 Y27.487 Z-24.273
N16955 Y26.156 Z-26.065
N16960 Y25.71 Z-27.114
N16965 Y25.363 Z-29.101
N16970 Z-40.
N16975 Y-4.69
N16980 G2 Y-5.11 Z-39.903 J0. K0.952
N16985 G3 Y-5.529 Z-39.806 J-0.419 K-0.855
N16990 G1 Y-7.407
N16995 G17 G2 X78.006 I-1.5 J0.
N17000 G19 G2 Y-6.988 Z-39.903 J0. K-0.953
N17005 G3 Y-6.569 Z-40. J0.419 K0.855
N17010 G1 Y18.073
N17015 Y18.091 Z-29.19
N17020 Y18.18 Z-27.504
N17025 Y18.565 Z-25.605
N17030 Y19.122 Z-24.215
N17035 Y19.881 Z-23.06
N17040 Y20.431 Z-22.476
N17045 Y21.597 Z-21.625
N17050 Y24.422 Z-20.357
N17055 Y28.469 Z-18.967
N17060 Y33.43 Z-17.675
N17065 Y39.294 Z-16.536
N17070 Y46.054 Z-15.61
N17075 Y53.867 Z-14.883
N17080 Y64.752 Z-14.248
N17085 Y88.293 Z-13.094
N17090 Y114.927 Z-11.979
N17095 Y153.657 Z-10.601
N17100 Y204.806 Z-9.113
N17105 Y262.93 Z-7.778
N17110 Y309.429 Z-6.972
N17115 Y331.128 Z-6.859
N17120 Y356.703 Z-7.027
N17125 Y381.502 Z-7.49
N17130 Y404.733 Z-8.238
N17135 Y424.883 Z-9.164
N17140 Y439.219 Z-10.008
N17145 Y451.818 Z-10.902
N17150 Y462.414 Z-11.779
N17155 Y473.442 Z-12.853
N17160 Y480.977 Z-13.787
N17165 Y486.969 Z-14.752
N17170 Y495.157 Z-16.396
N17175 Y499.769 Z-17.475
N17180 Y507.209 Z-19.585
N17185 Y511.193 Z-20.932
N17190 Y516.105 Z-22.927
N17195 Y518.793 Z-24.243
N17200 Y522.61 Z-26.6
N17205 Y524.321 Z-27.984
N17210 Y526.286 Z-30.122
N17215 Y527.008 Z-31.255
N17220 Y527.549 Z-32.697
N17225 Y527.82 Z-33.92
N17230 Y527.836 Z-40.
N17235 Y566.478
N17240 G3 Y566.897 Z-39.903 J0. K0.952
N17245 G2 Y567.317 Z-39.806 J0.419 K-0.855
N17250 G1 Y571.053
N17255 G17 G3 X75.006 I-1.5 J0.
N17260 G19 G3 Y570.634 Z-39.903 J0. K-0.953
N17265 G2 Y570.214 Z-40. J-0.419 K0.855
N17270 G1 Y533.895
N17275 Y533.887 Z-34.726
N17280 Y533.645 Z-33.434
N17285 Y533.064 Z-31.812
N17290 Y532.117 Z-30.379
N17295 Y530.445 Z-28.513
N17300 Y528.596 Z-27.011
N17305 Y525.746 Z-25.145
N17310 Y523.1 Z-23.752
N17315 Y518.947 Z-21.902
N17320 Y515.402 Z-20.598
N17325 Y509.614 Z-18.77
N17330 Y505.039 Z-17.555
N17335 Y497.82 Z-15.93
N17340 Y492.596 Z-14.987
N17345 Y485.83 Z-14.041
N17350 Y474.664 Z-12.799
N17355 Y462.72 Z-11.685
N17360 Y450.761 Z-10.732
N17365 Y438.583 Z-9.899
N17370 Y422.818 Z-9.006
N17375 Y405.947 Z-8.249
N17380 Y382.705 Z-7.503
N17385 Y357.131 Z-7.027
N17390 Y331.556 Z-6.868
N17395 Y308.4 Z-6.998
N17400 Y259.576 Z-7.857
N17405 Y202.228 Z-9.187
N17410 Y151.079 Z-10.687
N17415 Y113.899 Z-12.019
N17420 Y88.04 Z-13.106
N17425 Y64.498 Z-14.261
N17430 Y44.855 Z-15.404
N17435 Y37.35 Z-15.998
N17440 Y30.413 Z-16.894
N17445 Y24.375 Z-18.034
N17450 Y21.883 Z-18.652
N17455 Y20.586 Z-19.193
N17460 Y19.374 Z-19.95
N17465 Y17.95 Z-21.256
N17470 Y17.319 Z-22.035
N17475 Y16.524 Z-23.396
N17480 Y15.929 Z-25.139
N17485 Y15.567 Z-27.541
N17490 Y15.519 Z-29.323
N17495 Y15.517 Z-40.
N17500 Y-8.307
N17505 G2 Y-8.726 Z-39.903 J0. K0.952
N17510 G3 Y-9.146 Z-39.806 J-0.419 K-0.855
N17515 G1 Y-10.773
N17520 G17 G2 X72.007 I-1.5 J0.
N17525 G19 G2 Y-10.354 Z-39.903 J0. K-0.953
N17530 G3 Y-9.934 Z-40. J0.419 K0.855
N17535 G1 Y13.437
N17540 Y13.438 Z-29.452
N17545 Y13.53 Z-27.198
N17550 Y13.818 Z-25.393
N17555 Y14.319 Z-23.824
N17560 Y15.176 Z-22.236
N17565 Y16.421 Z-20.704
N17570 Y17.974 Z-19.372
N17575 Y19.867 Z-18.241
N17580 Y21.657 Z-17.547
N17585 Y23.504 Z-17.158
N17590 Y30.287 Z-16.419
N17595 Y45.665 Z-15.352
N17600 Y64.539 Z-14.259
N17605 Y88.081 Z-13.104
N17610 Y114.714 Z-11.987
N17615 Y151.894 Z-10.662
N17620 Y203.043 Z-9.17
N17625 Y260.392 Z-7.849
N17630 Y308.441 Z-7.01
N17635 Y331.691 Z-6.876
N17640 Y357.265 Z-7.025
N17645 Y382.84 Z-7.489
N17650 Y406.089 Z-8.223
N17655 Y427.648 Z-9.213
N17660 Y441.212 Z-10.007
N17665 Y454.574 Z-10.944
N17670 Y466.684 Z-11.941
N17675 Y477.114 Z-12.931
N17680 Y487.684 Z-14.082
N17685 Y496.57 Z-15.211
N17690 Y501.821 Z-16.016
N17695 Y507.033 Z-17.017
N17700 Y512.924 Z-18.476
N17705 Y517.297 Z-19.711
N17710 Y523.029 Z-21.701
N17715 Y525.825 Z-22.825
N17720 Y529.58 Z-24.621
N17725 Y531.86 Z-25.885
N17730 Y534.752 Z-27.942
N17735 Y536.46 Z-29.505
N17740 Y537.712 Z-31.053
N17745 Y538.641 Z-32.58
N17750 Y539.198 Z-34.307
N17755 Y539.373 Z-35.658
N17760 Y539.374 Z-40.
N17765 Y573.709
N17770 G3 Y574.128 Z-39.903 J0. K0.952
N17775 G2 Y574.547 Z-39.806 J0.419 K-0.855
N17780 G1 Y577.823
N17785 G17 G3 X69.007 I-1.5 J0.
N17790 G19 G3 Y577.404 Z-39.903 J0. K-0.953
N17795 G2 Y576.985 Z-40. J-0.419 K0.855
N17800 G1 Y544.353
N17805 Y544.339 Z-35.922
N17810 Y544.012 Z-34.241
N17815 Y543.66 Z-33.23
N17820 Y542.885 Z-31.844
N17825 Y541.452 Z-29.972
N17830 Y539.897 Z-28.517
N17835 Y538.179 Z-27.155
N17840 Y536.068 Z-25.789
N17845 Y532.115 Z-23.713
N17850 Y529.645 Z-22.661
N17855 Y524.67 Z-20.803
N17860 Y521.061 Z-19.677
N17865 Y515.574 Z-18.171
N17870 Y510.755 Z-17.159
N17875 Y506.267 Z-16.397
N17880 Y498.905 Z-15.34
N17885 Y488.509 Z-14.054
N17890 Y477.337 Z-12.858
N17895 Y466.149 Z-11.817
N17900 Y454.192 Z-10.851
N17905 Y440.817 Z-9.931
N17910 Y427.075 Z-9.141
N17915 Y411.051 Z-8.392
N17920 Y387.802 Z-7.598
N17925 Y363.002 Z-7.093
N17930 Y337.428 Z-6.885
N17935 Y313.014 Z-6.969
N17940 Y277.365 Z-7.524
N17945 Y218.466 Z-8.785
N17950 Y164.992 Z-10.249
N17955 Y119.273 Z-11.812
N17960 Y91.796 Z-12.938
N17965 Y68.068 Z-14.073
N17970 Y48.346 Z-15.185
N17975 Y31.914 Z-16.294
N17980 Y22.142 Z-17.101
N17985 Y20.042 Z-17.547
N17990 Y18.095 Z-18.271
N17995 Y16.262 Z-19.296
N18000 Y14.682 Z-20.563
N18005 Y13.412 Z-22.014
N18010 Y12.619 Z-23.303
N18015 Y12.009 Z-24.8
N18020 Y11.613 Z-26.708
N18025 Y11.542 Z-27.331
N18030 Y11.457 Z-29.477
N18035 Y11.429 Z-40.
N18040 Y-10.024
N18045 G2 Y-10.444 Z-39.903 J0. K0.952
N18050 G3 Y-10.863 Z-39.806 J-0.419 K-0.855
N18055 G17 G2 X66.007 I-1.5 J0.
N18060 G19 G2 Y-10.444 Z-39.903 J0. K-0.953
N18065 G3 Y-10.025 Z-40. J0.419 K0.855
N18070 G1 Y9.641
N18075 Z-29.534
N18080 Y9.727 Z-27.354
N18085 Y10.07 Z-25.271
N18090 Y10.65 Z-23.671
N18095 Y11.417 Z-22.328
N18100 Y12.336 Z-21.167
N18105 Y13.38 Z-20.166
N18110 Y15.13 Z-18.945
N18115 Y17.015 Z-18.057
N18120 Y18.669 Z-17.548
N18125 Y20.602 Z-17.219
N18130 Y33.276 Z-16.194
N18135 Y49.728 Z-15.101
N18140 Y69.489 Z-14.
N18145 Y93.27 Z-12.873
N18150 Y120.818 Z-11.753
N18155 Y166.542 Z-10.203
N18160 Y220.016 Z-8.748
N18165 Y278.915 Z-7.495
N18170 Y313.789 Z-6.963
N18175 Y338.371 Z-6.884
N18180 Y363.946 Z-7.094
N18185 Y388.745 Z-7.604
N18190 Y411.995 Z-8.4
N18195 Y429.685 Z-9.239
N18200 Y444.017 Z-10.09
N18205 Y457.368 Z-11.038
N18210 Y469.477 Z-12.043
N18215 Y481.264 Z-13.175
N18220 Y491.524 Z-14.303
N18225 Y500.412 Z-15.41
N18230 Y508.529 Z-16.55
N18235 Y516.023 Z-17.759
N18240 Y521.961 Z-18.988
N18245 Y527.064 Z-20.446
N18250 Y530.667 Z-21.592
N18255 Y534.188 Z-22.985
N18260 Y537.755 Z-24.562
N18265 Y540.926 Z-26.362
N18270 Y542.775 Z-27.569
N18275 Y545.044 Z-29.477
N18280 Y546.516 Z-31.043
N18285 Y547.866 Z-33.08
N18290 Y548.447 Z-34.426
N18295 Y548.834 Z-36.09
N18300 Y548.896 Z-40.
N18305 Y580.028
N18310 G3 Y580.447 Z-39.903 J0. K0.952
N18315 G2 Y580.866 Z-39.806 J0.419 K-0.855
N18320 G1 Y583.704
N18325 G17 G3 X63.008 I-1.5 J0.
N18330 G19 G3 Y583.285 Z-39.903 J0. K-0.953
N18335 G2 Y582.866 Z-40. J-0.419 K0.855
N18340 G1 Y553.055
N18345 Y553.029 Z-37.
N18350 Y552.641 Z-35.079
N18355 Y552.254 Z-34.061
N18360 Y551.107 Z-32.091
N18365 Y549.78 Z-30.48
N18370 Y547.611 Z-28.479
N18375 Y545.8 Z-27.195
N18380 Y542.598 Z-25.253
N18385 Y539.875 Z-23.963
N18390 Y537.104 Z-22.748
N18395 Y534.259 Z-21.733
N18400 Y529.928 Z-20.352
N18405 Y525.509 Z-19.297
N18410 Y521.041 Z-18.43
N18415 Y515.053 Z-17.41
N18420 Y507.546 Z-16.276
N18425 Y498.823 Z-15.102
N18430 Y488.421 Z-13.865
N18435 Y478.001 Z-12.775
N18440 Y465.831 Z-11.665
N18445 Y454.25 Z-10.75
N18450 Y440.543 Z-9.825
N18455 Y426.164 Z-9.02
N18460 Y410.127 Z-8.296
N18465 Y386.878 Z-7.534
N18470 Y362.078 Z-7.055
N18475 Y334.68 Z-6.87
N18480 Y308.364 Z-7.019
N18485 Y260.315 Z-7.855
N18490 Y202.966 Z-9.176
N18495 Y151.817 Z-10.667
N18500 Y114.637 Z-11.99
N18505 Y88.004 Z-13.108
N18510 Y65.237 Z-14.222
N18515 Y45.588 Z-15.357
N18520 Y30.553 Z-16.397
N18525 Y18.575 Z-17.405
N18530 Y16.302 Z-17.843
N18535 Y14.346 Z-18.57
N18540 Y12.529 Z-19.617
N18545 Y11.149 Z-20.753
N18550 Y9.936 Z-22.151
N18555 Y8.983 Z-23.773
N18560 Y8.368 Z-25.533
N18565 Y8.044 Z-27.752
N18570 Y7.985 Z-40.
N18575 Y-10.022
N18580 G2 Y-10.441 Z-39.903 J0. K0.952
N18585 G3 Y-10.86 Z-39.806 J-0.419 K-0.855
N18590 G1 Y-10.862
N18595 G17 G2 X60.008 I-1.5 J0.
N18600 G19 G2 Y-10.443 Z-39.903 J0. K-0.953
N18605 G3 Y-10.023 Z-40. J0.419 K0.855
N18610 G1 Y6.475
N18615 Y6.506 Z-29.307
N18620 Y6.574 Z-27.514
N18625 Y6.752 Z-26.17
N18630 Y7.268 Z-24.358
N18635 Y8.111 Z-22.71
N18640 Y9.354 Z-21.125
N18645 Y10.843 Z-19.824
N18650 Y12.578 Z-18.782
N18655 Y14.602 Z-18.004
N18660 Y16.792 Z-17.576
N18665 Y27.833 Z-16.608
N18670 Y42.841 Z-15.534
N18675 Y60.871 Z-14.458
N18680 Y83.537 Z-13.313
N18685 Y109.268 Z-12.202
N18690 Y138.643 Z-11.109
N18695 Y188.242 Z-9.572
N18700 Y244.04 Z-8.197
N18705 Y300.614 Z-7.125
N18710 Y326.964 Z-6.878
N18715 Y354.173 Z-6.958
N18720 Y378.973 Z-7.33
N18725 Y402.997 Z-8.002
N18730 Y419.142 Z-8.648
N18735 Y435.91 Z-9.511
N18740 Y449.388 Z-10.359
N18745 Y462.722 Z-11.354
N18750 Y474.672 Z-12.395
N18755 Y486.299 Z-13.562
N18760 Y496.708 Z-14.755
N18765 Y506.943 Z-16.089
N18770 Y515.956 Z-17.426
N18775 Y523.443 Z-18.681
N18780 Y529.413 Z-19.795
N18785 Y533.116 Z-20.603
N18790 Y536.657 Z-21.569
N18795 Y541.039 Z-23.137
N18800 Y543.117 Z-23.998
N18805 Y546.515 Z-25.675
N18810 Y548.448 Z-26.779
N18815 Y550.322 Z-28.063
N18820 Y552.048 Z-29.395
N18825 Y554.219 Z-31.616
N18830 Y555.348 Z-33.224
N18835 Y556.291 Z-35.106
N18840 Y556.678 Z-36.536
N18845 Y556.872 Z-38.089
N18850 Y556.874 Z-40.
N18855 Y585.546
N18860 G3 Y585.966 Z-39.903 J0. K0.952
N18865 G2 Y586.385 Z-39.806 J0.419 K-0.855
N18870 G1 Y588.91
N18875 G17 G3 X57.008 I-1.5 J0.
N18880 G19 G3 Y588.491 Z-39.903 J0. K-0.953
N18885 G2 Y588.072 Z-40. J-0.419 K0.855
N18890 G1 Y560.387
N18895 Y560.38 Z-38.442
N18900 Y560.173 Z-36.947
N18905 Y559.839 Z-35.713
N18910 Y559.004 Z-33.935
N18915 Y557.931 Z-32.313
N18920 Y556.147 Z-30.337
N18925 Y554.46 Z-28.92
N18930 Y552.028 Z-27.178
N18935 Y548.075 Z-25.005
N18940 Y546.029 Z-24.091
N18945 Y542.5 Z-22.709
N18950 Y539.254 Z-21.725
N18955 Y535.94 Z-20.929
N18960 Y529.99 Z-19.723
N18965 Y522.516 Z-18.387
N18970 Y515.174 Z-17.199
N18975 Y506.309 Z-15.917
N18980 Y497.426 Z-14.77
N18985 Y487.018 Z-13.576
N18990 Y474.881 Z-12.359
N18995 Y462.823 Z-11.315
N19000 Y449.487 Z-10.325
N19005 Y435.998 Z-9.482
N19010 Y419.225 Z-8.624
N19015 Y396.851 Z-7.779
N19020 Y372.052 Z-7.182
N19025 Y346.477 Z-6.896
N19030 Y320.764 Z-6.908
N19035 Y292.864 Z-7.248
N19040 Y233.966 Z-8.421
N19045 Y178.942 Z-9.836
N19050 Y130.893 Z-11.382
N19055 Y102.381 Z-12.483
N19060 Y76.879 Z-13.63
N19065 Y55.278 Z-14.773
N19070 Y38.733 Z-15.808
N19075 Y25.114 Z-16.829
N19080 Y15.265 Z-17.727
N19085 Y13.242 Z-18.108
N19090 Y11.291 Z-18.833
N19095 Y9.474 Z-19.909
N19100 Y7.984 Z-21.21
N19105 Y6.742 Z-22.797
N19110 Y5.861 Z-24.55
N19115 Y5.388 Z-26.255
N19120 Y5.179 Z-28.374
N19125 Y5.125 Z-40.
N19130 Y-10.015
N19135 G2 Y-10.435 Z-39.903 J0. K0.952
N19140 G3 Y-10.854 Z-39.806 J-0.419 K-0.855
N19145 G1 Y-10.858
N19150 G17 G2 X54.009 I-1.5 J0.
N19155 G19 G2 Y-10.439 Z-39.903 J0. K-0.953
N19160 G3 Y-10.02 Z-40. J0.419 K0.855
N19165 G1 Y4.572
N19170 Z-28.397
N19175 Y4.688 Z-26.419
N19180 Y5.05 Z-24.853
N19185 Y5.655 Z-23.37
N19190 Y6.603 Z-21.848
N19195 Y7.888 Z-20.447
N19200 Y9.021 Z-19.563
N19205 Y10.25 Z-18.861
N19210 Y11.549 Z-18.344
N19215 Y13.081 Z-17.977
N19220 Y19.678 Z-17.302
N19225 Y30.553 Z-16.397
N19230 Y45.588 Z-15.357
N19235 Y65.237 Z-14.222
N19240 Y88.004 Z-13.108
N19245 Y114.637 Z-11.99
N19250 Y151.817 Z-10.667
N19255 Y202.966 Z-9.176
N19260 Y260.315 Z-7.855
N19265 Y308.364 Z-7.019
N19270 Y336.068 Z-6.861
N19275 Y362.418 Z-7.029
N19280 Y387.217 Z-7.49
N19285 Y410.467 Z-8.235
N19290 Y428.845 Z-9.064
N19295 Y444.596 Z-9.969
N19300 Y458.123 Z-10.909
N19305 Y471.438 Z-11.999
N19310 Y483.379 Z-13.139
N19315 Y493.64 Z-14.256
N19320 Y504.038 Z-15.539
N19325 Y512.604 Z-16.729
N19330 Y521.301 Z-18.083
N19335 Y530.276 Z-19.646
N19340 Y536.236 Z-20.812
N19345 Y542.163 Z-22.129
N19350 Y544.356 Z-22.707
N19355 Y547.58 Z-23.755
N19360 Y550.719 Z-25.093
N19365 Y552.403 Z-25.9
N19370 Y554.69 Z-27.22
N19375 Y556.851 Z-28.629
N19380 Y559.421 Z-30.781
N19385 Y560.854 Z-32.383
N19390 Y562.079 Z-34.095
N19395 Y563.109 Z-36.306
N19400 Y563.527 Z-38.113
N19405 Y563.629 Z-40.
N19410 Y590.427
N19415 G3 Y590.846 Z-39.903 J0. K0.952
N19420 G2 Y591.266 Z-39.806 J0.419 K-0.855
N19425 G1 Y593.469
N19430 G17 G3 X51.009 I-1.5 J0.
N19435 G19 G3 Y593.05 Z-39.903 J0. K-0.953
N19440 G2 Y592.63 Z-40. J-0.419 K0.855
N19445 G1 Y566.628
N19450 Y566.454 Z-38.211
N19455 Y566.226 Z-37.198
N19460 Y565.499 Z-35.361
N19465 Y564.462 Z-33.623
N19470 Y562.909 Z-31.696
N19475 Y560.315 Z-29.362
N19480 Y559.197 Z-28.563
N19485 Y556.657 Z-26.949
N19490 Y552.95 Z-25.113
N19495 Y550.023 Z-23.99
N19500 Y546.143 Z-22.896
N19505 Y542.455 Z-22.013
N19510 Y536.519 Z-20.744
N19515 Y529.062 Z-19.325
N19520 Y520.231 Z-17.823
N19525 Y511.222 Z-16.457
N19530 Y502.345 Z-15.256
N19535 Y491.943 Z-14.007
N19540 Y481.679 Z-12.92
N19545 Y469.58 Z-11.799
N19550 Y457.777 Z-10.85
N19555 Y444.246 Z-9.919
N19560 Y428.474 Z-9.022
N19565 Y409.997 Z-8.199
