%
(1001)
(T5  D=19.05 CR=9.525 - ZMIN=-40. - BALL END MILL)
N10 G90 G94 G17 G91.1
N15 G21
N20 G53 G0 Z0.
(PARALLEL3)
N25 M9
N30 T5 M6
N35 S24000 M3
N40 G54
N45 G0 X129.952 Y602.389
N50 G43 Z15. H5
N55 G0 Z-8.095
N60 G19 G2 Y600.484 Z-10. J-1.905 K0. F1000.
N65 G1 Y-0.484 F3000.
N70 G2 Y-0.903 Z-9.903 J0. K0.953
N75 G3 Y-1.322 Z-9.806 J-0.419 K-0.855
N80 G1 Y-5.838
N85 G17 G2 X127.095 Y-8.696 I-2.858 J0.
N90 G1 X123.288
N95 G2 X120.431 Y-5.838 I0. J2.858
N100 G19 G2 Y-5.419 Z-9.903 J0. K-0.952
N105 G3 Y-5. Z-10. J0.419 K0.855
N110 G1 Y605.
N115 G3 Y605.419 Z-9.903 J0. K0.953
N120 G2 Y605.838 Z-9.806 J0.419 K-0.855
N125 G17 G3 X117.573 Y608.696 I-2.857 J0.
N130 G1 X113.767
N135 G3 X110.909 Y605.838 I0. J-2.857
N140 G19 G3 Y605.419 Z-9.903 J0. K-0.952
N145 G2 Y605. Z-10. J-0.419 K0.855
N150 G1 Y-5.
N155 G2 Y-5.419 Z-9.903 J0. K0.953
N160 G3 Y-5.838 Z-9.806 J-0.419 K-0.855
N165 G17 G2 X108.052 Y-8.696 I-2.857 J0.
N170 G1 X104.245
N175 G2 X101.388 Y-5.838 I0. J2.858
N180 G19 G2 Y-5.419 Z-9.903 J0. K-0.952
N185 G3 Y-5. Z-10. J0.419 K0.855
N190 G1 Y160.677
N195 Y161.698 Z-9.9
N200 Y175.608 Z-8.713
N205 Y189.274 Z-7.785
N210 Y209.151 Z-6.706
N215 Y232.913 Z-5.774
N220 Y259.956 Z-5.058
N225 Y289.813 Z-4.606
N230 Y312.207 Z-4.546
N235 Y324.337 Z-4.709
N240 Y343.464 Z-5.297
N245 Y358.839 Z-5.999
N250 Y371.669 Z-6.726
N255 Y383.529 Z-7.537
N260 Y396.28 Z-8.654
N265 Y407.916 Z-9.97
N270 Y605. Z-10.
N275 G3 Y605.419 Z-9.903 J0. K0.953
N280 G2 Y605.839 Z-9.806 J0.419 K-0.855
N285 G17 G3 X98.53 Y608.696 I-2.858 J0.
N290 G1 X94.724
N295 G3 X91.866 Y605.839 I0. J-2.857
N300 G19 G3 Y605.419 Z-9.903 J0. K-0.952
N305 G2 Y605. Z-10. J-0.419 K0.855
N310 G1 Y453.844 Z-9.96
N315 Y445.056 Z-8.591
N320 Y435.083 Z-7.314
N325 Y425.079 Z-6.273
N330 Y413.698 Z-5.231
N335 Y399.559 Z-4.235
N340 Y382.892 Z-3.417
N345 Y362.365 Z-2.789
N350 Y340.905 Z-2.453
N355 Y317.578 Z-2.37
N360 Y285.854 Z-2.814
N365 Y228.004 Z-4.024
N370 Y173.887 Z-5.472
N375 Y148.701 Z-6.374
N380 Y129.521 Z-7.363
N385 Y113.958 Z-8.477
N390 Y101.084 Z-9.716
N395 Y98.595 Z-10.
N400 Y-5.
N405 G2 Y-5.419 Z-9.903 J0. K0.953
N410 G3 Y-5.838 Z-9.806 J-0.419 K-0.855
N415 G17 G2 X89.009 Y-8.696 I-2.857 J0.
N420 G1 X85.202
N425 G2 X82.345 Y-5.838 I0. J2.858
N430 G19 G2 Y-5.419 Z-9.903 J0. K-0.952
N435 G3 Y-5. Z-10. J0.419 K0.855
N440 G1 Y64.719
N445 Y66.355 Z-9.9
N450 Y77.832 Z-9.096
N455 Y96.915 Z-8.211
N460 Y126.544 Z-7.036
N465 Y158.527 Z-5.938
N470 Y210.771 Z-4.449
N475 Y268.621 Z-3.148
N480 Y310.609 Z-2.438
N485 Y332.069 Z-2.348
N490 Y357.262 Z-2.543
N495 Y382.454 Z-3.053
N500 Y399.228 Z-3.587
N505 Y415.651 Z-4.287
N510 Y429.915 Z-5.045
N515 Y442.772 Z-5.897
N520 Y452.799 Z-6.674
N525 Y461.898 Z-7.562
N530 Y470.968 Z-8.681
N535 Y479.145 Z-10.
N540 Y605.
N545 G3 Y605.419 Z-9.903 J0. K0.953
N550 G2 Y605.838 Z-9.806 J0.419 K-0.855
N555 G1 Y605.839
N560 G17 G3 X79.487 Y608.696 I-2.857 J0.
N565 G1 X75.681
N570 G3 X72.823 Y605.839 I0. J-2.858
N575 G19 G3 Y605.42 Z-9.903 J0. K-0.952
N580 G2 Y605. Z-10. J-0.419 K0.855
N585 G1 Y490.7 Z-9.958
N590 Y482.22 Z-8.971
N595 Y471.489 Z-7.883
N600 Y458.653 Z-6.766
N605 Y446.343 Z-5.854
N610 Y433.937 Z-5.068
N615 Y419.387 Z-4.298
N620 Y401.845 Z-3.568
N625 Y380.431 Z-2.932
N630 Y355.239 Z-2.503
N635 Y329.113 Z-2.375
N640 Y305.786 Z-2.541
N645 Y253.535 Z-3.486
N650 Y196.619 Z-4.837
N655 Y150.936 Z-6.19
N660 Y118.499 Z-7.338
N665 Y89.923 Z-8.517
N670 Y65.908 Z-9.68
N675 Y59.296 Z-10.
N680 Y-5.
N685 G2 Y-5.419 Z-9.903 J0. K0.953
N690 G3 Y-5.838 Z-9.806 J-0.419 K-0.855
N695 G17 G2 X69.966 Y-8.696 I-2.858 J0.
N700 G1 X66.159
N705 G2 X63.302 Y-5.838 I0. J2.858
N710 G19 G2 Y-5.419 Z-9.903 J0. K-0.952
N715 G3 Y-5. Z-10. J0.419 K0.855
N720 G1 Y59.663
N725 Y67.935 Z-9.574
N730 Y91.994 Z-8.425
N735 Y120.629 Z-7.257
N740 Y151.87 Z-6.163
N745 Y198.487 Z-4.792
N750 Y255.404 Z-3.454
N755 Y306.722 Z-2.539
N760 Y330.981 Z-2.375
N765 Y357.753 Z-2.503
N770 Y382.946 Z-2.937
N775 Y401.585 Z-3.476
N780 Y421.839 Z-4.306
N785 Y436.213 Z-5.062
N790 Y448.809 Z-5.858
N795 Y461.016 Z-6.76
N800 Y473.584 Z-7.84
N805 Y484.316 Z-8.9
N810 Y493.966 Z-9.978
N815 Y605. Z-10.
N820 G3 Y605.419 Z-9.903 J0. K0.953
N825 G2 Y605.839 Z-9.806 J0.419 K-0.855
N830 G17 G3 X60.444 Y608.696 I-2.858 J0.
N835 G1 X56.638
N840 G3 X53.78 Y605.839 I0. J-2.857
N845 G19 G3 Y605.419 Z-9.903 J0. K-0.952
N850 G2 Y605. Z-10. J-0.419 K0.855
N855 G1 Y495.832 Z-9.975
N860 Y485.274 Z-8.806
N865 Y473.442 Z-7.658
N870 Y460.873 Z-6.604
N875 Y448.105 Z-5.686
N880 Y434.045 Z-4.834
N885 Y418.792 Z-4.074
N890 Y400.083 Z-3.359
N895 Y380.492 Z-2.831
N900 Y355.299 Z-2.452
N905 Y329.115 Z-2.37
N910 Y302.989 Z-2.591
N915 Y248.872 Z-3.591
N920 Y192.888 Z-4.943
N925 Y150.936 Z-6.193
N930 Y118.87 Z-7.324
N935 Y90.294 Z-8.5
N940 Y67.934 Z-9.574
N945 Y59.663 Z-10.
N950 Y-5.
N955 G2 Y-5.419 Z-9.903 J0. K0.953
N960 G3 Y-5.838 Z-9.806 J-0.419 K-0.855
N965 G17 G2 X50.923 Y-8.696 I-2.858 J0.
N970 G1 X47.116
N975 G2 X44.259 Y-5.838 I0. J2.858
N980 G19 G2 Y-5.419 Z-9.903 J0. K-0.952
N985 G3 Y-5. Z-10. J0.419 K0.855
N990 G1 Y59.663
N995 Y66.275 Z-9.661
N1000 Y88.599 Z-8.576
N1005 Y117.004 Z-7.395
N1010 Y148.174 Z-6.284
N1015 Y184.491 Z-5.175
N1020 Y239.541 Z-3.794
N1025 Y298.324 Z-2.656
N1030 Y327.249 Z-2.37
N1035 Y354.479 Z-2.427
N1040 Y379.672 Z-2.783
N1045 Y403.873 Z-3.442
N1050 Y421.49 Z-4.141
N1055 Y436.102 Z-4.879
N1060 Y450.348 Z-5.754
N1065 Y462.473 Z-6.634
N1070 Y475.497 Z-7.733
N1075 Y486.417 Z-8.795
N1080 Y497.232 Z-9.991
N1085 Y605. Z-10.
N1090 G3 Y605.419 Z-9.903 J0. K0.953
N1095 G2 Y605.838 Z-9.806 J0.419 K-0.855
N1100 G1 Y605.839
N1105 G17 G3 X41.401 Y608.696 I-2.857 J0.
N1110 G1 X37.595
N1115 G3 X34.737 Y605.839 I0. J-2.857
N1120 G19 G3 Y605.42 Z-9.903 J0. K-0.952
N1125 G2 Y605. Z-10. J-0.419 K0.855
N1130 G1 Y497.698 Z-9.957
N1135 Y486.044 Z-8.68
N1140 Y475.122 Z-7.632
N1145 Y462.738 Z-6.596
N1150 Y450.343 Z-5.702
N1155 Y435.906 Z-4.824
N1160 Y421.094 Z-4.087
N1165 Y404.725 Z-3.442
N1170 Y380.517 Z-2.779
N1175 Y355.325 Z-2.423
N1180 Y329.115 Z-2.362
N1185 Y301.123 Z-2.617
N1190 Y245.139 Z-3.671
N1195 Y189.156 Z-5.045
N1200 Y150.003 Z-6.224
N1205 Y117.937 Z-7.359
N1210 Y90.294 Z-8.5
N1215 Y67.934 Z-9.574
N1220 Y59.663 Z-10.
N1225 Y-5.
N1230 G2 Y-5.419 Z-9.903 J0. K0.953
N1235 G3 Y-5.838 Z-9.806 J-0.419 K-0.855
N1240 G17 G2 X31.88 Y-8.696 I-2.857 J0.
N1245 G1 X28.073
N1250 G2 X25.216 Y-5.838 I0. J2.858
N1255 G19 G2 Y-5.419 Z-9.903 J0. K-0.952
N1260 G3 Y-5. Z-10. J0.419 K0.855
N1265 G1 Y59.662
N1270 Y79.809 Z-8.984
N1275 Y106.312 Z-7.818
N1280 Y137.085 Z-6.66
N1285 Y170.495 Z-5.582
N1290 Y224.612 Z-4.136
N1295 Y283.395 Z-2.913
N1300 Y316.752 Z-2.432
N1305 Y341.871 Z-2.348
N1310 Y368.93 Z-2.567
N1315 Y393.189 Z-3.069
N1320 Y408.901 Z-3.571
N1325 Y425.376 Z-4.26
N1330 Y439.57 Z-5.005
N1335 Y452.166 Z-5.795
N1340 Y464.932 Z-6.734
N1345 Y477.314 Z-7.792
N1350 Y487.863 Z-8.823
N1355 Y498.165 Z-9.96
N1360 Y605. Z-10.
N1365 G3 Y605.42 Z-9.903 J0. K0.953
N1370 G2 Y605.839 Z-9.806 J0.419 K-0.855
N1375 G17 G3 X22.358 Y608.696 I-2.857 J0.
N1380 G1 X18.552
N1385 G3 X15.694 Y605.839 I0. J-2.858
N1390 G1 Y605.838
N1395 G19 G3 Y605.419 Z-9.903 J0. K-0.952
N1400 G2 Y605. Z-10. J-0.419 K0.855
N1405 G1 Y498.631 Z-9.987
N1410 Y488.283 Z-8.842
N1415 Y477.364 Z-7.775
N1420 Y464.61 Z-6.689
N1425 Y450.763 Z-5.683
N1430 Y436.513 Z-4.817
N1435 Y422.253 Z-4.104
N1440 Y403.865 Z-3.384
N1445 Y381.517 Z-2.78
N1450 Y356.324 Z-2.419
N1455 Y330.048 Z-2.356
N1460 Y302.056 Z-2.604
N1465 Y246.072 Z-3.651
N1470 Y190.089 Z-5.02
N1475 Y150.003 Z-6.224
N1480 Y117.937 Z-7.359
N1485 Y90.294 Z-8.5
N1490 Y67.934 Z-9.574
N1495 Y59.662 Z-10.
N1500 Y-5.
N1505 G2 Y-5.419 Z-9.903 J0. K0.953
N1510 G3 Y-5.838 Z-9.806 J-0.419 K-0.855
N1515 G17 G2 X12.837 Y-8.696 I-2.858 J0.
N1520 G1 X9.03
N1525 G2 X6.173 Y-5.838 I0. J2.858
N1530 G19 G2 Y-5.419 Z-9.903 J0. K-0.952
N1535 G3 Y-5. Z-10. J0.419 K0.855
N1540 G1 Y59.662
N1545 Y67.934 Z-9.574
N1550 Y90.294 Z-8.5
N1555 Y117.937 Z-7.359
N1560 Y150.003 Z-6.224
N1565 Y190.089 Z-5.02
N1570 Y246.072 Z-3.651
N1575 Y302.056 Z-2.604
N1580 Y330.048 Z-2.356
N1585 Y351.436 Z-2.38
N1590 Y377.562 Z-2.701
N1595 Y401.821 Z-3.311
N1600 Y419.449 Z-3.973
N1605 Y435.241 Z-4.74
N1610 Y449.495 Z-5.592
N1615 Y463.715 Z-6.609
N1620 Y476.285 Z-7.666
N1625 Y488.468 Z-8.851
N1630 Y498.631 Z-9.975
N1635 Y605. Z-10.
N1640 G3 Y605.419 Z-9.903 J0. K0.953
N1645 G2 Y605.839 Z-9.806 J0.419 K-0.855
N1650 G17 G3 X3.315 Y608.696 I-2.858 J0.
N1655 G1 X-0.491
N1660 G3 X-3.349 Y605.839 I0. J-2.858
N1665 G19 G3 Y605.419 Z-9.903 J0. K-0.952
N1670 G2 Y605. Z-10. J-0.419 K0.855
N1675 G1 Y498.631 Z-9.973
N1680 Y487.912 Z-8.792
N1685 Y476.991 Z-7.73
N1690 Y466.059 Z-6.794
N1695 Y453.293 Z-5.846
N1700 Y440.513 Z-5.035
N1705 Y425.754 Z-4.258
N1710 Y403.363 Z-3.363
N1715 Y379.104 Z-2.73
N1720 Y353.911 Z-2.398
N1725 Y327.249 Z-2.365
N1730 Y297.391 Z-2.671
N1735 Y237.675 Z-3.836
N1740 Y182.624 Z-5.228
N1745 Y147.241 Z-6.315
N1750 Y115.253 Z-7.463
N1755 Y86.733 Z-8.661
N1760 Y66.275 Z-9.661
N1765 Y59.662 Z-10.
N1770 Y-5.
N1775 G2 Y-5.419 Z-9.903 J0. K0.953
N1780 G3 Y-5.838 Z-9.806 J-0.419 K-0.855
N1785 G17 G2 X-6.206 Y-8.696 I-2.858 J0.
N1790 G1 X-10.013
N1795 G2 X-12.87 Y-5.838 I0. J2.858
N1800 G19 G2 Y-5.419 Z-9.903 J0. K-0.952
N1805 G3 Y-5. Z-10. J0.419 K0.855
N1810 G1 Y59.662
N1815 Y66.275 Z-9.661
N1820 Y88.599 Z-8.576
N1825 Y117.004 Z-7.395
N1830 Y148.174 Z-6.284
N1835 Y184.491 Z-5.175
N1840 Y239.541 Z-3.794
N1845 Y298.324 Z-2.656
N1850 Y328.182 Z-2.362
N1855 Y353.913 Z-2.4
N1860 Y379.106 Z-2.732
N1865 Y403.365 Z-3.366
N1870 Y425.755 Z-4.263
N1875 Y440.514 Z-5.04
N1880 Y453.294 Z-5.852
N1885 Y466.059 Z-6.8
N1890 Y476.991 Z-7.736
N1895 Y487.912 Z-8.799
N1900 Y498.631 Z-9.982
N1905 Y605. Z-10.
N1910 G3 Y605.419 Z-9.903 J0. K0.953
N1915 G2 Y605.839 Z-9.806 J0.419 K-0.855
N1920 G17 G3 X-15.728 Y608.696 I-2.858 J0.
N1925 G1 X-19.534
N1930 G3 X-22.392 Y605.839 I0. J-2.857
N1935 G19 G3 Y605.419 Z-9.903 J0. K-0.952
N1940 G2 Y605. Z-10. J-0.419 K0.855
N1945 G1 Y498.398 Z-9.977
N1950 Y487.862 Z-8.814
N1955 Y476.942 Z-7.75
N1960 Y466.01 Z-6.812
N1965 Y453.245 Z-5.862
N1970 Y440.465 Z-5.05
N1975 Y425.71 Z-4.271
N1980 Y403.321 Z-3.373
N1985 Y379.061 Z-2.737
N1990 Y353.869 Z-2.403
N1995 Y327.249 Z-2.366
N2000 Y297.391 Z-2.671
N2005 Y237.675 Z-3.836
N2010 Y182.624 Z-5.228
N2015 Y147.241 Z-6.315
N2020 Y115.253 Z-7.463
N2025 Y86.733 Z-8.661
N2030 Y66.275 Z-9.661
N2035 Y59.662 Z-10.
N2040 Y-5.
N2045 G2 Y-5.419 Z-9.903 J0. K0.953
N2050 G3 Y-5.838 Z-9.806 J-0.419 K-0.855
N2055 G17 G2 X-25.249 Y-8.696 I-2.858 J0.
N2060 G1 X-29.056
N2065 G2 X-31.913 Y-5.838 I0. J2.858
N2070 G19 G2 Y-5.419 Z-9.903 J0. K-0.952
N2075 G3 Y-5. Z-10. J0.419 K0.855
N2080 G1 Y59.663
N2085 Y66.275 Z-9.661
N2090 Y86.733 Z-8.661
N2095 Y115.253 Z-7.463
N2100 Y147.241 Z-6.315
N2105 Y182.624 Z-5.228
N2110 Y237.675 Z-3.836
N2115 Y297.391 Z-2.671
N2120 Y327.249 Z-2.367
N2125 Y353.878 Z-2.409
N2130 Y379.071 Z-2.747
N2135 Y403.331 Z-3.388
N2140 Y425.719 Z-4.292
N2145 Y439.097 Z-4.995
N2150 Y453.246 Z-5.889
N2155 Y466.012 Z-6.843
N2160 Y476.943 Z-7.784
N2165 Y487.863 Z-8.853
N2170 Y498.165 Z-9.993
N2175 Y605. Z-10.
N2180 G3 Y605.419 Z-9.903 J0. K0.953
N2185 G2 Y605.838 Z-9.806 J0.419 K-0.855
N2190 G1 Y605.839
N2195 G17 G3 X-34.771 Y608.696 I-2.858 J0.
N2200 G1 X-38.577
N2205 G3 X-41.435 Y605.839 I0. J-2.858
N2210 G19 G3 Y605.42 Z-9.903 J0. K-0.952
N2215 G2 Y605. Z-10. J-0.419 K0.855
N2220 G1 Y497.232 Z-9.96
N2225 Y486.045 Z-8.729
N2230 Y475.123 Z-7.676
N2235 Y462.368 Z-6.605
N2240 Y449.6 Z-5.686
N2245 Y434.98 Z-4.801
N2250 Y419.21 Z-4.025
N2255 Y396.817 Z-3.206
N2260 Y372.557 Z-2.644
N2265 Y347.364 Z-2.378
N2270 Y324.45 Z-2.382
N2275 Y295.525 Z-2.703
N2280 Y236.742 Z-3.857
N2285 Y181.691 Z-5.255
N2290 Y146.308 Z-6.346
N2295 Y114.32 Z-7.499
N2300 Y86.733 Z-8.661
N2305 Y66.275 Z-9.661
N2310 Y59.663 Z-10.
N2315 Y-5.
N2320 G2 Y-5.419 Z-9.903 J0. K0.953
N2325 G3 Y-5.838 Z-9.806 J-0.419 K-0.855
N2330 G17 G2 X-44.292 Y-8.696 I-2.858 J0.
N2335 G1 X-48.099
N2340 G2 X-50.956 Y-5.838 I0. J2.858
N2345 G19 G2 Y-5.419 Z-9.903 J0. K-0.952
N2350 G3 Y-5. Z-10. J0.419 K0.855
N2355 G1 Y59.663
N2360 Y66.276 Z-9.661
N2365 Y86.733 Z-8.661
N2370 Y115.253 Z-7.463
N2375 Y147.241 Z-6.315
N2380 Y182.625 Z-5.228
N2385 Y237.675 Z-3.836
N2390 Y296.458 Z-2.687
N2395 Y324.45 Z-2.385
N2400 Y347.341 Z-2.39
N2405 Y372.533 Z-2.667
N2410 Y396.793 Z-3.242
N2415 Y419.186 Z-4.072
N2420 Y434.94 Z-4.858
N2425 Y449.555 Z-5.754
N2430 Y462.322 Z-6.684
N2435 Y475.077 Z-7.767
N2440 Y485.997 Z-8.835
N2445 Y496.299 Z-9.978
N2450 Y605. Z-10.
N2455 G3 Y605.419 Z-9.903 J0. K0.953
N2460 G2 Y605.839 Z-9.806 J0.419 K-0.855
N2465 G17 G3 X-53.814 Y608.696 I-2.857 J0.
N2470 G1 X-57.62
N2475 G3 X-60.478 Y605.839 I0. J-2.857
N2480 G19 G3 Y605.419 Z-9.903 J0. K-0.952
N2485 G2 Y605. Z-10. J-0.419 K0.855
N2490 G1 Y494.432 Z-9.96
N2495 Y484.13 Z-8.817
N2500 Y473.21 Z-7.75
N2505 Y462.278 Z-6.812
N2510 Y449.513 Z-5.863
N2515 Y434.901 Z-4.95
N2520 Y419.173 Z-4.149
N2525 Y396.78 Z-3.297
N2530 Y372.52 Z-2.704
N2535 Y347.327 Z-2.408
N2540 Y324.45 Z-2.388
N2545 Y296.458 Z-2.687
N2550 Y237.675 Z-3.836
N2555 Y182.625 Z-5.228
N2560 Y147.241 Z-6.315
N2565 Y115.253 Z-7.463
N2570 Y86.733 Z-8.661
N2575 Y66.276 Z-9.661
N2580 Y59.663 Z-10.
N2585 Y-5.
N2590 G2 Y-5.419 Z-9.903 J0. K0.953
N2595 G3 Y-5.838 Z-9.806 J-0.419 K-0.855
N2600 G17 G2 X-63.335 Y-8.696 I-2.857 J0.
N2605 G1 X-67.142
N2610 G2 X-69.999 Y-5.838 I0. J2.858
N2615 G19 G2 Y-5.419 Z-9.903 J0. K-0.952
N2620 G3 Y-5. Z-10. J0.419 K0.855
N2625 G1 Y59.671
N2630 Y66.284 Z-9.66
N2635 Y88.608 Z-8.576
N2640 Y117.013 Z-7.395
N2645 Y148.177 Z-6.283
N2650 Y184.491 Z-5.174
N2655 Y239.542 Z-3.792
N2660 Y298.324 Z-2.653
N2665 Y325.383 Z-2.385
N2670 Y348.37 Z-2.438
N2675 Y373.562 Z-2.77
N2680 Y397.822 Z-3.407
N2685 Y418.253 Z-4.211
N2690 Y433.039 Z-4.972
N2695 Y445.827 Z-5.764
N2700 Y458.594 Z-6.696
N2705 Y471.348 Z-7.787
N2710 Y482.267 Z-8.87
N2715 Y492.1 Z-9.984
N2720 Y605. Z-10.
N2725 G3 Y605.419 Z-9.903 J0. K0.953
N2730 G2 Y605.839 Z-9.806 J0.419 K-0.855
N2735 G17 G3 X-72.857 Y608.696 I-2.857 J0.
N2740 G1 X-76.663
N2745 G3 X-79.521 Y605.839 I0. J-2.857
N2750 G19 G3 Y605.419 Z-9.903 J0. K-0.952
N2755 G2 Y605. Z-10. J-0.419 K0.855
N2760 G1 Y484.271 Z-9.969
N2765 Y476.318 Z-8.819
N2770 Y467.803 Z-7.844
N2775 Y457.219 Z-6.882
N2780 Y446.281 Z-6.025
N2785 Y433.506 Z-5.181
N2790 Y420.647 Z-4.468
N2795 Y398.151 Z-3.507
N2800 Y374.008 Z-2.822
N2805 Y348.815 Z-2.442
N2810 Y322.69 Z-2.361
N2815 Y296.564 Z-2.646
N2820 Y236.848 Z-3.831
N2825 Y181.798 Z-5.238
N2830 Y148.296 Z-6.274
N2835 Y117.224 Z-7.387
N2840 Y88.819 Z-8.566
N2845 Y66.496 Z-9.649
N2850 Y59.909 Z-10.
N2855 Y-5.
N2860 G2 Y-5.419 Z-9.903 J0. K0.953
N2865 G3 Y-5.838 Z-9.806 J-0.419 K-0.855
N2870 G1 Y-5.839
N2875 G17 G2 X-82.378 Y-8.696 I-2.857 J0.
N2880 G1 X-86.185
N2885 G2 X-89.042 Y-5.839 I0. J2.857
N2890 G19 G2 Y-5.419 Z-9.903 J0. K-0.952
N2895 G3 Y-5. Z-10. J0.419 K0.855
N2900 G1 Y86.442 Z-9.98
N2905 Y98.553 Z-8.795
N2910 Y113.095 Z-7.763
N2915 Y130.751 Z-6.896
N2920 Y156.277 Z-6.012
N2925 Y200.1 Z-4.721
N2930 Y257.017 Z-3.369
N2935 Y307.402 Z-2.456
N2940 Y326.175 Z-2.333
N2945 Y353.078 Z-2.537
N2950 Y377.338 Z-3.038
N2955 Y397.865 Z-3.736
N2960 Y410.352 Z-4.364
N2965 Y424.5 Z-5.307
N2970 Y435.936 Z-6.358
N2975 Y446.859 Z-7.634
N2980 Y455.017 Z-8.7
N2985 Y463.138 Z-10.
N2990 Y605.
N2995 G3 Y605.419 Z-9.903 J0. K0.953
N3000 G2 Y605.838 Z-9.806 J0.419 K-0.855
N3005 G1 Y605.839
N3010 G17 G3 X-91.9 Y608.696 I-2.858 J0.
N3015 G1 X-95.706
N3020 G3 X-98.564 Y605.839 I0. J-2.858
N3025 G19 G3 Y605.419 Z-9.903 J0. K-0.952
N3030 G2 Y605. Z-10. J-0.419 K0.855
N3035 G1 Y425.689 Z-9.967
N3040 Y415.034 Z-8.628
N3045 Y405.939 Z-7.7
N3050 Y393.562 Z-6.59
N3055 Y381.255 Z-5.645
N3060 Y365.207 Z-4.728
N3065 Y345.613 Z-3.966
N3070 Y324.192 Z-3.433
N3075 Y311.129 Z-3.328
N3080 Y287.802 Z-3.494
N3085 Y254.212 Z-4.078
N3090 Y222.519 Z-4.934
N3095 Y197.581 Z-5.873
N3100 Y175.496 Z-6.974
N3105 Y158.283 Z-8.133
N3110 Y143.765 Z-9.419
N3115 Y138.184 Z-10.
N3120 Y-5.
N3125 G2 Y-5.419 Z-9.903 J0. K0.953
N3130 G3 Y-5.838 Z-9.806 J-0.419 K-0.855
N3135 G17 G2 X-101.421 Y-8.696 I-2.857 J0.
N3140 G1 X-105.228
N3145 G2 X-108.085 Y-5.838 I0. J2.858
N3150 G19 G2 Y-5.419 Z-9.903 J0. K-0.952
N3155 G3 Y-5. Z-10. J0.419 K0.855
N3160 G1 Y268.897
N3165 Y279.835 Z-9.87
N3170 Y299.896 Z-9.776
N3175 Y316.688 Z-9.98
N3180 Y605. Z-10.
N3185 G3 Y605.419 Z-9.903 J0. K0.953
N3190 G2 Y605.838 Z-9.806 J0.419 K-0.855
N3195 G17 G3 X-110.943 Y608.696 I-2.857 J0.
N3200 G1 X-114.749
N3205 G3 X-117.607 Y605.838 I0. J-2.857
N3210 G19 G3 Y605.419 Z-9.903 J0. K-0.952
N3215 G2 Y605. Z-10. J-0.419 K0.855
N3220 G1 Y-5.
N3225 G2 Y-5.419 Z-9.903 J0. K0.953
N3230 G3 Y-5.838 Z-9.806 J-0.419 K-0.855
N3235 G17 G2 X-120.464 Y-8.696 I-2.858 J0.
N3240 G1 X-124.271
N3245 G2 X-127.128 Y-5.838 I0. J2.858
N3250 G1 Y-5.343
N3255 G19 G2 Y-4.924 Z-9.903 J0. K-0.952
N3260 G3 Y-4.504 Z-10. J0.419 K0.855
N3265 G1 Y604.505
N3270 G3 Y606.409 Z-8.095 J0. K1.905 F1000.
N3275 G0 Z15.
N3280 G17
(PARALLEL3 2)
N3285 G0 X128.96 Y602.311
N3290 Z15.
N3295 Z-13.095
N3300 G19 G2 Y600.406 Z-15. J-1.905 K0. F1000.
N3305 G1 Y-0.406 F3000.
N3310 G2 Y-0.825 Z-14.903 J0. K0.953
N3315 G3 Y-1.244 Z-14.806 J-0.419 K-0.855
N3320 G1 Y-4.838
N3325 G17 G2 X126.103 Y-7.696 I-2.858 J0.
N3330 G1 X123.82
N3335 G2 X120.962 Y-4.838 I0. J2.858
N3340 G19 G2 Y-4.419 Z-14.903 J0. K-0.952
N3345 G3 Y-4. Z-15. J0.419 K0.855
N3350 G1 Y604.
N3355 G3 Y604.419 Z-14.903 J0. K0.953
N3360 G2 Y604.838 Z-14.806 J0.419 K-0.855
N3365 G17 G3 X118.105 Y607.696 I-2.857 J0.
N3370 G1 X115.822
N3375 G3 X112.965 Y604.838 I0. J-2.857
N3380 G19 G3 Y604.419 Z-14.903 J0. K-0.952
N3385 G2 Y604. Z-15. J-0.419 K0.855
N3390 G1 Y-4.
N3395 G2 Y-4.419 Z-14.903 J0. K0.953
N3400 G3 Y-4.838 Z-14.806 J-0.419 K-0.855
N3405 G17 G2 X110.107 Y-7.696 I-2.858 J0.
N3410 G1 X107.825
N3415 G2 X104.967 Y-4.838 I0. J2.858
N3420 G19 G2 Y-4.419 Z-14.903 J0. K-0.952
N3425 G3 Y-4. Z-15. J0.419 K0.855
N3430 G1 Y168.887
N3435 Y174.241 Z-14.176
N3440 Y183.679 Z-13.003
N3445 Y195.707 Z-11.851
N3450 Y208.078 Z-10.901
N3455 Y223.152 Z-9.957
N3460 Y242.209 Z-9.101
N3465 Y263.686 Z-8.472
N3470 Y287.995 Z-8.118
N3475 Y307.802 Z-8.112
N3480 Y321.307 Z-8.342
N3485 Y337.513 Z-8.935
N3490 Y350.034 Z-9.574
N3495 Y362.374 Z-10.346
N3500 Y372.931 Z-11.135
N3505 Y385.224 Z-12.32
N3510 Y394.85 Z-13.518
N3515 Y404.485 Z-15.
N3520 Y604.
N3525 G3 Y604.419 Z-14.903 J0. K0.953
N3530 G2 Y604.838 Z-14.806 J0.419 K-0.855
N3535 G17 G3 X102.11 Y607.696 I-2.858 J0.
N3540 G1 X99.827
N3545 G3 X96.97 Y604.838 I0. J-2.857
N3550 G19 G3 Y604.419 Z-14.903 J0. K-0.952
N3555 G2 Y604. Z-15. J-0.419 K0.855
N3560 G1 Y453.985
N3565 Y447.08 Z-13.567
N3570 Y437.752 Z-11.87
N3575 Y428.821 Z-10.489
N3580 Y417.438 Z-9.108
N3585 Y406.907 Z-8.013
N3590 Y397.243 Z-7.123
N3595 Y383.165 Z-6.094
N3600 Y365.316 Z-5.156
N3605 Y343.708 Z-4.346
N3610 Y323.901 Z-3.939
N3615 Y310.396 Z-3.887
N3620 Y284.286 Z-4.161
N3625 Y245.572 Z-4.91
N3630 Y210.807 Z-5.892
N3635 Y184.943 Z-6.915
N3640 Y167.045 Z-7.848
N3645 Y149.861 Z-9.022
N3650 Y136.224 Z-10.264
N3655 Y125.99 Z-11.442
N3660 Y115.788 Z-12.884
N3665 Y107.116 Z-14.435
N3670 Y104.328 Z-15.
N3675 Y-4.
N3680 G2 Y-4.419 Z-14.903 J0. K0.953
N3685 G3 Y-4.838 Z-14.806 J-0.419 K-0.855
N3690 G17 G2 X94.112 Y-7.696 I-2.857 J0.
N3695 G1 X91.83
N3700 G2 X88.972 Y-4.838 I0. J2.858
N3705 G19 G2 Y-4.419 Z-14.903 J0. K-0.952
N3710 G3 Y-4. Z-15. J0.419 K0.855
N3715 G1 Y63.163
N3720 Y68.239 Z-13.882
N3725 Y76.043 Z-12.487
N3730 Y85.463 Z-11.175
N3735 Y96.496 Z-10.01
N3740 Y109.926 Z-8.968
N3745 Y125.596 Z-8.113
N3750 Y146.028 Z-7.351
N3755 Y192.81 Z-5.92
N3760 Y249.531 Z-4.529
N3765 Y303.551 Z-3.511
N3770 Y323.358 Z-3.339
N3775 Y348.568 Z-3.477
N3780 Y373.777 Z-3.942
N3785 Y396.285 Z-4.667
N3790 Y408.842 Z-5.28
N3795 Y422.951 Z-6.199
N3800 Y434.373 Z-7.234
N3805 Y444.014 Z-8.333
N3810 Y452.765 Z-9.446
N3815 Y461.041 Z-10.74
N3820 Y470.149 Z-12.429
N3825 Y475.333 Z-13.48
N3830 Y481.417 Z-14.97
N3835 Y604. Z-15.
N3840 G3 Y604.419 Z-14.903 J0. K0.953
N3845 G2 Y604.839 Z-14.806 J0.419 K-0.855
N3850 G17 G3 X86.115 Y607.696 I-2.857 J0.
N3855 G1 X83.832
N3860 G3 X80.975 Y604.839 I0. J-2.857
N3865 G19 G3 Y604.42 Z-14.903 J0. K-0.952
N3870 G2 Y604. Z-15. J-0.419 K0.855
N3875 G1 Y499.738 Z-14.953
N3880 Y493.08 Z-13.266
N3885 Y486.169 Z-11.87
N3890 Y479.227 Z-10.611
N3895 Y471.375 Z-9.458
N3900 Y463.048 Z-8.518
N3905 Y451.186 Z-7.467
N3910 Y439.047 Z-6.577
N3915 Y425.101 Z-5.737
N3920 Y410.044 Z-5.
N3925 Y394.011 Z-4.384
N3930 Y370.602 Z-3.763
N3935 Y345.393 Z-3.415
N3940 Y319.283 Z-3.368
N3945 Y291.373 Z-3.729
N3950 Y231.951 Z-4.938
N3955 Y177.03 Z-6.374
N3960 Y142.004 Z-7.486
N3965 Y109.718 Z-8.682
N3970 Y82.19 Z-9.872
N3975 Y68.856 Z-10.556
N3980 Y58.978 Z-11.321
N3985 Y50.313 Z-12.278
N3990 Y42.473 Z-13.452
N3995 Y36.079 Z-14.727
N4000 Y34.88 Z-15.
N4005 Y-4.
N4010 G2 Y-4.419 Z-14.903 J0. K0.953
N4015 G3 Y-4.838 Z-14.806 J-0.419 K-0.855
N4020 G17 G2 X78.117 Y-7.696 I-2.857 J0.
N4025 G1 X75.835
N4030 G2 X72.977 Y-4.838 I0. J2.858
N4035 G19 G2 Y-4.419 Z-14.903 J0. K-0.952
N4040 G3 Y-4. Z-15. J0.419 K0.855
N4045 G1 Y18.835
N4050 Y19.255 Z-14.829
N4055 Y21.553 Z-14.082
N4060 Y24.297 Z-13.64
N4065 Y31.979 Z-12.796
N4070 Y44.429 Z-11.924
N4075 Y63.52 Z-10.809
N4080 Y86.745 Z-9.661
N4085 Y114.382 Z-8.497
N4090 Y146.213 Z-7.347
N4095 Y192.991 Z-5.935
N4100 Y249.712 Z-4.567
N4105 Y303.732 Z-3.569
N4110 Y327.14 Z-3.374
N4115 Y354.15 Z-3.492
N4120 Y379.36 Z-3.91
N4125 Y402.768 Z-4.604
N4130 Y419.714 Z-5.318
N4135 Y435.383 Z-6.155
N4140 Y449.116 Z-7.054
N4145 Y461.072 Z-7.974
N4150 Y472.797 Z-9.018
N4155 Y484.423 Z-10.227
N4160 Y493.877 Z-11.38
N4165 Y500.856 Z-12.415
N4170 Y506.915 Z-13.548
N4175 Y512.912 Z-14.999
N4180 Y604. Z-15.
N4185 G3 Y604.419 Z-14.903 J0. K0.953
N4190 G2 Y604.838 Z-14.806 J0.419 K-0.855
N4195 G1 Y604.839
N4200 G17 G3 X70.12 Y607.696 I-2.857 J0.
N4205 G1 X67.837
N4210 G3 X64.98 Y604.839 I0. J-2.857
N4215 G19 G3 Y604.42 Z-14.903 J0. K-0.952
N4220 G2 Y604. Z-15. J-0.419 K0.855
N4225 G1 Y520.798 Z-14.967
N4230 Y513.201 Z-13.665
N4235 Y504.98 Z-12.452
N4240 Y496.412 Z-11.332
N4245 Y485.896 Z-10.115
N4250 Y473.966 Z-8.915
N4255 Y461.84 Z-7.86
N4260 Y449.703 Z-6.947
N4265 Y435.96 Z-6.071
N4270 Y421.872 Z-5.327
N4275 Y405.029 Z-4.616
N4280 Y388.449 Z-4.087
N4285 Y363.689 Z-3.586
N4290 Y338.48 Z-3.383
N4295 Y313.106 Z-3.47
N4300 Y277.993 Z-4.012
N4305 Y219.471 Z-5.26
N4310 Y166.351 Z-6.708
N4315 Y134.07 Z-7.767
N4320 Y103.487 Z-8.935
N4325 Y77.983 Z-10.073
N4330 Y55.307 Z-11.265
N4335 Y37.878 Z-12.358
N4340 Y25.236 Z-13.307
N4345 Y18.921 Z-13.874
N4350 Y16.577 Z-14.34
N4355 Y14.541 Z-15.
N4360 Y-4.
N4365 G2 Y-4.419 Z-14.903 J0. K0.953
N4370 G3 Y-4.838 Z-14.806 J-0.419 K-0.855
N4375 G17 G2 X62.122 Y-7.696 I-2.858 J0.
N4380 G1 X59.84
N4385 G2 X56.982 Y-4.838 I0. J2.858
N4390 G19 G2 Y-4.419 Z-14.903 J0. K-0.952
N4395 G3 Y-4. Z-15. J0.419 K0.855
N4400 G1 Y11.23
N4405 Y11.59 Z-14.93
N4410 Y13.984 Z-14.366
N4415 Y18.715 Z-13.876
N4420 Y29.77 Z-12.947
N4425 Y43.997 Z-11.952
N4430 Y63.078 Z-10.832
N4435 Y86.274 Z-9.683
N4440 Y113.751 Z-8.522
N4445 Y145.66 Z-7.368
N4450 Y182.557 Z-6.231
N4455 Y237.477 Z-4.84
N4460 Y296.899 Z-3.68
N4465 Y325.71 Z-3.38
N4470 Y349.679 Z-3.414
N4475 Y375.788 Z-3.75
N4480 Y400.097 Z-4.379
N4485 Y419.853 Z-5.149
N4490 Y434.901 Z-5.912
N4495 Y448.837 Z-6.773
N4500 Y462.556 Z-7.782
N4505 Y474.862 Z-8.842
N4510 Y486.973 Z-10.05
N4515 Y497.313 Z-11.229
N4520 Y507.632 Z-12.562
N4525 Y516.36 Z-13.839
N4530 Y523.42 Z-14.988
N4535 Y604. Z-15.
N4540 G3 Y604.419 Z-14.903 J0. K0.953
N4545 G2 Y604.839 Z-14.806 J0.419 K-0.855
N4550 G17 G3 X54.125 Y607.696 I-2.858 J0.
N4555 G1 X51.842
N4560 G3 X48.985 Y604.839 I0. J-2.858
N4565 G19 G3 Y604.42 Z-14.903 J0. K-0.952
N4570 G2 Y604. Z-15. J-0.419 K0.855
N4575 G1 Y524.771 Z-14.97
N4580 Y516.238 Z-13.609
N4585 Y507.505 Z-12.363
N4590 Y497.181 Z-11.058
N4595 Y487.017 Z-9.92
N4600 Y474.904 Z-8.732
N4605 Y462.597 Z-7.688
N4610 Y449.056 Z-6.706
N4615 Y435.117 Z-5.855
N4620 Y419.496 Z-5.076
N4625 Y401.623 Z-4.385
N4630 Y378.215 Z-3.769
N4635 Y353.005 Z-3.422
N4640 Y324.81 Z-3.382
N4645 Y295.999 Z-3.695
N4650 Y236.577 Z-4.861
N4655 Y181.657 Z-6.256
N4660 Y145.66 Z-7.368
N4665 Y113.751 Z-8.522
N4670 Y86.274 Z-9.683
N4675 Y63.077 Z-10.832
N4680 Y43.997 Z-11.952
N4685 Y29.769 Z-12.947
N4690 Y18.715 Z-13.876
N4695 Y12.407 Z-14.517
N4700 Y10.268 Z-15.
N4705 Y-4.
N4710 G2 Y-4.419 Z-14.903 J0. K0.953
N4715 G3 Y-4.838 Z-14.806 J-0.419 K-0.855
N4720 G1 Y-4.839
N4725 G17 G2 X46.127 Y-7.697 I-2.857 J0.
N4730 G1 X43.845
N4735 G2 X40.987 Y-4.839 I0. J2.857
N4740 G19 G2 Y-4.42 Z-14.903 J0. K-0.953
N4745 G3 Y-4. Z-15. J0.419 K0.855
N4750 G1 Y10.175 Z-14.989
N4755 Y12.407 Z-14.509
N4760 Y18.715 Z-13.876
N4765 Y29.769 Z-12.947
N4770 Y43.997 Z-11.952
N4775 Y63.077 Z-10.832
N4780 Y86.274 Z-9.683
N4785 Y113.751 Z-8.522
N4790 Y145.66 Z-7.368
N4795 Y181.657 Z-6.256
N4800 Y236.577 Z-4.861
N4805 Y295.999 Z-3.695
N4810 Y324.81 Z-3.38
N4815 Y352.941 Z-3.41
N4820 Y378.15 Z-3.746
N4825 Y401.559 Z-4.352
N4830 Y419.313 Z-5.029
N4835 Y434.836 Z-5.792
N4840 Y449.044 Z-6.65
N4845 Y462.585 Z-7.622
N4850 Y474.893 Z-8.656
N4855 Y486.828 Z-9.813
N4860 Y497.351 Z-10.977
N4865 Y507.676 Z-12.266
N4870 Y516.412 Z-13.494
N4875 Y525.671 Z-14.951
N4880 Y604. Z-15.
N4885 G3 Y604.42 Z-14.903 J0.001 K0.952
N4890 G2 Y604.839 Z-14.806 J0.419 K-0.855
N4895 G17 G3 X38.13 Y607.696 I-2.857 J0.
N4900 G1 X35.847
N4905 G3 X32.99 Y604.839 I0. J-2.858
N4910 G1 Y604.838
N4915 G19 G3 Y604.419 Z-14.903 J0. K-0.952
N4920 G2 Y604. Z-15. J-0.419 K0.855
N4925 G1 Y526.571 Z-14.998
N4930 Y518.213 Z-13.675
N4935 Y509.837 Z-12.481
N4940 Y499.514 Z-11.167
N4945 Y489.352 Z-10.019
N4950 Y477.599 Z-8.854
N4955 Y465.032 Z-7.773
N4960 Y453.334 Z-6.902
N4965 Y439.772 Z-6.039
N4970 Y424.954 Z-5.258
N4975 Y402.446 Z-4.361
N4980 Y378.137 Z-3.731
N4985 Y352.927 Z-3.402
N4990 Y324.81 Z-3.378
N4995 Y295.999 Z-3.695
N5000 Y236.577 Z-4.861
N5005 Y181.657 Z-6.256
N5010 Y145.66 Z-7.368
N5015 Y113.751 Z-8.522
N5020 Y86.274 Z-9.683
N5025 Y63.077 Z-10.832
N5030 Y43.997 Z-11.952
N5035 Y29.769 Z-12.947
N5040 Y18.715 Z-13.876
N5045 Y12.014 Z-14.557
N5050 Y9.897 Z-15.
N5055 Y-4.
N5060 G2 Y-4.419 Z-14.903 J0. K0.953
N5065 G3 Y-4.838 Z-14.806 J-0.419 K-0.855
N5070 G17 G2 X30.132 Y-7.696 I-2.858 J0.
N5075 G1 X27.85
N5080 G2 X24.992 Y-4.838 I0. J2.858
N5085 G19 G2 Y-4.419 Z-14.903 J0. K-0.952
N5090 G3 Y-4. Z-15. J0.419 K0.855
N5095 G1 Y9.783
N5100 Y12.013 Z-14.553
N5105 Y20.293 Z-13.732
N5110 Y31.349 Z-12.827
N5115 Y47.163 Z-11.752
N5120 Y66.284 Z-10.662
N5125 Y89.561 Z-9.534
N5130 Y117.257 Z-8.386
N5135 Y147.46 Z-7.309
N5140 Y194.261 Z-5.906
N5145 Y250.982 Z-4.547
N5150 Y304.102 Z-3.576
N5155 Y332.012 Z-3.352
N5160 Y359.4 Z-3.449
N5165 Y384.609 Z-3.857
N5170 Y407.936 Z-4.535
N5175 Y425.483 Z-5.266
N5180 Y439.405 Z-5.996
N5185 Y453.15 Z-6.864
N5190 Y465.467 Z-7.779
N5195 Y477.415 Z-8.805
N5200 Y489.17 Z-9.964
N5205 Y499.154 Z-11.082
N5210 Y509.479 Z-12.386
N5215 Y518.212 Z-13.621
N5220 Y526.796 Z-14.974
N5225 Y604. Z-15.
N5230 G3 Y604.419 Z-14.903 J0. K0.953
N5235 G2 Y604.839 Z-14.806 J0.419 K-0.855
N5240 G17 G3 X22.135 Y607.696 I-2.858 J0.
N5245 G1 X19.852
N5250 G3 X16.995 Y604.839 I0. J-2.857
N5255 G19 G3 Y604.419 Z-14.903 J0. K-0.952
N5260 G2 Y604. Z-15. J-0.419 K0.855
N5265 G1 Y527.021 Z-14.977
N5270 Y518.212 Z-13.591
N5275 Y509.834 Z-12.406
N5280 Y499.331 Z-11.079
N5285 Y489.167 Z-9.942
N5290 Y477.412 Z-8.785
N5295 Y465.464 Z-7.762
N5300 Y453.326 Z-6.861
N5305 Y439.221 Z-5.973
N5310 Y424.932 Z-5.227
N5315 Y407.284 Z-4.501
N5320 Y388.4 Z-3.937
N5325 Y363.191 Z-3.488
N5330 Y337.081 Z-3.343
N5335 Y308.153 Z-3.521
N5340 Y259.985 Z-4.361
N5345 Y203.264 Z-5.667
N5350 Y151.947 Z-7.161
N5355 Y120.771 Z-8.252
N5360 Y93.013 Z-9.381
N5365 Y67.891 Z-10.578
N5370 Y47.163 Z-11.752
N5375 Y31.349 Z-12.827
N5380 Y20.293 Z-13.732
N5385 Y11.816 Z-14.58
N5390 Y9.755 Z-15.
N5395 Y-4.
N5400 G2 Y-4.419 Z-14.903 J0. K0.953
N5405 G3 Y-4.838 Z-14.806 J-0.419 K-0.855
N5410 G17 G2 X14.137 Y-7.696 I-2.858 J0.
N5415 G1 X11.855
N5420 G2 X8.997 Y-4.838 I0. J2.858
N5425 G19 G2 Y-4.419 Z-14.903 J0. K-0.952
N5430 G3 Y-4. Z-15. J0.419 K0.855
N5435 G1 Y9.747
N5440 Y11.619 Z-14.609
N5445 Y18.715 Z-13.876
N5450 Y29.769 Z-12.947
N5455 Y43.997 Z-11.952
N5460 Y63.077 Z-10.832
N5465 Y86.273 Z-9.683
N5470 Y113.751 Z-8.522
N5475 Y145.66 Z-7.368
N5480 Y181.656 Z-6.256
N5485 Y236.577 Z-4.861
N5490 Y295.098 Z-3.71
N5495 Y323.909 Z-3.383
N5500 Y351.309 Z-3.379
N5505 Y377.419 Z-3.699
N5510 Y401.728 Z-4.31
N5515 Y424.214 Z-5.188
N5520 Y439.223 Z-5.966
N5525 Y453.149 Z-6.841
N5530 Y465.107 Z-7.724
N5535 Y477.055 Z-8.743
N5540 Y488.811 Z-9.894
N5545 Y498.975 Z-11.024
N5550 Y509.299 Z-12.321
N5555 Y518.034 Z-13.549
N5560 Y527.021 Z-14.96
N5565 Y604. Z-15.
N5570 G3 Y604.42 Z-14.903 J0. K0.953
N5575 G2 Y604.839 Z-14.806 J0.419 K-0.855
N5580 G17 G3 X6.14 Y607.696 I-2.858 J0.
N5585 G1 X3.857
N5590 G3 X1. Y604.839 I0. J-2.857
N5595 G19 G3 Y604.42 Z-14.903 J0. K-0.952
N5600 G2 Y604. Z-15. J-0.419 K0.855
N5605 G1 Y527.021 Z-14.955
N5610 Y518.034 Z-13.544
N5615 Y509.477 Z-12.34
N5620 Y499.331 Z-11.062
N5625 Y487.413 Z-9.745
N5630 Y475.297 Z-8.579
N5635 Y461.947 Z-7.475
N5640 Y448.404 Z-6.523
N5645 Y434.797 Z-5.717
N5650 Y418.243 Z-4.922
N5655 Y401.338 Z-4.295
N5660 Y377.051 Z-3.691
N5665 Y350.941 Z-3.377
N5670 Y323.909 Z-3.383
N5675 Y295.098 Z-3.71
N5680 Y236.577 Z-4.861
N5685 Y181.656 Z-6.256
N5690 Y145.66 Z-7.368
N5695 Y113.751 Z-8.522
N5700 Y86.273 Z-9.683
N5705 Y63.077 Z-10.832
N5710 Y43.997 Z-11.952
N5715 Y29.769 Z-12.947
N5720 Y18.715 Z-13.876
N5725 Y11.619 Z-14.609
N5730 Y9.739 Z-15.
N5735 Y-4.
N5740 G2 Y-4.419 Z-14.903 J0. K0.953
N5745 G3 Y-4.838 Z-14.806 J-0.419 K-0.855
N5750 G17 G2 X-1.858 Y-7.696 I-2.858 J0.
N5755 G1 X-4.14
N5760 G2 X-6.998 Y-4.838 I0. J2.858
N5765 G19 G2 Y-4.419 Z-14.903 J0. K-0.952
N5770 G3 Y-4. Z-15. J0.419 K0.855
N5775 G1 Y9.745
N5780 Y11.619 Z-14.609
N5785 Y18.715 Z-13.876
N5790 Y29.769 Z-12.947
N5795 Y43.997 Z-11.952
N5800 Y63.077 Z-10.832
N5805 Y86.273 Z-9.683
N5810 Y113.751 Z-8.522
N5815 Y145.66 Z-7.368
N5820 Y181.656 Z-6.256
N5825 Y236.577 Z-4.861
N5830 Y295.098 Z-3.71
N5835 Y323.909 Z-3.383
N5840 Y351.79 Z-3.382
N5845 Y377.9 Z-3.708
N5850 Y402.208 Z-4.325
N5855 Y424.717 Z-5.21
N5860 Y439.007 Z-5.953
N5865 Y453.113 Z-6.837
N5870 Y465.431 Z-7.749
N5875 Y477.738 Z-8.804
N5880 Y488.273 Z-9.836
N5885 Y498.796 Z-11.001
N5890 Y509.299 Z-12.319
N5895 Y518.034 Z-13.547
N5900 Y527.021 Z-14.958
N5905 Y604. Z-15.
N5910 G3 Y604.42 Z-14.903 J0. K0.952
N5915 G2 Y604.839 Z-14.806 J0.419 K-0.855
N5920 G17 G3 X-9.855 Y607.696 I-2.858 J0.
N5925 G1 X-12.138
N5930 G3 X-14.995 Y604.839 I0. J-2.857
N5935 G19 G3 Y604.419 Z-14.903 J0. K-0.952
N5940 G2 Y604. Z-15. J-0.419 K0.855
N5945 G1 Y527.021 Z-14.972
N5950 Y518.034 Z-13.559
N5955 Y509.3 Z-12.33
N5960 Y498.796 Z-11.011
N5965 Y488.274 Z-9.845
N5970 Y477.738 Z-8.812
N5975 Y465.432 Z-7.756
N5980 Y453.114 Z-6.844
N5985 Y439.008 Z-5.959
N5990 Y424.719 Z-5.215
N5995 Y402.211 Z-4.329
N6000 Y377.902 Z-3.71
N6005 Y351.792 Z-3.384
N6010 Y323.909 Z-3.383
N6015 Y295.098 Z-3.71
N6020 Y236.577 Z-4.861
N6025 Y181.656 Z-6.256
N6030 Y145.66 Z-7.368
N6035 Y113.751 Z-8.522
N6040 Y86.273 Z-9.683
N6045 Y63.077 Z-10.832
N6050 Y43.997 Z-11.952
N6055 Y29.769 Z-12.947
N6060 Y18.715 Z-13.876
N6065 Y11.619 Z-14.61
N6070 Y9.753 Z-15.
N6075 Y-4.
N6080 G2 Y-4.419 Z-14.903 J0. K0.953
N6085 G3 Y-4.838 Z-14.806 J-0.419 K-0.855
N6090 G17 G2 X-17.853 Y-7.696 I-2.858 J0.
N6095 G1 X-20.135
N6100 G2 X-22.993 Y-4.838 I0. J2.858
N6105 G19 G2 Y-4.419 Z-14.903 J0. K-0.952
N6110 G3 Y-4. Z-15. J0.419 K0.855
N6115 G1 Y9.762
N6120 Y11.619 Z-14.61
N6125 Y18.715 Z-13.876
N6130 Y29.769 Z-12.947
N6135 Y43.997 Z-11.952
N6140 Y63.077 Z-10.832
N6145 Y86.274 Z-9.683
N6150 Y113.751 Z-8.522
N6155 Y145.66 Z-7.368
N6160 Y181.656 Z-6.256
N6165 Y236.577 Z-4.861
N6170 Y295.098 Z-3.71
N6175 Y323.909 Z-3.383
N6180 Y351.797 Z-3.387
N6185 Y377.907 Z-3.716
N6190 Y402.216 Z-4.337
N6195 Y424.724 Z-5.225
N6200 Y439.011 Z-5.97
N6205 Y453.116 Z-6.857
N6210 Y465.433 Z-7.771
N6215 Y477.74 Z-8.829
N6220 Y488.275 Z-9.864
N6225 Y498.798 Z-11.032
N6230 Y509.3 Z-12.354
N6235 Y518.034 Z-13.585
N6240 Y526.796 Z-14.963
N6245 Y604. Z-15.
N6250 G3 Y604.42 Z-14.903 J0. K0.953
N6255 G2 Y604.839 Z-14.806 J0.419 K-0.855
N6260 G17 G3 X-25.85 Y607.696 I-2.858 J0.
N6265 G1 X-28.133
N6270 G3 X-30.99 Y604.839 I0. J-2.857
N6275 G19 G3 Y604.419 Z-14.903 J0. K-0.952
N6280 G2 Y604. Z-15. J-0.419 K0.855
N6285 G1 Y526.571 Z-14.979
N6290 Y518.035 Z-13.632
N6295 Y507.553 Z-12.161
N6300 Y497.047 Z-10.864
N6305 Y486.523 Z-9.714
N6310 Y474.229 Z-8.539
N6315 Y461.919 Z-7.52
N6320 Y449.598 Z-6.641
N6325 Y435.469 Z-5.789
N6330 Y420.232 Z-5.039
N6335 Y397.724 Z-4.209
N6340 Y373.415 Z-3.641
N6345 Y347.305 Z-3.37
N6350 Y320.308 Z-3.408
N6355 Y290.597 Z-3.786
N6360 Y231.175 Z-4.983
N6365 Y176.255 Z-6.412
N6370 Y142.085 Z-7.489
N6375 Y111.154 Z-8.624
N6380 Y84.473 Z-9.766
N6385 Y61.478 Z-10.919
N6390 Y42.415 Z-12.054
N6395 Y28.189 Z-13.069
N6400 Y17.137 Z-14.025
N6405 Y11.62 Z-14.617
N6410 Y9.865 Z-15.
N6415 Y-4.
N6420 G2 Y-4.419 Z-14.903 J0. K0.953
N6425 G3 Y-4.838 Z-14.806 J-0.419 K-0.855
N6430 G1 Y-4.84
N6435 G17 G2 X-33.848 Y-7.697 I-2.858 J0.
N6440 G1 X-36.13
N6445 G2 X-38.988 Y-4.84 I0. J2.858
N6450 G19 G2 Y-4.421 Z-14.903 J0. K-0.952
N6455 G3 Y-4. Z-15. J0.419 K0.855
N6460 G1 Y10.179 Z-14.977
N6465 Y12.407 Z-14.508
N6470 Y20.293 Z-13.732
N6475 Y31.349 Z-12.827
N6480 Y47.164 Z-11.752
N6485 Y66.284 Z-10.662
N6490 Y89.561 Z-9.534
N6495 Y117.257 Z-8.386
N6500 Y147.461 Z-7.309
N6505 Y192.461 Z-5.955
N6510 Y249.182 Z-4.585
N6515 Y303.202 Z-3.588
N6520 Y330.212 Z-3.36
N6525 Y351.761 Z-3.398
N6530 Y377.87 Z-3.736
N6535 Y402.179 Z-4.367
N6540 Y424.688 Z-5.265
N6545 Y438.964 Z-6.017
N6550 Y453.065 Z-6.911
N6555 Y465.382 Z-7.832
N6560 Y477.688 Z-8.898
N6565 Y488.222 Z-9.942
N6570 Y498.743 Z-11.121
N6575 Y509.245 Z-12.456
N6580 Y517.978 Z-13.702
N6585 Y526.121 Z-14.995
N6590 Y604. Z-15.
N6595 G3 Y604.419 Z-14.903 J0. K0.953
N6600 G2 Y604.838 Z-14.806 J0.419 K-0.855
N6605 G17 G3 X-41.845 Y607.696 I-2.857 J0.
N6610 G1 X-44.128
N6615 G3 X-46.985 Y604.838 I0. J-2.858
N6620 G19 G3 Y604.419 Z-14.903 J0. K-0.952
N6625 G2 Y604. Z-15. J-0.419 K0.855
N6630 G1 Y525.221 Z-14.996
N6635 Y516.237 Z-13.567
N6640 Y507.503 Z-12.327
N6645 Y496.999 Z-11.006
N6650 Y486.477 Z-9.838
N6655 Y475.941 Z-8.806
N6660 Y463.635 Z-7.751
N6665 Y449.556 Z-6.723
N6670 Y435.436 Z-5.859
N6675 Y420.211 Z-5.097
N6680 Y397.702 Z-4.253
N6685 Y373.393 Z-3.67
N6690 Y347.284 Z-3.384
N6695 Y328.411 Z-3.368
N6700 Y301.401 Z-3.613
N6705 Y245.58 Z-4.662
N6710 Y189.76 Z-6.029
N6715 Y146.56 Z-7.338
N6720 Y115.552 Z-8.452
N6725 Y87.915 Z-9.608
N6730 Y64.679 Z-10.747
N6735 Y45.58 Z-11.851
N6740 Y29.769 Z-12.947
N6745 Y18.715 Z-13.876
N6750 Y12.211 Z-14.544
N6755 Y10.211 Z-15.
N6760 Y-4.
N6765 G2 Y-4.419 Z-14.903 J0. K0.953
N6770 G3 Y-4.838 Z-14.806 J-0.419 K-0.855
N6775 G17 G2 X-49.843 Y-7.696 I-2.858 J0.
N6780 G1 X-52.125
N6785 G2 X-54.983 Y-4.838 I0. J2.858
N6790 G19 G2 Y-4.419 Z-14.903 J0. K-0.952
N6795 G3 Y-4. Z-15. J0.419 K0.855
N6800 G1 Y10.747
N6805 Y13.097 Z-14.453
N6810 Y20.294 Z-13.732
N6815 Y31.35 Z-12.827
N6820 Y47.164 Z-11.752
N6825 Y66.284 Z-10.662
N6830 Y89.562 Z-9.534
N6835 Y118.158 Z-8.351
N6840 Y149.247 Z-7.249
N6845 Y196.062 Z-5.858
N6850 Y252.783 Z-4.509
N6855 Y305.002 Z-3.563
N6860 Y330.212 Z-3.369
N6865 Y352.67 Z-3.431
N6870 Y377.88 Z-3.783
N6875 Y402.189 Z-4.436
N6880 Y424.694 Z-5.359
N6885 Y438.941 Z-6.126
N6890 Y453.035 Z-7.04
N6895 Y465.35 Z-7.981
N6900 Y477.654 Z-9.072
N6905 Y488.186 Z-10.142
N6910 Y498.702 Z-11.353
N6915 Y507.451 Z-12.486
N6920 Y516.181 Z-13.751
N6925 Y523.87 Z-14.994
N6930 Y604. Z-15.
N6935 G3 Y604.419 Z-14.903 J0. K0.953
N6940 G2 Y604.838 Z-14.806 J0.419 K-0.855
N6945 G1 Y604.839
N6950 G17 G3 X-57.84 Y607.696 I-2.857 J0.
N6955 G1 X-60.123
N6960 G3 X-62.98 Y604.839 I0. J-2.857
N6965 G19 G3 Y604.42 Z-14.903 J0. K-0.952
N6970 G2 Y604. Z-15. J-0.419 K0.855
N6975 G1 Y521.62 Z-14.967
N6980 Y516.129 Z-14.033
N6985 Y507.408 Z-12.717
N6990 Y498.664 Z-11.551
N6995 Y488.151 Z-10.312
N7000 Y477.621 Z-9.221
N7005 Y465.32 Z-8.109
N7010 Y453.006 Z-7.15
N7015 Y440.679 Z-6.326
N7020 Y426.484 Z-5.531
N7025 Y408.639 Z-4.733
N7030 Y385.23 Z-3.991
N7035 Y360.021 Z-3.527
N7040 Y332.913 Z-3.372
N7045 Y307.253 Z-3.532
N7050 Y257.285 Z-4.416
N7055 Y199.664 Z-5.762
N7060 Y149.247 Z-7.249
N7065 Y118.158 Z-8.351
N7070 Y89.562 Z-9.534
N7075 Y66.284 Z-10.662
N7080 Y47.164 Z-11.752
N7085 Y31.35 Z-12.827
N7090 Y20.294 Z-13.732
N7095 Y17.138 Z-14.068
N7100 Y14.614 Z-14.667
N7105 Y13.643 Z-15.
N7110 Y-4.
N7115 G2 Y-4.419 Z-14.903 J0. K0.953
N7120 G3 Y-4.838 Z-14.806 J-0.419 K-0.855
N7125 G17 G2 X-65.838 Y-7.696 I-2.858 J0.
N7130 G1 X-68.12
N7135 G2 X-70.978 Y-4.838 I0. J2.858
N7140 G19 G2 Y-4.419 Z-14.903 J0. K-0.952
N7145 G3 Y-4. Z-15. J0.419 K0.855
N7150 G1 Y17.654
N7155 Y18.582 Z-14.644
N7160 Y20.881 Z-13.922
N7165 Y23.038 Z-13.529
N7170 Y31.132 Z-12.843
N7175 Y46.945 Z-11.765
N7180 Y66.064 Z-10.673
N7185 Y89.341 Z-9.544
N7190 Y117.937 Z-8.36
N7195 Y149.019 Z-7.255
N7200 Y198.534 Z-5.789
N7205 Y255.255 Z-4.454
N7210 Y306.574 Z-3.536
N7215 Y329.983 Z-3.378
N7220 Y356.092 Z-3.509
N7225 Y381.302 Z-3.942
N7230 Y404.71 Z-4.658
N7235 Y426.304 Z-5.621
N7240 Y440.482 Z-6.434
N7245 Y454.566 Z-7.408
N7250 Y466.876 Z-8.414
N7255 Y479.171 Z-9.584
N7260 Y489.694 Z-10.745
N7265 Y498.444 Z-11.86
N7270 Y505.42 Z-12.9
N7275 Y510.622 Z-13.85
N7280 Y515.337 Z-14.952
N7285 Y604. Z-15.
N7290 G3 Y604.42 Z-14.903 J0.001 K0.952
N7295 G2 Y604.839 Z-14.806 J0.419 K-0.855
N7300 G17 G3 X-73.835 Y607.696 I-2.857 J0.
N7305 G1 X-76.118
N7310 G3 X-78.975 Y604.839 I0. J-2.857
N7315 G19 G3 Y604.419 Z-14.903 J0. K-0.952
N7320 G2 Y604. Z-15. J-0.419 K0.855
N7325 G1 Y503.555 Z-14.964
N7330 Y498.517 Z-13.68
N7335 Y491.612 Z-12.231
N7340 Y484.855 Z-10.969
N7345 Y477. Z-9.846
N7350 Y468.235 Z-8.857
N7355 Y456.812 Z-7.824
N7360 Y446.257 Z-7.009
N7365 Y432.164 Z-6.088
N7370 Y417.913 Z-5.324
N7375 Y396.305 Z-4.437
N7380 Y371.996 Z-3.779
N7385 Y346.786 Z-3.425
N7390 Y320.677 Z-3.371
N7395 Y293.667 Z-3.699
N7400 Y234.245 Z-4.892
N7405 Y179.324 Z-6.31
N7410 Y142.467 Z-7.471
N7415 Y110.727 Z-8.641
N7420 Y83.31 Z-9.82
N7425 Y60.97 Z-10.951
N7430 Y50.887 Z-11.716
N7435 Y42.421 Z-12.671
N7440 Y35.372 Z-13.779
N7445 Y29.465 Z-15.
N7450 Y-4.
N7455 G2 Y-4.419 Z-14.903 J0. K0.953
N7460 G3 Y-4.838 Z-14.806 J-0.419 K-0.855
N7465 G17 G2 X-81.833 Y-7.696 I-2.857 J0.
N7470 G1 X-84.116
N7475 G2 X-86.973 Y-4.838 I0. J2.858
N7480 G19 G2 Y-4.419 Z-14.903 J0. K-0.952
N7485 G3 Y-4. Z-15. J0.419 K0.855
N7490 G1 Y55.068
N7495 Y59.025 Z-14.115
N7500 Y66.823 Z-12.68
N7505 Y75.455 Z-11.45
N7510 Y85.697 Z-10.341
N7515 Y98.336 Z-9.347
N7520 Y112.834 Z-8.566
N7525 Y142.482 Z-7.47
N7530 Y178.409 Z-6.329
N7535 Y232.429 Z-4.914
N7540 Y291.851 Z-3.699
N7545 Y319.311 Z-3.345
N7550 Y338.467 Z-3.375
N7555 Y363.676 Z-3.682
N7560 Y387.085 Z-4.263
N7565 Y409.593 Z-5.153
N7570 Y424.683 Z-6.005
N7575 Y435.241 Z-6.79
N7580 Y445.83 Z-7.837
N7585 Y455.917 Z-9.13
N7590 Y464.647 Z-10.392
N7595 Y472.456 Z-11.796
N7600 Y480.914 Z-13.56
N7605 Y486.803 Z-14.972
N7610 Y604. Z-15.
N7615 G3 Y604.419 Z-14.903 J0. K0.953
N7620 G2 Y604.839 Z-14.806 J0.419 K-0.855
N7625 G17 G3 X-89.831 Y607.696 I-2.857 J0.
N7630 G1 X-92.113
N7635 G3 X-94.971 Y604.839 I0. J-2.858
N7640 G19 G3 Y604.419 Z-14.903 J0. K-0.952
N7645 G2 Y604. Z-15. J-0.419 K0.855
N7650 G1 Y461.899 Z-14.965
N7655 Y453.606 Z-13.187
N7660 Y445.99 Z-11.723
N7665 Y436.783 Z-10.319
N7670 Y426.259 Z-8.967
N7675 Y415.042 Z-7.696
N7680 Y402.741 Z-6.604
N7685 Y389.718 Z-5.697
N7690 Y376.621 Z-4.931
N7695 Y359.086 Z-4.192
N7700 Y338.828 Z-3.696
N7705 Y319.021 Z-3.5
N7710 Y295.612 Z-3.716
N7715 Y245.194 Z-4.674
N7720 Y204.228 Z-5.729
N7725 Y175.853 Z-6.749
N7730 Y154.546 Z-7.814
N7735 Y140.499 Z-8.741
N7740 Y127.078 Z-9.89
N7745 Y115.263 Z-11.196
N7750 Y104.276 Z-12.74
N7755 Y96.474 Z-14.151
N7760 Y92.46 Z-15.
N7765 Y-4.
N7770 G2 Y-4.419 Z-14.903 J0. K0.953
N7775 G3 Y-4.838 Z-14.806 J-0.419 K-0.855
N7780 G17 G2 X-97.828 Y-7.696 I-2.857 J0.
N7785 G1 X-100.111
N7790 G2 X-102.968 Y-4.838 I0. J2.858
N7795 G19 G2 Y-4.419 Z-14.903 J0. K-0.952
N7800 G3 Y-4. Z-15. J0.419 K0.855
N7805 G1 Y149.023
N7810 Y156.667 Z-13.744
N7815 Y167.064 Z-12.414
N7820 Y177.665 Z-11.277
N7825 Y191.48 Z-10.092
N7830 Y208.526 Z-9.006
N7835 Y228.501 Z-8.085
N7840 Y245.455 Z-7.504
N7845 Y270.664 Z-6.922
N7850 Y296.774 Z-6.657
N7855 Y317.481 Z-6.746
N7860 Y336.388 Z-7.247
N7865 Y354.361 Z-8.022
N7870 Y369.37 Z-8.955
N7875 Y382.378 Z-10.033
N7880 Y392.557 Z-11.026
N7885 Y403.951 Z-12.319
N7890 Y412.679 Z-13.577
N7895 Y420.332 Z-14.954
N7900 Y604. Z-15.
N7905 G3 Y604.419 Z-14.903 J0. K0.953
N7910 G2 Y604.839 Z-14.806 J0.419 K-0.855
N7915 G17 G3 X-105.826 Y607.696 I-2.858 J0.
N7920 G1 X-108.108
N7925 G3 X-110.966 Y604.839 I0. J-2.858
N7930 G1 Y604.838
N7935 G19 G3 Y604.419 Z-14.903 J0. K-0.952
N7940 G2 Y604. Z-15. J-0.419 K0.855
N7945 G1 Y-4.
N7950 G2 Y-4.419 Z-14.903 J0. K0.953
N7955 G3 Y-4.838 Z-14.806 J-0.419 K-0.855
N7960 G17 G2 X-113.823 Y-7.696 I-2.857 J0.
N7965 G1 X-116.106
N7970 G2 X-118.963 Y-4.838 I0. J2.858
N7975 G19 G2 Y-4.419 Z-14.903 J0. K-0.952
N7980 G3 Y-4. Z-15. J0.419 K0.855
N7985 G1 Y604.
N7990 G3 Y604.419 Z-14.903 J0. K0.953
N7995 G2 Y604.838 Z-14.806 J0.419 K-0.855
N8000 G17 G3 X-121.821 Y607.696 I-2.857 J0.
N8005 G1 X-124.103
N8010 G3 X-126.961 Y604.838 I0. J-2.857
N8015 G1 Y604.304
N8020 G19 G3 Y603.885 Z-14.903 J0. K-0.952
N8025 G2 Y603.466 Z-15. J-0.419 K0.855
N8030 G1 Y-3.466
N8035 G2 Y-5.371 Z-13.095 J0. K1.905 F1000.
N8040 G0 Z15.
N8045 G17
(PARALLEL3 3)
N8050 G0 X128.96 Y602.311
N8055 Z15.
N8060 Z-23.095
N8065 G19 G2 Y600.406 Z-25. J-1.905 K0. F1000.
N8070 G1 Y-0.406 F3000.
N8075 G2 Y-0.825 Z-24.903 J0. K0.952
N8080 G3 Y-1.244 Z-24.806 J-0.419 K-0.855
N8085 G1 Y-4.838
N8090 G17 G2 X126.103 Y-7.696 I-2.858 J0.
N8095 G1 X123.82
N8100 G2 X120.962 Y-4.838 I0. J2.858
N8105 G19 G2 Y-4.419 Z-24.903 J0. K-0.952
N8110 G3 Y-4. Z-25. J0.419 K0.855
N8115 G1 Y604.
N8120 G3 Y604.419 Z-24.903 J0. K0.952
N8125 G2 Y604.838 Z-24.806 J0.419 K-0.855
N8130 G17 G3 X118.105 Y607.696 I-2.857 J0.
N8135 G1 X115.822
N8140 G3 X112.965 Y604.838 I0. J-2.857
N8145 G19 G3 Y604.419 Z-24.903 J0. K-0.952
N8150 G2 Y604. Z-25. J-0.419 K0.855
N8155 G1 Y-4.
N8160 G2 Y-4.419 Z-24.903 J0. K0.952
N8165 G3 Y-4.838 Z-24.806 J-0.419 K-0.855
N8170 G17 G2 X110.107 Y-7.696 I-2.858 J0.
N8175 G1 X107.825
N8180 G2 X104.967 Y-4.838 I0. J2.858
N8185 G19 G2 Y-4.419 Z-24.903 J0. K-0.952
N8190 G3 Y-4. Z-25. J0.419 K0.855
N8195 G1 Y140.384
N8200 Y140.513 Z-24.759
N8205 Y141.989 Z-23.
N8210 Y142.687 Z-22.351
N8215 Y144.087 Z-21.47
N8220 Y145.553 Z-20.787
N8225 Y150.034 Z-19.156
N8230 Y153.837 Z-17.982
N8235 Y159.251 Z-16.728
N8240 Y167.227 Z-15.287
N8245 Y174.274 Z-14.171
N8250 Y184.498 Z-12.913
N8255 Y197.122 Z-11.732
N8260 Y210.482 Z-10.73
N8265 Y225.786 Z-9.818
N8270 Y246.564 Z-8.943
N8275 Y270.254 Z-8.341
N8280 Y292.762 Z-8.095
N8285 Y311.669 Z-8.159
N8290 Y323.373 Z-8.4
N8295 Y340.48 Z-9.076
N8300 Y352.944 Z-9.742
N8305 Y365.278 Z-10.547
N8310 Y378.467 Z-11.629
N8315 Y389.867 Z-12.86
N8320 Y398.604 Z-14.079
N8325 Y407.316 Z-15.461
N8330 Y413.382 Z-16.572
N8335 Y419.217 Z-17.905
N8340 Y423.933 Z-19.301
N8345 Y427.854 Z-20.619
N8350 Y430.94 Z-21.808
N8355 Y432.992 Z-22.895
N8360 Y434.195 Z-23.761
N8365 Y435.413 Z-24.993
N8370 Y604. Z-25.
N8375 G3 Y604.419 Z-24.903 J0. K0.952
N8380 G2 Y604.838 Z-24.806 J0.419 K-0.855
N8385 G1 Y604.839
N8390 G17 G3 X102.11 Y607.696 I-2.858 J0.
N8395 G1 X99.827
N8400 G3 X96.97 Y604.839 I0. J-2.858
N8405 G19 G3 Y604.419 Z-24.903 J0. K-0.952
N8410 G2 Y604. Z-25. J-0.419 K0.855
N8415 G1 Y479.286 Z-24.97
N8420 Y477.218 Z-23.489
N8425 Y472.94 Z-21.098
N8430 Y468.968 Z-19.421
N8435 Y465.802 Z-18.348
N8440 Y459.908 Z-16.524
N8445 Y454.8 Z-15.189
N8450 Y448.335 Z-13.81
N8455 Y440.098 Z-12.282
N8460 Y430.851 Z-10.77
N8465 Y420.463 Z-9.443
N8470 Y410.375 Z-8.36
N8475 Y398.957 Z-7.272
N8480 Y384.882 Z-6.205
N8485 Y367.017 Z-5.231
N8490 Y344.565 Z-4.373
N8495 Y324.757 Z-3.948
N8500 Y311.252 Z-3.885
N8505 Y286.043 Z-4.135
N8510 Y246.428 Z-4.889
N8515 Y212.221 Z-5.846
N8520 Y185.716 Z-6.878
N8525 Y167.797 Z-7.804
N8530 Y151.177 Z-8.92
N8535 Y136.971 Z-10.186
N8540 Y126.735 Z-11.349
N8545 Y116.53 Z-12.766
N8550 Y107.509 Z-14.36
N8555 Y101.173 Z-15.719
N8560 Y96.196 Z-17.091
N8565 Y90.935 Z-18.919
N8570 Y88.742 Z-19.893
N8575 Y86.633 Z-21.133
N8580 Y84.382 Z-22.8
N8585 Y83.502 Z-23.752
N8590 Y82.943 Z-24.857
N8595 Y82.887 Z-25.
N8600 Y-4.
N8605 G2 Y-4.419 Z-24.903 J0. K0.952
N8610 G3 Y-4.838 Z-24.806 J-0.419 K-0.855
N8615 G17 G2 X94.112 Y-7.696 I-2.857 J0.
N8620 G1 X91.83
N8625 G2 X88.972 Y-4.838 I0. J2.858
N8630 G19 G2 Y-4.419 Z-24.903 J0. K-0.952
N8635 G3 Y-4. Z-25. J0.419 K0.855
N8640 G1 Y43.402
N8645 Y43.839 Z-24.34
N8650 Y45.497 Z-22.411
N8655 Y47.257 Z-21.045
N8660 Y50.033 Z-19.43
N8665 Y52.952 Z-18.121
N8670 Y57.082 Z-16.667
N8675 Y62.822 Z-15.085
N8680 Y69.02 Z-13.727
N8685 Y76.83 Z-12.364
N8690 Y86.253 Z-11.08
N8695 Y97.288 Z-9.938
N8700 Y110.72 Z-8.916
N8705 Y126.841 Z-8.058
N8710 Y146.931 Z-7.321
N8715 Y197.316 Z-5.797
N8720 Y254.037 Z-4.431
N8725 Y306.256 Z-3.472
N8730 Y325.311 Z-3.334
N8735 Y351.421 Z-3.51
N8740 Y376.63 Z-4.019
N8745 Y397.337 Z-4.712
N8750 Y409.929 Z-5.34
N8755 Y423.977 Z-6.279
N8760 Y435.394 Z-7.34
N8765 Y446.785 Z-8.671
N8770 Y455.308 Z-9.808
N8775 Y464.222 Z-11.31
N8780 Y472.344 Z-12.856
N8785 Y478.903 Z-14.314
N8790 Y484.853 Z-15.937
N8795 Y489.917 Z-17.446
N8800 Y494.045 Z-18.919
N8805 Y498.08 Z-20.679
N8810 Y501.228 Z-22.21
N8815 Y503.444 Z-23.544
N8820 Y505.387 Z-24.999
N8825 Y604. Z-25.
N8830 G3 Y604.419 Z-24.903 J0. K0.952
N8835 G2 Y604.838 Z-24.806 J0.419 K-0.855
N8840 G17 G3 X86.115 Y607.696 I-2.857 J0.
N8845 G1 X83.832
N8850 G3 X80.975 Y604.838 I0. J-2.857
N8855 G19 G3 Y604.419 Z-24.903 J0. K-0.952
N8860 G2 Y604. Z-25. J-0.419 K0.855
N8865 G1 Y523.69
N8870 Y521.017 Z-23.247
N8875 Y517.977 Z-21.494
N8880 Y514.414 Z-19.853
N8885 Y509.082 Z-17.772
N8890 Y504.911 Z-16.392
N8895 Y498.97 Z-14.748
N8900 Y493.845 Z-13.44
N8905 Y488.671 Z-12.35
N8910 Y479.779 Z-10.703
N8915 Y471.714 Z-9.5
N8920 Y462.731 Z-8.485
N8925 Y453.725 Z-7.672
N8930 Y440.268 Z-6.657
N8935 Y425.879 Z-5.781
N8940 Y412.62 Z-5.113
N8945 Y394.786 Z-4.409
N8950 Y371.377 Z-3.779
N8955 Y346.168 Z-3.422
N8960 Y320.958 Z-3.362
N8965 Y294.849 Z-3.669
N8970 Y235.427 Z-4.859
N8975 Y180.506 Z-6.273
N8980 Y143.658 Z-7.43
N8985 Y111.141 Z-8.625
N8990 Y84.46 Z-9.766
N8995 Y69.701 Z-10.504
N9000 Y59.425 Z-11.279
N9005 Y50.365 Z-12.271
N9010 Y42.916 Z-13.376
N9015 Y36.882 Z-14.545
N9020 Y30.918 Z-16.054
N9025 Y26.004 Z-17.654
N9030 Y22.142 Z-19.26
N9035 Y20.176 Z-20.3
N9040 Y19.516 Z-20.789
N9045 Y18.856 Z-21.398
N9050 Y17.892 Z-22.612
N9055 Y17.339 Z-23.564
N9060 Y16.766 Z-25.
N9065 Y-4.
N9070 G2 Y-4.419 Z-24.903 J0. K0.952
N9075 G3 Y-4.838 Z-24.806 J-0.419 K-0.855
N9080 G17 G2 X78.117 Y-7.696 I-2.857 J0.
N9085 G1 X75.835
N9090 G2 X72.977 Y-4.838 I0. J2.858
N9095 G19 G2 Y-4.419 Z-24.903 J0. K-0.952
N9100 G3 Y-4. Z-25. J0.419 K0.855
N9105 G1 Y10.258
N9110 Y10.729 Z-23.358
N9115 Y11.461 Z-21.695
N9120 Y12.497 Z-20.048
N9125 Y13.997 Z-18.316
N9130 Y15.567 Z-16.958
N9135 Y17.614 Z-15.626
N9140 Y19.536 Z-14.718
N9145 Y21.748 Z-14.038
N9150 Y24.886 Z-13.561
N9155 Y32.769 Z-12.729
N9160 Y47.794 Z-11.713
N9165 Y67.116 Z-10.618
N9170 Y90.394 Z-9.497
N9175 Y118.09 Z-8.354
N9180 Y149.983 Z-7.222
N9185 Y199.495 Z-5.761
N9190 Y257.116 Z-4.412
N9195 Y307.535 Z-3.516
N9200 Y330.043 Z-3.374
N9205 Y356.153 Z-3.513
N9210 Y381.362 Z-3.954
N9215 Y404.771 Z-4.68
N9220 Y421.403 Z-5.402
N9225 Y435.635 Z-6.171
N9230 Y449.367 Z-7.071
N9235 Y461.323 Z-7.995
N9240 Y473.446 Z-9.082
N9245 Y484.236 Z-10.206
N9250 Y494.128 Z-11.413
N9255 Y502.489 Z-12.686
N9260 Y508.451 Z-13.89
N9265 Y514.864 Z-15.505
N9270 Y519.505 Z-16.851
N9275 Y524.908 Z-18.753
N9280 Y528.173 Z-20.037
N9285 Y532.134 Z-21.928
N9290 Y535.012 Z-23.484
N9295 Y537.246 Z-25.
N9300 Y604.
N9305 G3 Y604.419 Z-24.903 J0. K0.952
N9310 G2 Y604.838 Z-24.806 J0.419 K-0.855
N9315 G17 G3 X70.12 Y607.696 I-2.857 J0.
N9320 G1 X67.837
N9325 G3 X64.98 Y604.838 I0. J-2.857
N9330 G19 G3 Y604.419 Z-24.903 J0. K-0.952
N9335 G2 Y604. Z-25. J-0.419 K0.855
N9340 G1 Y547.738 Z-24.998
N9345 Y544.146 Z-22.777
N9350 Y541.822 Z-21.609
N9355 Y537.792 Z-19.823
N9360 Y534.508 Z-18.603
N9365 Y529.472 Z-17.003
N9370 Y525.219 Z-15.899
N9375 Y519.177 Z-14.671
N9380 Y513.09 Z-13.647
N9385 Y504.542 Z-12.393
N9390 Y496.151 Z-11.299
N9395 Y484.936 Z-10.013
N9400 Y473.882 Z-8.907
N9405 Y461.756 Z-7.853
N9410 Y449.798 Z-6.953
N9415 Y436.056 Z-6.077
N9420 Y421.968 Z-5.332
N9425 Y405.124 Z-4.62
N9430 Y388.994 Z-4.103
N9435 Y364.685 Z-3.599
N9440 Y339.476 Z-3.385
N9445 Y314.006 Z-3.46
N9450 Y279.793 Z-3.978
N9455 Y221.272 Z-5.217
N9460 Y168.152 Z-6.653
N9465 Y136.722 Z-7.674
N9470 Y106.97 Z-8.792
N9475 Y80.511 Z-9.951
N9480 Y58.492 Z-11.084
N9485 Y41.04 Z-12.145
N9490 Y26.816 Z-13.178
N9495 Y18.921 Z-13.874
N9500 Y16.577 Z-14.34
N9505 Y14.291 Z-15.112
N9510 Y11.997 Z-16.275
N9515 Y10.11 Z-17.621
N9520 Y8.412 Z-19.282
N9525 Y7.126 Z-21.022
N9530 Y6.258 Z-22.664
N9535 Y5.555 Z-24.727
N9540 Y5.482 Z-25.
N9545 Y-4.
N9550 G2 Y-4.419 Z-24.903 J0. K0.952
N9555 G3 Y-4.838 Z-24.806 J-0.419 K-0.855
N9560 G17 G2 X62.122 Y-7.696 I-2.858 J0.
N9565 G1 X59.84
N9570 G2 X56.982 Y-4.838 I0. J2.858
N9575 G19 G2 Y-4.419 Z-24.903 J0. K-0.952
N9580 G3 Y-4. Z-25. J0.419 K0.855
N9585 G1 Y1.876
N9590 Y1.895 Z-24.925
N9595 Y2.507 Z-22.989
N9600 Y3.299 Z-21.366
N9605 Y4.266 Z-19.921
N9610 Y5.456 Z-18.578
N9615 Y7.302 Z-17.042
N9620 Y9.398 Z-15.805
N9625 Y11.556 Z-14.941
N9630 Y14.033 Z-14.358
N9635 Y20.294 Z-13.732
N9640 Y31.35 Z-12.827
N9645 Y47.164 Z-11.752
N9650 Y66.284 Z-10.662
N9655 Y89.562 Z-9.534
N9660 Y118.158 Z-8.351
N9665 Y149.247 Z-7.249
N9670 Y198.763 Z-5.785
N9675 Y255.484 Z-4.453
N9680 Y306.803 Z-3.538
N9685 Y332.913 Z-3.366
N9690 Y360.119 Z-3.508
N9695 Y385.329 Z-3.959
N9700 Y406.885 Z-4.615
N9705 Y425.501 Z-5.417
N9710 Y439.379 Z-6.173
N9715 Y453.291 Z-7.083
N9720 Y465.068 Z-7.987
N9725 Y477.191 Z-9.062
N9730 Y487.546 Z-10.112
N9735 Y498.063 Z-11.32
N9740 Y506.812 Z-12.451
N9745 Y515.541 Z-13.712
N9750 Y524.246 Z-15.13
N9755 Y531.189 Z-16.383
N9760 Y536.374 Z-17.432
N9765 Y540.231 Z-18.329
N9770 Y544.234 Z-19.488
N9775 Y548.122 Z-20.984
N9780 Y551.412 Z-22.454
N9785 Y555.875 Z-25.
N9790 Y604.
N9795 G3 Y604.419 Z-24.903 J0. K0.952
N9800 G2 Y604.838 Z-24.806 J0.419 K-0.855
N9805 G17 G3 X54.125 Y607.696 I-2.858 J0.
N9810 G1 X51.842
N9815 G3 X48.985 Y604.838 I0. J-2.857
N9820 G19 G3 Y604.419 Z-24.903 J0. K-0.952
N9825 G2 Y604. Z-25. J-0.419 K0.855
N9830 G1 Y562.118
N9835 Y560.784 Z-24.246
N9840 Y558.077 Z-22.869
N9845 Y554.943 Z-21.602
N9850 Y551.062 Z-20.417
N9855 Y544.219 Z-18.731
N9860 Y539.047 Z-17.615
N9865 Y532.122 Z-16.263
N9870 Y525.173 Z-15.038
N9875 Y516.641 Z-13.67
N9880 Y507.908 Z-12.418
N9885 Y497.586 Z-11.106
N9890 Y487.064 Z-9.925
N9895 Y474.951 Z-8.736
N9900 Y462.823 Z-7.706
N9905 Y449.283 Z-6.721
N9910 Y435.164 Z-5.857
N9915 Y419.543 Z-5.078
N9920 Y401.67 Z-4.386
N9925 Y378.262 Z-3.769
N9930 Y353.052 Z-3.423
N9935 Y324.81 Z-3.382
N9940 Y295.999 Z-3.695
N9945 Y236.577 Z-4.861
N9950 Y181.657 Z-6.256
N9955 Y145.66 Z-7.368
N9960 Y113.751 Z-8.522
N9965 Y86.274 Z-9.683
N9970 Y63.077 Z-10.832
N9975 Y43.997 Z-11.952
N9980 Y29.769 Z-12.947
N9985 Y18.715 Z-13.876
N9990 Y12.407 Z-14.517
N9995 Y10.84 Z-14.845
N10000 Y9.311 Z-15.36
N10005 Y7.842 Z-16.059
N10010 Y6.454 Z-16.939
N10015 Y5.17 Z-17.993
N10020 Y4.009 Z-19.215
N10025 Y2.992 Z-20.599
N10030 Y2.136 Z-22.147
N10035 Y1.462 Z-23.883
N10040 Y1.156 Z-25.
N10045 Y-4.
N10050 G2 Y-4.419 Z-24.903 J0. K0.952
N10055 G3 Y-4.838 Z-24.806 J-0.419 K-0.855
N10060 G17 G2 X46.127 Y-7.696 I-2.857 J0.
N10065 G1 X43.845
N10070 G2 X40.987 Y-4.838 I0. J2.858
N10075 G19 G2 Y-4.419 Z-24.903 J0. K-0.952
N10080 G3 Y-4. Z-25. J0.419 K0.855
N10085 G1 Y0.91
N10090 Y1.066 Z-24.38
N10095 Y1.653 Z-22.678
N10100 Y2.447 Z-21.092
N10105 Y3.41 Z-19.665
N10110 Y4.522 Z-18.396
N10115 Y5.765 Z-17.29
N10120 Y7.117 Z-16.355
N10125 Y8.558 Z-15.597
N10130 Y10.211 Z-14.978
N10135 Y12.407 Z-14.509
N10140 Y18.715 Z-13.876
N10145 Y29.769 Z-12.947
N10150 Y45.58 Z-11.851
N10155 Y64.679 Z-10.747
N10160 Y87.915 Z-9.608
N10165 Y115.552 Z-8.452
N10170 Y146.56 Z-7.338
N10175 Y189.76 Z-6.029
N10180 Y245.58 Z-4.662
N10185 Y301.401 Z-3.613
N10190 Y328.411 Z-3.366
N10195 Y355.305 Z-3.43
N10200 Y380.514 Z-3.792
N10205 Y404.788 Z-4.462
N10210 Y421.677 Z-5.136
N10215 Y436.007 Z-5.858
N10220 Y449.771 Z-6.697
N10225 Y461.732 Z-7.557
N10230 Y474.041 Z-8.58
N10235 Y486.155 Z-9.742
N10240 Y496.321 Z-10.855
N10245 Y506.648 Z-12.131
N10250 Y515.386 Z-13.342
N10255 Y523.926 Z-14.664
N10260 Y531.749 Z-16.004
N10265 Y539.547 Z-17.496
N10270 Y546.443 Z-18.977
N10275 Y551.589 Z-20.2
N10280 Y556.702 Z-21.544
N10285 Y560.085 Z-22.531
N10290 Y563.417 Z-23.632
N10295 Y566.574 Z-24.973
N10300 Y604. Z-25.
N10305 G3 Y604.42 Z-24.903 J0.001 K0.952
N10310 G2 Y604.839 Z-24.806 J0.419 K-0.855
N10315 G17 G3 X38.13 Y607.697 I-2.857 J0.
N10320 G1 X35.847
N10325 G3 X32.99 Y604.839 I0. J-2.857
N10330 G19 G3 Y604.42 Z-24.903 J0. K-0.952
N10335 G2 Y604. Z-25. J-0.419 K0.855
N10340 G1 Y568.567 Z-24.97
N10345 Y565.079 Z-23.775
N10350 Y560.025 Z-22.234
N10355 Y554.923 Z-20.844
N10360 Y549.788 Z-19.578
N10365 Y542.794 Z-18.026
N10370 Y535.982 Z-16.669
N10375 Y529.038 Z-15.416
N10380 Y520.332 Z-13.997
N10385 Y511.782 Z-12.748
N10390 Y501.284 Z-11.381
N10395 Y491.126 Z-10.211
N10400 Y479.194 Z-9.002
N10405 Y467.07 Z-7.936
N10410 Y454.933 Z-7.013
N10415 Y441.195 Z-6.123
N10420 Y426.593 Z-5.339
N10425 Y406.87 Z-4.511
N10430 Y383.461 Z-3.841
N10435 Y357.351 Z-3.438
N10440 Y331.112 Z-3.356
N10445 Y304.102 Z-3.576
N10450 Y250.982 Z-4.547
N10455 Y194.261 Z-5.906
N10460 Y147.461 Z-7.309
N10465 Y117.257 Z-8.386
N10470 Y89.561 Z-9.534
N10475 Y66.284 Z-10.662
N10480 Y47.163 Z-11.752
N10485 Y31.349 Z-12.827
N10490 Y20.293 Z-13.732
N10495 Y12.014 Z-14.557
N10500 Y10.061 Z-14.986
N10505 Y8.546 Z-15.538
N10510 Y7.095 Z-16.274
N10515 Y5.731 Z-17.188
N10520 Y4.474 Z-18.273
N10525 Y3.345 Z-19.523
N10530 Y2.363 Z-20.932
N10535 Y1.548 Z-22.498
N10540 Y0.919 Z-24.244
N10545 Y0.722 Z-25.
N10550 Y-4.
N10555 G2 Y-4.419 Z-24.903 J0. K0.952
N10560 G3 Y-4.838 Z-24.806 J-0.419 K-0.855
N10565 G17 G2 X30.132 Y-7.696 I-2.858 J0.
N10570 G1 X27.85
N10575 G2 X24.992 Y-4.838 I0. J2.858
N10580 G19 G2 Y-4.419 Z-24.903 J0. K-0.952
N10585 G3 Y-4. Z-25. J0.419 K0.855
N10590 G1 Y0.593
N10595 Y0.833 Z-24.105
N10600 Y1.478 Z-22.376
N10605 Y2.079 Z-21.206
N10610 Y3.303 Z-19.428
N10615 Y4.443 Z-18.191
N10620 Y5.71 Z-17.12
N10625 Y7.082 Z-16.22
N10630 Y8.539 Z-15.499
N10635 Y10.059 Z-14.962
N10640 Y11.619 Z-14.612
N10645 Y15.56 Z-14.179
N10650 Y26.609 Z-13.195
N10655 Y40.834 Z-12.158
N10660 Y58.285 Z-11.096
N10665 Y80.304 Z-9.961
N10670 Y107.663 Z-8.764
N10675 Y138.522 Z-7.611
N10680 Y170.852 Z-6.572
N10685 Y224.872 Z-5.131
N10690 Y283.394 Z-3.914
N10695 Y316.706 Z-3.432
N10700 Y344.754 Z-3.356
N10705 Y370.864 Z-3.596
N10710 Y395.173 Z-4.124
N10715 Y413.097 Z-4.728
N10720 Y430.631 Z-5.519
N10725 Y444.283 Z-6.287
N10730 Y456.429 Z-7.095
N10735 Y468.745 Z-8.046
N10740 Y480.688 Z-9.112
N10745 Y492.439 Z-10.316
N10750 Y502.597 Z-11.499
N10755 Y512.736 Z-12.83
N10760 Y521.463 Z-14.117
N10765 Y529.99 Z-15.517
N10770 Y536.932 Z-16.779
N10775 Y543.849 Z-18.167
N10780 Y550.734 Z-19.703
N10785 Y555.87 Z-20.97
N10790 Y560.974 Z-22.355
N10795 Y566.031 Z-23.883
N10800 Y569.369 Z-24.999
N10805 Y604. Z-25.
N10810 G3 Y604.419 Z-24.903 J0. K0.952
N10815 G2 Y604.838 Z-24.806 J0.419 K-0.855
N10820 G17 G3 X22.135 Y607.696 I-2.858 J0.
N10825 G1 X19.852
N10830 G3 X16.995 Y604.838 I0. J-2.857
N10835 G19 G3 Y604.419 Z-24.903 J0. K-0.952
N10840 G2 Y604. Z-25. J-0.419 K0.855
N10845 G1 Y569.714 Z-24.999
N10850 Y563.767 Z-23.095
N10855 Y558.682 Z-21.65
N10860 Y553.56 Z-20.331
N10865 Y548.412 Z-19.117
N10870 Y541.514 Z-17.64
N10875 Y534.589 Z-16.301
N10880 Y525.901 Z-14.793
N10885 Y517.362 Z-13.465
N10890 Y507.233 Z-12.061
N10895 Y496.725 Z-10.775
N10900 Y485.162 Z-9.53
N10905 Y473.222 Z-8.41
N10910 Y461.27 Z-7.435
N10915 Y448.949 Z-6.568
N10920 Y434.988 Z-5.736
N10925 Y419.182 Z-4.968
N10930 Y401.402 Z-4.303
N10935 Y377.093 Z-3.696
N10940 Y350.983 Z-3.379
N10945 Y323.909 Z-3.383
N10950 Y295.098 Z-3.71
N10955 Y236.577 Z-4.861
N10960 Y181.656 Z-6.256
N10965 Y145.66 Z-7.368
N10970 Y113.751 Z-8.522
N10975 Y86.274 Z-9.683
N10980 Y63.077 Z-10.832
N10985 Y43.997 Z-11.952
N10990 Y29.769 Z-12.947
N10995 Y18.715 Z-13.876
N11000 Y11.619 Z-14.61
N11005 Y10.058 Z-14.957
N11010 Y8.537 Z-15.49
N11015 Y7.079 Z-16.207
N11020 Y5.705 Z-17.103
N11025 Y4.436 Z-18.172
N11030 Y3.293 Z-19.405
N11035 Y2.296 Z-20.797
N11040 Y1.462 Z-22.347
N11045 Y0.813 Z-24.072
N11050 Y0.562 Z-25.
N11055 Y-4.
N11060 G2 Y-4.419 Z-24.903 J0. K0.952
N11065 G3 Y-4.838 Z-24.806 J-0.419 K-0.855
N11070 G17 G2 X14.137 Y-7.696 I-2.858 J0.
N11075 G1 X11.855
N11080 G2 X8.997 Y-4.838 I0. J2.858
N11085 G19 G2 Y-4.419 Z-24.903 J0. K-0.952
N11090 G3 Y-4. Z-25. J0.419 K0.855
N11095 G1 Y0.553
N11100 Y0.807 Z-24.063
N11105 Y1.458 Z-22.339
N11110 Y2.292 Z-20.79
N11115 Y3.291 Z-19.399
N11120 Y4.434 Z-18.166
N11125 Y5.704 Z-17.099
N11130 Y7.078 Z-16.204
N11135 Y8.537 Z-15.488
N11140 Y10.058 Z-14.955
N11145 Y11.619 Z-14.609
N11150 Y18.715 Z-13.876
N11155 Y29.769 Z-12.947
N11160 Y43.997 Z-11.952
N11165 Y63.077 Z-10.832
N11170 Y86.273 Z-9.683
N11175 Y113.751 Z-8.522
N11180 Y145.66 Z-7.368
N11185 Y181.656 Z-6.256
N11190 Y236.577 Z-4.861
N11195 Y295.098 Z-3.71
N11200 Y324.809 Z-3.377
N11205 Y352.955 Z-3.392
N11210 Y378.164 Z-3.713
N11215 Y402.473 Z-4.335
N11220 Y424.981 Z-5.224
N11225 Y439.271 Z-5.969
N11230 Y453.197 Z-6.844
N11235 Y466.915 Z-7.868
N11240 Y478.861 Z-8.908
N11245 Y490.614 Z-10.085
N11250 Y500.954 Z-11.261
N11255 Y511.275 Z-12.587
N11260 Y519.57 Z-13.779
N11265 Y528.714 Z-15.244
N11270 Y535.662 Z-16.482
N11275 Y542.587 Z-17.84
N11280 Y549.48 Z-19.338
N11285 Y554.625 Z-20.57
N11290 Y559.741 Z-21.91
N11295 Y564.821 Z-23.378
N11300 Y569.787 Z-24.979
N11305 Y604. Z-25.
N11310 G3 Y604.42 Z-24.903 J0.001 K0.952
N11315 G2 Y604.839 Z-24.806 J0.419 K-0.855
N11320 G17 G3 X6.14 Y607.697 I-2.858 J0.
N11325 G1 X3.857
N11330 G3 X1. Y604.839 I0. J-2.857
N11335 G19 G3 Y604.42 Z-24.903 J0. K-0.952
N11340 G2 Y604. Z-25. J-0.419 K0.855
N11345 G1 Y569.787 Z-24.967
N11350 Y563.906 Z-23.092
N11355 Y559.777 Z-21.911
N11360 Y554.661 Z-20.571
N11365 Y549.516 Z-19.34
N11370 Y542.623 Z-17.841
N11375 Y535.698 Z-16.483
N11380 Y528.75 Z-15.245
N11385 Y519.605 Z-13.78
N11390 Y511.311 Z-12.588
N11395 Y501.169 Z-11.283
N11400 Y490.31 Z-10.049
N11405 Y478.898 Z-8.908
N11410 Y467.131 Z-7.882
N11415 Y453.592 Z-6.868
N11420 Y440.027 Z-6.009
N11425 Y424.478 Z-5.198
N11430 Y406.826 Z-4.479
N11435 Y389.742 Z-3.967
N11440 Y364.533 Z-3.5
N11445 Y338.423 Z-3.343
N11450 Y311.304 Z-3.488
N11455 Y272.59 Z-4.113
N11460 Y214.068 Z-5.393
N11465 Y161.849 Z-6.846
N11470 Y129.627 Z-7.926
N11475 Y99.935 Z-9.083
N11480 Y74.531 Z-10.241
N11485 Y53.51 Z-11.369
N11490 Y36.091 Z-12.483
N11495 Y23.451 Z-13.456
N11500 Y13.983 Z-14.34
N11505 Y11.226 Z-14.678
N11510 Y9.284 Z-15.198
N11515 Y7.789 Z-15.825
N11520 Y6.366 Z-16.633
N11525 Y5.039 Z-17.619
N11530 Y3.826 Z-18.775
N11535 Y2.75 Z-20.095
N11540 Y1.828 Z-21.578
N11545 Y1.079 Z-23.233
N11550 Y0.545 Z-25.
N11555 Y-4.
N11560 G2 Y-4.419 Z-24.903 J0. K0.952
N11565 G3 Y-4.838 Z-24.806 J-0.419 K-0.855
N11570 G17 G2 X-1.858 Y-7.696 I-2.858 J0.
N11575 G1 X-4.14
N11580 G2 X-6.998 Y-4.838 I0. J2.858
N11585 G19 G2 Y-4.419 Z-24.903 J0. K-0.952
N11590 G3 Y-4. Z-25. J0.419 K0.855
N11595 G1 Y0.551
N11600 Y0.806 Z-24.061
N11605 Y1.457 Z-22.337
N11610 Y2.291 Z-20.788
N11615 Y3.29 Z-19.397
N11620 Y4.434 Z-18.165
N11625 Y5.703 Z-17.098
N11630 Y7.078 Z-16.203
N11635 Y8.537 Z-15.487
N11640 Y10.058 Z-14.955
N11645 Y11.619 Z-14.609
N11650 Y18.715 Z-13.876
N11655 Y29.769 Z-12.947
N11660 Y43.997 Z-11.952
N11665 Y63.077 Z-10.832
N11670 Y86.273 Z-9.683
N11675 Y113.751 Z-8.522
N11680 Y145.66 Z-7.368
N11685 Y181.656 Z-6.256
N11690 Y236.577 Z-4.861
N11695 Y295.098 Z-3.71
N11700 Y324.809 Z-3.377
N11705 Y352.977 Z-3.392
N11710 Y378.186 Z-3.713
N11715 Y402.495 Z-4.335
N11720 Y425.004 Z-5.224
N11725 Y439.294 Z-5.969
N11730 Y453.4 Z-6.857
N11735 Y465.718 Z-7.772
N11740 Y478.024 Z-8.83
N11745 Y488.56 Z-9.866
N11750 Y499.081 Z-11.035
N11755 Y509.585 Z-12.357
N11760 Y518.319 Z-13.59
N11765 Y526.855 Z-14.93
N11770 Y535.543 Z-16.458
N11775 Y542.468 Z-17.813
N11780 Y549.362 Z-19.308
N11785 Y554.507 Z-20.537
N11790 Y559.623 Z-21.874
N11795 Y564.703 Z-23.338
N11800 Y569.787 Z-24.973
N11805 Y604. Z-25.
N11810 G3 Y604.42 Z-24.903 J0.001 K0.952
N11815 G2 Y604.839 Z-24.806 J0.419 K-0.855
N11820 G17 G3 X-9.855 Y607.697 I-2.858 J0.
N11825 G1 X-12.138
N11830 G3 X-14.995 Y604.839 I0. J-2.857
N11835 G1 Y604.838
N11840 G19 G3 Y604.419 Z-24.903 J0. K-0.952
N11845 G2 Y604. Z-25. J-0.419 K0.855
N11850 G1 Y569.759 Z-24.998
N11855 Y564.731 Z-23.373
N11860 Y559.652 Z-21.904
N11865 Y554.537 Z-20.565
N11870 Y549.392 Z-19.333
N11875 Y542.499 Z-17.835
N11880 Y535.574 Z-16.478
N11885 Y526.886 Z-14.949
N11890 Y518.172 Z-13.58
N11895 Y509.438 Z-12.348
N11900 Y498.716 Z-11.002
N11905 Y488.413 Z-9.86
N11910 Y477.877 Z-8.825
N11915 Y465.571 Z-7.767
N11920 Y453.253 Z-6.853
N11925 Y439.147 Z-5.966
N11930 Y424.858 Z-5.222
N11935 Y402.35 Z-4.334
N11940 Y378.041 Z-3.713
N11945 Y352.832 Z-3.392
N11950 Y324.809 Z-3.377
N11955 Y295.098 Z-3.71
N11960 Y236.577 Z-4.861
N11965 Y181.656 Z-6.256
N11970 Y145.66 Z-7.368
N11975 Y113.751 Z-8.522
N11980 Y86.273 Z-9.683
N11985 Y63.077 Z-10.832
N11990 Y43.997 Z-11.952
N11995 Y29.769 Z-12.947
N12000 Y18.715 Z-13.876
N12005 Y11.619 Z-14.61
N12010 Y10.058 Z-14.956
N12015 Y8.537 Z-15.489
N12020 Y7.079 Z-16.206
N12025 Y5.705 Z-17.102
N12030 Y4.436 Z-18.17
N12035 Y3.293 Z-19.403
N12040 Y2.295 Z-20.796
N12045 Y1.461 Z-22.345
N12050 Y0.812 Z-24.07
N12055 Y0.56 Z-25.
N12060 Y-4.
N12065 G2 Y-4.419 Z-24.903 J0. K0.952
N12070 G3 Y-4.838 Z-24.806 J-0.419 K-0.855
N12075 G17 G2 X-17.853 Y-7.696 I-2.858 J0.
N12080 G1 X-20.135
N12085 G2 X-22.993 Y-4.838 I0. J2.858
N12090 G19 G2 Y-4.419 Z-24.903 J0. K-0.952
N12095 G3 Y-4. Z-25. J0.419 K0.855
N12100 G1 Y0.57
N12105 Y0.818 Z-24.08
N12110 Y1.466 Z-22.354
N12115 Y2.299 Z-20.804
N12120 Y3.296 Z-19.411
N12125 Y4.438 Z-18.176
N12130 Y5.706 Z-17.107
N12135 Y7.08 Z-16.21
N12140 Y8.538 Z-15.492
N12145 Y10.058 Z-14.958
N12150 Y11.619 Z-14.61
N12155 Y18.715 Z-13.876
N12160 Y29.769 Z-12.947
N12165 Y43.997 Z-11.952
N12170 Y63.077 Z-10.832
N12175 Y86.274 Z-9.683
N12180 Y113.751 Z-8.522
N12185 Y145.66 Z-7.368
N12190 Y186.158 Z-6.129
N12195 Y241.979 Z-4.741
N12200 Y299.6 Z-3.638
N12205 Y328.411 Z-3.362
N12210 Y350.755 Z-3.38
N12215 Y376.865 Z-3.696
N12220 Y401.174 Z-4.302
N12225 Y424.133 Z-5.198
N12230 Y438.883 Z-5.963
N12235 Y452.987 Z-6.849
N12240 Y465.305 Z-7.761
N12245 Y477.611 Z-8.817
N12250 Y488.147 Z-9.851
N12255 Y498.669 Z-11.017
N12260 Y509.173 Z-12.337
N12265 Y517.908 Z-13.566
N12270 Y526.567 Z-14.925
N12275 Y535.31 Z-16.462
N12280 Y542.233 Z-17.817
N12285 Y549.127 Z-19.313
N12290 Y555.981 Z-20.979
N12295 Y561.084 Z-22.363
N12300 Y566.145 Z-23.887
N12305 Y569.487 Z-25.
N12310 Y604.
N12315 G3 Y604.419 Z-24.903 J0. K0.952
N12320 G2 Y604.838 Z-24.806 J0.419 K-0.855
N12325 G17 G3 X-25.85 Y607.696 I-2.858 J0.
N12330 G1 X-28.133
N12335 G3 X-30.99 Y604.838 I0. J-2.857
N12340 G19 G3 Y604.419 Z-24.903 J0. K-0.952
N12345 G2 Y604. Z-25. J-0.419 K0.855
N12350 G1 Y568.869 Z-24.998
N12355 Y564.661 Z-23.581
N12360 Y559.597 Z-22.065
N12365 Y554.491 Z-20.696
N12370 Y549.352 Z-19.446
N12375 Y542.463 Z-17.933
N12380 Y535.54 Z-16.565
N12385 Y528.594 Z-15.32
N12390 Y519.628 Z-13.873
N12395 Y511.335 Z-12.672
N12400 Y500.837 Z-11.314
N12405 Y490.318 Z-10.113
N12410 Y479.785 Z-9.049
N12415 Y467.482 Z-7.961
N12420 Y455.166 Z-7.022
N12425 Y441.068 Z-6.109
N12430 Y426.82 Z-5.344
N12435 Y404.312 Z-4.42
N12440 Y380.003 Z-3.764
N12445 Y354.794 Z-3.415
N12450 Y327.511 Z-3.366
N12455 Y297.8 Z-3.664
N12460 Y238.378 Z-4.82
N12465 Y183.457 Z-6.205
N12470 Y145.66 Z-7.368
N12475 Y113.751 Z-8.522
N12480 Y86.274 Z-9.683
N12485 Y63.077 Z-10.832
N12490 Y43.997 Z-11.952
N12495 Y29.769 Z-12.947
N12500 Y18.715 Z-13.876
N12505 Y12.407 Z-14.507
N12510 Y10.832 Z-14.775
N12515 Y9.289 Z-15.232
N12520 Y7.799 Z-15.875
N12525 Y6.384 Z-16.699
N12530 Y5.066 Z-17.7
N12535 Y3.865 Z-18.871
N12540 Y2.801 Z-20.206
N12545 Y1.894 Z-21.703
N12550 Y1.162 Z-23.375
N12555 Y0.684 Z-25.
N12560 Y-4.
N12565 G2 Y-4.419 Z-24.903 J0. K0.952
N12570 G3 Y-4.838 Z-24.806 J-0.419 K-0.855
N12575 G17 G2 X-33.848 Y-7.696 I-2.858 J0.
N12580 G1 X-36.13
N12585 G2 X-38.988 Y-4.838 I0. J2.858
N12590 G19 G2 Y-4.419 Z-24.903 J0. K-0.952
N12595 G3 Y-4. Z-25. J0.419 K0.855
N12600 G1 Y0.846
N12605 Y1.267 Z-23.554
N12610 Y1.979 Z-21.86
N12615 Y2.868 Z-20.345
N12620 Y3.915 Z-18.993
N12625 Y5.102 Z-17.803
N12630 Y6.408 Z-16.783
N12635 Y7.813 Z-15.939
N12640 Y9.296 Z-15.276
N12645 Y10.835 Z-14.798
N12650 Y12.407 Z-14.508
N12655 Y18.715 Z-13.876
N12660 Y29.769 Z-12.947
N12665 Y45.58 Z-11.851
N12670 Y64.679 Z-10.747
N12675 Y87.915 Z-9.608
N12680 Y115.552 Z-8.452
N12685 Y146.56 Z-7.338
N12690 Y187.959 Z-6.079
N12695 Y243.78 Z-4.701
N12700 Y300.501 Z-3.626
N12705 Y328.411 Z-3.365
N12710 Y355.105 Z-3.425
N12715 Y380.314 Z-3.783
N12720 Y404.623 Z-4.45
N12725 Y427.132 Z-5.386
N12730 Y441.372 Z-6.158
N12735 Y455.467 Z-7.079
N12740 Y467.782 Z-8.027
N12745 Y480.085 Z-9.125
N12750 Y490.617 Z-10.198
N12755 Y502.01 Z-11.517
N12760 Y511.632 Z-12.783
N12765 Y520.359 Z-14.066
N12770 Y529.063 Z-15.495
N12775 Y536.005 Z-16.76
N12780 Y543.03 Z-18.177
N12785 Y549.802 Z-19.708
N12790 Y554.93 Z-20.997
N12795 Y560.021 Z-22.421
N12800 Y563.716 Z-23.586
N12805 Y567.311 Z-24.969
N12810 Y604. Z-25.
N12815 G3 Y604.42 Z-24.903 J0.001 K0.952
N12820 G2 Y604.839 Z-24.806 J0.419 K-0.855
N12825 G17 G3 X-41.845 Y607.697 I-2.857 J0.
N12830 G1 X-44.128
N12835 G3 X-46.985 Y604.839 I0. J-2.857
N12840 G1 Y604.838
N12845 G19 G3 Y604.419 Z-24.903 J0. K-0.952
N12850 G2 Y604. Z-25. J-0.419 K0.855
N12855 G1 Y563.387 Z-24.999
N12860 Y560.262 Z-23.343
N12865 Y557.232 Z-22.116
N12870 Y553.253 Z-20.883
N12875 Y549.847 Z-19.985
N12880 Y543.842 Z-18.573
N12885 Y537.802 Z-17.299
N12890 Y530.868 Z-15.979
N12895 Y521.917 Z-14.45
N12900 Y513.634 Z-13.183
N12905 Y504.894 Z-11.983
N12910 Y494.386 Z-10.703
N12915 Y483.86 Z-9.57
N12920 Y471.562 Z-8.412
N12925 Y459.251 Z-7.411
N12930 Y445.168 Z-6.437
N12935 Y430.994 Z-5.62
N12940 Y409.403 Z-4.653
N12945 Y385.994 Z-3.933
N12950 Y360.785 Z-3.491
N12955 Y333.775 Z-3.355
N12960 Y306.803 Z-3.538
N12965 Y255.484 Z-4.453
N12970 Y198.763 Z-5.785
N12975 Y149.247 Z-7.249
N12980 Y118.157 Z-8.351
N12985 Y89.561 Z-9.534
N12990 Y66.284 Z-10.662
N12995 Y47.164 Z-11.752
N13000 Y31.35 Z-12.827
N13005 Y20.293 Z-13.732
N13010 Y12.309 Z-14.529
N13015 Y10.839 Z-14.833
N13020 Y9.307 Z-15.34
N13025 Y7.835 Z-16.031
N13030 Y6.443 Z-16.902
N13035 Y5.154 Z-17.949
N13040 Y3.987 Z-19.163
N13045 Y2.963 Z-20.541
N13050 Y2.1 Z-22.081
N13055 Y1.417 Z-23.806
N13060 Y1.084 Z-25.
N13065 Y-4.
N13070 G2 Y-4.419 Z-24.903 J0. K0.952
N13075 G3 Y-4.838 Z-24.806 J-0.419 K-0.855
N13080 G17 G2 X-49.843 Y-7.696 I-2.858 J0.
N13085 G1 X-52.125
N13090 G2 X-54.983 Y-4.838 I0. J2.858
N13095 G19 G2 Y-4.419 Z-24.903 J0. K-0.952
N13100 G3 Y-4. Z-25. J0.419 K0.855
N13105 G1 Y1.467
N13110 Y1.973 Z-23.276
N13115 Y2.702 Z-21.628
N13120 Y3.609 Z-20.145
N13125 Y4.673 Z-18.821
N13130 Y5.874 Z-17.659
N13135 Y7.193 Z-16.667
N13140 Y8.609 Z-15.852
N13145 Y10.569 Z-15.057
N13150 Y12.998 Z-14.469
N13155 Y17.138 Z-14.025
N13160 Y28.19 Z-13.069
N13165 Y42.416 Z-12.054
N13170 Y61.478 Z-10.919
N13175 Y84.473 Z-9.766
N13180 Y112.054 Z-8.589
N13185 Y142.986 Z-7.459
N13190 Y178.055 Z-6.36
N13195 Y232.976 Z-4.942
N13200 Y291.497 Z-3.771
N13205 Y320.308 Z-3.41
N13210 Y347.342 Z-3.397
N13215 Y372.551 Z-3.682
N13220 Y396.86 Z-4.265
N13225 Y419.368 Z-5.111
N13230 Y434.604 Z-5.876
N13235 Y448.725 Z-6.742
N13240 Y461.044 Z-7.636
N13245 Y473.352 Z-8.672
N13250 Y483.891 Z-9.689
N13255 Y494.415 Z-10.841
N13260 Y504.045 Z-12.032
N13265 Y513.656 Z-13.371
N13270 Y522.37 Z-14.739
N13275 Y531.055 Z-16.268
N13280 Y536.248 Z-17.285
N13285 Y541.417 Z-18.418
N13290 Y545.665 Z-19.547
N13295 Y549.328 Z-20.83
N13300 Y553.965 Z-22.91
N13305 Y557.563 Z-24.999
N13310 Y604. Z-25.
N13315 G3 Y604.419 Z-24.903 J0. K0.952
N13320 G2 Y604.838 Z-24.806 J0.419 K-0.855
N13325 G17 G3 X-57.84 Y607.696 I-2.857 J0.
N13330 G1 X-60.123
N13335 G3 X-62.98 Y604.838 I0. J-2.857
N13340 G19 G3 Y604.419 Z-24.903 J0. K-0.952
N13345 G2 Y604. Z-25. J-0.419 K0.855
N13350 G1 Y549.93 Z-24.999
N13355 Y547.255 Z-23.291
N13360 Y544.146 Z-21.705
N13365 Y540.959 Z-20.246
N13370 Y537.678 Z-19.014
N13375 Y533.497 Z-17.621
N13380 Y529.253 Z-16.496
N13385 Y524.078 Z-15.419
N13390 Y518.87 Z-14.483
N13395 Y511.902 Z-13.373
N13400 Y503.168 Z-12.135
N13405 Y492.664 Z-10.823
N13410 Y482.14 Z-9.671
N13415 Y471.601 Z-8.655
N13420 Y459.293 Z-7.621
N13425 Y445.213 Z-6.613
N13430 Y431.07 Z-5.771
N13435 Y416.714 Z-5.068
N13440 Y394.351 Z-4.24
N13445 Y370.042 Z-3.674
N13450 Y343.933 Z-3.394
N13455 Y316.707 Z-3.432
N13460 Y283.395 Z-3.914
N13465 Y224.873 Z-5.131
N13470 Y170.853 Z-6.572
N13475 Y138.523 Z-7.611
N13480 Y107.664 Z-8.764
N13485 Y80.304 Z-9.961
N13490 Y58.286 Z-11.096
N13495 Y40.834 Z-12.158
N13500 Y26.61 Z-13.195
N13505 Y17.927 Z-13.956
N13510 Y15.382 Z-14.444
N13515 Y13.012 Z-15.261
N13520 Y10.852 Z-16.381
N13525 Y8.889 Z-17.816
N13530 Y7.311 Z-19.402
N13535 Y6.066 Z-21.113
N13540 Y5.071 Z-23.087
N13545 Y4.465 Z-25.
N13550 Y-4.
N13555 G2 Y-4.419 Z-24.903 J0. K0.952
N13560 G3 Y-4.838 Z-24.806 J-0.419 K-0.855
N13565 G17 G2 X-65.838 Y-7.696 I-2.858 J0.
N13570 G1 X-68.12
N13575 G2 X-70.978 Y-4.838 I0. J2.858
N13580 G19 G2 Y-4.419 Z-24.903 J0. K-0.952
N13585 G3 Y-4. Z-25. J0.419 K0.855
N13590 G1 Y8.962
N13595 Y9.183 Z-24.137
N13600 Y9.899 Z-22.246
N13605 Y11.022 Z-20.326
N13610 Y12.369 Z-18.691
N13615 Y13.578 Z-17.558
N13620 Y15.559 Z-16.132
N13625 Y17.716 Z-15.001
N13630 Y19.972 Z-14.17
N13635 Y22.313 Z-13.632
N13640 Y29.416 Z-12.974
N13645 Y45.226 Z-11.873
N13650 Y64.324 Z-10.766
N13655 Y85.915 Z-9.699
N13660 Y113.392 Z-8.536
N13665 Y143.52 Z-7.439
N13670 Y180.388 Z-6.29
N13675 Y235.308 Z-4.887
N13680 Y294.73 Z-3.712
N13685 Y321.74 Z-3.401
N13690 Y347.85 Z-3.434
N13695 Y373.059 Z-3.765
N13700 Y397.368 Z-4.4
N13705 Y419.876 Z-5.3
N13710 Y435.051 Z-6.104
N13715 Y447.389 Z-6.892
N13720 Y459.707 Z-7.811
N13725 Y472.012 Z-8.882
N13730 Y482.546 Z-9.937
N13735 Y492.187 Z-11.045
N13740 Y500.931 Z-12.205
N13745 Y508.761 Z-13.486
N13750 Y514.047 Z-14.621
N13755 Y520.564 Z-16.376
N13760 Y523.923 Z-17.408
N13765 Y529.908 Z-19.613
N13770 Y533.465 Z-21.147
N13775 Y537.584 Z-23.323
N13780 Y540.167 Z-25.
N13785 Y604.
N13790 G3 Y604.419 Z-24.903 J0. K0.952
N13795 G2 Y604.838 Z-24.806 J0.419 K-0.855
N13800 G1 Y604.839
N13805 G17 G3 X-73.835 Y607.696 I-2.857 J0.
N13810 G1 X-76.118
N13815 G3 X-78.975 Y604.839 I0. J-2.857
N13820 G19 G3 Y604.42 Z-24.903 J0. K-0.952
N13825 G2 Y604. Z-25. J-0.419 K0.855
N13830 G1 Y527.361 Z-24.965
N13835 Y524.498 Z-23.091
N13840 Y522.237 Z-21.782
N13845 Y519.08 Z-20.294
N13850 Y514.2 Z-18.28
N13855 Y509.731 Z-16.763
N13860 Y502.601 Z-14.701
N13865 Y496.93 Z-13.327
N13870 Y488.138 Z-11.549
N13875 Y481.179 Z-10.401
N13880 Y473.305 Z-9.402
N13885 Y465.408 Z-8.588
N13890 Y453.323 Z-7.538
N13895 Y440.784 Z-6.63
N13900 Y428.435 Z-5.873
N13905 Y414.119 Z-5.145
N13910 Y391.61 Z-4.284
N13915 Y367.301 Z-3.687
N13920 Y341.192 Z-3.386
N13925 Y315.982 Z-3.397
N13930 Y282.67 Z-3.895
N13935 Y223.248 Z-5.149
N13940 Y169.228 Z-6.609
N13945 Y136.916 Z-7.663
N13950 Y105.363 Z-8.857
N13955 Y79.686 Z-9.991
N13960 Y59.771 Z-11.024
N13965 Y49.895 Z-11.812
N13970 Y41.236 Z-12.833
N13975 Y33.904 Z-14.056
N13980 Y27.611 Z-15.456
N13985 Y22.175 Z-17.029
N13990 Y20.392 Z-17.682
N13995 Y18.954 Z-18.479
N14000 Y17.641 Z-19.518
N14005 Y16.492 Z-20.792
N14010 Y15.543 Z-22.299
N14015 Y14.835 Z-24.044
N14020 Y14.56 Z-25.
N14025 Y-4.
N14030 G2 Y-4.419 Z-24.903 J0. K0.952
N14035 G3 Y-4.838 Z-24.806 J-0.419 K-0.855
N14040 G17 G2 X-81.833 Y-7.696 I-2.857 J0.
N14045 G1 X-84.116
N14050 G2 X-86.973 Y-4.838 I0. J2.858
N14055 G19 G2 Y-4.419 Z-24.903 J0. K-0.952
N14060 G3 Y-4. Z-25. J0.419 K0.855
N14065 G1 Y35.311
N14070 Y36.131 Z-23.888
N14075 Y37.109 Z-22.731
N14080 Y38.869 Z-21.282
N14085 Y41.048 Z-19.913
N14090 Y44.165 Z-18.425
N14095 Y47.894 Z-17.034
N14100 Y52.845 Z-15.567
N14105 Y59.025 Z-14.115
N14110 Y66.823 Z-12.68
N14115 Y75.455 Z-11.45
N14120 Y85.697 Z-10.341
N14125 Y98.336 Z-9.347
N14130 Y112.834 Z-8.566
N14135 Y142.482 Z-7.47
N14140 Y178.409 Z-6.329
N14145 Y232.429 Z-4.914
N14150 Y291.851 Z-3.699
N14155 Y319.311 Z-3.345
N14160 Y343.609 Z-3.411
N14165 Y369.719 Z-3.802
N14170 Y391.327 Z-4.408
N14175 Y413.486 Z-5.34
N14180 Y426.194 Z-6.109
N14185 Y438.506 Z-7.084
N14190 Y449.03 Z-8.223
N14195 Y459.164 Z-9.582
N14200 Y467.878 Z-10.932
N14205 Y476.355 Z-12.59
N14210 Y483.68 Z-14.182
N14215 Y489.208 Z-15.651
N14220 Y494.926 Z-17.423
N14225 Y499.067 Z-18.868
N14230 Y502.286 Z-20.239
N14235 Y506.219 Z-22.179
N14240 Y508.452 Z-23.474
N14245 Y510.529 Z-24.97
N14250 Y604. Z-25.
N14255 G3 Y604.419 Z-24.903 J0. K0.952
N14260 G2 Y604.839 Z-24.806 J0.419 K-0.855
N14265 G17 G3 X-89.831 Y607.696 I-2.857 J0.
N14270 G1 X-92.113
N14275 G3 X-94.971 Y604.839 I0. J-2.857
N14280 G19 G3 Y604.419 Z-24.903 J0. K-0.952
N14285 G2 Y604. Z-25. J-0.419 K0.855
N14290 G1 Y486.882 Z-24.981
N14295 Y485.156 Z-23.758
N14300 Y481.854 Z-21.751
N14305 Y478.79 Z-20.305
N14310 Y475.518 Z-19.048
N14315 Y468.591 Z-16.715
N14320 Y463.067 Z-15.24
N14325 Y457.905 Z-14.089
N14330 Y449.621 Z-12.386
N14335 Y441.308 Z-10.965
N14340 Y433.937 Z-9.942
N14345 Y423.79 Z-8.673
N14350 Y411.511 Z-7.353
N14355 Y397.442 Z-6.217
N14360 Y383.885 Z-5.338
N14365 Y366.97 Z-4.482
N14370 Y348.007 Z-3.882
N14375 Y325.948 Z-3.53
N14380 Y311.093 Z-3.536
N14385 Y279.694 Z-3.981
N14390 Y229.163 Z-5.049
N14395 Y194.08 Z-6.056
N14400 Y168.595 Z-7.075
N14405 Y148.963 Z-8.159
N14410 Y133.553 Z-9.296
N14415 Y120.935 Z-10.529
N14420 Y109.926 Z-11.902
N14425 Y100.919 Z-13.305
N14430 Y93.099 Z-14.861
N14435 Y87.952 Z-16.101
N14440 Y83.391 Z-17.493
N14445 Y78.942 Z-19.225
N14450 Y76.774 Z-20.292
N14455 Y74.907 Z-21.52
N14460 Y72.744 Z-23.405
N14465 Y72.05 Z-24.36
N14470 Y71.773 Z-25.
N14475 Y-4.
N14480 G2 Y-4.419 Z-24.903 J0. K0.952
N14485 G3 Y-4.838 Z-24.806 J-0.419 K-0.855
N14490 G17 G2 X-97.828 Y-7.696 I-2.857 J0.
N14495 G1 X-100.111
N14500 G2 X-102.968 Y-4.838 I0. J2.858
N14505 G19 G2 Y-4.419 Z-24.903 J0. K-0.952
N14510 G3 Y-4. Z-25. J0.419 K0.855
N14515 G1 Y123.285
N14520 Y124.151 Z-23.781
N14525 Y125.035 Z-22.744
N14530 Y126.383 Z-21.777
N14535 Y127.815 Z-21.023
N14540 Y131.842 Z-19.314
N14545 Y135.235 Z-18.159
N14550 Y139.933 Z-16.93
N14555 Y147.172 Z-15.367
N14560 Y154.198 Z-14.115
N14565 Y163.62 Z-12.815
N14570 Y174.573 Z-11.588
N14575 Y187.197 Z-10.426
N14580 Y203.809 Z-9.272
N14585 Y224.402 Z-8.246
N14590 Y242.875 Z-7.584
N14595 Y267.184 Z-6.987
N14600 Y291.493 Z-6.685
N14605 Y313.101 Z-6.706
N14610 Y327.506 Z-6.975
N14615 Y346.413 Z-7.64
N14620 Y362.448 Z-8.487
N14625 Y376.525 Z-9.52
N14630 Y386.711 Z-10.444
N14635 Y397.065 Z-11.5
N14640 Y407.569 Z-12.802
N14645 Y416.274 Z-14.192
N14650 Y424.582 Z-15.808
N14655 Y430.607 Z-17.111
N14660 Y435.701 Z-18.481
N14665 Y439.514 Z-19.785
N14670 Y444.078 Z-21.623
N14675 Y446.493 Z-22.794
N14680 Y448.221 Z-23.971
N14685 Y449.252 Z-25.
N14690 Y604.
N14695 G3 Y604.419 Z-24.903 J0. K0.952
N14700 G2 Y604.838 Z-24.806 J0.419 K-0.855
N14705 G17 G3 X-105.826 Y607.696 I-2.858 J0.
N14710 G1 X-108.108
N14715 G3 X-110.966 Y604.838 I0. J-2.857
N14720 G19 G3 Y604.419 Z-24.903 J0. K-0.952
N14725 G2 Y604. Z-25. J-0.419 K0.855
N14730 G1 Y360.467
N14735 Y360.46 Z-24.735
N14740 Y360.01 Z-24.06
N14745 Y359.109 Z-23.544
N14750 Y352.87 Z-21.22
N14755 Y350.602 Z-20.634
N14760 Y344.975 Z-19.627
N14765 Y337.725 Z-18.742
N14770 Y329.477 Z-18.007
N14775 Y324.378 Z-17.619
N14780 Y317.515 Z-17.16
N14785 Y305.562 Z-16.663
N14790 Y295.209 Z-16.469
N14795 Y285.305 Z-16.483
N14800 Y275.401 Z-16.678
N14805 Y264.76 Z-17.103
N14810 Y255.193 Z-17.687
N14815 Y246.577 Z-18.383
N14820 Y237.55 Z-19.347
N14825 Y231.14 Z-20.352
N14830 Y227.577 Z-21.242
N14835 Y225.07 Z-22.18
N14840 Y222.343 Z-23.36
N14845 Y221.981 Z-23.548
N14850 Y221.212 Z-24.146
N14855 Y221.022 Z-24.617
N14860 Y221.021 Z-25.
N14865 Y-4.
N14870 G2 Y-4.419 Z-24.903 J0. K0.952
N14875 G3 Y-4.838 Z-24.806 J-0.419 K-0.855
N14880 G17 G2 X-113.823 Y-7.696 I-2.857 J0.
N14885 G1 X-116.106
N14890 G2 X-118.963 Y-4.838 I0. J2.858
N14895 G19 G2 Y-4.419 Z-24.903 J0. K-0.952
N14900 G3 Y-4. Z-25. J0.419 K0.855
N14905 G1 Y604.
N14910 G3 Y604.419 Z-24.903 J0. K0.952
N14915 G2 Y604.838 Z-24.806 J0.419 K-0.855
N14920 G17 G3 X-121.821 Y607.696 I-2.857 J0.
N14925 G1 X-124.103
N14930 G3 X-126.961 Y604.838 I0. J-2.857
N14935 G1 Y604.304
N14940 G19 G3 Y603.885 Z-24.903 J0. K-0.952
N14945 G2 Y603.466 Z-25. J-0.419 K0.855
N14950 G1 Y-3.466
N14955 G2 Y-5.371 Z-23.095 J0. K1.905 F1000.
N14960 G0 Z15.
N14965 G17
(PARALLEL3 4)
N14970 G0 X129. Y298.182
N14975 Z15.
N14980 Z-38.095
N14985 G19 G2 Y296.277 Z-40. J-1.905 K0. F1000.
N14990 G1 Y282.655 F3000.
N14995 G2 Y280.75 Z-38.095 J0. K1.905 F1000.
N15000 G0 Z5.
N15005 X126. Y190.102
N15010 Z-38.095
N15015 G3 Y192.007 Z-40. J1.905 K0. F1000.
N15020 G1 Y389.817 F3000.
N15025 Y425.208
N15030 G17 G3 X123.001 I-1.5 J0.
N15035 G1 Y153.94
N15040 G19 G2 Y153.521 Z-39.903 J0. K0.952
N15045 G3 Y153.102 Z-39.806 J-0.419 K-0.855
N15050 G1 Y125.
N15055 G17 G2 X120.001 I-1.5 J0.
N15060 G19 G2 Y125.419 Z-39.903 J0. K-0.953
N15065 G3 Y125.838 Z-40. J0.419 K0.855
N15070 G1 Y449.15
N15075 G3 Y449.569 Z-39.903 J0. K0.952
N15080 G2 Y449.988 Z-39.806 J0.419 K-0.855
N15085 G1 Y468.191
N15090 G17 G3 X117.001 I-1.5 J0.
N15095 G19 G3 Y467.772 Z-39.903 J0. K-0.953
N15100 G2 Y467.353 Z-40. J-0.419 K0.855
N15105 G1 Y103.015
N15110 G2 Y102.596 Z-39.903 J0. K0.952
N15115 G3 Y102.176 Z-39.806 J-0.419 K-0.855
N15120 G1 Y82.807
N15125 G17 G2 X114.002 I-1.5 J0.
N15130 G19 G2 Y83.226 Z-39.903 J0. K-0.953
N15135 G3 Y83.645 Z-40. J0.419 K0.855
N15140 G1 Y482.113
N15145 G3 Y482.532 Z-39.903 J0. K0.952
N15150 G2 Y482.951 Z-39.806 J0.419 K-0.855
N15155 G1 Y495.334
N15160 G17 G3 X111.002 I-1.5 J0.
N15165 G19 G3 Y494.915 Z-39.903 J0. K-0.953
N15170 G2 Y494.496 Z-40. J-0.419 K0.855
N15175 G1 Y66.751
N15180 G2 Y66.332 Z-39.903 J0. K0.952
N15185 G3 Y65.913 Z-39.806 J-0.419 K-0.855
N15190 G1 Y50.945
N15195 G17 G2 X108.002 I-1.5 J0.
N15200 G19 G2 Y51.364 Z-39.903 J0. K-0.953
N15205 G3 Y51.784 Z-40. J0.419 K0.855
N15210 G1 Y234.695
N15215 Y234.722 Z-24.524
N15220 Y234.991 Z-24.097
N15225 Y235.636 Z-23.73
N15230 Y239.007 Z-22.546
N15235 Y242.68 Z-21.513
N15240 Y246.269 Z-20.854
N15245 Y252.989 Z-20.107
N15250 Y261.128 Z-19.514
N15255 Y268.591 Z-19.126
N15260 Y275.464 Z-18.87
N15265 Y285.538 Z-18.662
N15270 Y295.613 Z-18.653
N15275 Y304.986 Z-18.834
N15280 Y315.763 Z-19.262
N15285 Y326.231 Z-19.979
N15290 Y333.753 Z-20.864
N15295 Y336.501 Z-21.358
N15300 Y343.013 Z-23.147
N15305 Y344.896 Z-23.771
N15310 Y345.681 Z-24.242
N15315 Y345.854 Z-24.585
N15320 Z-40.
N15325 Y505.134
N15330 G3 Y505.553 Z-39.903 J0. K0.952
N15335 G2 Y505.973 Z-39.806 J0.419 K-0.855
N15340 G1 Y515.273
N15345 G17 G3 X105.003 I-1.5 J0.
N15350 G19 G3 Y514.853 Z-39.903 J0. K-0.953
N15355 G2 Y514.434 Z-40. J-0.419 K0.855
N15360 G1 Y401.916
N15365 Y401.868 Z-25.567
N15370 Y401.48 Z-24.993
N15375 Y398.619 Z-22.982
N15380 Y397.386 Z-22.339
N15385 Y394.863 Z-21.429
N15390 Y390.092 Z-20.272
N15395 Y382.145 Z-18.621
N15400 Y374.249 Z-17.389
N15405 Y364.264 Z-16.283
N15410 Y355.565 Z-15.508
N15415 Y344.96 Z-14.691
N15420 Y331.132 Z-13.87
N15425 Y317.182 Z-13.321
N15430 Y301.682 Z-13.097
N15435 Y283.083 Z-13.141
N15440 Y263.708 Z-13.491
N15445 Y246.413 Z-14.098
N15450 Y231.258 Z-14.937
N15455 Y222.406 Z-15.62
N15460 Y213.638 Z-16.42
N15465 Y206.022 Z-17.216
N15470 Y197.975 Z-18.32
N15475 Y191.885 Z-19.53
N15480 Y185.936 Z-20.934
N15485 Y183.647 Z-21.695
N15490 Y182.381 Z-22.295
N15495 Y179.85 Z-24.171
N15500 Y179.598 Z-24.443
N15505 Y179.377 Z-25.025
N15510 Y179.376 Z-40.
N15515 Y38.37
N15520 G2 Y37.951 Z-39.903 J0. K0.952
N15525 G3 Y37.532 Z-39.806 J-0.419 K-0.855
N15530 G1 Y25.391
N15535 G17 G2 X102.003 I-1.5 J0.
N15540 G19 G2 Y25.81 Z-39.903 J0. K-0.953
N15545 G3 Y26.229 Z-40. J0.419 K0.855
N15550 G1 Y145.552
N15555 Z-25.476
N15560 Y145.687 Z-24.956
N15565 Y145.945 Z-24.584
N15570 Y147.285 Z-23.136
N15575 Y148.268 Z-22.392
N15580 Y149.833 Z-21.623
N15585 Y154.169 Z-20.105
N15590 Y157.452 Z-19.127
N15595 Y162.122 Z-18.094
N15600 Y169.147 Z-16.858
N15605 Y176.568 Z-15.739
N15610 Y186.056 Z-14.655
N15615 Y196.71 Z-13.714
N15620 Y208.067 Z-12.856
N15625 Y224.881 Z-11.888
N15630 Y246.155 Z-11.059
N15635 Y270.18 Z-10.488
N15640 Y295.754 Z-10.221
N15645 Y315.129 Z-10.3
N15650 Y330.629 Z-10.693
N15655 Y347.678 Z-11.444
N15660 Y359.218 Z-12.136
N15665 Y371.357 Z-13.014
N15670 Y380.438 Z-13.776
N15675 Y391.007 Z-14.912
N15680 Y398.526 Z-15.956
N15685 Y407.526 Z-17.387
N15690 Y413.495 Z-18.494
N15695 Y419.083 Z-19.861
N15700 Y424.715 Z-21.663
N15705 Y427.243 Z-22.61
N15710 Y429.009 Z-23.494
N15715 Y430.107 Z-24.281
N15720 Y431.241 Z-25.435
N15725 Y432.016 Z-26.376
N15730 Y432.196 Z-27.047
N15735 Y432.197 Z-40.
N15740 Y522.689
N15745 G3 Y523.109 Z-39.903 J0. K0.952
N15750 G2 Y523.528 Z-39.806 J0.419 K-0.855
N15755 G1 Y530.906
N15760 G17 G3 X99.003 I-1.5 J0.
N15765 G19 G3 Y530.486 Z-39.903 J0. K-0.953
N15770 G2 Y530.067 Z-40. J-0.419 K0.855
N15775 G1 Y453.614
N15780 Y453.613 Z-28.106
N15785 Y453.538 Z-27.659
N15790 Y453.053 Z-26.789
N15795 Y452.064 Z-25.493
N15800 Y451.205 Z-24.664
N15805 Y450.137 Z-23.952
N15810 Y447.59 Z-22.714
N15815 Y444.244 Z-21.304
N15820 Y440.828 Z-20.106
N15825 Y435.7 Z-18.751
N15830 Y427.733 Z-16.987
N15835 Y421.582 Z-15.826
N15840 Y412.571 Z-14.5
N15845 Y402.021 Z-13.192
N15850 Y392.962 Z-12.205
N15855 Y380.858 Z-11.163
N15860 Y370.181 Z-10.459
N15865 Y356.268 Z-9.693
N15870 Y336.118 Z-8.852
N15875 Y319.068 Z-8.437
N15880 Y299.694 Z-8.388
N15885 Y270.244 Z-8.727
N15890 Y240.795 Z-9.383
N15895 Y216.056 Z-10.228
N15900 Y195.856 Z-11.215
N15905 Y180.927 Z-12.164
N15910 Y167.324 Z-13.277
N15915 Y156.476 Z-14.476
N15920 Y147.535 Z-15.679
N15925 Y140.805 Z-16.811
N15930 Y136.133 Z-17.825
N15935 Y130.679 Z-19.165
N15940 Y127.418 Z-20.214
N15945 Y123.331 Z-21.991
N15950 Y121.802 Z-22.858
N15955 Y120.965 Z-23.598
N15960 Y119.899 Z-25.113
N15965 Y119.716 Z-25.482
N15970 Y119.635 Z-25.942
N15975 Y119.634 Z-40.
N15980 Y15.306
N15985 G2 Y14.887 Z-39.903 J0. K0.952
N15990 G3 Y14.468 Z-39.806 J-0.419 K-0.855
N15995 G1 Y7.97
N16000 G17 G2 X96.004 I-1.5 J0.
N16005 G19 G2 Y8.389 Z-39.903 J0. K-0.953
N16010 G3 Y8.808 Z-40. J0.419 K0.855
N16015 G1 Y98.211
N16020 Y98.272 Z-26.172
N16025 Y99.12 Z-24.329
N16030 Y99.78 Z-23.471
N16035 Y100.916 Z-22.616
N16040 Y102.689 Z-21.577
N16045 Y104.231 Z-20.762
N16050 Y107.121 Z-19.656
N16055 Y112.366 Z-18.128
N16060 Y117.022 Z-17.037
N16065 Y123.735 Z-15.814
N16070 Y131.147 Z-14.631
N16075 Y140.986 Z-13.427
N16080 Y154.361 Z-12.165
N16085 Y169.412 Z-11.111
N16090 Y186.4 Z-10.221
N16095 Y211.693 Z-9.231
N16100 Y246.664 Z-8.266
N16105 Y288.416 Z-7.475
N16110 Y313.99 Z-7.243
N16115 Y331.04 Z-7.417
N16120 Y350.415 Z-7.946
N16125 Y371.339 Z-8.829
N16130 Y385.93 Z-9.713
N16135 Y397.287 Z-10.632
N16140 Y409.384 Z-11.769
N16145 Y417.688 Z-12.662
N16150 Y426.903 Z-13.908
N16155 Y436.459 Z-15.464
N16160 Y443.923 Z-16.845
N16165 Y449.092 Z-18.047
N16170 Y455.67 Z-19.872
N16175 Y458.559 Z-20.778
N16180 Y461.37 Z-21.848
N16185 Y464.091 Z-23.156
N16190 Y466.598 Z-24.517
N16195 Y468.238 Z-25.708
N16200 Y469.031 Z-26.626
N16205 Y470.079 Z-28.397
N16210 Y470.23 Z-29.107
N16215 Y470.231 Z-40.
N16220 Y536.728
N16225 G3 Y537.147 Z-39.903 J0. K0.952
N16230 G2 Y537.566 Z-39.806 J0.419 K-0.855
N16235 G1 Y543.634
N16240 G17 G3 X93.004 I-1.5 J0.
N16245 G19 G3 Y543.215 Z-39.903 J0. K-0.953
N16250 G2 Y542.796 Z-40. J-0.419 K0.855
N16255 G1 Y483.803
N16260 Y483.753 Z-29.659
N16265 Y483.316 Z-28.606
N16270 Y482.735 Z-27.569
N16275 Y482.253 Z-26.914
N16280 Y481.365 Z-26.042
N16285 Y479.761 Z-24.901
N16290 Y477.245 Z-23.394
N16295 Y475.251 Z-22.398
N16300 Y471.741 Z-21.023
N16305 Y466.706 Z-19.343
N16310 Y462.337 Z-18.094
N16315 Y456.419 Z-16.746
N16320 Y448.234 Z-15.081
N16325 Y440.752 Z-13.813
N16330 Y430.971 Z-12.485
N16335 Y420.417 Z-11.204
N16340 Y409.08 Z-10.104
N16345 Y396.199 Z-9.129
N16350 Y383.958 Z-8.348
N16355 Y368.459 Z-7.644
N16360 Y350.634 Z-7.159
N16365 Y325.835 Z-6.882
N16370 Y308.785 Z-6.97
N16375 Y263.836 Z-7.745
N16380 Y206.487 Z-9.067
N16385 Y173.938 Z-10.04
N16390 Y153.859 Z-10.919
N16395 Y137.942 Z-11.905
N16400 Y125.027 Z-13.01
N16405 Y114.185 Z-14.262
N16410 Y105.932 Z-15.471
N16415 Y98.424 Z-16.902
N16420 Y93.751 Z-18.
N16425 Y89.825 Z-19.206
N16430 Y85.989 Z-20.671
N16435 Y84.148 Z-21.634
N16440 Y81.907 Z-23.275
N16445 Y81.364 Z-23.757
N16450 Y80.884 Z-24.337
N16455 Y80.404 Z-25.421
N16460 Y79.952 Z-26.811
N16465 Y79.942 Z-40.
N16470 Y4.754
N16475 G2 Y4.335 Z-39.903 J0. K0.952
N16480 G3 Y3.916 Z-39.806 J-0.419 K-0.855
N16485 G1 Y0.952
N16490 G17 G2 X90.004 I-1.5 J0.
N16495 G19 G2 Y1.372 Z-39.903 J0. K-0.953
N16500 G3 Y1.791 Z-40. J0.419 K0.855
N16505 G1 Y63.922
N16510 Y63.929 Z-27.348
N16515 Y64.466 Z-25.37
N16520 Y65.028 Z-24.354
N16525 Y65.274 Z-24.073
N16530 Y66.522 Z-22.89
N16535 Y67.515 Z-22.081
N16540 Y69.483 Z-20.954
N16545 Y72.622 Z-19.584
N16550 Y75.705 Z-18.53
N16555 Y80.496 Z-17.272
N16560 Y86.507 Z-16.001
N16565 Y94.589 Z-14.691
N16570 Y103.389 Z-13.593
N16575 Y114.51 Z-12.556
N16580 Y128.704 Z-11.618
N16585 Y145.401 Z-10.879
N16590 Y195.388 Z-9.352
N16595 Y251.962 Z-7.977
N16600 Y304.66 Z-6.996
N16605 Y324.035 Z-6.838
N16610 Y349.61 Z-7.013
N16615 Y375.184 Z-7.512
N16620 Y393.009 Z-8.147
N16625 Y406.913 Z-8.884
N16630 Y419.224 Z-9.843
N16635 Y431.882 Z-11.098
N16640 Y440.648 Z-12.117
N16645 Y448.443 Z-13.264
N16650 Y457.437 Z-14.727
N16655 Y463.403 Z-15.848
N16660 Y469.316 Z-17.223
N16665 Y475.2 Z-18.711
N16670 Y479.541 Z-20.038
N16675 Y483.787 Z-21.644
N16680 Y487.249 Z-23.113
N16685 Y489.218 Z-24.19
N16690 Y491.558 Z-25.772
N16695 Y493.188 Z-27.097
N16700 Y494.06 Z-28.123
N16705 Y494.932 Z-29.863
N16710 Y495.182 Z-30.973
N16715 Y495.183 Z-40.
N16720 Y548.309
N16725 G3 Y548.728 Z-39.903 J0. K0.952
N16730 G2 Y549.147 Z-39.806 J0.419 K-0.855
N16735 G1 Y554.258
N16740 G17 G3 X87.005 I-1.5 J0.
N16745 G19 G3 Y553.839 Z-39.903 J0. K-0.953
N16750 G2 Y553.42 Z-40. J-0.419 K0.855
N16755 G1 Y504.98
N16760 Y504.979 Z-31.858
N16765 Y504.79 Z-30.824
N16770 Y504.208 Z-29.44
N16775 Y503.454 Z-28.261
N16780 Y502.164 Z-26.997
N16785 Y499.501 Z-24.972
N16790 Y497.081 Z-23.59
N16795 Y492.43 Z-21.508
N16800 Y489.259 Z-20.304
N16805 Y486.372 Z-19.397
N16810 Y479.431 Z-17.434
N16815 Y473.895 Z-16.147
N16820 Y465.697 Z-14.55
N16825 Y458.97 Z-13.361
N16830 Y452.207 Z-12.399
N16835 Y441.658 Z-11.08
N16840 Y431.838 Z-10.09
N16845 Y421.975 Z-9.365
N16850 Y411.187 Z-8.738
N16855 Y394.234 Z-8.016
N16860 Y372.535 Z-7.367
N16865 Y347.735 Z-6.955
N16870 Y322.936 Z-6.836
N16875 Y301.236 Z-7.046
N16880 Y244.662 Z-8.137
N16885 Y188.863 Z-9.531
N16890 Y139.264 Z-11.083
N16895 Y113.78 Z-12.032
N16900 Y100.374 Z-12.785
N16905 Y89.495 Z-13.702
N16910 Y80.349 Z-14.778
N16915 Y72.598 Z-16.01
N16920 Y66.58 Z-17.248
N16925 Y61.301 Z-18.662
N16930 Y58.062 Z-19.788
N16935 Y55.324 Z-21.046
N16940 Y53.152 Z-22.334
N16945 Y51.917 Z-23.388
N16950 Y50.631 Z-24.882
N16955 Y50.125 Z-25.954
N16960 Y49.695 Z-28.008
N16965 Y49.694 Z-40.
N16970 Y-0.546
N16975 G2 Y-0.965 Z-39.903 J0. K0.952
N16980 G3 Y-1.384 Z-39.806 J-0.419 K-0.855
N16985 G1 Y-3.511
N16990 G17 G2 X84.005 I-1.5 J0.
N16995 G19 G2 Y-3.092 Z-39.903 J0. K-0.953
N17000 G3 Y-2.672 Z-40. J0.419 K0.855
N17005 G1 Y36.918
N17010 Y36.919 Z-28.531
N17015 Y37.277 Z-26.567
N17020 Y37.735 Z-25.455
N17025 Y38.613 Z-24.252
N17030 Y39.633 Z-23.171
N17035 Y41.631 Z-21.749
N17040 Y43.772 Z-20.624
N17045 Y46.315 Z-19.584
N17050 Y50.225 Z-18.334
N17055 Y55.53 Z-17.023
N17060 Y62.239 Z-15.764
N17065 Y69.671 Z-14.72
N17070 Y78.493 Z-13.816
N17075 Y89.494 Z-13.059
N17080 Y104.533 Z-12.395
N17085 Y133.092 Z-11.3
N17090 Y181.141 Z-9.753
N17095 Y236.165 Z-8.335
N17100 Y295.839 Z-7.14
N17105 Y321.414 Z-6.848
N17110 Y346.658 Z-6.931
N17115 Y371.458 Z-7.305
N17120 Y394.707 Z-7.957
N17125 Y411.711 Z-8.646
N17130 Y426.112 Z-9.406
N17135 Y438.35 Z-10.188
N17140 Y448.188 Z-11.01
N17145 Y457.242 Z-12.007
N17150 Y465.508 Z-13.199
N17155 Y473.004 Z-14.401
N17160 Y478.956 Z-15.59
N17165 Y486.365 Z-17.247
N17170 Y490.216 Z-18.229
N17175 Y495.106 Z-19.752
N17180 Y499.412 Z-21.209
N17185 Y502.194 Z-22.363
N17190 Y505.749 Z-24.115
N17195 Y508.153 Z-25.522
N17200 Y509.907 Z-26.886
N17205 Y511.745 Z-28.6
N17210 Y512.568 Z-29.733
N17215 Y513.344 Z-31.585
N17220 Y513.534 Z-32.68
N17225 Y513.535 Z-40.
N17230 Y558.1
N17235 G3 Y558.519 Z-39.903 J0. K0.952
N17240 G2 Y558.938 Z-39.806 J0.419 K-0.855
N17245 G1 Y563.295
N17250 G17 G3 X81.005 I-1.5 J0.
N17255 G19 G3 Y562.876 Z-39.903 J0. K-0.953
N17260 G2 Y562.457 Z-40. J-0.419 K0.855
N17265 G1 Y521.094
N17270 Y521.092 Z-33.423
N17275 Y520.899 Z-32.296
N17280 Y520.342 Z-30.79
N17285 Y519.545 Z-29.511
N17290 Y517.782 Z-27.689
N17295 Y516.519 Z-26.591
N17300 Y514.358 Z-25.153
N17305 Y510.71 Z-23.171
N17310 Y507.957 Z-21.956
N17315 Y502.349 Z-19.902
N17320 Y498.651 Z-18.741
N17325 Y492.777 Z-17.214
N17330 Y487.611 Z-15.972
N17335 Y482.402 Z-14.948
N17340 Y474.175 Z-13.513
N17345 Y466.658 Z-12.467
N17350 Y458.352 Z-11.591
N17355 Y447.756 Z-10.718
N17360 Y437.284 Z-9.973
N17365 Y423.724 Z-9.17
N17370 Y406.884 Z-8.368
N17375 Y384.441 Z-7.596
N17380 Y359.641 Z-7.071
N17385 Y333.292 Z-6.852
N17390 Y310.817 Z-6.942
N17395 Y269.743 Z-7.632
N17400 Y211.232 Z-8.942
N17405 Y158.92 Z-10.429
N17410 Y115.54 Z-11.955
N17415 Y89.599 Z-13.036
N17420 Y70.885 Z-13.945
N17425 Y61.331 Z-14.696
N17430 Y53.539 Z-15.613
N17435 Y46.803 Z-16.707
N17440 Y41.13 Z-17.936
N17445 Y37.184 Z-19.067
N17450 Y33.65 Z-20.378
N17455 Y30.785 Z-21.782
N17460 Y28.828 Z-23.095
N17465 Y27.487 Z-24.273
N17470 Y26.156 Z-26.065
N17475 Y25.71 Z-27.114
N17480 Y25.363 Z-29.101
N17485 Z-40.
N17490 Y-4.69
N17495 G2 Y-5.11 Z-39.903 J0. K0.952
N17500 G3 Y-5.529 Z-39.806 J-0.419 K-0.855
N17505 G1 Y-7.407
N17510 G17 G2 X78.006 I-1.5 J0.
N17515 G19 G2 Y-6.988 Z-39.903 J0. K-0.953
N17520 G3 Y-6.569 Z-40. J0.419 K0.855
N17525 G1 Y18.073
N17530 Y18.091 Z-29.19
N17535 Y18.18 Z-27.504
N17540 Y18.565 Z-25.605
N17545 Y19.122 Z-24.215
N17550 Y19.881 Z-23.06
N17555 Y20.431 Z-22.476
N17560 Y21.597 Z-21.625
N17565 Y24.422 Z-20.357
N17570 Y28.469 Z-18.967
N17575 Y33.43 Z-17.675
N17580 Y39.294 Z-16.536
N17585 Y46.054 Z-15.61
N17590 Y53.867 Z-14.883
N17595 Y64.752 Z-14.248
N17600 Y88.293 Z-13.094
N17605 Y114.927 Z-11.979
N17610 Y153.657 Z-10.601
N17615 Y204.806 Z-9.113
N17620 Y262.93 Z-7.778
N17625 Y309.429 Z-6.972
N17630 Y331.128 Z-6.859
N17635 Y356.703 Z-7.027
N17640 Y381.502 Z-7.49
N17645 Y404.733 Z-8.238
N17650 Y424.883 Z-9.164
N17655 Y439.219 Z-10.008
N17660 Y451.818 Z-10.902
N17665 Y462.414 Z-11.779
N17670 Y473.442 Z-12.853
N17675 Y480.977 Z-13.787
N17680 Y486.969 Z-14.752
N17685 Y495.157 Z-16.396
N17690 Y499.769 Z-17.475
N17695 Y507.209 Z-19.585
N17700 Y511.193 Z-20.932
N17705 Y516.105 Z-22.927
N17710 Y518.793 Z-24.243
N17715 Y522.61 Z-26.6
N17720 Y524.321 Z-27.984
N17725 Y526.286 Z-30.122
N17730 Y527.008 Z-31.255
N17735 Y527.549 Z-32.697
N17740 Y527.82 Z-33.92
N17745 Y527.836 Z-40.
N17750 Y566.478
N17755 G3 Y566.897 Z-39.903 J0. K0.952
N17760 G2 Y567.317 Z-39.806 J0.419 K-0.855
N17765 G1 Y571.053
N17770 G17 G3 X75.006 I-1.5 J0.
N17775 G19 G3 Y570.634 Z-39.903 J0. K-0.953
N17780 G2 Y570.214 Z-40. J-0.419 K0.855
N17785 G1 Y533.895
N17790 Y533.887 Z-34.726
N17795 Y533.645 Z-33.434
N17800 Y533.064 Z-31.812
N17805 Y532.117 Z-30.379
N17810 Y530.445 Z-28.513
N17815 Y528.596 Z-27.011
N17820 Y525.746 Z-25.145
N17825 Y523.1 Z-23.752
N17830 Y518.947 Z-21.902
N17835 Y515.402 Z-20.598
N17840 Y509.614 Z-18.77
N17845 Y505.039 Z-17.555
N17850 Y497.82 Z-15.93
N17855 Y492.596 Z-14.987
N17860 Y485.83 Z-14.041
N17865 Y474.664 Z-12.799
N17870 Y462.72 Z-11.685
N17875 Y450.761 Z-10.732
N17880 Y438.583 Z-9.899
N17885 Y422.818 Z-9.006
N17890 Y405.947 Z-8.249
N17895 Y382.705 Z-7.503
N17900 Y357.131 Z-7.027
N17905 Y331.556 Z-6.868
N17910 Y308.4 Z-6.998
N17915 Y259.576 Z-7.857
N17920 Y202.228 Z-9.187
N17925 Y151.079 Z-10.687
N17930 Y113.899 Z-12.019
N17935 Y88.04 Z-13.106
N17940 Y64.498 Z-14.261
N17945 Y44.855 Z-15.404
N17950 Y37.35 Z-15.998
N17955 Y30.413 Z-16.894
N17960 Y24.375 Z-18.034
N17965 Y21.883 Z-18.652
N17970 Y20.586 Z-19.193
N17975 Y19.374 Z-19.95
N17980 Y17.95 Z-21.256
N17985 Y17.319 Z-22.035
N17990 Y16.524 Z-23.396
N17995 Y15.929 Z-25.139
N18000 Y15.567 Z-27.541
N18005 Y15.519 Z-29.323
N18010 Y15.517 Z-40.
N18015 Y-8.307
N18020 G2 Y-8.726 Z-39.903 J0. K0.952
N18025 G3 Y-9.146 Z-39.806 J-0.419 K-0.855
N18030 G1 Y-10.773
N18035 G17 G2 X72.007 I-1.5 J0.
N18040 G19 G2 Y-10.354 Z-39.903 J0. K-0.953
N18045 G3 Y-9.934 Z-40. J0.419 K0.855
N18050 G1 Y13.437
N18055 Y13.438 Z-29.452
N18060 Y13.53 Z-27.198
N18065 Y13.818 Z-25.393
N18070 Y14.319 Z-23.824
N18075 Y15.176 Z-22.236
N18080 Y16.421 Z-20.704
N18085 Y17.974 Z-19.372
N18090 Y19.867 Z-18.241
N18095 Y21.657 Z-17.547
N18100 Y23.504 Z-17.158
N18105 Y30.287 Z-16.419
N18110 Y45.665 Z-15.352
N18115 Y64.539 Z-14.259
N18120 Y88.081 Z-13.104
N18125 Y114.714 Z-11.987
N18130 Y151.894 Z-10.662
N18135 Y203.043 Z-9.17
N18140 Y260.392 Z-7.849
N18145 Y308.441 Z-7.01
N18150 Y331.691 Z-6.876
N18155 Y357.265 Z-7.025
N18160 Y382.84 Z-7.489
N18165 Y406.089 Z-8.223
N18170 Y427.648 Z-9.213
N18175 Y441.212 Z-10.007
N18180 Y454.574 Z-10.944
N18185 Y466.684 Z-11.941
N18190 Y477.114 Z-12.931
N18195 Y487.684 Z-14.082
N18200 Y496.57 Z-15.211
N18205 Y501.821 Z-16.016
N18210 Y507.033 Z-17.017
N18215 Y512.924 Z-18.476
N18220 Y517.297 Z-19.711
N18225 Y523.029 Z-21.701
N18230 Y525.825 Z-22.825
N18235 Y529.58 Z-24.621
N18240 Y531.86 Z-25.885
N18245 Y534.752 Z-27.942
N18250 Y536.46 Z-29.505
N18255 Y537.712 Z-31.053
N18260 Y538.641 Z-32.58
N18265 Y539.198 Z-34.307
N18270 Y539.373 Z-35.658
N18275 Y539.374 Z-40.
N18280 Y573.709
N18285 G3 Y574.128 Z-39.903 J0. K0.952
N18290 G2 Y574.547 Z-39.806 J0.419 K-0.855
N18295 G1 Y577.823
N18300 G17 G3 X69.007 I-1.5 J0.
N18305 G19 G3 Y577.404 Z-39.903 J0. K-0.953
N18310 G2 Y576.985 Z-40. J-0.419 K0.855
N18315 G1 Y544.353
N18320 Y544.339 Z-35.922
N18325 Y544.012 Z-34.241
N18330 Y543.66 Z-33.23
N18335 Y542.885 Z-31.844
N18340 Y541.452 Z-29.972
N18345 Y539.897 Z-28.517
N18350 Y538.179 Z-27.155
N18355 Y536.068 Z-25.789
N18360 Y532.115 Z-23.713
N18365 Y529.645 Z-22.661
N18370 Y524.67 Z-20.803
N18375 Y521.061 Z-19.677
N18380 Y515.574 Z-18.171
N18385 Y510.755 Z-17.159
N18390 Y506.267 Z-16.397
N18395 Y498.905 Z-15.34
N18400 Y488.509 Z-14.054
N18405 Y477.337 Z-12.858
N18410 Y466.149 Z-11.817
N18415 Y454.192 Z-10.851
N18420 Y440.817 Z-9.931
N18425 Y427.075 Z-9.141
N18430 Y411.051 Z-8.392
N18435 Y387.802 Z-7.598
N18440 Y363.002 Z-7.093
N18445 Y337.428 Z-6.885
N18450 Y313.014 Z-6.969
N18455 Y277.365 Z-7.524
N18460 Y218.466 Z-8.785
N18465 Y164.992 Z-10.249
N18470 Y119.273 Z-11.812
N18475 Y91.796 Z-12.938
N18480 Y68.068 Z-14.073
N18485 Y48.346 Z-15.185
N18490 Y31.914 Z-16.294
N18495 Y22.142 Z-17.101
N18500 Y20.042 Z-17.547
N18505 Y18.095 Z-18.271
N18510 Y16.262 Z-19.296
N18515 Y14.682 Z-20.563
N18520 Y13.412 Z-22.014
N18525 Y12.619 Z-23.303
N18530 Y12.009 Z-24.8
N18535 Y11.613 Z-26.708
N18540 Y11.542 Z-27.331
N18545 Y11.457 Z-29.477
N18550 Y11.429 Z-40.
N18555 Y-10.024
N18560 G2 Y-10.444 Z-39.903 J0. K0.952
N18565 G3 Y-10.863 Z-39.806 J-0.419 K-0.855
N18570 G17 G2 X66.007 I-1.5 J0.
N18575 G19 G2 Y-10.444 Z-39.903 J0. K-0.953
N18580 G3 Y-10.025 Z-40. J0.419 K0.855
N18585 G1 Y9.641
N18590 Z-29.534
N18595 Y9.727 Z-27.354
N18600 Y10.07 Z-25.271
N18605 Y10.65 Z-23.671
N18610 Y11.417 Z-22.328
N18615 Y12.336 Z-21.167
N18620 Y13.38 Z-20.166
N18625 Y15.13 Z-18.945
N18630 Y17.015 Z-18.057
N18635 Y18.669 Z-17.548
N18640 Y20.602 Z-17.219
N18645 Y33.276 Z-16.194
N18650 Y49.728 Z-15.101
N18655 Y69.489 Z-14.
N18660 Y93.27 Z-12.873
N18665 Y120.818 Z-11.753
N18670 Y166.542 Z-10.203
N18675 Y220.016 Z-8.748
N18680 Y278.915 Z-7.495
N18685 Y313.789 Z-6.963
N18690 Y338.371 Z-6.884
N18695 Y363.946 Z-7.094
N18700 Y388.745 Z-7.604
N18705 Y411.995 Z-8.4
N18710 Y429.685 Z-9.239
N18715 Y444.017 Z-10.09
N18720 Y457.368 Z-11.038
N18725 Y469.477 Z-12.043
N18730 Y481.264 Z-13.175
N18735 Y491.524 Z-14.303
N18740 Y500.412 Z-15.41
N18745 Y508.529 Z-16.55
N18750 Y516.023 Z-17.759
N18755 Y521.961 Z-18.988
N18760 Y527.064 Z-20.446
N18765 Y530.667 Z-21.592
N18770 Y534.188 Z-22.985
N18775 Y537.755 Z-24.562
N18780 Y540.926 Z-26.362
N18785 Y542.775 Z-27.569
N18790 Y545.044 Z-29.477
N18795 Y546.516 Z-31.043
N18800 Y547.866 Z-33.08
N18805 Y548.447 Z-34.426
N18810 Y548.834 Z-36.09
N18815 Y548.896 Z-40.
N18820 Y580.028
N18825 G3 Y580.447 Z-39.903 J0. K0.952
N18830 G2 Y580.866 Z-39.806 J0.419 K-0.855
N18835 G1 Y583.704
N18840 G17 G3 X63.008 I-1.5 J0.
N18845 G19 G3 Y583.285 Z-39.903 J0. K-0.953
N18850 G2 Y582.866 Z-40. J-0.419 K0.855
N18855 G1 Y553.055
N18860 Y553.029 Z-37.
N18865 Y552.641 Z-35.079
N18870 Y552.254 Z-34.061
N18875 Y551.107 Z-32.091
N18880 Y549.78 Z-30.48
N18885 Y547.611 Z-28.479
N18890 Y545.8 Z-27.195
N18895 Y542.598 Z-25.253
N18900 Y539.875 Z-23.963
N18905 Y537.104 Z-22.748
N18910 Y534.259 Z-21.733
N18915 Y529.928 Z-20.352
N18920 Y525.509 Z-19.297
N18925 Y521.041 Z-18.43
N18930 Y515.053 Z-17.41
N18935 Y507.546 Z-16.276
N18940 Y498.823 Z-15.102
N18945 Y488.421 Z-13.865
N18950 Y478.001 Z-12.775
N18955 Y465.831 Z-11.665
N18960 Y454.25 Z-10.75
N18965 Y440.543 Z-9.825
N18970 Y426.164 Z-9.02
N18975 Y410.127 Z-8.296
N18980 Y386.878 Z-7.534
N18985 Y362.078 Z-7.055
N18990 Y334.68 Z-6.87
N18995 Y308.364 Z-7.019
N19000 Y260.315 Z-7.855
N19005 Y202.966 Z-9.176
N19010 Y151.817 Z-10.667
N19015 Y114.637 Z-11.99
N19020 Y88.004 Z-13.108
N19025 Y65.237 Z-14.222
N19030 Y45.588 Z-15.357
N19035 Y30.553 Z-16.397
N19040 Y18.575 Z-17.405
N19045 Y16.302 Z-17.843
N19050 Y14.346 Z-18.57
N19055 Y12.529 Z-19.617
N19060 Y11.149 Z-20.753
N19065 Y9.936 Z-22.151
N19070 Y8.983 Z-23.773
N19075 Y8.368 Z-25.533
N19080 Y8.044 Z-27.752
N19085 Y7.985 Z-40.
N19090 Y-10.022
N19095 G2 Y-10.441 Z-39.903 J0. K0.952
N19100 G3 Y-10.86 Z-39.806 J-0.419 K-0.855
N19105 G1 Y-10.862
N19110 G17 G2 X60.008 I-1.5 J0.
N19115 G19 G2 Y-10.443 Z-39.903 J0. K-0.953
N19120 G3 Y-10.023 Z-40. J0.419 K0.855
N19125 G1 Y6.475
N19130 Y6.506 Z-29.307
N19135 Y6.574 Z-27.514
N19140 Y6.752 Z-26.17
N19145 Y7.268 Z-24.358
N19150 Y8.111 Z-22.71
N19155 Y9.354 Z-21.125
N19160 Y10.843 Z-19.824
N19165 Y12.578 Z-18.782
N19170 Y14.602 Z-18.004
N19175 Y16.792 Z-17.576
N19180 Y27.833 Z-16.608
N19185 Y42.841 Z-15.534
N19190 Y60.871 Z-14.458
N19195 Y83.537 Z-13.313
N19200 Y109.268 Z-12.202
N19205 Y138.643 Z-11.109
N19210 Y188.242 Z-9.572
N19215 Y244.04 Z-8.197
N19220 Y300.614 Z-7.125
N19225 Y326.964 Z-6.878
N19230 Y354.173 Z-6.958
N19235 Y378.973 Z-7.33
N19240 Y402.997 Z-8.002
N19245 Y419.142 Z-8.648
N19250 Y435.91 Z-9.511
N19255 Y449.388 Z-10.359
N19260 Y462.722 Z-11.354
N19265 Y474.672 Z-12.395
N19270 Y486.299 Z-13.562
N19275 Y496.708 Z-14.755
N19280 Y506.943 Z-16.089
N19285 Y515.956 Z-17.426
N19290 Y523.443 Z-18.681
N19295 Y529.413 Z-19.795
N19300 Y533.116 Z-20.603
N19305 Y536.657 Z-21.569
N19310 Y541.039 Z-23.137
N19315 Y543.117 Z-23.998
N19320 Y546.515 Z-25.675
N19325 Y548.448 Z-26.779
N19330 Y550.322 Z-28.063
N19335 Y552.048 Z-29.395
N19340 Y554.219 Z-31.616
N19345 Y555.348 Z-33.224
N19350 Y556.291 Z-35.106
N19355 Y556.678 Z-36.536
N19360 Y556.872 Z-38.089
N19365 Y556.874 Z-40.
N19370 Y585.546
N19375 G3 Y585.966 Z-39.903 J0. K0.952
N19380 G2 Y586.385 Z-39.806 J0.419 K-0.855
N19385 G1 Y588.91
N19390 G17 G3 X57.008 I-1.5 J0.
N19395 G19 G3 Y588.491 Z-39.903 J0. K-0.953
N19400 G2 Y588.072 Z-40. J-0.419 K0.855
N19405 G1 Y560.387
N19410 Y560.38 Z-38.442
N19415 Y560.173 Z-36.947
N19420 Y559.839 Z-35.713
N19425 Y559.004 Z-33.935
N19430 Y557.931 Z-32.313
N19435 Y556.147 Z-30.337
N19440 Y554.46 Z-28.92
N19445 Y552.028 Z-27.178
N19450 Y548.075 Z-25.005
N19455 Y546.029 Z-24.091
N19460 Y542.5 Z-22.709
N19465 Y539.254 Z-21.725
N19470 Y535.94 Z-20.929
N19475 Y529.99 Z-19.723
N19480 Y522.516 Z-18.387
N19485 Y515.174 Z-17.199
N19490 Y506.309 Z-15.917
N19495 Y497.426 Z-14.77
N19500 Y487.018 Z-13.576
N19505 Y474.881 Z-12.359
N19510 Y462.823 Z-11.315
N19515 Y449.487 Z-10.325
