%
(BAND_DRILL_V1)
(T1  D=3.2 CR=0. TAPER=118DEG - ZMIN=-19.961 - DRILL)
N10 G90 G94 G17 G91.1
N15 G21
N20 G53 G0 Z0.
(DRILL1)
N25 T1 M6
N30 S15000 M3
N35 G54
N40 G0 X175. Y-30.
N45 G43 Z15. H1
N50 G0 Z5.
N55 G98 G81 X175. Y-30. Z-19.961 R5. F100.
N60 X145. Y-37.5
N65 X115. Y-30.
N70 X85.
N75 X55. Y-37.5
N80 X25. Y-30.
N85 Y-80.
N90 X55. Y-72.5
N95 X85. Y-80.
N100 X115.
N105 X145. Y-72.5
N110 X175. Y-80.
N115 Y-110.
N120 X145. Y-117.5
N125 X115. Y-110.
N130 X85.
N135 X55. Y-117.5
N140 X25. Y-110.
N145 Y-160.
N150 X55. Y-152.5
N155 X85. Y-160.
N160 X115.
N165 X145. Y-152.5
N170 X175. Y-160.
N175 Y-190.
N180 X145. Y-197.5
N185 X115. Y-190.
N190 X85.
N195 X55. Y-197.5
N200 X25. Y-190.
N205 Y-320.
N210 X55. Y-312.5
N215 X85. Y-320.
N220 X115.
N225 X145. Y-312.5
N230 X175. Y-320.
N235 Y-270.
N240 X145. Y-277.5
N245 X115. Y-270.
N250 X85.
N255 X55. Y-277.5
N260 X25. Y-270.
N265 Y-240.
N270 X55. Y-232.5
N275 X85. Y-240.
N280 X115.
N285 X145. Y-232.5
N290 X175. Y-240.
N295 G80
N300 G0 Z15.
N305 G53 G0 Z0.
N310 G53 G0 X0. Y0.
N315 M30
%
