%
(BAND_POCKET_CONTOUR_V1)
(T2  D=3.175 CR=0. - ZMIN=-18. - FLAT END MILL)
N10 G90 G94 G17 G91.1
N15 G21
(WHEN USING FUSION 360 FOR PERSONAL USE, THE FEEDRATE OF)
(RAPID MOVES IS REDUCED TO MATCH THE FEEDRATE OF CUTTING)
(MOVES, WHICH CAN INCREASE MACHINING TIME. UNRESTRICTED RAPID)
(MOVES ARE AVAILABLE WITH A FUSION 360 SUBSCRIPTION.)
N20 G53 G0 Z0.
(2D POCKET1)
N25 T2 M6
N30 S15000 M3
N35 G54
N40 M8
N45 G0 X55.109 Y-38.377
N50 G43 Z15. H2
N55 G1 Z5. F1000.
N60 Z4.2 F150.
N65 Z-2.1 F1000.
N70 G19 G2 Y-39.377 Z-3.1 J-1. K0.
N75 G1 Y-39.477
N80 Y-70.513
N85 G17 G2 X55.005 Y-70.632 I-0.109 J-0.009
N90 X54.891 Y-70.523 I-0.005 J0.11
N95 G1 Y-39.487
N100 G2 X54.978 Y-39.321 I0.2 J0.
N105 G1 X56.375 Y-38.373
N110 G2 X56.688 Y-38.538 I0.112 J-0.165
N115 G1 Y-71.463
N120 G2 X56.487 Y-71.663 I-0.2 J0.
N125 G1 X53.512 Y-71.662
N130 G2 X53.313 Y-71.462 I0. J0.2
N135 G1 Y-38.537
N140 G3 X52.41 Y-37.183 I-1.467 J0.
N145 G2 X51.507 Y-35.829 I0.564 J1.354
N150 G1 Y-34.827
N155 G2 X51.827 Y-34.507 I0.319 J0.
N160 G1 X58.173
N165 G2 X58.493 Y-34.827 I0. J-0.319
N170 G1 Y-75.173
N175 G2 X58.173 Y-75.493 I-0.319 J0.
N180 G1 X51.827
N185 G2 X51.507 Y-75.173 I0. J0.319
N190 G1 Y-35.829
N195 G3 X50.605 Y-34.476 I-1.467 J0.
N200 G2 X49.702 Y-33.122 I0.564 J1.354
N205 G1 Y-33.022
N210 G2 X50.022 Y-32.702 I0.319 J0.
N215 G1 X59.978
N220 G2 X60.298 Y-33.022 I0. J-0.319
N225 G1 Y-76.978
N230 G2 X59.978 Y-77.298 I-0.319 J0.
N235 G1 X50.022
N240 G2 X49.702 Y-76.978 I0. J0.319
N245 G1 Y-33.122
N250 G3 X49.101 Y-32.068 I-1.223 J0.
N255 G2 X49.42 Y-30.897 I0.32 J0.542
N260 G1 X61.783
N265 G2 X62.103 Y-31.217 I0. J-0.319
N270 G1 Y-78.783
N275 G2 X61.783 Y-79.103 I-0.319 J0.
N280 G1 X48.217
N285 G2 X47.897 Y-78.783 I0. J0.319
N290 G1 Y-31.217
N295 G2 X48.217 Y-30.897 I0.319 J0.
N300 G1 X49.42
N305 G3 X50.778 Y-29.993 I0. J1.471
N310 G2 X52.135 Y-29.087 I1.357 J-0.566
N315 G1 X63.912
N320 Y-80.912
N325 X46.088
N330 Y-29.087
N335 X52.135
N340 G2 X52.325 Y-29.223 I0. J-0.2
N345 G1 X55.099 Y-37.401
N350 X55.107 Y-37.432
N355 X55.109 Y-37.465
N360 G19 G3 Y-38.465 Z-4.1 J0. K-1.
N365 G1 Z-5.2
N370 G2 Y-39.465 Z-6.2 J-1. K0.
N375 G1 Y-39.477
N380 Y-70.513
N385 G17 G2 X55.005 Y-70.632 I-0.109 J-0.009
N390 X54.891 Y-70.523 I-0.005 J0.11
N395 G1 Y-39.487
N400 G2 X54.978 Y-39.321 I0.2 J0.
N405 G1 X56.375 Y-38.373
N410 G2 X56.688 Y-38.538 I0.112 J-0.165
N415 G1 Y-71.463
N420 G2 X56.487 Y-71.663 I-0.2 J0.
N425 G1 X53.512 Y-71.662
N430 G2 X53.313 Y-71.462 I0. J0.2
N435 G1 Y-38.537
N440 G3 X52.41 Y-37.183 I-1.467 J0.
N445 G2 X51.507 Y-35.829 I0.564 J1.354
N450 G1 Y-34.827
N455 G2 X51.827 Y-34.507 I0.319 J0.
N460 G1 X58.173
N465 G2 X58.493 Y-34.827 I0. J-0.319
N470 G1 Y-75.173
N475 G2 X58.173 Y-75.493 I-0.319 J0.
N480 G1 X51.827
N485 G2 X51.507 Y-75.173 I0. J0.319
N490 G1 Y-35.829
N495 G3 X50.605 Y-34.476 I-1.467 J0.
N500 G2 X49.702 Y-33.122 I0.564 J1.354
N505 G1 Y-33.022
N510 G2 X50.022 Y-32.702 I0.319 J0.
N515 G1 X59.978
N520 G2 X60.298 Y-33.022 I0. J-0.319
N525 G1 Y-76.978
N530 G2 X59.978 Y-77.298 I-0.319 J0.
N535 G1 X50.022
N540 G2 X49.702 Y-76.978 I0. J0.319
N545 G1 Y-33.122
N550 G3 X49.101 Y-32.068 I-1.223 J0.
N555 G2 X49.42 Y-30.897 I0.32 J0.542
N560 G1 X61.783
N565 G2 X62.103 Y-31.217 I0. J-0.319
N570 G1 Y-78.783
N575 G2 X61.783 Y-79.103 I-0.319 J0.
N580 G1 X48.217
N585 G2 X47.897 Y-78.783 I0. J0.319
N590 G1 Y-31.217
N595 G2 X48.217 Y-30.897 I0.319 J0.
N600 G1 X49.42
N605 G3 X50.778 Y-29.993 I0. J1.471
N610 G2 X52.135 Y-29.087 I1.357 J-0.566
N615 G1 X63.912
N620 Y-80.912
N625 X46.088
N630 Y-29.087
N635 X52.135
N640 G2 X52.391 Y-29.121 Z-6.166 I0. J-1.
N645 X52.615 Y-29.21 Z-6.066 I-0.256 J-0.967
N650 X52.785 Y-29.327 Z-5.907 I-0.479 J-0.878
N655 X52.897 Y-29.44 Z-5.7 I-0.65 J-0.76
N660 G1 X52.958 Y-29.519 Z-5.459
N665 X52.977 Y-29.547 Z-5.2
N670 Z15.
N675 X145.109 Y-38.377
N680 Z5.
N685 Z4.2 F150.
N690 Z-2.1 F1000.
N695 G19 G2 Y-39.377 Z-3.1 J-1. K0.
N700 G1 Y-39.477
N705 Y-70.513
N710 G17 G2 X145.005 Y-70.632 I-0.109 J-0.009
N715 X144.891 Y-70.523 I-0.005 J0.11
N720 G1 Y-39.487
N725 G2 X144.978 Y-39.321 I0.2 J0.
N730 G1 X146.375 Y-38.373
N735 G2 X146.688 Y-38.538 I0.112 J-0.165
N740 G1 Y-71.463
N745 G2 X146.487 Y-71.663 I-0.2 J0.
N750 G1 X143.512 Y-71.662
N755 G2 X143.313 Y-71.462 I0. J0.2
N760 G1 Y-38.537
N765 G3 X142.41 Y-37.183 I-1.467 J0.
N770 G2 X141.508 Y-35.829 I0.564 J1.354
N775 G1 Y-34.827
N780 G2 X141.827 Y-34.507 I0.319 J0.
N785 G1 X148.173
N790 G2 X148.492 Y-34.827 I0. J-0.319
N795 G1 Y-75.173
N800 G2 X148.173 Y-75.493 I-0.319 J0.
N805 G1 X141.827
N810 G2 X141.508 Y-75.173 I0. J0.319
N815 G1 Y-35.829
N820 G3 X140.605 Y-34.476 I-1.467 J0.
N825 G2 X139.702 Y-33.122 I0.564 J1.354
N830 G1 Y-33.022
N835 G2 X140.022 Y-32.702 I0.319 J0.
N840 G1 X149.978
N845 G2 X150.298 Y-33.022 I0. J-0.319
N850 G1 Y-76.978
N855 G2 X149.978 Y-77.298 I-0.319 J0.
N860 G1 X140.022
N865 G2 X139.702 Y-76.978 I0. J0.319
N870 G1 Y-33.122
N875 G3 X139.101 Y-32.068 I-1.223 J0.
N880 G2 X139.42 Y-30.897 I0.32 J0.542
N885 G1 X151.783
N890 G2 X152.102 Y-31.217 I0. J-0.319
N895 G1 Y-78.783
N900 G2 X151.783 Y-79.103 I-0.319 J0.
N905 G1 X138.217
N910 G2 X137.898 Y-78.783 I0. J0.319
N915 G1 Y-31.217
N920 G2 X138.217 Y-30.897 I0.319 J0.
N925 G1 X139.42
N930 G3 X140.778 Y-29.993 I0. J1.471
N935 G2 X142.135 Y-29.087 I1.357 J-0.566
N940 G1 X153.913
N945 Y-80.912
N950 X136.087
N955 Y-29.087
N960 X142.135
N965 G2 X142.325 Y-29.223 I0. J-0.2
N970 G1 X145.099 Y-37.401
N975 X145.107 Y-37.432
N980 X145.109 Y-37.465
N985 G19 G3 Y-38.465 Z-4.1 J0. K-1.
N990 G1 Z-5.2
N995 G2 Y-39.465 Z-6.2 J-1. K0.
N1000 G1 Y-39.477
N1005 Y-70.513
N1010 G17 G2 X145.005 Y-70.632 I-0.109 J-0.009
N1015 X144.891 Y-70.523 I-0.005 J0.11
N1020 G1 Y-39.487
N1025 G2 X144.978 Y-39.321 I0.2 J0.
N1030 G1 X146.375 Y-38.373
N1035 G2 X146.688 Y-38.538 I0.112 J-0.165
N1040 G1 Y-71.463
N1045 G2 X146.487 Y-71.663 I-0.2 J0.
N1050 G1 X143.512 Y-71.662
N1055 G2 X143.313 Y-71.462 I0. J0.2
N1060 G1 Y-38.537
N1065 G3 X142.41 Y-37.183 I-1.467 J0.
N1070 G2 X141.508 Y-35.829 I0.564 J1.354
N1075 G1 Y-34.827
N1080 G2 X141.827 Y-34.507 I0.319 J0.
N1085 G1 X148.173
N1090 G2 X148.492 Y-34.827 I0. J-0.319
N1095 G1 Y-75.173
N1100 G2 X148.173 Y-75.493 I-0.319 J0.
N1105 G1 X141.827
N1110 G2 X141.508 Y-75.173 I0. J0.319
N1115 G1 Y-35.829
N1120 G3 X140.605 Y-34.476 I-1.467 J0.
N1125 G2 X139.702 Y-33.122 I0.564 J1.354
N1130 G1 Y-33.022
N1135 G2 X140.022 Y-32.702 I0.319 J0.
N1140 G1 X149.978
N1145 G2 X150.298 Y-33.022 I0. J-0.319
N1150 G1 Y-76.978
N1155 G2 X149.978 Y-77.298 I-0.319 J0.
N1160 G1 X140.022
N1165 G2 X139.702 Y-76.978 I0. J0.319
N1170 G1 Y-33.122
N1175 G3 X139.101 Y-32.068 I-1.223 J0.
N1180 G2 X139.42 Y-30.897 I0.32 J0.542
N1185 G1 X151.783
N1190 G2 X152.102 Y-31.217 I0. J-0.319
N1195 G1 Y-78.783
N1200 G2 X151.783 Y-79.103 I-0.319 J0.
N1205 G1 X138.217
N1210 G2 X137.898 Y-78.783 I0. J0.319
N1215 G1 Y-31.217
N1220 G2 X138.217 Y-30.897 I0.319 J0.
N1225 G1 X139.42
N1230 G3 X140.778 Y-29.993 I0. J1.471
N1235 G2 X142.135 Y-29.087 I1.357 J-0.566
N1240 G1 X153.913
N1245 Y-80.912
N1250 X136.087
N1255 Y-29.087
N1260 X142.135
N1265 G2 X142.391 Y-29.121 Z-6.166 I0. J-1.
N1270 X142.615 Y-29.21 Z-6.066 I-0.256 J-0.967
N1275 X142.785 Y-29.327 Z-5.907 I-0.479 J-0.878
N1280 X142.897 Y-29.44 Z-5.7 I-0.65 J-0.76
N1285 G1 X142.958 Y-29.519 Z-5.459
N1290 X142.977 Y-29.547 Z-5.2
N1295 Z15.
N1300 X144.891 Y-151.623
N1305 Z5.
N1310 Z4.2 F150.
N1315 Z-2.1 F1000.
N1320 G19 G3 Y-150.623 Z-3.1 J1. K0.
N1325 G1 Y-150.523
N1330 Y-119.487
N1335 G17 G2 X144.995 Y-119.368 I0.109 J0.009
N1340 X145.109 Y-119.477 I0.005 J-0.11
N1345 G1 Y-150.513
N1350 G2 X145.022 Y-150.679 I-0.2 J0.
N1355 G1 X143.625 Y-151.627
N1360 G2 X143.313 Y-151.462 I-0.112 J0.165
N1365 G1 Y-118.537
N1370 G2 X143.513 Y-118.337 I0.2 J0.
N1375 G1 X146.488 Y-118.338
N1380 G2 X146.688 Y-118.538 I0. J-0.2
N1385 G1 Y-151.463
N1390 G3 X147.59 Y-152.817 I1.467 J0.
N1395 G2 X148.492 Y-154.171 I-0.564 J-1.354
N1400 G1 Y-155.173
N1405 G2 X148.173 Y-155.492 I-0.319 J0.
N1410 G1 X141.827
N1415 G2 X141.508 Y-155.173 I0. J0.319
N1420 G1 Y-114.827
N1425 G2 X141.827 Y-114.507 I0.319 J0.
N1430 G1 X148.173
N1435 G2 X148.492 Y-114.827 I0. J-0.319
N1440 G1 Y-154.171
N1445 G3 X149.395 Y-155.524 I1.467 J0.
N1450 G2 X150.298 Y-156.878 I-0.564 J-1.354
N1455 G1 Y-156.978
N1460 G2 X149.978 Y-157.298 I-0.319 J0.
N1465 G1 X140.022
N1470 G2 X139.702 Y-156.978 I0. J0.319
N1475 G1 Y-113.022
N1480 G2 X140.022 Y-112.702 I0.319 J0.
N1485 G1 X149.978
N1490 G2 X150.298 Y-113.022 I0. J-0.319
N1495 G1 Y-156.878
N1500 G3 X150.899 Y-157.932 I1.223 J0.
N1505 G2 X150.58 Y-159.102 I-0.32 J-0.542
N1510 G1 X138.217
N1515 G2 X137.898 Y-158.783 I0. J0.319
N1520 G1 Y-111.217
N1525 G2 X138.217 Y-110.897 I0.319 J0.
N1530 G1 X151.783
N1535 G2 X152.102 Y-111.217 I0. J-0.319
N1540 G1 Y-158.783
N1545 G2 X151.783 Y-159.102 I-0.319 J0.
N1550 G1 X150.58
N1555 G3 X149.222 Y-160.008 I0. J-1.471
N1560 G2 X147.865 Y-160.913 I-1.357 J0.566
N1565 G1 X136.087
N1570 Y-109.088
N1575 X153.913
N1580 Y-160.913
N1585 X147.865
N1590 G2 X147.675 Y-160.777 I0. J0.2
N1595 G1 X144.901 Y-152.599
N1600 X144.893 Y-152.568
N1605 X144.891 Y-152.535
N1610 G19 G2 Y-151.535 Z-4.1 J0. K-1.
N1615 G1 Z-5.2
N1620 G3 Y-150.535 Z-6.2 J1. K0.
N1625 G1 Y-150.523
N1630 Y-119.487
N1635 G17 G2 X144.995 Y-119.368 I0.109 J0.009
N1640 X145.109 Y-119.477 I0.005 J-0.11
N1645 G1 Y-150.513
N1650 G2 X145.022 Y-150.679 I-0.2 J0.
N1655 G1 X143.625 Y-151.627
N1660 G2 X143.313 Y-151.462 I-0.112 J0.165
N1665 G1 Y-118.537
N1670 G2 X143.513 Y-118.337 I0.2 J0.
N1675 G1 X146.488 Y-118.338
N1680 G2 X146.688 Y-118.538 I0. J-0.2
N1685 G1 Y-151.463
N1690 G3 X147.59 Y-152.817 I1.467 J0.
N1695 G2 X148.492 Y-154.171 I-0.564 J-1.354
N1700 G1 Y-155.173
N1705 G2 X148.173 Y-155.492 I-0.319 J0.
N1710 G1 X141.827
N1715 G2 X141.508 Y-155.173 I0. J0.319
N1720 G1 Y-114.827
N1725 G2 X141.827 Y-114.507 I0.319 J0.
N1730 G1 X148.173
N1735 G2 X148.492 Y-114.827 I0. J-0.319
N1740 G1 Y-154.171
N1745 G3 X149.395 Y-155.524 I1.467 J0.
N1750 G2 X150.298 Y-156.878 I-0.564 J-1.354
N1755 G1 Y-156.978
N1760 G2 X149.978 Y-157.298 I-0.319 J0.
N1765 G1 X140.022
N1770 G2 X139.702 Y-156.978 I0. J0.319
N1775 G1 Y-113.022
N1780 G2 X140.022 Y-112.702 I0.319 J0.
N1785 G1 X149.978
N1790 G2 X150.298 Y-113.022 I0. J-0.319
N1795 G1 Y-156.878
N1800 G3 X150.899 Y-157.932 I1.223 J0.
N1805 G2 X150.58 Y-159.102 I-0.32 J-0.542
N1810 G1 X138.217
N1815 G2 X137.898 Y-158.783 I0. J0.319
N1820 G1 Y-111.217
N1825 G2 X138.217 Y-110.897 I0.319 J0.
N1830 G1 X151.783
N1835 G2 X152.102 Y-111.217 I0. J-0.319
N1840 G1 Y-158.783
N1845 G2 X151.783 Y-159.102 I-0.319 J0.
N1850 G1 X150.58
N1855 G3 X149.222 Y-160.008 I0. J-1.471
N1860 G2 X147.865 Y-160.913 I-1.357 J0.566
N1865 G1 X136.087
N1870 Y-109.088
N1875 X153.913
N1880 Y-160.913
N1885 X147.865
N1890 G2 X147.609 Y-160.879 Z-6.166 I0. J1.
N1895 X147.385 Y-160.79 Z-6.066 I0.256 J0.967
N1900 X147.215 Y-160.673 Z-5.907 I0.479 J0.878
N1905 X147.103 Y-160.56 Z-5.7 I0.65 J0.76
N1910 G1 X147.042 Y-160.481 Z-5.459
N1915 X147.023 Y-160.453 Z-5.2
N1920 Z15.
N1925 X144.891 Y-231.623
N1930 Z5.
N1935 Z4.2 F150.
N1940 Z-2.1 F1000.
N1945 G19 G3 Y-230.623 Z-3.1 J1. K0.
N1950 G1 Y-230.523
N1955 Y-199.487
N1960 G17 G2 X144.995 Y-199.368 I0.109 J0.009
N1965 X145.109 Y-199.477 I0.005 J-0.11
N1970 G1 Y-230.513
N1975 G2 X145.022 Y-230.679 I-0.2 J0.
N1980 G1 X143.625 Y-231.627
N1985 G2 X143.313 Y-231.462 I-0.112 J0.165
N1990 G1 Y-198.537
N1995 G2 X143.513 Y-198.337 I0.2 J0.
N2000 G1 X146.488 Y-198.338
N2005 G2 X146.688 Y-198.538 I0. J-0.2
N2010 G1 Y-231.463
N2015 G3 X147.59 Y-232.817 I1.467 J0.
N2020 G2 X148.492 Y-234.171 I-0.564 J-1.354
N2025 G1 Y-235.173
N2030 G2 X148.173 Y-235.492 I-0.319 J0.
N2035 G1 X141.827
N2040 G2 X141.508 Y-235.173 I0. J0.319
N2045 G1 Y-194.827
N2050 G2 X141.827 Y-194.508 I0.319 J0.
N2055 G1 X148.173
N2060 G2 X148.492 Y-194.827 I0. J-0.319
N2065 G1 Y-234.171
N2070 G3 X149.395 Y-235.524 I1.467 J0.
N2075 G2 X150.298 Y-236.878 I-0.564 J-1.354
N2080 G1 Y-236.978
N2085 G2 X149.978 Y-237.298 I-0.319 J0.
N2090 G1 X140.022
N2095 G2 X139.702 Y-236.978 I0. J0.319
N2100 G1 Y-193.022
N2105 G2 X140.022 Y-192.702 I0.319 J0.
N2110 G1 X149.978
N2115 G2 X150.298 Y-193.022 I0. J-0.319
N2120 G1 Y-236.878
N2125 G3 X150.899 Y-237.932 I1.223 J0.
N2130 G2 X150.58 Y-239.102 I-0.32 J-0.542
N2135 G1 X138.217
N2140 G2 X137.898 Y-238.783 I0. J0.319
N2145 G1 Y-191.217
N2150 G2 X138.217 Y-190.898 I0.319 J0.
N2155 G1 X151.783
N2160 G2 X152.102 Y-191.217 I0. J-0.319
N2165 G1 Y-238.783
N2170 G2 X151.783 Y-239.102 I-0.319 J0.
N2175 G1 X150.58
N2180 G3 X149.222 Y-240.008 I0. J-1.471
N2185 G2 X147.865 Y-240.913 I-1.357 J0.566
N2190 G1 X136.087
N2195 Y-189.087
N2200 X153.913
N2205 Y-240.913
N2210 X147.865
N2215 G2 X147.675 Y-240.777 I0. J0.2
N2220 G1 X144.901 Y-232.599
N2225 X144.893 Y-232.568
N2230 X144.891 Y-232.535
N2235 G19 G2 Y-231.535 Z-4.1 J0. K-1.
N2240 G1 Z-5.2
N2245 G3 Y-230.535 Z-6.2 J1. K0.
N2250 G1 Y-230.523
N2255 Y-199.487
N2260 G17 G2 X144.995 Y-199.368 I0.109 J0.009
N2265 X145.109 Y-199.477 I0.005 J-0.11
N2270 G1 Y-230.513
N2275 G2 X145.022 Y-230.679 I-0.2 J0.
N2280 G1 X143.625 Y-231.627
N2285 G2 X143.313 Y-231.462 I-0.112 J0.165
N2290 G1 Y-198.537
N2295 G2 X143.513 Y-198.337 I0.2 J0.
N2300 G1 X146.488 Y-198.338
N2305 G2 X146.688 Y-198.538 I0. J-0.2
N2310 G1 Y-231.463
N2315 G3 X147.59 Y-232.817 I1.467 J0.
N2320 G2 X148.492 Y-234.171 I-0.564 J-1.354
N2325 G1 Y-235.173
N2330 G2 X148.173 Y-235.492 I-0.319 J0.
N2335 G1 X141.827
N2340 G2 X141.508 Y-235.173 I0. J0.319
N2345 G1 Y-194.827
N2350 G2 X141.827 Y-194.508 I0.319 J0.
N2355 G1 X148.173
N2360 G2 X148.492 Y-194.827 I0. J-0.319
N2365 G1 Y-234.171
N2370 G3 X149.395 Y-235.524 I1.467 J0.
N2375 G2 X150.298 Y-236.878 I-0.564 J-1.354
N2380 G1 Y-236.978
N2385 G2 X149.978 Y-237.298 I-0.319 J0.
N2390 G1 X140.022
N2395 G2 X139.702 Y-236.978 I0. J0.319
N2400 G1 Y-193.022
N2405 G2 X140.022 Y-192.702 I0.319 J0.
N2410 G1 X149.978
N2415 G2 X150.298 Y-193.022 I0. J-0.319
N2420 G1 Y-236.878
N2425 G3 X150.899 Y-237.932 I1.223 J0.
N2430 G2 X150.58 Y-239.102 I-0.32 J-0.542
N2435 G1 X138.217
N2440 G2 X137.898 Y-238.783 I0. J0.319
N2445 G1 Y-191.217
N2450 G2 X138.217 Y-190.898 I0.319 J0.
N2455 G1 X151.783
N2460 G2 X152.102 Y-191.217 I0. J-0.319
N2465 G1 Y-238.783
N2470 G2 X151.783 Y-239.102 I-0.319 J0.
N2475 G1 X150.58
N2480 G3 X149.222 Y-240.008 I0. J-1.471
N2485 G2 X147.865 Y-240.913 I-1.357 J0.566
N2490 G1 X136.087
N2495 Y-189.087
N2500 X153.913
N2505 Y-240.913
N2510 X147.865
N2515 G2 X147.609 Y-240.879 Z-6.166 I0. J1.
N2520 X147.385 Y-240.79 Z-6.066 I0.256 J0.967
N2525 X147.215 Y-240.673 Z-5.907 I0.479 J0.878
N2530 X147.103 Y-240.56 Z-5.7 I0.65 J0.76
N2535 G1 X147.042 Y-240.481 Z-5.459
N2540 X147.023 Y-240.453 Z-5.2
N2545 Z15.
N2550 X54.891 Y-151.623
N2555 Z5.
N2560 Z4.2 F150.
N2565 Z-2.1 F1000.
N2570 G19 G3 Y-150.623 Z-3.1 J1. K0.
N2575 G1 Y-150.523
N2580 Y-119.487
N2585 G17 G2 X54.995 Y-119.368 I0.109 J0.009
N2590 X55.109 Y-119.477 I0.005 J-0.11
N2595 G1 Y-150.513
N2600 G2 X55.022 Y-150.679 I-0.2 J0.
N2605 G1 X53.625 Y-151.627
N2610 G2 X53.313 Y-151.462 I-0.112 J0.165
N2615 G1 Y-118.537
N2620 G2 X53.513 Y-118.337 I0.2 J0.
N2625 G1 X56.488 Y-118.338
N2630 G2 X56.688 Y-118.538 I0. J-0.2
N2635 G1 Y-151.463
N2640 G3 X57.59 Y-152.817 I1.467 J0.
N2645 G2 X58.493 Y-154.171 I-0.564 J-1.354
N2650 G1 Y-155.173
N2655 G2 X58.173 Y-155.492 I-0.319 J0.
N2660 G1 X51.827
N2665 G2 X51.507 Y-155.173 I0. J0.319
N2670 G1 Y-114.827
N2675 G2 X51.827 Y-114.507 I0.319 J0.
N2680 G1 X58.173
N2685 G2 X58.493 Y-114.827 I0. J-0.319
N2690 G1 Y-154.171
N2695 G3 X59.395 Y-155.524 I1.467 J0.
N2700 G2 X60.298 Y-156.878 I-0.564 J-1.354
N2705 G1 Y-156.978
N2710 G2 X59.978 Y-157.298 I-0.319 J0.
N2715 G1 X50.022
N2720 G2 X49.702 Y-156.978 I0. J0.319
N2725 G1 Y-113.022
N2730 G2 X50.022 Y-112.702 I0.319 J0.
N2735 G1 X59.978
N2740 G2 X60.298 Y-113.022 I0. J-0.319
N2745 G1 Y-156.878
N2750 G3 X60.899 Y-157.932 I1.223 J0.
N2755 G2 X60.58 Y-159.102 I-0.32 J-0.542
N2760 G1 X48.217
N2765 G2 X47.897 Y-158.783 I0. J0.319
N2770 G1 Y-111.217
N2775 G2 X48.217 Y-110.897 I0.319 J0.
N2780 G1 X61.783
N2785 G2 X62.103 Y-111.217 I0. J-0.319
N2790 G1 Y-158.783
N2795 G2 X61.783 Y-159.102 I-0.319 J0.
N2800 G1 X60.58
N2805 G3 X59.222 Y-160.008 I0. J-1.471
N2810 G2 X57.865 Y-160.913 I-1.357 J0.566
N2815 G1 X46.088
N2820 Y-109.088
N2825 X63.912
N2830 Y-160.913
N2835 X57.865
N2840 G2 X57.675 Y-160.777 I0. J0.2
N2845 G1 X54.901 Y-152.599
N2850 X54.893 Y-152.568
N2855 X54.891 Y-152.535
N2860 G19 G2 Y-151.535 Z-4.1 J0. K-1.
N2865 G1 Z-5.2
N2870 G3 Y-150.535 Z-6.2 J1. K0.
N2875 G1 Y-150.523
N2880 Y-119.487
N2885 G17 G2 X54.995 Y-119.368 I0.109 J0.009
N2890 X55.109 Y-119.477 I0.005 J-0.11
N2895 G1 Y-150.513
N2900 G2 X55.022 Y-150.679 I-0.2 J0.
N2905 G1 X53.625 Y-151.627
N2910 G2 X53.313 Y-151.462 I-0.112 J0.165
N2915 G1 Y-118.537
N2920 G2 X53.513 Y-118.337 I0.2 J0.
N2925 G1 X56.488 Y-118.338
N2930 G2 X56.688 Y-118.538 I0. J-0.2
N2935 G1 Y-151.463
N2940 G3 X57.59 Y-152.817 I1.467 J0.
N2945 G2 X58.493 Y-154.171 I-0.564 J-1.354
N2950 G1 Y-155.173
N2955 G2 X58.173 Y-155.492 I-0.319 J0.
N2960 G1 X51.827
N2965 G2 X51.507 Y-155.173 I0. J0.319
N2970 G1 Y-114.827
N2975 G2 X51.827 Y-114.507 I0.319 J0.
N2980 G1 X58.173
N2985 G2 X58.493 Y-114.827 I0. J-0.319
N2990 G1 Y-154.171
N2995 G3 X59.395 Y-155.524 I1.467 J0.
N3000 G2 X60.298 Y-156.878 I-0.564 J-1.354
N3005 G1 Y-156.978
N3010 G2 X59.978 Y-157.298 I-0.319 J0.
N3015 G1 X50.022
N3020 G2 X49.702 Y-156.978 I0. J0.319
N3025 G1 Y-113.022
N3030 G2 X50.022 Y-112.702 I0.319 J0.
N3035 G1 X59.978
N3040 G2 X60.298 Y-113.022 I0. J-0.319
N3045 G1 Y-156.878
N3050 G3 X60.899 Y-157.932 I1.223 J0.
N3055 G2 X60.58 Y-159.102 I-0.32 J-0.542
N3060 G1 X48.217
N3065 G2 X47.897 Y-158.783 I0. J0.319
N3070 G1 Y-111.217
N3075 G2 X48.217 Y-110.897 I0.319 J0.
N3080 G1 X61.783
N3085 G2 X62.103 Y-111.217 I0. J-0.319
N3090 G1 Y-158.783
N3095 G2 X61.783 Y-159.102 I-0.319 J0.
N3100 G1 X60.58
N3105 G3 X59.222 Y-160.008 I0. J-1.471
N3110 G2 X57.865 Y-160.913 I-1.357 J0.566
N3115 G1 X46.088
N3120 Y-109.088
N3125 X63.912
N3130 Y-160.913
N3135 X57.865
N3140 G2 X57.609 Y-160.879 Z-6.166 I0. J1.
N3145 X57.385 Y-160.79 Z-6.066 I0.256 J0.967
N3150 X57.215 Y-160.673 Z-5.907 I0.479 J0.878
N3155 X57.103 Y-160.56 Z-5.7 I0.65 J0.76
N3160 G1 X57.042 Y-160.481 Z-5.459
N3165 X57.023 Y-160.453 Z-5.2
N3170 Z15.
N3175 X54.891 Y-231.623
N3180 Z5.
N3185 Z4.2 F150.
N3190 Z-2.1 F1000.
N3195 G19 G3 Y-230.623 Z-3.1 J1. K0.
N3200 G1 Y-230.523
N3205 Y-199.487
N3210 G17 G2 X54.995 Y-199.368 I0.109 J0.009
N3215 X55.109 Y-199.477 I0.005 J-0.11
N3220 G1 Y-230.513
N3225 G2 X55.022 Y-230.679 I-0.2 J0.
N3230 G1 X53.625 Y-231.627
N3235 G2 X53.313 Y-231.462 I-0.112 J0.165
N3240 G1 Y-198.537
N3245 G2 X53.513 Y-198.337 I0.2 J0.
N3250 G1 X56.488 Y-198.338
N3255 G2 X56.688 Y-198.538 I0. J-0.2
N3260 G1 Y-231.463
N3265 G3 X57.59 Y-232.817 I1.467 J0.
N3270 G2 X58.493 Y-234.171 I-0.564 J-1.354
N3275 G1 Y-235.173
N3280 G2 X58.173 Y-235.492 I-0.319 J0.
N3285 G1 X51.827
N3290 G2 X51.507 Y-235.173 I0. J0.319
N3295 G1 Y-194.827
N3300 G2 X51.827 Y-194.508 I0.319 J0.
N3305 G1 X58.173
N3310 G2 X58.493 Y-194.827 I0. J-0.319
N3315 G1 Y-234.171
N3320 G3 X59.395 Y-235.524 I1.467 J0.
N3325 G2 X60.298 Y-236.878 I-0.564 J-1.354
N3330 G1 Y-236.978
N3335 G2 X59.978 Y-237.298 I-0.319 J0.
N3340 G1 X50.022
N3345 G2 X49.702 Y-236.978 I0. J0.319
N3350 G1 Y-193.022
N3355 G2 X50.022 Y-192.702 I0.319 J0.
N3360 G1 X59.978
N3365 G2 X60.298 Y-193.022 I0. J-0.319
N3370 G1 Y-236.878
N3375 G3 X60.899 Y-237.932 I1.223 J0.
N3380 G2 X60.58 Y-239.102 I-0.32 J-0.542
N3385 G1 X48.217
N3390 G2 X47.897 Y-238.783 I0. J0.319
N3395 G1 Y-191.217
N3400 G2 X48.217 Y-190.898 I0.319 J0.
N3405 G1 X61.783
N3410 G2 X62.103 Y-191.217 I0. J-0.319
N3415 G1 Y-238.783
N3420 G2 X61.783 Y-239.102 I-0.319 J0.
N3425 G1 X60.58
N3430 G3 X59.222 Y-240.008 I0. J-1.471
N3435 G2 X57.865 Y-240.913 I-1.357 J0.566
N3440 G1 X46.088
N3445 Y-189.087
N3450 X63.912
N3455 Y-240.913
N3460 X57.865
N3465 G2 X57.675 Y-240.777 I0. J0.2
N3470 G1 X54.901 Y-232.599
N3475 X54.893 Y-232.568
N3480 X54.891 Y-232.535
N3485 G19 G2 Y-231.535 Z-4.1 J0. K-1.
N3490 G1 Z-5.2
N3495 G3 Y-230.535 Z-6.2 J1. K0.
N3500 G1 Y-230.523
N3505 Y-199.487
N3510 G17 G2 X54.995 Y-199.368 I0.109 J0.009
N3515 X55.109 Y-199.477 I0.005 J-0.11
N3520 G1 Y-230.513
N3525 G2 X55.022 Y-230.679 I-0.2 J0.
N3530 G1 X53.625 Y-231.627
N3535 G2 X53.313 Y-231.462 I-0.112 J0.165
N3540 G1 Y-198.537
N3545 G2 X53.513 Y-198.337 I0.2 J0.
N3550 G1 X56.488 Y-198.338
N3555 G2 X56.688 Y-198.538 I0. J-0.2
N3560 G1 Y-231.463
N3565 G3 X57.59 Y-232.817 I1.467 J0.
N3570 G2 X58.493 Y-234.171 I-0.564 J-1.354
N3575 G1 Y-235.173
N3580 G2 X58.173 Y-235.492 I-0.319 J0.
N3585 G1 X51.827
N3590 G2 X51.507 Y-235.173 I0. J0.319
N3595 G1 Y-194.827
N3600 G2 X51.827 Y-194.508 I0.319 J0.
N3605 G1 X58.173
N3610 G2 X58.493 Y-194.827 I0. J-0.319
N3615 G1 Y-234.171
N3620 G3 X59.395 Y-235.524 I1.467 J0.
N3625 G2 X60.298 Y-236.878 I-0.564 J-1.354
N3630 G1 Y-236.978
N3635 G2 X59.978 Y-237.298 I-0.319 J0.
N3640 G1 X50.022
N3645 G2 X49.702 Y-236.978 I0. J0.319
N3650 G1 Y-193.022
N3655 G2 X50.022 Y-192.702 I0.319 J0.
N3660 G1 X59.978
N3665 G2 X60.298 Y-193.022 I0. J-0.319
N3670 G1 Y-236.878
N3675 G3 X60.899 Y-237.932 I1.223 J0.
N3680 G2 X60.58 Y-239.102 I-0.32 J-0.542
N3685 G1 X48.217
N3690 G2 X47.897 Y-238.783 I0. J0.319
N3695 G1 Y-191.217
N3700 G2 X48.217 Y-190.898 I0.319 J0.
N3705 G1 X61.783
N3710 G2 X62.103 Y-191.217 I0. J-0.319
N3715 G1 Y-238.783
N3720 G2 X61.783 Y-239.102 I-0.319 J0.
N3725 G1 X60.58
N3730 G3 X59.222 Y-240.008 I0. J-1.471
N3735 G2 X57.865 Y-240.913 I-1.357 J0.566
N3740 G1 X46.088
N3745 Y-189.087
N3750 X63.912
N3755 Y-240.913
N3760 X57.865
N3765 G2 X57.609 Y-240.879 Z-6.166 I0. J1.
N3770 X57.385 Y-240.79 Z-6.066 I0.256 J0.967
N3775 X57.215 Y-240.673 Z-5.907 I0.479 J0.878
N3780 X57.103 Y-240.56 Z-5.7 I0.65 J0.76
N3785 G1 X57.042 Y-240.481 Z-5.459
N3790 X57.023 Y-240.453 Z-5.2
N3795 Z15.
N3800 X55.109 Y-278.377
N3805 Z5.
N3810 Z4.2 F150.
N3815 Z-2.1 F1000.
N3820 G19 G2 Y-279.377 Z-3.1 J-1. K0.
N3825 G1 Y-279.477
N3830 Y-310.513
N3835 G17 G2 X55.005 Y-310.632 I-0.109 J-0.009
N3840 X54.891 Y-310.523 I-0.005 J0.11
N3845 G1 Y-279.487
N3850 G2 X54.978 Y-279.321 I0.2 J0.
N3855 G1 X56.375 Y-278.373
N3860 G2 X56.688 Y-278.538 I0.112 J-0.165
N3865 G1 Y-311.463
N3870 G2 X56.487 Y-311.663 I-0.2 J0.
N3875 G1 X53.512 Y-311.662
N3880 G2 X53.313 Y-311.462 I0. J0.2
N3885 G1 Y-278.537
N3890 G3 X52.41 Y-277.183 I-1.467 J0.
N3895 G2 X51.507 Y-275.829 I0.564 J1.354
N3900 G1 Y-274.827
N3905 G2 X51.827 Y-274.508 I0.319 J0.
N3910 G1 X58.173
N3915 G2 X58.493 Y-274.827 I0. J-0.319
N3920 G1 Y-315.173
N3925 G2 X58.173 Y-315.492 I-0.319 J0.
N3930 G1 X51.827
N3935 G2 X51.507 Y-315.173 I0. J0.319
N3940 G1 Y-275.829
N3945 G3 X50.605 Y-274.476 I-1.467 J0.
N3950 G2 X49.702 Y-273.122 I0.564 J1.354
N3955 G1 Y-273.022
N3960 G2 X50.022 Y-272.703 I0.319 J0.
N3965 G1 X59.978
N3970 G2 X60.298 Y-273.022 I0. J-0.319
N3975 G1 Y-316.978
N3980 G2 X59.978 Y-317.297 I-0.319 J0.
N3985 G1 X50.022
N3990 G2 X49.702 Y-316.978 I0. J0.319
N3995 G1 Y-273.122
N4000 G3 X49.101 Y-272.068 I-1.223 J0.
N4005 G2 X49.42 Y-270.897 I0.32 J0.542
N4010 G1 X61.783
N4015 G2 X62.103 Y-271.217 I0. J-0.319
N4020 G1 Y-318.783
N4025 G2 X61.783 Y-319.103 I-0.319 J0.
N4030 G1 X48.217
N4035 G2 X47.897 Y-318.783 I0. J0.319
N4040 G1 Y-271.217
N4045 G2 X48.217 Y-270.897 I0.319 J0.
N4050 G1 X49.42
N4055 G3 X50.778 Y-269.992 I0. J1.471
N4060 G2 X52.135 Y-269.087 I1.357 J-0.566
N4065 G1 X63.912
N4070 Y-320.913
N4075 X46.088
N4080 Y-269.087
N4085 X52.135
N4090 G2 X52.325 Y-269.223 I0. J-0.2
N4095 G1 X55.099 Y-277.401
N4100 X55.107 Y-277.432
N4105 X55.109 Y-277.465
N4110 G19 G3 Y-278.465 Z-4.1 J0. K-1.
N4115 G1 Z-5.2
N4120 G2 Y-279.465 Z-6.2 J-1. K0.
N4125 G1 Y-279.477
N4130 Y-310.513
N4135 G17 G2 X55.005 Y-310.632 I-0.109 J-0.009
N4140 X54.891 Y-310.523 I-0.005 J0.11
N4145 G1 Y-279.487
N4150 G2 X54.978 Y-279.321 I0.2 J0.
N4155 G1 X56.375 Y-278.373
N4160 G2 X56.688 Y-278.538 I0.112 J-0.165
N4165 G1 Y-311.463
N4170 G2 X56.487 Y-311.663 I-0.2 J0.
N4175 G1 X53.512 Y-311.662
N4180 G2 X53.313 Y-311.462 I0. J0.2
N4185 G1 Y-278.537
N4190 G3 X52.41 Y-277.183 I-1.467 J0.
N4195 G2 X51.507 Y-275.829 I0.564 J1.354
N4200 G1 Y-274.827
N4205 G2 X51.827 Y-274.508 I0.319 J0.
N4210 G1 X58.173
N4215 G2 X58.493 Y-274.827 I0. J-0.319
N4220 G1 Y-315.173
N4225 G2 X58.173 Y-315.492 I-0.319 J0.
N4230 G1 X51.827
N4235 G2 X51.507 Y-315.173 I0. J0.319
N4240 G1 Y-275.829
N4245 G3 X50.605 Y-274.476 I-1.467 J0.
N4250 G2 X49.702 Y-273.122 I0.564 J1.354
N4255 G1 Y-273.022
N4260 G2 X50.022 Y-272.703 I0.319 J0.
N4265 G1 X59.978
N4270 G2 X60.298 Y-273.022 I0. J-0.319
N4275 G1 Y-316.978
N4280 G2 X59.978 Y-317.297 I-0.319 J0.
N4285 G1 X50.022
N4290 G2 X49.702 Y-316.978 I0. J0.319
N4295 G1 Y-273.122
N4300 G3 X49.101 Y-272.068 I-1.223 J0.
N4305 G2 X49.42 Y-270.897 I0.32 J0.542
N4310 G1 X61.783
N4315 G2 X62.103 Y-271.217 I0. J-0.319
N4320 G1 Y-318.783
N4325 G2 X61.783 Y-319.103 I-0.319 J0.
N4330 G1 X48.217
N4335 G2 X47.897 Y-318.783 I0. J0.319
N4340 G1 Y-271.217
N4345 G2 X48.217 Y-270.897 I0.319 J0.
N4350 G1 X49.42
N4355 G3 X50.778 Y-269.992 I0. J1.471
N4360 G2 X52.135 Y-269.087 I1.357 J-0.566
N4365 G1 X63.912
N4370 Y-320.913
N4375 X46.088
N4380 Y-269.087
N4385 X52.135
N4390 G2 X52.391 Y-269.121 Z-6.166 I0. J-1.
N4395 X52.615 Y-269.21 Z-6.066 I-0.256 J-0.967
N4400 X52.785 Y-269.327 Z-5.907 I-0.479 J-0.878
N4405 X52.897 Y-269.44 Z-5.7 I-0.65 J-0.76
N4410 G1 X52.958 Y-269.519 Z-5.459
N4415 X52.977 Y-269.547 Z-5.2
N4420 Z15.
N4425 X144.891 Y-311.623
N4430 Z5.
N4435 Z4.2 F150.
N4440 Z-2.1 F1000.
N4445 G19 G3 Y-310.623 Z-3.1 J1. K0.
N4450 G1 Y-310.523
N4455 Y-279.487
N4460 G17 G2 X144.995 Y-279.368 I0.109 J0.009
N4465 X145.109 Y-279.477 I0.005 J-0.11
N4470 G1 Y-310.513
N4475 G2 X145.022 Y-310.679 I-0.2 J0.
N4480 G1 X143.625 Y-311.627
N4485 G2 X143.313 Y-311.462 I-0.112 J0.165
N4490 G1 Y-278.537
N4495 G2 X143.513 Y-278.337 I0.2 J0.
N4500 G1 X146.488 Y-278.338
N4505 G2 X146.688 Y-278.538 I0. J-0.2
N4510 G1 Y-311.463
N4515 G3 X147.59 Y-312.817 I1.467 J0.
N4520 G2 X148.492 Y-314.171 I-0.564 J-1.354
N4525 G1 Y-315.173
N4530 G2 X148.173 Y-315.492 I-0.319 J0.
N4535 G1 X141.827
N4540 G2 X141.508 Y-315.173 I0. J0.319
N4545 G1 Y-274.827
N4550 G2 X141.827 Y-274.508 I0.319 J0.
N4555 G1 X148.173
N4560 G2 X148.492 Y-274.827 I0. J-0.319
N4565 G1 Y-314.171
N4570 G3 X149.395 Y-315.524 I1.467 J0.
N4575 G2 X150.298 Y-316.878 I-0.564 J-1.354
N4580 G1 Y-316.978
N4585 G2 X149.978 Y-317.297 I-0.319 J0.
N4590 G1 X140.022
N4595 G2 X139.702 Y-316.978 I0. J0.319
N4600 G1 Y-273.022
N4605 G2 X140.022 Y-272.703 I0.319 J0.
N4610 G1 X149.978
N4615 G2 X150.298 Y-273.022 I0. J-0.319
N4620 G1 Y-316.878
N4625 G3 X150.899 Y-317.932 I1.223 J0.
N4630 G2 X150.58 Y-319.103 I-0.32 J-0.542
N4635 G1 X138.217
N4640 G2 X137.898 Y-318.783 I0. J0.319
N4645 G1 Y-271.217
N4650 G2 X138.217 Y-270.897 I0.319 J0.
N4655 G1 X151.783
N4660 G2 X152.102 Y-271.217 I0. J-0.319
N4665 G1 Y-318.783
N4670 G2 X151.783 Y-319.103 I-0.319 J0.
N4675 G1 X150.58
N4680 G3 X149.222 Y-320.008 I0. J-1.471
N4685 G2 X147.865 Y-320.913 I-1.357 J0.566
N4690 G1 X136.087
N4695 Y-269.087
N4700 X153.913
N4705 Y-320.913
N4710 X147.865
N4715 G2 X147.675 Y-320.777 I0. J0.2
N4720 G1 X144.901 Y-312.599
N4725 X144.893 Y-312.568
N4730 X144.891 Y-312.535
N4735 G19 G2 Y-311.535 Z-4.1 J0. K-1.
N4740 G1 Z-5.2
N4745 G3 Y-310.535 Z-6.2 J1. K0.
N4750 G1 Y-310.523
N4755 Y-279.487
N4760 G17 G2 X144.995 Y-279.368 I0.109 J0.009
N4765 X145.109 Y-279.477 I0.005 J-0.11
N4770 G1 Y-310.513
N4775 G2 X145.022 Y-310.679 I-0.2 J0.
N4780 G1 X143.625 Y-311.627
N4785 G2 X143.313 Y-311.462 I-0.112 J0.165
N4790 G1 Y-278.537
N4795 G2 X143.513 Y-278.337 I0.2 J0.
N4800 G1 X146.488 Y-278.338
N4805 G2 X146.688 Y-278.538 I0. J-0.2
N4810 G1 Y-311.463
N4815 G3 X147.59 Y-312.817 I1.467 J0.
N4820 G2 X148.492 Y-314.171 I-0.564 J-1.354
N4825 G1 Y-315.173
N4830 G2 X148.173 Y-315.492 I-0.319 J0.
N4835 G1 X141.827
N4840 G2 X141.508 Y-315.173 I0. J0.319
N4845 G1 Y-274.827
N4850 G2 X141.827 Y-274.508 I0.319 J0.
N4855 G1 X148.173
N4860 G2 X148.492 Y-274.827 I0. J-0.319
N4865 G1 Y-314.171
N4870 G3 X149.395 Y-315.524 I1.467 J0.
N4875 G2 X150.298 Y-316.878 I-0.564 J-1.354
N4880 G1 Y-316.978
N4885 G2 X149.978 Y-317.297 I-0.319 J0.
N4890 G1 X140.022
N4895 G2 X139.702 Y-316.978 I0. J0.319
N4900 G1 Y-273.022
N4905 G2 X140.022 Y-272.703 I0.319 J0.
N4910 G1 X149.978
N4915 G2 X150.298 Y-273.022 I0. J-0.319
N4920 G1 Y-316.878
N4925 G3 X150.899 Y-317.932 I1.223 J0.
N4930 G2 X150.58 Y-319.103 I-0.32 J-0.542
N4935 G1 X138.217
N4940 G2 X137.898 Y-318.783 I0. J0.319
N4945 G1 Y-271.217
N4950 G2 X138.217 Y-270.897 I0.319 J0.
N4955 G1 X151.783
N4960 G2 X152.102 Y-271.217 I0. J-0.319
N4965 G1 Y-318.783
N4970 G2 X151.783 Y-319.103 I-0.319 J0.
N4975 G1 X150.58
N4980 G3 X149.222 Y-320.008 I0. J-1.471
N4985 G2 X147.865 Y-320.913 I-1.357 J0.566
N4990 G1 X136.087
N4995 Y-269.087
N5000 X153.913
N5005 Y-320.913
N5010 X147.865
N5015 G2 X147.609 Y-320.879 Z-6.166 I0. J1.
N5020 X147.385 Y-320.79 Z-6.066 I0.256 J0.967
N5025 X147.215 Y-320.673 Z-5.907 I0.479 J0.878
N5030 X147.103 Y-320.56 Z-5.7 I0.65 J0.76
N5035 G1 X147.042 Y-320.481 Z-5.459
N5040 X147.023 Y-320.453 Z-5.2
N5045 Z15.
N5050 M9
(WHEN USING FUSION 360 FOR PERSONAL USE, THE FEEDRATE OF)
(RAPID MOVES IS REDUCED TO MATCH THE FEEDRATE OF CUTTING)
(MOVES, WHICH CAN INCREASE MACHINING TIME. UNRESTRICTED RAPID)
(MOVES ARE AVAILABLE WITH A FUSION 360 SUBSCRIPTION.)
(2D CONTOUR1)
N5055 G0 X104.281 Y-177.867
N5060 G1 Z15. F1000.
N5065 Z5.
N5070 Z4.5 F150.
N5075 Z-2.
N5080 X104.286 Y-177.872 Z-2.121 F1000.
N5085 X104.302 Y-177.888 Z-2.239
N5090 X104.327 Y-177.913 Z-2.355
N5095 X104.362 Y-177.948 Z-2.465
N5100 X104.406 Y-177.992 Z-2.568
N5105 X104.459 Y-178.045 Z-2.663
N5110 X104.519 Y-178.105 Z-2.749
N5115 X104.587 Y-178.172 Z-2.823
N5120 X104.66 Y-178.246 Z-2.885
N5125 X104.738 Y-178.323 Z-2.935
N5130 X104.819 Y-178.405 Z-2.971
N5135 X104.903 Y-178.489 Z-2.993
N5140 X104.988 Y-178.574 Z-3.
N5145 X105.342 Y-178.928
N5150 G2 Y-180.342 I-0.707 J-0.707
N5155 G3 X103.412 Y-185. I4.658 J-4.658
N5160 G1 Y-245.
N5165 G3 X110. Y-251.587 I6.588 J0.
N5170 G1 X180.
N5175 G3 X186.587 Y-245. I0. J6.587
N5180 G1 Y-185.
N5185 G3 X180. Y-178.413 I-6.587 J0.
N5190 G1 X110.
N5195 G3 X105.342 Y-180.342 I0. J-6.587
N5200 G2 X103.928 I-0.707 J0.707
N5205 G1 X103.574 Y-179.988
N5210 X103.489 Y-179.903 Z-2.993
N5215 X103.405 Y-179.819 Z-2.971
N5220 X103.323 Y-179.738 Z-2.935
N5225 X103.246 Y-179.66 Z-2.885
N5230 X103.172 Y-179.587 Z-2.823
N5235 X103.105 Y-179.519 Z-2.749
N5240 X103.045 Y-179.459 Z-2.663
N5245 X102.992 Y-179.406 Z-2.568
N5250 X102.948 Y-179.362 Z-2.465
N5255 X102.913 Y-179.327 Z-2.355
N5260 X102.888 Y-179.302 Z-2.239
N5265 X102.872 Y-179.286 Z-2.121
N5270 X102.867 Y-179.281 Z-2.
N5275 Z5.
N5280 X104.281 Y-177.867
N5285 Z1.5 F150.
N5290 Z-5.
N5295 X104.286 Y-177.872 Z-5.121 F1000.
N5300 X104.302 Y-177.888 Z-5.239
N5305 X104.327 Y-177.913 Z-5.355
N5310 X104.362 Y-177.948 Z-5.465
N5315 X104.406 Y-177.992 Z-5.568
N5320 X104.459 Y-178.045 Z-5.663
N5325 X104.519 Y-178.105 Z-5.749
N5330 X104.587 Y-178.172 Z-5.823
N5335 X104.66 Y-178.246 Z-5.885
N5340 X104.738 Y-178.323 Z-5.935
N5345 X104.819 Y-178.405 Z-5.971
N5350 X104.903 Y-178.489 Z-5.993
N5355 X104.988 Y-178.574 Z-6.
N5360 X105.342 Y-178.928
N5365 G2 Y-180.342 I-0.707 J-0.707
N5370 G3 X103.412 Y-185. I4.658 J-4.658
N5375 G1 Y-245.
N5380 G3 X110. Y-251.587 I6.588 J0.
N5385 G1 X180.
N5390 G3 X186.587 Y-245. I0. J6.587
N5395 G1 Y-185.
N5400 G3 X180. Y-178.413 I-6.587 J0.
N5405 G1 X110.
N5410 G3 X105.342 Y-180.342 I0. J-6.587
N5415 G2 X103.928 I-0.707 J0.707
N5420 G1 X103.574 Y-179.988
N5425 X103.489 Y-179.903 Z-5.993
N5430 X103.405 Y-179.819 Z-5.971
N5435 X103.323 Y-179.738 Z-5.935
N5440 X103.246 Y-179.66 Z-5.885
N5445 X103.172 Y-179.587 Z-5.823
N5450 X103.105 Y-179.519 Z-5.749
N5455 X103.045 Y-179.459 Z-5.663
N5460 X102.992 Y-179.406 Z-5.568
N5465 X102.948 Y-179.362 Z-5.465
N5470 X102.913 Y-179.327 Z-5.355
N5475 X102.888 Y-179.302 Z-5.239
N5480 X102.872 Y-179.286 Z-5.121
N5485 X102.867 Y-179.281 Z-5.
N5490 Z5.
N5495 X104.281 Y-177.867
N5500 Z-1.5 F150.
N5505 Z-8.
N5510 X104.286 Y-177.872 Z-8.121 F1000.
N5515 X104.302 Y-177.888 Z-8.239
N5520 X104.327 Y-177.913 Z-8.355
N5525 X104.362 Y-177.948 Z-8.465
N5530 X104.406 Y-177.992 Z-8.568
N5535 X104.459 Y-178.045 Z-8.663
N5540 X104.519 Y-178.105 Z-8.749
N5545 X104.587 Y-178.172 Z-8.823
N5550 X104.66 Y-178.246 Z-8.885
N5555 X104.738 Y-178.323 Z-8.935
N5560 X104.819 Y-178.405 Z-8.971
N5565 X104.903 Y-178.489 Z-8.993
N5570 X104.988 Y-178.574 Z-9.
N5575 X105.342 Y-178.928
N5580 G2 Y-180.342 I-0.707 J-0.707
N5585 G3 X103.412 Y-185. I4.658 J-4.658
N5590 G1 Y-245.
N5595 G3 X110. Y-251.587 I6.588 J0.
N5600 G1 X180.
N5605 G3 X186.587 Y-245. I0. J6.587
N5610 G1 Y-185.
N5615 G3 X180. Y-178.413 I-6.587 J0.
N5620 G1 X110.
N5625 G3 X105.342 Y-180.342 I0. J-6.587
N5630 G2 X103.928 I-0.707 J0.707
N5635 G1 X103.574 Y-179.988
N5640 X103.489 Y-179.903 Z-8.993
N5645 X103.405 Y-179.819 Z-8.971
N5650 X103.323 Y-179.738 Z-8.935
N5655 X103.246 Y-179.66 Z-8.885
N5660 X103.172 Y-179.587 Z-8.823
N5665 X103.105 Y-179.519 Z-8.749
N5670 X103.045 Y-179.459 Z-8.663
N5675 X102.992 Y-179.406 Z-8.568
N5680 X102.948 Y-179.362 Z-8.465
N5685 X102.913 Y-179.327 Z-8.355
N5690 X102.888 Y-179.302 Z-8.239
N5695 X102.872 Y-179.286 Z-8.121
N5700 X102.867 Y-179.281 Z-8.
N5705 Z5.
N5710 X104.281 Y-177.867
N5715 Z-4.5 F150.
N5720 Z-11.
N5725 X104.286 Y-177.872 Z-11.121 F1000.
N5730 X104.302 Y-177.888 Z-11.239
N5735 X104.327 Y-177.913 Z-11.355
N5740 X104.362 Y-177.948 Z-11.465
N5745 X104.406 Y-177.992 Z-11.568
N5750 X104.459 Y-178.045 Z-11.663
N5755 X104.519 Y-178.105 Z-11.749
N5760 X104.587 Y-178.172 Z-11.823
N5765 X104.66 Y-178.246 Z-11.885
N5770 X104.738 Y-178.323 Z-11.935
N5775 X104.819 Y-178.405 Z-11.971
N5780 X104.903 Y-178.489 Z-11.993
N5785 X104.988 Y-178.574 Z-12.
N5790 X105.342 Y-178.928
N5795 G2 Y-180.342 I-0.707 J-0.707
N5800 G3 X103.412 Y-185. I4.658 J-4.658
N5805 G1 Y-245.
N5810 G3 X110. Y-251.587 I6.588 J0.
N5815 G1 X180.
N5820 G3 X186.587 Y-245. I0. J6.587
N5825 G1 Y-185.
N5830 G3 X180. Y-178.413 I-6.587 J0.
N5835 G1 X110.
N5840 G3 X105.342 Y-180.342 I0. J-6.587
N5845 G2 X103.928 I-0.707 J0.707
N5850 G1 X103.574 Y-179.988
N5855 X103.489 Y-179.903 Z-11.993
N5860 X103.405 Y-179.819 Z-11.971
N5865 X103.323 Y-179.738 Z-11.935
N5870 X103.246 Y-179.66 Z-11.885
N5875 X103.172 Y-179.587 Z-11.823
N5880 X103.105 Y-179.519 Z-11.749
N5885 X103.045 Y-179.459 Z-11.663
N5890 X102.992 Y-179.406 Z-11.568
N5895 X102.948 Y-179.362 Z-11.465
N5900 X102.913 Y-179.327 Z-11.355
N5905 X102.888 Y-179.302 Z-11.239
N5910 X102.872 Y-179.286 Z-11.121
N5915 X102.867 Y-179.281 Z-11.
N5920 Z5.
N5925 X104.281 Y-177.867
N5930 Z-7.5 F150.
N5935 Z-14.
N5940 X104.286 Y-177.872 Z-14.121 F1000.
N5945 X104.302 Y-177.888 Z-14.239
N5950 X104.327 Y-177.913 Z-14.355
N5955 X104.362 Y-177.948 Z-14.465
N5960 X104.406 Y-177.992 Z-14.568
N5965 X104.459 Y-178.045 Z-14.663
N5970 X104.519 Y-178.105 Z-14.749
N5975 X104.587 Y-178.172 Z-14.823
N5980 X104.66 Y-178.246 Z-14.885
N5985 X104.738 Y-178.323 Z-14.935
N5990 X104.819 Y-178.405 Z-14.971
N5995 X104.903 Y-178.489 Z-14.993
N6000 X104.988 Y-178.574 Z-15.
N6005 X105.342 Y-178.928
N6010 G2 Y-180.342 I-0.707 J-0.707
N6015 G3 X103.412 Y-185. I4.658 J-4.658
N6020 G1 Y-245.
N6025 G3 X110. Y-251.587 I6.588 J0.
N6030 G1 X180.
N6035 G3 X186.587 Y-245. I0. J6.587
N6040 G1 Y-185.
N6045 G3 X180. Y-178.413 I-6.587 J0.
N6050 G1 X110.
N6055 G3 X105.342 Y-180.342 I0. J-6.587
N6060 G2 X103.928 I-0.707 J0.707
N6065 G1 X103.574 Y-179.988
N6070 X103.489 Y-179.903 Z-14.993
N6075 X103.405 Y-179.819 Z-14.971
N6080 X103.323 Y-179.738 Z-14.935
N6085 X103.246 Y-179.66 Z-14.885
N6090 X103.172 Y-179.587 Z-14.823
N6095 X103.105 Y-179.519 Z-14.749
N6100 X103.045 Y-179.459 Z-14.663
N6105 X102.992 Y-179.406 Z-14.568
N6110 X102.948 Y-179.362 Z-14.465
N6115 X102.913 Y-179.327 Z-14.355
N6120 X102.888 Y-179.302 Z-14.239
N6125 X102.872 Y-179.286 Z-14.121
N6130 X102.867 Y-179.281 Z-14.
N6135 Z5.
N6140 X104.281 Y-177.867
N6145 Z-10.5 F150.
N6150 Z-17.
N6155 X104.286 Y-177.872 Z-17.121 F1000.
N6160 X104.302 Y-177.888 Z-17.239
N6165 X104.327 Y-177.913 Z-17.355
N6170 X104.362 Y-177.948 Z-17.465
N6175 X104.406 Y-177.992 Z-17.568
N6180 X104.459 Y-178.045 Z-17.663
N6185 X104.519 Y-178.105 Z-17.749
N6190 X104.587 Y-178.172 Z-17.823
N6195 X104.66 Y-178.246 Z-17.885
N6200 X104.738 Y-178.323 Z-17.935
N6205 X104.819 Y-178.405 Z-17.971
N6210 X104.903 Y-178.489 Z-17.993
N6215 X104.988 Y-178.574 Z-18.
N6220 X105.342 Y-178.928
N6225 G2 Y-180.342 I-0.707 J-0.707
N6230 G3 X103.412 Y-185. I4.658 J-4.658
N6235 G1 Y-245.
N6240 G3 X110. Y-251.587 I6.588 J0.
N6245 G1 X180.
N6250 G3 X186.587 Y-245. I0. J6.587
N6255 G1 Y-185.
N6260 G3 X180. Y-178.413 I-6.587 J0.
N6265 G1 X110.
N6270 G3 X105.342 Y-180.342 I0. J-6.587
N6275 G2 X103.928 I-0.707 J0.707
N6280 G1 X103.574 Y-179.988
N6285 X103.489 Y-179.903 Z-17.993
N6290 X103.405 Y-179.819 Z-17.971
N6295 X103.323 Y-179.738 Z-17.935
N6300 X103.246 Y-179.66 Z-17.885
N6305 X103.172 Y-179.587 Z-17.823
N6310 X103.105 Y-179.519 Z-17.749
N6315 X103.045 Y-179.459 Z-17.663
N6320 X102.992 Y-179.406 Z-17.568
N6325 X102.948 Y-179.362 Z-17.465
N6330 X102.913 Y-179.327 Z-17.355
N6335 X102.888 Y-179.302 Z-17.239
N6340 X102.872 Y-179.286 Z-17.121
N6345 X102.867 Y-179.281 Z-17.
N6350 Z5.
N6355 X97.133
N6360 Z4.5 F150.
N6365 Z-2.
N6370 X97.128 Y-179.286 Z-2.121 F1000.
N6375 X97.112 Y-179.302 Z-2.239
N6380 X97.087 Y-179.327 Z-2.355
N6385 X97.052 Y-179.362 Z-2.465
N6390 X97.008 Y-179.406 Z-2.568
N6395 X96.955 Y-179.459 Z-2.663
N6400 X96.895 Y-179.519 Z-2.749
N6405 X96.828 Y-179.587 Z-2.823
N6410 X96.754 Y-179.66 Z-2.885
N6415 X96.677 Y-179.738 Z-2.935
N6420 X96.595 Y-179.819 Z-2.971
N6425 X96.511 Y-179.903 Z-2.993
N6430 X96.426 Y-179.988 Z-3.
N6435 X96.072 Y-180.342
N6440 G2 X94.658 I-0.707 J0.707
N6445 G3 X90. Y-178.413 I-4.658 J-4.658
N6450 G1 X20.
N6455 G3 X13.413 Y-185. I0. J-6.587
N6460 G1 Y-245.
N6465 G3 X20. Y-251.587 I6.587 J0.
N6470 G1 X90.
N6475 G3 X96.588 Y-245. I0. J6.587
N6480 G1 Y-185.
N6485 G3 X94.658 Y-180.342 I-6.588 J0.
N6490 G2 Y-178.928 I0.707 J0.707
N6495 G1 X95.012 Y-178.574
N6500 X95.097 Y-178.489 Z-2.993
N6505 X95.181 Y-178.405 Z-2.971
N6510 X95.262 Y-178.323 Z-2.935
N6515 X95.34 Y-178.246 Z-2.885
N6520 X95.413 Y-178.172 Z-2.823
N6525 X95.481 Y-178.105 Z-2.749
N6530 X95.541 Y-178.045 Z-2.663
N6535 X95.594 Y-177.992 Z-2.568
N6540 X95.638 Y-177.948 Z-2.465
N6545 X95.673 Y-177.913 Z-2.355
N6550 X95.698 Y-177.888 Z-2.239
N6555 X95.714 Y-177.872 Z-2.121
N6560 X95.719 Y-177.867 Z-2.
N6565 Z5.
N6570 X97.133 Y-179.281
N6575 Z1.5 F150.
N6580 Z-5.
N6585 X97.128 Y-179.286 Z-5.121 F1000.
N6590 X97.112 Y-179.302 Z-5.239
N6595 X97.087 Y-179.327 Z-5.355
N6600 X97.052 Y-179.362 Z-5.465
N6605 X97.008 Y-179.406 Z-5.568
N6610 X96.955 Y-179.459 Z-5.663
N6615 X96.895 Y-179.519 Z-5.749
N6620 X96.828 Y-179.587 Z-5.823
N6625 X96.754 Y-179.66 Z-5.885
N6630 X96.677 Y-179.738 Z-5.935
N6635 X96.595 Y-179.819 Z-5.971
N6640 X96.511 Y-179.903 Z-5.993
N6645 X96.426 Y-179.988 Z-6.
N6650 X96.072 Y-180.342
N6655 G2 X94.658 I-0.707 J0.707
N6660 G3 X90. Y-178.413 I-4.658 J-4.658
N6665 G1 X20.
N6670 G3 X13.413 Y-185. I0. J-6.587
N6675 G1 Y-245.
N6680 G3 X20. Y-251.587 I6.587 J0.
N6685 G1 X90.
N6690 G3 X96.588 Y-245. I0. J6.587
N6695 G1 Y-185.
N6700 G3 X94.658 Y-180.342 I-6.588 J0.
N6705 G2 Y-178.928 I0.707 J0.707
N6710 G1 X95.012 Y-178.574
N6715 X95.097 Y-178.489 Z-5.993
N6720 X95.181 Y-178.405 Z-5.971
N6725 X95.262 Y-178.323 Z-5.935
N6730 X95.34 Y-178.246 Z-5.885
N6735 X95.413 Y-178.172 Z-5.823
N6740 X95.481 Y-178.105 Z-5.749
N6745 X95.541 Y-178.045 Z-5.663
N6750 X95.594 Y-177.992 Z-5.568
N6755 X95.638 Y-177.948 Z-5.465
N6760 X95.673 Y-177.913 Z-5.355
N6765 X95.698 Y-177.888 Z-5.239
N6770 X95.714 Y-177.872 Z-5.121
N6775 X95.719 Y-177.867 Z-5.
N6780 Z5.
N6785 X97.133 Y-179.281
N6790 Z-1.5 F150.
N6795 Z-8.
N6800 X97.128 Y-179.286 Z-8.121 F1000.
N6805 X97.112 Y-179.302 Z-8.239
N6810 X97.087 Y-179.327 Z-8.355
N6815 X97.052 Y-179.362 Z-8.465
N6820 X97.008 Y-179.406 Z-8.568
N6825 X96.955 Y-179.459 Z-8.663
N6830 X96.895 Y-179.519 Z-8.749
N6835 X96.828 Y-179.587 Z-8.823
N6840 X96.754 Y-179.66 Z-8.885
N6845 X96.677 Y-179.738 Z-8.935
N6850 X96.595 Y-179.819 Z-8.971
N6855 X96.511 Y-179.903 Z-8.993
N6860 X96.426 Y-179.988 Z-9.
N6865 X96.072 Y-180.342
N6870 G2 X94.658 I-0.707 J0.707
N6875 G3 X90. Y-178.413 I-4.658 J-4.658
N6880 G1 X20.
N6885 G3 X13.413 Y-185. I0. J-6.587
N6890 G1 Y-245.
N6895 G3 X20. Y-251.587 I6.587 J0.
N6900 G1 X90.
N6905 G3 X96.588 Y-245. I0. J6.587
N6910 G1 Y-185.
N6915 G3 X94.658 Y-180.342 I-6.588 J0.
N6920 G2 Y-178.928 I0.707 J0.707
N6925 G1 X95.012 Y-178.574
N6930 X95.097 Y-178.489 Z-8.993
N6935 X95.181 Y-178.405 Z-8.971
N6940 X95.262 Y-178.323 Z-8.935
N6945 X95.34 Y-178.246 Z-8.885
N6950 X95.413 Y-178.172 Z-8.823
N6955 X95.481 Y-178.105 Z-8.749
N6960 X95.541 Y-178.045 Z-8.663
N6965 X95.594 Y-177.992 Z-8.568
N6970 X95.638 Y-177.948 Z-8.465
N6975 X95.673 Y-177.913 Z-8.355
N6980 X95.698 Y-177.888 Z-8.239
N6985 X95.714 Y-177.872 Z-8.121
N6990 X95.719 Y-177.867 Z-8.
N6995 Z5.
N7000 X97.133 Y-179.281
N7005 Z-4.5 F150.
N7010 Z-11.
N7015 X97.128 Y-179.286 Z-11.121 F1000.
N7020 X97.112 Y-179.302 Z-11.239
N7025 X97.087 Y-179.327 Z-11.355
N7030 X97.052 Y-179.362 Z-11.465
N7035 X97.008 Y-179.406 Z-11.568
N7040 X96.955 Y-179.459 Z-11.663
N7045 X96.895 Y-179.519 Z-11.749
N7050 X96.828 Y-179.587 Z-11.823
N7055 X96.754 Y-179.66 Z-11.885
N7060 X96.677 Y-179.738 Z-11.935
N7065 X96.595 Y-179.819 Z-11.971
N7070 X96.511 Y-179.903 Z-11.993
N7075 X96.426 Y-179.988 Z-12.
N7080 X96.072 Y-180.342
N7085 G2 X94.658 I-0.707 J0.707
N7090 G3 X90. Y-178.413 I-4.658 J-4.658
N7095 G1 X20.
N7100 G3 X13.413 Y-185. I0. J-6.587
N7105 G1 Y-245.
N7110 G3 X20. Y-251.587 I6.587 J0.
N7115 G1 X90.
N7120 G3 X96.588 Y-245. I0. J6.587
N7125 G1 Y-185.
N7130 G3 X94.658 Y-180.342 I-6.588 J0.
N7135 G2 Y-178.928 I0.707 J0.707
N7140 G1 X95.012 Y-178.574
N7145 X95.097 Y-178.489 Z-11.993
N7150 X95.181 Y-178.405 Z-11.971
N7155 X95.262 Y-178.323 Z-11.935
N7160 X95.34 Y-178.246 Z-11.885
N7165 X95.413 Y-178.172 Z-11.823
N7170 X95.481 Y-178.105 Z-11.749
N7175 X95.541 Y-178.045 Z-11.663
N7180 X95.594 Y-177.992 Z-11.568
N7185 X95.638 Y-177.948 Z-11.465
N7190 X95.673 Y-177.913 Z-11.355
N7195 X95.698 Y-177.888 Z-11.239
N7200 X95.714 Y-177.872 Z-11.121
N7205 X95.719 Y-177.867 Z-11.
N7210 Z5.
N7215 X97.133 Y-179.281
N7220 Z-7.5 F150.
N7225 Z-14.
N7230 X97.128 Y-179.286 Z-14.121 F1000.
N7235 X97.112 Y-179.302 Z-14.239
N7240 X97.087 Y-179.327 Z-14.355
N7245 X97.052 Y-179.362 Z-14.465
N7250 X97.008 Y-179.406 Z-14.568
N7255 X96.955 Y-179.459 Z-14.663
N7260 X96.895 Y-179.519 Z-14.749
N7265 X96.828 Y-179.587 Z-14.823
N7270 X96.754 Y-179.66 Z-14.885
N7275 X96.677 Y-179.738 Z-14.935
N7280 X96.595 Y-179.819 Z-14.971
N7285 X96.511 Y-179.903 Z-14.993
N7290 X96.426 Y-179.988 Z-15.
N7295 X96.072 Y-180.342
N7300 G2 X94.658 I-0.707 J0.707
N7305 G3 X90. Y-178.413 I-4.658 J-4.658
N7310 G1 X20.
N7315 G3 X13.413 Y-185. I0. J-6.587
N7320 G1 Y-245.
N7325 G3 X20. Y-251.587 I6.587 J0.
N7330 G1 X90.
N7335 G3 X96.588 Y-245. I0. J6.587
N7340 G1 Y-185.
N7345 G3 X94.658 Y-180.342 I-6.588 J0.
N7350 G2 Y-178.928 I0.707 J0.707
N7355 G1 X95.012 Y-178.574
N7360 X95.097 Y-178.489 Z-14.993
N7365 X95.181 Y-178.405 Z-14.971
N7370 X95.262 Y-178.323 Z-14.935
N7375 X95.34 Y-178.246 Z-14.885
N7380 X95.413 Y-178.172 Z-14.823
N7385 X95.481 Y-178.105 Z-14.749
N7390 X95.541 Y-178.045 Z-14.663
N7395 X95.594 Y-177.992 Z-14.568
N7400 X95.638 Y-177.948 Z-14.465
N7405 X95.673 Y-177.913 Z-14.355
N7410 X95.698 Y-177.888 Z-14.239
N7415 X95.714 Y-177.872 Z-14.121
N7420 X95.719 Y-177.867 Z-14.
N7425 Z5.
N7430 X97.133 Y-179.281
N7435 Z-10.5 F150.
N7440 Z-17.
N7445 X97.128 Y-179.286 Z-17.121 F1000.
N7450 X97.112 Y-179.302 Z-17.239
N7455 X97.087 Y-179.327 Z-17.355
N7460 X97.052 Y-179.362 Z-17.465
N7465 X97.008 Y-179.406 Z-17.568
N7470 X96.955 Y-179.459 Z-17.663
N7475 X96.895 Y-179.519 Z-17.749
N7480 X96.828 Y-179.587 Z-17.823
N7485 X96.754 Y-179.66 Z-17.885
N7490 X96.677 Y-179.738 Z-17.935
N7495 X96.595 Y-179.819 Z-17.971
N7500 X96.511 Y-179.903 Z-17.993
N7505 X96.426 Y-179.988 Z-18.
N7510 X96.072 Y-180.342
N7515 G2 X94.658 I-0.707 J0.707
N7520 G3 X90. Y-178.413 I-4.658 J-4.658
N7525 G1 X20.
N7530 G3 X13.413 Y-185. I0. J-6.587
N7535 G1 Y-245.
N7540 G3 X20. Y-251.587 I6.587 J0.
N7545 G1 X90.
N7550 G3 X96.588 Y-245. I0. J6.587
N7555 G1 Y-185.
N7560 G3 X94.658 Y-180.342 I-6.588 J0.
N7565 G2 Y-178.928 I0.707 J0.707
N7570 G1 X95.012 Y-178.574
N7575 X95.097 Y-178.489 Z-17.993
N7580 X95.181 Y-178.405 Z-17.971
N7585 X95.262 Y-178.323 Z-17.935
N7590 X95.34 Y-178.246 Z-17.885
N7595 X95.413 Y-178.172 Z-17.823
N7600 X95.481 Y-178.105 Z-17.749
N7605 X95.541 Y-178.045 Z-17.663
N7610 X95.594 Y-177.992 Z-17.568
N7615 X95.638 Y-177.948 Z-17.465
N7620 X95.673 Y-177.913 Z-17.355
N7625 X95.698 Y-177.888 Z-17.239
N7630 X95.714 Y-177.872 Z-17.121
N7635 X95.719 Y-177.867 Z-17.
N7640 Z5.
N7645 Y-172.133
N7650 Z4.5 F150.
N7655 Z-2.
N7660 X95.714 Y-172.128 Z-2.121 F1000.
N7665 X95.698 Y-172.112 Z-2.239
N7670 X95.673 Y-172.087 Z-2.355
N7675 X95.638 Y-172.052 Z-2.465
N7680 X95.594 Y-172.008 Z-2.568
N7685 X95.541 Y-171.955 Z-2.663
N7690 X95.481 Y-171.895 Z-2.749
N7695 X95.413 Y-171.828 Z-2.823
N7700 X95.34 Y-171.754 Z-2.885
N7705 X95.262 Y-171.677 Z-2.935
N7710 X95.181 Y-171.595 Z-2.971
N7715 X95.097 Y-171.511 Z-2.993
N7720 X95.012 Y-171.426 Z-3.
N7725 X94.658 Y-171.072
N7730 G2 Y-169.658 I0.707 J0.707
N7735 G3 X96.588 Y-165. I-4.658 J4.658
N7740 G1 Y-105.
N7745 G3 X90. Y-98.412 I-6.588 J0.
N7750 G1 X20.
N7755 G3 X13.413 Y-105. I0. J-6.588
N7760 G1 Y-165.
N7765 G3 X20. Y-171.587 I6.587 J0.
N7770 G1 X90.
N7775 G3 X94.658 Y-169.658 I0. J6.587
N7780 G2 X96.072 I0.707 J-0.707
N7785 G1 X96.426 Y-170.012
N7790 X96.511 Y-170.097 Z-2.993
N7795 X96.595 Y-170.181 Z-2.971
N7800 X96.677 Y-170.262 Z-2.935
N7805 X96.754 Y-170.34 Z-2.885
N7810 X96.828 Y-170.413 Z-2.823
N7815 X96.895 Y-170.481 Z-2.749
N7820 X96.955 Y-170.541 Z-2.663
N7825 X97.008 Y-170.594 Z-2.568
N7830 X97.052 Y-170.638 Z-2.465
N7835 X97.087 Y-170.673 Z-2.355
N7840 X97.112 Y-170.698 Z-2.239
N7845 X97.128 Y-170.714 Z-2.121
N7850 X97.133 Y-170.719 Z-2.
N7855 Z5.
N7860 X95.719 Y-172.133
N7865 Z1.5 F150.
N7870 Z-5.
N7875 X95.714 Y-172.128 Z-5.121 F1000.
N7880 X95.698 Y-172.112 Z-5.239
N7885 X95.673 Y-172.087 Z-5.355
N7890 X95.638 Y-172.052 Z-5.465
N7895 X95.594 Y-172.008 Z-5.568
N7900 X95.541 Y-171.955 Z-5.663
N7905 X95.481 Y-171.895 Z-5.749
N7910 X95.413 Y-171.828 Z-5.823
N7915 X95.34 Y-171.754 Z-5.885
N7920 X95.262 Y-171.677 Z-5.935
N7925 X95.181 Y-171.595 Z-5.971
N7930 X95.097 Y-171.511 Z-5.993
N7935 X95.012 Y-171.426 Z-6.
N7940 X94.658 Y-171.072
N7945 G2 Y-169.658 I0.707 J0.707
N7950 G3 X96.588 Y-165. I-4.658 J4.658
N7955 G1 Y-105.
N7960 G3 X90. Y-98.412 I-6.588 J0.
N7965 G1 X20.
N7970 G3 X13.413 Y-105. I0. J-6.588
N7975 G1 Y-165.
N7980 G3 X20. Y-171.587 I6.587 J0.
N7985 G1 X90.
N7990 G3 X94.658 Y-169.658 I0. J6.587
N7995 G2 X96.072 I0.707 J-0.707
N8000 G1 X96.426 Y-170.012
N8005 X96.511 Y-170.097 Z-5.993
N8010 X96.595 Y-170.181 Z-5.971
N8015 X96.677 Y-170.262 Z-5.935
N8020 X96.754 Y-170.34 Z-5.885
N8025 X96.828 Y-170.413 Z-5.823
N8030 X96.895 Y-170.481 Z-5.749
N8035 X96.955 Y-170.541 Z-5.663
N8040 X97.008 Y-170.594 Z-5.568
N8045 X97.052 Y-170.638 Z-5.465
N8050 X97.087 Y-170.673 Z-5.355
N8055 X97.112 Y-170.698 Z-5.239
N8060 X97.128 Y-170.714 Z-5.121
N8065 X97.133 Y-170.719 Z-5.
N8070 Z5.
N8075 X95.719 Y-172.133
N8080 Z-1.5 F150.
N8085 Z-8.
N8090 X95.714 Y-172.128 Z-8.121 F1000.
N8095 X95.698 Y-172.112 Z-8.239
N8100 X95.673 Y-172.087 Z-8.355
N8105 X95.638 Y-172.052 Z-8.465
N8110 X95.594 Y-172.008 Z-8.568
N8115 X95.541 Y-171.955 Z-8.663
N8120 X95.481 Y-171.895 Z-8.749
N8125 X95.413 Y-171.828 Z-8.823
N8130 X95.34 Y-171.754 Z-8.885
N8135 X95.262 Y-171.677 Z-8.935
N8140 X95.181 Y-171.595 Z-8.971
N8145 X95.097 Y-171.511 Z-8.993
N8150 X95.012 Y-171.426 Z-9.
N8155 X94.658 Y-171.072
N8160 G2 Y-169.658 I0.707 J0.707
N8165 G3 X96.588 Y-165. I-4.658 J4.658
N8170 G1 Y-105.
N8175 G3 X90. Y-98.412 I-6.588 J0.
N8180 G1 X20.
N8185 G3 X13.413 Y-105. I0. J-6.588
N8190 G1 Y-165.
N8195 G3 X20. Y-171.587 I6.587 J0.
N8200 G1 X90.
N8205 G3 X94.658 Y-169.658 I0. J6.587
N8210 G2 X96.072 I0.707 J-0.707
N8215 G1 X96.426 Y-170.012
N8220 X96.511 Y-170.097 Z-8.993
N8225 X96.595 Y-170.181 Z-8.971
N8230 X96.677 Y-170.262 Z-8.935
N8235 X96.754 Y-170.34 Z-8.885
N8240 X96.828 Y-170.413 Z-8.823
N8245 X96.895 Y-170.481 Z-8.749
N8250 X96.955 Y-170.541 Z-8.663
N8255 X97.008 Y-170.594 Z-8.568
N8260 X97.052 Y-170.638 Z-8.465
N8265 X97.087 Y-170.673 Z-8.355
N8270 X97.112 Y-170.698 Z-8.239
N8275 X97.128 Y-170.714 Z-8.121
N8280 X97.133 Y-170.719 Z-8.
N8285 Z5.
N8290 X95.719 Y-172.133
N8295 Z-4.5 F150.
N8300 Z-11.
N8305 X95.714 Y-172.128 Z-11.121 F1000.
N8310 X95.698 Y-172.112 Z-11.239
N8315 X95.673 Y-172.087 Z-11.355
N8320 X95.638 Y-172.052 Z-11.465
N8325 X95.594 Y-172.008 Z-11.568
N8330 X95.541 Y-171.955 Z-11.663
N8335 X95.481 Y-171.895 Z-11.749
N8340 X95.413 Y-171.828 Z-11.823
N8345 X95.34 Y-171.754 Z-11.885
N8350 X95.262 Y-171.677 Z-11.935
N8355 X95.181 Y-171.595 Z-11.971
N8360 X95.097 Y-171.511 Z-11.993
N8365 X95.012 Y-171.426 Z-12.
N8370 X94.658 Y-171.072
N8375 G2 Y-169.658 I0.707 J0.707
N8380 G3 X96.588 Y-165. I-4.658 J4.658
N8385 G1 Y-105.
N8390 G3 X90. Y-98.412 I-6.588 J0.
N8395 G1 X20.
N8400 G3 X13.413 Y-105. I0. J-6.588
N8405 G1 Y-165.
N8410 G3 X20. Y-171.587 I6.587 J0.
N8415 G1 X90.
N8420 G3 X94.658 Y-169.658 I0. J6.587
N8425 G2 X96.072 I0.707 J-0.707
N8430 G1 X96.426 Y-170.012
N8435 X96.511 Y-170.097 Z-11.993
N8440 X96.595 Y-170.181 Z-11.971
N8445 X96.677 Y-170.262 Z-11.935
N8450 X96.754 Y-170.34 Z-11.885
N8455 X96.828 Y-170.413 Z-11.823
N8460 X96.895 Y-170.481 Z-11.749
N8465 X96.955 Y-170.541 Z-11.663
N8470 X97.008 Y-170.594 Z-11.568
N8475 X97.052 Y-170.638 Z-11.465
N8480 X97.087 Y-170.673 Z-11.355
N8485 X97.112 Y-170.698 Z-11.239
N8490 X97.128 Y-170.714 Z-11.121
N8495 X97.133 Y-170.719 Z-11.
N8500 Z5.
N8505 X95.719 Y-172.133
N8510 Z-7.5 F150.
N8515 Z-14.
N8520 X95.714 Y-172.128 Z-14.121 F1000.
N8525 X95.698 Y-172.112 Z-14.239
N8530 X95.673 Y-172.087 Z-14.355
N8535 X95.638 Y-172.052 Z-14.465
N8540 X95.594 Y-172.008 Z-14.568
N8545 X95.541 Y-171.955 Z-14.663
N8550 X95.481 Y-171.895 Z-14.749
N8555 X95.413 Y-171.828 Z-14.823
N8560 X95.34 Y-171.754 Z-14.885
N8565 X95.262 Y-171.677 Z-14.935
N8570 X95.181 Y-171.595 Z-14.971
N8575 X95.097 Y-171.511 Z-14.993
N8580 X95.012 Y-171.426 Z-15.
N8585 X94.658 Y-171.072
N8590 G2 Y-169.658 I0.707 J0.707
N8595 G3 X96.588 Y-165. I-4.658 J4.658
N8600 G1 Y-105.
N8605 G3 X90. Y-98.412 I-6.588 J0.
N8610 G1 X20.
N8615 G3 X13.413 Y-105. I0. J-6.588
N8620 G1 Y-165.
N8625 G3 X20. Y-171.587 I6.587 J0.
N8630 G1 X90.
N8635 G3 X94.658 Y-169.658 I0. J6.587
N8640 G2 X96.072 I0.707 J-0.707
N8645 G1 X96.426 Y-170.012
N8650 X96.511 Y-170.097 Z-14.993
N8655 X96.595 Y-170.181 Z-14.971
N8660 X96.677 Y-170.262 Z-14.935
N8665 X96.754 Y-170.34 Z-14.885
N8670 X96.828 Y-170.413 Z-14.823
N8675 X96.895 Y-170.481 Z-14.749
N8680 X96.955 Y-170.541 Z-14.663
N8685 X97.008 Y-170.594 Z-14.568
N8690 X97.052 Y-170.638 Z-14.465
N8695 X97.087 Y-170.673 Z-14.355
N8700 X97.112 Y-170.698 Z-14.239
N8705 X97.128 Y-170.714 Z-14.121
N8710 X97.133 Y-170.719 Z-14.
N8715 Z5.
N8720 X95.719 Y-172.133
N8725 Z-10.5 F150.
N8730 Z-17.
N8735 X95.714 Y-172.128 Z-17.121 F1000.
N8740 X95.698 Y-172.112 Z-17.239
N8745 X95.673 Y-172.087 Z-17.355
N8750 X95.638 Y-172.052 Z-17.465
N8755 X95.594 Y-172.008 Z-17.568
N8760 X95.541 Y-171.955 Z-17.663
N8765 X95.481 Y-171.895 Z-17.749
N8770 X95.413 Y-171.828 Z-17.823
N8775 X95.34 Y-171.754 Z-17.885
N8780 X95.262 Y-171.677 Z-17.935
N8785 X95.181 Y-171.595 Z-17.971
N8790 X95.097 Y-171.511 Z-17.993
N8795 X95.012 Y-171.426 Z-18.
N8800 X94.658 Y-171.072
N8805 G2 Y-169.658 I0.707 J0.707
N8810 G3 X96.588 Y-165. I-4.658 J4.658
N8815 G1 Y-105.
N8820 G3 X90. Y-98.412 I-6.588 J0.
N8825 G1 X20.
N8830 G3 X13.413 Y-105. I0. J-6.588
N8835 G1 Y-165.
N8840 G3 X20. Y-171.587 I6.587 J0.
N8845 G1 X90.
N8850 G3 X94.658 Y-169.658 I0. J6.587
N8855 G2 X96.072 I0.707 J-0.707
N8860 G1 X96.426 Y-170.012
N8865 X96.511 Y-170.097 Z-17.993
N8870 X96.595 Y-170.181 Z-17.971
N8875 X96.677 Y-170.262 Z-17.935
N8880 X96.754 Y-170.34 Z-17.885
N8885 X96.828 Y-170.413 Z-17.823
N8890 X96.895 Y-170.481 Z-17.749
N8895 X96.955 Y-170.541 Z-17.663
N8900 X97.008 Y-170.594 Z-17.568
N8905 X97.052 Y-170.638 Z-17.465
N8910 X97.087 Y-170.673 Z-17.355
N8915 X97.112 Y-170.698 Z-17.239
N8920 X97.128 Y-170.714 Z-17.121
N8925 X97.133 Y-170.719 Z-17.
N8930 Z5.
N8935 X102.867
N8940 Z4.5 F150.
N8945 Z-2.
N8950 X102.872 Y-170.714 Z-2.121 F1000.
N8955 X102.888 Y-170.698 Z-2.239
N8960 X102.913 Y-170.673 Z-2.355
N8965 X102.948 Y-170.638 Z-2.465
N8970 X102.992 Y-170.594 Z-2.568
N8975 X103.045 Y-170.541 Z-2.663
N8980 X103.105 Y-170.481 Z-2.749
N8985 X103.172 Y-170.413 Z-2.823
N8990 X103.246 Y-170.34 Z-2.885
N8995 X103.323 Y-170.262 Z-2.935
N9000 X103.405 Y-170.181 Z-2.971
N9005 X103.489 Y-170.097 Z-2.993
N9010 X103.574 Y-170.012 Z-3.
N9015 X103.928 Y-169.658
N9020 G2 X105.342 I0.707 J-0.707
N9025 G3 X110. Y-171.587 I4.658 J4.658
N9030 G1 X180.
N9035 G3 X186.587 Y-165. I0. J6.587
N9040 G1 Y-105.
N9045 G3 X180. Y-98.412 I-6.587 J0.
N9050 G1 X110.
N9055 G3 X103.412 Y-105. I0. J-6.588
N9060 G1 Y-165.
N9065 G3 X105.342 Y-169.658 I6.588 J0.
N9070 G2 Y-171.072 I-0.707 J-0.707
N9075 G1 X104.988 Y-171.426
N9080 X104.903 Y-171.511 Z-2.993
N9085 X104.819 Y-171.595 Z-2.971
N9090 X104.738 Y-171.677 Z-2.935
N9095 X104.66 Y-171.754 Z-2.885
N9100 X104.587 Y-171.828 Z-2.823
N9105 X104.519 Y-171.895 Z-2.749
N9110 X104.459 Y-171.955 Z-2.663
N9115 X104.406 Y-172.008 Z-2.568
N9120 X104.362 Y-172.052 Z-2.465
N9125 X104.327 Y-172.087 Z-2.355
N9130 X104.302 Y-172.112 Z-2.239
N9135 X104.286 Y-172.128 Z-2.121
N9140 X104.281 Y-172.133 Z-2.
N9145 Z5.
N9150 X102.867 Y-170.719
N9155 Z1.5 F150.
N9160 Z-5.
N9165 X102.872 Y-170.714 Z-5.121 F1000.
N9170 X102.888 Y-170.698 Z-5.239
N9175 X102.913 Y-170.673 Z-5.355
N9180 X102.948 Y-170.638 Z-5.465
N9185 X102.992 Y-170.594 Z-5.568
N9190 X103.045 Y-170.541 Z-5.663
N9195 X103.105 Y-170.481 Z-5.749
N9200 X103.172 Y-170.413 Z-5.823
N9205 X103.246 Y-170.34 Z-5.885
N9210 X103.323 Y-170.262 Z-5.935
N9215 X103.405 Y-170.181 Z-5.971
N9220 X103.489 Y-170.097 Z-5.993
N9225 X103.574 Y-170.012 Z-6.
N9230 X103.928 Y-169.658
N9235 G2 X105.342 I0.707 J-0.707
N9240 G3 X110. Y-171.587 I4.658 J4.658
N9245 G1 X180.
N9250 G3 X186.587 Y-165. I0. J6.587
N9255 G1 Y-105.
N9260 G3 X180. Y-98.412 I-6.587 J0.
N9265 G1 X110.
N9270 G3 X103.412 Y-105. I0. J-6.588
N9275 G1 Y-165.
N9280 G3 X105.342 Y-169.658 I6.588 J0.
N9285 G2 Y-171.072 I-0.707 J-0.707
N9290 G1 X104.988 Y-171.426
N9295 X104.903 Y-171.511 Z-5.993
N9300 X104.819 Y-171.595 Z-5.971
N9305 X104.738 Y-171.677 Z-5.935
N9310 X104.66 Y-171.754 Z-5.885
N9315 X104.587 Y-171.828 Z-5.823
N9320 X104.519 Y-171.895 Z-5.749
N9325 X104.459 Y-171.955 Z-5.663
N9330 X104.406 Y-172.008 Z-5.568
N9335 X104.362 Y-172.052 Z-5.465
N9340 X104.327 Y-172.087 Z-5.355
N9345 X104.302 Y-172.112 Z-5.239
N9350 X104.286 Y-172.128 Z-5.121
N9355 X104.281 Y-172.133 Z-5.
N9360 Z5.
N9365 X102.867 Y-170.719
N9370 Z-1.5 F150.
N9375 Z-8.
N9380 X102.872 Y-170.714 Z-8.121 F1000.
N9385 X102.888 Y-170.698 Z-8.239
N9390 X102.913 Y-170.673 Z-8.355
N9395 X102.948 Y-170.638 Z-8.465
N9400 X102.992 Y-170.594 Z-8.568
N9405 X103.045 Y-170.541 Z-8.663
N9410 X103.105 Y-170.481 Z-8.749
N9415 X103.172 Y-170.413 Z-8.823
N9420 X103.246 Y-170.34 Z-8.885
N9425 X103.323 Y-170.262 Z-8.935
N9430 X103.405 Y-170.181 Z-8.971
N9435 X103.489 Y-170.097 Z-8.993
N9440 X103.574 Y-170.012 Z-9.
N9445 X103.928 Y-169.658
N9450 G2 X105.342 I0.707 J-0.707
N9455 G3 X110. Y-171.587 I4.658 J4.658
N9460 G1 X180.
N9465 G3 X186.587 Y-165. I0. J6.587
N9470 G1 Y-105.
N9475 G3 X180. Y-98.412 I-6.587 J0.
N9480 G1 X110.
N9485 G3 X103.412 Y-105. I0. J-6.588
N9490 G1 Y-165.
N9495 G3 X105.342 Y-169.658 I6.588 J0.
N9500 G2 Y-171.072 I-0.707 J-0.707
N9505 G1 X104.988 Y-171.426
N9510 X104.903 Y-171.511 Z-8.993
N9515 X104.819 Y-171.595 Z-8.971
N9520 X104.738 Y-171.677 Z-8.935
N9525 X104.66 Y-171.754 Z-8.885
N9530 X104.587 Y-171.828 Z-8.823
N9535 X104.519 Y-171.895 Z-8.749
N9540 X104.459 Y-171.955 Z-8.663
N9545 X104.406 Y-172.008 Z-8.568
N9550 X104.362 Y-172.052 Z-8.465
N9555 X104.327 Y-172.087 Z-8.355
N9560 X104.302 Y-172.112 Z-8.239
N9565 X104.286 Y-172.128 Z-8.121
N9570 X104.281 Y-172.133 Z-8.
N9575 Z5.
N9580 X102.867 Y-170.719
N9585 Z-4.5 F150.
N9590 Z-11.
N9595 X102.872 Y-170.714 Z-11.121 F1000.
N9600 X102.888 Y-170.698 Z-11.239
N9605 X102.913 Y-170.673 Z-11.355
N9610 X102.948 Y-170.638 Z-11.465
N9615 X102.992 Y-170.594 Z-11.568
N9620 X103.045 Y-170.541 Z-11.663
N9625 X103.105 Y-170.481 Z-11.749
N9630 X103.172 Y-170.413 Z-11.823
N9635 X103.246 Y-170.34 Z-11.885
N9640 X103.323 Y-170.262 Z-11.935
N9645 X103.405 Y-170.181 Z-11.971
N9650 X103.489 Y-170.097 Z-11.993
N9655 X103.574 Y-170.012 Z-12.
N9660 X103.928 Y-169.658
N9665 G2 X105.342 I0.707 J-0.707
N9670 G3 X110. Y-171.587 I4.658 J4.658
N9675 G1 X180.
N9680 G3 X186.587 Y-165. I0. J6.587
N9685 G1 Y-105.
N9690 G3 X180. Y-98.412 I-6.587 J0.
N9695 G1 X110.
N9700 G3 X103.412 Y-105. I0. J-6.588
N9705 G1 Y-165.
N9710 G3 X105.342 Y-169.658 I6.588 J0.
N9715 G2 Y-171.072 I-0.707 J-0.707
N9720 G1 X104.988 Y-171.426
N9725 X104.903 Y-171.511 Z-11.993
N9730 X104.819 Y-171.595 Z-11.971
N9735 X104.738 Y-171.677 Z-11.935
N9740 X104.66 Y-171.754 Z-11.885
N9745 X104.587 Y-171.828 Z-11.823
N9750 X104.519 Y-171.895 Z-11.749
N9755 X104.459 Y-171.955 Z-11.663
N9760 X104.406 Y-172.008 Z-11.568
N9765 X104.362 Y-172.052 Z-11.465
N9770 X104.327 Y-172.087 Z-11.355
N9775 X104.302 Y-172.112 Z-11.239
N9780 X104.286 Y-172.128 Z-11.121
N9785 X104.281 Y-172.133 Z-11.
N9790 Z5.
N9795 X102.867 Y-170.719
N9800 Z-7.5 F150.
N9805 Z-14.
N9810 X102.872 Y-170.714 Z-14.121 F1000.
N9815 X102.888 Y-170.698 Z-14.239
N9820 X102.913 Y-170.673 Z-14.355
N9825 X102.948 Y-170.638 Z-14.465
N9830 X102.992 Y-170.594 Z-14.568
N9835 X103.045 Y-170.541 Z-14.663
N9840 X103.105 Y-170.481 Z-14.749
N9845 X103.172 Y-170.413 Z-14.823
N9850 X103.246 Y-170.34 Z-14.885
N9855 X103.323 Y-170.262 Z-14.935
N9860 X103.405 Y-170.181 Z-14.971
N9865 X103.489 Y-170.097 Z-14.993
N9870 X103.574 Y-170.012 Z-15.
N9875 X103.928 Y-169.658
N9880 G2 X105.342 I0.707 J-0.707
N9885 G3 X110. Y-171.587 I4.658 J4.658
N9890 G1 X180.
N9895 G3 X186.587 Y-165. I0. J6.587
N9900 G1 Y-105.
N9905 G3 X180. Y-98.412 I-6.587 J0.
N9910 G1 X110.
N9915 G3 X103.412 Y-105. I0. J-6.588
N9920 G1 Y-165.
N9925 G3 X105.342 Y-169.658 I6.588 J0.
N9930 G2 Y-171.072 I-0.707 J-0.707
N9935 G1 X104.988 Y-171.426
N9940 X104.903 Y-171.511 Z-14.993
N9945 X104.819 Y-171.595 Z-14.971
N9950 X104.738 Y-171.677 Z-14.935
N9955 X104.66 Y-171.754 Z-14.885
N9960 X104.587 Y-171.828 Z-14.823
N9965 X104.519 Y-171.895 Z-14.749
N9970 X104.459 Y-171.955 Z-14.663
N9975 X104.406 Y-172.008 Z-14.568
N9980 X104.362 Y-172.052 Z-14.465
N9985 X104.327 Y-172.087 Z-14.355
N9990 X104.302 Y-172.112 Z-14.239
N9995 X104.286 Y-172.128 Z-14.121
N10000 X104.281 Y-172.133 Z-14.
N10005 Z5.
N10010 X102.867 Y-170.719
N10015 Z-10.5 F150.
N10020 Z-17.
N10025 X102.872 Y-170.714 Z-17.121 F1000.
N10030 X102.888 Y-170.698 Z-17.239
N10035 X102.913 Y-170.673 Z-17.355
N10040 X102.948 Y-170.638 Z-17.465
N10045 X102.992 Y-170.594 Z-17.568
N10050 X103.045 Y-170.541 Z-17.663
N10055 X103.105 Y-170.481 Z-17.749
N10060 X103.172 Y-170.413 Z-17.823
N10065 X103.246 Y-170.34 Z-17.885
N10070 X103.323 Y-170.262 Z-17.935
N10075 X103.405 Y-170.181 Z-17.971
N10080 X103.489 Y-170.097 Z-17.993
N10085 X103.574 Y-170.012 Z-18.
N10090 X103.928 Y-169.658
N10095 G2 X105.342 I0.707 J-0.707
N10100 G3 X110. Y-171.587 I4.658 J4.658
N10105 G1 X180.
N10110 G3 X186.587 Y-165. I0. J6.587
N10115 G1 Y-105.
N10120 G3 X180. Y-98.412 I-6.587 J0.
N10125 G1 X110.
N10130 G3 X103.412 Y-105. I0. J-6.588
N10135 G1 Y-165.
N10140 G3 X105.342 Y-169.658 I6.588 J0.
N10145 G2 Y-171.072 I-0.707 J-0.707
N10150 G1 X104.988 Y-171.426
N10155 X104.903 Y-171.511 Z-17.993
N10160 X104.819 Y-171.595 Z-17.971
N10165 X104.738 Y-171.677 Z-17.935
N10170 X104.66 Y-171.754 Z-17.885
N10175 X104.587 Y-171.828 Z-17.823
N10180 X104.519 Y-171.895 Z-17.749
N10185 X104.459 Y-171.955 Z-17.663
N10190 X104.406 Y-172.008 Z-17.568
N10195 X104.362 Y-172.052 Z-17.465
N10200 X104.327 Y-172.087 Z-17.355
N10205 X104.302 Y-172.112 Z-17.239
N10210 X104.286 Y-172.128 Z-17.121
N10215 X104.281 Y-172.133 Z-17.
N10220 Z5.
N10225 X102.867 Y-90.719
N10230 Z4.5 F150.
N10235 Z-2.
N10240 X102.872 Y-90.714 Z-2.121 F1000.
N10245 X102.888 Y-90.698 Z-2.239
N10250 X102.913 Y-90.673 Z-2.355
N10255 X102.948 Y-90.638 Z-2.465
N10260 X102.992 Y-90.594 Z-2.568
N10265 X103.045 Y-90.541 Z-2.663
N10270 X103.105 Y-90.481 Z-2.749
N10275 X103.172 Y-90.413 Z-2.823
N10280 X103.246 Y-90.34 Z-2.885
N10285 X103.323 Y-90.262 Z-2.935
N10290 X103.405 Y-90.181 Z-2.971
N10295 X103.489 Y-90.097 Z-2.993
N10300 X103.574 Y-90.012 Z-3.
N10305 X103.928 Y-89.658
N10310 G2 X105.342 I0.707 J-0.707
N10315 G3 X110. Y-91.588 I4.658 J4.658
N10320 G1 X180.
N10325 G3 X186.587 Y-85. I0. J6.588
N10330 G1 Y-25.
N10335 G3 X180. Y-18.413 I-6.587 J0.
N10340 G1 X110.
N10345 G3 X103.412 Y-25. I0. J-6.587
N10350 G1 Y-85.
N10355 G3 X105.342 Y-89.658 I6.588 J0.
N10360 G2 Y-91.072 I-0.707 J-0.707
N10365 G1 X104.988 Y-91.426
N10370 X104.903 Y-91.511 Z-2.993
N10375 X104.819 Y-91.595 Z-2.971
N10380 X104.738 Y-91.677 Z-2.935
N10385 X104.66 Y-91.754 Z-2.885
N10390 X104.587 Y-91.828 Z-2.823
N10395 X104.519 Y-91.895 Z-2.749
N10400 X104.459 Y-91.955 Z-2.663
N10405 X104.406 Y-92.008 Z-2.568
N10410 X104.362 Y-92.052 Z-2.465
N10415 X104.327 Y-92.087 Z-2.355
N10420 X104.302 Y-92.112 Z-2.239
N10425 X104.286 Y-92.128 Z-2.121
N10430 X104.281 Y-92.133 Z-2.
N10435 Z5.
N10440 X102.867 Y-90.719
N10445 Z1.5 F150.
N10450 Z-5.
N10455 X102.872 Y-90.714 Z-5.121 F1000.
N10460 X102.888 Y-90.698 Z-5.239
N10465 X102.913 Y-90.673 Z-5.355
N10470 X102.948 Y-90.638 Z-5.465
N10475 X102.992 Y-90.594 Z-5.568
N10480 X103.045 Y-90.541 Z-5.663
N10485 X103.105 Y-90.481 Z-5.749
N10490 X103.172 Y-90.413 Z-5.823
N10495 X103.246 Y-90.34 Z-5.885
N10500 X103.323 Y-90.262 Z-5.935
N10505 X103.405 Y-90.181 Z-5.971
N10510 X103.489 Y-90.097 Z-5.993
N10515 X103.574 Y-90.012 Z-6.
N10520 X103.928 Y-89.658
N10525 G2 X105.342 I0.707 J-0.707
N10530 G3 X110. Y-91.588 I4.658 J4.658
N10535 G1 X180.
N10540 G3 X186.587 Y-85. I0. J6.588
N10545 G1 Y-25.
N10550 G3 X180. Y-18.413 I-6.587 J0.
N10555 G1 X110.
N10560 G3 X103.412 Y-25. I0. J-6.587
N10565 G1 Y-85.
N10570 G3 X105.342 Y-89.658 I6.588 J0.
N10575 G2 Y-91.072 I-0.707 J-0.707
N10580 G1 X104.988 Y-91.426
N10585 X104.903 Y-91.511 Z-5.993
N10590 X104.819 Y-91.595 Z-5.971
N10595 X104.738 Y-91.677 Z-5.935
N10600 X104.66 Y-91.754 Z-5.885
N10605 X104.587 Y-91.828 Z-5.823
N10610 X104.519 Y-91.895 Z-5.749
N10615 X104.459 Y-91.955 Z-5.663
N10620 X104.406 Y-92.008 Z-5.568
N10625 X104.362 Y-92.052 Z-5.465
N10630 X104.327 Y-92.087 Z-5.355
N10635 X104.302 Y-92.112 Z-5.239
N10640 X104.286 Y-92.128 Z-5.121
N10645 X104.281 Y-92.133 Z-5.
N10650 Z5.
N10655 X102.867 Y-90.719
N10660 Z-1.5 F150.
N10665 Z-8.
N10670 X102.872 Y-90.714 Z-8.121 F1000.
N10675 X102.888 Y-90.698 Z-8.239
N10680 X102.913 Y-90.673 Z-8.355
N10685 X102.948 Y-90.638 Z-8.465
N10690 X102.992 Y-90.594 Z-8.568
N10695 X103.045 Y-90.541 Z-8.663
N10700 X103.105 Y-90.481 Z-8.749
N10705 X103.172 Y-90.413 Z-8.823
N10710 X103.246 Y-90.34 Z-8.885
N10715 X103.323 Y-90.262 Z-8.935
N10720 X103.405 Y-90.181 Z-8.971
N10725 X103.489 Y-90.097 Z-8.993
N10730 X103.574 Y-90.012 Z-9.
N10735 X103.928 Y-89.658
N10740 G2 X105.342 I0.707 J-0.707
N10745 G3 X110. Y-91.588 I4.658 J4.658
N10750 G1 X180.
N10755 G3 X186.587 Y-85. I0. J6.588
N10760 G1 Y-25.
N10765 G3 X180. Y-18.413 I-6.587 J0.
N10770 G1 X110.
N10775 G3 X103.412 Y-25. I0. J-6.587
N10780 G1 Y-85.
N10785 G3 X105.342 Y-89.658 I6.588 J0.
N10790 G2 Y-91.072 I-0.707 J-0.707
N10795 G1 X104.988 Y-91.426
N10800 X104.903 Y-91.511 Z-8.993
N10805 X104.819 Y-91.595 Z-8.971
N10810 X104.738 Y-91.677 Z-8.935
N10815 X104.66 Y-91.754 Z-8.885
N10820 X104.587 Y-91.828 Z-8.823
N10825 X104.519 Y-91.895 Z-8.749
N10830 X104.459 Y-91.955 Z-8.663
N10835 X104.406 Y-92.008 Z-8.568
N10840 X104.362 Y-92.052 Z-8.465
N10845 X104.327 Y-92.087 Z-8.355
N10850 X104.302 Y-92.112 Z-8.239
N10855 X104.286 Y-92.128 Z-8.121
N10860 X104.281 Y-92.133 Z-8.
N10865 Z5.
N10870 X102.867 Y-90.719
N10875 Z-4.5 F150.
N10880 Z-11.
N10885 X102.872 Y-90.714 Z-11.121 F1000.
N10890 X102.888 Y-90.698 Z-11.239
N10895 X102.913 Y-90.673 Z-11.355
N10900 X102.948 Y-90.638 Z-11.465
N10905 X102.992 Y-90.594 Z-11.568
N10910 X103.045 Y-90.541 Z-11.663
N10915 X103.105 Y-90.481 Z-11.749
N10920 X103.172 Y-90.413 Z-11.823
N10925 X103.246 Y-90.34 Z-11.885
N10930 X103.323 Y-90.262 Z-11.935
N10935 X103.405 Y-90.181 Z-11.971
N10940 X103.489 Y-90.097 Z-11.993
N10945 X103.574 Y-90.012 Z-12.
N10950 X103.928 Y-89.658
N10955 G2 X105.342 I0.707 J-0.707
N10960 G3 X110. Y-91.588 I4.658 J4.658
N10965 G1 X180.
N10970 G3 X186.587 Y-85. I0. J6.588
N10975 G1 Y-25.
N10980 G3 X180. Y-18.413 I-6.587 J0.
N10985 G1 X110.
N10990 G3 X103.412 Y-25. I0. J-6.587
N10995 G1 Y-85.
N11000 G3 X105.342 Y-89.658 I6.588 J0.
N11005 G2 Y-91.072 I-0.707 J-0.707
N11010 G1 X104.988 Y-91.426
N11015 X104.903 Y-91.511 Z-11.993
N11020 X104.819 Y-91.595 Z-11.971
N11025 X104.738 Y-91.677 Z-11.935
N11030 X104.66 Y-91.754 Z-11.885
N11035 X104.587 Y-91.828 Z-11.823
N11040 X104.519 Y-91.895 Z-11.749
N11045 X104.459 Y-91.955 Z-11.663
N11050 X104.406 Y-92.008 Z-11.568
N11055 X104.362 Y-92.052 Z-11.465
N11060 X104.327 Y-92.087 Z-11.355
N11065 X104.302 Y-92.112 Z-11.239
N11070 X104.286 Y-92.128 Z-11.121
N11075 X104.281 Y-92.133 Z-11.
N11080 Z5.
N11085 X102.867 Y-90.719
N11090 Z-7.5 F150.
N11095 Z-14.
N11100 X102.872 Y-90.714 Z-14.121 F1000.
N11105 X102.888 Y-90.698 Z-14.239
N11110 X102.913 Y-90.673 Z-14.355
N11115 X102.948 Y-90.638 Z-14.465
N11120 X102.992 Y-90.594 Z-14.568
N11125 X103.045 Y-90.541 Z-14.663
N11130 X103.105 Y-90.481 Z-14.749
N11135 X103.172 Y-90.413 Z-14.823
N11140 X103.246 Y-90.34 Z-14.885
N11145 X103.323 Y-90.262 Z-14.935
N11150 X103.405 Y-90.181 Z-14.971
N11155 X103.489 Y-90.097 Z-14.993
N11160 X103.574 Y-90.012 Z-15.
N11165 X103.928 Y-89.658
N11170 G2 X105.342 I0.707 J-0.707
N11175 G3 X110. Y-91.588 I4.658 J4.658
N11180 G1 X180.
N11185 G3 X186.587 Y-85. I0. J6.588
N11190 G1 Y-25.
N11195 G3 X180. Y-18.413 I-6.587 J0.
N11200 G1 X110.
N11205 G3 X103.412 Y-25. I0. J-6.587
N11210 G1 Y-85.
N11215 G3 X105.342 Y-89.658 I6.588 J0.
N11220 G2 Y-91.072 I-0.707 J-0.707
N11225 G1 X104.988 Y-91.426
N11230 X104.903 Y-91.511 Z-14.993
N11235 X104.819 Y-91.595 Z-14.971
N11240 X104.738 Y-91.677 Z-14.935
N11245 X104.66 Y-91.754 Z-14.885
N11250 X104.587 Y-91.828 Z-14.823
N11255 X104.519 Y-91.895 Z-14.749
N11260 X104.459 Y-91.955 Z-14.663
N11265 X104.406 Y-92.008 Z-14.568
N11270 X104.362 Y-92.052 Z-14.465
N11275 X104.327 Y-92.087 Z-14.355
N11280 X104.302 Y-92.112 Z-14.239
N11285 X104.286 Y-92.128 Z-14.121
N11290 X104.281 Y-92.133 Z-14.
N11295 Z5.
N11300 X102.867 Y-90.719
N11305 Z-10.5 F150.
N11310 Z-17.
N11315 X102.872 Y-90.714 Z-17.121 F1000.
N11320 X102.888 Y-90.698 Z-17.239
N11325 X102.913 Y-90.673 Z-17.355
N11330 X102.948 Y-90.638 Z-17.465
N11335 X102.992 Y-90.594 Z-17.568
N11340 X103.045 Y-90.541 Z-17.663
N11345 X103.105 Y-90.481 Z-17.749
N11350 X103.172 Y-90.413 Z-17.823
N11355 X103.246 Y-90.34 Z-17.885
N11360 X103.323 Y-90.262 Z-17.935
N11365 X103.405 Y-90.181 Z-17.971
N11370 X103.489 Y-90.097 Z-17.993
N11375 X103.574 Y-90.012 Z-18.
N11380 X103.928 Y-89.658
N11385 G2 X105.342 I0.707 J-0.707
N11390 G3 X110. Y-91.588 I4.658 J4.658
N11395 G1 X180.
N11400 G3 X186.587 Y-85. I0. J6.588
N11405 G1 Y-25.
N11410 G3 X180. Y-18.413 I-6.587 J0.
N11415 G1 X110.
N11420 G3 X103.412 Y-25. I0. J-6.587
N11425 G1 Y-85.
N11430 G3 X105.342 Y-89.658 I6.588 J0.
N11435 G2 Y-91.072 I-0.707 J-0.707
N11440 G1 X104.988 Y-91.426
N11445 X104.903 Y-91.511 Z-17.993
N11450 X104.819 Y-91.595 Z-17.971
N11455 X104.738 Y-91.677 Z-17.935
N11460 X104.66 Y-91.754 Z-17.885
N11465 X104.587 Y-91.828 Z-17.823
N11470 X104.519 Y-91.895 Z-17.749
N11475 X104.459 Y-91.955 Z-17.663
N11480 X104.406 Y-92.008 Z-17.568
N11485 X104.362 Y-92.052 Z-17.465
N11490 X104.327 Y-92.087 Z-17.355
N11495 X104.302 Y-92.112 Z-17.239
N11500 X104.286 Y-92.128 Z-17.121
N11505 X104.281 Y-92.133 Z-17.
N11510 Z5.
N11515 X95.719
N11520 Z4.5 F150.
N11525 Z-2.
N11530 X95.714 Y-92.128 Z-2.121 F1000.
N11535 X95.698 Y-92.112 Z-2.239
N11540 X95.673 Y-92.087 Z-2.355
N11545 X95.638 Y-92.052 Z-2.465
N11550 X95.594 Y-92.008 Z-2.568
N11555 X95.541 Y-91.955 Z-2.663
N11560 X95.481 Y-91.895 Z-2.749
N11565 X95.413 Y-91.828 Z-2.823
N11570 X95.34 Y-91.754 Z-2.885
N11575 X95.262 Y-91.677 Z-2.935
N11580 X95.181 Y-91.595 Z-2.971
N11585 X95.097 Y-91.511 Z-2.993
N11590 X95.012 Y-91.426 Z-3.
N11595 X94.658 Y-91.072
N11600 G2 Y-89.658 I0.707 J0.707
N11605 G3 X96.588 Y-85. I-4.658 J4.658
N11610 G1 Y-25.
N11615 G3 X90. Y-18.413 I-6.588 J0.
N11620 G1 X20.
N11625 G3 X13.413 Y-25. I0. J-6.587
N11630 G1 Y-85.
N11635 G3 X20. Y-91.588 I6.587 J0.
N11640 G1 X90.
N11645 G3 X94.658 Y-89.658 I0. J6.588
N11650 G2 X96.072 I0.707 J-0.707
N11655 G1 X96.426 Y-90.012
N11660 X96.511 Y-90.097 Z-2.993
N11665 X96.595 Y-90.181 Z-2.971
N11670 X96.677 Y-90.262 Z-2.935
N11675 X96.754 Y-90.34 Z-2.885
N11680 X96.828 Y-90.413 Z-2.823
N11685 X96.895 Y-90.481 Z-2.749
N11690 X96.955 Y-90.541 Z-2.663
N11695 X97.008 Y-90.594 Z-2.568
N11700 X97.052 Y-90.638 Z-2.465
N11705 X97.087 Y-90.673 Z-2.355
N11710 X97.112 Y-90.698 Z-2.239
N11715 X97.128 Y-90.714 Z-2.121
N11720 X97.133 Y-90.719 Z-2.
N11725 Z5.
N11730 X95.719 Y-92.133
N11735 Z1.5 F150.
N11740 Z-5.
N11745 X95.714 Y-92.128 Z-5.121 F1000.
N11750 X95.698 Y-92.112 Z-5.239
N11755 X95.673 Y-92.087 Z-5.355
N11760 X95.638 Y-92.052 Z-5.465
N11765 X95.594 Y-92.008 Z-5.568
N11770 X95.541 Y-91.955 Z-5.663
N11775 X95.481 Y-91.895 Z-5.749
N11780 X95.413 Y-91.828 Z-5.823
N11785 X95.34 Y-91.754 Z-5.885
N11790 X95.262 Y-91.677 Z-5.935
N11795 X95.181 Y-91.595 Z-5.971
N11800 X95.097 Y-91.511 Z-5.993
N11805 X95.012 Y-91.426 Z-6.
N11810 X94.658 Y-91.072
N11815 G2 Y-89.658 I0.707 J0.707
N11820 G3 X96.588 Y-85. I-4.658 J4.658
N11825 G1 Y-25.
N11830 G3 X90. Y-18.413 I-6.588 J0.
N11835 G1 X20.
N11840 G3 X13.413 Y-25. I0. J-6.587
N11845 G1 Y-85.
N11850 G3 X20. Y-91.588 I6.587 J0.
N11855 G1 X90.
N11860 G3 X94.658 Y-89.658 I0. J6.588
N11865 G2 X96.072 I0.707 J-0.707
N11870 G1 X96.426 Y-90.012
N11875 X96.511 Y-90.097 Z-5.993
N11880 X96.595 Y-90.181 Z-5.971
N11885 X96.677 Y-90.262 Z-5.935
N11890 X96.754 Y-90.34 Z-5.885
N11895 X96.828 Y-90.413 Z-5.823
N11900 X96.895 Y-90.481 Z-5.749
N11905 X96.955 Y-90.541 Z-5.663
N11910 X97.008 Y-90.594 Z-5.568
N11915 X97.052 Y-90.638 Z-5.465
N11920 X97.087 Y-90.673 Z-5.355
N11925 X97.112 Y-90.698 Z-5.239
N11930 X97.128 Y-90.714 Z-5.121
N11935 X97.133 Y-90.719 Z-5.
N11940 Z5.
N11945 X95.719 Y-92.133
N11950 Z-1.5 F150.
N11955 Z-8.
N11960 X95.714 Y-92.128 Z-8.121 F1000.
N11965 X95.698 Y-92.112 Z-8.239
N11970 X95.673 Y-92.087 Z-8.355
N11975 X95.638 Y-92.052 Z-8.465
N11980 X95.594 Y-92.008 Z-8.568
N11985 X95.541 Y-91.955 Z-8.663
N11990 X95.481 Y-91.895 Z-8.749
N11995 X95.413 Y-91.828 Z-8.823
N12000 X95.34 Y-91.754 Z-8.885
N12005 X95.262 Y-91.677 Z-8.935
N12010 X95.181 Y-91.595 Z-8.971
N12015 X95.097 Y-91.511 Z-8.993
N12020 X95.012 Y-91.426 Z-9.
N12025 X94.658 Y-91.072
N12030 G2 Y-89.658 I0.707 J0.707
N12035 G3 X96.588 Y-85. I-4.658 J4.658
N12040 G1 Y-25.
N12045 G3 X90. Y-18.413 I-6.588 J0.
N12050 G1 X20.
N12055 G3 X13.413 Y-25. I0. J-6.587
N12060 G1 Y-85.
N12065 G3 X20. Y-91.588 I6.587 J0.
N12070 G1 X90.
N12075 G3 X94.658 Y-89.658 I0. J6.588
N12080 G2 X96.072 I0.707 J-0.707
N12085 G1 X96.426 Y-90.012
N12090 X96.511 Y-90.097 Z-8.993
N12095 X96.595 Y-90.181 Z-8.971
N12100 X96.677 Y-90.262 Z-8.935
N12105 X96.754 Y-90.34 Z-8.885
N12110 X96.828 Y-90.413 Z-8.823
N12115 X96.895 Y-90.481 Z-8.749
N12120 X96.955 Y-90.541 Z-8.663
N12125 X97.008 Y-90.594 Z-8.568
N12130 X97.052 Y-90.638 Z-8.465
N12135 X97.087 Y-90.673 Z-8.355
N12140 X97.112 Y-90.698 Z-8.239
N12145 X97.128 Y-90.714 Z-8.121
N12150 X97.133 Y-90.719 Z-8.
N12155 Z5.
N12160 X95.719 Y-92.133
N12165 Z-4.5 F150.
N12170 Z-11.
N12175 X95.714 Y-92.128 Z-11.121 F1000.
N12180 X95.698 Y-92.112 Z-11.239
N12185 X95.673 Y-92.087 Z-11.355
N12190 X95.638 Y-92.052 Z-11.465
N12195 X95.594 Y-92.008 Z-11.568
N12200 X95.541 Y-91.955 Z-11.663
N12205 X95.481 Y-91.895 Z-11.749
N12210 X95.413 Y-91.828 Z-11.823
N12215 X95.34 Y-91.754 Z-11.885
N12220 X95.262 Y-91.677 Z-11.935
N12225 X95.181 Y-91.595 Z-11.971
N12230 X95.097 Y-91.511 Z-11.993
N12235 X95.012 Y-91.426 Z-12.
N12240 X94.658 Y-91.072
N12245 G2 Y-89.658 I0.707 J0.707
N12250 G3 X96.588 Y-85. I-4.658 J4.658
N12255 G1 Y-25.
N12260 G3 X90. Y-18.413 I-6.588 J0.
N12265 G1 X20.
N12270 G3 X13.413 Y-25. I0. J-6.587
N12275 G1 Y-85.
N12280 G3 X20. Y-91.588 I6.587 J0.
N12285 G1 X90.
N12290 G3 X94.658 Y-89.658 I0. J6.588
N12295 G2 X96.072 I0.707 J-0.707
N12300 G1 X96.426 Y-90.012
N12305 X96.511 Y-90.097 Z-11.993
N12310 X96.595 Y-90.181 Z-11.971
N12315 X96.677 Y-90.262 Z-11.935
N12320 X96.754 Y-90.34 Z-11.885
N12325 X96.828 Y-90.413 Z-11.823
N12330 X96.895 Y-90.481 Z-11.749
N12335 X96.955 Y-90.541 Z-11.663
N12340 X97.008 Y-90.594 Z-11.568
N12345 X97.052 Y-90.638 Z-11.465
N12350 X97.087 Y-90.673 Z-11.355
N12355 X97.112 Y-90.698 Z-11.239
N12360 X97.128 Y-90.714 Z-11.121
N12365 X97.133 Y-90.719 Z-11.
N12370 Z5.
N12375 X95.719 Y-92.133
N12380 Z-7.5 F150.
N12385 Z-14.
N12390 X95.714 Y-92.128 Z-14.121 F1000.
N12395 X95.698 Y-92.112 Z-14.239
N12400 X95.673 Y-92.087 Z-14.355
N12405 X95.638 Y-92.052 Z-14.465
N12410 X95.594 Y-92.008 Z-14.568
N12415 X95.541 Y-91.955 Z-14.663
N12420 X95.481 Y-91.895 Z-14.749
N12425 X95.413 Y-91.828 Z-14.823
N12430 X95.34 Y-91.754 Z-14.885
N12435 X95.262 Y-91.677 Z-14.935
N12440 X95.181 Y-91.595 Z-14.971
N12445 X95.097 Y-91.511 Z-14.993
N12450 X95.012 Y-91.426 Z-15.
N12455 X94.658 Y-91.072
N12460 G2 Y-89.658 I0.707 J0.707
N12465 G3 X96.588 Y-85. I-4.658 J4.658
N12470 G1 Y-25.
N12475 G3 X90. Y-18.413 I-6.588 J0.
N12480 G1 X20.
N12485 G3 X13.413 Y-25. I0. J-6.587
N12490 G1 Y-85.
N12495 G3 X20. Y-91.588 I6.587 J0.
N12500 G1 X90.
N12505 G3 X94.658 Y-89.658 I0. J6.588
N12510 G2 X96.072 I0.707 J-0.707
N12515 G1 X96.426 Y-90.012
N12520 X96.511 Y-90.097 Z-14.993
N12525 X96.595 Y-90.181 Z-14.971
N12530 X96.677 Y-90.262 Z-14.935
N12535 X96.754 Y-90.34 Z-14.885
N12540 X96.828 Y-90.413 Z-14.823
N12545 X96.895 Y-90.481 Z-14.749
N12550 X96.955 Y-90.541 Z-14.663
N12555 X97.008 Y-90.594 Z-14.568
N12560 X97.052 Y-90.638 Z-14.465
N12565 X97.087 Y-90.673 Z-14.355
N12570 X97.112 Y-90.698 Z-14.239
N12575 X97.128 Y-90.714 Z-14.121
N12580 X97.133 Y-90.719 Z-14.
N12585 Z5.
N12590 X95.719 Y-92.133
N12595 Z-10.5 F150.
N12600 Z-17.
N12605 X95.714 Y-92.128 Z-17.121 F1000.
N12610 X95.698 Y-92.112 Z-17.239
N12615 X95.673 Y-92.087 Z-17.355
N12620 X95.638 Y-92.052 Z-17.465
N12625 X95.594 Y-92.008 Z-17.568
N12630 X95.541 Y-91.955 Z-17.663
N12635 X95.481 Y-91.895 Z-17.749
N12640 X95.413 Y-91.828 Z-17.823
N12645 X95.34 Y-91.754 Z-17.885
N12650 X95.262 Y-91.677 Z-17.935
N12655 X95.181 Y-91.595 Z-17.971
N12660 X95.097 Y-91.511 Z-17.993
N12665 X95.012 Y-91.426 Z-18.
N12670 X94.658 Y-91.072
N12675 G2 Y-89.658 I0.707 J0.707
N12680 G3 X96.588 Y-85. I-4.658 J4.658
N12685 G1 Y-25.
N12690 G3 X90. Y-18.413 I-6.588 J0.
N12695 G1 X20.
N12700 G3 X13.413 Y-25. I0. J-6.587
N12705 G1 Y-85.
N12710 G3 X20. Y-91.588 I6.587 J0.
N12715 G1 X90.
N12720 G3 X94.658 Y-89.658 I0. J6.588
N12725 G2 X96.072 I0.707 J-0.707
N12730 G1 X96.426 Y-90.012
N12735 X96.511 Y-90.097 Z-17.993
N12740 X96.595 Y-90.181 Z-17.971
N12745 X96.677 Y-90.262 Z-17.935
N12750 X96.754 Y-90.34 Z-17.885
N12755 X96.828 Y-90.413 Z-17.823
N12760 X96.895 Y-90.481 Z-17.749
N12765 X96.955 Y-90.541 Z-17.663
N12770 X97.008 Y-90.594 Z-17.568
N12775 X97.052 Y-90.638 Z-17.465
N12780 X97.087 Y-90.673 Z-17.355
N12785 X97.112 Y-90.698 Z-17.239
N12790 X97.128 Y-90.714 Z-17.121
N12795 X97.133 Y-90.719 Z-17.
N12800 Z5.
N12805 Y-259.281
N12810 Z4.5 F150.
N12815 Z-2.
N12820 X97.128 Y-259.286 Z-2.121 F1000.
N12825 X97.112 Y-259.302 Z-2.239
N12830 X97.087 Y-259.327 Z-2.355
N12835 X97.052 Y-259.362 Z-2.465
N12840 X97.008 Y-259.406 Z-2.568
N12845 X96.955 Y-259.459 Z-2.663
N12850 X96.895 Y-259.519 Z-2.749
N12855 X96.828 Y-259.587 Z-2.823
N12860 X96.754 Y-259.66 Z-2.885
N12865 X96.677 Y-259.738 Z-2.935
N12870 X96.595 Y-259.819 Z-2.971
N12875 X96.511 Y-259.903 Z-2.993
N12880 X96.426 Y-259.988 Z-3.
N12885 X96.072 Y-260.342
N12890 G2 X94.658 I-0.707 J0.707
N12895 G3 X90. Y-258.413 I-4.658 J-4.658
N12900 G1 X20.
N12905 G3 X13.413 Y-265. I0. J-6.587
N12910 G1 Y-325.
N12915 G3 X20. Y-331.587 I6.587 J0.
N12920 G1 X90.
N12925 G3 X96.588 Y-325. I0. J6.587
N12930 G1 Y-265.
N12935 G3 X94.658 Y-260.342 I-6.588 J0.
N12940 G2 Y-258.928 I0.707 J0.707
N12945 G1 X95.012 Y-258.574
N12950 X95.097 Y-258.489 Z-2.993
N12955 X95.181 Y-258.405 Z-2.971
N12960 X95.262 Y-258.323 Z-2.935
N12965 X95.34 Y-258.246 Z-2.885
N12970 X95.413 Y-258.172 Z-2.823
N12975 X95.481 Y-258.105 Z-2.749
N12980 X95.541 Y-258.045 Z-2.663
N12985 X95.594 Y-257.992 Z-2.568
N12990 X95.638 Y-257.948 Z-2.465
N12995 X95.673 Y-257.913 Z-2.355
N13000 X95.698 Y-257.888 Z-2.239
N13005 X95.714 Y-257.872 Z-2.121
N13010 X95.719 Y-257.867 Z-2.
N13015 Z5.
N13020 X97.133 Y-259.281
N13025 Z1.5 F150.
N13030 Z-5.
N13035 X97.128 Y-259.286 Z-5.121 F1000.
N13040 X97.112 Y-259.302 Z-5.239
N13045 X97.087 Y-259.327 Z-5.355
N13050 X97.052 Y-259.362 Z-5.465
N13055 X97.008 Y-259.406 Z-5.568
N13060 X96.955 Y-259.459 Z-5.663
N13065 X96.895 Y-259.519 Z-5.749
N13070 X96.828 Y-259.587 Z-5.823
N13075 X96.754 Y-259.66 Z-5.885
N13080 X96.677 Y-259.738 Z-5.935
N13085 X96.595 Y-259.819 Z-5.971
N13090 X96.511 Y-259.903 Z-5.993
N13095 X96.426 Y-259.988 Z-6.
N13100 X96.072 Y-260.342
N13105 G2 X94.658 I-0.707 J0.707
N13110 G3 X90. Y-258.413 I-4.658 J-4.658
N13115 G1 X20.
N13120 G3 X13.413 Y-265. I0. J-6.587
N13125 G1 Y-325.
N13130 G3 X20. Y-331.587 I6.587 J0.
N13135 G1 X90.
N13140 G3 X96.588 Y-325. I0. J6.587
N13145 G1 Y-265.
N13150 G3 X94.658 Y-260.342 I-6.588 J0.
N13155 G2 Y-258.928 I0.707 J0.707
N13160 G1 X95.012 Y-258.574
N13165 X95.097 Y-258.489 Z-5.993
N13170 X95.181 Y-258.405 Z-5.971
N13175 X95.262 Y-258.323 Z-5.935
N13180 X95.34 Y-258.246 Z-5.885
N13185 X95.413 Y-258.172 Z-5.823
N13190 X95.481 Y-258.105 Z-5.749
N13195 X95.541 Y-258.045 Z-5.663
N13200 X95.594 Y-257.992 Z-5.568
N13205 X95.638 Y-257.948 Z-5.465
N13210 X95.673 Y-257.913 Z-5.355
N13215 X95.698 Y-257.888 Z-5.239
N13220 X95.714 Y-257.872 Z-5.121
N13225 X95.719 Y-257.867 Z-5.
N13230 Z5.
N13235 X97.133 Y-259.281
N13240 Z-1.5 F150.
N13245 Z-8.
N13250 X97.128 Y-259.286 Z-8.121 F1000.
N13255 X97.112 Y-259.302 Z-8.239
N13260 X97.087 Y-259.327 Z-8.355
N13265 X97.052 Y-259.362 Z-8.465
N13270 X97.008 Y-259.406 Z-8.568
N13275 X96.955 Y-259.459 Z-8.663
N13280 X96.895 Y-259.519 Z-8.749
N13285 X96.828 Y-259.587 Z-8.823
N13290 X96.754 Y-259.66 Z-8.885
N13295 X96.677 Y-259.738 Z-8.935
N13300 X96.595 Y-259.819 Z-8.971
N13305 X96.511 Y-259.903 Z-8.993
N13310 X96.426 Y-259.988 Z-9.
N13315 X96.072 Y-260.342
N13320 G2 X94.658 I-0.707 J0.707
N13325 G3 X90. Y-258.413 I-4.658 J-4.658
N13330 G1 X20.
N13335 G3 X13.413 Y-265. I0. J-6.587
N13340 G1 Y-325.
N13345 G3 X20. Y-331.587 I6.587 J0.
N13350 G1 X90.
N13355 G3 X96.588 Y-325. I0. J6.587
N13360 G1 Y-265.
N13365 G3 X94.658 Y-260.342 I-6.588 J0.
N13370 G2 Y-258.928 I0.707 J0.707
N13375 G1 X95.012 Y-258.574
N13380 X95.097 Y-258.489 Z-8.993
N13385 X95.181 Y-258.405 Z-8.971
N13390 X95.262 Y-258.323 Z-8.935
N13395 X95.34 Y-258.246 Z-8.885
N13400 X95.413 Y-258.172 Z-8.823
N13405 X95.481 Y-258.105 Z-8.749
N13410 X95.541 Y-258.045 Z-8.663
N13415 X95.594 Y-257.992 Z-8.568
N13420 X95.638 Y-257.948 Z-8.465
N13425 X95.673 Y-257.913 Z-8.355
N13430 X95.698 Y-257.888 Z-8.239
N13435 X95.714 Y-257.872 Z-8.121
N13440 X95.719 Y-257.867 Z-8.
N13445 Z5.
N13450 X97.133 Y-259.281
N13455 Z-4.5 F150.
N13460 Z-11.
N13465 X97.128 Y-259.286 Z-11.121 F1000.
N13470 X97.112 Y-259.302 Z-11.239
N13475 X97.087 Y-259.327 Z-11.355
N13480 X97.052 Y-259.362 Z-11.465
N13485 X97.008 Y-259.406 Z-11.568
N13490 X96.955 Y-259.459 Z-11.663
N13495 X96.895 Y-259.519 Z-11.749
N13500 X96.828 Y-259.587 Z-11.823
N13505 X96.754 Y-259.66 Z-11.885
N13510 X96.677 Y-259.738 Z-11.935
N13515 X96.595 Y-259.819 Z-11.971
N13520 X96.511 Y-259.903 Z-11.993
N13525 X96.426 Y-259.988 Z-12.
N13530 X96.072 Y-260.342
N13535 G2 X94.658 I-0.707 J0.707
N13540 G3 X90. Y-258.413 I-4.658 J-4.658
N13545 G1 X20.
N13550 G3 X13.413 Y-265. I0. J-6.587
N13555 G1 Y-325.
N13560 G3 X20. Y-331.587 I6.587 J0.
N13565 G1 X90.
N13570 G3 X96.588 Y-325. I0. J6.587
N13575 G1 Y-265.
N13580 G3 X94.658 Y-260.342 I-6.588 J0.
N13585 G2 Y-258.928 I0.707 J0.707
N13590 G1 X95.012 Y-258.574
N13595 X95.097 Y-258.489 Z-11.993
N13600 X95.181 Y-258.405 Z-11.971
N13605 X95.262 Y-258.323 Z-11.935
N13610 X95.34 Y-258.246 Z-11.885
N13615 X95.413 Y-258.172 Z-11.823
N13620 X95.481 Y-258.105 Z-11.749
N13625 X95.541 Y-258.045 Z-11.663
N13630 X95.594 Y-257.992 Z-11.568
N13635 X95.638 Y-257.948 Z-11.465
N13640 X95.673 Y-257.913 Z-11.355
N13645 X95.698 Y-257.888 Z-11.239
N13650 X95.714 Y-257.872 Z-11.121
N13655 X95.719 Y-257.867 Z-11.
N13660 Z5.
N13665 X97.133 Y-259.281
N13670 Z-7.5 F150.
N13675 Z-14.
N13680 X97.128 Y-259.286 Z-14.121 F1000.
N13685 X97.112 Y-259.302 Z-14.239
N13690 X97.087 Y-259.327 Z-14.355
N13695 X97.052 Y-259.362 Z-14.465
N13700 X97.008 Y-259.406 Z-14.568
N13705 X96.955 Y-259.459 Z-14.663
N13710 X96.895 Y-259.519 Z-14.749
N13715 X96.828 Y-259.587 Z-14.823
N13720 X96.754 Y-259.66 Z-14.885
N13725 X96.677 Y-259.738 Z-14.935
N13730 X96.595 Y-259.819 Z-14.971
N13735 X96.511 Y-259.903 Z-14.993
N13740 X96.426 Y-259.988 Z-15.
N13745 X96.072 Y-260.342
N13750 G2 X94.658 I-0.707 J0.707
N13755 G3 X90. Y-258.413 I-4.658 J-4.658
N13760 G1 X20.
N13765 G3 X13.413 Y-265. I0. J-6.587
N13770 G1 Y-325.
N13775 G3 X20. Y-331.587 I6.587 J0.
N13780 G1 X90.
N13785 G3 X96.588 Y-325. I0. J6.587
N13790 G1 Y-265.
N13795 G3 X94.658 Y-260.342 I-6.588 J0.
N13800 G2 Y-258.928 I0.707 J0.707
N13805 G1 X95.012 Y-258.574
N13810 X95.097 Y-258.489 Z-14.993
N13815 X95.181 Y-258.405 Z-14.971
N13820 X95.262 Y-258.323 Z-14.935
N13825 X95.34 Y-258.246 Z-14.885
N13830 X95.413 Y-258.172 Z-14.823
N13835 X95.481 Y-258.105 Z-14.749
N13840 X95.541 Y-258.045 Z-14.663
N13845 X95.594 Y-257.992 Z-14.568
N13850 X95.638 Y-257.948 Z-14.465
N13855 X95.673 Y-257.913 Z-14.355
N13860 X95.698 Y-257.888 Z-14.239
N13865 X95.714 Y-257.872 Z-14.121
N13870 X95.719 Y-257.867 Z-14.
N13875 Z5.
N13880 X97.133 Y-259.281
N13885 Z-10.5 F150.
N13890 Z-17.
N13895 X97.128 Y-259.286 Z-17.121 F1000.
N13900 X97.112 Y-259.302 Z-17.239
N13905 X97.087 Y-259.327 Z-17.355
N13910 X97.052 Y-259.362 Z-17.465
N13915 X97.008 Y-259.406 Z-17.568
N13920 X96.955 Y-259.459 Z-17.663
N13925 X96.895 Y-259.519 Z-17.749
N13930 X96.828 Y-259.587 Z-17.823
N13935 X96.754 Y-259.66 Z-17.885
N13940 X96.677 Y-259.738 Z-17.935
N13945 X96.595 Y-259.819 Z-17.971
N13950 X96.511 Y-259.903 Z-17.993
N13955 X96.426 Y-259.988 Z-18.
N13960 X96.072 Y-260.342
N13965 G2 X94.658 I-0.707 J0.707
N13970 G3 X90. Y-258.413 I-4.658 J-4.658
N13975 G1 X20.
N13980 G3 X13.413 Y-265. I0. J-6.587
N13985 G1 Y-325.
N13990 G3 X20. Y-331.587 I6.587 J0.
N13995 G1 X90.
N14000 G3 X96.588 Y-325. I0. J6.587
N14005 G1 Y-265.
N14010 G3 X94.658 Y-260.342 I-6.588 J0.
N14015 G2 Y-258.928 I0.707 J0.707
N14020 G1 X95.012 Y-258.574
N14025 X95.097 Y-258.489 Z-17.993
N14030 X95.181 Y-258.405 Z-17.971
N14035 X95.262 Y-258.323 Z-17.935
N14040 X95.34 Y-258.246 Z-17.885
N14045 X95.413 Y-258.172 Z-17.823
N14050 X95.481 Y-258.105 Z-17.749
N14055 X95.541 Y-258.045 Z-17.663
N14060 X95.594 Y-257.992 Z-17.568
N14065 X95.638 Y-257.948 Z-17.465
N14070 X95.673 Y-257.913 Z-17.355
N14075 X95.698 Y-257.888 Z-17.239
N14080 X95.714 Y-257.872 Z-17.121
N14085 X95.719 Y-257.867 Z-17.
N14090 Z5.
N14095 X104.281
N14100 Z4.5 F150.
N14105 Z-2.
N14110 X104.286 Y-257.872 Z-2.121 F1000.
N14115 X104.302 Y-257.888 Z-2.239
N14120 X104.327 Y-257.913 Z-2.355
N14125 X104.362 Y-257.948 Z-2.465
N14130 X104.406 Y-257.992 Z-2.568
N14135 X104.459 Y-258.045 Z-2.663
N14140 X104.519 Y-258.105 Z-2.749
N14145 X104.587 Y-258.172 Z-2.823
N14150 X104.66 Y-258.246 Z-2.885
N14155 X104.738 Y-258.323 Z-2.935
N14160 X104.819 Y-258.405 Z-2.971
N14165 X104.903 Y-258.489 Z-2.993
N14170 X104.988 Y-258.574 Z-3.
N14175 X105.342 Y-258.928
N14180 G2 Y-260.342 I-0.707 J-0.707
N14185 G3 X103.412 Y-265. I4.658 J-4.658
N14190 G1 Y-325.
N14195 G3 X110. Y-331.587 I6.588 J0.
N14200 G1 X180.
N14205 G3 X186.587 Y-325. I0. J6.587
N14210 G1 Y-265.
N14215 G3 X180. Y-258.413 I-6.587 J0.
N14220 G1 X110.
N14225 G3 X105.342 Y-260.342 I0. J-6.587
N14230 G2 X103.928 I-0.707 J0.707
N14235 G1 X103.574 Y-259.988
N14240 X103.489 Y-259.903 Z-2.993
N14245 X103.405 Y-259.819 Z-2.971
N14250 X103.323 Y-259.738 Z-2.935
N14255 X103.246 Y-259.66 Z-2.885
N14260 X103.172 Y-259.587 Z-2.823
N14265 X103.105 Y-259.519 Z-2.749
N14270 X103.045 Y-259.459 Z-2.663
N14275 X102.992 Y-259.406 Z-2.568
N14280 X102.948 Y-259.362 Z-2.465
N14285 X102.913 Y-259.327 Z-2.355
N14290 X102.888 Y-259.302 Z-2.239
N14295 X102.872 Y-259.286 Z-2.121
N14300 X102.867 Y-259.281 Z-2.
N14305 Z5.
N14310 X104.281 Y-257.867
N14315 Z1.5 F150.
N14320 Z-5.
N14325 X104.286 Y-257.872 Z-5.121 F1000.
N14330 X104.302 Y-257.888 Z-5.239
N14335 X104.327 Y-257.913 Z-5.355
N14340 X104.362 Y-257.948 Z-5.465
N14345 X104.406 Y-257.992 Z-5.568
N14350 X104.459 Y-258.045 Z-5.663
N14355 X104.519 Y-258.105 Z-5.749
N14360 X104.587 Y-258.172 Z-5.823
N14365 X104.66 Y-258.246 Z-5.885
N14370 X104.738 Y-258.323 Z-5.935
N14375 X104.819 Y-258.405 Z-5.971
N14380 X104.903 Y-258.489 Z-5.993
N14385 X104.988 Y-258.574 Z-6.
N14390 X105.342 Y-258.928
N14395 G2 Y-260.342 I-0.707 J-0.707
N14400 G3 X103.412 Y-265. I4.658 J-4.658
N14405 G1 Y-325.
N14410 G3 X110. Y-331.587 I6.588 J0.
N14415 G1 X180.
N14420 G3 X186.587 Y-325. I0. J6.587
N14425 G1 Y-265.
N14430 G3 X180. Y-258.413 I-6.587 J0.
N14435 G1 X110.
N14440 G3 X105.342 Y-260.342 I0. J-6.587
N14445 G2 X103.928 I-0.707 J0.707
N14450 G1 X103.574 Y-259.988
N14455 X103.489 Y-259.903 Z-5.993
N14460 X103.405 Y-259.819 Z-5.971
N14465 X103.323 Y-259.738 Z-5.935
N14470 X103.246 Y-259.66 Z-5.885
N14475 X103.172 Y-259.587 Z-5.823
N14480 X103.105 Y-259.519 Z-5.749
N14485 X103.045 Y-259.459 Z-5.663
N14490 X102.992 Y-259.406 Z-5.568
N14495 X102.948 Y-259.362 Z-5.465
N14500 X102.913 Y-259.327 Z-5.355
N14505 X102.888 Y-259.302 Z-5.239
N14510 X102.872 Y-259.286 Z-5.121
N14515 X102.867 Y-259.281 Z-5.
N14520 Z5.
N14525 X104.281 Y-257.867
N14530 Z-1.5 F150.
N14535 Z-8.
N14540 X104.286 Y-257.872 Z-8.121 F1000.
N14545 X104.302 Y-257.888 Z-8.239
N14550 X104.327 Y-257.913 Z-8.355
N14555 X104.362 Y-257.948 Z-8.465
N14560 X104.406 Y-257.992 Z-8.568
N14565 X104.459 Y-258.045 Z-8.663
N14570 X104.519 Y-258.105 Z-8.749
N14575 X104.587 Y-258.172 Z-8.823
N14580 X104.66 Y-258.246 Z-8.885
N14585 X104.738 Y-258.323 Z-8.935
N14590 X104.819 Y-258.405 Z-8.971
N14595 X104.903 Y-258.489 Z-8.993
N14600 X104.988 Y-258.574 Z-9.
N14605 X105.342 Y-258.928
N14610 G2 Y-260.342 I-0.707 J-0.707
N14615 G3 X103.412 Y-265. I4.658 J-4.658
N14620 G1 Y-325.
N14625 G3 X110. Y-331.587 I6.588 J0.
N14630 G1 X180.
N14635 G3 X186.587 Y-325. I0. J6.587
N14640 G1 Y-265.
N14645 G3 X180. Y-258.413 I-6.587 J0.
N14650 G1 X110.
N14655 G3 X105.342 Y-260.342 I0. J-6.587
N14660 G2 X103.928 I-0.707 J0.707
N14665 G1 X103.574 Y-259.988
N14670 X103.489 Y-259.903 Z-8.993
N14675 X103.405 Y-259.819 Z-8.971
N14680 X103.323 Y-259.738 Z-8.935
N14685 X103.246 Y-259.66 Z-8.885
N14690 X103.172 Y-259.587 Z-8.823
N14695 X103.105 Y-259.519 Z-8.749
N14700 X103.045 Y-259.459 Z-8.663
N14705 X102.992 Y-259.406 Z-8.568
N14710 X102.948 Y-259.362 Z-8.465
N14715 X102.913 Y-259.327 Z-8.355
N14720 X102.888 Y-259.302 Z-8.239
N14725 X102.872 Y-259.286 Z-8.121
N14730 X102.867 Y-259.281 Z-8.
N14735 Z5.
N14740 X104.281 Y-257.867
N14745 Z-4.5 F150.
N14750 Z-11.
N14755 X104.286 Y-257.872 Z-11.121 F1000.
N14760 X104.302 Y-257.888 Z-11.239
N14765 X104.327 Y-257.913 Z-11.355
N14770 X104.362 Y-257.948 Z-11.465
N14775 X104.406 Y-257.992 Z-11.568
N14780 X104.459 Y-258.045 Z-11.663
N14785 X104.519 Y-258.105 Z-11.749
N14790 X104.587 Y-258.172 Z-11.823
N14795 X104.66 Y-258.246 Z-11.885
N14800 X104.738 Y-258.323 Z-11.935
N14805 X104.819 Y-258.405 Z-11.971
N14810 X104.903 Y-258.489 Z-11.993
N14815 X104.988 Y-258.574 Z-12.
N14820 X105.342 Y-258.928
N14825 G2 Y-260.342 I-0.707 J-0.707
N14830 G3 X103.412 Y-265. I4.658 J-4.658
N14835 G1 Y-325.
N14840 G3 X110. Y-331.587 I6.588 J0.
N14845 G1 X180.
N14850 G3 X186.587 Y-325. I0. J6.587
N14855 G1 Y-265.
N14860 G3 X180. Y-258.413 I-6.587 J0.
N14865 G1 X110.
N14870 G3 X105.342 Y-260.342 I0. J-6.587
N14875 G2 X103.928 I-0.707 J0.707
N14880 G1 X103.574 Y-259.988
N14885 X103.489 Y-259.903 Z-11.993
N14890 X103.405 Y-259.819 Z-11.971
N14895 X103.323 Y-259.738 Z-11.935
N14900 X103.246 Y-259.66 Z-11.885
N14905 X103.172 Y-259.587 Z-11.823
N14910 X103.105 Y-259.519 Z-11.749
N14915 X103.045 Y-259.459 Z-11.663
N14920 X102.992 Y-259.406 Z-11.568
N14925 X102.948 Y-259.362 Z-11.465
N14930 X102.913 Y-259.327 Z-11.355
N14935 X102.888 Y-259.302 Z-11.239
N14940 X102.872 Y-259.286 Z-11.121
N14945 X102.867 Y-259.281 Z-11.
N14950 Z5.
N14955 X104.281 Y-257.867
N14960 Z-7.5 F150.
N14965 Z-14.
N14970 X104.286 Y-257.872 Z-14.121 F1000.
N14975 X104.302 Y-257.888 Z-14.239
N14980 X104.327 Y-257.913 Z-14.355
N14985 X104.362 Y-257.948 Z-14.465
N14990 X104.406 Y-257.992 Z-14.568
N14995 X104.459 Y-258.045 Z-14.663
N15000 X104.519 Y-258.105 Z-14.749
N15005 X104.587 Y-258.172 Z-14.823
N15010 X104.66 Y-258.246 Z-14.885
N15015 X104.738 Y-258.323 Z-14.935
N15020 X104.819 Y-258.405 Z-14.971
N15025 X104.903 Y-258.489 Z-14.993
N15030 X104.988 Y-258.574 Z-15.
N15035 X105.342 Y-258.928
N15040 G2 Y-260.342 I-0.707 J-0.707
N15045 G3 X103.412 Y-265. I4.658 J-4.658
N15050 G1 Y-325.
N15055 G3 X110. Y-331.587 I6.588 J0.
N15060 G1 X180.
N15065 G3 X186.587 Y-325. I0. J6.587
N15070 G1 Y-265.
N15075 G3 X180. Y-258.413 I-6.587 J0.
N15080 G1 X110.
N15085 G3 X105.342 Y-260.342 I0. J-6.587
N15090 G2 X103.928 I-0.707 J0.707
N15095 G1 X103.574 Y-259.988
N15100 X103.489 Y-259.903 Z-14.993
N15105 X103.405 Y-259.819 Z-14.971
N15110 X103.323 Y-259.738 Z-14.935
N15115 X103.246 Y-259.66 Z-14.885
N15120 X103.172 Y-259.587 Z-14.823
N15125 X103.105 Y-259.519 Z-14.749
N15130 X103.045 Y-259.459 Z-14.663
N15135 X102.992 Y-259.406 Z-14.568
N15140 X102.948 Y-259.362 Z-14.465
N15145 X102.913 Y-259.327 Z-14.355
N15150 X102.888 Y-259.302 Z-14.239
N15155 X102.872 Y-259.286 Z-14.121
N15160 X102.867 Y-259.281 Z-14.
N15165 Z5.
N15170 X104.281 Y-257.867
N15175 Z-10.5 F150.
N15180 Z-17.
N15185 X104.286 Y-257.872 Z-17.121 F1000.
N15190 X104.302 Y-257.888 Z-17.239
N15195 X104.327 Y-257.913 Z-17.355
N15200 X104.362 Y-257.948 Z-17.465
N15205 X104.406 Y-257.992 Z-17.568
N15210 X104.459 Y-258.045 Z-17.663
N15215 X104.519 Y-258.105 Z-17.749
N15220 X104.587 Y-258.172 Z-17.823
N15225 X104.66 Y-258.246 Z-17.885
N15230 X104.738 Y-258.323 Z-17.935
N15235 X104.819 Y-258.405 Z-17.971
N15240 X104.903 Y-258.489 Z-17.993
N15245 X104.988 Y-258.574 Z-18.
N15250 X105.342 Y-258.928
N15255 G2 Y-260.342 I-0.707 J-0.707
N15260 G3 X103.412 Y-265. I4.658 J-4.658
N15265 G1 Y-325.
N15270 G3 X110. Y-331.587 I6.588 J0.
N15275 G1 X180.
N15280 G3 X186.587 Y-325. I0. J6.587
N15285 G1 Y-265.
N15290 G3 X180. Y-258.413 I-6.587 J0.
N15295 G1 X110.
N15300 G3 X105.342 Y-260.342 I0. J-6.587
N15305 G2 X103.928 I-0.707 J0.707
N15310 G1 X103.574 Y-259.988
N15315 X103.489 Y-259.903 Z-17.993
N15320 X103.405 Y-259.819 Z-17.971
N15325 X103.323 Y-259.738 Z-17.935
N15330 X103.246 Y-259.66 Z-17.885
N15335 X103.172 Y-259.587 Z-17.823
N15340 X103.105 Y-259.519 Z-17.749
N15345 X103.045 Y-259.459 Z-17.663
N15350 X102.992 Y-259.406 Z-17.568
N15355 X102.948 Y-259.362 Z-17.465
N15360 X102.913 Y-259.327 Z-17.355
N15365 X102.888 Y-259.302 Z-17.239
N15370 X102.872 Y-259.286 Z-17.121
N15375 X102.867 Y-259.281 Z-17.
N15380 Z15.
N15385 G53 G0 Z0.
N15390 G53 G0 X0. Y0.
N15395 M30
%
