%
(BALL_END)
(T1  D=21.5 CR=10.75 - ZMIN=-100. - BALL END MILL)
N10 G90 G94 G17 G91.1
N15 G21
N20 G53 G0 Z0.
(ADAPTIVE1)
N25 T1 M6
N30 S18000 M3
N35 G54
N40 G0 X-2.21 Y-24.616
N45 G43 Z20. H1
N50 G0 Z10.
N55 Z-15.7
N60 G1 Z-17.85 F1000.
N65 X-2.209 Y-24.609 Z-18.028
N70 X-2.203 Y-24.588 Z-18.204
N75 X-2.194 Y-24.552 Z-18.378
N80 X-2.182 Y-24.503 Z-18.548
N85 X-2.166 Y-24.441 Z-18.714
N90 X-2.146 Y-24.365 Z-18.873
N95 X-2.124 Y-24.277 Z-19.026
N100 X-2.098 Y-24.177 Z-19.171
N105 X-2.069 Y-24.066 Z-19.306
N110 X-2.038 Y-23.944 Z-19.432
N115 X-2.005 Y-23.812 Z-19.547
N120 X-1.969 Y-23.672 Z-19.65
N125 X-1.931 Y-23.524 Z-19.741
N130 X-1.891 Y-23.37 Z-19.819
N135 X-1.85 Y-23.209 Z-19.884
N140 X-1.808 Y-23.044 Z-19.934
N145 X-1.765 Y-22.876 Z-19.971
N150 X-1.721 Y-22.705 Z-19.993
N155 X-1.677 Y-22.533 Z-20.
N160 G3 X0.006 Y-10.829 I-53.172 J13.62
N165 G1 Y-10.723 F6000.
N170 X-0.33 Y-9.075
N175 X-0.614 Y-7.417
N180 X-0.854 Y-5.751
N185 X-1.057 Y-4.081
N190 X-1.229 Y-2.407
N195 X-1.373 Y-0.731
N200 X-1.495 Y0.947
N205 X-1.597 Y2.626
N210 X-1.684 Y4.306
N215 X-1.757 Y5.987
N220 X-1.818 Y7.669
N225 X-1.869 Y9.35
N230 X-1.912 Y11.032
N235 X-1.949 Y12.714
N240 X-1.979 Y14.397
N245 X-2.005 Y16.079
N250 X-2.027 Y17.761
N255 X-2.045 Y19.444
N260 X-2.06 Y21.126
N265 X-2.073 Y22.808
N270 X-2.084 Y24.491
N275 X-2.093 Y26.173
N280 X-2.101 Y27.856
N285 X-2.107 Y29.538
N290 X-2.117 Y32.903
N295 X-2.124 Y36.268
N300 X-2.129 Y39.633
N305 X-2.134 Y44.681
N310 X-2.138 Y53.093
N315 X-2.141 Y68.235
N320 Y90.107
N325 Y140.582
N330 X-2.142 Y191.056
N335 Y241.53
N340 Y292.005
N345 Y342.479
N350 X-2.143 Y392.953
N355 Y443.428
N360 Y493.902
N365 Y544.376
N370 Y594.851
N375 X-2.144 Y640.278
N380 X-1.736 Y641.91
N385 X-0.899 Y643.369
N390 X-0.685 Y643.732
N395 X-0.485 Y644.101
N400 X-0.256 Y644.454
N405 X0. Y644.788
N410 X1.126 Y646.039
N415 X2.536 Y646.956
N420 X4.024 Y647.742
N425 X5.566 Y648.414
N430 X7.148 Y648.986
N435 X8.759 Y649.473
N440 X10.39 Y649.886
N445 X12.035 Y650.236
N450 X13.692 Y650.533
N455 X15.355 Y650.784
N460 X17.024 Y650.995
N465 X18.697 Y651.174
N470 X20.373 Y651.325
N475 X22.051 Y651.452
N480 X23.73 Y651.559
N485 X25.41 Y651.649
N490 X27.091 Y651.725
N495 X28.772 Y651.789
N500 X30.453 Y651.843
N505 X32.135 Y651.888
N510 X33.817 Y651.926
N515 X35.5 Y651.958
N520 X37.182 Y651.985
N525 X38.864 Y652.008
N530 X40.547 Y652.027
N535 X42.229 Y652.043
N540 X43.911 Y652.056
N545 X45.594 Y652.067
N550 X47.276 Y652.077
N555 X48.959 Y652.085
N560 X50.641 Y652.092
N565 X54.006 Y652.102
N570 X57.371 Y652.11
N575 X62.418 Y652.117
N580 X69.148 Y652.122
N585 X79.243 Y652.126
N590 X99.433 Y652.128
N595 X149.907 Y652.13
N600 X200.382 Y652.131
N605 X250.856 Y652.133
N610 X301.33 Y652.134
N615 X351.805 Y652.135
N620 X402.279 Y652.137
N625 X452.753 Y652.138
N630 X503.228 Y652.14
N635 X553.702 Y652.141
N640 X604.176 Y652.142
N645 X639.508 Y652.143
N650 X639.929 Y652.131
N655 X640.347 Y652.087
N660 X640.76 Y652.009
N665 X641.166 Y651.9
N670 X642.752 Y651.336
N675 X644.137 Y650.382
N680 X645.369 Y649.235
N685 X646.379 Y647.89
N690 X647.248 Y646.449
N695 X647.992 Y644.94
N700 X648.627 Y643.382
N705 X649.167 Y641.789
N710 X649.627 Y640.17
N715 X650.017 Y638.534
N720 X650.347 Y636.884
N725 X650.627 Y635.225
N730 X650.863 Y633.559
N735 X651.062 Y631.888
N740 X651.23 Y630.214
N745 X651.372 Y628.538
N750 X651.492 Y626.86
N755 X651.593 Y625.18
N760 X651.677 Y623.5
N765 X651.749 Y621.819
N770 X651.809 Y620.138
N775 X651.86 Y618.456
N780 X651.902 Y616.774
N785 X651.938 Y615.092
N790 X651.968 Y613.41
N795 X651.993 Y611.727
N800 X652.015 Y610.045
N805 X652.033 Y608.363
N810 X652.048 Y606.68
N815 X652.06 Y604.998
N820 X652.071 Y603.315
N825 X652.08 Y601.633
N830 X652.088 Y599.95
N835 X652.094 Y598.268
N840 X652.104 Y594.903
N845 X652.111 Y591.538
N850 X652.118 Y586.491
N855 X652.123 Y579.761
N860 X652.126 Y569.666
N865 X652.128 Y544.429
N870 X652.129 Y541.064
N875 X652.13 Y490.589
N880 X652.131 Y440.115
N885 X652.133 Y389.641
N890 X652.134 Y339.166
N895 X652.136 Y288.692
N900 X652.137 Y238.218
N905 X652.138 Y187.743
N910 X652.14 Y137.269
N915 X652.141 Y86.795
N920 X652.143 Y36.321
N925 Y9.401
N930 X651.631 Y7.798
N935 X650.735 Y6.374
N940 X650.532 Y6.006
N945 X650.3 Y5.655
N950 X649.265 Y4.328
N955 X647.889 Y3.36
N960 X646.427 Y2.528
N965 X644.902 Y1.817
N970 X643.333 Y1.211
N975 X641.731 Y0.694
N980 X640.107 Y0.256
N985 X638.466 Y-0.116
N990 X636.813 Y-0.431
N995 X635.152 Y-0.698
N1000 X633.485 Y-0.923
N1005 X631.813 Y-1.113
N1010 X630.138 Y-1.273
N1015 X628.461 Y-1.408
N1020 X626.783 Y-1.522
N1025 X625.103 Y-1.618
N1030 X623.422 Y-1.699
N1035 X621.741 Y-1.767
N1040 X620.06 Y-1.824
N1045 X618.378 Y-1.872
N1050 X616.696 Y-1.912
N1055 X615.014 Y-1.947
N1060 X613.332 Y-1.975
N1065 X611.649 Y-1.999
N1070 X609.967 Y-2.02
N1075 X608.285 Y-2.037
N1080 X606.602 Y-2.051
N1085 X604.92 Y-2.063
N1090 X603.237 Y-2.073
N1095 X601.555 Y-2.082
N1100 X599.872 Y-2.089
N1105 X596.507 Y-2.1
N1110 X593.142 Y-2.108
N1115 X588.095 Y-2.115
N1120 X581.365 Y-2.121
N1125 X571.27 Y-2.125
N1130 X549.398 Y-2.127
N1135 X530.891
N1140 X480.416 Y-2.128
N1145 X429.942
N1150 X379.468 Y-2.129
N1155 X328.994 Y-2.13
N1160 X278.519
N1165 X228.045 Y-2.131
N1170 X177.571
N1175 X127.096 Y-2.132
N1180 X76.622 Y-2.133
N1185 X26.148
N1190 X19.418
N1195 X17.749 Y-1.915
N1200 X16.22 Y-1.213
N1205 X14.818 Y-0.284
N1210 X13.292 Y0.424
N1215 X11.695 Y0.956
N1220 X11.286 Y1.054
N1225 X10.876 Y1.146
N1230 X10.474 Y1.269
N1235 X10.083 Y1.424
N1240 X9.705 Y1.608
N1245 X9.342 Y1.822
N1250 X8.998 Y2.063
N1255 X8.673 Y2.331
N1260 X8.371 Y2.623
N1265 X8.092 Y2.938
N1270 X7.838 Y3.274
N1275 X7.612 Y3.628
N1280 X7.414 Y3.999
N1285 X7.246 Y4.385
N1290 X7.108 Y4.782
N1295 X6.683 Y6.41
N1300 X6.618 Y13.14
N1305 X6.585 Y16.505
N1310 X6.569 Y18.187
N1315 X6.555 Y19.869
N1320 X6.542 Y21.552
N1325 X6.53 Y23.234
N1330 X6.52 Y24.917
N1335 X6.511 Y26.599
N1340 X6.503 Y28.282
N1345 X6.491 Y31.647
N1350 X6.486 Y33.329
N1355 X6.478 Y36.694
N1360 X6.47 Y41.741
N1365 X6.465 Y48.471
N1370 X6.461 Y58.566
N1375 X6.459 Y80.438
N1380 Y83.803
N1385 Y134.278
N1390 X6.458 Y184.752
N1395 Y235.226
N1400 Y285.701
N1405 Y336.175
N1410 X6.457 Y386.649
N1415 Y437.124
N1420 Y487.598
N1425 Y538.072
N1430 Y588.547
N1435 X6.456 Y633.973
N1440 X6.48 Y634.814
N1445 X6.532 Y635.232
N1450 X6.616 Y635.644
N1455 X6.732 Y636.048
N1460 X6.879 Y636.442
N1465 X7.057 Y636.823
N1470 X7.264 Y637.19
N1475 X7.499 Y637.538
N1480 X7.76 Y637.868
N1485 X8.906 Y639.1
N1490 X8.998 Y639.152
N1495 X10.465 Y639.974
N1500 X12.015 Y640.63
N1505 X13.614 Y641.154
N1510 X15.242 Y641.576
N1515 X16.89 Y641.919
N1520 X18.549 Y642.198
N1525 X20.216 Y642.426
N1530 X21.888 Y642.614
N1535 X23.563 Y642.768
N1540 X25.241 Y642.895
N1545 X26.92 Y643.
N1550 X28.6 Y643.087
N1555 X30.281 Y643.159
N1560 X31.962 Y643.22
N1565 X33.644 Y643.27
N1570 X35.326 Y643.312
N1575 X37.008 Y643.347
N1580 X38.69 Y643.376
N1585 X40.373 Y643.4
N1590 X42.055 Y643.421
N1595 X43.737 Y643.438
N1600 X45.42 Y643.452
N1605 X47.102 Y643.464
N1610 X48.785 Y643.474
N1615 X50.467 Y643.483
N1620 X52.15 Y643.49
N1625 X55.515 Y643.501
N1630 X58.88 Y643.509
N1635 X63.927 Y643.516
N1640 X70.657 Y643.522
N1645 X80.752 Y643.526
N1650 X104.306 Y643.528
N1655 X109.354 Y643.529
N1660 X159.828 Y643.53
N1665 X210.303 Y643.531
N1670 X260.777 Y643.533
N1675 X311.251 Y643.534
N1680 X361.725 Y643.536
N1685 X412.2 Y643.537
N1690 X462.674 Y643.539
N1695 X513.148 Y643.54
N1700 X563.623 Y643.541
N1705 X614.097 Y643.543
N1710 X634.287
N1715 X634.706 Y643.515
N1720 X635.123 Y643.453
N1725 X635.533 Y643.359
N1730 X635.934 Y643.234
N1735 X636.324 Y643.077
N1740 X636.701 Y642.891
N1745 X637.063 Y642.675
N1750 X637.406 Y642.432
N1755 X638.699 Y641.355
N1760 X638.755 Y641.266
N1765 X639.647 Y639.84
N1770 X640.36 Y638.316
N1775 X640.931 Y636.733
N1780 X641.392 Y635.115
N1785 X641.767 Y633.475
N1790 X642.072 Y631.82
N1795 X642.322 Y630.157
N1800 X642.527 Y628.487
N1805 X642.695 Y626.813
N1810 X642.835 Y625.136
N1815 X642.95 Y623.457
N1820 X643.045 Y621.778
N1825 X643.124 Y620.097
N1830 X643.19 Y618.416
N1835 X643.245 Y616.734
N1840 X643.291 Y615.052
N1845 X643.329 Y613.37
N1850 X643.361 Y611.688
N1855 X643.388 Y610.006
N1860 X643.411 Y608.324
N1865 X643.429 Y606.641
N1870 X643.445 Y604.959
N1875 X643.458 Y603.276
N1880 X643.469 Y601.594
N1885 X643.479 Y599.911
N1890 X643.486 Y598.229
N1895 X643.493 Y596.547
N1900 X643.503 Y593.182
N1905 X643.51 Y589.817
N1910 X643.517 Y584.769
N1915 X643.523 Y578.039
N1920 X643.526 Y567.944
N1925 Y566.262
N1930 X643.529 Y535.977
N1935 Y515.788
N1940 X643.531 Y465.313
N1945 X643.532 Y414.839
N1950 X643.534 Y364.365
N1955 X643.535 Y313.89
N1960 X643.536 Y263.416
N1965 X643.538 Y212.942
N1970 X643.539 Y162.467
N1975 X643.541 Y111.993
N1980 X643.542 Y61.519
N1985 X643.543 Y16.092
N1990 X643.53 Y15.251
N1995 X643.479 Y14.833
N2000 X643.395 Y14.421
N2005 X643.28 Y14.017
N2010 X643.133 Y13.623
N2015 X642.955 Y13.241
N2020 X642.749 Y12.875
N2025 X642.514 Y12.526
N2030 X642.253 Y12.196
N2035 X641.108 Y10.963
N2040 X639.653 Y10.118
N2045 X638.111 Y9.446
N2050 X636.516 Y8.908
N2055 X634.891 Y8.474
N2060 X633.246 Y8.122
N2065 X631.588 Y7.836
N2070 X629.922 Y7.602
N2075 X628.25 Y7.41
N2080 X626.575 Y7.252
N2085 X624.898 Y7.122
N2090 X623.219 Y7.014
N2095 X621.539 Y6.925
N2100 X619.858 Y6.851
N2105 X618.176 Y6.789
N2110 X616.495 Y6.737
N2115 X614.813 Y6.694
N2120 X613.131 Y6.659
N2125 X611.448 Y6.629
N2130 X609.766 Y6.604
N2135 X608.084 Y6.583
N2140 X606.401 Y6.565
N2145 X604.719 Y6.55
N2150 X603.037 Y6.538
N2155 X601.354 Y6.528
N2160 X599.672 Y6.519
N2165 X597.989 Y6.512
N2170 X594.624 Y6.501
N2175 X591.259 Y6.493
N2180 X586.212 Y6.485
N2185 X579.482 Y6.479
N2190 X569.387 Y6.475
N2195 X547.515 Y6.473
N2200 X540.785
N2205 X490.311 Y6.472
N2210 X439.836
N2215 X389.362 Y6.471
N2220 X338.888
N2225 X288.413 Y6.47
N2230 X237.939 Y6.469
N2235 X187.465
N2240 X136.99 Y6.468
N2245 X86.516 Y6.467
N2250 X36.042
N2255 X24.264
N2260 X22.599 Y6.707
N2265 X20.969 Y7.125
N2270 X19.357 Y7.605
N2275 X18.955 Y7.727
N2280 X18.563 Y7.881
N2285 X18.184 Y8.064
N2290 X17.821 Y8.277
N2295 X17.476 Y8.517
N2300 X17.151 Y8.783
N2305 X16.847 Y9.074
N2310 X16.567 Y9.388
N2315 X16.313 Y9.723
N2320 X16.085 Y10.077
N2325 X15.886 Y10.447
N2330 X15.716 Y10.832
N2335 X15.577 Y11.229
N2340 X15.147 Y12.856
N2345 X15.144 Y14.538
N2350 X15.135 Y17.903
N2355 X15.098 Y29.68
N2360 X15.084 Y34.728
N2365 X15.075 Y39.775
N2370 X15.069 Y44.823
N2375 X15.064 Y51.553
N2380 X15.061 Y61.648
N2385 X15.059 Y86.885
N2390 Y90.25
N2395 Y140.724
N2400 X15.058 Y191.198
N2405 Y241.673
N2410 Y292.147
N2415 Y342.621
N2420 X15.057 Y393.096
N2425 Y443.57
N2430 Y494.044
N2435 Y544.518
N2440 Y594.993
N2445 Y596.675
N2450 X15.118 Y597.514
N2455 X15.195 Y598.665
N2460 X15.273 Y599.959
N2465 X15.35 Y601.436
N2470 X15.426 Y603.117
N2475 X15.49 Y604.798
N2480 X15.544 Y606.48
N2485 X15.589 Y608.162
N2490 X15.627 Y609.844
N2495 X15.66 Y611.526
N2500 X15.687 Y613.208
N2505 X15.709 Y614.891
N2510 X15.728 Y616.573
N2515 X15.744 Y618.255
N2520 X15.758 Y619.938
N2525 X15.769 Y621.62
N2530 X15.788 Y623.302
N2535 X15.801 Y624.985
N2540 X15.81 Y626.667
N2545 X15.818 Y628.77
N2550 X15.852 Y629.19
N2555 X15.918 Y629.605
N2560 X16.017 Y630.014
N2565 X16.148 Y630.414
N2570 X16.309 Y630.802
N2575 X16.5 Y631.177
N2580 X16.721 Y631.535
N2585 X16.968 Y631.875
N2590 X17.241 Y632.195
N2595 X17.538 Y632.493
N2600 X17.858 Y632.766
N2605 X18.198 Y633.013
N2610 X18.557 Y633.233
N2615 X18.931 Y633.425
N2620 X19.32 Y633.586
N2625 X19.72 Y633.717
N2630 X21.355 Y634.113
N2635 X22.716 Y634.078
N2640 X24.398 Y634.047
N2645 X26.08 Y634.028
N2650 X27.763 Y634.018
N2655 X29.445 Y634.015
N2660 X31.128 Y634.016
N2665 X32.796 Y634.231
N2670 X34.471 Y634.39
N2675 X36.149 Y634.51
N2680 X37.83 Y634.6
N2685 X39.511 Y634.669
N2690 X41.192 Y634.722
N2695 X42.874 Y634.763
N2700 X44.556 Y634.795
N2705 X46.239 Y634.821
N2710 X47.921 Y634.841
N2715 X49.603 Y634.857
N2720 X51.286 Y634.869
N2725 X52.968 Y634.88
N2730 X54.651 Y634.888
N2735 X56.333 Y634.895
N2740 X59.698 Y634.905
N2745 X63.063 Y634.912
N2750 X68.111 Y634.919
N2755 X74.84 Y634.923
N2760 X79.888 Y634.925
N2765 X96.713 Y634.928
N2770 X130.362 Y634.929
N2775 X180.837 Y634.931
N2780 X231.311 Y634.932
N2785 X281.785 Y634.933
N2790 X332.259 Y634.935
N2795 X382.734 Y634.936
N2800 X433.208 Y634.938
N2805 X483.682 Y634.939
N2810 X534.157 Y634.94
N2815 X584.631 Y634.942
N2820 X586.314
N2825 X587.153 Y634.881
N2830 X588.303 Y634.803
N2835 X589.597 Y634.726
N2840 X591.074 Y634.648
N2845 X592.755 Y634.572
N2850 X594.436 Y634.508
N2855 X596.118 Y634.455
N2860 X597.8 Y634.409
N2865 X599.482 Y634.371
N2870 X601.164 Y634.339
N2875 X602.846 Y634.312
N2880 X604.529 Y634.29
N2885 X606.211 Y634.271
N2890 X607.893 Y634.255
N2895 X609.576 Y634.241
N2900 X611.258 Y634.23
N2905 X612.941 Y634.22
N2910 X614.623 Y634.212
N2915 X616.306 Y634.205
N2920 X619.671 Y634.195
N2925 X621.353 Y634.191
N2930 X623.036 Y634.184
N2935 X624.718 Y634.179
N2940 X628.083 Y634.174
N2945 X628.504
N2950 X628.923 Y634.142
N2955 X629.339 Y634.077
N2960 X629.748 Y633.98
N2965 X630.148 Y633.851
N2970 X630.537 Y633.691
N2975 X630.913 Y633.502
N2980 X631.272 Y633.283
N2985 X631.614 Y633.038
N2990 X631.935 Y632.766
N2995 X632.234 Y632.47
N3000 X632.508 Y632.151
N3005 X632.757 Y631.812
N3010 X632.979 Y631.455
N3015 X633.172 Y631.081
N3020 X633.335 Y630.694
N3025 X633.865 Y629.097
N3030 X634.003 Y627.42
N3035 X634.13 Y625.742
N3040 X634.244 Y624.064
N3045 X634.344 Y622.384
N3050 X634.432 Y620.704
N3055 X634.507 Y619.023
N3060 X634.572 Y617.342
N3065 X634.628 Y615.66
N3070 X634.675 Y613.979
N3075 X634.714 Y612.297
N3080 X634.748 Y610.614
N3085 X634.777 Y608.932
N3090 X634.801 Y607.25
N3095 X634.821 Y605.567
N3100 X634.838 Y603.885
N3105 X634.852 Y602.203
N3110 X634.864 Y600.52
N3115 X634.874 Y598.838
N3120 X634.883 Y597.155
N3125 X634.89 Y595.473
N3130 X634.901 Y592.108
N3135 X634.909 Y588.743
N3140 X634.916 Y583.696
N3145 X634.92 Y580.331
N3150 X634.924 Y571.918
N3155 X634.927 Y556.776
N3160 X634.929 Y529.856
N3165 X634.93 Y479.382
N3170 X634.932 Y428.908
N3175 X634.933 Y378.433
N3180 X634.935 Y327.959
N3185 X634.936 Y277.485
N3190 X634.937 Y227.01
N3195 X634.939 Y176.536
N3200 X634.94 Y126.062
N3205 X634.942 Y75.587
N3210 X634.943 Y25.113
N3215 Y23.431
N3220 X634.885 Y23.014
N3225 X634.802 Y22.366
N3230 X634.706 Y21.53
N3235 X634.605 Y21.122
N3240 X634.472 Y20.723
N3245 X634.309 Y20.335
N3250 X634.115 Y19.962
N3255 X633.893 Y19.604
N3260 X633.644 Y19.266
N3265 X633.369 Y18.947
N3270 X633.07 Y18.652
N3275 X632.748 Y18.38
N3280 X632.407 Y18.135
N3285 X632.047 Y17.917
N3290 X631.671 Y17.727
N3295 X630.114 Y17.09
N3300 X628.441 Y16.91
N3305 X626.767 Y16.75
N3310 X625.09 Y16.61
N3315 X623.412 Y16.491
N3320 X621.732 Y16.388
N3325 X620.052 Y16.302
N3330 X618.371 Y16.229
N3335 X616.69 Y16.167
N3340 X615.008 Y16.115
N3345 X613.326 Y16.072
N3350 X611.644 Y16.036
N3355 X609.962 Y16.005
N3360 X608.28 Y15.98
N3365 X606.597 Y15.958
N3370 X604.915 Y15.941
N3375 X603.232 Y15.926
N3380 X601.55 Y15.913
N3385 X599.868 Y15.902
N3390 X598.185 Y15.894
N3395 X596.503 Y15.886
N3400 X593.138 Y15.875
N3405 X589.773 Y15.867
N3410 X588.09 Y15.864
N3415 X586.424 Y15.629
N3420 X584.75 Y15.466
N3425 X583.071 Y15.352
N3430 X581.391 Y15.272
N3435 X579.709 Y15.215
N3440 X578.027 Y15.174
N3445 X576.345 Y15.146
N3450 X574.662 Y15.125
N3455 X572.98 Y15.111
N3460 X571.298 Y15.1
N3465 X569.615 Y15.093
N3470 X567.933 Y15.087
N3475 X566.25 Y15.084
N3480 X562.885 Y15.079
N3485 X557.838 Y15.076
N3490 X546.06 Y15.073
N3495 X539.331
N3500 X488.856 Y15.072
N3505 X438.382
N3510 X387.908 Y15.071
N3515 X337.433
N3520 X286.959 Y15.07
N3525 X236.485 Y15.069
N3530 X186.01
N3535 X135.536 Y15.068
N3540 X85.062 Y15.067
N3545 X34.587
N3550 X32.905
N3555 X32.488 Y15.125
N3560 X31.84 Y15.208
N3565 X31.112 Y15.291
N3570 X29.438 Y15.457
N3575 X27.763 Y15.617
N3580 X27.244 Y15.699
N3585 X26.835 Y15.797
N3590 X26.435 Y15.926
N3595 X26.046 Y16.086
N3600 X25.671 Y16.277
N3605 X25.312 Y16.496
N3610 X24.971 Y16.742
N3615 X24.65 Y17.014
N3620 X24.352 Y17.311
N3625 X24.078 Y17.63
N3630 X23.829 Y17.969
N3635 X23.608 Y18.327
N3640 X23.416 Y18.701
N3645 X23.253 Y19.089
N3650 X23.121 Y19.488
N3655 X23.021 Y19.897
N3660 X22.953 Y20.312
N3665 X22.812 Y21.989
N3670 X22.887 Y22.458
N3675 X22.961 Y22.952
N3680 X23.036 Y23.474
N3685 X23.111 Y24.024
N3690 X23.186 Y24.608
N3695 X23.261 Y25.228
N3700 X23.336 Y25.89
N3705 X23.412 Y26.6
N3710 X23.487 Y27.363
N3715 X23.563 Y28.191
N3720 X23.638 Y29.091
N3725 X23.714 Y30.081
N3730 X23.79 Y31.176
N3735 X23.866 Y32.404
N3740 X23.942 Y33.8
N3745 X24.018 Y35.415
N3750 X24.085 Y37.096
N3755 X24.142 Y38.777
N3760 X24.189 Y40.459
N3765 X24.228 Y42.141
N3770 X24.261 Y43.823
N3775 X24.289 Y45.505
N3780 X24.312 Y47.188
N3785 X24.332 Y48.87
N3790 X24.348 Y50.553
N3795 X24.362 Y52.235
N3800 X24.373 Y53.917
N3805 X24.383 Y55.6
N3810 X24.391 Y57.282
N3815 X24.398 Y58.965
N3820 X24.177 Y60.633
N3825 X24.024 Y62.308
N3830 X23.917 Y63.987
N3835 X23.841 Y65.668
N3840 X23.788 Y67.35
N3845 X23.75 Y69.032
N3850 X23.724 Y70.714
N3855 X23.705 Y72.396
N3860 X23.692 Y74.079
N3865 X23.682 Y75.761
N3870 X23.675 Y77.444
N3875 X23.671 Y79.126
N3880 X23.665 Y82.491
N3885 X23.661 Y87.539
N3890 X23.659 Y97.633
N3895 Y107.728
N3900 X23.658 Y158.203
N3905 Y208.677
N3910 Y259.151
N3915 Y309.626
N3920 Y360.1
N3925 X23.657 Y410.574
N3930 Y461.049
N3935 Y511.523
N3940 Y561.997
N3945 Y592.282
N3950 X23.69 Y593.964
N3955 X23.743 Y595.646
N3960 X23.806 Y597.327
N3965 X23.866 Y599.008
N3970 X23.923 Y600.69
N3975 X23.976 Y602.371
N3980 X24.025 Y604.053
N3985 X24.07 Y605.735
N3990 X24.111 Y607.417
N3995 X24.148 Y609.099
N4000 X24.181 Y610.781
N4005 X24.211 Y612.464
N4010 X24.239 Y614.146
N4015 X24.327 Y614.696
N4020 X24.415 Y615.302
N4025 X24.503 Y615.981
N4030 X24.595 Y616.772
N4035 X24.687 Y617.684
N4040 X24.777 Y618.724
N4045 X24.866 Y619.97
N4050 X24.954 Y621.516
N4055 X24.976 Y622.042
N4060 X24.992 Y622.462
N4065 X25.041 Y622.88
N4070 X25.123 Y623.292
N4075 X25.237 Y623.697
N4080 X25.382 Y624.092
N4085 X25.557 Y624.474
N4090 X25.762 Y624.842
N4095 X25.995 Y625.192
N4100 X26.254 Y625.523
N4105 X26.539 Y625.833
N4110 X26.847 Y626.119
N4115 X27.176 Y626.381
N4120 X27.525 Y626.616
N4125 X27.891 Y626.823
N4130 X28.272 Y627.
N4135 X28.666 Y627.148
N4140 X29.071 Y627.264
N4145 X29.483 Y627.348
N4150 X29.9 Y627.4
N4155 X31.581 Y627.475
N4160 X31.903 Y627.409
N4165 X32.238 Y627.343
N4170 X32.585 Y627.277
N4175 X32.948 Y627.21
N4180 X33.335 Y627.143
N4185 X33.737 Y627.075
N4190 X34.158 Y627.008
N4195 X34.604 Y626.94
N4200 X35.078 Y626.872
N4205 X35.576 Y626.803
N4210 X36.103 Y626.735
N4215 X36.671 Y626.665
N4220 X37.273 Y626.596
N4225 X37.921 Y626.526
N4230 X38.621 Y626.456
N4235 X39.377 Y626.386
N4240 X40.205 Y626.315
N4245 X41.112 Y626.245
N4250 X42.119 Y626.174
N4255 X43.248 Y626.102
N4260 X44.529 Y626.031
N4265 X46.01 Y625.959
N4270 X47.691 Y625.89
N4275 X49.372 Y625.832
N4280 X51.054 Y625.785
N4285 X52.736 Y625.745
N4290 X54.418 Y625.713
N4295 X56.101 Y625.686
N4300 X57.783 Y625.663
N4305 X59.465 Y625.644
N4310 X61.148 Y625.629
N4315 X62.83 Y625.616
N4320 X64.513 Y625.605
N4325 X66.181 Y625.819
N4330 X67.857 Y625.968
N4335 X69.537 Y626.072
N4340 X71.217 Y626.146
N4345 X72.899 Y626.198
N4350 X74.581 Y626.235
N4355 X76.263 Y626.261
N4360 X77.946 Y626.28
N4365 X79.628 Y626.294
N4370 X81.311 Y626.303
N4375 X82.993 Y626.31
N4380 X84.676 Y626.315
N4385 X88.041 Y626.321
N4390 X93.088 Y626.325
N4395 X103.183 Y626.328
N4400 X113.278 Y626.329
N4405 X163.752 Y626.33
N4410 X214.226 Y626.332
N4415 X264.701 Y626.333
N4420 X315.175 Y626.334
N4425 X365.649 Y626.336
N4430 X416.124 Y626.337
N4435 X466.598 Y626.339
N4440 X517.072 Y626.34
N4445 X567.547 Y626.341
N4450 X581.006 Y626.342
N4455 X582.689 Y626.327
N4460 X584.371 Y626.284
N4465 X586.052 Y626.226
N4470 X587.734 Y626.164
N4475 X589.415 Y626.105
N4480 X591.097 Y626.05
N4485 X592.778 Y625.999
N4490 X594.46 Y625.952
N4495 X596.142 Y625.909
N4500 X597.824 Y625.87
N4505 X599.506 Y625.835
N4510 X601.188 Y625.804
N4515 X602.871 Y625.775
N4520 X604.553 Y625.75
N4525 X606.235 Y625.728
N4530 X607.918 Y625.708
N4535 X609.6 Y625.69
N4540 X611.282 Y625.675
N4545 X612.965 Y625.661
N4550 X614.647 Y625.649
N4555 X616.33 Y625.632
N4560 X618.012 Y625.619
N4565 X619.695 Y625.608
N4570 X620.284 Y625.523
N4575 X620.936 Y625.439
N4580 X621.301 Y625.397
N4585 X621.615 Y625.364
N4590 X622.033 Y625.321
N4595 X622.447 Y625.246
N4600 X622.854 Y625.139
N4605 X623.251 Y625.
N4610 X623.636 Y624.831
N4615 X624.007 Y624.632
N4620 X624.361 Y624.404
N4625 X624.696 Y624.15
N4630 X625.01 Y623.87
N4635 X625.301 Y623.567
N4640 X625.568 Y623.242
N4645 X625.808 Y622.896
N4650 X626.021 Y622.534
N4655 X626.205 Y622.155
N4660 X626.358 Y621.764
N4665 X626.481 Y621.361
N4670 X626.571 Y620.951
N4675 X626.804 Y619.284
N4680 X626.736 Y618.774
N4685 X626.667 Y618.232
N4690 X626.599 Y617.66
N4695 X626.53 Y617.043
N4700 X626.462 Y616.383
N4705 X626.393 Y615.672
N4710 X626.324 Y614.898
N4715 X626.255 Y614.056
N4720 X626.186 Y613.127
N4725 X626.116 Y612.094
N4730 X626.047 Y610.936
N4735 X625.977 Y609.608
N4740 X625.908 Y608.063
N4745 X625.844 Y606.382
N4750 X625.792 Y604.7
N4755 X625.749 Y603.018
N4760 X625.714 Y601.336
N4765 X625.685 Y599.654
N4770 X625.661 Y597.972
N4775 X625.642 Y596.289
N4780 X625.626 Y594.607
N4785 X625.612 Y592.924
N4790 X625.602 Y591.242
N4795 X625.593 Y589.56
N4800 X625.585 Y587.877
N4805 X625.58 Y586.195
N4810 X625.571 Y582.83
N4815 X625.568 Y581.147
N4820 X625.565 Y579.465
N4825 X625.792 Y577.798
N4830 X625.95 Y576.123
N4835 X626.06 Y574.444
N4840 X626.138 Y572.763
N4845 X626.193 Y571.082
N4850 X626.232 Y569.4
N4855 X626.26 Y567.717
N4860 X626.279 Y566.035
N4865 X626.293 Y564.352
N4870 X626.303 Y562.67
N4875 X626.31 Y560.988
N4880 X626.315 Y559.305
N4885 X626.319 Y557.623
N4890 X626.323 Y554.258
N4895 X626.327 Y549.21
N4900 X626.329 Y535.75
N4905 Y530.703
N4910 X626.33 Y480.229
N4915 X626.332 Y429.754
N4920 X626.333 Y379.28
N4925 X626.335 Y328.806
N4930 X626.336 Y278.331
N4935 X626.337 Y227.857
N4940 X626.339 Y177.383
N4945 X626.34 Y126.908
N4950 X626.342 Y76.434
N4955 X626.343 Y29.325
N4960 X626.34 Y28.904
N4965 X626.304 Y28.485
N4970 X626.235 Y28.07
N4975 X626.134 Y27.662
N4980 X626.001 Y27.263
N4985 X625.838 Y26.875
N4990 X625.645 Y26.501
N4995 X625.423 Y26.144
N5000 X625.174 Y25.805
N5005 X624.899 Y25.487
N5010 X624.6 Y25.191
N5015 X624.279 Y24.919
N5020 X623.938 Y24.673
N5025 X623.578 Y24.455
N5030 X623.203 Y24.265
N5035 X622.814 Y24.106
N5040 X622.413 Y23.977
N5045 X622.004 Y23.88
N5050 X621.588 Y23.816
N5055 X619.911 Y23.688
N5060 X619.485 Y23.757
N5065 X619.04 Y23.826
N5070 X618.573 Y23.894
N5075 X618.076 Y23.964
N5080 X617.55 Y24.033
N5085 X616.995 Y24.102
N5090 X616.399 Y24.172
N5095 X615.763 Y24.242
N5100 X615.08 Y24.311
N5105 X614.34 Y24.382
N5110 X613.539 Y24.452
N5115 X612.659 Y24.522
N5120 X611.69 Y24.593
N5125 X610.609 Y24.663
N5130 X609.387 Y24.734
N5135 X607.986 Y24.805
N5140 X606.345 Y24.876
N5145 X604.663 Y24.936
N5150 X602.982 Y24.986
N5155 X601.3 Y25.027
N5160 X599.618 Y25.061
N5165 X597.935 Y25.09
N5170 X597.515 Y25.094
N5175 X596.971 Y25.098
N5180 X596.422
N5185 X595.842 Y25.093
N5190 X594.902 Y25.079
N5195 X593.417 Y25.046
N5200 X591.736 Y24.995
N5205 X588.373 Y24.883
N5210 X586.691 Y24.83
N5215 X585.009 Y24.774
N5220 X583.328 Y24.717
N5225 X581.646 Y24.665
N5230 X579.964 Y24.619
N5235 X578.282 Y24.582
N5240 X576.6 Y24.551
N5245 X574.918 Y24.527
N5250 X573.254 Y24.277
N5255 X571.581 Y24.102
N5260 X569.903 Y23.978
N5265 X568.223 Y23.891
N5270 X566.541 Y23.828
N5275 X564.859 Y23.784
N5280 X563.177 Y23.753
N5285 X561.495 Y23.73
N5290 X559.813 Y23.714
N5295 X558.13 Y23.702
N5300 X556.448 Y23.694
N5305 X554.765 Y23.688
N5310 X553.083 Y23.684
N5315 X549.718 Y23.679
N5320 X544.67 Y23.675
N5325 X532.893 Y23.673
N5330 X526.163
N5335 X475.689 Y23.672
N5340 X425.214
N5345 X374.74 Y23.671
N5350 X324.266 Y23.67
N5355 X273.792
N5360 X223.317 Y23.669
N5365 X172.843 Y23.668
N5370 X122.369
N5375 X71.894 Y23.667
N5380 X70.212
N5385 X69.373 Y23.729
N5390 X68.222 Y23.806
N5395 X66.928 Y23.883
N5400 X65.451 Y23.961
N5405 X63.77 Y24.037
N5410 X62.089 Y24.101
N5415 X60.407 Y24.155
N5420 X58.725 Y24.2
N5425 X57.043 Y24.238
N5430 X55.361 Y24.27
N5435 X53.679 Y24.297
N5440 X51.997 Y24.32
N5445 X50.314 Y24.339
N5450 X48.632 Y24.355
N5455 X46.949 Y24.369
N5460 X45.267 Y24.38
N5465 X43.584 Y24.39
N5470 X41.902 Y24.405
N5475 X40.22 Y24.416
N5480 X38.537 Y24.424
N5485 X36.855 Y24.438
N5490 X36.014 Y24.475
N5495 X34.859 Y24.538
N5500 X34.439 Y24.564
N5505 X34.023 Y24.622
N5510 X33.612 Y24.713
N5515 X33.21 Y24.836
N5520 X32.819 Y24.99
N5525 X32.44 Y25.174
N5530 X32.078 Y25.387
N5535 X31.733 Y25.628
N5540 X31.408 Y25.895
N5545 X31.105 Y26.186
N5550 X30.825 Y26.501
N5555 X30.571 Y26.836
N5560 X30.344 Y27.19
N5565 X30.146 Y27.561
N5570 X29.977 Y27.946
N5575 X29.838 Y28.343
N5580 X29.731 Y28.75
N5585 X29.657 Y29.164
N5590 X29.614 Y29.582
N5595 X29.605 Y30.003
N5600 X29.629 Y30.423
N5605 X29.854 Y32.09
N5610 X29.929 Y32.285
N5615 X30.004 Y32.484
N5620 X30.079 Y32.687
N5625 X30.154 Y32.896
N5630 X30.229 Y33.111
N5635 X30.305 Y33.332
N5640 X30.382 Y33.559
N5645 X30.458 Y33.794
N5650 X30.535 Y34.033
N5655 X30.611 Y34.279
N5660 X30.688 Y34.533
N5665 X30.926 Y35.34
N5670 X31.245 Y36.992
N5675 X31.516 Y38.652
N5680 X31.745 Y40.319
N5685 X31.939 Y41.99
N5690 X32.104 Y43.665
N5695 X32.245 Y45.341
N5700 X32.363 Y47.019
N5705 X32.464 Y48.699
N5710 X32.55 Y50.379
N5715 X32.597 Y52.061
N5720 X32.604 Y53.744
N5725 X32.591 Y55.426
N5730 X32.566 Y57.108
N5735 X32.537 Y58.79
N5740 X32.477 Y62.155
N5745 X32.448 Y63.837
N5750 X32.417 Y65.519
N5755 X32.388 Y67.202
N5760 X32.363 Y68.884
N5765 X32.341 Y70.566
N5770 X32.323 Y72.249
N5775 X32.309 Y73.931
N5780 X32.297 Y75.613
N5785 X32.288 Y77.296
N5790 X32.281 Y78.978
N5795 X32.276 Y80.661
N5800 X32.269 Y84.026
N5805 X32.266 Y85.708
N5810 X32.262 Y90.756
N5815 X32.259 Y99.168
N5820 Y136.183
N5825 X32.258 Y186.657
N5830 Y237.131
N5835 Y287.605
N5840 Y338.08
N5845 X32.257 Y388.554
N5850 Y439.028
N5855 Y489.503
N5860 Y539.977
N5865 Y587.086
N5870 X32.26 Y588.769
N5875 X32.275 Y590.451
N5880 X32.303 Y592.134
N5885 X32.387 Y592.971
N5890 X32.496 Y594.119
N5895 X32.606 Y595.381
N5900 X32.717 Y596.769
N5905 X32.829 Y598.305
N5910 X32.938 Y599.983
N5915 X33.035 Y601.663
N5920 X33.122 Y603.343
N5925 X33.213 Y605.023
N5930 X33.317 Y606.703
N5935 X33.399 Y608.383
N5940 X33.477 Y610.064
N5945 X33.601 Y611.742
N5950 X33.74 Y613.418
N5955 X33.825 Y614.466
N5960 X33.891 Y615.305
N5965 X33.923 Y615.725
N5970 X33.987 Y616.14
N5975 X34.083 Y616.55
N5980 X34.212 Y616.95
N5985 X34.371 Y617.34
N5990 X34.56 Y617.715
N5995 X34.778 Y618.075
N6000 X35.023 Y618.417
N6005 X35.294 Y618.738
N6010 X35.59 Y619.037
N6015 X35.908 Y619.312
N6020 X36.247 Y619.562
N6025 X36.604 Y619.784
N6030 X36.977 Y619.978
N6035 X37.365 Y620.141
N6040 X37.764 Y620.274
N6045 X38.172 Y620.376
N6050 X38.587 Y620.445
N6055 X39.006 Y620.482
N6060 X39.427 Y620.485
N6065 X39.846 Y620.456
N6070 X41.51 Y620.208
N6075 X41.701 Y620.133
N6080 X41.896 Y620.058
N6085 X42.097 Y619.983
N6090 X42.304 Y619.907
N6095 X42.516 Y619.831
N6100 X42.734 Y619.754
N6105 X42.958 Y619.678
N6110 X43.186 Y619.602
N6115 X43.421 Y619.525
N6120 X43.663 Y619.448
N6125 X43.913 Y619.371
N6130 X44.17 Y619.293
N6135 X44.435 Y619.215
N6140 X44.706 Y619.138
N6145 X44.986 Y619.06
N6150 X45.276 Y618.982
N6155 X45.575 Y618.904
N6160 X45.886 Y618.825
N6165 X46.204 Y618.746
N6170 X46.533 Y618.668
N6175 X46.875 Y618.589
N6180 X47.231 Y618.509
N6185 X47.599 Y618.43
N6190 X47.98 Y618.351
N6195 X48.377 Y618.271
N6200 X48.792 Y618.191
N6205 X49.224 Y618.111
N6210 X49.673 Y618.032
N6215 X50.144 Y617.952
N6220 X50.64 Y617.871
N6225 X51.157 Y617.791
N6230 X51.703 Y617.711
N6235 X52.28 Y617.63
N6240 X52.887 Y617.55
N6245 X53.533 Y617.469
N6250 X54.205 Y617.39
N6255 X54.719 Y617.333
N6260 X55.126 Y617.292
N6265 X55.477 Y617.258
N6270 X55.824 Y617.228
N6275 X56.034 Y617.211
N6280 X57.717 Y617.206
N6285 X59.399 Y617.231
N6290 X61.081 Y617.271
N6295 X64.445 Y617.362
N6300 X66.126 Y617.406
N6305 X69.49 Y617.498
N6310 X71.172 Y617.541
N6315 X72.854 Y617.578
N6320 X74.536 Y617.609
N6325 X76.219 Y617.635
N6330 X77.901 Y617.656
N6335 X79.583 Y617.672
N6340 X81.266 Y617.685
N6345 X82.948 Y617.695
N6350 X84.631 Y617.703
N6355 X86.313 Y617.709
N6360 X87.996 Y617.714
N6365 X91.361 Y617.72
N6370 X96.408 Y617.725
N6375 X104.82 Y617.728
N6380 X106.503
N6385 X156.977 Y617.73
N6390 X207.451 Y617.731
N6395 X257.926 Y617.733
N6400 X308.4 Y617.734
N6405 X358.874 Y617.736
N6410 X409.349 Y617.737
N6415 X459.823 Y617.738
N6420 X510.297 Y617.74
N6425 X560.772 Y617.741
N6430 X575.914 Y617.742
N6435 X577.596 Y617.74
N6440 X579.279 Y617.73
N6445 X580.961 Y617.708
N6450 X582.643 Y617.675
N6455 X584.325 Y617.635
N6460 X586.007 Y617.589
N6465 X587.689 Y617.543
N6470 X589.371 Y617.497
N6475 X591.053 Y617.454
N6480 X592.735 Y617.413
N6485 X594.417 Y617.374
N6490 X596.099 Y617.337
N6495 X597.781 Y617.303
N6500 X599.463 Y617.271
N6505 X601.146 Y617.241
N6510 X602.828 Y617.214
N6515 X604.51 Y617.189
N6520 X606.192 Y617.166
N6525 X607.875 Y617.138
N6530 X609.557 Y617.114
N6535 X611.239 Y617.093
N6540 X612.922 Y617.074
N6545 X613.471 Y616.992
N6550 X614.826 Y616.808
N6555 X615.237 Y616.719
N6560 X615.64 Y616.598
N6565 X616.032 Y616.446
N6570 X616.411 Y616.264
N6575 X616.775 Y616.053
N6580 X617.121 Y615.814
N6585 X617.447 Y615.548
N6590 X617.752 Y615.258
N6595 X618.033 Y614.945
N6600 X618.289 Y614.611
N6605 X618.517 Y614.258
N6610 X618.718 Y613.889
N6615 X618.889 Y613.504
N6620 X619.029 Y613.108
N6625 X619.138 Y612.702
N6630 X619.215 Y612.288
N6635 X619.259 Y611.87
N6640 X619.271 Y611.449
N6645 X619.185 Y609.769
N6650 X619.108 Y609.499
N6655 X619.031 Y609.221
N6660 X618.953 Y608.933
N6665 X618.875 Y608.635
N6670 X618.797 Y608.327
N6675 X618.719 Y608.009
N6680 X618.641 Y607.682
N6685 X618.563 Y607.342
N6690 X618.484 Y606.989
N6695 X618.405 Y606.621
N6700 X618.326 Y606.242
N6705 X618.248 Y605.847
N6710 X618.168 Y605.435
N6715 X618.089 Y605.004
N6720 X618.01 Y604.557
N6725 X617.93 Y604.088
N6730 X617.851 Y603.596
N6735 X617.771 Y603.079
N6740 X617.691 Y602.537
N6745 X617.611 Y601.963
N6750 X617.531 Y601.357
N6755 X617.452 Y600.714
N6760 X617.371 Y600.028
N6765 X617.291 Y599.298
N6770 X617.211 Y598.512
N6775 X617.131 Y597.666
N6780 X617.05 Y596.744
N6785 X616.97 Y595.741
N6790 X616.89 Y594.634
N6795 X616.81 Y593.4
N6800 X616.729 Y592.012
N6805 X616.649 Y590.42
N6810 X616.6 Y589.279
N6815 X616.58 Y588.718
N6820 X616.567 Y588.252
N6825 X616.556 Y587.766
N6830 X616.549 Y587.254
N6835 X616.545 Y586.501
N6840 X616.546 Y585.556
N6845 X616.558 Y584.043
N6850 X616.584 Y582.361
N6855 X616.617 Y580.679
N6860 X616.688 Y577.315
N6865 X616.721 Y575.632
N6870 X616.792 Y572.268
N6875 X616.824 Y570.586
N6880 X617.083 Y568.924
N6885 X617.266 Y567.251
N6890 X617.397 Y565.574
N6895 X617.49 Y563.894
N6900 X617.557 Y562.213
N6905 X617.605 Y560.531
N6910 X617.639 Y558.849
N6915 X617.664 Y557.167
N6920 X617.682 Y555.484
N6925 X617.695 Y553.802
N6930 X617.704 Y552.119
N6935 X617.711 Y550.437
N6940 X617.716 Y548.754
N6945 X617.722 Y545.389
N6950 X617.726 Y540.342
N6955 X617.729 Y530.247
N6960 Y521.835
N6965 X617.731 Y471.36
N6970 X617.732 Y420.886
N6975 X617.733 Y370.412
N6980 X617.735 Y319.937
N6985 X617.736 Y269.463
N6990 X617.738 Y218.989
N6995 X617.739 Y168.514
N7000 X617.74 Y118.04
N7005 X617.742 Y67.566
N7010 Y65.883
N7015 X617.681 Y65.044
N7020 X617.603 Y63.894
N7025 X617.526 Y62.6
N7030 X617.448 Y61.122
N7035 X617.372 Y59.442
N7040 X617.308 Y57.76
N7045 X617.255 Y56.079
N7050 X617.209 Y54.397
N7055 X617.171 Y52.715
N7060 X617.139 Y51.033
N7065 X617.112 Y49.35
N7070 X617.09 Y47.668
N7075 X617.07 Y45.986
N7080 X617.054 Y44.303
N7085 X617.028 Y42.621
N7090 X617.009 Y40.939
N7095 X616.997 Y39.256
N7100 X616.988 Y37.574
N7105 X616.981 Y35.366
N7110 X616.947 Y34.946
N7115 X616.881 Y34.531
N7120 X616.782 Y34.122
N7125 X616.651 Y33.722
N7130 X616.49 Y33.334
N7135 X616.299 Y32.959
N7140 X616.079 Y32.601
N7145 X615.831 Y32.261
N7150 X615.558 Y31.941
N7155 X615.261 Y31.643
N7160 X614.941 Y31.37
N7165 X614.601 Y31.123
N7170 X614.242 Y30.902
N7175 X613.868 Y30.711
N7180 X613.479 Y30.549
N7185 X613.08 Y30.419
N7190 X612.671 Y30.32
N7195 X612.256 Y30.253
N7200 X611.836 Y30.219
N7205 X611.416 Y30.218
N7210 X610.996 Y30.249
N7215 X609.334 Y30.507
N7220 X609.155 Y30.58
N7225 X608.972 Y30.653
N7230 X608.785 Y30.726
N7235 X608.593 Y30.799
N7240 X608.396 Y30.873
N7245 X608.193 Y30.947
N7250 X607.985 Y31.022
N7255 X607.77 Y31.097
N7260 X607.553 Y31.17
N7265 X607.331 Y31.244
N7270 X607.105 Y31.318
N7275 X606.873 Y31.391
N7280 X606.638 Y31.464
N7285 X606.398 Y31.536
N7290 X606.154 Y31.607
N7295 X605.906 Y31.677
N7300 X605.651 Y31.748
N7305 X605.395 Y31.817
N7310 X605.131 Y31.886
N7315 X604.859 Y31.954
N7320 X604.582 Y32.022
N7325 X604.3 Y32.089
N7330 X604.009 Y32.156
N7335 X603.707 Y32.223
N7340 X603.395 Y32.29
N7345 X603.08 Y32.355
N7350 X602.756 Y32.419
N7355 X602.42 Y32.484
N7360 X602.071 Y32.548
N7365 X601.864 Y32.584
N7370 X600.189 Y32.748
N7375 X598.512 Y32.875
N7380 X596.832 Y32.972
N7385 X595.151 Y33.045
N7390 X593.469 Y33.097
N7395 X591.787 Y33.131
N7400 X590.105 Y33.152
N7405 X588.422 Y33.162
N7410 X586.74 Y33.164
N7415 X585.057 Y33.161
N7420 X583.375 Y33.155
N7425 X581.693 Y33.119
N7430 X580.012 Y33.053
N7435 X578.331 Y32.976
N7440 X576.65 Y32.897
N7445 X574.97 Y32.821
N7450 X573.289 Y32.743
N7455 X571.608 Y32.664
N7460 X569.927 Y32.591
N7465 X568.246 Y32.527
N7470 X566.565 Y32.474
N7475 X564.883 Y32.43
N7480 X563.201 Y32.395
N7485 X561.518 Y32.367
N7490 X559.836 Y32.345
N7495 X558.154 Y32.328
N7500 X556.471 Y32.315
N7505 X554.789 Y32.305
N7510 X553.106 Y32.297
N7515 X551.424 Y32.291
N7520 X549.741 Y32.287
N7525 X546.376 Y32.281
N7530 X541.329 Y32.276
N7535 X532.917 Y32.274
N7540 X500.949 Y32.273
N7545 X450.475 Y32.272
N7550 X400.001 Y32.271
N7555 X349.526
N7560 X299.052 Y32.27
N7565 X248.578 Y32.269
N7570 X198.104
N7575 X147.629 Y32.268
N7580 X97.155
N7585 X75.283 Y32.267
N7590 X73.6 Y32.287
N7595 X71.918 Y32.333
N7600 X70.237 Y32.392
N7605 X68.556 Y32.454
N7610 X66.874 Y32.512
N7615 X65.193 Y32.566
N7620 X63.511 Y32.617
N7625 X61.829 Y32.663
N7630 X60.147 Y32.706
N7635 X58.465 Y32.744
N7640 X56.783 Y32.779
N7645 X55.101 Y32.81
N7650 X53.419 Y32.838
N7655 X51.736 Y32.863
N7660 X50.054 Y32.896
N7665 X48.372 Y32.922
N7670 X46.689 Y32.944
N7675 X45.007 Y32.964
N7680 X44.426 Y33.051
N7685 X43.764 Y33.14
N7690 X43.39 Y33.184
N7695 X43.168 Y33.209
N7700 X42.151 Y33.319
N7705 X41.732 Y33.358
N7710 X41.313 Y33.396
N7715 X40.899 Y33.466
N7720 X40.491 Y33.568
N7725 X40.092 Y33.703
N7730 X39.705 Y33.867
N7735 X39.332 Y34.062
N7740 X38.976 Y34.285
N7745 X38.638 Y34.536
N7750 X38.32 Y34.812
N7755 X38.026 Y35.112
N7760 X37.755 Y35.434
N7765 X37.511 Y35.776
N7770 X37.294 Y36.137
N7775 X37.106 Y36.513
N7780 X36.948 Y36.903
N7785 X36.821 Y37.304
N7790 X36.725 Y37.713
N7795 X36.662 Y38.129
N7800 X36.632 Y38.549
N7805 X36.635 Y38.969
N7810 X36.67 Y39.388
N7815 X36.738 Y39.803
N7820 X37.14 Y41.437
N7825 X37.209 Y41.571
N7830 X37.28 Y41.707
N7835 X37.35 Y41.847
N7840 X37.421 Y41.99
N7845 X37.493 Y42.137
N7850 X37.564 Y42.288
N7855 X37.637 Y42.442
N7860 X37.709 Y42.6
N7865 X37.78 Y42.758
N7870 X37.849 Y42.913
N7875 X37.918 Y43.072
N7880 X37.987 Y43.235
N7885 X38.056 Y43.402
N7890 X38.126 Y43.574
N7895 X38.196 Y43.749
N7900 X38.266 Y43.93
N7905 X38.337 Y44.115
N7910 X38.407 Y44.302
N7915 X38.475 Y44.489
N7920 X38.544 Y44.682
N7925 X38.613 Y44.879
N7930 X38.682 Y45.082
N7935 X38.751 Y45.291
N7940 X38.82 Y45.505
N7945 X38.89 Y45.726
N7950 X38.958 Y45.948
N7955 X39.027 Y46.176
N7960 X39.095 Y46.411
N7965 X39.164 Y46.653
N7970 X39.233 Y46.902
N7975 X39.302 Y47.16
N7980 X39.37 Y47.423
N7985 X39.438 Y47.694
N7990 X39.507 Y47.974
N7995 X39.575 Y48.263
N8000 X39.644 Y48.562
N8005 X39.712 Y48.871
N8010 X39.78 Y49.19
N8015 X39.849 Y49.522
N8020 X39.917 Y49.866
N8025 X39.985 Y50.223
N8030 X40.053 Y50.595
N8035 X40.121 Y50.984
N8040 X40.189 Y51.389
N8045 X40.257 Y51.812
N8050 X40.325 Y52.255
N8055 X40.393 Y52.72
N8060 X40.46 Y53.208
N8065 X40.527 Y53.722
N8070 X40.593 Y54.261
N8075 X40.659 Y54.831
N8080 X40.725 Y55.437
N8085 X40.79 Y56.086
N8090 X40.855 Y56.781
N8095 X40.92 Y57.539
N8100 X40.985 Y58.361
N8105 X41.05 Y59.276
N8110 X41.114 Y60.29
N8115 X41.179 Y61.445
N8120 X41.245 Y62.78
N8125 X41.311 Y64.358
N8130 X41.369 Y66.039
N8135 X41.416 Y67.721
N8140 X41.454 Y69.403
N8145 X41.485 Y71.085
N8150 X41.511 Y72.768
N8155 X41.532 Y74.45
N8160 X41.549 Y76.132
N8165 X41.563 Y77.815
N8170 X41.356 Y79.484
N8175 X41.211 Y81.161
N8180 X41.109 Y82.84
N8185 X41.037 Y84.521
N8190 X40.986 Y86.203
N8195 X40.95 Y87.885
N8200 X40.924 Y89.567
N8205 X40.905 Y91.249
N8210 X40.892 Y92.932
N8215 X40.882 Y94.614
N8220 X40.876 Y96.297
N8225 X40.871 Y97.979
N8230 X40.865 Y101.344
N8235 X40.861 Y106.392
N8240 X40.859 Y116.486
N8245 Y126.581
N8250 X40.858 Y177.056
N8255 Y227.53
N8260 Y278.004
N8265 Y328.479
N8270 X40.857 Y378.953
N8275 Y429.427
N8280 Y479.902
N8285 Y530.376
N8290 Y580.85
N8295 Y582.533
N8300 X41.009 Y584.208
N8305 X41.16 Y585.884
N8310 X41.308 Y587.56
N8315 X41.451 Y589.236
N8320 X41.588 Y590.913
N8325 X41.719 Y592.591
N8330 X41.843 Y594.268
N8335 X41.962 Y595.947
N8340 X42.078 Y597.625
N8345 X42.188 Y599.304
N8350 X42.312 Y600.982
N8355 X42.428 Y602.66
N8360 X42.534 Y604.34
N8365 X42.633 Y606.019
N8370 X42.681 Y606.754
N8375 X42.793 Y608.432
N8380 X42.823 Y608.852
N8385 X42.885 Y609.268
N8390 X42.98 Y609.678
N8395 X43.107 Y610.079
N8400 X43.265 Y610.469
N8405 X43.453 Y610.845
N8410 X43.669 Y611.206
N8415 X43.913 Y611.548
N8420 X44.183 Y611.87
N8425 X44.478 Y612.171
N8430 X44.795 Y612.447
N8435 X45.133 Y612.698
N8440 X45.489 Y612.921
N8445 X45.862 Y613.116
N8450 X46.249 Y613.281
N8455 X46.647 Y613.416
N8460 X47.055 Y613.519
N8465 X47.47 Y613.589
N8470 X47.889 Y613.627
N8475 X48.309 Y613.633
N8480 X48.729 Y613.605
N8485 X49.145 Y613.544
N8490 X49.555 Y613.452
N8495 X51.162 Y612.953
N8500 X51.293 Y612.879
N8505 X51.424 Y612.806
N8510 X51.556 Y612.734
N8515 X51.688 Y612.664
N8520 X51.821 Y612.594
N8525 X51.954 Y612.526
N8530 X52.088 Y612.458
N8535 X52.223 Y612.392
N8540 X52.358 Y612.327
N8545 X52.494 Y612.263
N8550 X52.63 Y612.2
N8555 X52.767 Y612.137
N8560 X52.907 Y612.075
N8565 X53.051 Y612.012
N8570 X53.198 Y611.949
N8575 X53.349 Y611.886
N8580 X53.503 Y611.822
N8585 X53.662 Y611.759
N8590 X53.823 Y611.695
N8595 X53.989 Y611.631
N8600 X54.159 Y611.567
N8605 X54.333 Y611.503
N8610 X54.512 Y611.438
N8615 X54.695 Y611.374
N8620 X54.884 Y611.309
N8625 X55.077 Y611.244
N8630 X55.276 Y611.179
N8635 X55.48 Y611.114
N8640 X55.69 Y611.048
N8645 X55.906 Y610.983
N8650 X56.128 Y610.917
N8655 X56.356 Y610.851
N8660 X56.591 Y610.786
N8665 X56.832 Y610.72
N8670 X57.081 Y610.655
N8675 X57.338 Y610.589
N8680 X57.602 Y610.523
N8685 X57.875 Y610.458
N8690 X58.157 Y610.392
N8695 X58.448 Y610.327
N8700 X58.749 Y610.261
N8705 X59.061 Y610.196
N8710 X59.384 Y610.131
N8715 X59.72 Y610.065
N8720 X60.072 Y610.
N8725 X60.437 Y609.934
N8730 X60.818 Y609.869
N8735 X61.216 Y609.804
N8740 X61.638 Y609.738
N8745 X62.054 Y609.676
N8750 X63.733 Y609.562
N8755 X65.413 Y609.471
N8760 X67.094 Y609.4
N8765 X68.775 Y609.344
N8770 X70.457 Y609.3
N8775 X72.139 Y609.265
N8780 X73.821 Y609.238
N8785 X75.504 Y609.216
N8790 X77.186 Y609.199
N8795 X78.869 Y609.185
N8800 X80.551 Y609.174
N8805 X82.233 Y609.165
N8810 X83.916 Y609.158
N8815 X85.598 Y609.153
N8820 X88.963 Y609.144
N8825 X92.328 Y609.139
N8830 X97.376 Y609.134
N8835 X105.788 Y609.131
N8840 X112.518 Y609.13
N8845 X152.897
N8850 X162.992
N8855 X213.467 Y609.132
N8860 X263.941 Y609.133
N8865 X314.415 Y609.134
N8870 X364.89 Y609.136
N8875 X415.364 Y609.137
N8880 X465.838 Y609.139
N8885 X516.313 Y609.14
N8890 X566.787 Y609.141
N8895 X568.469
N8900 X569.308 Y609.079
N8905 X570.752 Y608.98
N8910 X572.432 Y608.876
N8915 X574.111 Y608.783
N8920 X575.792 Y608.698
N8925 X577.472 Y608.619
N8930 X579.153 Y608.546
N8935 X580.834 Y608.477
N8940 X582.516 Y608.412
N8945 X584.197 Y608.351
N8950 X585.878 Y608.294
N8955 X587.56 Y608.24
N8960 X589.242 Y608.189
N8965 X590.924 Y608.142
N8970 X592.605 Y608.097
N8975 X594.287 Y608.055
N8980 X595.969 Y608.016
N8985 X597.651 Y607.98
N8990 X599.333 Y607.935
N8995 X601.015 Y607.897
N9000 X602.698 Y607.862
N9005 X604.38 Y607.831
N9010 X605.957 Y607.804
N9015 X607.219 Y607.784
N9020 X607.639 Y607.775
N9025 X608.058 Y607.733
N9030 X608.472 Y607.658
N9035 X608.878 Y607.552
N9040 X609.276 Y607.413
N9045 X609.661 Y607.245
N9050 X610.032 Y607.046
N9055 X610.386 Y606.819
N9060 X610.721 Y606.566
N9065 X611.036 Y606.286
N9070 X611.328 Y605.983
N9075 X611.595 Y605.658
N9080 X611.836 Y605.314
N9085 X612.049 Y604.951
N9090 X612.233 Y604.573
N9095 X612.387 Y604.182
N9100 X612.51 Y603.779
N9105 X612.602 Y603.369
N9110 X612.66 Y602.952
N9115 X612.686 Y602.532
N9120 X612.68 Y602.112
N9125 X612.64 Y601.693
N9130 X612.568 Y601.279
N9135 X612.15 Y599.649
N9140 X611.467 Y598.111
N9145 X610.889 Y596.531
N9150 X610.405 Y594.92
N9155 X610.002 Y593.286
N9160 X609.671 Y591.637
N9165 X609.399 Y589.976
N9170 X609.178 Y588.309
N9175 X608.999 Y586.636
N9180 X608.855 Y584.959
N9185 X608.74 Y583.281
N9190 X608.649 Y581.601
N9195 X608.579 Y579.92
N9200 X608.532 Y578.238
N9205 X608.534 Y576.555
N9210 X608.565 Y574.873
N9215 X608.611 Y573.191
N9220 X608.714 Y569.828
N9225 X608.764 Y568.146
N9230 X608.869 Y564.783
N9235 X608.917 Y563.101
N9240 X608.959 Y561.419
N9245 X608.994 Y559.737
N9250 X609.023 Y558.055
N9255 X609.046 Y556.373
N9260 X609.065 Y554.69
N9265 X609.08 Y553.008
N9270 X609.091 Y551.325
N9275 X609.1 Y549.643
N9280 X609.107 Y547.96
N9285 X609.112 Y546.278
N9290 X609.119 Y542.913
N9295 X609.123 Y539.548
N9300 X609.127 Y534.501
N9305 X609.129 Y522.723
N9310 X609.13 Y500.851
N9315 X609.131 Y450.377
N9320 X609.133 Y399.902
N9325 X609.134 Y349.428
N9330 X609.135 Y298.954
N9335 X609.137 Y248.479
N9340 X609.138 Y198.005
N9345 X609.14 Y147.531
N9350 X609.141 Y97.057
N9355 X609.142 Y71.819
N9360 X609.14 Y70.137
N9365 X609.104 Y68.455
N9370 X609.05 Y66.773
N9375 X608.987 Y65.092
N9380 X608.927 Y63.41
N9385 X608.87 Y61.729
N9390 X608.818 Y60.047
N9395 X608.769 Y58.366
N9400 X608.725 Y56.684
N9405 X608.684 Y55.002
N9410 X608.648 Y53.32
N9415 X608.613 Y51.637
N9420 X608.571 Y49.955
N9425 X608.536 Y48.273
N9430 X608.504 Y46.591
N9435 X608.476 Y44.909
N9440 X608.413 Y44.493
N9445 X608.369 Y44.188
N9450 X608.337 Y43.944
N9455 X608.25 Y43.274
N9460 X608.164 Y42.528
N9465 X608.122 Y42.109
N9470 X608.048 Y41.695
N9475 X607.942 Y41.288
N9480 X607.803 Y40.891
N9485 X607.635 Y40.506
N9490 X607.436 Y40.135
N9495 X607.21 Y39.78
N9500 X606.956 Y39.445
N9505 X606.677 Y39.13
N9510 X606.374 Y38.838
N9515 X606.049 Y38.571
N9520 X605.704 Y38.33
N9525 X605.342 Y38.117
N9530 X604.964 Y37.933
N9535 X604.572 Y37.778
N9540 X604.17 Y37.655
N9545 X603.76 Y37.564
N9550 X603.343 Y37.505
N9555 X602.923 Y37.479
N9560 X602.503 Y37.486
N9565 X602.084 Y37.525
N9570 X600.427 Y37.814
N9575 X600.293 Y37.882
N9580 X600.158 Y37.95
N9585 X600.019 Y38.018
N9590 X599.877 Y38.086
N9595 X599.732 Y38.155
N9600 X599.583 Y38.224
N9605 X599.431 Y38.294
N9610 X599.277 Y38.363
N9615 X599.119 Y38.432
N9620 X598.958 Y38.501
N9625 X598.793 Y38.571
N9630 X598.624 Y38.64
N9635 X598.45 Y38.711
N9640 X598.272 Y38.781
N9645 X598.089 Y38.852
N9650 X597.902 Y38.922
N9655 X597.712 Y38.993
N9660 X597.516 Y39.063
N9665 X597.316 Y39.134
N9670 X597.11 Y39.205
N9675 X596.898 Y39.277
N9680 X596.68 Y39.348
N9685 X596.456 Y39.42
N9690 X596.228 Y39.491
N9695 X595.993 Y39.563
N9700 X595.751 Y39.635
N9705 X595.501 Y39.707
N9710 X595.244 Y39.779
N9715 X594.978 Y39.851
N9720 X594.707 Y39.923
N9725 X594.426 Y39.995
N9730 X594.136 Y40.068
N9735 X593.836 Y40.14
N9740 X593.525 Y40.213
N9745 X593.214 Y40.283
N9750 X592.906 Y40.35
N9755 X592.587 Y40.418
N9760 X592.256 Y40.485
N9765 X591.912 Y40.552
N9770 X591.561 Y40.618
N9775 X591.221 Y40.679
N9780 X590.868 Y40.74
N9785 X590.501 Y40.8
N9790 X590.12 Y40.861
N9795 X589.729 Y40.919
N9800 X589.33 Y40.976
N9805 X588.913 Y41.032
N9810 X588.478 Y41.088
N9815 X588.023 Y41.142
N9820 X587.549 Y41.196
N9825 X587.05 Y41.248
N9830 X586.523 Y41.3
N9835 X585.961 Y41.351
N9840 X585.365 Y41.4
N9845 X584.734 Y41.448
N9850 X584.066 Y41.493
N9855 X583.351 Y41.537
N9860 X582.587 Y41.578
N9865 X581.762 Y41.616
N9870 X580.825 Y41.652
N9875 X579.767 Y41.686
N9880 X578.515 Y41.716
N9885 X576.915 Y41.743
N9890 X575.232 Y41.759
N9895 X573.55 Y41.765
N9900 X571.867
N9905 X570.185 Y41.761
N9910 X568.502 Y41.754
N9915 X565.137 Y41.736
N9920 X563.455 Y41.727
N9925 X561.79 Y41.487
N9930 X560.116 Y41.317
N9935 X558.438 Y41.195
N9940 X556.758 Y41.107
N9945 X555.076 Y41.043
N9950 X553.394 Y40.997
N9955 X551.712 Y40.964
N9960 X550.03 Y40.939
N9965 X548.348 Y40.922
N9970 X546.665 Y40.909
N9975 X544.983 Y40.899
N9980 X543.3 Y40.892
N9985 X541.618 Y40.887
N9990 X538.253 Y40.881
N9995 X533.205 Y40.876
N10000 X524.793 Y40.874
N10005 X514.698 Y40.873
N10010 X464.224 Y40.872
N10015 X413.75 Y40.871
N10020 X363.275
N10025 X312.801 Y40.87
N10030 X262.327
N10035 X211.852 Y40.869
N10040 X161.378 Y40.868
N10045 X110.904
N10050 X80.619 Y40.867
N10055 X78.937 Y40.869
N10060 X77.254 Y40.879
N10065 X75.572 Y40.9
N10070 X73.89 Y40.933
N10075 X72.208 Y40.974
N10080 X70.526 Y41.02
N10085 X68.844 Y41.066
N10090 X67.162 Y41.112
N10095 X65.48 Y41.155
N10100 X63.798 Y41.196
N10105 X62.116 Y41.235
N10110 X60.434 Y41.272
N10115 X58.752 Y41.309
N10120 X58.184 Y41.401
N10125 X57.554 Y41.495
N10130 X56.826 Y41.592
N10135 X55.996 Y41.69
N10140 X55.063 Y41.787
N10145 X53.962 Y41.886
N10150 X52.641 Y41.984
N10155 X50.962 Y42.085
N10160 X50.752 Y42.096
N10165 X49.071 Y42.182
N10170 X48.652 Y42.213
N10175 X48.236 Y42.277
N10180 X47.826 Y42.373
N10185 X47.426 Y42.5
N10190 X47.036 Y42.659
N10195 X46.66 Y42.848
N10200 X46.3 Y43.065
N10205 X45.958 Y43.31
N10210 X45.637 Y43.581
N10215 X45.337 Y43.876
N10220 X45.061 Y44.194
N10225 X44.812 Y44.533
N10230 X44.589 Y44.889
N10235 X44.395 Y45.263
N10240 X44.231 Y45.65
N10245 X44.097 Y46.049
N10250 X43.995 Y46.457
N10255 X43.926 Y46.872
N10260 X43.889 Y47.291
N10265 X43.884 Y47.711
N10270 X43.913 Y48.131
N10275 X43.975 Y48.547
N10280 X44.068 Y48.957
N10285 X44.571 Y50.563
N10290 X44.656 Y50.686
N10295 X44.741 Y50.81
N10300 X44.824 Y50.935
N10305 X44.906 Y51.06
N10310 X44.987 Y51.187
N10315 X45.067 Y51.314
N10320 X45.146 Y51.441
N10325 X45.224 Y51.569
N10330 X45.301 Y51.698
N10335 X45.376 Y51.828
N10340 X45.451 Y51.958
N10345 X45.525 Y52.088
N10350 X45.598 Y52.22
N10355 X45.671 Y52.354
N10360 X45.744 Y52.49
N10365 X45.818 Y52.63
N10370 X45.892 Y52.773
N10375 X45.967 Y52.92
N10380 X46.042 Y53.071
N10385 X46.118 Y53.225
N10390 X46.193 Y53.381
N10395 X46.268 Y53.539
N10400 X46.343 Y53.702
N10405 X46.419 Y53.869
N10410 X46.495 Y54.04
N10415 X46.572 Y54.216
N10420 X46.65 Y54.397
N10425 X46.727 Y54.582
N10430 X46.804 Y54.768
N10435 X46.881 Y54.959
N10440 X46.958 Y55.156
N10445 X47.036 Y55.357
N10450 X47.114 Y55.565
N10455 X47.192 Y55.778
N10460 X47.271 Y55.997
N10465 X47.35 Y56.22
N10470 X47.428 Y56.447
N10475 X47.507 Y56.682
N10480 X47.586 Y56.923
N10485 X47.665 Y57.172
N10490 X47.745 Y57.428
N10495 X47.825 Y57.692
N10500 X47.904 Y57.96
N10505 X47.984 Y58.236
N10510 X48.063 Y58.522
N10515 X48.144 Y58.819
N10520 X48.225 Y59.125
N10525 X48.305 Y59.438
N10530 X48.385 Y59.761
N10535 X48.465 Y60.096
N10540 X48.546 Y60.445
N10545 X48.628 Y60.807
N10550 X48.708 Y61.177
N10555 X48.789 Y61.563
N10560 X48.87 Y61.966
N10565 X48.952 Y62.387
N10570 X49.033 Y62.821
N10575 X49.114 Y63.275
N10580 X49.196 Y63.752
N10585 X49.278 Y64.25
N10590 X49.359 Y64.77
N10595 X49.441 Y65.32
N10600 X49.523 Y65.899
N10605 X49.604 Y66.509
N10610 X49.686 Y67.158
N10615 X49.757 Y67.757
N10620 X49.807 Y68.204
N10625 X49.846 Y68.576
N10630 X49.879 Y68.916
N10635 X49.91 Y69.268
N10640 X49.94 Y69.634
N10645 X49.969 Y70.014
N10650 X50.001 Y70.498
N10655 X50.032 Y71.019
N10660 X50.063 Y71.618
N10665 X50.096 Y72.345
N10670 X50.129 Y73.203
N10675 X50.161 Y74.259
N10680 X50.194 Y75.705
N10685 X50.22 Y77.387
N10690 X50.236 Y79.07
N10695 X50.059 Y80.743
N10700 X49.919 Y82.42
N10705 X49.81 Y84.098
N10710 X49.725 Y85.779
N10715 X49.66 Y87.46
N10720 X49.611 Y89.142
N10725 X49.573 Y90.824
N10730 X49.544 Y92.506
N10735 X49.523 Y94.188
N10740 X49.506 Y95.871
N10745 X49.494 Y97.553
N10750 X49.485 Y99.236
N10755 X49.478 Y100.918
N10760 X49.473 Y102.601
N10765 X49.467 Y105.966
N10770 X49.462 Y111.013
N10775 X49.459 Y119.425
N10780 Y127.838
N10785 X49.458 Y178.312
N10790 Y228.786
N10795 Y279.261
N10800 Y329.735
N10805 X49.457 Y380.209
N10810 Y430.684
N10815 Y481.158
N10820 Y531.632
N10825 Y577.059
N10830 X49.473 Y578.742
N10835 X49.53 Y580.423
N10840 X49.614 Y582.104
N10845 X49.716 Y583.783
N10850 X49.837 Y584.615
N10855 X49.992 Y585.727
N10860 X50.152 Y586.941
N10865 X50.32 Y588.29
N10870 X50.515 Y589.961
N10875 X50.699 Y591.634
N10880 X50.857 Y592.807
N10885 X51.058 Y594.472
N10890 X51.235 Y596.145
N10895 X51.393 Y597.82
N10900 X51.465 Y598.658
N10905 X51.516 Y599.287
N10910 X51.649 Y600.964
N10915 X51.711 Y601.803
N10920 X51.775 Y602.219
N10925 X51.87 Y602.629
N10930 X51.998 Y603.029
N10935 X52.157 Y603.419
N10940 X52.345 Y603.795
N10945 X52.563 Y604.155
N10950 X52.807 Y604.497
N10955 X53.078 Y604.819
N10960 X53.373 Y605.119
N10965 X53.691 Y605.394
N10970 X54.029 Y605.644
N10975 X54.386 Y605.867
N10980 X54.759 Y606.061
N10985 X55.147 Y606.225
N10990 X55.545 Y606.359
N10995 X55.953 Y606.461
N11000 X56.368 Y606.531
N11005 X56.787 Y606.568
N11010 X57.208 Y606.572
N11015 X57.627 Y606.544
N11020 X58.044 Y606.482
N11025 X58.454 Y606.389
N11030 X60.06 Y605.887
N11035 X60.182 Y605.8
N11040 X60.305 Y605.715
N11045 X60.43 Y605.631
N11050 X60.555 Y605.548
N11055 X60.681 Y605.466
N11060 X60.807 Y605.386
N11065 X60.935 Y605.307
N11070 X61.063 Y605.228
N11075 X61.191 Y605.151
N11080 X61.321 Y605.075
N11085 X61.451 Y605.001
N11090 X61.581 Y604.927
N11095 X61.712 Y604.854
N11100 X61.844 Y604.782
N11105 X61.976 Y604.712
N11110 X62.109 Y604.642
N11115 X62.243 Y604.573
N11120 X62.38 Y604.504
N11125 X62.52 Y604.434
N11130 X62.663 Y604.365
N11135 X62.81 Y604.294
N11140 X62.959 Y604.224
N11145 X63.112 Y604.154
N11150 X63.268 Y604.083
N11155 X63.428 Y604.013
N11160 X63.592 Y603.941
N11165 X63.76 Y603.87
N11170 X63.933 Y603.798
N11175 X64.11 Y603.726
N11180 X64.291 Y603.653
N11185 X64.476 Y603.581
N11190 X64.665 Y603.508
N11195 X64.86 Y603.436
N11200 X65.06 Y603.362
N11205 X65.265 Y603.289
N11210 X65.477 Y603.215
N11215 X65.694 Y603.141
N11220 X65.916 Y603.067
N11225 X66.144 Y602.993
N11230 X66.378 Y602.919
N11235 X66.62 Y602.844
N11240 X66.87 Y602.769
N11245 X67.127 Y602.694
N11250 X67.391 Y602.618
N11255 X67.663 Y602.543
N11260 X67.944 Y602.468
N11265 X68.234 Y602.392
N11270 X68.535 Y602.316
N11275 X68.845 Y602.239
N11280 X69.165 Y602.163
N11285 X69.498 Y602.087
N11290 X69.842 Y602.01
N11295 X70.201 Y601.933
N11300 X70.572 Y601.856
N11305 X70.959 Y601.779
N11310 X71.361 Y601.702
N11315 X71.782 Y601.625
N11320 X72.221 Y601.547
N11325 X72.68 Y601.47
N11330 X73.161 Y601.392
N11335 X73.668 Y601.314
N11340 X74.199 Y601.236
N11345 X74.762 Y601.158
N11350 X75.357 Y601.08
N11355 X75.987 Y601.002
N11360 X76.66 Y600.923
N11365 X77.378 Y600.845
N11370 X78.151 Y600.766
N11375 X78.984 Y600.688
N11380 X79.822 Y600.615
N11385 X81.505 Y600.603
N11390 X83.187 Y600.593
N11395 X84.87 Y600.584
N11400 X86.552 Y600.576
N11405 X89.917 Y600.564
N11410 X93.282 Y600.555
N11415 X98.329 Y600.545
N11420 X103.377 Y600.539
N11425 X110.107 Y600.534
N11430 X120.202 Y600.531
N11435 X130.296 Y600.53
N11440 X180.771 Y600.531
N11445 X231.245 Y600.532
N11450 X281.719 Y600.533
N11455 X332.194 Y600.535
N11460 X382.668 Y600.536
N11465 X433.142 Y600.538
N11470 X483.617 Y600.539
N11475 X534.091 Y600.54
N11480 X562.693 Y600.541
N11485 X564.376 Y600.536
N11490 X566.058 Y600.497
N11495 X567.739 Y600.439
N11500 X569.42 Y600.37
N11505 X572.782 Y600.224
N11510 X574.463 Y600.153
N11515 X576.144 Y600.083
N11520 X577.825 Y600.016
N11525 X579.506 Y599.952
N11530 X581.188 Y599.89
N11535 X582.869 Y599.83
N11540 X584.551 Y599.774
N11545 X586.232 Y599.719
N11550 X587.069 Y599.632
N11555 X588.161 Y599.526
N11560 X589.336 Y599.42
N11565 X591.013 Y599.282
N11570 X591.868 Y599.18
N11575 X592.925 Y599.07
N11580 X594.184 Y598.958
N11585 X595.724 Y598.844
N11590 X597.404 Y598.743
N11595 X598.244 Y598.703
N11600 X600.24 Y598.619
N11605 X600.661 Y598.605
N11610 X601.079 Y598.558
N11615 X601.492 Y598.478
N11620 X601.897 Y598.366
N11625 X602.293 Y598.223
N11630 X602.676 Y598.049
N11635 X603.044 Y597.846
N11640 X603.395 Y597.615
N11645 X603.727 Y597.357
N11650 X604.038 Y597.074
N11655 X604.326 Y596.767
N11660 X604.589 Y596.439
N11665 X604.826 Y596.091
N11670 X605.034 Y595.726
N11675 X605.214 Y595.345
N11680 X605.363 Y594.952
N11685 X605.481 Y594.548
N11690 X605.567 Y594.136
N11695 X605.62 Y593.719
N11700 X605.641 Y593.299
N11705 X605.629 Y592.879
N11710 X605.584 Y592.46
N11715 X605.506 Y592.047
N11720 X605.397 Y591.641
N11725 X604.832 Y590.056
N11730 X604.751 Y589.93
N11735 X604.671 Y589.803
N11740 X604.592 Y589.676
N11745 X604.514 Y589.547
N11750 X604.437 Y589.419
N11755 X604.361 Y589.289
N11760 X604.286 Y589.159
N11765 X604.213 Y589.028
N11770 X604.14 Y588.897
N11775 X604.068 Y588.766
N11780 X603.997 Y588.633
N11785 X603.928 Y588.5
N11790 X603.858 Y588.365
N11795 X603.787 Y588.225
N11800 X603.716 Y588.083
N11805 X603.645 Y587.937
N11810 X603.573 Y587.787
N11815 X603.501 Y587.633
N11820 X603.431 Y587.481
N11825 X603.363 Y587.331
N11830 X603.296 Y587.179
N11835 X603.228 Y587.024
N11840 X603.16 Y586.864
N11845 X603.092 Y586.701
N11850 X603.023 Y586.534
N11855 X602.955 Y586.362
N11860 X602.885 Y586.186
N11865 X602.816 Y586.005
N11870 X602.749 Y585.827
N11875 X602.683 Y585.647
N11880 X602.617 Y585.462
N11885 X602.551 Y585.272
N11890 X602.484 Y585.078
N11895 X602.417 Y584.878
N11900 X602.351 Y584.672
N11905 X602.284 Y584.461
N11910 X602.218 Y584.249
N11915 X602.152 Y584.032
N11920 X602.087 Y583.809
N11925 X602.021 Y583.58
N11930 X601.956 Y583.343
N11935 X601.89 Y583.1
N11940 X601.825 Y582.85
N11945 X601.76 Y582.595
N11950 X601.695 Y582.332
N11955 X601.63 Y582.06
N11960 X601.566 Y581.78
N11965 X601.501 Y581.49
N11970 X601.437 Y581.191
N11975 X601.372 Y580.881
N11980 X601.308 Y580.561
N11985 X601.244 Y580.228
N11990 X601.181 Y579.883
N11995 X601.117 Y579.523
N12000 X601.053 Y579.148
N12005 X600.99 Y578.757
N12010 X600.927 Y578.349
N12015 X600.864 Y577.925
N12020 X600.803 Y577.482
N12025 X600.741 Y577.019
N12030 X600.681 Y576.531
N12035 X600.621 Y576.019
N12040 X600.561 Y575.479
N12045 X600.503 Y574.907
N12050 X600.444 Y574.288
N12055 X600.386 Y573.628
N12060 X600.328 Y572.907
N12065 X600.271 Y572.119
N12070 X600.214 Y571.244
N12075 X600.157 Y570.266
N12080 X600.099 Y569.134
N12085 X600.042 Y567.816
N12090 X599.982 Y566.135
N12095 X600.098 Y564.457
N12100 X600.19 Y562.777
N12105 X600.262 Y561.096
N12110 X600.319 Y559.414
N12115 X600.364 Y557.732
N12120 X600.4 Y556.05
N12125 X600.428 Y554.368
N12130 X600.45 Y552.686
N12135 X600.468 Y551.003
N12140 X600.481 Y549.321
N12145 X600.492 Y547.638
N12150 X600.5 Y545.956
N12155 X600.507 Y544.273
N12160 X600.512 Y542.591
N12165 X600.519 Y539.226
N12170 X600.524 Y534.179
N12175 X600.528 Y527.449
N12180 X600.529 Y517.354
N12185 X600.531 Y466.879
N12190 X600.532 Y416.405
N12195 X600.534 Y365.931
N12200 X600.535 Y315.457
N12205 X600.536 Y264.982
N12210 X600.538 Y214.508
N12215 X600.539 Y164.034
N12220 X600.541 Y113.559
N12225 Y74.862
N12230 X600.534 Y73.18
N12235 X600.514 Y71.497
N12240 X600.482 Y69.815
N12245 X600.442 Y68.133
N12250 X600.397 Y66.451
N12255 X600.35 Y64.77
N12260 X600.305 Y63.088
N12265 X600.261 Y61.406
N12270 X600.095 Y59.732
N12275 X599.997 Y59.058
N12280 X599.899 Y58.304
N12285 X599.799 Y57.436
N12290 X599.69 Y56.365
N12295 X599.58 Y55.09
N12300 X599.468 Y53.525
N12305 X599.372 Y51.845
N12310 X599.285 Y49.849
N12315 X599.259 Y49.429
N12320 X599.201 Y49.012
N12325 X599.11 Y48.602
N12330 X598.988 Y48.199
N12335 X598.834 Y47.808
N12340 X598.651 Y47.429
N12345 X598.438 Y47.066
N12350 X598.198 Y46.721
N12355 X597.931 Y46.396
N12360 X597.64 Y46.093
N12365 X597.326 Y45.813
N12370 X596.991 Y45.559
N12375 X596.637 Y45.331
N12380 X596.266 Y45.132
N12385 X595.881 Y44.963
N12390 X595.484 Y44.824
N12395 X595.077 Y44.717
N12400 X594.663 Y44.642
N12405 X594.245 Y44.599
N12410 X593.824 Y44.59
N12415 X593.404 Y44.613
N12420 X592.988 Y44.669
N12425 X592.576 Y44.757
N12430 X590.964 Y45.238
N12435 X590.84 Y45.322
N12440 X590.714 Y45.404
N12445 X590.588 Y45.486
N12450 X590.462 Y45.566
N12455 X590.334 Y45.645
N12460 X590.206 Y45.723
N12465 X590.077 Y45.8
N12470 X589.948 Y45.876
N12475 X589.818 Y45.951
N12480 X589.687 Y46.025
N12485 X589.556 Y46.098
N12490 X589.424 Y46.169
N12495 X589.292 Y46.24
N12500 X589.158 Y46.31
N12505 X589.021 Y46.381
N12510 X588.883 Y46.451
N12515 X588.742 Y46.522
N12520 X588.597 Y46.592
N12525 X588.45 Y46.663
N12530 X588.298 Y46.734
N12535 X588.143 Y46.806
N12540 X587.984 Y46.878
N12545 X587.823 Y46.95
N12550 X587.659 Y47.021
N12555 X587.491 Y47.092
N12560 X587.319 Y47.164
N12565 X587.142 Y47.237
N12570 X586.961 Y47.309
N12575 X586.775 Y47.382
N12580 X586.583 Y47.456
N12585 X586.391 Y47.528
N12590 X586.194 Y47.6
N12595 X585.992 Y47.673
N12600 X585.784 Y47.746
N12605 X585.57 Y47.819
N12610 X585.35 Y47.893
N12615 X585.123 Y47.966
N12620 X584.894 Y48.039
N12625 X584.658 Y48.112
N12630 X584.416 Y48.185
N12635 X584.166 Y48.259
N12640 X583.909 Y48.333
N12645 X583.643 Y48.406
N12650 X583.37 Y48.48
N12655 X583.091 Y48.553
N12660 X582.802 Y48.627
N12665 X582.504 Y48.7
N12670 X582.195 Y48.774
N12675 X581.875 Y48.848
N12680 X581.547 Y48.921
N12685 X581.206 Y48.995
N12690 X580.852 Y49.068
N12695 X580.484 Y49.142
N12700 X580.102 Y49.216
N12705 X579.706 Y49.289
N12710 X579.292 Y49.363
N12715 X578.859 Y49.436
N12720 X578.407 Y49.51
N12725 X577.934 Y49.583
N12730 X577.437 Y49.656
N12735 X576.913 Y49.73
N12740 X576.36 Y49.803
N12745 X575.775 Y49.876
N12750 X575.154 Y49.949
N12755 X574.491 Y50.022
N12760 X573.786 Y50.094
N12765 X573.226 Y50.148
N12770 X572.799 Y50.185
N12775 X572.438 Y50.214
N12780 X572.091 Y50.24
N12785 X571.732 Y50.263
N12790 X571.359 Y50.285
N12795 X570.943 Y50.306
N12800 X570.417 Y50.329
N12805 X569.863 Y50.349
N12810 X569.124 Y50.371
N12815 X568.278 Y50.389
N12820 X567.115 Y50.406
N12825 X565.439 Y50.418
N12830 X563.757 Y50.417
N12835 X562.084 Y50.233
N12840 X560.409 Y50.076
N12845 X558.732 Y49.947
N12850 X557.052 Y49.843
N12855 X555.372 Y49.76
N12860 X553.691 Y49.694
N12865 X552.009 Y49.643
N12870 X550.327 Y49.603
N12875 X548.645 Y49.572
N12880 X546.962 Y49.549
N12885 X545.28 Y49.53
N12890 X543.598 Y49.516
N12895 X541.915 Y49.506
N12900 X540.233 Y49.498
N12905 X538.55 Y49.492
N12910 X536.868 Y49.487
N12915 X533.503 Y49.481
N12920 X528.455 Y49.476
N12925 X520.043 Y49.474
N12930 X514.996 Y49.473
N12935 X464.521 Y49.472
N12940 X414.047 Y49.471
N12945 X363.573
N12950 X313.098 Y49.47
N12955 X262.624
N12960 X212.15 Y49.469
N12965 X161.675 Y49.468
N12970 X111.201
N12975 X84.281 Y49.467
N12980 X82.599 Y49.469
N12985 X80.916 Y49.473
N12990 X79.234 Y49.484
N12995 X77.552 Y49.502
N13000 X75.869 Y49.528
N13005 X74.187 Y49.559
N13010 X72.505 Y49.594
N13015 X69.141 Y49.672
N13020 X65.777 Y49.751
N13025 X64.095 Y49.79
N13030 X62.414 Y49.868
N13035 X60.736 Y49.985
N13040 X59.058 Y50.114
N13045 X58.52 Y50.232
N13050 X57.772 Y50.382
N13055 X57.107 Y50.505
N13060 X56.406 Y50.623
N13065 X55.991 Y50.688
N13070 X55.581 Y50.784
N13075 X55.181 Y50.913
N13080 X54.791 Y51.072
N13085 X54.416 Y51.261
N13090 X54.056 Y51.479
N13095 X53.714 Y51.724
N13100 X53.393 Y51.996
N13105 X53.094 Y52.292
N13110 X52.819 Y52.61
N13115 X52.57 Y52.949
N13120 X52.347 Y53.306
N13125 X52.154 Y53.679
N13130 X51.99 Y54.067
N13135 X51.857 Y54.466
N13140 X51.756 Y54.874
N13145 X51.687 Y55.289
N13150 X51.651 Y55.708
N13155 X51.647 Y56.129
N13160 X51.676 Y56.548
N13165 X51.738 Y56.964
N13170 X51.833 Y57.374
N13175 X51.959 Y57.775
N13180 X52.588 Y59.336
N13185 X52.684 Y59.451
N13190 X52.778 Y59.568
N13195 X52.872 Y59.685
N13200 X52.964 Y59.803
N13205 X53.055 Y59.922
N13210 X53.145 Y60.042
N13215 X53.234 Y60.163
N13220 X53.322 Y60.285
N13225 X53.408 Y60.407
N13230 X53.494 Y60.53
N13235 X53.579 Y60.654
N13240 X53.662 Y60.779
N13245 X53.744 Y60.904
N13250 X53.826 Y61.03
N13255 X53.906 Y61.157
N13260 X53.985 Y61.284
N13265 X54.063 Y61.412
N13270 X54.141 Y61.541
N13275 X54.217 Y61.67
N13280 X54.292 Y61.8
N13285 X54.366 Y61.93
N13290 X54.44 Y62.061
N13295 X54.513 Y62.195
N13300 X54.586 Y62.331
N13305 X54.659 Y62.468
N13310 X54.732 Y62.608
N13315 X54.806 Y62.752
N13320 X54.88 Y62.899
N13325 X54.954 Y63.048
N13330 X55.027 Y63.2
N13335 X55.101 Y63.355
N13340 X55.175 Y63.514
N13345 X55.25 Y63.677
N13350 X55.324 Y63.842
N13355 X55.398 Y64.01
N13360 X55.472 Y64.182
N13365 X55.547 Y64.359
N13370 X55.622 Y64.541
N13375 X55.697 Y64.724
N13380 X55.771 Y64.911
N13385 X55.846 Y65.104
N13390 X55.921 Y65.301
N13395 X55.996 Y65.504
N13400 X56.072 Y65.712
N13405 X56.148 Y65.926
N13410 X56.222 Y66.141
N13415 X56.297 Y66.362
N13420 X56.373 Y66.59
N13425 X56.448 Y66.825
N13430 X56.524 Y67.066
N13435 X56.601 Y67.316
N13440 X56.676 Y67.569
N13445 X56.752 Y67.828
N13450 X56.827 Y68.095
N13455 X56.903 Y68.372
N13460 X56.979 Y68.657
N13465 X57.055 Y68.952
N13470 X57.128 Y69.24
N13475 X57.192 Y69.504
N13480 X57.25 Y69.749
N13485 X57.302 Y69.98
N13490 X57.351 Y70.201
N13495 X57.399 Y70.427
N13500 X57.446 Y70.659
N13505 X57.493 Y70.897
N13510 X57.54 Y71.143
N13515 X57.586 Y71.395
N13520 X57.634 Y71.672
N13525 X57.683 Y71.967
N13530 X57.732 Y72.271
N13535 X57.779 Y72.586
N13540 X57.827 Y72.918
N13545 X57.878 Y73.289
N13550 X57.928 Y73.675
N13555 X57.977 Y74.078
N13560 X58.027 Y74.519
N13565 X58.079 Y75.001
N13570 X58.129 Y75.508
N13575 X58.181 Y76.069
N13580 X58.234 Y76.69
N13585 X58.285 Y77.356
N13590 X58.339 Y78.13
N13595 X58.392 Y78.976
N13600 X58.447 Y79.971
N13605 X58.502 Y81.125
N13610 X58.558 Y82.506
N13615 X58.614 Y84.188
N13620 X58.658 Y85.87
N13625 X58.693 Y87.552
N13630 X58.72 Y89.234
N13635 X58.741 Y90.917
N13640 X58.759 Y92.599
N13645 X58.772 Y94.281
N13650 X58.567 Y95.951
N13655 X58.422 Y97.628
N13660 X58.319 Y99.307
N13665 X58.245 Y100.988
N13670 X58.193 Y102.669
N13675 X58.155 Y104.351
N13680 X58.128 Y106.034
N13685 X58.109 Y107.716
N13690 X58.095 Y109.398
N13695 X58.085 Y111.081
N13700 X58.077 Y112.763
N13705 X58.072 Y114.446
N13710 X58.068 Y116.128
N13715 X58.064 Y119.493
N13720 X58.061 Y124.541
N13725 X58.059 Y136.318
N13730 Y143.048
N13735 X58.058 Y193.522
N13740 Y243.997
N13745 Y294.471
N13750 Y344.945
N13755 X58.057 Y395.42
N13760 Y445.894
N13765 Y496.368
N13770 Y546.842
N13775 Y572.08
N13780 X58.059 Y573.762
N13785 X58.072 Y575.445
N13790 X58.103 Y577.127
N13795 X58.154 Y578.808
N13800 X58.257 Y580.488
N13805 X58.395 Y582.165
N13810 X58.552 Y583.84
N13815 X58.719 Y585.514
N13820 X58.896 Y587.187
N13825 X59.267 Y590.531
N13830 X59.357 Y591.368
N13835 X59.445 Y592.205
N13840 X59.617 Y593.878
N13845 X59.657 Y594.297
N13850 X59.73 Y594.711
N13855 X59.835 Y595.118
N13860 X59.972 Y595.516
N13865 X60.139 Y595.902
N13870 X60.336 Y596.274
N13875 X60.561 Y596.629
N13880 X60.814 Y596.965
N13885 X61.092 Y597.281
N13890 X61.393 Y597.574
N13895 X61.717 Y597.842
N13900 X62.061 Y598.085
N13905 X62.423 Y598.299
N13910 X62.8 Y598.485
N13915 X63.191 Y598.641
N13920 X63.593 Y598.766
N13925 X64.003 Y598.858
N13930 X64.419 Y598.919
N13935 X64.839 Y598.947
N13940 X65.259 Y598.941
N13945 X65.678 Y598.903
N13950 X66.093 Y598.833
N13955 X66.501 Y598.73
N13960 X66.899 Y598.595
N13965 X68.447 Y597.935
N13970 X68.564 Y597.841
N13975 X68.682 Y597.748
N13980 X68.8 Y597.656
N13985 X68.92 Y597.566
N13990 X69.041 Y597.477
N13995 X69.162 Y597.388
N14000 X69.284 Y597.301
N14005 X69.407 Y597.215
N14010 X69.53 Y597.13
N14015 X69.655 Y597.046
N14020 X69.78 Y596.963
N14025 X69.905 Y596.881
N14030 X70.032 Y596.8
N14035 X70.159 Y596.72
N14040 X70.286 Y596.641
N14045 X70.414 Y596.563
N14050 X70.543 Y596.486
N14055 X70.672 Y596.41
N14060 X70.802 Y596.335
N14065 X70.932 Y596.261
N14070 X71.063 Y596.188
N14075 X71.195 Y596.116
N14080 X71.327 Y596.045
N14085 X71.46 Y595.975
N14090 X71.593 Y595.907
N14095 X71.727 Y595.839
N14100 X71.862 Y595.772
N14105 X71.999 Y595.705
N14110 X72.14 Y595.637
N14115 X72.285 Y595.569
N14120 X72.433 Y595.501
N14125 X72.584 Y595.432
N14130 X72.739 Y595.364
N14135 X72.898 Y595.295
N14140 X73.06 Y595.225
N14145 X73.227 Y595.156
N14150 X73.398 Y595.086
N14155 X73.574 Y595.015
N14160 X73.754 Y594.945
N14165 X73.938 Y594.874
N14170 X74.128 Y594.803
N14175 X74.322 Y594.732
N14180 X74.522 Y594.66
N14185 X74.727 Y594.588
N14190 X74.938 Y594.516
N14195 X75.155 Y594.444
N14200 X75.378 Y594.371
N14205 X75.607 Y594.298
N14210 X75.843 Y594.225
N14215 X76.087 Y594.152
N14220 X76.338 Y594.078
N14225 X76.596 Y594.004
N14230 X76.863 Y593.93
N14235 X77.138 Y593.856
N14240 X77.422 Y593.782
N14245 X77.716 Y593.707
N14250 X78.021 Y593.632
N14255 X78.336 Y593.557
N14260 X78.662 Y593.482
N14265 X79. Y593.406
N14270 X79.352 Y593.331
N14275 X79.718 Y593.255
N14280 X80.098 Y593.179
N14285 X80.494 Y593.102
N14290 X80.908 Y593.026
N14295 X81.34 Y592.949
N14300 X81.793 Y592.872
N14305 X82.267 Y592.795
N14310 X82.766 Y592.718
N14315 X83.291 Y592.641
N14320 X83.846 Y592.564
N14325 X84.433 Y592.486
N14330 X85.056 Y592.408
N14335 X85.72 Y592.33
N14340 X86.431 Y592.252
N14345 X87.194 Y592.174
N14350 X88.018 Y592.096
N14355 X88.913 Y592.018
N14360 X89.892 Y591.939
N14365 X90.972 Y591.86
N14370 X92.174 Y591.782
N14375 X93.531 Y591.703
N14380 X95.087 Y591.624
N14385 X96.768 Y591.551
N14390 X98.45 Y591.489
N14395 X100.131 Y591.437
N14400 X101.813 Y591.394
N14405 X103.495 Y591.357
N14410 X105.178 Y591.325
N14415 X106.86 Y591.299
N14420 X108.542 Y591.277
N14425 X110.225 Y591.258
N14430 X111.895 Y591.459
N14435 X113.572 Y591.599
N14440 X115.251 Y591.697
N14445 X116.932 Y591.765
N14450 X118.614 Y591.814
N14455 X120.296 Y591.848
N14460 X121.979 Y591.872
N14465 X123.661 Y591.889
N14470 X125.343 Y591.901
N14475 X127.026 Y591.909
N14480 X128.708 Y591.915
N14485 X130.391 Y591.92
N14490 X133.756 Y591.925
N14495 X138.803 Y591.928
N14500 X150.58 Y591.93
N14505 X158.993
N14510 X209.467 Y591.931
N14515 X259.941 Y591.933
N14520 X310.416 Y591.934
N14525 X360.89 Y591.936
N14530 X411.364 Y591.937
N14535 X461.839 Y591.938
N14540 X512.313 Y591.94
N14545 X557.74 Y591.941
N14550 X559.422 Y591.94
N14555 X561.105 Y591.933
N14560 X562.787 Y591.913
N14565 X564.469 Y591.88
N14570 X565.306 Y591.79
N14575 X566.554 Y591.663
N14580 X567.947 Y591.531
N14585 X569.513 Y591.394
N14590 X571.19 Y591.261
N14595 X572.868 Y591.139
N14600 X574.547 Y591.026
N14605 X576.226 Y590.923
N14610 X577.905 Y590.815
N14615 X579.584 Y590.699
N14620 X581.263 Y590.6
N14625 X582.942 Y590.493
N14630 X584.62 Y590.37
N14635 X586.298 Y590.242
N14640 X587.974 Y590.097
N14645 X589.65 Y589.949
N14650 X590.488 Y589.878
N14655 X591.012 Y589.836
N14660 X592.69 Y589.704
N14665 X593.529 Y589.647
N14670 X593.945 Y589.586
N14675 X594.355 Y589.492
N14680 X594.757 Y589.367
N14685 X595.147 Y589.211
N14690 X595.524 Y589.025
N14695 X595.886 Y588.809
N14700 X596.229 Y588.567
N14705 X596.553 Y588.298
N14710 X596.854 Y588.004
N14715 X597.132 Y587.688
N14720 X597.384 Y587.351
N14725 X597.608 Y586.996
N14730 X597.805 Y586.624
N14735 X597.971 Y586.238
N14740 X598.107 Y585.84
N14745 X598.212 Y585.432
N14750 X598.284 Y585.018
N14755 X598.324 Y584.599
N14760 X598.331 Y584.179
N14765 X598.305 Y583.759
N14770 X598.246 Y583.342
N14775 X598.154 Y582.932
N14780 X598.031 Y582.53
N14785 X597.415 Y580.964
N14790 X597.32 Y580.848
N14795 X597.226 Y580.731
N14800 X597.133 Y580.613
N14805 X597.042 Y580.494
N14810 X596.952 Y580.374
N14815 X596.863 Y580.253
N14820 X596.776 Y580.131
N14825 X596.689 Y580.009
N14830 X596.604 Y579.885
N14835 X596.52 Y579.761
N14840 X596.437 Y579.636
N14845 X596.355 Y579.511
N14850 X596.274 Y579.384
N14855 X596.194 Y579.257
N14860 X596.115 Y579.13
N14865 X596.038 Y579.001
N14870 X595.961 Y578.872
N14875 X595.885 Y578.743
N14880 X595.811 Y578.613
N14885 X595.737 Y578.482
N14890 X595.664 Y578.351
N14895 X595.593 Y578.219
N14900 X595.52 Y578.083
N14905 X595.448 Y577.945
N14910 X595.374 Y577.803
N14915 X595.301 Y577.658
N14920 X595.227 Y577.509
N14925 X595.152 Y577.356
N14930 X595.078 Y577.202
N14935 X595.004 Y577.044
N14940 X594.93 Y576.883
N14945 X594.855 Y576.718
N14950 X594.78 Y576.549
N14955 X594.705 Y576.375
N14960 X594.629 Y576.197
N14965 X594.552 Y576.014
N14970 X594.476 Y575.826
N14975 X594.403 Y575.644
N14980 X594.334 Y575.468
N14985 X594.269 Y575.299
N14990 X594.207 Y575.134
N14995 X594.149 Y574.974
N15000 X594.092 Y574.816
N15005 X594.035 Y574.653
N15010 X593.978 Y574.487
N15015 X593.921 Y574.316
N15020 X593.864 Y574.141
N15025 X593.807 Y573.962
N15030 X593.745 Y573.761
N15035 X593.379 Y572.119
N15040 X593.091 Y570.461
N15045 X592.863 Y568.794
N15050 X592.681 Y567.121
N15055 X592.536 Y565.445
N15060 X592.42 Y563.767
N15065 X592.327 Y562.087
N15070 X592.252 Y560.406
N15075 X592.192 Y558.725
N15080 X592.143 Y557.043
N15085 X592.104 Y555.361
N15090 X592.072 Y553.679
N15095 X592.046 Y551.996
N15100 X592.025 Y550.314
N15105 X592.008 Y548.632
N15110 X591.994 Y546.949
N15115 X591.982 Y545.267
N15120 X591.973 Y543.584
N15125 X591.965 Y541.902
N15130 X591.959 Y540.219
N15135 X591.95 Y536.854
N15140 X591.943 Y533.49
N15145 X591.937 Y528.442
N15150 X591.934 Y523.395
N15155 X591.931 Y513.3
N15160 X591.93 Y488.063
N15165 X591.931 Y472.92
N15170 X591.932 Y422.446
N15175 X591.933 Y371.972
N15180 X591.935 Y321.497
N15185 X591.936 Y271.023
N15190 X591.938 Y220.549
N15195 X591.939 Y170.074
N15200 X591.94 Y119.6
N15205 X591.941 Y79.221
N15210 X591.94 Y77.538
N15215 X591.933 Y75.856
N15220 X591.919 Y74.173
N15225 X591.898 Y72.491
N15230 X591.87 Y70.809
N15235 X591.836 Y69.127
N15240 X591.799 Y67.444
N15245 X591.565 Y66.027
N15250 X591.315 Y64.363
N15255 X591.075 Y62.698
N15260 X590.855 Y61.03
N15265 X590.66 Y59.359
N15270 X590.479 Y57.581
N15275 X590.442 Y57.162
N15280 X590.407 Y56.742
N15285 X590.339 Y56.327
N15290 X590.238 Y55.919
N15295 X590.107 Y55.519
N15300 X589.944 Y55.132
N15305 X589.751 Y54.758
N15310 X589.53 Y54.4
N15315 X589.282 Y54.06
N15320 X589.008 Y53.741
N15325 X588.709 Y53.445
N15330 X588.389 Y53.173
N15335 X588.048 Y52.926
N15340 X587.689 Y52.707
N15345 X587.313 Y52.517
N15350 X586.924 Y52.357
N15355 X586.524 Y52.227
N15360 X586.115 Y52.13
N15365 X585.7 Y52.064
N15370 X585.28 Y52.032
N15375 X584.86
N15380 X584.44 Y52.065
N15385 X584.025 Y52.131
N15390 X583.616 Y52.229
N15395 X583.216 Y52.358
N15400 X581.661 Y53.001
N15405 X581.545 Y53.096
N15410 X581.428 Y53.191
N15415 X581.311 Y53.284
N15420 X581.192 Y53.375
N15425 X581.072 Y53.466
N15430 X580.952 Y53.555
N15435 X580.831 Y53.644
N15440 X580.709 Y53.731
N15445 X580.586 Y53.817
N15450 X580.462 Y53.902
N15455 X580.338 Y53.985
N15460 X580.212 Y54.068
N15465 X580.086 Y54.149
N15470 X579.96 Y54.23
N15475 X579.832 Y54.309
N15480 X579.704 Y54.387
N15485 X579.576 Y54.464
N15490 X579.447 Y54.541
N15495 X579.317 Y54.616
N15500 X579.186 Y54.69
N15505 X579.055 Y54.763
N15510 X578.924 Y54.835
N15515 X578.792 Y54.906
N15520 X578.659 Y54.976
N15525 X578.523 Y55.046
N15530 X578.385 Y55.117
N15535 X578.245 Y55.187
N15540 X578.102 Y55.257
N15545 X577.956 Y55.327
N15550 X577.807 Y55.398
N15555 X577.653 Y55.469
N15560 X577.499 Y55.539
N15565 X577.341 Y55.609
N15570 X577.18 Y55.68
N15575 X577.014 Y55.751
N15580 X576.844 Y55.822
N15585 X576.67 Y55.894
N15590 X576.494 Y55.965
N15595 X576.315 Y56.036
N15600 X576.131 Y56.107
N15605 X575.942 Y56.178
N15610 X575.748 Y56.25
N15615 X575.548 Y56.322
N15620 X575.343 Y56.394
N15625 X575.133 Y56.466
N15630 X574.922 Y56.537
N15635 X574.705 Y56.608
N15640 X574.481 Y56.68
N15645 X574.251 Y56.752
N15650 X574.015 Y56.824
N15655 X573.771 Y56.896
N15660 X573.522 Y56.967
N15665 X573.285 Y57.034
N15670 X573.063 Y57.094
N15675 X572.851 Y57.15
N15680 X572.65 Y57.202
N15685 X572.453 Y57.251
N15690 X572.251 Y57.299
N15695 X572.044 Y57.347
N15700 X571.831 Y57.395
N15705 X571.613 Y57.443
N15710 X571.389 Y57.49
N15715 X571.156 Y57.537
N15720 X570.904 Y57.586
N15725 X570.644 Y57.635
N15730 X570.376 Y57.683
N15735 X570.1 Y57.73
N15740 X569.815 Y57.777
N15745 X569.498 Y57.827
N15750 X569.17 Y57.876
N15755 X568.829 Y57.924
N15760 X568.476 Y57.971
N15765 X568.085 Y58.021
N15770 X567.67 Y58.07
N15775 X567.236 Y58.119
N15780 X566.77 Y58.168
N15785 X566.251 Y58.218
N15790 X565.703 Y58.267
N15795 X565.097 Y58.317
N15800 X564.424 Y58.368
N15805 X563.688 Y58.418
N15810 X562.838 Y58.469
N15815 X561.876 Y58.52
N15820 X560.757 Y58.57
N15825 X559.387 Y58.623
N15830 X557.706 Y58.675
N15835 X556.024 Y58.714
N15840 X554.341 Y58.744
N15845 X552.667 Y58.576
N15850 X550.99 Y58.45
N15855 X549.31 Y58.356
N15860 X547.629 Y58.286
N15865 X545.947 Y58.233
N15870 X544.265 Y58.194
N15875 X542.583 Y58.164
N15880 X540.901 Y58.142
N15885 X539.218 Y58.125
N15890 X537.536 Y58.112
N15895 X535.853 Y58.102
N15900 X534.171 Y58.095
N15905 X532.488 Y58.09
N15910 X530.806 Y58.085
N15915 X527.441 Y58.08
N15920 X522.393 Y58.076
N15925 X512.299 Y58.073
N15930 X505.569
N15935 X455.094 Y58.072
N15940 X404.62 Y58.071
N15945 X354.146
N15950 X303.671 Y58.07
N15955 X253.197 Y58.069
N15960 X202.723
N15965 X152.249 Y58.068
N15970 X101.774
N15975 X100.092
N15980 X99.253 Y58.129
N15985 X98.102 Y58.206
N15990 X96.808 Y58.284
N15995 X95.329 Y58.362
N16000 X93.648 Y58.438
N16005 X91.967 Y58.502
N16010 X90.285 Y58.556
N16015 X88.604 Y58.603
N16020 X86.922 Y58.646
N16025 X85.24 Y58.685
N16030 X73.465 Y58.95
N16035 X68.419 Y59.066
N16040 X67.578 Y59.091
N16045 X66.948 Y59.113
N16050 X65.162 Y59.184
N16055 X64.322 Y59.235
N16060 X63.903 Y59.27
N16065 X63.488 Y59.338
N16070 X63.079 Y59.437
N16075 X62.679 Y59.569
N16080 X62.291 Y59.731
N16085 X61.917 Y59.923
N16090 X61.559 Y60.144
N16095 X61.22 Y60.392
N16100 X60.9 Y60.666
N16105 X60.604 Y60.964
N16110 X60.331 Y61.285
N16115 X60.084 Y61.625
N16120 X59.865 Y61.984
N16125 X59.675 Y62.359
N16130 X59.514 Y62.748
N16135 X59.384 Y63.148
N16140 X59.286 Y63.557
N16145 X59.22 Y63.973
N16150 X59.187 Y64.392
N16155 Y64.813
N16160 X59.22 Y65.232
N16165 X59.285 Y65.647
N16170 X59.383 Y66.057
N16175 X59.512 Y66.457
N16180 X59.672 Y66.846
N16185 X60.433 Y68.346
N16190 X60.538 Y68.453
N16195 X60.642 Y68.562
N16200 X60.744 Y68.672
N16205 X61.875 Y69.917
N16210 X62.641 Y71.209
N16215 X63.38 Y72.72
N16220 X64.004 Y74.283
N16225 X64.532 Y75.88
N16230 X64.979 Y77.502
N16235 X65.357 Y79.142
N16240 X65.676 Y80.793
N16245 X65.947 Y82.454
N16250 X66.175 Y84.121
N16255 X66.369 Y85.792
N16260 X66.507 Y87.469
N16265 X66.593 Y89.149
N16270 X66.645 Y90.831
N16275 X66.677 Y92.513
N16280 X66.694 Y94.196
N16285 X66.703 Y95.878
N16290 X66.707 Y97.56
N16295 Y99.243
N16300 X66.704 Y100.925
N16305 X66.685 Y109.338
N16310 X66.673 Y114.385
N16315 X66.668 Y117.75
N16320 X66.663 Y122.798
N16325 X66.66 Y129.528
N16330 X66.659 Y148.035
N16335 X66.658 Y168.224
N16340 Y218.699
N16345 Y269.173
N16350 Y319.647
N16355 Y370.122
N16360 X66.657 Y420.596
N16365 Y471.07
N16370 Y521.545
N16375 Y568.654
N16380 X66.659 Y570.337
N16385 X66.667 Y572.019
N16390 X66.684 Y573.701
N16395 X66.895 Y575.371
N16400 X67.106 Y576.82
N16405 X67.325 Y578.488
N16410 X67.527 Y580.158
N16415 X67.72 Y581.83
N16420 X67.956 Y583.919
N16425 X68.145 Y585.591
N16430 X68.283 Y586.846
N16435 X68.362 Y587.259
N16440 X68.472 Y587.665
N16445 X68.614 Y588.061
N16450 X68.786 Y588.444
N16455 X68.988 Y588.813
N16460 X69.218 Y589.165
N16465 X69.475 Y589.498
N16470 X69.758 Y589.81
N16475 X70.063 Y590.099
N16480 X70.391 Y590.363
N16485 X70.738 Y590.601
N16490 X71.102 Y590.811
N16495 X71.482 Y590.991
N16500 X71.875 Y591.142
N16505 X72.278 Y591.261
N16510 X72.69 Y591.349
N16515 X73.107 Y591.403
N16520 X73.527 Y591.425
N16525 X73.947 Y591.415
N16530 X74.366 Y591.371
N16535 X74.779 Y591.295
N16540 X75.186 Y591.187
N16545 X75.582 Y591.047
N16550 X75.967 Y590.876
N16555 X77.447 Y590.077
N16560 X77.555 Y589.973
N16565 X77.664 Y589.87
N16570 X77.775 Y589.768
N16575 X77.886 Y589.668
N16580 X77.999 Y589.569
N16585 X78.113 Y589.471
N16590 X78.228 Y589.375
N16595 X78.343 Y589.279
N16600 X78.46 Y589.185
N16605 X78.578 Y589.092
N16610 X78.696 Y589.
N16615 X78.816 Y588.909
N16620 X78.936 Y588.82
N16625 X79.057 Y588.731
N16630 X79.179 Y588.644
N16635 X79.302 Y588.558
N16640 X79.425 Y588.472
N16645 X79.549 Y588.388
N16650 X79.674 Y588.305
N16655 X79.8 Y588.223
N16660 X79.926 Y588.142
N16665 X80.053 Y588.062
N16670 X80.18 Y587.983
N16675 X80.309 Y587.905
N16680 X80.437 Y587.828
N16685 X80.567 Y587.751
N16690 X80.698 Y587.676
N16695 X80.832 Y587.599
N16700 X80.97 Y587.522
N16705 X81.11 Y587.445
N16710 X81.255 Y587.367
N16715 X81.403 Y587.288
N16720 X81.552 Y587.211
N16725 X81.704 Y587.132
N16730 X81.86 Y587.054
N16735 X82.02 Y586.975
N16740 X82.185 Y586.895
N16745 X82.353 Y586.815
N16750 X82.524 Y586.735
N16755 X82.698 Y586.655
N16760 X82.876 Y586.575
N16765 X83.059 Y586.495
N16770 X83.248 Y586.413
N16775 X83.441 Y586.332
N16780 X83.639 Y586.25
N16785 X83.838 Y586.169
N16790 X84.043 Y586.087
N16795 X84.254 Y586.005
N16800 X84.471 Y585.923
N16805 X84.694 Y585.84
N16810 X84.924 Y585.756
N16815 X85.157 Y585.673
N16820 X85.395 Y585.591
N16825 X85.64 Y585.508
N16830 X85.893 Y585.424
N16835 X86.154 Y585.34
N16840 X86.424 Y585.255
N16845 X86.698 Y585.171
N16850 X86.978 Y585.087
N16855 X87.267 Y585.003
N16860 X87.567 Y584.919
N16865 X87.878 Y584.833
N16870 X88.198 Y584.748
N16875 X88.523 Y584.664
N16880 X88.861 Y584.579
N16885 X89.212 Y584.493
N16890 X89.577 Y584.407
N16895 X89.952 Y584.322
N16900 X90.338 Y584.237
N16905 X90.741 Y584.151
N16910 X91.163 Y584.065
N16915 X91.598 Y583.979
N16920 X92.049 Y583.893
N16925 X92.523 Y583.807
N16930 X93.02 Y583.72
N16935 X93.532 Y583.635
N16940 X94.073 Y583.549
N16945 X94.646 Y583.462
N16950 X95.239 Y583.376
N16955 X95.871 Y583.29
N16960 X96.54 Y583.203
N16965 X97.246 Y583.117
N16970 X98.004 Y583.03
N16975 X98.807 Y582.944
N16980 X99.676 Y582.858
N16985 X100.095 Y582.819
N16990 X101.777 Y582.794
N16995 X103.46 Y582.8
N17000 X105.142 Y582.832
N17005 X106.824 Y582.876
N17010 X110.188 Y582.971
N17015 X111.869 Y583.016
N17020 X113.551 Y583.064
N17025 X115.233 Y583.112
N17030 X116.915 Y583.154
N17035 X118.597 Y583.19
N17040 X120.279 Y583.22
N17045 X121.962 Y583.245
N17050 X123.644 Y583.264
N17055 X125.326 Y583.28
N17060 X127.009 Y583.292
N17065 X128.691 Y583.301
N17070 X130.374 Y583.308
N17075 X132.056 Y583.313
N17080 X133.739 Y583.318
N17085 X137.104 Y583.323
N17090 X142.151 Y583.327
N17095 X150.563 Y583.329
N17100 X201.038 Y583.331
N17105 X251.512 Y583.333
N17110 X301.986 Y583.334
N17115 X352.461 Y583.335
N17120 X402.935 Y583.337
N17125 X453.409 Y583.338
N17130 X503.884 Y583.34
N17135 X554.358 Y583.341
N17140 X556.04 Y583.34
N17145 X557.714 Y583.166
N17150 X559.388 Y582.996
N17155 X561.062 Y582.831
N17160 X562.737 Y582.673
N17165 X564.413 Y582.521
N17170 X566.089 Y582.376
N17175 X567.766 Y582.238
N17180 X569.443 Y582.103
N17185 X571.12 Y581.973
N17190 X572.798 Y581.847
N17195 X574.476 Y581.723
N17200 X576.153 Y581.589
N17205 X577.831 Y581.464
N17210 X579.509 Y581.343
N17215 X581.187 Y581.22
N17220 X582.865 Y581.092
N17225 X584.856 Y580.932
N17230 X586.114 Y580.83
N17235 X586.529 Y580.763
N17240 X586.938 Y580.664
N17245 X587.338 Y580.534
N17250 X587.726 Y580.372
N17255 X588.101 Y580.181
N17260 X588.459 Y579.961
N17265 X588.799 Y579.714
N17270 X589.119 Y579.441
N17275 X589.417 Y579.143
N17280 X589.69 Y578.823
N17285 X589.938 Y578.483
N17290 X590.158 Y578.125
N17295 X590.349 Y577.75
N17300 X590.511 Y577.362
N17305 X590.641 Y576.962
N17310 X590.74 Y576.553
N17315 X590.807 Y576.138
N17320 X590.841 Y575.719
N17325 X590.842 Y575.298
N17330 X590.811 Y574.879
N17335 X590.746 Y574.463
N17340 X590.65 Y574.054
N17345 X590.521 Y573.653
N17350 X590.362 Y573.264
N17355 X589.605 Y571.762
N17360 X589.508 Y571.647
N17365 X589.413 Y571.531
N17370 X589.319 Y571.414
N17375 X589.227 Y571.296
N17380 X589.135 Y571.177
N17385 X589.045 Y571.057
N17390 X588.957 Y570.936
N17395 X588.869 Y570.814
N17400 X588.783 Y570.691
N17405 X588.697 Y570.568
N17410 X588.613 Y570.444
N17415 X588.531 Y570.319
N17420 X588.449 Y570.193
N17425 X588.368 Y570.066
N17430 X588.289 Y569.939
N17435 X588.21 Y569.811
N17440 X588.133 Y569.683
N17445 X588.057 Y569.554
N17450 X587.982 Y569.424
N17455 X587.907 Y569.293
N17460 X587.834 Y569.162
N17465 X587.762 Y569.031
N17470 X587.691 Y568.899
N17475 X587.62 Y568.765
N17480 X587.548 Y568.628
N17485 X587.476 Y568.487
N17490 X587.404 Y568.343
N17495 X587.331 Y568.195
N17500 X587.259 Y568.045
N17505 X587.187 Y567.893
N17510 X587.114 Y567.737
N17515 X587.041 Y567.577
N17520 X586.968 Y567.414
N17525 X586.894 Y567.246
N17530 X586.82 Y567.073
N17535 X586.745 Y566.896
N17540 X586.67 Y566.715
N17545 X586.596 Y566.531
N17550 X586.522 Y566.343
N17555 X586.447 Y566.15
N17560 X586.372 Y565.954
N17565 X585.904 Y564.338
N17570 X585.508 Y562.702
N17575 X585.174 Y561.053
N17580 X584.891 Y559.395
N17585 X584.652 Y557.729
N17590 X584.449 Y556.059
N17595 X584.277 Y554.386
N17600 X584.132 Y552.709
N17605 X584.009 Y551.031
N17610 X583.905 Y549.352
N17615 X583.816 Y547.672
N17620 X583.742 Y545.991
N17625 X583.678 Y544.31
N17630 X583.625 Y542.628
N17635 X583.579 Y540.946
N17640 X583.541 Y539.264
N17645 X583.508 Y537.582
N17650 X583.481 Y535.9
N17655 X583.458 Y534.218
N17660 X583.438 Y532.535
N17665 X583.421 Y530.853
N17670 X583.407 Y529.17
N17675 X583.395 Y527.488
N17680 X583.385 Y525.806
N17685 X583.376 Y524.123
N17690 X583.369 Y522.441
N17695 X583.358 Y519.076
N17700 X583.35 Y515.711
N17705 X583.342 Y510.663
N17710 X583.337 Y505.616
N17715 X583.333 Y497.204
N17720 X583.331 Y482.061
N17725 Y465.236
N17730 X583.332 Y414.762
N17735 X583.334 Y364.288
N17740 X583.335 Y313.814
N17745 X583.336 Y263.339
N17750 X583.338 Y212.865
N17755 X583.339 Y162.391
N17760 X583.341 Y111.916
N17765 Y83.314
N17770 Y81.632
N17775 X583.338 Y79.949
N17780 X583.333 Y78.267
N17785 X583.322 Y76.584
N17790 X583.306 Y74.902
N17795 X583.285 Y73.22
N17800 X583.232 Y71.538
N17805 X583.117 Y69.859
N17810 X582.964 Y68.184
N17815 X582.877 Y67.347
N17820 X582.596 Y64.733
N17825 X582.518 Y64.32
N17830 X582.408 Y63.914
N17835 X582.267 Y63.518
N17840 X582.095 Y63.134
N17845 X581.894 Y62.765
N17850 X581.664 Y62.412
N17855 X581.408 Y62.079
N17860 X581.126 Y61.766
N17865 X580.821 Y61.477
N17870 X580.494 Y61.212
N17875 X580.147 Y60.974
N17880 X579.783 Y60.764
N17885 X579.404 Y60.582
N17890 X579.011 Y60.431
N17895 X578.608 Y60.312
N17900 X578.196 Y60.224
N17905 X577.779 Y60.168
N17910 X577.359 Y60.145
N17915 X576.939 Y60.155
N17920 X576.521 Y60.198
N17925 X576.107 Y60.274
N17930 X575.7 Y60.382
N17935 X575.303 Y60.521
N17940 X573.764 Y61.2
N17945 X573.648 Y61.295
N17950 X573.53 Y61.388
N17955 X573.412 Y61.48
N17960 X573.293 Y61.571
N17965 X573.173 Y61.661
N17970 X573.052 Y61.75
N17975 X572.93 Y61.838
N17980 X572.807 Y61.924
N17985 X572.684 Y62.009
N17990 X572.56 Y62.093
N17995 X572.435 Y62.176
N18000 X572.309 Y62.258
N18005 X572.183 Y62.339
N18010 X572.056 Y62.419
N18015 X571.928 Y62.498
N18020 X571.8 Y62.575
N18025 X571.671 Y62.652
N18030 X571.541 Y62.728
N18035 X571.411 Y62.802
N18040 X571.281 Y62.876
N18045 X571.149 Y62.949
N18050 X571.015 Y63.022
N18055 X570.88 Y63.094
N18060 X570.74 Y63.167
N18065 X570.598 Y63.241
N18070 X570.452 Y63.315
N18075 X570.302 Y63.389
N18080 X570.15 Y63.464
N18085 X569.996 Y63.538
N18090 X569.838 Y63.612
N18095 X569.676 Y63.687
N18100 X569.51 Y63.762
N18105 X569.34 Y63.837
N18110 X569.165 Y63.913
N18115 X568.987 Y63.989
N18120 X568.807 Y64.064
N18125 X568.622 Y64.14
N18130 X568.433 Y64.216
N18135 X568.238 Y64.293
N18140 X568.037 Y64.369
N18145 X567.831 Y64.447
N18150 X567.62 Y64.524
N18155 X567.406 Y64.601
N18160 X567.188 Y64.678
N18165 X566.963 Y64.755
N18170 X566.731 Y64.832
N18175 X566.492 Y64.91
N18180 X566.246 Y64.988
N18185 X565.994 Y65.066
N18190 X565.737 Y65.143
N18195 X565.473 Y65.221
N18200 X565.2 Y65.299
N18205 X564.918 Y65.378
N18210 X564.626 Y65.456
N18215 X564.331 Y65.534
N18220 X564.059 Y65.603
N18225 X563.807 Y65.665
N18230 X563.572 Y65.721
N18235 X563.349 Y65.772
N18240 X563.128 Y65.822
N18245 X562.901 Y65.871
N18250 X562.668 Y65.919
N18255 X562.428 Y65.967
N18260 X562.181 Y66.015
N18265 X561.92 Y66.063
N18270 X561.628 Y66.115
N18275 X561.327 Y66.166
N18280 X561.015 Y66.217
N18285 X560.692 Y66.267
N18290 X560.329 Y66.32
N18295 X559.945 Y66.374
N18300 X559.546 Y66.427
N18305 X559.122 Y66.48
N18310 X558.646 Y66.536
N18315 X558.146 Y66.591
N18320 X557.611 Y66.646
N18325 X557.007 Y66.703
N18330 X556.364 Y66.759
N18335 X555.64 Y66.818
N18340 X554.843 Y66.876
N18345 X553.935 Y66.936
N18350 X552.914 Y66.995
N18355 X551.708 Y67.056
N18360 X550.282 Y67.119
N18365 X548.601 Y67.18
N18370 X546.919 Y67.229
N18375 X545.237 Y67.268
N18380 X543.555 Y67.3
N18385 X541.872 Y67.326
N18390 X540.19 Y67.347
N18395 X538.508 Y67.365
N18400 X536.825 Y67.379
N18405 X535.143 Y67.391
N18410 X533.46 Y67.4
N18415 X531.778 Y67.408
N18420 X530.096 Y67.415
N18425 X528.428 Y67.194
N18430 X526.752 Y67.041
N18435 X525.073 Y66.933
N18440 X523.392 Y66.857
N18445 X521.711 Y66.804
N18450 X520.029 Y66.766
N18455 X518.346 Y66.739
N18460 X516.664 Y66.72
N18465 X514.982 Y66.706
N18470 X513.299 Y66.696
N18475 X511.617 Y66.69
N18480 X509.934 Y66.685
N18485 X506.569 Y66.679
N18490 X501.522 Y66.675
N18495 X491.427 Y66.673
N18500 X481.332 Y66.672
N18505 X430.858
N18510 X380.383 Y66.671
N18515 X329.909 Y66.67
N18520 X279.435
N18525 X228.96 Y66.669
N18530 X178.486
N18535 X128.012 Y66.668
N18540 X104.457
N18545 X102.775 Y66.702
N18550 X101.093 Y66.755
N18555 X99.412 Y66.818
N18560 X97.731 Y66.879
N18565 X96.049 Y66.937
N18570 X94.368 Y66.992
N18575 X92.686 Y67.044
N18580 X91.004 Y67.094
N18585 X89.322 Y67.142
N18590 X87.641 Y67.189
N18595 X85.118 Y67.256
N18600 X83.436 Y67.299
N18605 X81.754 Y67.345
N18610 X80.072 Y67.389
N18615 X78.39 Y67.431
N18620 X76.708 Y67.472
N18625 X73.029 Y67.56
N18630 X72.188 Y67.581
N18635 X71.767 Y67.593
N18640 X71.349 Y67.637
N18645 X70.936 Y67.715
N18650 X70.529 Y67.824
N18655 X70.133 Y67.964
N18660 X69.749 Y68.135
N18665 X69.379 Y68.336
N18670 X69.026 Y68.565
N18675 X68.692 Y68.821
N18680 X68.38 Y69.102
N18685 X68.09 Y69.407
N18690 X67.825 Y69.733
N18695 X67.586 Y70.08
N18700 X67.375 Y70.443
N18705 X67.193 Y70.823
N18710 X67.041 Y71.215
N18715 X66.92 Y71.618
N18720 X66.832 Y72.029
N18725 X66.775 Y72.446
N18730 X66.752 Y72.866
N18735 X66.761 Y73.286
N18740 X66.804 Y73.705
N18745 X66.878 Y74.119
N18750 X66.985 Y74.526
N18755 X67.124 Y74.923
N18760 X67.293 Y75.308
N18765 X68.088 Y76.791
N18770 X68.778 Y77.526
N18775 X69.495 Y78.423
N18780 X70.236 Y79.521
N18785 X70.99 Y80.859
N18790 X71.695 Y82.386
N18795 X72.287 Y83.961
N18800 X72.781 Y85.569
N18805 X73.194 Y87.2
N18810 X73.539 Y88.847
N18815 X73.826 Y90.505
N18820 X74.066 Y92.17
N18825 X74.266 Y93.841
N18830 X74.432 Y95.515
N18835 X74.571 Y97.192
N18840 X74.686 Y98.87
N18845 X74.783 Y100.55
N18850 X74.863 Y102.231
N18855 X74.929 Y103.912
N18860 X74.984 Y105.593
N18865 X75.03 Y107.275
N18870 X75.068 Y108.957
N18875 X75.1 Y110.639
N18880 X75.126 Y112.322
N18885 X75.148 Y114.004
N18890 X75.166 Y115.686
N18895 X75.181 Y117.369
N18900 X75.194 Y119.051
N18905 X75.205 Y120.734
N18910 X75.213 Y122.416
N18915 X75.221 Y124.099
N18920 X75.227 Y125.781
N18925 X75.236 Y129.146
N18930 X75.243 Y132.511
N18935 X75.249 Y137.558
N18940 X75.254 Y144.288
N18945 X75.257 Y156.066
N18950 Y159.431
N18955 X75.258 Y209.905
N18960 Y260.379
N18965 Y310.854
N18970 Y361.328
N18975 X75.257 Y411.802
N18980 Y462.276
N18985 Y512.751
N18990 Y563.225
N18995 Y564.908
N19000 X75.436 Y566.581
N19005 X75.527 Y567.41
N19010 X75.686 Y569.085
N19015 X75.856 Y570.759
N19020 X76.047 Y572.43
N19025 X76.456 Y575.876
N19030 X76.653 Y577.547
N19035 X76.798 Y578.801
N19040 X76.879 Y579.214
N19045 X76.992 Y579.619
N19050 X77.136 Y580.014
N19055 X77.311 Y580.396
N19060 X77.515 Y580.764
N19065 X77.747 Y581.115
N19070 X78.006 Y581.446
N19075 X78.29 Y581.757
N19080 X78.597 Y582.044
N19085 X78.926 Y582.306
N19090 X79.275 Y582.542
N19095 X79.64 Y582.749
N19100 X80.021 Y582.928
N19105 X80.415 Y583.076
N19110 X80.819 Y583.193
N19115 X81.231 Y583.277
N19120 X81.648 Y583.33
N19125 X82.069 Y583.35
N19130 X82.489 Y583.336
N19135 X82.907 Y583.29
N19140 X83.32 Y583.211
N19145 X83.726 Y583.101
N19150 X84.122 Y582.959
N19155 X84.505 Y582.786
N19160 X84.874 Y582.584
N19165 X86.282 Y581.663
N19170 X86.384 Y581.553
N19175 X86.488 Y581.444
N19180 X86.592 Y581.336
N19185 X86.698 Y581.23
N19190 X86.805 Y581.125
N19195 X86.914 Y581.022
N19200 X87.023 Y580.919
N19205 X87.134 Y580.818
N19210 X87.245 Y580.718
N19215 X87.358 Y580.619
N19220 X87.472 Y580.521
N19225 X87.586 Y580.424
N19230 X87.702 Y580.328
N19235 X87.819 Y580.234
N19240 X87.936 Y580.141
N19245 X88.054 Y580.048
N19250 X88.174 Y579.957
N19255 X88.293 Y579.867
N19260 X88.414 Y579.778
N19265 X88.536 Y579.69
N19270 X88.658 Y579.603
N19275 X88.781 Y579.517
N19280 X88.905 Y579.433
N19285 X89.029 Y579.349
N19290 X89.154 Y579.266
N19295 X89.28 Y579.184
N19300 X89.406 Y579.103
N19305 X89.533 Y579.023
N19310 X89.66 Y578.944
N19315 X89.791 Y578.864
N19320 X89.924 Y578.784
N19325 X90.062 Y578.703
N19330 X90.2 Y578.623
N19335 X90.341 Y578.542
N19340 X90.486 Y578.461
N19345 X90.628 Y578.383
N19350 X90.768 Y578.307
N19355 X90.904 Y578.235
N19360 X91.037 Y578.165
N19365 X91.17 Y578.096
N19370 X91.305 Y578.028
N19375 X91.444 Y577.96
N19380 X91.585 Y577.891
N19385 X91.73 Y577.822
N19390 X91.879 Y577.752
N19395 X92.031 Y577.683
N19400 X92.187 Y577.612
N19405 X92.347 Y577.542
N19410 X92.508 Y577.472
N19415 X92.668 Y577.405
N19420 X92.831 Y577.337
N19425 X92.998 Y577.269
N19430 X93.17 Y577.2
N19435 X93.346 Y577.132
N19440 X93.526 Y577.063
N19445 X93.712 Y576.994
N19450 X93.902 Y576.924
N19455 X94.092 Y576.857
N19460 X94.283 Y576.79
N19465 X94.478 Y576.724
N19470 X94.68 Y576.657
N19475 X94.887 Y576.59
N19480 X95.099 Y576.523
N19485 X95.318 Y576.456
N19490 X95.542 Y576.389
N19495 X95.768 Y576.323
N19500 X96. Y576.257
N19505 X96.239 Y576.191
N19510 X96.485 Y576.125
N19515 X96.739 Y576.06
N19520 X97. Y575.994
N19525 X97.269 Y575.928
N19530 X97.545 Y575.863
N19535 X97.83 Y575.798
N19540 X98.125 Y575.732
N19545 X98.43 Y575.667
N19550 X98.746 Y575.602
N19555 X99.074 Y575.537
N19560 X99.414 Y575.473
N19565 X99.768 Y575.408
N19570 X100.135 Y575.344
N19575 X100.52 Y575.279
N19580 X100.922 Y575.215
N19585 X101.341 Y575.151
N19590 X101.78 Y575.087
N19595 X102.235 Y575.024
N19600 X102.711 Y574.962
N19605 X103.212 Y574.901
N19610 X103.741 Y574.84
N19615 X104.302 Y574.779
N19620 X104.897 Y574.72
N19625 X105.541 Y574.66
N19630 X106.233 Y574.6
N19635 X106.988 Y574.541
N19640 X107.827 Y574.482
N19645 X109.509 Y574.498
N19650 X111.192 Y574.517
N19655 X119.603 Y574.616
N19660 X121.286 Y574.634
N19665 X122.968 Y574.651
N19670 X124.651 Y574.666
N19675 X126.333 Y574.678
N19680 X128.015 Y574.688
N19685 X129.698 Y574.697
N19690 X131.38 Y574.704
N19695 X133.063 Y574.709
N19700 X136.428 Y574.717
N19705 X139.793 Y574.722
N19710 X144.84 Y574.727
N19715 X153.253 Y574.729
N19720 X158.3 Y574.73
N19725 X208.774 Y574.731
N19730 X259.249 Y574.733
N19735 X309.723 Y574.734
N19740 X360.197 Y574.736
N19745 X410.672 Y574.737
N19750 X461.146 Y574.738
N19755 X511.62 Y574.74
N19760 X550.317 Y574.741
N19765 X552. Y574.729
N19770 X553.681 Y574.668
N19775 X555.361 Y574.575
N19780 X557.04 Y574.462
N19785 X558.717 Y574.337
N19790 X560.395 Y574.205
N19795 X562.072 Y574.071
N19800 X563.749 Y573.938
N19805 X564.581 Y573.811
N19810 X565.681 Y573.65
N19815 X567.347 Y573.418
N19820 X568.148 Y573.276
N19825 X569.138 Y573.115
N19830 X570.304 Y572.943
N19835 X571.683 Y572.759
N19840 X573.354 Y572.562
N19845 X575.027 Y572.388
N19850 X575.551 Y572.338
N19855 X577.226 Y572.183
N19860 X578.483 Y572.073
N19865 X578.898 Y572.003
N19870 X579.306 Y571.902
N19875 X579.705 Y571.769
N19880 X580.093 Y571.606
N19885 X580.466 Y571.412
N19890 X580.823 Y571.19
N19895 X581.162 Y570.94
N19900 X581.48 Y570.665
N19905 X581.776 Y570.366
N19910 X582.047 Y570.045
N19915 X582.293 Y569.703
N19920 X582.511 Y569.344
N19925 X582.7 Y568.968
N19930 X582.859 Y568.579
N19935 X582.988 Y568.178
N19940 X583.084 Y567.769
N19945 X583.149 Y567.353
N19950 X583.18 Y566.934
N19955 X583.179 Y566.513
N19960 X583.145 Y566.094
N19965 X583.078 Y565.679
N19970 X582.979 Y565.27
N19975 X582.848 Y564.87
N19980 X582.686 Y564.482
N19985 X581.92 Y562.984
N19990 X581.818 Y562.874
N19995 X581.717 Y562.763
N20000 X581.617 Y562.651
N20005 X581.519 Y562.538
N20010 X581.422 Y562.423
N20015 X581.326 Y562.308
N20020 X581.231 Y562.192
N20025 X581.138 Y562.074
N20030 X581.046 Y561.956
N20035 X580.955 Y561.837
N20040 X580.865 Y561.717
N20045 X580.776 Y561.596
N20050 X580.688 Y561.474
N20055 X580.602 Y561.351
N20060 X580.516 Y561.228
N20065 X580.432 Y561.104
N20070 X580.349 Y560.979
N20075 X580.267 Y560.854
N20080 X580.186 Y560.727
N20085 X580.106 Y560.601
N20090 X580.027 Y560.473
N20095 X579.949 Y560.345
N20100 X579.872 Y560.216
N20105 X579.796 Y560.087
N20110 X579.721 Y559.957
N20115 X579.646 Y559.826
N20120 X579.572 Y559.692
N20125 X579.496 Y559.555
N20130 X579.421 Y559.415
N20135 X579.344 Y559.271
N20140 X579.267 Y559.123
N20145 X579.19 Y558.971
N20150 X579.113 Y558.819
N20155 X579.037 Y558.664
N20160 X578.96 Y558.505
N20165 X578.883 Y558.342
N20170 X578.805 Y558.175
N20175 X578.727 Y558.004
N20180 X578.648 Y557.828
N20185 X578.569 Y557.647
N20190 X578.489 Y557.462
N20195 X578.411 Y557.276
N20200 X578.332 Y557.086
N20205 X578.253 Y556.89
N20210 X578.173 Y556.688
N20215 X578.093 Y556.481
N20220 X578.012 Y556.268
N20225 X577.93 Y556.049
N20230 X577.85 Y555.827
N20235 X577.77 Y555.6
N20240 X577.689 Y555.366
N20245 X577.607 Y555.125
N20250 X577.526 Y554.877
N20255 X577.443 Y554.621
N20260 X577.361 Y554.359
N20265 X577.28 Y554.092
N20270 X577.198 Y553.816
N20275 X577.115 Y553.531
N20280 X577.032 Y553.236
N20285 X576.948 Y552.93
N20290 X576.866 Y552.62
N20295 X576.783 Y552.299
N20300 X576.7 Y551.966
N20305 X576.616 Y551.62
N20310 X576.532 Y551.261
N20315 X576.449 Y550.894
N20320 X576.365 Y550.512
N20325 X576.281 Y550.114
N20330 X576.196 Y549.698
N20335 X576.112 Y549.271
N20340 X576.028 Y548.824
N20345 X575.943 Y548.356
N20350 X575.859 Y547.867
N20355 X575.774 Y547.359
N20360 X575.689 Y546.822
N20365 X575.604 Y546.258
N20370 X575.52 Y545.668
N20375 X575.434 Y545.041
N20380 X575.349 Y544.378
N20385 X575.264 Y543.675
N20390 X575.179 Y542.923
N20395 X575.094 Y542.122
N20400 X575.012 Y541.285
N20405 X574.981 Y539.603
N20410 X574.953 Y537.92
N20415 X574.928 Y536.238
N20420 X574.905 Y534.556
N20425 X574.884 Y532.873
N20430 X574.866 Y531.191
N20435 X574.849 Y529.509
N20440 X574.835 Y527.826
N20445 X574.822 Y526.144
N20450 X574.81 Y524.461
N20455 X574.8 Y522.779
N20460 X574.791 Y521.097
N20465 X574.776 Y517.732
N20470 X574.765 Y514.367
N20475 X574.756 Y511.002
N20480 X574.747 Y505.954
N20485 X574.741 Y500.907
N20490 X574.736 Y494.177
N20495 X574.735 Y490.812
N20500 X574.732 Y477.352
N20505 X574.731 Y440.338
N20510 X574.733 Y389.863
N20515 X574.734 Y339.389
N20520 X574.736 Y288.915
N20525 X574.737 Y238.44
N20530 X574.738 Y187.966
N20535 X574.74 Y137.492
N20540 X574.741 Y87.017
N20545 Y85.335
N20550 X574.612 Y83.657
N20555 X574.525 Y82.917
N20560 X574.437 Y82.063
N20565 X574.345 Y81.035
N20570 X574.25 Y79.744
N20575 X574.149 Y78.064
N20580 X574.069 Y76.384
N20585 X574.021 Y75.438
N20590 X573.921 Y73.654
N20595 X573.863 Y72.814
N20600 X573.832 Y72.395
N20605 X573.768 Y71.979
N20610 X573.671 Y71.57
N20615 X573.543 Y71.169
N20620 X573.384 Y70.78
N20625 X573.195 Y70.404
N20630 X572.977 Y70.044
N20635 X572.732 Y69.703
N20640 X572.461 Y69.381
N20645 X572.165 Y69.082
N20650 X571.847 Y68.807
N20655 X571.508 Y68.557
N20660 X571.151 Y68.335
N20665 X570.778 Y68.141
N20670 X570.39 Y67.977
N20675 X569.991 Y67.844
N20680 X569.583 Y67.743
N20685 X569.168 Y67.674
N20690 X568.749 Y67.637
N20695 X568.329 Y67.633
N20700 X567.909 Y67.663
N20705 X567.493 Y67.725
N20710 X567.083 Y67.819
N20715 X566.682 Y67.945
N20720 X566.292 Y68.102
N20725 X565.915 Y68.289
N20730 X564.471 Y69.153
N20735 X564.361 Y69.255
N20740 X564.251 Y69.356
N20745 X564.139 Y69.456
N20750 X564.025 Y69.554
N20755 X563.911 Y69.652
N20760 X563.796 Y69.748
N20765 X563.679 Y69.842
N20770 X563.562 Y69.936
N20775 X563.444 Y70.028
N20780 X563.324 Y70.119
N20785 X563.204 Y70.208
N20790 X563.083 Y70.297
N20795 X562.961 Y70.384
N20800 X562.838 Y70.47
N20805 X562.715 Y70.556
N20810 X562.591 Y70.639
N20815 X562.465 Y70.722
N20820 X562.34 Y70.804
N20825 X562.213 Y70.885
N20830 X562.086 Y70.964
N20835 X561.958 Y71.043
N20840 X561.83 Y71.12
N20845 X561.701 Y71.197
N20850 X561.571 Y71.272
N20855 X561.441 Y71.346
N20860 X561.31 Y71.42
N20865 X561.178 Y71.493
N20870 X561.042 Y71.566
N20875 X560.906 Y71.639
N20880 X560.766 Y71.712
N20885 X560.624 Y71.785
N20890 X560.477 Y71.859
N20895 X560.328 Y71.933
N20900 X560.174 Y72.008
N20905 X560.017 Y72.083
N20910 X559.855 Y72.158
N20915 X559.693 Y72.233
N20920 X559.527 Y72.308
N20925 X559.356 Y72.383
N20930 X559.181 Y72.459
N20935 X559.002 Y72.535
N20940 X558.818 Y72.612
N20945 X558.628 Y72.689
N20950 X558.434 Y72.766
N20955 X558.238 Y72.843
N20960 X558.037 Y72.919
N20965 X557.831 Y72.996
N20970 X557.619 Y73.073
N20975 X557.401 Y73.151
N20980 X557.176 Y73.23
N20985 X556.945 Y73.308
N20990 X556.71 Y73.386
N20995 X556.47 Y73.464
N21000 X556.222 Y73.542
N21005 X555.966 Y73.621
N21010 X555.702 Y73.7
N21015 X555.429 Y73.78
N21020 X555.152 Y73.858
N21025 X554.866 Y73.937
N21030 X554.57 Y74.016
N21035 X554.264 Y74.096
N21040 X553.946 Y74.176
N21045 X553.62 Y74.256
N21050 X553.284 Y74.336
N21055 X552.935 Y74.415
N21060 X552.572 Y74.496
N21065 X552.194 Y74.577
N21070 X551.806 Y74.656
N21075 X551.402 Y74.737
N21080 X550.979 Y74.817
N21085 X550.536 Y74.898
N21090 X550.079 Y74.979
N21095 X549.598 Y75.059
N21100 X549.092 Y75.141
N21105 X548.564 Y75.221
N21110 X548.008 Y75.302
N21115 X547.419 Y75.384
N21120 X546.798 Y75.465
N21125 X546.139 Y75.546
N21130 X545.435 Y75.627
N21135 X544.685 Y75.708
N21140 X543.877 Y75.79
N21145 X543.007 Y75.871
N21150 X542.06 Y75.952
N21155 X541.221 Y76.018
N21160 X537.856 Y76.001
N21165 X536.174 Y75.959
N21170 X534.493 Y75.9
N21175 X531.13 Y75.769
N21180 X529.449 Y75.707
N21185 X527.768 Y75.641
N21190 X526.087 Y75.576
N21195 X524.405 Y75.517
N21200 X522.724 Y75.467
N21205 X521.042 Y75.425
N21210 X519.359 Y75.391
N21215 X517.677 Y75.364
N21220 X515.995 Y75.343
N21225 X514.313 Y75.326
N21230 X512.63 Y75.313
N21235 X510.948 Y75.303
N21240 X509.265 Y75.296
N21245 X507.583 Y75.29
N21250 X505.9 Y75.286
N21255 X502.535 Y75.28
N21260 X497.488 Y75.275
N21265 X490.758 Y75.273
N21270 X453.743 Y75.272
N21275 X440.284
N21280 X389.809 Y75.271
N21285 X339.335
N21290 X288.861 Y75.27
N21295 X238.386 Y75.269
N21300 X187.912
N21305 X137.438 Y75.268
N21310 X108.836
N21315 X107.153 Y75.276
N21320 X105.471 Y75.298
N21325 X103.789 Y75.331
N21330 X102.107 Y75.373
N21335 X100.425 Y75.419
N21340 X95.38 Y75.566
N21345 X92.016 Y75.661
N21350 X90.334 Y75.71
N21355 X86.971 Y75.804
N21360 X83.607 Y75.895
N21365 X79.928 Y75.991
N21370 X79.507 Y76.001
N21375 X79.089 Y76.045
N21380 X78.675 Y76.121
N21385 X78.269 Y76.229
N21390 X77.872 Y76.368
N21395 X77.487 Y76.538
N21400 X77.117 Y76.738
N21405 X76.763 Y76.966
N21410 X76.429 Y77.221
N21415 X76.115 Y77.501
N21420 X75.825 Y77.805
N21425 X75.559 Y78.131
N21430 X75.319 Y78.477
N21435 X75.107 Y78.84
N21440 X74.924 Y79.219
N21445 X74.771 Y79.611
N21450 X74.65 Y80.014
N21455 X74.56 Y80.424
N21460 X74.503 Y80.841
N21465 X74.478 Y81.261
N21470 X74.486 Y81.682
N21475 X74.528 Y82.1
N21480 X74.601 Y82.514
N21485 X74.707 Y82.921
N21490 X74.845 Y83.319
N21495 X75.013 Y83.704
N21500 X75.804 Y85.189
N21505 X76.473 Y85.86
N21510 X77.185 Y86.698
N21515 X77.943 Y87.75
N21520 X78.74 Y89.069
N21525 X79.492 Y90.575
N21530 X80.132 Y92.13
N21535 X80.678 Y93.722
N21540 X81.144 Y95.338
N21545 X81.542 Y96.973
N21550 X81.881 Y98.621
N21555 X82.171 Y100.278
N21560 X82.419 Y101.942
N21565 X82.63 Y103.612
N21570 X82.81 Y105.284
N21575 X82.964 Y106.96
N21580 X83.096 Y108.637
N21585 X83.208 Y110.316
N21590 X83.304 Y111.996
N21595 X83.386 Y113.676
N21600 X83.456 Y115.357
N21605 X83.515 Y117.039
N21610 X83.566 Y118.72
N21615 X83.609 Y120.402
N21620 X83.646 Y122.084
N21625 X83.678 Y123.766
N21630 X83.705 Y125.449
N21635 X83.727 Y127.131
N21640 X83.747 Y128.813
N21645 X83.764 Y130.496
N21650 X83.778 Y132.178
N21655 X83.79 Y133.861
N21660 X83.8 Y135.543
N21665 X83.809 Y137.226
