%
(FLAT_END)
(T8  D=25. CR=0. - ZMIN=-100. - FLAT END MILL)
N10 G90 G94 G17 G91.1
N15 G21
N20 G53 G0 Z0.
(2D CONTOUR2)
N25 T8 M6
N30 S22000 M3
N35 G54
N40 G0 X545. Y327.5
N45 G43 Z25. H2
N50 G0 Z5.
N55 G1 Z1. F333.33
N60 Z-64.5
N65 G18 G3 X542.5 Z-67. I-2.5 K0. F1000.
N70 G1 X540.
N75 G17 G3 X537.5 Y325. I0. J-2.5
N80 G1 Y125. F6000.
N85 G2 X525. Y112.5 I-12.5 J0.
N90 G1 X125.
N95 G2 X112.5 Y125. I0. J12.5
N100 G1 Y525.
N105 G2 X125. Y537.5 I12.5 J0.
N110 G1 X525.
N115 G2 X537.5 Y525. I0. J-12.5
N120 G1 Y325.
N125 G3 X540. Y322.5 I2.5 J0. F1000.
N130 G1 X542.5
N135 G18 G2 X545. Z-64.5 I0. K2.5
N140 G0 Z25.
N145 G17
(2D CONTOUR3)
N150 G0 X80. Y322.5
N155 Z25.
N160 Z5.
N165 G1 Z1. F333.33
N170 Z-97.5
N175 G18 G2 X82.5 Z-100. I2.5 K0. F1000.
N180 G1 X85.
N185 G17 G3 X87.5 Y325. I0. J2.5
N190 G1 Y550. F6000.
N195 G2 X100. Y562.5 I12.5 J0.
N200 G1 X550.
N205 G2 X562.5 Y550. I0. J-12.5
N210 G1 Y100.
N215 G2 X550. Y87.5 I-12.5 J0.
N220 G1 X100.
N225 G2 X87.5 Y100. I0. J12.5
N230 G1 Y325.
N235 G3 X85. Y327.5 I-2.5 J0. F1000.
N240 G1 X82.5
N245 G18 G3 X80. Z-97.5 I0. K2.5
N250 G0 Z25.
N255 G17
N260 G53 G0 Z0.
N265 M30
%
