%
(FLAT_END)
(T2  D=25. CR=0. - ZMIN=-67. - FLAT END MILL)
N10 G90 G94 G17 G91.1
N15 G21
N20 G53 G0 Z0.
(2D CONTOUR2)
N25 T2 M6
N30 S22000 M3
N35 G54
N40 G0 X545. Y327.5
N45 G43 Z25. H2
N50 G0 Z5.
N55 G1 Z1. F333.33
N60 Z-64.5
N65 G18 G3 X542.5 Z-67. I-2.5 K0. F1000.
N70 G1 X540.
N75 G17 G3 X537.5 Y325. I0. J-2.5
N80 G1 Y125. F6000.
N85 G2 X525. Y112.5 I-12.5 J0.
N90 G1 X125.
N95 G2 X112.5 Y125. I0. J12.5
N100 G1 Y525.
N105 G2 X125. Y537.5 I12.5 J0.
N110 G1 X525.
N115 G2 X537.5 Y525. I0. J-12.5
N120 G1 Y325.
N125 G3 X540. Y322.5 I2.5 J0. F1000.
N130 G1 X542.5
N135 G18 G2 X545. Z-64.5 I0. K2.5
N140 G0 Z25.
N145 G17
N150 G53 G0 Z0.
N155 M30
%
